rezayati/contactInterpretation/dataset/franka_main/labeled_data/link6/b4_8.csv
index,time,tau_J0,tau_J1,tau_J2,tau_J3,tau_J4,tau_J5,tau_J6,tau_J_d0,tau_J_d1,tau_J_d2,tau_J_d3,tau_J_d4,tau_J_d5,tau_J_d6,tau_ext0,tau_ext1,tau_ext2,tau_ext3,tau_ext4,tau_ext5,tau_ext6,q0,q1,q2,q3,q4,q5,q6,q_d0,q_d1,q_d2,q_d3,q_d4,q_d5,q_d6,dq0,dq1,dq2,dq3,dq4,dq5,dq6,dq_d0,dq_d1,dq_d2,dq_d3,dq_d4,dq_d5,dq_d6,e0,e1,e2,e3,e4,e5,e6,de0,de1,de2,de3,de4,de5,de6,etau_J0,etau_J1,etau_J2,etau_J3,etau_J4,etau_J5,etau_J6,label
1,0.0,-0.4505855441093445,-22.871240615844727,-0.09756157547235489,14.080232620239258,0.2786155343055725,2.1197543144226074,-0.38577598333358765,0.0,0.0,0.0,0.0,0.0,0.0,0.0,-0.4533940668489584,-0.010934585781725743,-0.21448141631856418,0.2331363043199873,0.047529156087159394,-0.06340511789597178,-0.4011726424841835,1.6757459936267451,0.052312656231622165,0.0300984376055714,-2.7527101838965167,0.03418196477492745,2.766341953481811,0.7691952072651076,1.6754973547542302,0.052104326824870026,0.029969505109285054,-2.752394845125968,0.0342448039870148,2.7663679543071322,0.7691630533470046,-2.716517986701069e-05,0.0015245842332190368,-0.0011987660135655588,0.0004445345061773813,-3.133922948257249e-05,1.707734534851384e-05,-0.0005758522699370152,0.0,0.0,0.0,0.0,0.0,0.0,0.0,-0.0002486388725149169,-0.00020832940675213907,-0.0001289324962863471,0.00031533877054856774,6.283921208734972e-05,2.6000825321226273e-05,-3.2153918102961754e-05,2.716517986701069e-05,-0.0015245842332190368,0.0011987660135655588,-0.0004445345061773813,3.133922948257249e-05,-1.707734534851384e-05,0.0005758522699370152,0.4505855441093445,22.871240615844727,0.09756157547235489,-14.080232620239258,-0.2786155343055725,-2.1197543144226074,0.38577598333358765,0
2,0.004999876022338867,-0.4505855441093445,-22.871240615844727,-0.09756157547235489,14.080232620239258,0.2786155343055725,2.1197543144226074,-0.38577598333358765,0.0,0.0,0.0,0.0,0.0,0.0,0.0,-0.4533940668489584,-0.010934585781725743,-0.21448141631856418,0.2331363043199873,0.047529156087159394,-0.06340511789597178,-0.4011726424841835,1.6757459936267451,0.052312656231622165,0.0300984376055714,-2.7527101838965167,0.03418196477492745,2.766341953481811,0.7691952072651076,1.6754973547542302,0.052104326824870026,0.029969505109285054,-2.752394845125968,0.0342448039870148,2.7663679543071322,0.7691630533470046,-2.716517986701069e-05,0.0015245842332190368,-0.0011987660135655588,0.0004445345061773813,-3.133922948257249e-05,1.707734534851384e-05,-0.0005758522699370152,0.0,0.0,0.0,0.0,0.0,0.0,0.0,-0.0002486388725149169,-0.00020832940675213907,-0.0001289324962863471,0.00031533877054856774,6.283921208734972e-05,2.6000825321226273e-05,-3.2153918102961754e-05,2.716517986701069e-05,-0.0015245842332190368,0.0011987660135655588,-0.0004445345061773813,3.133922948257249e-05,-1.707734534851384e-05,0.0005758522699370152,0.4505855441093445,22.871240615844727,0.09756157547235489,-14.080232620239258,-0.2786155343055725,-2.1197543144226074,0.38577598333358765,0
3,0.009997844696044922,-0.4505855441093445,-22.871240615844727,-0.09756157547235489,14.080232620239258,0.2786155343055725,2.1197543144226074,-0.38577598333358765,0.0,0.0,0.0,0.0,0.0,0.0,0.0,-0.4533940668489584,-0.010934585781725743,-0.21448141631856418,0.2331363043199873,0.047529156087159394,-0.06340511789597178,-0.4011726424841835,1.6757459936267451,0.052312656231622165,0.0300984376055714,-2.7527101838965167,0.03418196477492745,2.766341953481811,0.7691952072651076,1.6754973547542302,0.052104326824870026,0.029969505109285054,-2.752394845125968,0.0342448039870148,2.7663679543071322,0.7691630533470046,-2.716517986701069e-05,0.0015245842332190368,-0.0011987660135655588,0.0004445345061773813,-3.133922948257249e-05,1.707734534851384e-05,-0.0005758522699370152,0.0,0.0,0.0,0.0,0.0,0.0,0.0,-0.0002486388725149169,-0.00020832940675213907,-0.0001289324962863471,0.00031533877054856774,6.283921208734972e-05,2.6000825321226273e-05,-3.2153918102961754e-05,2.716517986701069e-05,-0.0015245842332190368,0.0011987660135655588,-0.0004445345061773813,3.133922948257249e-05,-1.707734534851384e-05,0.0005758522699370152,0.4505855441093445,22.871240615844727,0.09756157547235489,-14.080232620239258,-0.2786155343055725,-2.1197543144226074,0.38577598333358765,0
4,0.014994621276855469,-0.4505855441093445,-22.871240615844727,-0.09756157547235489,14.080232620239258,0.2786155343055725,2.1197543144226074,-0.38577598333358765,0.0,0.0,0.0,0.0,0.0,0.0,0.0,-0.4533940668489584,-0.010934585781725743,-0.21448141631856418,0.2331363043199873,0.047529156087159394,-0.06340511789597178,-0.4011726424841835,1.6757459936267451,0.052312656231622165,0.0300984376055714,-2.7527101838965167,0.03418196477492745,2.766341953481811,0.7691952072651076,1.6754973547542302,0.052104326824870026,0.029969505109285054,-2.752394845125968,0.0342448039870148,2.7663679543071322,0.7691630533470046,-2.716517986701069e-05,0.0015245842332190368,-0.0011987660135655588,0.0004445345061773813,-3.133922948257249e-05,1.707734534851384e-05,-0.0005758522699370152,0.0,0.0,0.0,0.0,0.0,0.0,0.0,-0.0002486388725149169,-0.00020832940675213907,-0.0001289324962863471,0.00031533877054856774,6.283921208734972e-05,2.6000825321226273e-05,-3.2153918102961754e-05,2.716517986701069e-05,-0.0015245842332190368,0.0011987660135655588,-0.0004445345061773813,3.133922948257249e-05,-1.707734534851384e-05,0.0005758522699370152,0.4505855441093445,22.871240615844727,0.09756157547235489,-14.080232620239258,-0.2786155343055725,-2.1197543144226074,0.38577598333358765,0
5,0.019992828369140625,-0.3752071261405945,-22.847436904907227,-0.1491362750530243,14.108003616333008,0.2841086983680725,2.1261630058288574,-0.40591758489608765,0.0,0.0,0.0,0.0,0.0,0.0,0.0,-0.4506502957915824,-0.009673620303037495,-0.21509142174534673,0.23397284385668948,0.04743193164879308,-0.06397691098070046,-0.39990796760709196,1.6757407039132035,0.05231098579576141,0.030102055909118266,-2.7527121327383477,0.03418206471405238,2.766340181605375,0.7691974437734898,1.6754973547542302,0.052104326824870026,0.029969505109285054,-2.752394845125968,0.0342448039870148,2.7663679543071322,0.7691630533470046,-0.0014647951521611527,0.0007666031556588528,-7.098698854688983e-05,0.00015241169117259277,-4.5098067872898254e-05,-0.00028387035961898404,0.0005237326370535032,0.0,0.0,0.0,0.0,0.0,0.0,0.0,-0.0002433491589732828,-0.00020665897089138657,-0.0001325507998332122,0.0003172876123795909,6.273927296242265e-05,2.7772701757022844e-05,-3.439042648512025e-05,0.0014647951521611527,-0.0007666031556588528,7.098698854688983e-05,-0.00015241169117259277,4.5098067872898254e-05,0.00028387035961898404,-0.0005237326370535032,0.3752071261405945,22.847436904907227,0.1491362750530243,-14.108003616333008,-0.2841086983680725,-2.1261630058288574,0.40591758489608765,0
6,0.024990558624267578,-0.3752071261405945,-22.847436904907227,-0.1491362750530243,14.108003616333008,0.2841086983680725,2.1261630058288574,-0.40591758489608765,0.0,0.0,0.0,0.0,0.0,0.0,0.0,-0.4506502957915824,-0.009673620303037495,-0.21509142174534673,0.23397284385668948,0.04743193164879308,-0.06397691098070046,-0.39990796760709196,1.6757407039132035,0.05231098579576141,0.030102055909118266,-2.7527121327383477,0.03418206471405238,2.766340181605375,0.7691974437734898,1.6754973547542302,0.052104326824870026,0.029969505109285054,-2.752394845125968,0.0342448039870148,2.7663679543071322,0.7691630533470046,-0.0014647951521611527,0.0007666031556588528,-7.098698854688983e-05,0.00015241169117259277,-4.5098067872898254e-05,-0.00028387035961898404,0.0005237326370535032,0.0,0.0,0.0,0.0,0.0,0.0,0.0,-0.0002433491589732828,-0.00020665897089138657,-0.0001325507998332122,0.0003172876123795909,6.273927296242265e-05,2.7772701757022844e-05,-3.439042648512025e-05,0.0014647951521611527,-0.0007666031556588528,7.098698854688983e-05,-0.00015241169117259277,4.5098067872898254e-05,0.00028387035961898404,-0.0005237326370535032,0.3752071261405945,22.847436904907227,0.1491362750530243,-14.108003616333008,-0.2841086983680725,-2.1261630058288574,0.40591758489608765,0
7,0.029993534088134766,-0.4267818331718445,-22.819665908813477,-0.09756157547235489,14.080232620239258,0.2722068428993225,2.1197543144226074,-0.39218467473983765,0.0,0.0,0.0,0.0,0.0,0.0,0.0,-0.43959144451442683,-0.008310800643765506,-0.21078033541732127,0.23182117000880592,0.047453802929372,-0.06463616567580689,-0.39862845877453384,1.67574432319089,0.05230903695393027,0.030098436631949214,-2.7527101838965167,0.03418271631824625,2.766338773592429,0.7691959193481256,1.6754973547542302,0.052104326824870026,0.029969505109285054,-2.752394845125968,0.0342448039870148,2.7663679543071322,0.7691630533470046,0.0001249409845761525,0.00048603490693391744,-0.0003281005009523921,0.000520734335211776,0.00025069459676154343,7.613125380075296e-05,1.4551369166909785e-05,0.0,0.0,0.0,0.0,0.0,0.0,0.0,-0.00024696843665972246,-0.00020471012906024544,-0.00012893152266416075,0.00031533877054856774,6.208766876854982e-05,2.918071470325856e-05,-3.2866001120956945e-05,-0.0001249409845761525,-0.00048603490693391744,0.0003281005009523921,-0.000520734335211776,-0.00025069459676154343,-7.613125380075296e-05,-1.4551369166909785e-05,0.4267818331718445,22.819665908813477,0.09756157547235489,-14.080232620239258,-0.2722068428993225,-2.1197543144226074,0.39218467473983765,0
8,0.034993648529052734,-0.4267818331718445,-22.819665908813477,-0.09756157547235489,14.080232620239258,0.2722068428993225,2.1197543144226074,-0.39218467473983765,0.0,0.0,0.0,0.0,0.0,0.0,0.0,-0.43959144451442683,-0.008310800643765506,-0.21078033541732127,0.23182117000880592,0.047453802929372,-0.06463616567580689,-0.39862845877453384,1.67574432319089,0.05230903695393027,0.030098436631949214,-2.7527101838965167,0.03418271631824625,2.766338773592429,0.7691959193481256,1.6754973547542302,0.052104326824870026,0.029969505109285054,-2.752394845125968,0.0342448039870148,2.7663679543071322,0.7691630533470046,0.0001249409845761525,0.00048603490693391744,-0.0003281005009523921,0.000520734335211776,0.00025069459676154343,7.613125380075296e-05,1.4551369166909785e-05,0.0,0.0,0.0,0.0,0.0,0.0,0.0,-0.00024696843665972246,-0.00020471012906024544,-0.00012893152266416075,0.00031533877054856774,6.208766876854982e-05,2.918071470325856e-05,-3.2866001120956945e-05,-0.0001249409845761525,-0.00048603490693391744,0.0003281005009523921,-0.000520734335211776,-0.00025069459676154343,-7.613125380075296e-05,-1.4551369166909785e-05,0.4267818331718445,22.819665908813477,0.09756157547235489,-14.080232620239258,-0.2722068428993225,-2.1197543144226074,0.39218467473983765,0
9,0.04001021385192871,-0.4267818331718445,-22.819665908813477,-0.07375786453485489,14.080232620239258,0.2841086983680725,2.1133456230163574,-0.38577598333358765,0.0,0.0,0.0,0.0,0.0,0.0,0.0,-0.4408669269307252,-0.008967365025844044,-0.21141366599400127,0.22923173867888144,0.047762371366174124,-0.0651292430803375,-0.3980921179434402,1.67574432319089,0.05230927371682479,0.03009605404921294,-2.7527101838965167,0.034182077867769306,2.766342155829086,0.7691950895337409,1.6754973547542302,0.052104326824870026,0.029969505109285054,-2.752394845125968,0.0342448039870148,2.7663679543071322,0.7691630533470046,-6.729777105147967e-05,0.0004399460231946912,-0.0006490647176465442,-0.0002448558655284177,-0.00025741483410316867,0.00024253614934426277,-0.000668108280167791,0.0,0.0,0.0,0.0,0.0,0.0,0.0,-0.00024696843665972246,-0.0002049468919547645,-0.00012654893992788616,0.00031533877054856774,6.272611924549448e-05,2.579847804629054e-05,-3.203618673630615e-05,6.729777105147967e-05,-0.0004399460231946912,0.0006490647176465442,0.0002448558655284177,0.00025741483410316867,-0.00024253614934426277,0.000668108280167791,0.4267818331718445,22.819665908813477,0.07375786453485489,-14.080232620239258,-0.2841086983680725,-2.1133456230163574,0.38577598333358765,0
10,0.04499673843383789,-0.4267818331718445,-22.819665908813477,-0.07375786453485489,14.080232620239258,0.2841086983680725,2.1133456230163574,-0.38577598333358765,0.0,0.0,0.0,0.0,0.0,0.0,0.0,-0.4408669269307252,-0.008967365025844044,-0.21141366599400127,0.22923173867888144,0.047762371366174124,-0.0651292430803375,-0.3980921179434402,1.67574432319089,0.05230927371682479,0.03009605404921294,-2.7527101838965167,0.034182077867769306,2.766342155829086,0.7691950895337409,1.6754973547542302,0.052104326824870026,0.029969505109285054,-2.752394845125968,0.0342448039870148,2.7663679543071322,0.7691630533470046,-6.729777105147967e-05,0.0004399460231946912,-0.0006490647176465442,-0.0002448558655284177,-0.00025741483410316867,0.00024253614934426277,-0.000668108280167791,0.0,0.0,0.0,0.0,0.0,0.0,0.0,-0.00024696843665972246,-0.0002049468919547645,-0.00012654893992788616,0.00031533877054856774,6.272611924549448e-05,2.579847804629054e-05,-3.203618673630615e-05,6.729777105147967e-05,-0.0004399460231946912,0.0006490647176465442,0.0002448558655284177,0.00025741483410316867,-0.00024253614934426277,0.000668108280167791,0.4267818331718445,22.819665908813477,0.07375786453485489,-14.080232620239258,-0.2841086983680725,-2.1133456230163574,0.38577598333358765,0
11,0.05009770393371582,-0.4029781222343445,-22.772058486938477,-0.07375786453485489,14.056428909301758,0.2786155343055725,2.1325716972351074,-0.42605918645858765,0.0,0.0,0.0,0.0,0.0,0.0,0.0,-0.4388130067444047,-0.011462552928646499,-0.20684440612165578,0.23180944134040382,0.04732528575537346,-0.0650795808106002,-0.39780314736612854,1.6757426527550345,0.05230569608355627,0.03009437419218851,-2.7527085134606613,0.03418172801812064,2.7663401750897316,0.7691996773679036,1.6754973547542302,0.052104326824870026,0.029969505109285054,-2.752394845125968,0.0342448039870148,2.7663679543071322,0.7691630533470046,-0.0008863126205069741,-0.0006071438346870852,-0.0010487345885701591,0.0008804123988800507,-0.00012834852699302203,-0.0005238885666664858,0.0010298447012978492,0.0,0.0,0.0,0.0,0.0,0.0,0.0,-0.00024529800080430597,-0.0002013692586862459,-0.0001248690829034546,0.00031366833469315125,6.307596889416206e-05,2.7779217400603073e-05,-3.662402089898986e-05,0.0008863126205069741,0.0006071438346870852,0.0010487345885701591,-0.0008804123988800507,0.00012834852699302203,0.0005238885666664858,-0.0010298447012978492,0.4029781222343445,22.772058486938477,0.07375786453485489,-14.056428909301758,-0.2786155343055725,-2.1325716972351074,0.42605918645858765,0
12,0.05567288398742676,-0.4029781222343445,-22.772058486938477,-0.07375786453485489,14.056428909301758,0.2786155343055725,2.1325716972351074,-0.42605918645858765,0.0,0.0,0.0,0.0,0.0,0.0,0.0,-0.4388130067444047,-0.011462552928646499,-0.20684440612165578,0.23180944134040382,0.04732528575537346,-0.0650795808106002,-0.39780314736612854,1.6757426527550345,0.05230569608355627,0.03009437419218851,-2.7527085134606613,0.03418172801812064,2.7663401750897316,0.7691996773679036,1.6754973547542302,0.052104326824870026,0.029969505109285054,-2.752394845125968,0.0342448039870148,2.7663679543071322,0.7691630533470046,-0.0008863126205069741,-0.0006071438346870852,-0.0010487345885701591,0.0008804123988800507,-0.00012834852699302203,-0.0005238885666664858,0.0010298447012978492,0.0,0.0,0.0,0.0,0.0,0.0,0.0,-0.00024529800080430597,-0.0002013692586862459,-0.0001248690829034546,0.00031366833469315125,6.307596889416206e-05,2.7779217400603073e-05,-3.662402089898986e-05,0.0008863126205069741,0.0006071438346870852,0.0010487345885701591,-0.0008804123988800507,0.00012834852699302203,0.0005238885666664858,-0.0010298447012978492,0.4029781222343445,22.772058486938477,0.07375786453485489,-14.056428909301758,-0.2786155343055725,-2.1325716972351074,0.42605918645858765,0
13,0.05998969078063965,-0.4783565402030945,-22.772058486938477,-0.1491362750530243,14.080232620239258,0.2786155343055725,2.1133456230163574,-0.39218467473983765,0.0,0.0,0.0,0.0,0.0,0.0,0.0,-0.4426567952820598,-0.009907152808124799,-0.21049218919641835,0.2309743906794056,0.047378102807153634,-0.06474953644671641,-0.3977981489007933,1.6757479424685762,0.05230569608221975,0.030101265198343594,-2.7527101838965167,0.03418267652577772,2.766342311374913,0.7691955661353912,1.6754973547542302,0.052104326824870026,0.029969505109285054,-2.752394845125968,0.0342448039870148,2.7663679543071322,0.7691630533470046,0.0008431044845750934,-0.00025988494565629664,0.0002572306266464119,0.0004030416457112322,7.445622875498856e-05,0.0003393958598052768,0.00019045686545859328,0.0,0.0,0.0,0.0,0.0,0.0,0.0,-0.00025058771434594007,-0.00020136925734972472,-0.00013176008905853992,0.00031533877054856774,6.212746123707841e-05,2.5642932219405168e-05,-3.2512788386562796e-05,-0.0008431044845750934,0.00025988494565629664,-0.0002572306266464119,-0.0004030416457112322,-7.445622875498856e-05,-0.0003393958598052768,-0.00019045686545859328,0.4783565402030945,22.772058486938477,0.1491362750530243,-14.080232620239258,-0.2786155343055725,-2.1133456230163574,0.39218467473983765,0
14,0.06500554084777832,-0.4783565402030945,-22.772058486938477,-0.1491362750530243,14.080232620239258,0.2786155343055725,2.1133456230163574,-0.39218467473983765,0.0,0.0,0.0,0.0,0.0,0.0,0.0,-0.4426567952820598,-0.009907152808124799,-0.21049218919641835,0.2309743906794056,0.047378102807153634,-0.06474953644671641,-0.3977981489007933,1.6757479424685762,0.05230569608221975,0.030101265198343594,-2.7527101838965167,0.03418267652577772,2.766342311374913,0.7691955661353912,1.6754973547542302,0.052104326824870026,0.029969505109285054,-2.752394845125968,0.0342448039870148,2.7663679543071322,0.7691630533470046,0.0008431044845750934,-0.00025988494565629664,0.0002572306266464119,0.0004030416457112322,7.445622875498856e-05,0.0003393958598052768,0.00019045686545859328,0.0,0.0,0.0,0.0,0.0,0.0,0.0,-0.00025058771434594007,-0.00020136925734972472,-0.00013176008905853992,0.00031533877054856774,6.212746123707841e-05,2.5642932219405168e-05,-3.2512788386562796e-05,-0.0008431044845750934,0.00025988494565629664,-0.0002572306266464119,-0.0004030416457112322,-7.445622875498856e-05,-0.0003393958598052768,-0.00019045686545859328,0.4783565402030945,22.772058486938477,0.1491362750530243,-14.080232620239258,-0.2786155343055725,-2.1133456230163574,0.39218467473983765,0
15,0.0699920654296875,-0.4267818331718445,-22.795862197875977,-0.1491362750530243,14.131807327270508,0.2905173897743225,2.1133456230163574,-0.40591758489608765,0.0,0.0,0.0,0.0,0.0,0.0,0.0,-0.44306419080977544,-0.015368225918735677,-0.21285005532066348,0.23225129672828643,0.04753081817055667,-0.06389364687595388,-0.39628578793339025,1.67574432319089,0.05230736651807501,0.030101310974342932,-2.752713803174203,0.03418139648622778,2.766341606403044,0.7691974450635406,1.6754973547542302,0.052104326824870026,0.029969505109285054,-2.752394845125968,0.0342448039870148,2.7663679543071322,0.7691630533470046,-0.0010851227350184651,-0.0005639278182471791,0.00029760355310035855,-0.001125555816535348,-0.00033534473593387716,0.00020236402105487696,0.0004852485645839616,0.0,0.0,0.0,0.0,0.0,0.0,0.0,-0.00024696843665972246,-0.0002030396932049816,-0.00013180586505787822,0.0003189580482350074,6.340750078701746e-05,2.6347904088286356e-05,-3.439171653596418e-05,0.0010851227350184651,0.0005639278182471791,-0.00029760355310035855,0.001125555816535348,0.00033534473593387716,-0.00020236402105487696,-0.0004852485645839616,0.4267818331718445,22.795862197875977,0.1491362750530243,-14.131807327270508,-0.2905173897743225,-2.1133456230163574,0.40591758489608765,0
16,0.07558941841125488,-0.4267818331718445,-22.795862197875977,-0.1491362750530243,14.131807327270508,0.2905173897743225,2.1133456230163574,-0.40591758489608765,0.0,0.0,0.0,0.0,0.0,0.0,0.0,-0.44306419080977544,-0.015368225918735677,-0.21285005532066348,0.23225129672828643,0.04753081817055667,-0.06389364687595388,-0.39628578793339025,1.67574432319089,0.05230736651807501,0.030101310974342932,-2.752713803174203,0.03418139648622778,2.766341606403044,0.7691974450635406,1.6754973547542302,0.052104326824870026,0.029969505109285054,-2.752394845125968,0.0342448039870148,2.7663679543071322,0.7691630533470046,-0.0010851227350184651,-0.0005639278182471791,0.00029760355310035855,-0.001125555816535348,-0.00033534473593387716,0.00020236402105487696,0.0004852485645839616,0.0,0.0,0.0,0.0,0.0,0.0,0.0,-0.00024696843665972246,-0.0002030396932049816,-0.00013180586505787822,0.0003189580482350074,6.340750078701746e-05,2.6347904088286356e-05,-3.439171653596418e-05,0.0010851227350184651,0.0005639278182471791,-0.00029760355310035855,0.001125555816535348,0.00033534473593387716,-0.00020236402105487696,-0.0004852485645839616,0.4267818331718445,22.795862197875977,0.1491362750530243,-14.131807327270508,-0.2905173897743225,-2.1133456230163574,0.40591758489608765,0
17,0.07999014854431152,-0.4783565402030945,-22.819665908813477,-0.1491362750530243,14.131807327270508,0.2786155343055725,2.1261630058288574,-0.39218467473983765,0.0,0.0,0.0,0.0,0.0,0.0,0.0,-0.44893147664635713,-0.010682408323441372,-0.21755306807620703,0.22709811077738046,0.04775529257696447,-0.06461942643595497,-0.3965221577754785,1.6757479424685762,0.05230903699001667,0.030099927257192526,-2.752714058272271,0.0341848108034126,2.766340843560933,0.7691959192942983,1.6754973547542302,0.052104326824870026,0.029969505109285054,-2.752394845125968,0.0342448039870148,2.7663679543071322,0.7691630533470046,-0.000218537949877149,2.5933820439403766e-05,8.397972900110834e-05,-0.001170626480098037,-0.000191504326136979,2.3398689914702718e-05,0.00010618706159039457,0.0,0.0,0.0,0.0,0.0,0.0,0.0,-0.00025058771434594007,-0.0002047101651466432,-0.00013042214790747256,0.0003192131463030101,5.9993183602197186e-05,2.7110746199099367e-05,-3.2865947293680975e-05,0.000218537949877149,-2.5933820439403766e-05,-8.397972900110834e-05,0.001170626480098037,0.000191504326136979,-2.3398689914702718e-05,-0.00010618706159039457,0.4783565402030945,22.819665908813477,0.1491362750530243,-14.131807327270508,-0.2786155343055725,-2.1261630058288574,0.39218467473983765,0
18,0.08500957489013672,-0.4783565402030945,-22.819665908813477,-0.1491362750530243,14.131807327270508,0.2786155343055725,2.1261630058288574,-0.39218467473983765,0.0,0.0,0.0,0.0,0.0,0.0,0.0,-0.44893147664635713,-0.010682408323441372,-0.21755306807620703,0.22709811077738046,0.04775529257696447,-0.06461942643595497,-0.3965221577754785,1.6757479424685762,0.05230903699001667,0.030099927257192526,-2.752714058272271,0.0341848108034126,2.766340843560933,0.7691959192942983,1.6754973547542302,0.052104326824870026,0.029969505109285054,-2.752394845125968,0.0342448039870148,2.7663679543071322,0.7691630533470046,-0.000218537949877149,2.5933820439403766e-05,8.397972900110834e-05,-0.001170626480098037,-0.000191504326136979,2.3398689914702718e-05,0.00010618706159039457,0.0,0.0,0.0,0.0,0.0,0.0,0.0,-0.00025058771434594007,-0.0002047101651466432,-0.00013042214790747256,0.0003192131463030101,5.9993183602197186e-05,2.7110746199099367e-05,-3.2865947293680975e-05,0.000218537949877149,-2.5933820439403766e-05,-8.397972900110834e-05,0.001170626480098037,0.000191504326136979,-2.3398689914702718e-05,-0.00010618706159039457,0.4783565402030945,22.819665908813477,0.1491362750530243,-14.131807327270508,-0.2786155343055725,-2.1261630058288574,0.39218467473983765,0
19,0.09001350402832031,-0.4029781222343445,-22.819665908813477,-0.09756157547235489,14.056428909301758,0.2786155343055725,2.1197543144226074,-0.39950889348983765,0.0,0.0,0.0,0.0,0.0,0.0,0.0,-0.4502472169972452,-0.005720550724284479,-0.21656776805050512,0.22420129502816244,0.04643497396752483,-0.06503326015826573,-0.3969434035025045,1.6757426527550345,0.05230903695393047,0.03009763683419234,-2.7527085389719077,0.034181610135821876,2.7663415484235854,0.7691967200682647,1.6754973547542302,0.052104326824870026,0.029969505109285054,-2.752394845125968,0.0342448039870148,2.7663679543071322,0.7691630533470046,-0.0011834467602797574,0.0006410640298797158,-0.0010909787660130532,0.0005256542824473832,1.645232747478442e-05,3.183315399350245e-05,0.00018443497003049056,0.0,0.0,0.0,0.0,0.0,0.0,0.0,-0.00024529800080430597,-0.00020471012906044667,-0.00012813172490728705,0.0003136938459395999,6.319385119292475e-05,2.6405883546853914e-05,-3.3666721260039445e-05,0.0011834467602797574,-0.0006410640298797158,0.0010909787660130532,-0.0005256542824473832,-1.645232747478442e-05,-3.183315399350245e-05,-0.00018443497003049056,0.4029781222343445,22.819665908813477,0.09756157547235489,-14.056428909301758,-0.2786155343055725,-2.1197543144226074,0.39950889348983765,0
20,0.09499740600585938,-0.4029781222343445,-22.819665908813477,-0.09756157547235489,14.056428909301758,0.2786155343055725,2.1197543144226074,-0.39950889348983765,0.0,0.0,0.0,0.0,0.0,0.0,0.0,-0.4502472169972452,-0.005720550724284479,-0.21656776805050512,0.22420129502816244,0.04643497396752483,-0.06503326015826573,-0.3969434035025045,1.6757426527550345,0.05230903695393047,0.03009763683419234,-2.7527085389719077,0.034181610135821876,2.7663415484235854,0.7691967200682647,1.6754973547542302,0.052104326824870026,0.029969505109285054,-2.752394845125968,0.0342448039870148,2.7663679543071322,0.7691630533470046,-0.0011834467602797574,0.0006410640298797158,-0.0010909787660130532,0.0005256542824473832,1.645232747478442e-05,3.183315399350245e-05,0.00018443497003049056,0.0,0.0,0.0,0.0,0.0,0.0,0.0,-0.00024529800080430597,-0.00020471012906044667,-0.00012813172490728705,0.0003136938459395999,6.319385119292475e-05,2.6405883546853914e-05,-3.3666721260039445e-05,0.0011834467602797574,-0.0006410640298797158,0.0010909787660130532,-0.0005256542824473832,-1.645232747478442e-05,-3.183315399350245e-05,-0.00018443497003049056,0.4029781222343445,22.819665908813477,0.09756157547235489,-14.056428909301758,-0.2786155343055725,-2.1197543144226074,0.39950889348983765,0
21,0.10002589225769043,-0.4505855441093445,-22.819665908813477,-0.1491362750530243,14.080232620239258,0.2722068428993225,2.1197543144226074,-0.36471885442733765,0.0,0.0,0.0,0.0,0.0,0.0,0.0,-0.4439228328768302,-0.014116552583907701,-0.21194002411931656,0.22540554277606784,0.04579731109412997,-0.06422484425909017,-0.39666080996940734,1.6757459936267451,0.05230903695393027,0.03010181927967708,-2.7527101838966606,0.034182321707410486,2.766337243761409,0.7691928661366972,1.6754973547542302,0.052104326824870026,0.029969505109285054,-2.752394845125968,0.0342448039870148,2.7663679543071322,0.7691630533470046,0.0010781972575746618,-0.00010440083106453536,0.0007421936225764184,-9.765386743986693e-05,0.00036925845689039116,-3.554794669614347e-05,-0.0018408333602008646,0.0,0.0,0.0,0.0,0.0,0.0,0.0,-0.0002486388725149169,-0.00020471012906024544,-0.00013231417039202484,0.00031533877069245264,6.248227960431452e-05,3.071054572334475e-05,-2.9812789692607033e-05,-0.0010781972575746618,0.00010440083106453536,-0.0007421936225764184,9.765386743986693e-05,-0.00036925845689039116,3.554794669614347e-05,0.0018408333602008646,0.4505855441093445,22.819665908813477,0.1491362750530243,-14.080232620239258,-0.2722068428993225,-2.1197543144226074,0.36471885442733765,0
22,0.10500073432922363,-0.4505855441093445,-22.819665908813477,-0.1491362750530243,14.080232620239258,0.2722068428993225,2.1197543144226074,-0.36471885442733765,0.0,0.0,0.0,0.0,0.0,0.0,0.0,-0.4439228328768302,-0.014116552583907701,-0.21194002411931656,0.22540554277606784,0.04579731109412997,-0.06422484425909017,-0.39666080996940734,1.6757459936267451,0.05230903695393027,0.03010181927967708,-2.7527101838966606,0.034182321707410486,2.766337243761409,0.7691928661366972,1.6754973547542302,0.052104326824870026,0.029969505109285054,-2.752394845125968,0.0342448039870148,2.7663679543071322,0.7691630533470046,0.0010781972575746618,-0.00010440083106453536,0.0007421936225764184,-9.765386743986693e-05,0.00036925845689039116,-3.554794669614347e-05,-0.0018408333602008646,0.0,0.0,0.0,0.0,0.0,0.0,0.0,-0.0002486388725149169,-0.00020471012906024544,-0.00013231417039202484,0.00031533877069245264,6.248227960431452e-05,3.071054572334475e-05,-2.9812789692607033e-05,-0.0010781972575746618,0.00010440083106453536,-0.0007421936225764184,9.765386743986693e-05,-0.00036925845689039116,3.554794669614347e-05,0.0018408333602008646,0.4505855441093445,22.819665908813477,0.1491362750530243,-14.080232620239258,-0.2722068428993225,-2.1197543144226074,0.36471885442733765,0
23,0.10999369621276855,-0.4029781222343445,-22.795862197875977,-0.1253325641155243,14.080232620239258,0.2841086983680725,2.1133456230163574,-0.41965049505233765,0.0,0.0,0.0,0.0,0.0,0.0,0.0,-0.4435358515351991,-0.013049362801027897,-0.2146229648839465,0.22520740823359517,0.046190416766610745,-0.06456358355450184,-0.3980922756218255,1.6757426527900274,0.05230736651807501,0.030100122519277673,-2.7527101838965167,0.03418136757685814,2.766341601479454,0.7691989711059382,1.6754973547542302,0.052104326824870026,0.029969505109285054,-2.752394845125968,0.0342448039870148,2.7663679543071322,0.7691630533470046,-0.0005084293194986307,2.670481142530656e-05,0.00018837892837816948,0.0002029979996856649,-0.00020309784738320517,0.00011489798612087023,0.00044704982466554547,0.0,0.0,0.0,0.0,0.0,0.0,0.0,-0.00024529803579720344,-0.0002030396932049816,-0.00013061740999261925,0.00031533877054856774,6.343641015665868e-05,2.635282767826652e-05,-3.591775893352356e-05,0.0005084293194986307,-2.670481142530656e-05,-0.00018837892837816948,-0.0002029979996856649,0.00020309784738320517,-0.00011489798612087023,-0.00044704982466554547,0.4029781222343445,22.795862197875977,0.1253325641155243,-14.080232620239258,-0.2841086983680725,-2.1133456230163574,0.41965049505233765,0
24,0.11500144004821777,-0.4029781222343445,-22.795862197875977,-0.1253325641155243,14.080232620239258,0.2841086983680725,2.1133456230163574,-0.41965049505233765,0.0,0.0,0.0,0.0,0.0,0.0,0.0,-0.4435358515351991,-0.013049362801027897,-0.2146229648839465,0.22520740823359517,0.046190416766610745,-0.06456358355450184,-0.3980922756218255,1.6757426527900274,0.05230736651807501,0.030100122519277673,-2.7527101838965167,0.03418136757685814,2.766341601479454,0.7691989711059382,1.6754973547542302,0.052104326824870026,0.029969505109285054,-2.752394845125968,0.0342448039870148,2.7663679543071322,0.7691630533470046,-0.0005084293194986307,2.670481142530656e-05,0.00018837892837816948,0.0002029979996856649,-0.00020309784738320517,0.00011489798612087023,0.00044704982466554547,0.0,0.0,0.0,0.0,0.0,0.0,0.0,-0.00024529803579720344,-0.0002030396932049816,-0.00013061740999261925,0.00031533877054856774,6.343641015665868e-05,2.635282767826652e-05,-3.591775893352356e-05,0.0005084293194986307,-2.670481142530656e-05,-0.00018837892837816948,-0.0002029979996856649,0.00020309784738320517,-0.00011489798612087023,-0.00044704982466554547,0.4029781222343445,22.795862197875977,0.1253325641155243,-14.080232620239258,-0.2841086983680725,-2.1133456230163574,0.41965049505233765,0
25,0.11999034881591797,-0.4505855441093445,-22.795862197875977,-0.1491362750530243,14.108003616333008,0.2667136788368225,2.1261630058288574,-0.42605918645858765,0.0,0.0,0.0,0.0,0.0,0.0,0.0,-0.4425575545367887,-0.014085556393014924,-0.2134520464035597,0.22579464570531937,0.04650193482945762,-0.06489101803170101,-0.3993046724854179,1.6757459936267454,0.05230736651807501,0.030101974724470827,-2.7527121327383477,0.03418616933623664,2.766340136539311,0.7691996829674285,1.6754973547542302,0.052104326824870026,0.029969505109285054,-2.752394845125968,0.0342448039870148,2.7663679543071322,0.7691630533470046,0.00028008274308018524,-0.00022407000808474217,0.0007332074131265789,-0.000570346205695366,0.000358474691021186,-3.361888613898036e-05,0.001288416200749051,0.0,0.0,0.0,0.0,0.0,0.0,0.0,-0.00024863887251513894,-0.0002030396932049816,-0.0001324696151857735,0.0003172876123795909,5.863465077816238e-05,2.7817767821236572e-05,-3.6629620423833664e-05,-0.00028008274308018524,0.00022407000808474217,-0.0007332074131265789,0.000570346205695366,-0.000358474691021186,3.361888613898036e-05,-0.001288416200749051,0.4505855441093445,22.795862197875977,0.1491362750530243,-14.108003616333008,-0.2667136788368225,-2.1261630058288574,0.42605918645858765,0
26,0.12502169609069824,-0.4505855441093445,-22.795862197875977,-0.1491362750530243,14.108003616333008,0.2667136788368225,2.1261630058288574,-0.42605918645858765,0.0,0.0,0.0,0.0,0.0,0.0,0.0,-0.4425575545367887,-0.014085556393014924,-0.2134520464035597,0.22579464570531937,0.04650193482945762,-0.06489101803170101,-0.3993046724854179,1.6757459936267454,0.05230736651807501,0.030101974724470827,-2.7527121327383477,0.03418616933623664,2.766340136539311,0.7691996829674285,1.6754973547542302,0.052104326824870026,0.029969505109285054,-2.752394845125968,0.0342448039870148,2.7663679543071322,0.7691630533470046,0.00028008274308018524,-0.00022407000808474217,0.0007332074131265789,-0.000570346205695366,0.000358474691021186,-3.361888613898036e-05,0.001288416200749051,0.0,0.0,0.0,0.0,0.0,0.0,0.0,-0.00024863887251513894,-0.0002030396932049816,-0.0001324696151857735,0.0003172876123795909,5.863465077816238e-05,2.7817767821236572e-05,-3.6629620423833664e-05,-0.00028008274308018524,0.00022407000808474217,-0.0007332074131265789,0.000570346205695366,-0.000358474691021186,3.361888613898036e-05,-0.001288416200749051,0.4505855441093445,22.795862197875977,0.1491362750530243,-14.108003616333008,-0.2667136788368225,-2.1261630058288574,0.42605918645858765,0
27,0.13001656532287598,-0.4505855441093445,-22.795862197875977,-0.1491362750530243,14.108003616333008,0.2667136788368225,2.1261630058288574,-0.42605918645858765,0.0,0.0,0.0,0.0,0.0,0.0,0.0,-0.4425575545367887,-0.014085556393014924,-0.2134520464035597,0.22579464570531937,0.04650193482945762,-0.06489101803170101,-0.3993046724854179,1.6757459936267454,0.05230736651807501,0.030101974724470827,-2.7527121327383477,0.03418616933623664,2.766340136539311,0.7691996829674285,1.6754973547542302,0.052104326824870026,0.029969505109285054,-2.752394845125968,0.0342448039870148,2.7663679543071322,0.7691630533470046,0.00028008274308018524,-0.00022407000808474217,0.0007332074131265789,-0.000570346205695366,0.000358474691021186,-3.361888613898036e-05,0.001288416200749051,0.0,0.0,0.0,0.0,0.0,0.0,0.0,-0.00024863887251513894,-0.0002030396932049816,-0.0001324696151857735,0.0003172876123795909,5.863465077816238e-05,2.7817767821236572e-05,-3.6629620423833664e-05,-0.00028008274308018524,0.00022407000808474217,-0.0007332074131265789,0.000570346205695366,-0.000358474691021186,3.361888613898036e-05,-0.001288416200749051,0.4505855441093445,22.795862197875977,0.1491362750530243,-14.108003616333008,-0.2667136788368225,-2.1261630058288574,0.42605918645858765,0
28,0.13501334190368652,-0.4505855441093445,-22.795862197875977,-0.1491362750530243,14.108003616333008,0.2667136788368225,2.1261630058288574,-0.42605918645858765,0.0,0.0,0.0,0.0,0.0,0.0,0.0,-0.4425575545367887,-0.014085556393014924,-0.2134520464035597,0.22579464570531937,0.04650193482945762,-0.06489101803170101,-0.3993046724854179,1.6757459936267454,0.05230736651807501,0.030101974724470827,-2.7527121327383477,0.03418616933623664,2.766340136539311,0.7691996829674285,1.6754973547542302,0.052104326824870026,0.029969505109285054,-2.752394845125968,0.0342448039870148,2.7663679543071322,0.7691630533470046,0.00028008274308018524,-0.00022407000808474217,0.0007332074131265789,-0.000570346205695366,0.000358474691021186,-3.361888613898036e-05,0.001288416200749051,0.0,0.0,0.0,0.0,0.0,0.0,0.0,-0.00024863887251513894,-0.0002030396932049816,-0.0001324696151857735,0.0003172876123795909,5.863465077816238e-05,2.7817767821236572e-05,-3.6629620423833664e-05,-0.00028008274308018524,0.00022407000808474217,-0.0007332074131265789,0.000570346205695366,-0.000358474691021186,3.361888613898036e-05,-0.001288416200749051,0.4505855441093445,22.795862197875977,0.1491362750530243,-14.108003616333008,-0.2667136788368225,-2.1261630058288574,0.42605918645858765,0
29,0.14001250267028809,-0.4267818331718445,-22.772058486938477,-0.1253325641155243,14.080232620239258,0.2722068428993225,2.1133456230163574,-0.40591758489608765,0.0,0.0,0.0,0.0,0.0,0.0,0.0,-0.44107903762136236,-0.015418232883238372,-0.2109028720010764,0.22914200550142758,0.046096150849023444,-0.06411640240305544,-0.3995597967636143,1.67574432319089,0.05230577500318458,0.030097283670282183,-2.7527101838965167,0.034182453964308426,2.7663383881847268,0.7691974450655332,1.6754973547542302,0.052104326824870026,0.029969505109285054,-2.752394845125968,0.0342448039870148,2.7663679543071322,0.7691630533470046,-0.00034855425716763137,-0.0008472144906113783,-0.0001870850896586531,0.000589899745821794,0.0003074354518203393,0.0002516501967003973,0.00034207499437683754,0.0,0.0,0.0,0.0,0.0,0.0,0.0,-0.00024696843665972246,-0.00020144817831455747,-0.00012777856099712923,0.00031533877054856774,6.235002270637419e-05,2.956612240545553e-05,-3.439171852859246e-05,0.00034855425716763137,0.0008472144906113783,0.0001870850896586531,-0.000589899745821794,-0.0003074354518203393,-0.0002516501967003973,-0.00034207499437683754,0.4267818331718445,22.772058486938477,0.1253325641155243,-14.080232620239258,-0.2722068428993225,-2.1133456230163574,0.40591758489608765,0
30,0.14500808715820312,-0.4267818331718445,-22.772058486938477,-0.1253325641155243,14.080232620239258,0.2722068428993225,2.1133456230163574,-0.40591758489608765,0.0,0.0,0.0,0.0,0.0,0.0,0.0,-0.44107903762136236,-0.015418232883238372,-0.2109028720010764,0.22914200550142758,0.046096150849023444,-0.06411640240305544,-0.3995597967636143,1.67574432319089,0.05230577500318458,0.030097283670282183,-2.7527101838965167,0.034182453964308426,2.7663383881847268,0.7691974450655332,1.6754973547542302,0.052104326824870026,0.029969505109285054,-2.752394845125968,0.0342448039870148,2.7663679543071322,0.7691630533470046,-0.00034855425716763137,-0.0008472144906113783,-0.0001870850896586531,0.000589899745821794,0.0003074354518203393,0.0002516501967003973,0.00034207499437683754,0.0,0.0,0.0,0.0,0.0,0.0,0.0,-0.00024696843665972246,-0.00020144817831455747,-0.00012777856099712923,0.00031533877054856774,6.235002270637419e-05,2.956612240545553e-05,-3.439171852859246e-05,0.00034855425716763137,0.0008472144906113783,0.0001870850896586531,-0.000589899745821794,-0.0003074354518203393,-0.0002516501967003973,-0.00034207499437683754,0.4267818331718445,22.772058486938477,0.1253325641155243,-14.080232620239258,-0.2722068428993225,-2.1133456230163574,0.40591758489608765,0
31,0.1500086784362793,-0.4267818331718445,-22.772058486938477,-0.1253325641155243,14.131807327270508,0.2841086983680725,2.1197543144226074,-0.43338340520858765,0.0,0.0,0.0,0.0,0.0,0.0,0.0,-0.44215786112607935,-0.012101230587021734,-0.21203568408089124,0.22832624449940755,0.046191620630982526,-0.06432636374565547,-0.4008327735432591,1.67574432319089,0.05230569608355627,0.030098253848899706,-2.752713803174203,0.034180999281261996,2.766340854848415,0.7691994368622038,1.6754973547542302,0.052104326824870026,0.029969505109285054,-2.752394845125968,0.0342448039870148,2.7663679543071322,0.7691630533470046,-0.0004168287119784579,-0.0006283270741046032,-0.0005056142004348335,-0.0008509291562646597,-0.0002565126476165017,0.0001367968546578611,0.0013419975899027752,0.0,0.0,0.0,0.0,0.0,0.0,0.0,-0.00024696843665972246,-0.0002013692586862459,-0.00012874873961465222,0.0003189580482350074,6.380470575280406e-05,2.7099458717039226e-05,-3.638351519918981e-05,0.0004168287119784579,0.0006283270741046032,0.0005056142004348335,0.0008509291562646597,0.0002565126476165017,-0.0001367968546578611,-0.0013419975899027752,0.4267818331718445,22.772058486938477,0.1253325641155243,-14.131807327270508,-0.2841086983680725,-2.1197543144226074,0.43338340520858765,0
32,0.15500235557556152,-0.4267818331718445,-22.772058486938477,-0.1253325641155243,14.131807327270508,0.2841086983680725,2.1197543144226074,-0.43338340520858765,0.0,0.0,0.0,0.0,0.0,0.0,0.0,-0.44215786112607935,-0.012101230587021734,-0.21203568408089124,0.22832624449940755,0.046191620630982526,-0.06432636374565547,-0.4008327735432591,1.67574432319089,0.05230569608355627,0.030098253848899706,-2.752713803174203,0.034180999281261996,2.766340854848415,0.7691994368622038,1.6754973547542302,0.052104326824870026,0.029969505109285054,-2.752394845125968,0.0342448039870148,2.7663679543071322,0.7691630533470046,-0.0004168287119784579,-0.0006283270741046032,-0.0005056142004348335,-0.0008509291562646597,-0.0002565126476165017,0.0001367968546578611,0.0013419975899027752,0.0,0.0,0.0,0.0,0.0,0.0,0.0,-0.00024696843665972246,-0.0002013692586862459,-0.00012874873961465222,0.0003189580482350074,6.380470575280406e-05,2.7099458717039226e-05,-3.638351519918981e-05,0.0004168287119784579,0.0006283270741046032,0.0005056142004348335,0.0008509291562646597,0.0002565126476165017,-0.0001367968546578611,-0.0013419975899027752,0.4267818331718445,22.772058486938477,0.1253325641155243,-14.131807327270508,-0.2841086983680725,-2.1197543144226074,0.43338340520858765,0
33,0.15999269485473633,-0.4505855441093445,-22.819665908813477,-0.1729399859905243,14.080232620239258,0.2786155343055725,2.1325716972351074,-0.42605918645858765,0.0,0.0,0.0,0.0,0.0,0.0,0.0,-0.44348242947430017,-0.011195985623759052,-0.21404401346575416,0.22685492513128827,0.04640855600942068,-0.0642596286101157,-0.402272148548731,1.6757459936267451,0.05231124674094584,0.030103451731175,-2.7527101838965167,0.034183030207951874,2.7663403592027715,0.7691964999017461,1.6754973547542302,0.052104326824870026,0.029969505109285054,-2.752394845125968,0.0342448039870148,2.7663679543071322,0.7691630533470046,0.0001212272907538415,0.0004562948059240001,0.0009462484188173609,0.0001330280158236398,0.00012240757536922107,-0.00034229129486648257,0.0011669844904308878,0.0,0.0,0.0,0.0,0.0,0.0,0.0,-0.0002486388725149169,-0.00020691991607581228,-0.00013394662188994516,0.00031533877054856774,6.177377906292636e-05,2.7595104360678135e-05,-3.3446554741467516e-05,-0.0001212272907538415,-0.0004562948059240001,-0.0009462484188173609,-0.0001330280158236398,-0.00012240757536922107,0.00034229129486648257,-0.0011669844904308878,0.4505855441093445,22.819665908813477,0.1729399859905243,-14.080232620239258,-0.2786155343055725,-2.1325716972351074,0.42605918645858765,0
34,0.16499853134155273,-0.4505855441093445,-22.819665908813477,-0.1729399859905243,14.080232620239258,0.2786155343055725,2.1325716972351074,-0.42605918645858765,0.0,0.0,0.0,0.0,0.0,0.0,0.0,-0.44348242947430017,-0.011195985623759052,-0.21404401346575416,0.22685492513128827,0.04640855600942068,-0.0642596286101157,-0.402272148548731,1.6757459936267451,0.05231124674094584,0.030103451731175,-2.7527101838965167,0.034183030207951874,2.7663403592027715,0.7691964999017461,1.6754973547542302,0.052104326824870026,0.029969505109285054,-2.752394845125968,0.0342448039870148,2.7663679543071322,0.7691630533470046,0.0001212272907538415,0.0004562948059240001,0.0009462484188173609,0.0001330280158236398,0.00012240757536922107,-0.00034229129486648257,0.0011669844904308878,0.0,0.0,0.0,0.0,0.0,0.0,0.0,-0.0002486388725149169,-0.00020691991607581228,-0.00013394662188994516,0.00031533877054856774,6.177377906292636e-05,2.7595104360678135e-05,-3.3446554741467516e-05,-0.0001212272907538415,-0.0004562948059240001,-0.0009462484188173609,-0.0001330280158236398,-0.00012240757536922107,0.00034229129486648257,-0.0011669844904308878,0.4505855441093445,22.819665908813477,0.1729399859905243,-14.080232620239258,-0.2786155343055725,-2.1325716972351074,0.42605918645858765,0
35,0.1699974536895752,-0.4505855441093445,-22.819665908813477,-0.1253325641155243,14.056428909301758,0.2786155343055725,2.1133456230163574,-0.41324180364608765,0.0,0.0,0.0,0.0,0.0,0.0,0.0,-0.44279542415150613,-0.016700090550912827,-0.21409948312576751,0.22924644242784048,0.046966851544405906,-0.06335029333225034,-0.4029582966224095,1.6757459936267451,0.052309115912318044,0.03009754694331129,-2.7527085134606613,0.034186239684579685,2.7663426655557695,0.7691950800608264,1.6754973547542302,0.052104326824870026,0.029969505109285054,-2.752394845125968,0.0342448039870148,2.7663679543071322,0.7691630533470046,-0.000352061591969977,-9.511560743792857e-05,-0.00014265955321681703,0.0005305469934043311,3.3345424596009224e-05,0.00016928262885122338,-0.0001087156518320029,0.0,0.0,0.0,0.0,0.0,0.0,0.0,-0.0002486388725149169,-0.00020478908744801794,-0.00012804183402623584,0.00031366833469315125,5.856430243511568e-05,2.5288751362761985e-05,-3.202671382174227e-05,0.000352061591969977,9.511560743792857e-05,0.00014265955321681703,-0.0005305469934043311,-3.3345424596009224e-05,-0.00016928262885122338,0.0001087156518320029,0.4505855441093445,22.819665908813477,0.1253325641155243,-14.056428909301758,-0.2786155343055725,-2.1133456230163574,0.41324180364608765,0
36,0.17502617835998535,-0.4505855441093445,-22.819665908813477,-0.1253325641155243,14.056428909301758,0.2786155343055725,2.1133456230163574,-0.41324180364608765,0.0,0.0,0.0,0.0,0.0,0.0,0.0,-0.44279542415150613,-0.016700090550912827,-0.21409948312576751,0.22924644242784048,0.046966851544405906,-0.06335029333225034,-0.4029582966224095,1.6757459936267451,0.052309115912318044,0.03009754694331129,-2.7527085134606613,0.034186239684579685,2.7663426655557695,0.7691950800608264,1.6754973547542302,0.052104326824870026,0.029969505109285054,-2.752394845125968,0.0342448039870148,2.7663679543071322,0.7691630533470046,-0.000352061591969977,-9.511560743792857e-05,-0.00014265955321681703,0.0005305469934043311,3.3345424596009224e-05,0.00016928262885122338,-0.0001087156518320029,0.0,0.0,0.0,0.0,0.0,0.0,0.0,-0.0002486388725149169,-0.00020478908744801794,-0.00012804183402623584,0.00031366833469315125,5.856430243511568e-05,2.5288751362761985e-05,-3.202671382174227e-05,0.000352061591969977,9.511560743792857e-05,0.00014265955321681703,-0.0005305469934043311,-3.3345424596009224e-05,-0.00016928262885122338,0.0001087156518320029,0.4505855441093445,22.819665908813477,0.1253325641155243,-14.056428909301758,-0.2786155343055725,-2.1133456230163574,0.41324180364608765,0
37,0.18002581596374512,-0.4783565402030945,-22.795862197875977,-0.1729399859905243,14.108003616333008,0.2841086983680725,2.1197543144226074,-0.37204307317733765,0.0,0.0,0.0,0.0,0.0,0.0,0.0,-0.44449661815640196,-0.013026700783094623,-0.21468276664875294,0.22728794676114733,0.04652286422698277,-0.0643158734980201,-0.4049649065468941,1.6757479424685762,0.052308076806907154,0.030103718513444278,-2.7527121327383477,0.034180999774900925,2.7663419539125162,0.7691926212458317,1.6754973547542302,0.052104326824870026,0.029969505109285054,-2.752394845125968,0.0342448039870148,2.7663679543071322,0.7691630533470046,0.0005952322364881424,-0.00034669785885792735,0.0011474737964557381,-0.0004221278234966232,-0.00020715348941941297,0.00010182656034560521,-0.0010399438696903163,0.0,0.0,0.0,0.0,0.0,0.0,0.0,-0.00025058771434594007,-0.0002037499820371283,-0.00013421340415922453,0.0003172876123795909,6.380421211387571e-05,2.600039461597703e-05,-2.9567898827020933e-05,-0.0005952322364881424,0.00034669785885792735,-0.0011474737964557381,0.0004221278234966232,0.00020715348941941297,-0.00010182656034560521,0.0010399438696903163,0.4783565402030945,22.795862197875977,0.1729399859905243,-14.108003616333008,-0.2841086983680725,-2.1197543144226074,0.37204307317733765,0
38,0.18499279022216797,-0.4783565402030945,-22.795862197875977,-0.1729399859905243,14.108003616333008,0.2841086983680725,2.1197543144226074,-0.37204307317733765,0.0,0.0,0.0,0.0,0.0,0.0,0.0,-0.44449661815640196,-0.013026700783094623,-0.21468276664875294,0.22728794676114733,0.04652286422698277,-0.0643158734980201,-0.4049649065468941,1.6757479424685762,0.052308076806907154,0.030103718513444278,-2.7527121327383477,0.034180999774900925,2.7663419539125162,0.7691926212458317,1.6754973547542302,0.052104326824870026,0.029969505109285054,-2.752394845125968,0.0342448039870148,2.7663679543071322,0.7691630533470046,0.0005952322364881424,-0.00034669785885792735,0.0011474737964557381,-0.0004221278234966232,-0.00020715348941941297,0.00010182656034560521,-0.0010399438696903163,0.0,0.0,0.0,0.0,0.0,0.0,0.0,-0.00025058771434594007,-0.0002037499820371283,-0.00013421340415922453,0.0003172876123795909,6.380421211387571e-05,2.600039461597703e-05,-2.9567898827020933e-05,-0.0005952322364881424,0.00034669785885792735,-0.0011474737964557381,0.0004221278234966232,0.00020715348941941297,-0.00010182656034560521,0.0010399438696903163,0.4783565402030945,22.795862197875977,0.1729399859905243,-14.108003616333008,-0.2841086983680725,-2.1197543144226074,0.37204307317733765,0
39,0.1900036334991455,-0.4267818331718445,-22.819665908813477,-0.1491362750530243,14.080232620239258,0.2841086983680725,2.1261630058288574,-0.38577598333358765,0.0,0.0,0.0,0.0,0.0,0.0,0.0,-0.44628930095912855,-0.015289638776146192,-0.21638878884254437,0.2293994920146339,0.04672778530135315,-0.06349951168425465,-0.40576938069005153,1.67574432319089,0.05230903695793987,0.030101950309652598,-2.7527101838965167,0.034181157120954694,2.7663396960657605,0.7691952072114911,1.6754973547542302,0.052104326824870026,0.029969505109285054,-2.752394845125968,0.0342448039870148,2.7663679543071322,0.7691630533470046,-0.00035573291324078463,0.00043144405575740104,-6.48776191379162e-05,0.00016148410754873098,-0.00024295811735938066,-5.118734145397673e-05,-0.0009747775463364039,0.0,0.0,0.0,0.0,0.0,0.0,0.0,-0.00024696843665972246,-0.00020471013306984365,-0.00013244520036754387,0.00031533877054856774,6.364686606010611e-05,2.825824137175914e-05,-3.2153864486517136e-05,0.00035573291324078463,-0.00043144405575740104,6.48776191379162e-05,-0.00016148410754873098,0.00024295811735938066,5.118734145397673e-05,0.0009747775463364039,0.4267818331718445,22.819665908813477,0.1491362750530243,-14.080232620239258,-0.2841086983680725,-2.1261630058288574,0.38577598333358765,0
40,0.19501876831054688,-0.4267818331718445,-22.819665908813477,-0.1491362750530243,14.080232620239258,0.2841086983680725,2.1261630058288574,-0.38577598333358765,0.0,0.0,0.0,0.0,0.0,0.0,0.0,-0.44628930095912855,-0.015289638776146192,-0.21638878884254437,0.2293994920146339,0.04672778530135315,-0.06349951168425465,-0.40576938069005153,1.67574432319089,0.05230903695793987,0.030101950309652598,-2.7527101838965167,0.034181157120954694,2.7663396960657605,0.7691952072114911,1.6754973547542302,0.052104326824870026,0.029969505109285054,-2.752394845125968,0.0342448039870148,2.7663679543071322,0.7691630533470046,-0.00035573291324078463,0.00043144405575740104,-6.48776191379162e-05,0.00016148410754873098,-0.00024295811735938066,-5.118734145397673e-05,-0.0009747775463364039,0.0,0.0,0.0,0.0,0.0,0.0,0.0,-0.00024696843665972246,-0.00020471013306984365,-0.00013244520036754387,0.00031533877054856774,6.364686606010611e-05,2.825824137175914e-05,-3.2153864486517136e-05,0.00035573291324078463,-0.00043144405575740104,6.48776191379162e-05,-0.00016148410754873098,0.00024295811735938066,5.118734145397673e-05,0.0009747775463364039,0.4267818331718445,22.819665908813477,0.1491362750530243,-14.080232620239258,-0.2841086983680725,-2.1261630058288574,0.38577598333358765,0
41,0.19999170303344727,-0.4267818331718445,-22.847436904907227,-0.1491362750530243,14.080232620239258,0.2603049874305725,2.1197543144226074,-0.43338340520858765,0.0,0.0,0.0,0.0,0.0,0.0,0.0,-0.4434464625832958,-0.013667755567139292,-0.21646644475080642,0.22898036508681074,0.04654853656257448,-0.06346198642775375,-0.4063121155227794,1.675746389520235,0.05231106471672626,0.030101110274803475,-2.7527101838965167,0.034183644136090055,2.7663387749952206,0.7692004969848525,1.6754973547542302,0.052104326824870026,0.029969505109285054,-2.752394845125968,0.0342448039870148,2.7663679543071322,0.7691630533470046,-1.8039807467244735e-05,0.0011091932976268779,0.0005482652691893115,-5.1644249517989904e-05,0.0006828307151359154,0.00014841323218514683,0.000749233016816048,0.0,0.0,0.0,0.0,0.0,0.0,0.0,-0.00024903476600468544,-0.0002067378918562332,-0.0001316051655184218,0.00031533877054856774,6.115985092474546e-05,2.917931191159795e-05,-3.744363784785598e-05,1.8039807467244735e-05,-0.0011091932976268779,-0.0005482652691893115,5.1644249517989904e-05,-0.0006828307151359154,-0.00014841323218514683,-0.000749233016816048,0.4267818331718445,22.847436904907227,0.1491362750530243,-14.080232620239258,-0.2603049874305725,-2.1197543144226074,0.43338340520858765,0
42,0.20501041412353516,-0.4267818331718445,-22.847436904907227,-0.1491362750530243,14.080232620239258,0.2603049874305725,2.1197543144226074,-0.43338340520858765,0.0,0.0,0.0,0.0,0.0,0.0,0.0,-0.4434464625832958,-0.013667755567139292,-0.21646644475080642,0.22898036508681074,0.04654853656257448,-0.06346198642775375,-0.4063121155227794,1.675746389520235,0.05231106471672626,0.030101110274803475,-2.7527101838965167,0.034183644136090055,2.7663387749952206,0.7692004969848525,1.6754973547542302,0.052104326824870026,0.029969505109285054,-2.752394845125968,0.0342448039870148,2.7663679543071322,0.7691630533470046,-1.8039807467244735e-05,0.0011091932976268779,0.0005482652691893115,-5.1644249517989904e-05,0.0006828307151359154,0.00014841323218514683,0.000749233016816048,0.0,0.0,0.0,0.0,0.0,0.0,0.0,-0.00024903476600468544,-0.0002067378918562332,-0.0001316051655184218,0.00031533877054856774,6.115985092474546e-05,2.917931191159795e-05,-3.744363784785598e-05,1.8039807467244735e-05,-0.0011091932976268779,-0.0005482652691893115,5.1644249517989904e-05,-0.0006828307151359154,-0.00014841323218514683,-0.000749233016816048,0.4267818331718445,22.847436904907227,0.1491362750530243,-14.080232620239258,-0.2603049874305725,-2.1197543144226074,0.43338340520858765,0
43,0.20998811721801758,-0.4267818331718445,-22.819665908813477,-0.09756157547235489,14.108003616333008,0.2841086983680725,2.1325716972351074,-0.38577598333358765,0.0,0.0,0.0,0.0,0.0,0.0,0.0,-0.43832579118426784,-0.013009860828547404,-0.21669005901793117,0.22974700475023818,0.04654218573989228,-0.0637309612392347,-0.4085613344896601,1.6757445527908157,0.052309036954375776,0.030096043761156745,-2.7527121327383477,0.034182463701369833,2.7663373492653176,0.7691950498033675,1.6754973547542302,0.052104326824870026,0.029969505109285054,-2.752394845125968,0.0342448039870148,2.7663679543071322,0.7691630533470046,5.7576393590406326e-05,0.00032999313946760554,-0.00025194921459915665,-0.00028987700485373305,2.524481896064329e-06,-0.0005117921256044028,-0.0009286493189201524,0.0,0.0,0.0,0.0,0.0,0.0,0.0,-0.0002471980365854609,-0.00020471012950575018,-0.000126538651871691,0.0003172876123795909,6.234028564496702e-05,3.06050418146242e-05,-3.199645636287052e-05,-5.7576393590406326e-05,-0.00032999313946760554,0.00025194921459915665,0.00028987700485373305,-2.524481896064329e-06,0.0005117921256044028,0.0009286493189201524,0.4267818331718445,22.819665908813477,0.09756157547235489,-14.108003616333008,-0.2841086983680725,-2.1325716972351074,0.38577598333358765,0
44,0.21503996849060059,-0.4267818331718445,-22.819665908813477,-0.09756157547235489,14.108003616333008,0.2841086983680725,2.1325716972351074,-0.38577598333358765,0.0,0.0,0.0,0.0,0.0,0.0,0.0,-0.43832579118426784,-0.013009860828547404,-0.21669005901793117,0.22974700475023818,0.04654218573989228,-0.0637309612392347,-0.4085613344896601,1.6757445527908157,0.052309036954375776,0.030096043761156745,-2.7527121327383477,0.034182463701369833,2.7663373492653176,0.7691950498033675,1.6754973547542302,0.052104326824870026,0.029969505109285054,-2.752394845125968,0.0342448039870148,2.7663679543071322,0.7691630533470046,5.7576393590406326e-05,0.00032999313946760554,-0.00025194921459915665,-0.00028987700485373305,2.524481896064329e-06,-0.0005117921256044028,-0.0009286493189201524,0.0,0.0,0.0,0.0,0.0,0.0,0.0,-0.0002471980365854609,-0.00020471012950575018,-0.000126538651871691,0.0003172876123795909,6.234028564496702e-05,3.06050418146242e-05,-3.199645636287052e-05,-5.7576393590406326e-05,-0.00032999313946760554,0.00025194921459915665,0.00028987700485373305,-2.524481896064329e-06,0.0005117921256044028,0.0009286493189201524,0.4267818331718445,22.819665908813477,0.09756157547235489,-14.108003616333008,-0.2841086983680725,-2.1325716972351074,0.38577598333358765,0
45,0.22001957893371582,-0.3752071261405945,-22.819665908813477,-0.1253325641155243,14.056428909301758,0.2786155343055725,2.1261630058288574,-0.37845176458358765,0.0,0.0,0.0,0.0,0.0,0.0,0.0,-0.43534201648236936,0.0141234373726175,-0.21602229984257298,0.18219671433104548,0.04613363973445944,-0.07019202173558757,-0.40801637461631807,1.6757407039144996,0.05230903695393027,0.03009933379343497,-2.7527085134606613,0.03418172802029868,2.7663369634271793,0.769194392983822,1.6754973547542302,0.052104326824870026,0.029969505109285054,-2.752394845125968,0.0342448039870148,2.7663679543071322,0.7691630533470046,-0.0008464053675317332,0.0005800709664889413,-8.949594329493412e-05,0.001888871008133069,0.00014715402425384604,-0.000314227407695,-0.001186217120845685,0.0,0.0,0.0,0.0,0.0,0.0,0.0,-0.00024334916026935716,-0.00020471012906024544,-0.00012982868414991577,0.00031366833469315125,6.307596671611959e-05,3.0990879952952355e-05,-3.13396368173402e-05,0.0008464053675317332,-0.0005800709664889413,8.949594329493412e-05,-0.001888871008133069,-0.00014715402425384604,0.000314227407695,0.001186217120845685,0.3752071261405945,22.819665908813477,0.1253325641155243,-14.056428909301758,-0.2786155343055725,-2.1261630058288574,0.37845176458358765,0
46,0.22504091262817383,-0.3752071261405945,-22.819665908813477,-0.1253325641155243,14.056428909301758,0.2786155343055725,2.1261630058288574,-0.37845176458358765,0.0,0.0,0.0,0.0,0.0,0.0,0.0,-0.43534201648236936,0.0141234373726175,-0.21602229984257298,0.18219671433104548,0.04613363973445944,-0.07019202173558757,-0.40801637461631807,1.6757407039144996,0.05230903695393027,0.03009933379343497,-2.7527085134606613,0.03418172802029868,2.7663369634271793,0.769194392983822,1.6754973547542302,0.052104326824870026,0.029969505109285054,-2.752394845125968,0.0342448039870148,2.7663679543071322,0.7691630533470046,-0.0008464053675317332,0.0005800709664889413,-8.949594329493412e-05,0.001888871008133069,0.00014715402425384604,-0.000314227407695,-0.001186217120845685,0.0,0.0,0.0,0.0,0.0,0.0,0.0,-0.00024334916026935716,-0.00020471012906024544,-0.00012982868414991577,0.00031366833469315125,6.307596671611959e-05,3.0990879952952355e-05,-3.13396368173402e-05,0.0008464053675317332,-0.0005800709664889413,8.949594329493412e-05,-0.001888871008133069,-0.00014715402425384604,0.000314227407695,0.001186217120845685,0.3752071261405945,22.819665908813477,0.1253325641155243,-14.056428909301758,-0.2786155343055725,-2.1261630058288574,0.37845176458358765,0
47,0.23001980781555176,-0.4505855441093445,-22.819665908813477,-0.1491362750530243,14.108003616333008,0.2786155343055725,2.1325716972351074,-0.41965049505233765,0.0,0.0,0.0,0.0,0.0,0.0,0.0,-0.4355801386243338,-0.010023974757578926,-0.21900050128481174,0.2236083736991574,0.047623589620090896,-0.06367155094856079,-0.4060806235466393,1.6757459936267451,0.05230903695393027,0.030101811488134348,-2.7527121327383477,0.03418481031482715,2.7663391154841657,0.7691989274994363,1.6754973547542302,0.052104326824870026,0.029969505109285054,-2.752394845125968,0.0342448039870148,2.7663679543071322,0.7691630533470046,0.0005304744471359414,0.0003134341695844093,2.4071475154749258e-06,-0.0008185531369234314,9.171714092559781e-05,-0.00046597403188318996,0.0009407367401161284,0.0,0.0,0.0,0.0,0.0,0.0,0.0,-0.0002486388725149169,-0.00020471012906024544,-0.0001323063788492944,0.0003172876123795909,5.999367218764706e-05,2.8838822966559263e-05,-3.587415243166969e-05,-0.0005304744471359414,-0.0003134341695844093,-2.4071475154749258e-06,0.0008185531369234314,-9.171714092559781e-05,0.00046597403188318996,-0.0009407367401161284,0.4505855441093445,22.819665908813477,0.1491362750530243,-14.108003616333008,-0.2786155343055725,-2.1325716972351074,0.41965049505233765,0
48,0.2350316047668457,-0.4505855441093445,-22.819665908813477,-0.1491362750530243,14.108003616333008,0.2786155343055725,2.1325716972351074,-0.41965049505233765,0.0,0.0,0.0,0.0,0.0,0.0,0.0,-0.4355801386243338,-0.010023974757578926,-0.21900050128481174,0.2236083736991574,0.047623589620090896,-0.06367155094856079,-0.4060806235466393,1.6757459936267451,0.05230903695393027,0.030101811488134348,-2.7527121327383477,0.03418481031482715,2.7663391154841657,0.7691989274994363,1.6754973547542302,0.052104326824870026,0.029969505109285054,-2.752394845125968,0.0342448039870148,2.7663679543071322,0.7691630533470046,0.0005304744471359414,0.0003134341695844093,2.4071475154749258e-06,-0.0008185531369234314,9.171714092559781e-05,-0.00046597403188318996,0.0009407367401161284,0.0,0.0,0.0,0.0,0.0,0.0,0.0,-0.0002486388725149169,-0.00020471012906024544,-0.0001323063788492944,0.0003172876123795909,5.999367218764706e-05,2.8838822966559263e-05,-3.587415243166969e-05,-0.0005304744471359414,-0.0003134341695844093,-2.4071475154749258e-06,0.0008185531369234314,-9.171714092559781e-05,0.00046597403188318996,-0.0009407367401161284,0.4505855441093445,22.819665908813477,0.1491362750530243,-14.108003616333008,-0.2786155343055725,-2.1325716972351074,0.41965049505233765,0
49,0.24001479148864746,-0.5021602511405945,-22.819665908813477,-0.1491362750530243,14.108003616333008,0.2905173897743225,2.1261630058288574,-0.41965049505233765,0.0,0.0,0.0,0.0,0.0,0.0,0.0,-0.43892841405430544,-0.027132917765384207,-0.22236782559196738,0.24225877681296096,0.04784068170410119,-0.06130611345449153,-0.40332239704800316,1.6757496130094103,0.05230903695393027,0.03010131195119186,-2.7527121327383477,0.034180423139706706,2.7663396715627635,0.7691989706211835,1.6754973547542302,0.052104326824870026,0.029969505109285054,-2.752394845125968,0.0342448039870148,2.7663679543071322,0.7691630533470046,0.0007798410857085028,-0.0003368656623848272,-3.5931600891313987e-06,6.27378885918236e-05,-0.0004711280019196569,-0.00019662410126932542,0.0010827010014987997,0.0,0.0,0.0,0.0,0.0,0.0,0.0,-0.00025225825518004896,-0.00020471012906024544,-0.00013180684190680636,0.0003172876123795909,6.438084730809451e-05,2.828274436872391e-05,-3.591727417884272e-05,-0.0007798410857085028,0.0003368656623848272,3.5931600891313987e-06,-6.27378885918236e-05,0.0004711280019196569,0.00019662410126932542,-0.0010827010014987997,0.5021602511405945,22.819665908813477,0.1491362750530243,-14.108003616333008,-0.2905173897743225,-2.1261630058288574,0.41965049505233765,0
50,0.24498963356018066,-0.5021602511405945,-22.819665908813477,-0.1491362750530243,14.108003616333008,0.2905173897743225,2.1261630058288574,-0.41965049505233765,0.0,0.0,0.0,0.0,0.0,0.0,0.0,-0.43892841405430544,-0.027132917765384207,-0.22236782559196738,0.24225877681296096,0.04784068170410119,-0.06130611345449153,-0.40332239704800316,1.6757496130094103,0.05230903695393027,0.03010131195119186,-2.7527121327383477,0.034180423139706706,2.7663396715627635,0.7691989706211835,1.6754973547542302,0.052104326824870026,0.029969505109285054,-2.752394845125968,0.0342448039870148,2.7663679543071322,0.7691630533470046,0.0007798410857085028,-0.0003368656623848272,-3.5931600891313987e-06,6.27378885918236e-05,-0.0004711280019196569,-0.00019662410126932542,0.0010827010014987997,0.0,0.0,0.0,0.0,0.0,0.0,0.0,-0.00025225825518004896,-0.00020471012906024544,-0.00013180684190680636,0.0003172876123795909,6.438084730809451e-05,2.828274436872391e-05,-3.591727417884272e-05,-0.0007798410857085028,0.0003368656623848272,3.5931600891313987e-06,-6.27378885918236e-05,0.0004711280019196569,0.00019662410126932542,-0.0010827010014987997,0.5021602511405945,22.819665908813477,0.1491362750530243,-14.108003616333008,-0.2905173897743225,-2.1261630058288574,0.41965049505233765,0
51,0.2500033378601074,-0.5021602511405945,-22.819665908813477,-0.1491362750530243,14.108003616333008,0.2905173897743225,2.1261630058288574,-0.41965049505233765,0.0,0.0,0.0,0.0,0.0,0.0,0.0,-0.43892841405430544,-0.027132917765384207,-0.22236782559196738,0.24225877681296096,0.04784068170410119,-0.06130611345449153,-0.40332239704800316,1.6757496130094103,0.05230903695393027,0.03010131195119186,-2.7527121327383477,0.034180423139706706,2.7663396715627635,0.7691989706211835,1.6754973547542302,0.052104326824870026,0.029969505109285054,-2.752394845125968,0.0342448039870148,2.7663679543071322,0.7691630533470046,0.0007798410857085028,-0.0003368656623848272,-3.5931600891313987e-06,6.27378885918236e-05,-0.0004711280019196569,-0.00019662410126932542,0.0010827010014987997,0.0,0.0,0.0,0.0,0.0,0.0,0.0,-0.00025225825518004896,-0.00020471012906024544,-0.00013180684190680636,0.0003172876123795909,6.438084730809451e-05,2.828274436872391e-05,-3.591727417884272e-05,-0.0007798410857085028,0.0003368656623848272,3.5931600891313987e-06,-6.27378885918236e-05,0.0004711280019196569,0.00019662410126932542,-0.0010827010014987997,0.5021602511405945,22.819665908813477,0.1491362750530243,-14.108003616333008,-0.2905173897743225,-2.1261630058288574,0.41965049505233765,0
52,0.2549893856048584,-0.5021602511405945,-22.819665908813477,-0.1491362750530243,14.108003616333008,0.2905173897743225,2.1261630058288574,-0.41965049505233765,0.0,0.0,0.0,0.0,0.0,0.0,0.0,-0.43892841405430544,-0.027132917765384207,-0.22236782559196738,0.24225877681296096,0.04784068170410119,-0.06130611345449153,-0.40332239704800316,1.6757496130094103,0.05230903695393027,0.03010131195119186,-2.7527121327383477,0.034180423139706706,2.7663396715627635,0.7691989706211835,1.6754973547542302,0.052104326824870026,0.029969505109285054,-2.752394845125968,0.0342448039870148,2.7663679543071322,0.7691630533470046,0.0007798410857085028,-0.0003368656623848272,-3.5931600891313987e-06,6.27378885918236e-05,-0.0004711280019196569,-0.00019662410126932542,0.0010827010014987997,0.0,0.0,0.0,0.0,0.0,0.0,0.0,-0.00025225825518004896,-0.00020471012906024544,-0.00013180684190680636,0.0003172876123795909,6.438084730809451e-05,2.828274436872391e-05,-3.591727417884272e-05,-0.0007798410857085028,0.0003368656623848272,3.5931600891313987e-06,-6.27378885918236e-05,0.0004711280019196569,0.00019662410126932542,-0.0010827010014987997,0.5021602511405945,22.819665908813477,0.1491362750530243,-14.108003616333008,-0.2905173897743225,-2.1261630058288574,0.41965049505233765,0
53,0.25998878479003906,-0.4267818331718445,-22.847436904907227,-0.09756157547235489,14.108003616333008,0.2786155343055725,2.1325716972351074,-0.37204307317733765,0.0,0.0,0.0,0.0,0.0,0.0,0.0,-0.43818661638251116,-0.019670830466055313,-0.2186844420607186,0.23511303133642256,0.04711696154185805,-0.06297111156550221,-0.4018724502137142,1.6757443231908917,0.05231098579576141,0.030097644515523384,-2.7527121327383477,0.03418160963288683,2.7663389991977043,0.7691936639497935,1.6754973547542302,0.052104326824870026,0.029969505109285054,-2.752394845125968,0.0342448039870148,2.7663679543071322,0.7691630533470046,-0.0007434281179594945,0.0009236350359899722,-0.0011630361654437567,-0.0004127073637932421,-3.2522538149938685e-05,-0.0003899998622967754,-0.0012022771466147575,0.0,0.0,0.0,0.0,0.0,0.0,0.0,-0.0002469684366614988,-0.00020665897089138657,-0.0001281394062383305,0.0003172876123795909,6.319435412797253e-05,2.8955109427908354e-05,-3.061060278886085e-05,0.0007434281179594945,-0.0009236350359899722,0.0011630361654437567,0.0004127073637932421,3.2522538149938685e-05,0.0003899998622967754,0.0012022771466147575,0.4267818331718445,22.847436904907227,0.09756157547235489,-14.108003616333008,-0.2786155343055725,-2.1325716972351074,0.37204307317733765,0
54,0.2650032043457031,-0.4267818331718445,-22.847436904907227,-0.09756157547235489,14.108003616333008,0.2786155343055725,2.1325716972351074,-0.37204307317733765,0.0,0.0,0.0,0.0,0.0,0.0,0.0,-0.43818661638251116,-0.019670830466055313,-0.2186844420607186,0.23511303133642256,0.04711696154185805,-0.06297111156550221,-0.4018724502137142,1.6757443231908917,0.05231098579576141,0.030097644515523384,-2.7527121327383477,0.03418160963288683,2.7663389991977043,0.7691936639497935,1.6754973547542302,0.052104326824870026,0.029969505109285054,-2.752394845125968,0.0342448039870148,2.7663679543071322,0.7691630533470046,-0.0007434281179594945,0.0009236350359899722,-0.0011630361654437567,-0.0004127073637932421,-3.2522538149938685e-05,-0.0003899998622967754,-0.0012022771466147575,0.0,0.0,0.0,0.0,0.0,0.0,0.0,-0.0002469684366614988,-0.00020665897089138657,-0.0001281394062383305,0.0003172876123795909,6.319435412797253e-05,2.8955109427908354e-05,-3.061060278886085e-05,0.0007434281179594945,-0.0009236350359899722,0.0011630361654437567,0.0004127073637932421,3.2522538149938685e-05,0.0003899998622967754,0.0012022771466147575,0.4267818331718445,22.847436904907227,0.09756157547235489,-14.108003616333008,-0.2786155343055725,-2.1325716972351074,0.37204307317733765,0
55,0.27003931999206543,-0.4029781222343445,-22.795862197875977,-0.1253325641155243,14.108003616333008,0.2841086983680725,2.1261630058288574,-0.36471885442733765,0.0,0.0,0.0,0.0,0.0,0.0,0.0,-0.4454108633080172,-0.01939606587936367,-0.22363482452350547,0.23230931362989396,0.04737140378775736,-0.06364348254692302,-0.4009093941971143,1.6757426527550345,0.05230736651807501,0.03009967624618497,-2.7527121327383477,0.03418100366352027,2.76634107989655,0.7691928675902885,1.6754973547542302,0.052104326824870026,0.029969505109285054,-2.752394845125968,0.0342448039870148,2.7663679543071322,0.7691630533470046,-0.0012438959868563617,-0.0001779707682352469,-0.0007747465610770425,-0.001004688829959058,-0.00015243514804385558,-0.00022869965163559803,-0.0013322879441909528,0.0,0.0,0.0,0.0,0.0,0.0,0.0,-0.00024529800080430597,-0.0002030396932049816,-0.00013017113689991686,0.0003172876123795909,6.380032349453252e-05,2.6874410582244934e-05,-2.9814243283854402e-05,0.0012438959868563617,0.0001779707682352469,0.0007747465610770425,0.001004688829959058,0.00015243514804385558,0.00022869965163559803,0.0013322879441909528,0.4029781222343445,22.795862197875977,0.1253325641155243,-14.108003616333008,-0.2841086983680725,-2.1261630058288574,0.36471885442733765,0
56,0.2750236988067627,-0.4029781222343445,-22.795862197875977,-0.1253325641155243,14.108003616333008,0.2841086983680725,2.1261630058288574,-0.36471885442733765,0.0,0.0,0.0,0.0,0.0,0.0,0.0,-0.4454108633080172,-0.01939606587936367,-0.22363482452350547,0.23230931362989396,0.04737140378775736,-0.06364348254692302,-0.4009093941971143,1.6757426527550345,0.05230736651807501,0.03009967624618497,-2.7527121327383477,0.03418100366352027,2.76634107989655,0.7691928675902885,1.6754973547542302,0.052104326824870026,0.029969505109285054,-2.752394845125968,0.0342448039870148,2.7663679543071322,0.7691630533470046,-0.0012438959868563617,-0.0001779707682352469,-0.0007747465610770425,-0.001004688829959058,-0.00015243514804385558,-0.00022869965163559803,-0.0013322879441909528,0.0,0.0,0.0,0.0,0.0,0.0,0.0,-0.00024529800080430597,-0.0002030396932049816,-0.00013017113689991686,0.0003172876123795909,6.380032349453252e-05,2.6874410582244934e-05,-2.9814243283854402e-05,0.0012438959868563617,0.0001779707682352469,0.0007747465610770425,0.001004688829959058,0.00015243514804385558,0.00022869965163559803,0.0013322879441909528,0.4029781222343445,22.795862197875977,0.1253325641155243,-14.108003616333008,-0.2841086983680725,-2.1261630058288574,0.36471885442733765,0
57,0.2800023555755615,-0.4029781222343445,-22.795862197875977,-0.1253325641155243,14.108003616333008,0.2841086983680725,2.1261630058288574,-0.36471885442733765,0.0,0.0,0.0,0.0,0.0,0.0,0.0,-0.4454108633080172,-0.01939606587936367,-0.22363482452350547,0.23230931362989396,0.04737140378775736,-0.06364348254692302,-0.4009093941971143,1.6757426527550345,0.05230736651807501,0.03009967624618497,-2.7527121327383477,0.03418100366352027,2.76634107989655,0.7691928675902885,1.6754973547542302,0.052104326824870026,0.029969505109285054,-2.752394845125968,0.0342448039870148,2.7663679543071322,0.7691630533470046,-0.0012438959868563617,-0.0001779707682352469,-0.0007747465610770425,-0.001004688829959058,-0.00015243514804385558,-0.00022869965163559803,-0.0013322879441909528,0.0,0.0,0.0,0.0,0.0,0.0,0.0,-0.00024529800080430597,-0.0002030396932049816,-0.00013017113689991686,0.0003172876123795909,6.380032349453252e-05,2.6874410582244934e-05,-2.9814243283854402e-05,0.0012438959868563617,0.0001779707682352469,0.0007747465610770425,0.001004688829959058,0.00015243514804385558,0.00022869965163559803,0.0013322879441909528,0.4029781222343445,22.795862197875977,0.1253325641155243,-14.108003616333008,-0.2841086983680725,-2.1261630058288574,0.36471885442733765,0
58,0.2850518226623535,-0.4029781222343445,-22.772058486938477,-0.1253325641155243,14.108003616333008,0.2786155343055725,2.1197543144226074,-0.38577598333358765,0.0,0.0,0.0,0.0,0.0,0.0,0.0,-0.44005615459211544,-0.02370688833920258,-0.21873979161346827,0.23637195696044674,0.04687240603590761,-0.06295552257806991,-0.40018304293525464,1.6757426527550345,0.05230569900521844,0.030100149349248328,-2.7527121327383477,0.034182676525134174,2.766338652468313,0.7691941471486647,1.6754973547542302,0.052104326824870026,0.029969505109285054,-2.752394845125968,0.0342448039870148,2.7663679543071322,0.7691630533470046,-0.0009207972764562629,-0.0009693331148398223,-0.0004602651193728855,-0.0003889555353915738,0.00014806147062235004,6.80744842363868e-05,-0.0008915432617332814,0.0,0.0,0.0,0.0,0.0,0.0,0.0,-0.00024529800080430597,-0.00020137218034841503,-0.00013064423996327415,0.0003172876123795909,6.212746188062612e-05,2.9301838819328907e-05,-3.109380166010922e-05,0.0009207972764562629,0.0009693331148398223,0.0004602651193728855,0.0003889555353915738,-0.00014806147062235004,-6.80744842363868e-05,0.0008915432617332814,0.4029781222343445,22.772058486938477,0.1253325641155243,-14.108003616333008,-0.2786155343055725,-2.1197543144226074,0.38577598333358765,0
59,0.29000139236450195,-0.4029781222343445,-22.772058486938477,-0.1253325641155243,14.108003616333008,0.2786155343055725,2.1197543144226074,-0.38577598333358765,0.0,0.0,0.0,0.0,0.0,0.0,0.0,-0.44005615459211544,-0.02370688833920258,-0.21873979161346827,0.23637195696044674,0.04687240603590761,-0.06295552257806991,-0.40018304293525464,1.6757426527550345,0.05230569900521844,0.030100149349248328,-2.7527121327383477,0.034182676525134174,2.766338652468313,0.7691941471486647,1.6754973547542302,0.052104326824870026,0.029969505109285054,-2.752394845125968,0.0342448039870148,2.7663679543071322,0.7691630533470046,-0.0009207972764562629,-0.0009693331148398223,-0.0004602651193728855,-0.0003889555353915738,0.00014806147062235004,6.80744842363868e-05,-0.0008915432617332814,0.0,0.0,0.0,0.0,0.0,0.0,0.0,-0.00024529800080430597,-0.00020137218034841503,-0.00013064423996327415,0.0003172876123795909,6.212746188062612e-05,2.9301838819328907e-05,-3.109380166010922e-05,0.0009207972764562629,0.0009693331148398223,0.0004602651193728855,0.0003889555353915738,-0.00014806147062235004,-6.80744842363868e-05,0.0008915432617332814,0.4029781222343445,22.772058486938477,0.1253325641155243,-14.108003616333008,-0.2786155343055725,-2.1197543144226074,0.38577598333358765,0
60,0.29501891136169434,-0.4267818331718445,-22.819665908813477,-0.09756157547235489,14.056428909301758,0.2786155343055725,2.1197543144226074,-0.42605918645858765,0.0,0.0,0.0,0.0,0.0,0.0,0.0,-0.445069791436469,-0.016970196871520144,-0.22251658241865163,0.2314314059024437,0.04717734700885666,-0.06361231582861869,-0.4002700864212602,1.67574432319089,0.052309036953946765,0.030098436630616288,-2.7527085134606613,0.034181728505221075,2.766340763490064,0.7691996831767848,1.6754973547542302,0.052104326824870026,0.029969505109285054,-2.752394845125968,0.0342448039870148,2.7663679543071322,0.7691630533470046,-0.000535924526746807,0.0004489891831372585,-0.0012479850437336038,0.0005743680623805578,-6.607006989656901e-05,-1.6931410411887436e-06,0.0011739867312056478,0.0,0.0,0.0,0.0,0.0,0.0,0.0,-0.00024696843665972246,-0.0002047101290767392,-0.00012893152133123392,0.00031366833469315125,6.307548179372569e-05,2.7190817068145634e-05,-3.662982978014373e-05,0.000535924526746807,-0.0004489891831372585,0.0012479850437336038,-0.0005743680623805578,6.607006989656901e-05,1.6931410411887436e-06,-0.0011739867312056478,0.4267818331718445,22.819665908813477,0.09756157547235489,-14.056428909301758,-0.2786155343055725,-2.1197543144226074,0.42605918645858765,0
61,0.30001330375671387,-0.4267818331718445,-22.819665908813477,-0.09756157547235489,14.056428909301758,0.2786155343055725,2.1197543144226074,-0.42605918645858765,0.0,0.0,0.0,0.0,0.0,0.0,0.0,-0.445069791436469,-0.016970196871520144,-0.22251658241865163,0.2314314059024437,0.04717734700885666,-0.06361231582861869,-0.4002700864212602,1.67574432319089,0.052309036953946765,0.030098436630616288,-2.7527085134606613,0.034181728505221075,2.766340763490064,0.7691996831767848,1.6754973547542302,0.052104326824870026,0.029969505109285054,-2.752394845125968,0.0342448039870148,2.7663679543071322,0.7691630533470046,-0.000535924526746807,0.0004489891831372585,-0.0012479850437336038,0.0005743680623805578,-6.607006989656901e-05,-1.6931410411887436e-06,0.0011739867312056478,0.0,0.0,0.0,0.0,0.0,0.0,0.0,-0.00024696843665972246,-0.0002047101290767392,-0.00012893152133123392,0.00031366833469315125,6.307548179372569e-05,2.7190817068145634e-05,-3.662982978014373e-05,0.000535924526746807,-0.0004489891831372585,0.0012479850437336038,-0.0005743680623805578,6.607006989656901e-05,1.6931410411887436e-06,-0.0011739867312056478,0.4267818331718445,22.819665908813477,0.09756157547235489,-14.056428909301758,-0.2786155343055725,-2.1197543144226074,0.42605918645858765,0
62,0.3057844638824463,-0.4505855441093445,-22.819665908813477,-0.1253325641155243,14.080232620239258,0.2786155343055725,2.1197543144226074,-0.42605918645858765,0.0,0.0,0.0,0.0,0.0,0.0,0.0,-0.4436211832497139,-0.04513703858640898,-0.2209187139277621,0.2793816154544405,0.047321871509708485,-0.05633796524499606,-0.40059430968446874,1.6757460701561655,0.05230903695393027,0.030100140950019717,-2.7527101838965167,0.034181609631255765,2.7663376585571497,0.7691996787682832,1.6754973547542302,0.052104326824870026,0.029969505109285054,-2.752394845125968,0.0342448039870148,2.7663679543071322,0.7691630533470046,0.0003592506118644189,0.0001524631917817694,-0.00029580903511186384,-0.000751633555248145,7.556212191227339e-05,0.00020501700300022568,0.0009959892670940238,0.0,0.0,0.0,0.0,0.0,0.0,0.0,-0.0002487154019352733,-0.00020471012906024544,-0.00013063584073466292,0.00031533877054856774,6.319435575903587e-05,3.0295749982478526e-05,-3.662542127857993e-05,-0.0003592506118644189,-0.0001524631917817694,0.00029580903511186384,0.000751633555248145,-7.556212191227339e-05,-0.00020501700300022568,-0.0009959892670940238,0.4505855441093445,22.819665908813477,0.1253325641155243,-14.080232620239258,-0.2786155343055725,-2.1197543144226074,0.42605918645858765,0
63,0.3099939823150635,-0.4505855441093445,-22.819665908813477,-0.1253325641155243,14.080232620239258,0.2786155343055725,2.1197543144226074,-0.42605918645858765,0.0,0.0,0.0,0.0,0.0,0.0,0.0,-0.4436211832497139,-0.04513703858640898,-0.2209187139277621,0.2793816154544405,0.047321871509708485,-0.05633796524499606,-0.40059430968446874,1.6757460701561655,0.05230903695393027,0.030100140950019717,-2.7527101838965167,0.034181609631255765,2.7663376585571497,0.7691996787682832,1.6754973547542302,0.052104326824870026,0.029969505109285054,-2.752394845125968,0.0342448039870148,2.7663679543071322,0.7691630533470046,0.0003592506118644189,0.0001524631917817694,-0.00029580903511186384,-0.000751633555248145,7.556212191227339e-05,0.00020501700300022568,0.0009959892670940238,0.0,0.0,0.0,0.0,0.0,0.0,0.0,-0.0002487154019352733,-0.00020471012906024544,-0.00013063584073466292,0.00031533877054856774,6.319435575903587e-05,3.0295749982478526e-05,-3.662542127857993e-05,-0.0003592506118644189,-0.0001524631917817694,0.00029580903511186384,0.000751633555248145,-7.556212191227339e-05,-0.00020501700300022568,-0.0009959892670940238,0.4505855441093445,22.819665908813477,0.1253325641155243,-14.080232620239258,-0.2786155343055725,-2.1197543144226074,0.42605918645858765,0
64,0.31519222259521484,-0.4267818331718445,-22.819665908813477,-0.07375786453485489,14.108003616333008,0.2841086983680725,2.1261630058288574,-0.37845176458358765,0.0,0.0,0.0,0.0,0.0,0.0,0.0,-0.43964157925244196,-0.020822705393584422,-0.21947151310986796,0.23311547040085764,0.04616650638314406,-0.06265086009767633,-0.4008476535521519,1.6757463894856741,0.05231116781998099,0.03009674055223248,-2.7527121327383477,0.034181001390076834,2.76633969383427,0.7691943537388293,1.6754973547542302,0.052104326824870026,0.029969505109285054,-2.752394845125968,0.0342448039870148,2.7663679543071322,0.7691630533470046,-0.0001498707514480634,-7.961061489172485e-05,-0.0012248859240460526,-0.000561089076044939,-0.00020315233619154526,-0.00012878438672955534,-0.0011512491708304744,0.0,0.0,0.0,0.0,0.0,0.0,0.0,-0.00024903473144388677,-0.00020684099511096565,-0.00012723544294742511,0.0003172876123795909,6.380259693796603e-05,2.826047286230704e-05,-3.130039182464017e-05,0.0001498707514480634,7.961061489172485e-05,0.0012248859240460526,0.000561089076044939,0.00020315233619154526,0.00012878438672955534,0.0011512491708304744,0.4267818331718445,22.819665908813477,0.07375786453485489,-14.108003616333008,-0.2841086983680725,-2.1261630058288574,0.37845176458358765,0
65,0.3199951648712158,-0.4267818331718445,-22.819665908813477,-0.07375786453485489,14.108003616333008,0.2841086983680725,2.1261630058288574,-0.37845176458358765,0.0,0.0,0.0,0.0,0.0,0.0,0.0,-0.43964157925244196,-0.020822705393584422,-0.21947151310986796,0.23311547040085764,0.04616650638314406,-0.06265086009767633,-0.4008476535521519,1.6757463894856741,0.05231116781998099,0.03009674055223248,-2.7527121327383477,0.034181001390076834,2.76633969383427,0.7691943537388293,1.6754973547542302,0.052104326824870026,0.029969505109285054,-2.752394845125968,0.0342448039870148,2.7663679543071322,0.7691630533470046,-0.0001498707514480634,-7.961061489172485e-05,-0.0012248859240460526,-0.000561089076044939,-0.00020315233619154526,-0.00012878438672955534,-0.0011512491708304744,0.0,0.0,0.0,0.0,0.0,0.0,0.0,-0.00024903473144388677,-0.00020684099511096565,-0.00012723544294742511,0.0003172876123795909,6.380259693796603e-05,2.826047286230704e-05,-3.130039182464017e-05,0.0001498707514480634,7.961061489172485e-05,0.0012248859240460526,0.000561089076044939,0.00020315233619154526,0.00012878438672955534,0.0011512491708304744,0.4267818331718445,22.819665908813477,0.07375786453485489,-14.108003616333008,-0.2841086983680725,-2.1261630058288574,0.37845176458358765,0
66,0.3250126838684082,-0.4267818331718445,-22.748254776000977,-0.09756157547235489,14.108003616333008,0.2722068428993225,2.1197543144226074,-0.36471885442733765,0.0,0.0,0.0,0.0,0.0,0.0,0.0,-0.442699385748942,-0.011747144847599747,-0.21918970946585492,0.21911635804744664,0.04616360256027729,-0.06476931013801805,-0.4024286770568705,1.6757443997319748,0.05230410457935812,0.030098200006883645,-2.7527121327383477,0.03418232170741955,2.7663414432231255,0.7691928675900971,1.6754973547542302,0.052104326824870026,0.029969505109285054,-2.752394845125968,0.0342448039870148,2.7663679543071322,0.7691630533470046,-0.0003030857105198825,-0.0016639728119410989,-0.0007014745053055799,-0.0002932879073343172,8.564820697911743e-05,0.00017100827153607336,-0.0022117563407190685,0.0,0.0,0.0,0.0,0.0,0.0,0.0,-0.00024704497774452605,-0.0001997777544880952,-0.00012869489759859132,0.0003172876123795909,6.248227959525232e-05,2.651108400675284e-05,-2.9814243092451953e-05,0.0003030857105198825,0.0016639728119410989,0.0007014745053055799,0.0002932879073343172,-8.564820697911743e-05,-0.00017100827153607336,0.0022117563407190685,0.4267818331718445,22.748254776000977,0.09756157547235489,-14.108003616333008,-0.2722068428993225,-2.1197543144226074,0.36471885442733765,0
67,0.3300292491912842,-0.4267818331718445,-22.748254776000977,-0.09756157547235489,14.108003616333008,0.2722068428993225,2.1197543144226074,-0.36471885442733765,0.0,0.0,0.0,0.0,0.0,0.0,0.0,-0.442699385748942,-0.011747144847599747,-0.21918970946585492,0.21911635804744664,0.04616360256027729,-0.06476931013801805,-0.4024286770568705,1.6757443997319748,0.05230410457935812,0.030098200006883645,-2.7527121327383477,0.03418232170741955,2.7663414432231255,0.7691928675900971,1.6754973547542302,0.052104326824870026,0.029969505109285054,-2.752394845125968,0.0342448039870148,2.7663679543071322,0.7691630533470046,-0.0003030857105198825,-0.0016639728119410989,-0.0007014745053055799,-0.0002932879073343172,8.564820697911743e-05,0.00017100827153607336,-0.0022117563407190685,0.0,0.0,0.0,0.0,0.0,0.0,0.0,-0.00024704497774452605,-0.0001997777544880952,-0.00012869489759859132,0.0003172876123795909,6.248227959525232e-05,2.651108400675284e-05,-2.9814243092451953e-05,0.0003030857105198825,0.0016639728119410989,0.0007014745053055799,0.0002932879073343172,-8.564820697911743e-05,-0.00017100827153607336,0.0022117563407190685,0.4267818331718445,22.748254776000977,0.09756157547235489,-14.108003616333008,-0.2722068428993225,-2.1197543144226074,0.36471885442733765,0
68,0.33501267433166504,-0.4783565402030945,-22.795862197875977,-0.1729399859905243,14.108003616333008,0.2786155343055725,2.1197543144226074,-0.43338340520858765,0.0,0.0,0.0,0.0,0.0,0.0,0.0,-0.4458250881399692,-0.009483100428313403,-0.21767367441399582,0.22044105821363727,0.04619456720781261,-0.06454254703047003,-0.4042836001410307,1.6757479424690083,0.05230736651852058,0.030103480954825512,-2.7527121327383477,0.03418162283820846,2.7663387575526435,0.7692004969848526,1.6754973547542302,0.052104326824870026,0.029969505109285054,-2.752394845125968,0.0342448039870148,2.7663679543071322,0.7691630533470046,0.00047658354895053714,5.2051001410885345e-05,0.0008503192314135564,-0.00016097815696208842,7.452876891718404e-05,-4.7006967230360214e-05,0.0004831164383348708,0.0,0.0,0.0,0.0,0.0,0.0,0.0,-0.00025058771477803887,-0.00020303969365055574,-0.00013397584554045855,0.0003172876123795909,6.318114880633774e-05,2.919675448875836e-05,-3.7443637847967004e-05,-0.00047658354895053714,-5.2051001410885345e-05,-0.0008503192314135564,0.00016097815696208842,-7.452876891718404e-05,4.7006967230360214e-05,-0.0004831164383348708,0.4783565402030945,22.795862197875977,0.1729399859905243,-14.108003616333008,-0.2786155343055725,-2.1197543144226074,0.43338340520858765,0
69,0.3400135040283203,-0.4783565402030945,-22.795862197875977,-0.1729399859905243,14.108003616333008,0.2786155343055725,2.1197543144226074,-0.43338340520858765,0.0,0.0,0.0,0.0,0.0,0.0,0.0,-0.4458250881399692,-0.009483100428313403,-0.21767367441399582,0.22044105821363727,0.04619456720781261,-0.06454254703047003,-0.4042836001410307,1.6757479424690083,0.05230736651852058,0.030103480954825512,-2.7527121327383477,0.03418162283820846,2.7663387575526435,0.7692004969848526,1.6754973547542302,0.052104326824870026,0.029969505109285054,-2.752394845125968,0.0342448039870148,2.7663679543071322,0.7691630533470046,0.00047658354895053714,5.2051001410885345e-05,0.0008503192314135564,-0.00016097815696208842,7.452876891718404e-05,-4.7006967230360214e-05,0.0004831164383348708,0.0,0.0,0.0,0.0,0.0,0.0,0.0,-0.00025058771477803887,-0.00020303969365055574,-0.00013397584554045855,0.0003172876123795909,6.318114880633774e-05,2.919675448875836e-05,-3.7443637847967004e-05,-0.00047658354895053714,-5.2051001410885345e-05,-0.0008503192314135564,0.00016097815696208842,-7.452876891718404e-05,4.7006967230360214e-05,-0.0004831164383348708,0.4783565402030945,22.795862197875977,0.1729399859905243,-14.108003616333008,-0.2786155343055725,-2.1197543144226074,0.43338340520858765,0
70,0.3450441360473633,-0.4783565402030945,-22.795862197875977,-0.1253325641155243,14.080232620239258,0.2841086983680725,2.1197543144226074,-0.43979209661483765,0.0,0.0,0.0,0.0,0.0,0.0,0.0,-0.442227643843235,-0.011591979560052364,-0.21345620308692814,0.224066874234591,0.04641724219249532,-0.06433527769076094,-0.40595929323596813,1.6757479424685762,0.05230744543903985,0.030100386445637378,-2.7527101838965167,0.03418099933322638,2.766337662583466,0.7692011959797233,1.6754973547542302,0.052104326824870026,0.029969505109285054,-2.752394845125968,0.0342448039870148,2.7663679543071322,0.7691630533470046,0.0009439164812192515,-0.00017957073749836947,-0.0006098112216991485,0.00043120756380999703,-6.545988533715e-05,7.3954481666223015e-06,0.0012098875159462165,0.0,0.0,0.0,0.0,0.0,0.0,0.0,-0.00025058771434594007,-0.0002031186141698213,-0.00013088133635232382,0.00031533877054856774,6.380465378841987e-05,3.0291723666309167e-05,-3.814263271861851e-05,-0.0009439164812192515,0.00017957073749836947,0.0006098112216991485,-0.00043120756380999703,6.545988533715e-05,-7.3954481666223015e-06,-0.0012098875159462165,0.4783565402030945,22.795862197875977,0.1253325641155243,-14.080232620239258,-0.2841086983680725,-2.1197543144226074,0.43979209661483765,0
71,0.35003018379211426,-0.4783565402030945,-22.795862197875977,-0.1253325641155243,14.080232620239258,0.2841086983680725,2.1197543144226074,-0.43979209661483765,0.0,0.0,0.0,0.0,0.0,0.0,0.0,-0.442227643843235,-0.011591979560052364,-0.21345620308692814,0.224066874234591,0.04641724219249532,-0.06433527769076094,-0.40595929323596813,1.6757479424685762,0.05230744543903985,0.030100386445637378,-2.7527101838965167,0.03418099933322638,2.766337662583466,0.7692011959797233,1.6754973547542302,0.052104326824870026,0.029969505109285054,-2.752394845125968,0.0342448039870148,2.7663679543071322,0.7691630533470046,0.0009439164812192515,-0.00017957073749836947,-0.0006098112216991485,0.00043120756380999703,-6.545988533715e-05,7.3954481666223015e-06,0.0012098875159462165,0.0,0.0,0.0,0.0,0.0,0.0,0.0,-0.00025058771434594007,-0.0002031186141698213,-0.00013088133635232382,0.00031533877054856774,6.380465378841987e-05,3.0291723666309167e-05,-3.814263271861851e-05,-0.0009439164812192515,0.00017957073749836947,0.0006098112216991485,-0.00043120756380999703,6.545988533715e-05,-7.3954481666223015e-06,-0.0012098875159462165,0.4783565402030945,22.795862197875977,0.1253325641155243,-14.080232620239258,-0.2841086983680725,-2.1197543144226074,0.43979209661483765,0
72,0.35499095916748047,-0.5021602511405945,-22.819665908813477,-0.1253325641155243,14.080232620239258,0.2786155343055725,2.1197543144226074,-0.38577598333358765,0.0,0.0,0.0,0.0,0.0,0.0,0.0,-0.4460347252176906,-0.01159344334645931,-0.21927838374452666,0.22559687933496,0.047270746009407595,-0.06420630120754317,-0.40794842034892675,1.6757496129044316,0.05230903696610757,0.03009825649815245,-2.7527101838965167,0.034181609630584815,2.7663373485727463,0.7691952066252639,1.6754973547542302,0.052104326824870026,0.029969505109285054,-2.752394845125968,0.0342448039870148,2.7663679543071322,0.7691630533470046,0.000832252933016189,0.00023457854159871685,-0.0001824931092655346,0.00011643528642708735,6.842003120901997e-05,-9.199017270059792e-06,-0.001235274420723065,0.0,0.0,0.0,0.0,0.0,0.0,0.0,-0.00025225815020135656,-0.00020471014123754627,-0.00012875138886739648,0.00031533877054856774,6.319435642998528e-05,3.060573438595782e-05,-3.21532782592282e-05,-0.000832252933016189,-0.00023457854159871685,0.0001824931092655346,-0.00011643528642708735,-6.842003120901997e-05,9.199017270059792e-06,0.001235274420723065,0.5021602511405945,22.819665908813477,0.1253325641155243,-14.080232620239258,-0.2786155343055725,-2.1197543144226074,0.38577598333358765,0
73,0.36000680923461914,-0.5021602511405945,-22.819665908813477,-0.1253325641155243,14.080232620239258,0.2786155343055725,2.1197543144226074,-0.38577598333358765,0.0,0.0,0.0,0.0,0.0,0.0,0.0,-0.4460347252176906,-0.01159344334645931,-0.21927838374452666,0.22559687933496,0.047270746009407595,-0.06420630120754317,-0.40794842034892675,1.6757496129044316,0.05230903696610757,0.03009825649815245,-2.7527101838965167,0.034181609630584815,2.7663373485727463,0.7691952066252639,1.6754973547542302,0.052104326824870026,0.029969505109285054,-2.752394845125968,0.0342448039870148,2.7663679543071322,0.7691630533470046,0.000832252933016189,0.00023457854159871685,-0.0001824931092655346,0.00011643528642708735,6.842003120901997e-05,-9.199017270059792e-06,-0.001235274420723065,0.0,0.0,0.0,0.0,0.0,0.0,0.0,-0.00025225815020135656,-0.00020471014123754627,-0.00012875138886739648,0.00031533877054856774,6.319435642998528e-05,3.060573438595782e-05,-3.21532782592282e-05,-0.000832252933016189,-0.00023457854159871685,0.0001824931092655346,-0.00011643528642708735,-6.842003120901997e-05,9.199017270059792e-06,0.001235274420723065,0.5021602511405945,22.819665908813477,0.1253325641155243,-14.080232620239258,-0.2786155343055725,-2.1197543144226074,0.38577598333358765,0
74,0.36499786376953125,-0.5021602511405945,-22.819665908813477,-0.1253325641155243,14.080232620239258,0.2786155343055725,2.1197543144226074,-0.38577598333358765,0.0,0.0,0.0,0.0,0.0,0.0,0.0,-0.4460347252176906,-0.01159344334645931,-0.21927838374452666,0.22559687933496,0.047270746009407595,-0.06420630120754317,-0.40794842034892675,1.6757496129044316,0.05230903696610757,0.03009825649815245,-2.7527101838965167,0.034181609630584815,2.7663373485727463,0.7691952066252639,1.6754973547542302,0.052104326824870026,0.029969505109285054,-2.752394845125968,0.0342448039870148,2.7663679543071322,0.7691630533470046,0.000832252933016189,0.00023457854159871685,-0.0001824931092655346,0.00011643528642708735,6.842003120901997e-05,-9.199017270059792e-06,-0.001235274420723065,0.0,0.0,0.0,0.0,0.0,0.0,0.0,-0.00025225815020135656,-0.00020471014123754627,-0.00012875138886739648,0.00031533877054856774,6.319435642998528e-05,3.060573438595782e-05,-3.21532782592282e-05,-0.000832252933016189,-0.00023457854159871685,0.0001824931092655346,-0.00011643528642708735,-6.842003120901997e-05,9.199017270059792e-06,0.001235274420723065,0.5021602511405945,22.819665908813477,0.1253325641155243,-14.080232620239258,-0.2786155343055725,-2.1197543144226074,0.38577598333358765,0
75,0.369992733001709,-0.5021602511405945,-22.819665908813477,-0.1253325641155243,14.080232620239258,0.2786155343055725,2.1197543144226074,-0.38577598333358765,0.0,0.0,0.0,0.0,0.0,0.0,0.0,-0.4460347252176906,-0.01159344334645931,-0.21927838374452666,0.22559687933496,0.047270746009407595,-0.06420630120754317,-0.40794842034892675,1.6757496129044316,0.05230903696610757,0.03009825649815245,-2.7527101838965167,0.034181609630584815,2.7663373485727463,0.7691952066252639,1.6754973547542302,0.052104326824870026,0.029969505109285054,-2.752394845125968,0.0342448039870148,2.7663679543071322,0.7691630533470046,0.000832252933016189,0.00023457854159871685,-0.0001824931092655346,0.00011643528642708735,6.842003120901997e-05,-9.199017270059792e-06,-0.001235274420723065,0.0,0.0,0.0,0.0,0.0,0.0,0.0,-0.00025225815020135656,-0.00020471014123754627,-0.00012875138886739648,0.00031533877054856774,6.319435642998528e-05,3.060573438595782e-05,-3.21532782592282e-05,-0.000832252933016189,-0.00023457854159871685,0.0001824931092655346,-0.00011643528642708735,-6.842003120901997e-05,9.199017270059792e-06,0.001235274420723065,0.5021602511405945,22.819665908813477,0.1253325641155243,-14.080232620239258,-0.2786155343055725,-2.1197543144226074,0.38577598333358765,0
76,0.37499117851257324,-0.4505855441093445,-22.819665908813477,-0.1253325641155243,14.080232620239258,0.2786155343055725,2.1197543144226074,-0.43338340520858765,0.0,0.0,0.0,0.0,0.0,0.0,0.0,-0.4479115343632271,-0.0111979165147068,-0.21653722371463024,0.22441880334937866,0.04698353270581908,-0.06436705217330478,-0.40783734953897577,1.6757459936267451,0.052309036953930334,0.03009823051905933,-2.7527108726962934,0.03418160979297353,2.7663373229292714,0.7691973175859442,1.6754973547542302,0.052104326824870026,0.029969505109285054,-2.752394845125968,0.0342448039870148,2.7663679543071322,0.7691630533470046,-7.180970170131996e-05,2.074147577129351e-05,-0.0002957871436688789,0.00018819952094868881,-0.0002246742338212907,4.0070496580145304e-05,0.0010407911548471797,0.0,0.0,0.0,0.0,0.0,0.0,0.0,-0.0002486388725149169,-0.0002047101290603079,-0.00012872540977427668,0.000316027570325339,6.319419404127169e-05,3.06313778608569e-05,-3.42642389395964e-05,7.180970170131996e-05,-2.074147577129351e-05,0.0002957871436688789,-0.00018819952094868881,0.0002246742338212907,-4.0070496580145304e-05,-0.0010407911548471797,0.4505855441093445,22.819665908813477,0.1253325641155243,-14.080232620239258,-0.2786155343055725,-2.1197543144226074,0.43338340520858765,0
77,0.37999868392944336,-0.4505855441093445,-22.819665908813477,-0.1253325641155243,14.080232620239258,0.2786155343055725,2.1197543144226074,-0.43338340520858765,0.0,0.0,0.0,0.0,0.0,0.0,0.0,-0.4479115343632271,-0.0111979165147068,-0.21653722371463024,0.22441880334937866,0.04698353270581908,-0.06436705217330478,-0.40783734953897577,1.6757459936267451,0.052309036953930334,0.03009823051905933,-2.7527108726962934,0.03418160979297353,2.7663373229292714,0.7691973175859442,1.6754973547542302,0.052104326824870026,0.029969505109285054,-2.752394845125968,0.0342448039870148,2.7663679543071322,0.7691630533470046,-7.180970170131996e-05,2.074147577129351e-05,-0.0002957871436688789,0.00018819952094868881,-0.0002246742338212907,4.0070496580145304e-05,0.0010407911548471797,0.0,0.0,0.0,0.0,0.0,0.0,0.0,-0.0002486388725149169,-0.0002047101290603079,-0.00012872540977427668,0.000316027570325339,6.319419404127169e-05,3.06313778608569e-05,-3.42642389395964e-05,7.180970170131996e-05,-2.074147577129351e-05,0.0002957871436688789,-0.00018819952094868881,0.0002246742338212907,-4.0070496580145304e-05,-0.0010407911548471797,0.4505855441093445,22.819665908813477,0.1253325641155243,-14.080232620239258,-0.2786155343055725,-2.1197543144226074,0.43338340520858765,0
78,0.3850128650665283,-0.4267818331718445,-22.819665908813477,-0.1253325641155243,14.080232620239258,0.2786155343055725,2.1325716972351074,-0.44711631536483765,0.0,0.0,0.0,0.0,0.0,0.0,0.0,-0.4503658900931528,-0.01443456311249573,-0.21701783194469892,0.22489447350064568,0.046288918353392924,-0.0642452589695077,-0.40849407563802015,1.67574432319089,0.05230906326091855,0.030100385136504357,-2.7527101839004047,0.0341848234676539,2.7663401765200195,0.7692020228458111,1.6754973547542302,0.052104326824870026,0.029969505109285054,-2.752394845125968,0.0342448039870148,2.7663679543071322,0.7691630533470046,-0.0003075110026690149,0.0002655872619775279,-0.0003820927422203458,-2.1417229290431787e-05,-0.00013972761869456913,-0.0004865146943821358,0.002116463272799932,0.0,0.0,0.0,0.0,0.0,0.0,0.0,-0.00024696843665972246,-0.0002047364360485207,-0.00013088002721930309,0.00031533877443656877,5.998051936090265e-05,2.7777787112714947e-05,-3.8969498806440406e-05,0.0003075110026690149,-0.0002655872619775279,0.0003820927422203458,2.1417229290431787e-05,0.00013972761869456913,0.0004865146943821358,-0.002116463272799932,0.4267818331718445,22.819665908813477,0.1253325641155243,-14.080232620239258,-0.2786155343055725,-2.1325716972351074,0.44711631536483765,0
79,0.39000630378723145,-0.4267818331718445,-22.819665908813477,-0.1253325641155243,14.080232620239258,0.2786155343055725,2.1325716972351074,-0.44711631536483765,0.0,0.0,0.0,0.0,0.0,0.0,0.0,-0.4503658900931528,-0.01443456311249573,-0.21701783194469892,0.22489447350064568,0.046288918353392924,-0.0642452589695077,-0.40849407563802015,1.67574432319089,0.05230906326091855,0.030100385136504357,-2.7527101839004047,0.0341848234676539,2.7663401765200195,0.7692020228458111,1.6754973547542302,0.052104326824870026,0.029969505109285054,-2.752394845125968,0.0342448039870148,2.7663679543071322,0.7691630533470046,-0.0003075110026690149,0.0002655872619775279,-0.0003820927422203458,-2.1417229290431787e-05,-0.00013972761869456913,-0.0004865146943821358,0.002116463272799932,0.0,0.0,0.0,0.0,0.0,0.0,0.0,-0.00024696843665972246,-0.0002047364360485207,-0.00013088002721930309,0.00031533877443656877,5.998051936090265e-05,2.7777787112714947e-05,-3.8969498806440406e-05,0.0003075110026690149,-0.0002655872619775279,0.0003820927422203458,2.1417229290431787e-05,0.00013972761869456913,0.0004865146943821358,-0.002116463272799932,0.4267818331718445,22.819665908813477,0.1253325641155243,-14.080232620239258,-0.2786155343055725,-2.1325716972351074,0.44711631536483765,0
