rezayati/contactInterpretation/dataset/franka_main/labeled_data/link6/b5_5.csv
index,time,tau_J0,tau_J1,tau_J2,tau_J3,tau_J4,tau_J5,tau_J6,tau_J_d0,tau_J_d1,tau_J_d2,tau_J_d3,tau_J_d4,tau_J_d5,tau_J_d6,tau_ext0,tau_ext1,tau_ext2,tau_ext3,tau_ext4,tau_ext5,tau_ext6,q0,q1,q2,q3,q4,q5,q6,q_d0,q_d1,q_d2,q_d3,q_d4,q_d5,q_d6,dq0,dq1,dq2,dq3,dq4,dq5,dq6,dq_d0,dq_d1,dq_d2,dq_d3,dq_d4,dq_d5,dq_d6,e0,e1,e2,e3,e4,e5,e6,de0,de1,de2,de3,de4,de5,de6,etau_J0,etau_J1,etau_J2,etau_J3,etau_J4,etau_J5,etau_J6,label
1,0.0,-0.8076412081718445,-46.44881820678711,-5.762844562530518,19.709810256958008,0.4983420968055725,2.4237093925476074,-0.37204307317733765,0.0,0.0,0.0,0.0,0.0,0.0,0.0,-0.8011517194025923,-0.14868674951087998,-0.5849147107653586,0.5136334796884781,-0.07657590314512118,0.1631133917115995,-0.41426799388184543,0.8782543465589222,0.7556838064112711,-0.2823121856475662,-1.6693021843056928,0.14139097569186151,2.403411500347985,1.0273626767727817,0.878092876070424,0.7554597494309409,-0.2825552651693207,-1.6690993614607135,0.1414185955172306,2.4034451173676383,1.0273381002308042,-0.0002536316447461274,-0.0007002077422241401,0.00048343897361604433,9.596237943605591e-05,0.0002814945680909485,0.00011468350049829922,-0.0013928267253016688,0.0,0.0,0.0,0.0,0.0,0.0,0.0,-0.00016147048849823875,-0.0002240569803302339,-0.00024307952175450787,0.00020282284497930014,2.7619825369085138e-05,3.361701965332031e-05,-2.4576541977516797e-05,0.0002536316447461274,0.0007002077422241401,-0.00048343897361604433,-9.596237943605591e-05,-0.0002814945680909485,-0.00011468350049829922,0.0013928267253016688,0.8076412081718445,46.44881820678711,5.762844562530518,-19.709810256958008,-0.4983420968055725,-2.4237093925476074,0.37204307317733765,0
2,0.005002021789550781,-0.8354122042655945,-46.50039291381836,-5.762844562530518,19.733613967895508,0.5102439522743225,2.4301180839538574,-0.43338340520858765,0.0,0.0,0.0,0.0,0.0,0.0,0.0,-0.8026311881820485,-0.1337190598920067,-0.5843943730427844,0.5056204413828281,-0.07726866031967407,0.16203858861581114,-0.41377082654233827,0.8782562954007533,0.7556872139807105,-0.2823114766905467,-1.6693045346719766,0.14139071620897434,2.403410788271162,1.027369492365254,0.878092876070424,0.7554597494309409,-0.2825552651693207,-1.6690993614607135,0.1414185955172306,2.4034451173676383,1.0273381002308042,0.0007828899885173955,0.0011477280847943905,0.00024479592980041333,-0.00046981719190622656,-0.00011783720999584,2.2795046600949693e-05,0.000750229290618684,0.0,0.0,0.0,0.0,0.0,0.0,0.0,-0.00016341933032937295,-0.00022746454976962927,-0.00024378847877404297,0.00020517321126312105,2.787930825626228e-05,3.4329096476160004e-05,-3.139213444991462e-05,-0.0007828899885173955,-0.0011477280847943905,-0.00024479592980041333,0.00046981719190622656,0.00011783720999584,-2.2795046600949693e-05,-0.000750229290618684,0.8354122042655945,46.50039291381836,5.762844562530518,-19.733613967895508,-0.5102439522743225,-2.4301180839538574,0.43338340520858765,0
3,0.009996414184570312,-0.8354122042655945,-46.50039291381836,-5.762844562530518,19.733613967895508,0.5102439522743225,2.4301180839538574,-0.43338340520858765,0.0,0.0,0.0,0.0,0.0,0.0,0.0,-0.8026311881820485,-0.1337190598920067,-0.5843943730427844,0.5056204413828281,-0.07726866031967407,0.16203858861581114,-0.41377082654233827,0.8782562954007533,0.7556872139807105,-0.2823114766905467,-1.6693045346719766,0.14139071620897434,2.403410788271162,1.027369492365254,0.878092876070424,0.7554597494309409,-0.2825552651693207,-1.6690993614607135,0.1414185955172306,2.4034451173676383,1.0273381002308042,0.0007828899885173955,0.0011477280847943905,0.00024479592980041333,-0.00046981719190622656,-0.00011783720999584,2.2795046600949693e-05,0.000750229290618684,0.0,0.0,0.0,0.0,0.0,0.0,0.0,-0.00016341933032937295,-0.00022746454976962927,-0.00024378847877404297,0.00020517321126312105,2.787930825626228e-05,3.4329096476160004e-05,-3.139213444991462e-05,-0.0007828899885173955,-0.0011477280847943905,-0.00024479592980041333,0.00046981719190622656,0.00011783720999584,-2.2795046600949693e-05,-0.000750229290618684,0.8354122042655945,46.50039291381836,5.762844562530518,-19.733613967895508,-0.5102439522743225,-2.4301180839538574,0.43338340520858765,0
4,0.015000104904174805,-0.8076412081718445,-46.47658920288086,-5.786648273468018,19.733613967895508,0.5102439522743225,2.4301180839538574,-0.43338340520858765,0.0,0.0,0.0,0.0,0.0,0.0,0.0,-0.8087505206018829,-0.1254661762389174,-0.5861138366042201,0.498690307513603,-0.07766071977641785,0.16063251527044525,-0.4137306772977702,0.8782543465589222,0.7556855168346743,-0.2823098182394506,-1.6693044630521265,0.1413907162149747,2.403410788271162,1.027369492365254,0.878092876070424,0.7554597494309409,-0.2825552651693207,-1.6690993614607135,0.1414185955172306,2.4034451173676383,1.0273381002308042,-0.00028187912826070334,0.00029917146229577825,0.0008648753989545755,-0.00035649778150615764,-0.00020078855072416685,0.004160963192192679,0.0010445165328130238,0.0,0.0,0.0,0.0,0.0,0.0,0.0,-0.00016147048849823875,-0.00022576740373347892,-0.00024544692987010786,0.0002051015914130705,2.787930225589541e-05,3.4329096476160004e-05,-3.139213444991462e-05,0.00028187912826070334,-0.00029917146229577825,-0.0008648753989545755,0.00035649778150615764,0.00020078855072416685,-0.004160963192192679,-0.0010445165328130238,0.8076412081718445,46.47658920288086,5.786648273468018,-19.733613967895508,-0.5102439522743225,-2.4301180839538574,0.43338340520858765,0
5,0.020002365112304688,-0.8076412081718445,-46.47658920288086,-5.786648273468018,19.733613967895508,0.5102439522743225,2.4301180839538574,-0.43338340520858765,0.0,0.0,0.0,0.0,0.0,0.0,0.0,-0.8087505206018829,-0.1254661762389174,-0.5861138366042201,0.498690307513603,-0.07766071977641785,0.16063251527044525,-0.4137306772977702,0.8782543465589222,0.7556855168346743,-0.2823098182394506,-1.6693044630521265,0.1413907162149747,2.403410788271162,1.027369492365254,0.878092876070424,0.7554597494309409,-0.2825552651693207,-1.6690993614607135,0.1414185955172306,2.4034451173676383,1.0273381002308042,-0.00028187912826070334,0.00029917146229577825,0.0008648753989545755,-0.00035649778150615764,-0.00020078855072416685,0.004160963192192679,0.0010445165328130238,0.0,0.0,0.0,0.0,0.0,0.0,0.0,-0.00016147048849823875,-0.00022576740373347892,-0.00024544692987010786,0.0002051015914130705,2.787930225589541e-05,3.4329096476160004e-05,-3.139213444991462e-05,0.00028187912826070334,-0.00029917146229577825,-0.0008648753989545755,0.00035649778150615764,0.00020078855072416685,-0.004160963192192679,-0.0010445165328130238,0.8076412081718445,46.47658920288086,5.786648273468018,-19.733613967895508,-0.5102439522743225,-2.4301180839538574,0.43338340520858765,0
6,0.024998188018798828,-0.8076412081718445,-46.47658920288086,-5.786648273468018,19.733613967895508,0.5102439522743225,2.4301180839538574,-0.43338340520858765,0.0,0.0,0.0,0.0,0.0,0.0,0.0,-0.8087505206018829,-0.1254661762389174,-0.5861138366042201,0.498690307513603,-0.07766071977641785,0.16063251527044525,-0.4137306772977702,0.8782543465589222,0.7556855168346743,-0.2823098182394506,-1.6693044630521265,0.1413907162149747,2.403410788271162,1.027369492365254,0.878092876070424,0.7554597494309409,-0.2825552651693207,-1.6690993614607135,0.1414185955172306,2.4034451173676383,1.0273381002308042,-0.00028187912826070334,0.00029917146229577825,0.0008648753989545755,-0.00035649778150615764,-0.00020078855072416685,0.004160963192192679,0.0010445165328130238,0.0,0.0,0.0,0.0,0.0,0.0,0.0,-0.00016147048849823875,-0.00022576740373347892,-0.00024544692987010786,0.0002051015914130705,2.787930225589541e-05,3.4329096476160004e-05,-3.139213444991462e-05,0.00028187912826070334,-0.00029917146229577825,-0.0008648753989545755,0.00035649778150615764,0.00020078855072416685,-0.004160963192192679,-0.0010445165328130238,0.8076412081718445,46.47658920288086,5.786648273468018,-19.733613967895508,-0.5102439522743225,-2.4301180839538574,0.43338340520858765,0
7,0.030007362365722656,-0.8076412081718445,-46.47658920288086,-5.786648273468018,19.733613967895508,0.5102439522743225,2.4301180839538574,-0.43338340520858765,0.0,0.0,0.0,0.0,0.0,0.0,0.0,-0.8087505206018829,-0.1254661762389174,-0.5861138366042201,0.498690307513603,-0.07766071977641785,0.16063251527044525,-0.4137306772977702,0.8782543465589222,0.7556855168346743,-0.2823098182394506,-1.6693044630521265,0.1413907162149747,2.403410788271162,1.027369492365254,0.878092876070424,0.7554597494309409,-0.2825552651693207,-1.6690993614607135,0.1414185955172306,2.4034451173676383,1.0273381002308042,-0.00028187912826070334,0.00029917146229577825,0.0008648753989545755,-0.00035649778150615764,-0.00020078855072416685,0.004160963192192679,0.0010445165328130238,0.0,0.0,0.0,0.0,0.0,0.0,0.0,-0.00016147048849823875,-0.00022576740373347892,-0.00024544692987010786,0.0002051015914130705,2.787930225589541e-05,3.4329096476160004e-05,-3.139213444991462e-05,0.00028187912826070334,-0.00029917146229577825,-0.0008648753989545755,0.00035649778150615764,0.00020078855072416685,-0.004160963192192679,-0.0010445165328130238,0.8076412081718445,46.47658920288086,5.786648273468018,-19.733613967895508,-0.5102439522743225,-2.4301180839538574,0.43338340520858765,0
8,0.03501462936401367,-0.8076412081718445,-46.50039291381836,-5.786648273468018,19.686006546020508,0.5047507882118225,2.4301180839538574,-0.39950889348983765,0.0,0.0,0.0,0.0,0.0,0.0,0.0,-0.81459262029675,-0.13810840018788212,-0.5919488417070584,0.5087822315291938,-0.07755812522387547,0.1635030939161,-0.41331595015662215,0.8782543465589222,0.7556871871613626,-0.2823119321497539,-1.6693012291249711,0.14139132656653722,2.4034107883249973,1.027365728046102,0.878092876070424,0.7554597494309409,-0.2825552651693207,-1.6690993614607135,0.1414185955172306,2.4034451173676383,1.0273381002308042,-0.0002732723893275687,0.0008362579472644642,0.0002735861080302236,0.001097724781086443,9.849740287152208e-06,0.00028953196957055334,-0.0011882705670624007,0.0,0.0,0.0,0.0,0.0,0.0,0.0,-0.00016147048849823875,-0.00022743773042177562,-0.00024333301956680486,0.0002018676642576711,2.7268950693382088e-05,3.432904264100145e-05,-2.762781529774827e-05,0.0002732723893275687,-0.0008362579472644642,-0.0002735861080302236,-0.001097724781086443,-9.849740287152208e-06,-0.00028953196957055334,0.0011882705670624007,0.8076412081718445,46.50039291381836,5.786648273468018,-19.686006546020508,-0.5047507882118225,-2.4301180839538574,0.39950889348983765,0
9,0.03999733924865723,-0.8076412081718445,-46.50039291381836,-5.786648273468018,19.686006546020508,0.5047507882118225,2.4301180839538574,-0.39950889348983765,0.0,0.0,0.0,0.0,0.0,0.0,0.0,-0.81459262029675,-0.13810840018788212,-0.5919488417070584,0.5087822315291938,-0.07755812522387547,0.1635030939161,-0.41331595015662215,0.8782543465589222,0.7556871871613626,-0.2823119321497539,-1.6693012291249711,0.14139132656653722,2.4034107883249973,1.027365728046102,0.878092876070424,0.7554597494309409,-0.2825552651693207,-1.6690993614607135,0.1414185955172306,2.4034451173676383,1.0273381002308042,-0.0002732723893275687,0.0008362579472644642,0.0002735861080302236,0.001097724781086443,9.849740287152208e-06,0.00028953196957055334,-0.0011882705670624007,0.0,0.0,0.0,0.0,0.0,0.0,0.0,-0.00016147048849823875,-0.00022743773042177562,-0.00024333301956680486,0.0002018676642576711,2.7268950693382088e-05,3.432904264100145e-05,-2.762781529774827e-05,0.0002732723893275687,-0.0008362579472644642,-0.0002735861080302236,-0.001097724781086443,-9.849740287152208e-06,-0.00028953196957055334,0.0011882705670624007,0.8076412081718445,46.50039291381836,5.786648273468018,-19.686006546020508,-0.5047507882118225,-2.4301180839538574,0.39950889348983765,0
10,0.045046091079711914,-0.8076412081718445,-46.44881820678711,-5.762844562530518,19.733613967895508,0.4983420968055725,2.4301180839538574,-0.42605918645858765,0.0,0.0,0.0,0.0,0.0,0.0,0.0,-0.8172728280616998,-0.14083851266741693,-0.594740837088973,0.5115707306621612,-0.0776668644859381,0.16468395418104037,-0.41365961891387754,0.8782543740310218,0.7556835678836755,-0.28231150297221375,-1.6693045690161388,0.14139199932903185,2.403410788271162,1.0273686785093348,0.878092876070424,0.7554597494309409,-0.2825552651693207,-1.6690993614607135,0.1414185955172306,2.4034451173676383,1.0273381002308042,-0.0003416980968562637,-0.0006331962252672003,-0.00031644727058104946,-0.0008449990581478349,0.0002703021755962749,-0.00015118840288831217,0.0007863138632295258,0.0,0.0,0.0,0.0,0.0,0.0,0.0,-0.00016149796059783394,-0.00022381845273466983,-0.0002437621971069781,0.0002052075554253019,2.659618819875198e-05,3.4329096476160004e-05,-3.057827853059081e-05,0.0003416980968562637,0.0006331962252672003,0.00031644727058104946,0.0008449990581478349,-0.0002703021755962749,0.00015118840288831217,-0.0007863138632295258,0.8076412081718445,46.44881820678711,5.762844562530518,-19.733613967895508,-0.4983420968055725,-2.4301180839538574,0.42605918645858765,0
11,0.05051398277282715,-0.8076412081718445,-46.44881820678711,-5.762844562530518,19.733613967895508,0.4983420968055725,2.4301180839538574,-0.42605918645858765,0.0,0.0,0.0,0.0,0.0,0.0,0.0,-0.8172728280616998,-0.14083851266741693,-0.594740837088973,0.5115707306621612,-0.0776668644859381,0.16468395418104037,-0.41365961891387754,0.8782543740310218,0.7556835678836755,-0.28231150297221375,-1.6693045690161388,0.14139199932903185,2.403410788271162,1.0273686785093348,0.878092876070424,0.7554597494309409,-0.2825552651693207,-1.6690993614607135,0.1414185955172306,2.4034451173676383,1.0273381002308042,-0.0003416980968562637,-0.0006331962252672003,-0.00031644727058104946,-0.0008449990581478349,0.0002703021755962749,-0.00015118840288831217,0.0007863138632295258,0.0,0.0,0.0,0.0,0.0,0.0,0.0,-0.00016149796059783394,-0.00022381845273466983,-0.0002437621971069781,0.0002052075554253019,2.659618819875198e-05,3.4329096476160004e-05,-3.057827853059081e-05,0.0003416980968562637,0.0006331962252672003,0.00031644727058104946,0.0008449990581478349,-0.0002703021755962749,0.00015118840288831217,-0.0007863138632295258,0.8076412081718445,46.44881820678711,5.762844562530518,-19.733613967895508,-0.4983420968055725,-2.4301180839538574,0.42605918645858765,0
12,0.05503368377685547,-0.8076412081718445,-46.50039291381836,-5.762844562530518,19.709810256958008,0.5047507882118225,2.4301180839538574,-0.40591758489608765,0.0,0.0,0.0,0.0,0.0,0.0,0.0,-0.8135722488420725,-0.14693360571420197,-0.5922674591485256,0.513724074903225,-0.07776896208698857,0.16513676538686312,-0.4140092564442406,0.8782543465590772,0.755687187161362,-0.2823114805749399,-1.6693028995614245,0.14139132656631528,2.403410788271162,1.0273664406074414,0.878092876070424,0.7554597494309409,-0.2825552651693207,-1.6690993614607135,0.1414185955172306,2.4034451173676383,1.0273381002308042,-0.0003123285264612591,0.000442631515206541,0.00030482184938470926,-3.4022134672467535e-05,0.00019729918323715807,-1.2812775152590309e-05,-0.0005813462571708437,0.0,0.0,0.0,0.0,0.0,0.0,0.0,-0.00016147048865322589,-0.00022743773042110949,-0.00024378459438084699,0.00020353810071105372,2.726895091531567e-05,3.4329096476160004e-05,-2.8340376637236986e-05,0.0003123285264612591,-0.000442631515206541,-0.00030482184938470926,3.4022134672467535e-05,-0.00019729918323715807,1.2812775152590309e-05,0.0005813462571708437,0.8076412081718445,46.50039291381836,5.762844562530518,-19.709810256958008,-0.5047507882118225,-2.4301180839538574,0.40591758489608765,0
13,0.05999946594238281,-0.8076412081718445,-46.50039291381836,-5.762844562530518,19.709810256958008,0.5047507882118225,2.4301180839538574,-0.40591758489608765,0.0,0.0,0.0,0.0,0.0,0.0,0.0,-0.8135722488420725,-0.14693360571420197,-0.5922674591485256,0.513724074903225,-0.07776896208698857,0.16513676538686312,-0.4140092564442406,0.8782543465590772,0.755687187161362,-0.2823114805749399,-1.6693028995614245,0.14139132656631528,2.403410788271162,1.0273664406074414,0.878092876070424,0.7554597494309409,-0.2825552651693207,-1.6690993614607135,0.1414185955172306,2.4034451173676383,1.0273381002308042,-0.0003123285264612591,0.000442631515206541,0.00030482184938470926,-3.4022134672467535e-05,0.00019729918323715807,-1.2812775152590309e-05,-0.0005813462571708437,0.0,0.0,0.0,0.0,0.0,0.0,0.0,-0.00016147048865322589,-0.00022743773042110949,-0.00024378459438084699,0.00020353810071105372,2.726895091531567e-05,3.4329096476160004e-05,-2.8340376637236986e-05,0.0003123285264612591,-0.000442631515206541,-0.00030482184938470926,3.4022134672467535e-05,-0.00019729918323715807,1.2812775152590309e-05,0.0005813462571708437,0.8076412081718445,46.50039291381836,5.762844562530518,-19.709810256958008,-0.5047507882118225,-2.4301180839538574,0.40591758489608765,0
14,0.0650014877319336,-0.7560665011405945,-46.44881820678711,-5.762844562530518,19.733613967895508,0.5047507882118225,2.4237093925476074,-0.37845176458358765,0.0,0.0,0.0,0.0,0.0,0.0,0.0,-0.8024380722869695,-0.1479057382537488,-0.5837371767418046,0.5139572845527026,-0.07733653991194034,0.16473566601031361,-0.4144051135393849,0.8782507272812358,0.7556835678836755,-0.28231147668656653,-1.6693045690161388,0.14138813771804173,2.403411500347985,1.027363388849629,0.878092876070424,0.7554597494309409,-0.2825552651693207,-1.6690993614607135,0.1414185955172306,2.4034451173676383,1.0273381002308042,-0.0010701383064796422,-0.0008449240802693919,0.00027845362629689814,-0.0006238824032120736,0.00017956673483438728,-3.093214135783143e-05,-0.0018526186522633658,0.0,0.0,0.0,0.0,0.0,0.0,0.0,-0.0001578512108117991,-0.00022381845273466983,-0.00024378848275419251,0.0002052075554253019,3.0457799188865486e-05,3.361701965332031e-05,-2.5288618824781395e-05,0.0010701383064796422,0.0008449240802693919,-0.00027845362629689814,0.0006238824032120736,-0.00017956673483438728,3.093214135783143e-05,0.0018526186522633658,0.7560665011405945,46.44881820678711,5.762844562530518,-19.733613967895508,-0.5047507882118225,-2.4237093925476074,0.37845176458358765,0
15,0.07000112533569336,-0.7560665011405945,-46.44881820678711,-5.762844562530518,19.733613967895508,0.5047507882118225,2.4237093925476074,-0.37845176458358765,0.0,0.0,0.0,0.0,0.0,0.0,0.0,-0.8024380722869695,-0.1479057382537488,-0.5837371767418046,0.5139572845527026,-0.07733653991194034,0.16473566601031361,-0.4144051135393849,0.8782507272812358,0.7556835678836755,-0.28231147668656653,-1.6693045690161388,0.14138813771804173,2.403411500347985,1.027363388849629,0.878092876070424,0.7554597494309409,-0.2825552651693207,-1.6690993614607135,0.1414185955172306,2.4034451173676383,1.0273381002308042,-0.0010701383064796422,-0.0008449240802693919,0.00027845362629689814,-0.0006238824032120736,0.00017956673483438728,-3.093214135783143e-05,-0.0018526186522633658,0.0,0.0,0.0,0.0,0.0,0.0,0.0,-0.0001578512108117991,-0.00022381845273466983,-0.00024378848275419251,0.0002052075554253019,3.0457799188865486e-05,3.361701965332031e-05,-2.5288618824781395e-05,0.0010701383064796422,0.0008449240802693919,-0.00027845362629689814,0.0006238824032120736,-0.00017956673483438728,3.093214135783143e-05,0.0018526186522633658,0.7560665011405945,46.44881820678711,5.762844562530518,-19.733613967895508,-0.5047507882118225,-2.4237093925476074,0.37845176458358765,0
16,0.07499909400939941,-0.7838374972343445,-46.50039291381836,-5.786648273468018,19.733613967895508,0.5102439522743225,2.4237093925476074,-0.43338340520858765,0.0,0.0,0.0,0.0,0.0,0.0,0.0,-0.821888994888116,-0.14778368598606254,-0.6001023491862459,0.5111136679267279,-0.07680529054090783,0.16340559312179698,-0.415354894016222,0.8782526761230669,0.755687196100696,-0.2823119334937716,-1.6693045699972835,0.14139071620897434,2.403411500347985,1.027369492365254,0.878092876070424,0.7554597494309409,-0.2825552651693207,-1.6690993614607135,0.1414185955172306,2.4034451173676383,1.0273381002308042,-0.0008081947377750962,0.000791103466817873,0.00014001928266096035,-0.000692912719286245,3.324331607864747e-05,-5.758850019058578e-05,0.0009419474022713443,0.0,0.0,0.0,0.0,0.0,0.0,0.0,-0.0001598000526429333,-0.00022744666975516026,-0.00024333167554912993,0.00020520853657002291,2.787930825626228e-05,3.361701965332031e-05,-3.139213444991462e-05,0.0008081947377750962,-0.000791103466817873,-0.00014001928266096035,0.000692912719286245,-3.324331607864747e-05,5.758850019058578e-05,-0.0009419474022713443,0.7838374972343445,46.50039291381836,5.786648273468018,-19.733613967895508,-0.5102439522743225,-2.4237093925476074,0.43338340520858765,0
17,0.07999515533447266,-0.7838374972343445,-46.50039291381836,-5.786648273468018,19.733613967895508,0.5102439522743225,2.4237093925476074,-0.43338340520858765,0.0,0.0,0.0,0.0,0.0,0.0,0.0,-0.821888994888116,-0.14778368598606254,-0.6001023491862459,0.5111136679267279,-0.07680529054090783,0.16340559312179698,-0.415354894016222,0.8782526761230669,0.755687196100696,-0.2823119334937716,-1.6693045699972835,0.14139071620897434,2.403411500347985,1.027369492365254,0.878092876070424,0.7554597494309409,-0.2825552651693207,-1.6690993614607135,0.1414185955172306,2.4034451173676383,1.0273381002308042,-0.0008081947377750962,0.000791103466817873,0.00014001928266096035,-0.000692912719286245,3.324331607864747e-05,-5.758850019058578e-05,0.0009419474022713443,0.0,0.0,0.0,0.0,0.0,0.0,0.0,-0.0001598000526429333,-0.00022744666975516026,-0.00024333167554912993,0.00020520853657002291,2.787930825626228e-05,3.361701965332031e-05,-3.139213444991462e-05,0.0008081947377750962,-0.000791103466817873,-0.00014001928266096035,0.000692912719286245,-3.324331607864747e-05,5.758850019058578e-05,-0.0009419474022713443,0.7838374972343445,46.50039291381836,5.786648273468018,-19.733613967895508,-0.5102439522743225,-2.4237093925476074,0.43338340520858765,0
18,0.08499574661254883,-0.8076412081718445,-46.50039291381836,-5.735073566436768,19.709810256958008,0.4983420968055725,2.4365267753601074,-0.40591758489608765,0.0,0.0,0.0,0.0,0.0,0.0,0.0,-0.8116776115575604,-0.14240548404888975,-0.5958049586279988,0.5080131531976789,-0.07689420771157622,0.16187142825470155,-0.4152766127415484,0.8782543465589222,0.7556871872704287,-0.28231578765038073,-1.6693028907311123,0.1413920386433601,2.4034100761943393,1.027366401361585,0.878092876070424,0.7554597494309409,-0.2825552651693207,-1.6690993614607135,0.1414185955172306,2.4034451173676383,1.0273381002308042,-0.0002713089203770269,0.0008804229077360643,-0.0004888932515266376,7.056657314439234e-05,0.00028674908607932204,-0.0003492737787997778,-0.0009151288737107716,0.0,0.0,0.0,0.0,0.0,0.0,0.0,-0.00016147048849823875,-0.0002274378394878651,-0.00023947751893999003,0.00020352927039879454,2.6556873870486886e-05,3.5041173298999695e-05,-2.8301130780894468e-05,0.0002713089203770269,-0.0008804229077360643,0.0004888932515266376,-7.056657314439234e-05,-0.00028674908607932204,0.0003492737787997778,0.0009151288737107716,0.8076412081718445,46.50039291381836,5.735073566436768,-19.709810256958008,-0.4983420968055725,-2.4365267753601074,0.40591758489608765,0
19,0.0899953842163086,-0.8076412081718445,-46.50039291381836,-5.735073566436768,19.709810256958008,0.4983420968055725,2.4365267753601074,-0.40591758489608765,0.0,0.0,0.0,0.0,0.0,0.0,0.0,-0.8116776115575604,-0.14240548404888975,-0.5958049586279988,0.5080131531976789,-0.07689420771157622,0.16187142825470155,-0.4152766127415484,0.8782543465589222,0.7556871872704287,-0.28231578765038073,-1.6693028907311123,0.1413920386433601,2.4034100761943393,1.027366401361585,0.878092876070424,0.7554597494309409,-0.2825552651693207,-1.6690993614607135,0.1414185955172306,2.4034451173676383,1.0273381002308042,-0.0002713089203770269,0.0008804229077360643,-0.0004888932515266376,7.056657314439234e-05,0.00028674908607932204,-0.0003492737787997778,-0.0009151288737107716,0.0,0.0,0.0,0.0,0.0,0.0,0.0,-0.00016147048849823875,-0.0002274378394878651,-0.00023947751893999003,0.00020352927039879454,2.6556873870486886e-05,3.5041173298999695e-05,-2.8301130780894468e-05,0.0002713089203770269,-0.0008804229077360643,0.0004888932515266376,-7.056657314439234e-05,-0.00028674908607932204,0.0003492737787997778,0.0009151288737107716,0.8076412081718445,46.50039291381836,5.735073566436768,-19.709810256958008,-0.4983420968055725,-2.4365267753601074,0.40591758489608765,0
20,0.09501004219055176,-0.8354122042655945,-46.42501449584961,-5.762844562530518,19.733613967895508,0.5102439522743225,2.4301180839538574,-0.37845176458358765,0.0,0.0,0.0,0.0,0.0,0.0,0.0,-0.8068175688634045,-0.13858475229429798,-0.5910015374583751,0.5073748723080532,-0.07732048087813316,0.16143279002867592,-0.41642298997841887,0.8782562954007533,0.755681897447821,-0.2823114766998788,-1.6693045611669177,0.14139071621497473,2.403410788271162,1.0273602099350194,0.878092876070424,0.7554597494309409,-0.2825552651693207,-1.6690993614607135,0.1414185955172306,2.4034451173676383,1.0273381002308042,0.0005482265724518949,-0.0006867643885332789,0.00018837413664777884,-0.000459012084338165,-9.017264598363912e-05,-9.842842716033682e-05,-0.0013727480569619634,0.0,0.0,0.0,0.0,0.0,0.0,0.0,-0.00016341933032937295,-0.00022214801688014152,-0.0002437884694418968,0.000205199706204251,2.7879302255867655e-05,3.4329096476160004e-05,-2.210970421523406e-05,-0.0005482265724518949,0.0006867643885332789,-0.00018837413664777884,0.000459012084338165,9.017264598363912e-05,9.842842716033682e-05,0.0013727480569619634,0.8354122042655945,46.42501449584961,5.762844562530518,-19.733613967895508,-0.5102439522743225,-2.4301180839538574,0.37845176458358765,0
21,0.10001993179321289,-0.8354122042655945,-46.42501449584961,-5.762844562530518,19.733613967895508,0.5102439522743225,2.4301180839538574,-0.37845176458358765,0.0,0.0,0.0,0.0,0.0,0.0,0.0,-0.8068175688634045,-0.13858475229429798,-0.5910015374583751,0.5073748723080532,-0.07732048087813316,0.16143279002867592,-0.41642298997841887,0.8782562954007533,0.755681897447821,-0.2823114766998788,-1.6693045611669177,0.14139071621497473,2.403410788271162,1.0273602099350194,0.878092876070424,0.7554597494309409,-0.2825552651693207,-1.6690993614607135,0.1414185955172306,2.4034451173676383,1.0273381002308042,0.0005482265724518949,-0.0006867643885332789,0.00018837413664777884,-0.000459012084338165,-9.017264598363912e-05,-9.842842716033682e-05,-0.0013727480569619634,0.0,0.0,0.0,0.0,0.0,0.0,0.0,-0.00016341933032937295,-0.00022214801688014152,-0.0002437884694418968,0.000205199706204251,2.7879302255867655e-05,3.4329096476160004e-05,-2.210970421523406e-05,-0.0005482265724518949,0.0006867643885332789,-0.00018837413664777884,0.000459012084338165,9.017264598363912e-05,9.842842716033682e-05,0.0013727480569619634,0.8354122042655945,46.42501449584961,5.762844562530518,-19.733613967895508,-0.5102439522743225,-2.4301180839538574,0.37845176458358765,0
22,0.10503101348876953,-0.8076412081718445,-46.50039291381836,-5.735073566436768,19.733613967895508,0.4983420968055725,2.4301180839538574,-0.42605918645858765,0.0,0.0,0.0,0.0,0.0,0.0,0.0,-0.8141476389054924,-0.1315067648788734,-0.591638401182834,0.50416114690153,-0.07760693161229845,0.16120793175666703,-0.415168635538409,0.8782564923261341,0.755687187161362,-0.28231374954895144,-1.6693045699972355,0.14139203864336014,2.403410788271162,1.0273686785452258,0.878092876070424,0.7554597494309409,-0.2825552651693207,-1.6690993614607135,0.1414185955172306,2.4034451173676383,1.0273381002308042,-0.00018331124941811682,0.0012887893309209428,-0.0007548556820401026,-0.0010475558885509224,0.00017389232023865591,7.659089969804722e-05,0.00031007000692702847,0.0,0.0,0.0,0.0,0.0,0.0,0.0,-0.00016361625571015281,-0.00022743773042110949,-0.00024151562036928143,0.00020520853652206128,2.655687387045913e-05,3.4329096476160004e-05,-3.05783144216587e-05,0.00018331124941811682,-0.0012887893309209428,0.0007548556820401026,0.0010475558885509224,-0.00017389232023865591,-7.659089969804722e-05,-0.00031007000692702847,0.8076412081718445,46.50039291381836,5.735073566436768,-19.733613967895508,-0.4983420968055725,-2.4301180839538574,0.42605918645858765,0
23,0.11000871658325195,-0.8076412081718445,-46.50039291381836,-5.735073566436768,19.733613967895508,0.4983420968055725,2.4301180839538574,-0.42605918645858765,0.0,0.0,0.0,0.0,0.0,0.0,0.0,-0.8141476389054924,-0.1315067648788734,-0.591638401182834,0.50416114690153,-0.07760693161229845,0.16120793175666703,-0.415168635538409,0.8782564923261341,0.755687187161362,-0.28231374954895144,-1.6693045699972355,0.14139203864336014,2.403410788271162,1.0273686785452258,0.878092876070424,0.7554597494309409,-0.2825552651693207,-1.6690993614607135,0.1414185955172306,2.4034451173676383,1.0273381002308042,-0.00018331124941811682,0.0012887893309209428,-0.0007548556820401026,-0.0010475558885509224,0.00017389232023865591,7.659089969804722e-05,0.00031007000692702847,0.0,0.0,0.0,0.0,0.0,0.0,0.0,-0.00016361625571015281,-0.00022743773042110949,-0.00024151562036928143,0.00020520853652206128,2.655687387045913e-05,3.4329096476160004e-05,-3.05783144216587e-05,0.00018331124941811682,-0.0012887893309209428,0.0007548556820401026,0.0010475558885509224,-0.00017389232023865591,-7.659089969804722e-05,-0.00031007000692702847,0.8076412081718445,46.50039291381836,5.735073566436768,-19.733613967895508,-0.4983420968055725,-2.4301180839538574,0.42605918645858765,0
24,0.11499834060668945,-0.8076412081718445,-46.50039291381836,-5.735073566436768,19.733613967895508,0.4983420968055725,2.4301180839538574,-0.42605918645858765,0.0,0.0,0.0,0.0,0.0,0.0,0.0,-0.8141476389054924,-0.1315067648788734,-0.591638401182834,0.50416114690153,-0.07760693161229845,0.16120793175666703,-0.415168635538409,0.8782564923261341,0.755687187161362,-0.28231374954895144,-1.6693045699972355,0.14139203864336014,2.403410788271162,1.0273686785452258,0.878092876070424,0.7554597494309409,-0.2825552651693207,-1.6690993614607135,0.1414185955172306,2.4034451173676383,1.0273381002308042,-0.00018331124941811682,0.0012887893309209428,-0.0007548556820401026,-0.0010475558885509224,0.00017389232023865591,7.659089969804722e-05,0.00031007000692702847,0.0,0.0,0.0,0.0,0.0,0.0,0.0,-0.00016361625571015281,-0.00022743773042110949,-0.00024151562036928143,0.00020520853652206128,2.655687387045913e-05,3.4329096476160004e-05,-3.05783144216587e-05,0.00018331124941811682,-0.0012887893309209428,0.0007548556820401026,0.0010475558885509224,-0.00017389232023865591,-7.659089969804722e-05,-0.00031007000692702847,0.8076412081718445,46.50039291381836,5.735073566436768,-19.733613967895508,-0.4983420968055725,-2.4301180839538574,0.42605918645858765,0
25,0.11999773979187012,-0.8076412081718445,-46.52419662475586,-5.735073566436768,19.686006546020508,0.5047507882118225,2.4237093925476074,-0.37845176458358765,0.0,0.0,0.0,0.0,0.0,0.0,0.0,-0.8092110253555715,-0.14725318955895508,-0.5872575656389695,0.5134315741395971,-0.07812709196534291,0.162784832587922,-0.414592874037338,0.8782543465710351,0.755689652652863,-0.2823162600622008,-1.6693012291255749,0.14138813771804173,2.403411500347985,1.027363388849629,0.878092876070424,0.7554597494309409,-0.2825552651693207,-1.6690993614607135,0.1414185955172306,2.4034451173676383,1.0273381002308042,-0.00035281615226859345,0.001025523454179608,-0.00024493358051367903,0.0005480486662845,0.00020663062451737837,1.1907471259131448e-05,-0.0017255971213366167,0.0,0.0,0.0,0.0,0.0,0.0,0.0,-0.00016147050061110502,-0.0002299032219221786,-0.0002390051071199384,0.0002018676648614104,3.0457799188865486e-05,3.361701965332031e-05,-2.5288618824781395e-05,0.00035281615226859345,-0.001025523454179608,0.00024493358051367903,-0.0005480486662845,-0.00020663062451737837,-1.1907471259131448e-05,0.0017255971213366167,0.8076412081718445,46.52419662475586,5.735073566436768,-19.686006546020508,-0.5047507882118225,-2.4237093925476074,0.37845176458358765,0
26,0.12499475479125977,-0.8076412081718445,-46.52419662475586,-5.735073566436768,19.686006546020508,0.5047507882118225,2.4237093925476074,-0.37845176458358765,0.0,0.0,0.0,0.0,0.0,0.0,0.0,-0.8092110253555715,-0.14725318955895508,-0.5872575656389695,0.5134315741395971,-0.07812709196534291,0.162784832587922,-0.414592874037338,0.8782543465710351,0.755689652652863,-0.2823162600622008,-1.6693012291255749,0.14138813771804173,2.403411500347985,1.027363388849629,0.878092876070424,0.7554597494309409,-0.2825552651693207,-1.6690993614607135,0.1414185955172306,2.4034451173676383,1.0273381002308042,-0.00035281615226859345,0.001025523454179608,-0.00024493358051367903,0.0005480486662845,0.00020663062451737837,1.1907471259131448e-05,-0.0017255971213366167,0.0,0.0,0.0,0.0,0.0,0.0,0.0,-0.00016147050061110502,-0.0002299032219221786,-0.0002390051071199384,0.0002018676648614104,3.0457799188865486e-05,3.361701965332031e-05,-2.5288618824781395e-05,0.00035281615226859345,-0.001025523454179608,0.00024493358051367903,-0.0005480486662845,-0.00020663062451737837,-1.1907471259131448e-05,0.0017255971213366167,0.8076412081718445,46.52419662475586,5.735073566436768,-19.686006546020508,-0.5047507882118225,-2.4237093925476074,0.37845176458358765,0
27,0.13001275062561035,-0.7838374972343445,-46.42501449584961,-5.786648273468018,19.709810256958008,0.5047507882118225,2.4237093925476074,-0.40591758489608765,0.0,0.0,0.0,0.0,0.0,0.0,0.0,-0.8153308136008154,-0.14135629873954383,-0.5885417754313069,0.5112936097271711,-0.07768954802193734,0.16178738094150105,-0.4138628245280907,0.8782548218902789,0.7556818974612847,-0.2823105965848764,-1.6693026601617045,0.141391322138256,2.403411500347985,1.027366438992386,0.878092876070424,0.7554597494309409,-0.2825552651693207,-1.6690993614607135,0.1414185955172306,2.4034451173676383,1.0273381002308042,-0.001073023028387363,-0.0011085273644311517,0.001023033705153422,0.00020085064877094154,0.0001461285492967275,0.0001210746879145335,-0.000776473068631009,0.0,0.0,0.0,0.0,0.0,0.0,0.0,-0.00016194581985495837,-0.00022214803034381614,-0.0002446685844443297,0.0002032987009910059,2.727337897459603e-05,3.361701965332031e-05,-2.8338761581814254e-05,0.001073023028387363,0.0011085273644311517,-0.001023033705153422,-0.00020085064877094154,-0.0001461285492967275,-0.0001210746879145335,0.000776473068631009,0.7838374972343445,46.42501449584961,5.786648273468018,-19.709810256958008,-0.5047507882118225,-2.4237093925476074,0.40591758489608765,0
28,0.13501405715942383,-0.7838374972343445,-46.42501449584961,-5.786648273468018,19.709810256958008,0.5047507882118225,2.4237093925476074,-0.40591758489608765,0.0,0.0,0.0,0.0,0.0,0.0,0.0,-0.8153308136008154,-0.14135629873954383,-0.5885417754313069,0.5112936097271711,-0.07768954802193734,0.16178738094150105,-0.4138628245280907,0.8782548218902789,0.7556818974612847,-0.2823105965848764,-1.6693026601617045,0.141391322138256,2.403411500347985,1.027366438992386,0.878092876070424,0.7554597494309409,-0.2825552651693207,-1.6690993614607135,0.1414185955172306,2.4034451173676383,1.0273381002308042,-0.001073023028387363,-0.0011085273644311517,0.001023033705153422,0.00020085064877094154,0.0001461285492967275,0.0001210746879145335,-0.000776473068631009,0.0,0.0,0.0,0.0,0.0,0.0,0.0,-0.00016194581985495837,-0.00022214803034381614,-0.0002446685844443297,0.0002032987009910059,2.727337897459603e-05,3.361701965332031e-05,-2.8338761581814254e-05,0.001073023028387363,0.0011085273644311517,-0.001023033705153422,-0.00020085064877094154,-0.0001461285492967275,-0.0001210746879145335,0.000776473068631009,0.7838374972343445,46.42501449584961,5.786648273468018,-19.709810256958008,-0.5047507882118225,-2.4237093925476074,0.40591758489608765,0
29,0.140000581741333,-0.7838374972343445,-46.42501449584961,-5.786648273468018,19.709810256958008,0.5047507882118225,2.4237093925476074,-0.40591758489608765,0.0,0.0,0.0,0.0,0.0,0.0,0.0,-0.8153308136008154,-0.14135629873954383,-0.5885417754313069,0.5112936097271711,-0.07768954802193734,0.16178738094150105,-0.4138628245280907,0.8782548218902789,0.7556818974612847,-0.2823105965848764,-1.6693026601617045,0.141391322138256,2.403411500347985,1.027366438992386,0.878092876070424,0.7554597494309409,-0.2825552651693207,-1.6690993614607135,0.1414185955172306,2.4034451173676383,1.0273381002308042,-0.001073023028387363,-0.0011085273644311517,0.001023033705153422,0.00020085064877094154,0.0001461285492967275,0.0001210746879145335,-0.000776473068631009,0.0,0.0,0.0,0.0,0.0,0.0,0.0,-0.00016194581985495837,-0.00022214803034381614,-0.0002446685844443297,0.0002032987009910059,2.727337897459603e-05,3.361701965332031e-05,-2.8338761581814254e-05,0.001073023028387363,0.0011085273644311517,-0.001023033705153422,-0.00020085064877094154,-0.0001461285492967275,-0.0001210746879145335,0.000776473068631009,0.7838374972343445,46.42501449584961,5.786648273468018,-19.709810256958008,-0.5047507882118225,-2.4237093925476074,0.40591758489608765,0
30,0.14495849609375,-0.7838374972343445,-46.42501449584961,-5.786648273468018,19.709810256958008,0.5047507882118225,2.4237093925476074,-0.40591758489608765,0.0,0.0,0.0,0.0,0.0,0.0,0.0,-0.8153308136008154,-0.14135629873954383,-0.5885417754313069,0.5112936097271711,-0.07768954802193734,0.16178738094150105,-0.4138628245280907,0.8782548218902789,0.7556818974612847,-0.2823105965848764,-1.6693026601617045,0.141391322138256,2.403411500347985,1.027366438992386,0.878092876070424,0.7554597494309409,-0.2825552651693207,-1.6690993614607135,0.1414185955172306,2.4034451173676383,1.0273381002308042,-0.001073023028387363,-0.0011085273644311517,0.001023033705153422,0.00020085064877094154,0.0001461285492967275,0.0001210746879145335,-0.000776473068631009,0.0,0.0,0.0,0.0,0.0,0.0,0.0,-0.00016194581985495837,-0.00022214803034381614,-0.0002446685844443297,0.0002032987009910059,2.727337897459603e-05,3.361701965332031e-05,-2.8338761581814254e-05,0.001073023028387363,0.0011085273644311517,-0.001023033705153422,-0.00020085064877094154,-0.0001461285492967275,-0.0001210746879145335,0.000776473068631009,0.7838374972343445,46.42501449584961,5.786648273468018,-19.709810256958008,-0.5047507882118225,-2.4237093925476074,0.40591758489608765,0
31,0.14999747276306152,-0.7838374972343445,-46.47658920288086,-5.762844562530518,19.733613967895508,0.5047507882118225,2.4173007011413574,-0.44711631536483765,0.0,0.0,0.0,0.0,0.0,0.0,0.0,-0.8190926186870543,-0.13781120291834292,-0.58864004236995,0.5122151800911757,-0.0776767949045184,0.1611468469132176,-0.41525745223767774,0.8782526761271044,0.7556855167255067,-0.2823138650796973,-1.6693045699968347,0.1413913265665289,2.4034122124248083,1.0273710051622051,0.878092876070424,0.7554597494309409,-0.2825552651693207,-1.6690993614607135,0.1414185955172306,2.4034451173676383,1.0273381002308042,-0.0010319199220194674,0.0002909924661033827,2.0239824536300562e-05,-0.0005356376619693883,-5.317827810200903e-05,0.00042963358381059444,0.0014218084535865731,0.0,0.0,0.0,0.0,0.0,0.0,0.0,-0.00015980005668048136,-0.00022576729456580402,-0.00024140008962342252,0.00020520853612127077,2.726895070170876e-05,3.290494283003653e-05,-3.290493140095663e-05,0.0010319199220194674,-0.0002909924661033827,-2.0239824536300562e-05,0.0005356376619693883,5.317827810200903e-05,-0.00042963358381059444,-0.0014218084535865731,0.7838374972343445,46.47658920288086,5.762844562530518,-19.733613967895508,-0.5047507882118225,-2.4173007011413574,0.44711631536483765,0
32,0.15499544143676758,-0.7838374972343445,-46.47658920288086,-5.762844562530518,19.733613967895508,0.5047507882118225,2.4173007011413574,-0.44711631536483765,0.0,0.0,0.0,0.0,0.0,0.0,0.0,-0.8190926186870543,-0.13781120291834292,-0.58864004236995,0.5122151800911757,-0.0776767949045184,0.1611468469132176,-0.41525745223767774,0.8782526761271044,0.7556855167255067,-0.2823138650796973,-1.6693045699968347,0.1413913265665289,2.4034122124248083,1.0273710051622051,0.878092876070424,0.7554597494309409,-0.2825552651693207,-1.6690993614607135,0.1414185955172306,2.4034451173676383,1.0273381002308042,-0.0010319199220194674,0.0002909924661033827,2.0239824536300562e-05,-0.0005356376619693883,-5.317827810200903e-05,0.00042963358381059444,0.0014218084535865731,0.0,0.0,0.0,0.0,0.0,0.0,0.0,-0.00015980005668048136,-0.00022576729456580402,-0.00024140008962342252,0.00020520853612127077,2.726895070170876e-05,3.290494283003653e-05,-3.290493140095663e-05,0.0010319199220194674,-0.0002909924661033827,-2.0239824536300562e-05,0.0005356376619693883,5.317827810200903e-05,-0.00042963358381059444,-0.0014218084535865731,0.7838374972343445,46.47658920288086,5.762844562530518,-19.733613967895508,-0.5047507882118225,-2.4173007011413574,0.44711631536483765,0
33,0.1600031852722168,-0.8354122042655945,-46.44881820678711,-5.762844562530518,19.733613967895508,0.5102439522743225,2.4173007011413574,-0.42605918645858765,0.0,0.0,0.0,0.0,0.0,0.0,0.0,-0.8221956026577601,-0.13345095723116351,-0.5912401560555685,0.5101967061912912,-0.0783901478502794,0.16050157524090877,-0.4145395587011178,0.8782562983441926,0.7556835943746287,-0.28231148544858264,-1.669304569888269,0.14139071621497473,2.4034122124248083,1.027368678563097,0.878092876070424,0.7554597494309409,-0.2825552651693207,-1.6690993614607135,0.1414185955172306,2.4034451173676383,1.0273381002308042,0.0004926368776273536,-0.00023383890988029718,-0.0005135189911751288,-0.0006753682896151968,-0.0002396947395972154,0.00023371173807368992,0.0006044780911455687,0.0,0.0,0.0,0.0,0.0,0.0,0.0,-0.00016342227376864304,-0.00022384494368787866,-0.00024377972073807985,0.00020520842755544777,2.7879302255867655e-05,3.290494283003653e-05,-3.057833229291873e-05,-0.0004926368776273536,0.00023383890988029718,0.0005135189911751288,0.0006753682896151968,0.0002396947395972154,-0.00023371173807368992,-0.0006044780911455687,0.8354122042655945,46.44881820678711,5.762844562530518,-19.733613967895508,-0.5102439522743225,-2.4173007011413574,0.42605918645858765,0
34,0.16501092910766602,-0.8354122042655945,-46.44881820678711,-5.762844562530518,19.733613967895508,0.5102439522743225,2.4173007011413574,-0.42605918645858765,0.0,0.0,0.0,0.0,0.0,0.0,0.0,-0.8221956026577601,-0.13345095723116351,-0.5912401560555685,0.5101967061912912,-0.0783901478502794,0.16050157524090877,-0.4145395587011178,0.8782562983441926,0.7556835943746287,-0.28231148544858264,-1.669304569888269,0.14139071621497473,2.4034122124248083,1.027368678563097,0.878092876070424,0.7554597494309409,-0.2825552651693207,-1.6690993614607135,0.1414185955172306,2.4034451173676383,1.0273381002308042,0.0004926368776273536,-0.00023383890988029718,-0.0005135189911751288,-0.0006753682896151968,-0.0002396947395972154,0.00023371173807368992,0.0006044780911455687,0.0,0.0,0.0,0.0,0.0,0.0,0.0,-0.00016342227376864304,-0.00022384494368787866,-0.00024377972073807985,0.00020520842755544777,2.7879302255867655e-05,3.290494283003653e-05,-3.057833229291873e-05,-0.0004926368776273536,0.00023383890988029718,0.0005135189911751288,0.0006753682896151968,0.0002396947395972154,-0.00023371173807368992,-0.0006044780911455687,0.8354122042655945,46.44881820678711,5.762844562530518,-19.733613967895508,-0.5102439522743225,-2.4173007011413574,0.42605918645858765,0
35,0.17002558708190918,-0.8354122042655945,-46.50039291381836,-5.762844562530518,19.686006546020508,0.5047507882118225,2.4365267753601074,-0.39218467473983765,0.0,0.0,0.0,0.0,0.0,0.0,0.0,-0.8061369643154677,-0.14846552848621947,-0.5822918627254222,0.5177977463327313,-0.0784987995962672,0.16106694927046375,-0.4130764479744024,0.8782562954007699,0.7556871881426579,-0.2823114776586558,-1.6693012291255742,0.14139132656653722,2.4034100761943393,1.0273649147285353,0.878092876070424,0.7554597494309409,-0.2825552651693207,-1.6690993614607135,0.1414185955172306,2.4034451173676383,1.0273381002308042,0.0009028410282138394,0.0004278894025603043,0.00020948376331272997,0.0008607485418059706,-1.5173595946723703e-05,-0.0006253150253112416,-0.0003441158531830234,0.0,0.0,0.0,0.0,0.0,0.0,0.0,-0.00016341933034591527,-0.00022743871171704289,-0.00024378751066495008,0.00020186766486074426,2.7268950693382088e-05,3.5041173298999695e-05,-2.6814497731120213e-05,-0.0009028410282138394,-0.0004278894025603043,-0.00020948376331272997,-0.0008607485418059706,1.5173595946723703e-05,0.0006253150253112416,0.0003441158531830234,0.8354122042655945,46.50039291381836,5.762844562530518,-19.686006546020508,-0.5047507882118225,-2.4365267753601074,0.39218467473983765,0
36,0.17499661445617676,-0.8354122042655945,-46.50039291381836,-5.762844562530518,19.686006546020508,0.5047507882118225,2.4365267753601074,-0.39218467473983765,0.0,0.0,0.0,0.0,0.0,0.0,0.0,-0.8061369643154677,-0.14846552848621947,-0.5822918627254222,0.5177977463327313,-0.0784987995962672,0.16106694927046375,-0.4130764479744024,0.8782562954007699,0.7556871881426579,-0.2823114776586558,-1.6693012291255742,0.14139132656653722,2.4034100761943393,1.0273649147285353,0.878092876070424,0.7554597494309409,-0.2825552651693207,-1.6690993614607135,0.1414185955172306,2.4034451173676383,1.0273381002308042,0.0009028410282138394,0.0004278894025603043,0.00020948376331272997,0.0008607485418059706,-1.5173595946723703e-05,-0.0006253150253112416,-0.0003441158531830234,0.0,0.0,0.0,0.0,0.0,0.0,0.0,-0.00016341933034591527,-0.00022743871171704289,-0.00024378751066495008,0.00020186766486074426,2.7268950693382088e-05,3.5041173298999695e-05,-2.6814497731120213e-05,-0.0009028410282138394,-0.0004278894025603043,-0.00020948376331272997,-0.0008607485418059706,1.5173595946723703e-05,0.0006253150253112416,0.0003441158531830234,0.8354122042655945,46.50039291381836,5.762844562530518,-19.686006546020508,-0.5047507882118225,-2.4365267753601074,0.39218467473983765,0
37,0.17995023727416992,-0.8592159152030945,-46.47658920288086,-5.786648273468018,19.733613967895508,0.5102439522743225,2.4301180839538574,-0.42605918645858765,0.0,0.0,0.0,0.0,0.0,0.0,0.0,-0.8141843438625411,-0.13500792437284875,-0.5870168538570667,0.5065223667344452,-0.07868721997375192,0.1598742546860336,-0.41147963068305266,0.8782579658366086,0.7556855432164654,-0.2823098324963614,-1.6693045696338977,0.14139071621497473,2.403410788271162,1.0273686785631708,0.878092876070424,0.7554597494309409,-0.2825552651693207,-1.6690993614607135,0.1414185955172306,2.4034451173676383,1.0273381002308042,0.0010754549161923178,0.0002254829946959903,0.0008008546726844608,-0.001097864102324102,-0.0001535773010081254,1.5059926565143604e-05,0.00042975130105208005,0.0,0.0,0.0,0.0,0.0,0.0,0.0,-0.0001650897661846784,-0.00022579378552456397,-0.0002454326729593448,0.000205208173184257,2.7879302255867655e-05,3.4329096476160004e-05,-3.057833236663754e-05,-0.0010754549161923178,-0.0002254829946959903,-0.0008008546726844608,0.001097864102324102,0.0001535773010081254,-1.5059926565143604e-05,-0.00042975130105208005,0.8592159152030945,46.47658920288086,5.786648273468018,-19.733613967895508,-0.5102439522743225,-2.4301180839538574,0.42605918645858765,0
38,0.18500900268554688,-0.8592159152030945,-46.47658920288086,-5.786648273468018,19.733613967895508,0.5102439522743225,2.4301180839538574,-0.42605918645858765,0.0,0.0,0.0,0.0,0.0,0.0,0.0,-0.8141843438625411,-0.13500792437284875,-0.5870168538570667,0.5065223667344452,-0.07868721997375192,0.1598742546860336,-0.41147963068305266,0.8782579658366086,0.7556855432164654,-0.2823098324963614,-1.6693045696338977,0.14139071621497473,2.403410788271162,1.0273686785631708,0.878092876070424,0.7554597494309409,-0.2825552651693207,-1.6690993614607135,0.1414185955172306,2.4034451173676383,1.0273381002308042,0.0010754549161923178,0.0002254829946959903,0.0008008546726844608,-0.001097864102324102,-0.0001535773010081254,1.5059926565143604e-05,0.00042975130105208005,0.0,0.0,0.0,0.0,0.0,0.0,0.0,-0.0001650897661846784,-0.00022579378552456397,-0.0002454326729593448,0.000205208173184257,2.7879302255867655e-05,3.4329096476160004e-05,-3.057833236663754e-05,-0.0010754549161923178,-0.0002254829946959903,-0.0008008546726844608,0.001097864102324102,0.0001535773010081254,-1.5059926565143604e-05,-0.00042975130105208005,0.8592159152030945,46.47658920288086,5.786648273468018,-19.733613967895508,-0.5102439522743225,-2.4301180839538574,0.42605918645858765,0
39,0.19002199172973633,-0.8076412081718445,-46.47658920288086,-5.762844562530518,19.709810256958008,0.5047507882118225,2.4237093925476074,-0.42605918645858765,0.0,0.0,0.0,0.0,0.0,0.0,0.0,-0.8168607073294097,-0.15098895849923952,-0.5910814853010986,0.5132212647341542,-0.07807701183834989,0.16137197977899673,-0.41165541131125694,0.8782543465589222,0.7556855167256562,-0.2823136025856897,-1.6693028966179888,0.14139097225003772,2.403411500347985,1.0273686785631708,0.878092876070424,0.7554597494309409,-0.2825552651693207,-1.6690993614607135,0.1414185955172306,2.4034451173676383,1.0273381002308042,-0.00024596759794641985,-0.00033497184616918104,5.2686992729610224e-05,-0.00031607285730461904,6.621704811207843e-05,8.626390537808526e-05,0.0009535869807821005,0.0,0.0,0.0,0.0,0.0,0.0,0.0,-0.00016147048849823875,-0.00022576729471535106,-0.00024166258363100823,0.00020353515727533633,2.7623267192883327e-05,3.361701965332031e-05,-3.057833236663754e-05,0.00024596759794641985,0.00033497184616918104,-5.2686992729610224e-05,0.00031607285730461904,-6.621704811207843e-05,-8.626390537808526e-05,-0.0009535869807821005,0.8076412081718445,46.47658920288086,5.762844562530518,-19.709810256958008,-0.5047507882118225,-2.4237093925476074,0.42605918645858765,0
40,0.19501137733459473,-0.8076412081718445,-46.47658920288086,-5.762844562530518,19.709810256958008,0.5047507882118225,2.4237093925476074,-0.42605918645858765,0.0,0.0,0.0,0.0,0.0,0.0,0.0,-0.8168607073294097,-0.15098895849923952,-0.5910814853010986,0.5132212647341542,-0.07807701183834989,0.16137197977899673,-0.41165541131125694,0.8782543465589222,0.7556855167256562,-0.2823136025856897,-1.6693028966179888,0.14139097225003772,2.403411500347985,1.0273686785631708,0.878092876070424,0.7554597494309409,-0.2825552651693207,-1.6690993614607135,0.1414185955172306,2.4034451173676383,1.0273381002308042,-0.00024596759794641985,-0.00033497184616918104,5.2686992729610224e-05,-0.00031607285730461904,6.621704811207843e-05,8.626390537808526e-05,0.0009535869807821005,0.0,0.0,0.0,0.0,0.0,0.0,0.0,-0.00016147048849823875,-0.00022576729471535106,-0.00024166258363100823,0.00020353515727533633,2.7623267192883327e-05,3.361701965332031e-05,-3.057833236663754e-05,0.00024596759794641985,0.00033497184616918104,-5.2686992729610224e-05,0.00031607285730461904,-6.621704811207843e-05,-8.626390537808526e-05,-0.0009535869807821005,0.8076412081718445,46.47658920288086,5.762844562530518,-19.709810256958008,-0.5047507882118225,-2.4237093925476074,0.42605918645858765,0
41,0.20002436637878418,-0.7838374972343445,-46.47658920288086,-5.735073566436768,19.686006546020508,0.5047507882118225,2.4301180839538574,-0.39218467473983765,0.0,0.0,0.0,0.0,0.0,0.0,0.0,-0.7977651569349142,-0.1253859794471485,-0.5722161253059699,0.5032194784203861,-0.07845483941849497,0.1594413727068741,-0.4107933099377194,0.8782526761230669,0.7556855167255067,-0.28231556115199025,-1.669300513748703,0.1413913265658705,2.403410788271162,1.0273649147285353,0.878092876070424,0.7554597494309409,-0.2825552651693207,-1.6690993614607135,0.1414185955172306,2.4034451173676383,1.0273381002308042,-0.00043947962102589916,0.0008578888110961125,0.0003039960534221412,0.0006174571461518007,0.00010652692916700456,-4.203098933994733e-05,-0.0003662664316024495,0.0,0.0,0.0,0.0,0.0,0.0,0.0,-0.0001598000526429333,-0.00022576729456580402,-0.00023970401733047764,0.00020115228798944784,2.726895136009877e-05,3.4329096476160004e-05,-2.6814497731120213e-05,0.00043947962102589916,-0.0008578888110961125,-0.0003039960534221412,-0.0006174571461518007,-0.00010652692916700456,4.203098933994733e-05,0.0003662664316024495,0.7838374972343445,46.47658920288086,5.735073566436768,-19.686006546020508,-0.5047507882118225,-2.4301180839538574,0.39218467473983765,0
42,0.20494937896728516,-0.7838374972343445,-46.47658920288086,-5.735073566436768,19.686006546020508,0.5047507882118225,2.4301180839538574,-0.39218467473983765,0.0,0.0,0.0,0.0,0.0,0.0,0.0,-0.7977651569349142,-0.1253859794471485,-0.5722161253059699,0.5032194784203861,-0.07845483941849497,0.1594413727068741,-0.4107933099377194,0.8782526761230669,0.7556855167255067,-0.28231556115199025,-1.669300513748703,0.1413913265658705,2.403410788271162,1.0273649147285353,0.878092876070424,0.7554597494309409,-0.2825552651693207,-1.6690993614607135,0.1414185955172306,2.4034451173676383,1.0273381002308042,-0.00043947962102589916,0.0008578888110961125,0.0003039960534221412,0.0006174571461518007,0.00010652692916700456,-4.203098933994733e-05,-0.0003662664316024495,0.0,0.0,0.0,0.0,0.0,0.0,0.0,-0.0001598000526429333,-0.00022576729456580402,-0.00023970401733047764,0.00020115228798944784,2.726895136009877e-05,3.4329096476160004e-05,-2.6814497731120213e-05,0.00043947962102589916,-0.0008578888110961125,-0.0003039960534221412,-0.0006174571461518007,-0.00010652692916700456,4.203098933994733e-05,0.0003662664316024495,0.7838374972343445,46.47658920288086,5.735073566436768,-19.686006546020508,-0.5047507882118225,-2.4301180839538574,0.39218467473983765,0
43,0.2099924087524414,-0.8076412081718445,-46.47658920288086,-5.735073566436768,19.709810256958008,0.5102439522743225,2.4237093925476074,-0.43979209661483765,0.0,0.0,0.0,0.0,0.0,0.0,0.0,-0.8213168651603658,-0.1449146215882372,-0.5913357541994713,0.5125943533586164,-0.07761797264613464,0.16108247803266035,-0.40923275728802644,0.8782543465589222,0.7556855255558244,-0.282313451786098,-1.6693028995573918,0.14139067684647477,2.4034115008325014,1.027370204442077,0.878092876070424,0.7554597494309409,-0.2825552651693207,-1.6690993614607135,0.1414185955172306,2.4034451173676383,1.0273381002308042,-0.00023463174372955647,0.00018867612092413933,-0.00011450082486952418,-0.00011902097733660124,-0.00020878254776931574,0.00011958235383242517,0.0015762675471495489,0.0,0.0,0.0,0.0,0.0,0.0,0.0,-0.00016147048849823875,-0.0002257761248835033,-0.00024181338322271095,0.0002035380966782796,2.7918670755827657e-05,3.361653513689333e-05,-3.210421127275431e-05,0.00023463174372955647,-0.00018867612092413933,0.00011450082486952418,0.00011902097733660124,0.00020878254776931574,-0.00011958235383242517,-0.0015762675471495489,0.8076412081718445,46.47658920288086,5.735073566436768,-19.709810256958008,-0.5102439522743225,-2.4237093925476074,0.43979209661483765,0
44,0.21500229835510254,-0.8076412081718445,-46.47658920288086,-5.735073566436768,19.709810256958008,0.5102439522743225,2.4237093925476074,-0.43979209661483765,0.0,0.0,0.0,0.0,0.0,0.0,0.0,-0.8213168651603658,-0.1449146215882372,-0.5913357541994713,0.5125943533586164,-0.07761797264613464,0.16108247803266035,-0.40923275728802644,0.8782543465589222,0.7556855255558244,-0.282313451786098,-1.6693028995573918,0.14139067684647477,2.4034115008325014,1.027370204442077,0.878092876070424,0.7554597494309409,-0.2825552651693207,-1.6690993614607135,0.1414185955172306,2.4034451173676383,1.0273381002308042,-0.00023463174372955647,0.00018867612092413933,-0.00011450082486952418,-0.00011902097733660124,-0.00020878254776931574,0.00011958235383242517,0.0015762675471495489,0.0,0.0,0.0,0.0,0.0,0.0,0.0,-0.00016147048849823875,-0.0002257761248835033,-0.00024181338322271095,0.0002035380966782796,2.7918670755827657e-05,3.361653513689333e-05,-3.210421127275431e-05,0.00023463174372955647,-0.00018867612092413933,0.00011450082486952418,0.00011902097733660124,0.00020878254776931574,-0.00011958235383242517,-0.0015762675471495489,0.8076412081718445,46.47658920288086,5.735073566436768,-19.709810256958008,-0.5102439522743225,-2.4237093925476074,0.43979209661483765,0
45,0.22004079818725586,-0.7838374972343445,-46.47658920288086,-5.735073566436768,19.757417678833008,0.5102439522743225,2.4301180839538574,-0.37204307317733765,0.0,0.0,0.0,0.0,0.0,0.0,0.0,-0.8114275101546491,-0.1474830774606625,-0.5873197072155649,0.5162304269059551,-0.07764668496971712,0.16105407234567393,-0.4096152198717384,0.8782526761594056,0.7556855167255233,-0.2823141344854447,-1.6693059725438304,0.14139071621490065,2.403410788271163,1.0273626767728061,0.878092876070424,0.7554597494309409,-0.2825552651693207,-1.6690993614607135,0.1414185955172306,2.4034451173676383,1.0273381002308042,-4.1195551187512835e-05,-0.00012318704430651752,-0.0007845254275300735,-0.0010625398116409954,-6.202057397665145e-05,-0.00015109246443583405,-0.001158866075170602,0.0,0.0,0.0,0.0,0.0,0.0,0.0,-0.0001598000889816431,-0.00022576729458245737,-0.0002411306838760452,0.00020661108311692544,2.7879302329947286e-05,3.4329096475271825e-05,-2.4576542001941704e-05,4.1195551187512835e-05,0.00012318704430651752,0.0007845254275300735,0.0010625398116409954,6.202057397665145e-05,0.00015109246443583405,0.001158866075170602,0.7838374972343445,46.47658920288086,5.735073566436768,-19.757417678833008,-0.5102439522743225,-2.4301180839538574,0.37204307317733765,0
46,0.22503280639648438,-0.7838374972343445,-46.47658920288086,-5.735073566436768,19.757417678833008,0.5102439522743225,2.4301180839538574,-0.37204307317733765,0.0,0.0,0.0,0.0,0.0,0.0,0.0,-0.8114275101546491,-0.1474830774606625,-0.5873197072155649,0.5162304269059551,-0.07764668496971712,0.16105407234567393,-0.4096152198717384,0.8782526761594056,0.7556855167255233,-0.2823141344854447,-1.6693059725438304,0.14139071621490065,2.403410788271163,1.0273626767728061,0.878092876070424,0.7554597494309409,-0.2825552651693207,-1.6690993614607135,0.1414185955172306,2.4034451173676383,1.0273381002308042,-4.1195551187512835e-05,-0.00012318704430651752,-0.0007845254275300735,-0.0010625398116409954,-6.202057397665145e-05,-0.00015109246443583405,-0.001158866075170602,0.0,0.0,0.0,0.0,0.0,0.0,0.0,-0.0001598000889816431,-0.00022576729458245737,-0.0002411306838760452,0.00020661108311692544,2.7879302329947286e-05,3.4329096475271825e-05,-2.4576542001941704e-05,4.1195551187512835e-05,0.00012318704430651752,0.0007845254275300735,0.0010625398116409954,6.202057397665145e-05,0.00015109246443583405,0.001158866075170602,0.7838374972343445,46.47658920288086,5.735073566436768,-19.757417678833008,-0.5102439522743225,-2.4301180839538574,0.37204307317733765,0
47,0.23000240325927734,-0.8076412081718445,-46.47658920288086,-5.735073566436768,19.733613967895508,0.4983420968055725,2.4301180839538574,-0.41324180364608765,0.0,0.0,0.0,0.0,0.0,0.0,0.0,-0.8124626439110602,-0.13100098755060405,-0.588816013853158,0.5101820102511126,-0.07722239852752473,0.15979793545303575,-0.4096028602202446,0.8782543465589223,0.7556855167255067,-0.2823155605039509,-1.6693045611654553,0.14139203864336014,2.403410788271162,1.027367254409525,0.878092876070424,0.7554597494309409,-0.2825552651693207,-1.6690993614607135,0.1414185955172306,2.4034451173676383,1.0273381002308042,-0.00018929104549720777,0.0007214613717850899,-0.000726165642967722,-0.0005037390271291415,0.0005194033103137625,-0.0002812281027108254,-9.023356007576218e-05,0.0,0.0,0.0,0.0,0.0,0.0,0.0,-0.00016147048849834977,-0.00022576729456580402,-0.00023970466536982205,0.00020519970474186522,2.655687387045913e-05,3.4329096476160004e-05,-2.9154178720736112e-05,0.00018929104549720777,-0.0007214613717850899,0.000726165642967722,0.0005037390271291415,-0.0005194033103137625,0.0002812281027108254,9.023356007576218e-05,0.8076412081718445,46.47658920288086,5.735073566436768,-19.733613967895508,-0.4983420968055725,-2.4301180839538574,0.41324180364608765,0
48,0.2350020408630371,-0.8076412081718445,-46.47658920288086,-5.735073566436768,19.733613967895508,0.4983420968055725,2.4301180839538574,-0.41324180364608765,0.0,0.0,0.0,0.0,0.0,0.0,0.0,-0.8124626439110602,-0.13100098755060405,-0.588816013853158,0.5101820102511126,-0.07722239852752473,0.15979793545303575,-0.4096028602202446,0.8782543465589223,0.7556855167255067,-0.2823155605039509,-1.6693045611654553,0.14139203864336014,2.403410788271162,1.027367254409525,0.878092876070424,0.7554597494309409,-0.2825552651693207,-1.6690993614607135,0.1414185955172306,2.4034451173676383,1.0273381002308042,-0.00018929104549720777,0.0007214613717850899,-0.000726165642967722,-0.0005037390271291415,0.0005194033103137625,-0.0002812281027108254,-9.023356007576218e-05,0.0,0.0,0.0,0.0,0.0,0.0,0.0,-0.00016147048849834977,-0.00022576729456580402,-0.00023970466536982205,0.00020519970474186522,2.655687387045913e-05,3.4329096476160004e-05,-2.9154178720736112e-05,0.00018929104549720777,-0.0007214613717850899,0.000726165642967722,0.0005037390271291415,-0.0005194033103137625,0.0002812281027108254,9.023356007576218e-05,0.8076412081718445,46.47658920288086,5.735073566436768,-19.733613967895508,-0.4983420968055725,-2.4301180839538574,0.41324180364608765,0
49,0.23999977111816406,-0.8076412081718445,-46.47658920288086,-5.735073566436768,19.733613967895508,0.4983420968055725,2.4301180839538574,-0.41324180364608765,0.0,0.0,0.0,0.0,0.0,0.0,0.0,-0.8124626439110602,-0.13100098755060405,-0.588816013853158,0.5101820102511126,-0.07722239852752473,0.15979793545303575,-0.4096028602202446,0.8782543465589223,0.7556855167255067,-0.2823155605039509,-1.6693045611654553,0.14139203864336014,2.403410788271162,1.027367254409525,0.878092876070424,0.7554597494309409,-0.2825552651693207,-1.6690993614607135,0.1414185955172306,2.4034451173676383,1.0273381002308042,-0.00018929104549720777,0.0007214613717850899,-0.000726165642967722,-0.0005037390271291415,0.0005194033103137625,-0.0002812281027108254,-9.023356007576218e-05,0.0,0.0,0.0,0.0,0.0,0.0,0.0,-0.00016147048849834977,-0.00022576729456580402,-0.00023970466536982205,0.00020519970474186522,2.655687387045913e-05,3.4329096476160004e-05,-2.9154178720736112e-05,0.00018929104549720777,-0.0007214613717850899,0.000726165642967722,0.0005037390271291415,-0.0005194033103137625,0.0002812281027108254,9.023356007576218e-05,0.8076412081718445,46.47658920288086,5.735073566436768,-19.733613967895508,-0.4983420968055725,-2.4301180839538574,0.41324180364608765,0
50,0.24499893188476562,-0.8076412081718445,-46.47658920288086,-5.735073566436768,19.733613967895508,0.4983420968055725,2.4301180839538574,-0.41324180364608765,0.0,0.0,0.0,0.0,0.0,0.0,0.0,-0.8124626439110602,-0.13100098755060405,-0.588816013853158,0.5101820102511126,-0.07722239852752473,0.15979793545303575,-0.4096028602202446,0.8782543465589223,0.7556855167255067,-0.2823155605039509,-1.6693045611654553,0.14139203864336014,2.403410788271162,1.027367254409525,0.878092876070424,0.7554597494309409,-0.2825552651693207,-1.6690993614607135,0.1414185955172306,2.4034451173676383,1.0273381002308042,-0.00018929104549720777,0.0007214613717850899,-0.000726165642967722,-0.0005037390271291415,0.0005194033103137625,-0.0002812281027108254,-9.023356007576218e-05,0.0,0.0,0.0,0.0,0.0,0.0,0.0,-0.00016147048849834977,-0.00022576729456580402,-0.00023970466536982205,0.00020519970474186522,2.655687387045913e-05,3.4329096476160004e-05,-2.9154178720736112e-05,0.00018929104549720777,-0.0007214613717850899,0.000726165642967722,0.0005037390271291415,-0.0005194033103137625,0.0002812281027108254,9.023356007576218e-05,0.8076412081718445,46.47658920288086,5.735073566436768,-19.733613967895508,-0.4983420968055725,-2.4301180839538574,0.41324180364608765,0
51,0.25000429153442383,-0.8076412081718445,-46.47658920288086,-5.735073566436768,19.733613967895508,0.4983420968055725,2.4301180839538574,-0.41324180364608765,0.0,0.0,0.0,0.0,0.0,0.0,0.0,-0.8124626439110602,-0.13100098755060405,-0.588816013853158,0.5101820102511126,-0.07722239852752473,0.15979793545303575,-0.4096028602202446,0.8782543465589223,0.7556855167255067,-0.2823155605039509,-1.6693045611654553,0.14139203864336014,2.403410788271162,1.027367254409525,0.878092876070424,0.7554597494309409,-0.2825552651693207,-1.6690993614607135,0.1414185955172306,2.4034451173676383,1.0273381002308042,-0.00018929104549720777,0.0007214613717850899,-0.000726165642967722,-0.0005037390271291415,0.0005194033103137625,-0.0002812281027108254,-9.023356007576218e-05,0.0,0.0,0.0,0.0,0.0,0.0,0.0,-0.00016147048849834977,-0.00022576729456580402,-0.00023970466536982205,0.00020519970474186522,2.655687387045913e-05,3.4329096476160004e-05,-2.9154178720736112e-05,0.00018929104549720777,-0.0007214613717850899,0.000726165642967722,0.0005037390271291415,-0.0005194033103137625,0.0002812281027108254,9.023356007576218e-05,0.8076412081718445,46.47658920288086,5.735073566436768,-19.733613967895508,-0.4983420968055725,-2.4301180839538574,0.41324180364608765,0
52,0.25502824783325195,-0.8592159152030945,-46.47658920288086,-5.762844562530518,19.733613967895508,0.4983420968055725,2.4237093925476074,-0.39950889348983765,0.0,0.0,0.0,0.0,0.0,0.0,0.0,-0.8224182177706184,-0.14040519100573895,-0.5959631998707116,0.5144292357050656,-0.07646105019094575,0.16050507681102877,-0.4101702283990289,0.8782579747759426,0.7556855167255067,-0.2823114766865448,-1.6693045699972613,0.14139203864335984,2.403411500347985,1.0273657285306186,0.878092876070424,0.7554597494309409,-0.2825552651693207,-1.6690993614607135,0.1414185955172306,2.4034451173676383,1.0273381002308042,0.0007528718735143889,0.0006407799338633546,-0.0005704959369836999,-0.00020371181568537135,0.00019460435048302742,1.5694795907703668e-06,-0.0009939335203517723,0.0,0.0,0.0,0.0,0.0,0.0,0.0,-0.00016509870551861816,-0.00022576729456580402,-0.00024378848277589737,0.00020520853654781845,2.655687387076444e-05,3.361701965332031e-05,-2.7628299814397295e-05,-0.0007528718735143889,-0.0006407799338633546,0.0005704959369836999,0.00020371181568537135,-0.00019460435048302742,-1.5694795907703668e-06,0.0009939335203517723,0.8592159152030945,46.47658920288086,5.762844562530518,-19.733613967895508,-0.4983420968055725,-2.4237093925476074,0.39950889348983765,0
53,0.2600390911102295,-0.8592159152030945,-46.47658920288086,-5.762844562530518,19.733613967895508,0.4983420968055725,2.4237093925476074,-0.39950889348983765,0.0,0.0,0.0,0.0,0.0,0.0,0.0,-0.8224182177706184,-0.14040519100573895,-0.5959631998707116,0.5144292357050656,-0.07646105019094575,0.16050507681102877,-0.4101702283990289,0.8782579747759426,0.7556855167255067,-0.2823114766865448,-1.6693045699972613,0.14139203864335984,2.403411500347985,1.0273657285306186,0.878092876070424,0.7554597494309409,-0.2825552651693207,-1.6690993614607135,0.1414185955172306,2.4034451173676383,1.0273381002308042,0.0007528718735143889,0.0006407799338633546,-0.0005704959369836999,-0.00020371181568537135,0.00019460435048302742,1.5694795907703668e-06,-0.0009939335203517723,0.0,0.0,0.0,0.0,0.0,0.0,0.0,-0.00016509870551861816,-0.00022576729456580402,-0.00024378848277589737,0.00020520853654781845,2.655687387076444e-05,3.361701965332031e-05,-2.7628299814397295e-05,-0.0007528718735143889,-0.0006407799338633546,0.0005704959369836999,0.00020371181568537135,-0.00019460435048302742,-1.5694795907703668e-06,0.0009939335203517723,0.8592159152030945,46.47658920288086,5.762844562530518,-19.733613967895508,-0.4983420968055725,-2.4237093925476074,0.39950889348983765,0
54,0.26502203941345215,-0.8076412081718445,-46.44881820678711,-5.735073566436768,19.709810256958008,0.4983420968055725,2.4173007011413574,-0.39950889348983765,0.0,0.0,0.0,0.0,0.0,0.0,0.0,-0.8071274393360429,-0.14762712884970197,-0.5854234108923277,0.5203949721323525,-0.07725757461226108,0.1602796684591285,-0.41141462851993094,0.8782543465589726,0.7556842831394128,-0.282313425564378,-1.6692999589566049,0.1413919992748602,2.4034122124248083,1.0273657285306186,0.878092876070424,0.7554597494309409,-0.2825552651693207,-1.6690993614607135,0.1414185955172306,2.4034451173676383,1.0273381002308042,-0.0003465128705356656,-0.0006573121883101943,-0.00029265994574059545,0.0004455159815467115,0.0002926319817554281,0.0002031453673313678,-0.0003769856280388675,0.0,0.0,0.0,0.0,0.0,0.0,0.0,-0.00016147048854864288,-0.0002245337084719745,-0.0002418396049427285,0.00020059749589140807,2.6596242370391376e-05,3.290494283003653e-05,-2.7628299814397295e-05,0.0003465128705356656,0.0006573121883101943,0.00029265994574059545,-0.0004455159815467115,-0.0002926319817554281,-0.0002031453673313678,0.0003769856280388675,0.8076412081718445,46.44881820678711,5.735073566436768,-19.709810256958008,-0.4983420968055725,-2.4173007011413574,0.39950889348983765,0
55,0.26999902725219727,-0.8076412081718445,-46.44881820678711,-5.735073566436768,19.709810256958008,0.4983420968055725,2.4173007011413574,-0.39950889348983765,0.0,0.0,0.0,0.0,0.0,0.0,0.0,-0.8071274393360429,-0.14762712884970197,-0.5854234108923277,0.5203949721323525,-0.07725757461226108,0.1602796684591285,-0.41141462851993094,0.8782543465589726,0.7556842831394128,-0.282313425564378,-1.6692999589566049,0.1413919992748602,2.4034122124248083,1.0273657285306186,0.878092876070424,0.7554597494309409,-0.2825552651693207,-1.6690993614607135,0.1414185955172306,2.4034451173676383,1.0273381002308042,-0.0003465128705356656,-0.0006573121883101943,-0.00029265994574059545,0.0004455159815467115,0.0002926319817554281,0.0002031453673313678,-0.0003769856280388675,0.0,0.0,0.0,0.0,0.0,0.0,0.0,-0.00016147048854864288,-0.0002245337084719745,-0.0002418396049427285,0.00020059749589140807,2.6596242370391376e-05,3.290494283003653e-05,-2.7628299814397295e-05,0.0003465128705356656,0.0006573121883101943,0.00029265994574059545,-0.0004455159815467115,-0.0002926319817554281,-0.0002031453673313678,0.0003769856280388675,0.8076412081718445,46.44881820678711,5.735073566436768,-19.709810256958008,-0.4983420968055725,-2.4173007011413574,0.39950889348983765,0
56,0.27499914169311523,-0.8076412081718445,-46.44881820678711,-5.735073566436768,19.709810256958008,0.4983420968055725,2.4173007011413574,-0.39950889348983765,0.0,0.0,0.0,0.0,0.0,0.0,0.0,-0.8071274393360429,-0.14762712884970197,-0.5854234108923277,0.5203949721323525,-0.07725757461226108,0.1602796684591285,-0.41141462851993094,0.8782543465589726,0.7556842831394128,-0.282313425564378,-1.6692999589566049,0.1413919992748602,2.4034122124248083,1.0273657285306186,0.878092876070424,0.7554597494309409,-0.2825552651693207,-1.6690993614607135,0.1414185955172306,2.4034451173676383,1.0273381002308042,-0.0003465128705356656,-0.0006573121883101943,-0.00029265994574059545,0.0004455159815467115,0.0002926319817554281,0.0002031453673313678,-0.0003769856280388675,0.0,0.0,0.0,0.0,0.0,0.0,0.0,-0.00016147048854864288,-0.0002245337084719745,-0.0002418396049427285,0.00020059749589140807,2.6596242370391376e-05,3.290494283003653e-05,-2.7628299814397295e-05,0.0003465128705356656,0.0006573121883101943,0.00029265994574059545,-0.0004455159815467115,-0.0002926319817554281,-0.0002031453673313678,0.0003769856280388675,0.8076412081718445,46.44881820678711,5.735073566436768,-19.709810256958008,-0.4983420968055725,-2.4173007011413574,0.39950889348983765,0
57,0.27995920181274414,-0.8076412081718445,-46.44881820678711,-5.735073566436768,19.709810256958008,0.4983420968055725,2.4173007011413574,-0.39950889348983765,0.0,0.0,0.0,0.0,0.0,0.0,0.0,-0.8071274393360429,-0.14762712884970197,-0.5854234108923277,0.5203949721323525,-0.07725757461226108,0.1602796684591285,-0.41141462851993094,0.8782543465589726,0.7556842831394128,-0.282313425564378,-1.6692999589566049,0.1413919992748602,2.4034122124248083,1.0273657285306186,0.878092876070424,0.7554597494309409,-0.2825552651693207,-1.6690993614607135,0.1414185955172306,2.4034451173676383,1.0273381002308042,-0.0003465128705356656,-0.0006573121883101943,-0.00029265994574059545,0.0004455159815467115,0.0002926319817554281,0.0002031453673313678,-0.0003769856280388675,0.0,0.0,0.0,0.0,0.0,0.0,0.0,-0.00016147048854864288,-0.0002245337084719745,-0.0002418396049427285,0.00020059749589140807,2.6596242370391376e-05,3.290494283003653e-05,-2.7628299814397295e-05,0.0003465128705356656,0.0006573121883101943,0.00029265994574059545,-0.0004455159815467115,-0.0002926319817554281,-0.0002031453673313678,0.0003769856280388675,0.8076412081718445,46.44881820678711,5.735073566436768,-19.709810256958008,-0.4983420968055725,-2.4173007011413574,0.39950889348983765,0
58,0.2850172519683838,-0.8354122042655945,-46.42501449584961,-5.735073566436768,19.709810256958008,0.5166526436805725,2.4237093925476074,-0.43979209661483765,0.0,0.0,0.0,0.0,0.0,0.0,0.0,-0.8140272117421385,-0.13652888916014036,-0.5883245406634271,0.5137442196821439,-0.07770754657861194,0.15889109268926668,-0.4109278566132434,0.8782562954007533,0.7556826127075953,-0.2823135305110424,-1.6693007537412796,0.14139000413792957,2.403411500347985,1.027370204442077,0.878092876070424,0.7554597494309409,-0.2825552651693207,-1.6690993614607135,0.1414185955172306,2.4034451173676383,1.0273381002308042,0.00031477930638437436,-0.0008285390511663549,-0.0003993065523198866,-0.0001626878866569644,-0.0003170720901377122,0.00016862323094516172,0.0008773633745777715,0.0,0.0,0.0,0.0,0.0,0.0,0.0,-0.00016341933032937295,-0.00022286327665443917,-0.0002417346582783142,0.00020139228056614833,2.8591379301029507e-05,3.361701965332031e-05,-3.210421127275431e-05,-0.00031477930638437436,0.0008285390511663549,0.0003993065523198866,0.0001626878866569644,0.0003170720901377122,-0.00016862323094516172,-0.0008773633745777715,0.8354122042655945,46.42501449584961,5.735073566436768,-19.709810256958008,-0.5166526436805725,-2.4237093925476074,0.43979209661483765,0
59,0.290010929107666,-0.8354122042655945,-46.42501449584961,-5.735073566436768,19.709810256958008,0.5166526436805725,2.4237093925476074,-0.43979209661483765,0.0,0.0,0.0,0.0,0.0,0.0,0.0,-0.8140272117421385,-0.13652888916014036,-0.5883245406634271,0.5137442196821439,-0.07770754657861194,0.15889109268926668,-0.4109278566132434,0.8782562954007533,0.7556826127075953,-0.2823135305110424,-1.6693007537412796,0.14139000413792957,2.403411500347985,1.027370204442077,0.878092876070424,0.7554597494309409,-0.2825552651693207,-1.6690993614607135,0.1414185955172306,2.4034451173676383,1.0273381002308042,0.00031477930638437436,-0.0008285390511663549,-0.0003993065523198866,-0.0001626878866569644,-0.0003170720901377122,0.00016862323094516172,0.0008773633745777715,0.0,0.0,0.0,0.0,0.0,0.0,0.0,-0.00016341933032937295,-0.00022286327665443917,-0.0002417346582783142,0.00020139228056614833,2.8591379301029507e-05,3.361701965332031e-05,-3.210421127275431e-05,-0.00031477930638437436,0.0008285390511663549,0.0003993065523198866,0.0001626878866569644,0.0003170720901377122,-0.00016862323094516172,-0.0008773633745777715,0.8354122042655945,46.42501449584961,5.735073566436768,-19.709810256958008,-0.5166526436805725,-2.4237093925476074,0.43979209661483765,0
60,0.2949991226196289,-0.8076412081718445,-46.47658920288086,-5.762844562530518,19.733613967895508,0.5047507882118225,2.4365267753601074,-0.37845176458358765,0.0,0.0,0.0,0.0,0.0,0.0,0.0,-0.8173440730467062,-0.14082841561905446,-0.5939305614076938,0.5143865043930931,-0.07694348526170827,0.1597087915365241,-0.41197582383910697,0.8782543465589222,0.7556855167268526,-0.28231221253746946,-1.6693045696661988,0.14139239282740487,2.4034100761943393,1.0273633882036068,0.878092876070424,0.7554597494309409,-0.2825552651693207,-1.6690993614607135,0.1414185955172306,2.4034451173676383,1.0273381002308042,-0.00017890780664101723,0.00040924211189552527,-5.576633919499403e-05,-0.0005717545657668877,0.00014511575541202302,-0.00037822651872398717,-0.0010493521013612052,0.0,0.0,0.0,0.0,0.0,0.0,0.0,-0.00016147048849823875,-0.0002257672959117274,-0.00024305263185125936,0.00020520820548530772,2.6202689825727266e-05,3.5041173298999695e-05,-2.528797280265671e-05,0.00017890780664101723,-0.00040924211189552527,5.576633919499403e-05,0.0005717545657668877,-0.00014511575541202302,0.00037822651872398717,0.0010493521013612052,0.8076412081718445,46.47658920288086,5.762844562530518,-19.733613967895508,-0.5047507882118225,-2.4365267753601074,0.37845176458358765,0
61,0.30004048347473145,-0.8076412081718445,-46.47658920288086,-5.762844562530518,19.733613967895508,0.5047507882118225,2.4365267753601074,-0.37845176458358765,0.0,0.0,0.0,0.0,0.0,0.0,0.0,-0.8173440730467062,-0.14082841561905446,-0.5939305614076938,0.5143865043930931,-0.07694348526170827,0.1597087915365241,-0.41197582383910697,0.8782543465589222,0.7556855167268526,-0.28231221253746946,-1.6693045696661988,0.14139239282740487,2.4034100761943393,1.0273633882036068,0.878092876070424,0.7554597494309409,-0.2825552651693207,-1.6690993614607135,0.1414185955172306,2.4034451173676383,1.0273381002308042,-0.00017890780664101723,0.00040924211189552527,-5.576633919499403e-05,-0.0005717545657668877,0.00014511575541202302,-0.00037822651872398717,-0.0010493521013612052,0.0,0.0,0.0,0.0,0.0,0.0,0.0,-0.00016147048849823875,-0.0002257672959117274,-0.00024305263185125936,0.00020520820548530772,2.6202689825727266e-05,3.5041173298999695e-05,-2.528797280265671e-05,0.00017890780664101723,-0.00040924211189552527,5.576633919499403e-05,0.0005717545657668877,-0.00014511575541202302,0.00037822651872398717,0.0010493521013612052,0.8076412081718445,46.47658920288086,5.762844562530518,-19.733613967895508,-0.5047507882118225,-2.4365267753601074,0.37845176458358765,0
62,0.30495595932006836,-0.8354122042655945,-46.47658920288086,-5.786648273468018,19.733613967895508,0.5047507882118225,2.4301180839538574,-0.42605918645858765,0.0,0.0,0.0,0.0,0.0,0.0,0.0,-0.8147057867638651,-0.1459967416370418,-0.5933607261661663,0.5164187995219982,-0.0765870744119823,0.16044976962745824,-0.4114858568971831,0.8782562954007533,0.7556855167255067,-0.2823100425738497,-1.6693045699972835,0.1413909722560568,2.403410788271162,1.0273686785631673,0.878092876070424,0.7554597494309409,-0.2825552651693207,-1.6690993614607135,0.1414185955172306,2.4034451173676383,1.0273381002308042,0.0006435536978908912,0.00018769493553282351,0.0004127075426890713,-0.0003382511833691557,1.622783177542561e-05,-0.00022832192442154246,0.00046696202596487534,0.0,0.0,0.0,0.0,0.0,0.0,0.0,-0.00016341933032937295,-0.00022576729456580402,-0.00024522259547105074,0.00020520853657002291,2.76232611738092e-05,3.4329096476160004e-05,-3.0578332363084826e-05,-0.0006435536978908912,-0.00018769493553282351,-0.0004127075426890713,0.0003382511833691557,-1.622783177542561e-05,0.00022832192442154246,-0.00046696202596487534,0.8354122042655945,46.47658920288086,5.786648273468018,-19.733613967895508,-0.5047507882118225,-2.4301180839538574,0.42605918645858765,0
63,0.3099968433380127,-0.8354122042655945,-46.47658920288086,-5.786648273468018,19.733613967895508,0.5047507882118225,2.4301180839538574,-0.42605918645858765,0.0,0.0,0.0,0.0,0.0,0.0,0.0,-0.8147057867638651,-0.1459967416370418,-0.5933607261661663,0.5164187995219982,-0.0765870744119823,0.16044976962745824,-0.4114858568971831,0.8782562954007533,0.7556855167255067,-0.2823100425738497,-1.6693045699972835,0.1413909722560568,2.403410788271162,1.0273686785631673,0.878092876070424,0.7554597494309409,-0.2825552651693207,-1.6690993614607135,0.1414185955172306,2.4034451173676383,1.0273381002308042,0.0006435536978908912,0.00018769493553282351,0.0004127075426890713,-0.0003382511833691557,1.622783177542561e-05,-0.00022832192442154246,0.00046696202596487534,0.0,0.0,0.0,0.0,0.0,0.0,0.0,-0.00016341933032937295,-0.00022576729456580402,-0.00024522259547105074,0.00020520853657002291,2.76232611738092e-05,3.4329096476160004e-05,-3.0578332363084826e-05,-0.0006435536978908912,-0.00018769493553282351,-0.0004127075426890713,0.0003382511833691557,-1.622783177542561e-05,0.00022832192442154246,-0.00046696202596487534,0.8354122042655945,46.47658920288086,5.786648273468018,-19.733613967895508,-0.5047507882118225,-2.4301180839538574,0.42605918645858765,0
64,0.31501030921936035,-0.8076412081718445,-46.42501449584961,-5.762844562530518,19.686006546020508,0.5166526436805725,2.4237093925476074,-0.43338340520858765,0.0,0.0,0.0,0.0,0.0,0.0,0.0,-0.798629840445831,-0.14404315271366658,-0.5820826402230374,0.5157713249474466,-0.0772149613956174,0.15988785234227318,-0.4124153970049609,0.8782543465589222,0.7556818974478203,-0.2823136026228779,-1.6693012261821356,0.14139000413615171,2.403411500347985,1.027369492365254,0.878092876070424,0.7554597494309409,-0.2825552651693207,-1.6690993614607135,0.1414185955172306,2.4034451173676383,1.0273381002308042,0.00035295542661139997,-0.0013456442620551593,0.0002860187666769987,0.0008516707482037633,-0.0005255941737123863,6.064643600391022e-05,0.0006067448556143169,0.0,0.0,0.0,0.0,0.0,0.0,0.0,-0.00016147048849823875,-0.00022214801687947539,-0.00024166254644281127,0.0002018647214221403,2.8591381078885147e-05,3.361701965332031e-05,-3.139213444991462e-05,-0.00035295542661139997,0.0013456442620551593,-0.0002860187666769987,-0.0008516707482037633,0.0005255941737123863,-6.064643600391022e-05,-0.0006067448556143169,0.8076412081718445,46.42501449584961,5.762844562530518,-19.686006546020508,-0.5166526436805725,-2.4237093925476074,0.43338340520858765,0
65,0.32001781463623047,-0.8076412081718445,-46.42501449584961,-5.762844562530518,19.686006546020508,0.5166526436805725,2.4237093925476074,-0.43338340520858765,0.0,0.0,0.0,0.0,0.0,0.0,0.0,-0.798629840445831,-0.14404315271366658,-0.5820826402230374,0.5157713249474466,-0.0772149613956174,0.15988785234227318,-0.4124153970049609,0.8782543465589222,0.7556818974478203,-0.2823136026228779,-1.6693012261821356,0.14139000413615171,2.403411500347985,1.027369492365254,0.878092876070424,0.7554597494309409,-0.2825552651693207,-1.6690993614607135,0.1414185955172306,2.4034451173676383,1.0273381002308042,0.00035295542661139997,-0.0013456442620551593,0.0002860187666769987,0.0008516707482037633,-0.0005255941737123863,6.064643600391022e-05,0.0006067448556143169,0.0,0.0,0.0,0.0,0.0,0.0,0.0,-0.00016147048849823875,-0.00022214801687947539,-0.00024166254644281127,0.0002018647214221403,2.8591381078885147e-05,3.361701965332031e-05,-3.139213444991462e-05,-0.00035295542661139997,0.0013456442620551593,-0.0002860187666769987,-0.0008516707482037633,0.0005255941737123863,-6.064643600391022e-05,-0.0006067448556143169,0.8076412081718445,46.42501449584961,5.762844562530518,-19.686006546020508,-0.5166526436805725,-2.4237093925476074,0.43338340520858765,0
66,0.3253927230834961,-0.8076412081718445,-46.52419662475586,-5.735073566436768,19.709810256958008,0.5102439522743225,2.4237093925476074,-0.42605918645858765,0.0,0.0,0.0,0.0,0.0,0.0,0.0,-0.8122042147025628,-0.14749224848293022,-0.5941313854305662,0.5156710271571521,-0.07706208825828834,0.15994836494808648,-0.41312312193385403,0.8782543465589222,0.755688937070077,-0.2823134255403767,-1.6693028906220795,0.14139071621497473,2.403411500347985,1.0273686785631708,0.878092876070424,0.7554597494309409,-0.2825552651693207,-1.6690993614607135,0.1414185955172306,2.4034451173676383,1.0273381002308042,-4.9979712016142156e-05,0.0009684562163377723,-0.0004953541458215362,6.493425211134638e-05,-0.00019437038029652192,3.53066846710675e-05,9.691792824677504e-05,0.0,0.0,0.0,0.0,0.0,0.0,0.0,-0.00016147048849823875,-0.00022918763913615248,-0.00024183962894402944,0.00020352916136601173,2.7879302255867655e-05,3.361701965332031e-05,-3.057833236663754e-05,4.9979712016142156e-05,-0.0009684562163377723,0.0004953541458215362,-6.493425211134638e-05,0.00019437038029652192,-3.53066846710675e-05,-9.691792824677504e-05,0.8076412081718445,46.52419662475586,5.735073566436768,-19.709810256958008,-0.5102439522743225,-2.4237093925476074,0.42605918645858765,0
67,0.3300807476043701,-0.8076412081718445,-46.52419662475586,-5.735073566436768,19.709810256958008,0.5102439522743225,2.4237093925476074,-0.42605918645858765,0.0,0.0,0.0,0.0,0.0,0.0,0.0,-0.8122042147025628,-0.14749224848293022,-0.5941313854305662,0.5156710271571521,-0.07706208825828834,0.15994836494808648,-0.41312312193385403,0.8782543465589222,0.755688937070077,-0.2823134255403767,-1.6693028906220795,0.14139071621497473,2.403411500347985,1.0273686785631708,0.878092876070424,0.7554597494309409,-0.2825552651693207,-1.6690993614607135,0.1414185955172306,2.4034451173676383,1.0273381002308042,-4.9979712016142156e-05,0.0009684562163377723,-0.0004953541458215362,6.493425211134638e-05,-0.00019437038029652192,3.53066846710675e-05,9.691792824677504e-05,0.0,0.0,0.0,0.0,0.0,0.0,0.0,-0.00016147048849823875,-0.00022918763913615248,-0.00024183962894402944,0.00020352916136601173,2.7879302255867655e-05,3.361701965332031e-05,-3.057833236663754e-05,4.9979712016142156e-05,-0.0009684562163377723,0.0004953541458215362,-6.493425211134638e-05,0.00019437038029652192,-3.53066846710675e-05,-9.691792824677504e-05,0.8076412081718445,46.52419662475586,5.735073566436768,-19.709810256958008,-0.5102439522743225,-2.4237093925476074,0.42605918645858765,0
68,0.3350503444671631,-0.7838374972343445,-46.52419662475586,-5.735073566436768,19.709810256958008,0.5047507882118225,2.4173007011413574,-0.44711631536483765,0.0,0.0,0.0,0.0,0.0,0.0,0.0,-0.8036988481535021,-0.14281915157027755,-0.5885390747122791,0.5136710282143051,-0.07732222051192887,0.15947493248086808,-0.4142224935511228,0.8782526761230669,0.7556888575985632,-0.2823137404763755,-1.6693028966178394,0.14139132656653722,2.4034122124248083,1.02737101679061,0.878092876070424,0.7554597494309409,-0.2825552651693207,-1.6690993614607135,0.1414185955172306,2.4034451173676383,1.0273381002308042,-0.0005732140401152366,0.0013763486452192178,-0.000534416290047267,0.0003509475598290611,7.701861644836821e-05,0.00030967452352511347,0.0012093048927088752,0.0,0.0,0.0,0.0,0.0,0.0,0.0,-0.0001598000526429333,-0.00022910816762233832,-0.0002415246929452497,0.0002035351571259003,2.7268950693382088e-05,3.290494283003653e-05,-3.291655980586228e-05,0.0005732140401152366,-0.0013763486452192178,0.000534416290047267,-0.0003509475598290611,-7.701861644836821e-05,-0.00030967452352511347,-0.0012093048927088752,0.7838374972343445,46.52419662475586,5.735073566436768,-19.709810256958008,-0.5047507882118225,-2.4173007011413574,0.44711631536483765,0
69,0.34003138542175293,-0.7838374972343445,-46.52419662475586,-5.735073566436768,19.709810256958008,0.5047507882118225,2.4173007011413574,-0.44711631536483765,0.0,0.0,0.0,0.0,0.0,0.0,0.0,-0.8036988481535021,-0.14281915157027755,-0.5885390747122791,0.5136710282143051,-0.07732222051192887,0.15947493248086808,-0.4142224935511228,0.8782526761230669,0.7556888575985632,-0.2823137404763755,-1.6693028966178394,0.14139132656653722,2.4034122124248083,1.02737101679061,0.878092876070424,0.7554597494309409,-0.2825552651693207,-1.6690993614607135,0.1414185955172306,2.4034451173676383,1.0273381002308042,-0.0005732140401152366,0.0013763486452192178,-0.000534416290047267,0.0003509475598290611,7.701861644836821e-05,0.00030967452352511347,0.0012093048927088752,0.0,0.0,0.0,0.0,0.0,0.0,0.0,-0.0001598000526429333,-0.00022910816762233832,-0.0002415246929452497,0.0002035351571259003,2.7268950693382088e-05,3.290494283003653e-05,-3.291655980586228e-05,0.0005732140401152366,-0.0013763486452192178,0.000534416290047267,-0.0003509475598290611,-7.701861644836821e-05,-0.00030967452352511347,-0.0012093048927088752,0.7838374972343445,46.52419662475586,5.735073566436768,-19.709810256958008,-0.5047507882118225,-2.4173007011413574,0.44711631536483765,0
70,0.3450167179107666,-0.8076412081718445,-46.50039291381836,-5.786648273468018,19.709810256958008,0.5102439522743225,2.4301180839538574,-0.41965049505233765,0.0,0.0,0.0,0.0,0.0,0.0,0.0,-0.7940130917927154,-0.13629940549738107,-0.5781873255019198,0.511557535966965,-0.0773331438667957,0.15898382576618697,-0.41539197375472914,0.8782543465589222,0.7556893329285739,-0.28231075401146577,-1.6693028992343757,0.14139036189847523,2.403410788271162,1.027367966486345,0.878092876070424,0.7554597494309409,-0.2825552651693207,-1.6690993614607135,0.1414185955172306,2.4034451173676383,1.0273381002308042,0.00037974112170907463,0.0010775943763333203,0.0007746619612848734,0.0003203020860124827,-0.000255976026091671,-0.00025175975623857176,5.4098206075682576e-05,0.0,0.0,0.0,0.0,0.0,0.0,0.0,-0.00016147048849823875,-0.00022958349763302355,-0.00024451115785495414,0.00020353777366222126,2.8233618755368894e-05,3.4329096476160004e-05,-2.986625554091127e-05,-0.00037974112170907463,-0.0010775943763333203,-0.0007746619612848734,-0.0003203020860124827,0.000255976026091671,0.00025175975623857176,-5.4098206075682576e-05,0.8076412081718445,46.50039291381836,5.786648273468018,-19.709810256958008,-0.5102439522743225,-2.4301180839538574,0.41965049505233765,0
71,0.3500194549560547,-0.8076412081718445,-46.50039291381836,-5.786648273468018,19.709810256958008,0.5102439522743225,2.4301180839538574,-0.41965049505233765,0.0,0.0,0.0,0.0,0.0,0.0,0.0,-0.7940130917927154,-0.13629940549738107,-0.5781873255019198,0.511557535966965,-0.0773331438667957,0.15898382576618697,-0.41539197375472914,0.8782543465589222,0.7556893329285739,-0.28231075401146577,-1.6693028992343757,0.14139036189847523,2.403410788271162,1.027367966486345,0.878092876070424,0.7554597494309409,-0.2825552651693207,-1.6690993614607135,0.1414185955172306,2.4034451173676383,1.0273381002308042,0.00037974112170907463,0.0010775943763333203,0.0007746619612848734,0.0003203020860124827,-0.000255976026091671,-0.00025175975623857176,5.4098206075682576e-05,0.0,0.0,0.0,0.0,0.0,0.0,0.0,-0.00016147048849823875,-0.00022958349763302355,-0.00024451115785495414,0.00020353777366222126,2.8233618755368894e-05,3.4329096476160004e-05,-2.986625554091127e-05,-0.00037974112170907463,-0.0010775943763333203,-0.0007746619612848734,-0.0003203020860124827,0.000255976026091671,0.00025175975623857176,-5.4098206075682576e-05,0.8076412081718445,46.50039291381836,5.786648273468018,-19.709810256958008,-0.5102439522743225,-2.4301180839538574,0.41965049505233765,0
72,0.35576462745666504,-0.7838374972343445,-46.50039291381836,-5.735073566436768,19.686006546020508,0.5047507882118225,2.4173007011413574,-0.43979209661483765,0.0,0.0,0.0,0.0,0.0,0.0,0.0,-0.8170234795065447,-0.12931150683493492,-0.5935152957563854,0.5062414280772436,-0.077287391708034,0.15908525598156167,-0.41484175395434436,0.8782526849533846,0.75568718819096,-0.2823135052427875,-1.6693011493256644,0.1413913265645371,2.4034122124248083,1.027370086704507,0.878092876070424,0.7554597494309409,-0.2825552651693207,-1.6690993614607135,0.1414185955172306,2.4034451173676383,1.0273381002308042,-0.0008710640891649252,0.0013497990887666265,-0.0007910202652394321,0.0004949599791348332,-2.786651959529794e-05,0.0004149688020457261,0.0009635777042306984,0.0,0.0,0.0,0.0,0.0,0.0,0.0,-0.00015980888296063256,-0.00022743876001918295,-0.00024175992653324707,0.00020178786495095302,2.7268952693504378e-05,3.290494283003653e-05,-3.198647370283858e-05,0.0008710640891649252,-0.0013497990887666265,0.0007910202652394321,-0.0004949599791348332,2.786651959529794e-05,-0.0004149688020457261,-0.0009635777042306984,0.7838374972343445,46.50039291381836,5.735073566436768,-19.686006546020508,-0.5047507882118225,-2.4173007011413574,0.43979209661483765,0
73,0.36002182960510254,-0.7838374972343445,-46.50039291381836,-5.735073566436768,19.686006546020508,0.5047507882118225,2.4173007011413574,-0.43979209661483765,0.0,0.0,0.0,0.0,0.0,0.0,0.0,-0.8170234795065447,-0.12931150683493492,-0.5935152957563854,0.5062414280772436,-0.077287391708034,0.15908525598156167,-0.41484175395434436,0.8782526849533846,0.75568718819096,-0.2823135052427875,-1.6693011493256644,0.1413913265645371,2.4034122124248083,1.027370086704507,0.878092876070424,0.7554597494309409,-0.2825552651693207,-1.6690993614607135,0.1414185955172306,2.4034451173676383,1.0273381002308042,-0.0008710640891649252,0.0013497990887666265,-0.0007910202652394321,0.0004949599791348332,-2.786651959529794e-05,0.0004149688020457261,0.0009635777042306984,0.0,0.0,0.0,0.0,0.0,0.0,0.0,-0.00015980888296063256,-0.00022743876001918295,-0.00024175992653324707,0.00020178786495095302,2.7268952693504378e-05,3.290494283003653e-05,-3.198647370283858e-05,0.0008710640891649252,-0.0013497990887666265,0.0007910202652394321,-0.0004949599791348332,2.786651959529794e-05,-0.0004149688020457261,-0.0009635777042306984,0.7838374972343445,46.50039291381836,5.735073566436768,-19.686006546020508,-0.5047507882118225,-2.4173007011413574,0.43979209661483765,0
74,0.36504125595092773,-0.7838374972343445,-46.42501449584961,-5.735073566436768,19.733613967895508,0.5166526436805725,2.4237093925476074,-0.39950889348983765,0.0,0.0,0.0,0.0,0.0,0.0,0.0,-0.8064300557585945,-0.13937758560745547,-0.5874394415587697,0.5135284423053863,-0.07768828794467225,0.1601004784871412,-0.41400542093789305,0.8782526761230834,0.7556818974478222,-0.2823136997579396,-1.6693045699971352,0.1413900041381518,2.403411500347985,1.0273656107928273,0.878092876070424,0.7554597494309409,-0.2825552651693207,-1.6690993614607135,0.1414185955172306,2.4034451173676383,1.0273381002308042,-0.0005640096004697277,-0.0007748719393245713,-0.00048526061352851163,-0.0006264384534426023,-0.0003273139720196712,8.832605877894984e-05,-0.0006821224876278445,0.0,0.0,0.0,0.0,0.0,0.0,0.0,-0.0001598000526594756,-0.00022214801688136276,-0.0002415654113811505,0.00020520853642169712,2.8591379078790613e-05,3.361701965332031e-05,-2.751056202310309e-05,0.0005640096004697277,0.0007748719393245713,0.00048526061352851163,0.0006264384534426023,0.0003273139720196712,-8.832605877894984e-05,0.0006821224876278445,0.7838374972343445,46.42501449584961,5.735073566436768,-19.733613967895508,-0.5166526436805725,-2.4237093925476074,0.39950889348983765,0
75,0.37000131607055664,-0.7838374972343445,-46.42501449584961,-5.735073566436768,19.733613967895508,0.5166526436805725,2.4237093925476074,-0.39950889348983765,0.0,0.0,0.0,0.0,0.0,0.0,0.0,-0.8064300557585945,-0.13937758560745547,-0.5874394415587697,0.5135284423053863,-0.07768828794467225,0.1601004784871412,-0.41400542093789305,0.8782526761230834,0.7556818974478222,-0.2823136997579396,-1.6693045699971352,0.1413900041381518,2.403411500347985,1.0273656107928273,0.878092876070424,0.7554597494309409,-0.2825552651693207,-1.6690993614607135,0.1414185955172306,2.4034451173676383,1.0273381002308042,-0.0005640096004697277,-0.0007748719393245713,-0.00048526061352851163,-0.0006264384534426023,-0.0003273139720196712,8.832605877894984e-05,-0.0006821224876278445,0.0,0.0,0.0,0.0,0.0,0.0,0.0,-0.0001598000526594756,-0.00022214801688136276,-0.0002415654113811505,0.00020520853642169712,2.8591379078790613e-05,3.361701965332031e-05,-2.751056202310309e-05,0.0005640096004697277,0.0007748719393245713,0.00048526061352851163,0.0006264384534426023,0.0003273139720196712,-8.832605877894984e-05,0.0006821224876278445,0.7838374972343445,46.42501449584961,5.735073566436768,-19.733613967895508,-0.5166526436805725,-2.4237093925476074,0.39950889348983765,0
76,0.3749997615814209,-0.7838374972343445,-46.52419662475586,-5.810451984405518,19.709810256958008,0.5166526436805725,2.4173007011413574,-0.41324180364608765,0.0,0.0,0.0,0.0,0.0,0.0,0.0,-0.8082871754501917,-0.1337026381294749,-0.5871509519697125,0.5116606566025859,-0.07724540023375613,0.15939677779522668,-0.4146202366805444,0.8782526761230669,0.7556888575972173,-0.2823081358194781,-1.66930289956143,0.14139000365212095,2.4034122124248083,1.0273672544075312,0.878092876070424,0.7554597494309409,-0.2825552651693207,-1.6690993614607135,0.1414185955172306,2.4034451173676383,1.0273381002308042,-0.0002818500341898155,0.002000393578089882,0.0013411482473011016,2.6704361453441173e-05,-0.0002560037489751488,0.00028471516734816386,0.00020597522815201375,0.0,0.0,0.0,0.0,0.0,0.0,0.0,-0.0001598000526429333,-0.00022910816627641495,-0.0002471293498426119,0.00020353810071660483,2.8591865109645065e-05,3.290494283003653e-05,-2.9154176726997605e-05,0.0002818500341898155,-0.002000393578089882,-0.0013411482473011016,-2.6704361453441173e-05,0.0002560037489751488,-0.00028471516734816386,-0.00020597522815201375,0.7838374972343445,46.52419662475586,5.810451984405518,-19.709810256958008,-0.5166526436805725,-2.4173007011413574,0.41324180364608765,0
77,0.3800036907196045,-0.7838374972343445,-46.52419662475586,-5.810451984405518,19.709810256958008,0.5166526436805725,2.4173007011413574,-0.41324180364608765,0.0,0.0,0.0,0.0,0.0,0.0,0.0,-0.8082871754501917,-0.1337026381294749,-0.5871509519697125,0.5116606566025859,-0.07724540023375613,0.15939677779522668,-0.4146202366805444,0.8782526761230669,0.7556888575972173,-0.2823081358194781,-1.66930289956143,0.14139000365212095,2.4034122124248083,1.0273672544075312,0.878092876070424,0.7554597494309409,-0.2825552651693207,-1.6690993614607135,0.1414185955172306,2.4034451173676383,1.0273381002308042,-0.0002818500341898155,0.002000393578089882,0.0013411482473011016,2.6704361453441173e-05,-0.0002560037489751488,0.00028471516734816386,0.00020597522815201375,0.0,0.0,0.0,0.0,0.0,0.0,0.0,-0.0001598000526429333,-0.00022910816627641495,-0.0002471293498426119,0.00020353810071660483,2.8591865109645065e-05,3.290494283003653e-05,-2.9154176726997605e-05,0.0002818500341898155,-0.002000393578089882,-0.0013411482473011016,-2.6704361453441173e-05,0.0002560037489751488,-0.00028471516734816386,-0.00020597522815201375,0.7838374972343445,46.52419662475586,5.810451984405518,-19.709810256958008,-0.5166526436805725,-2.4173007011413574,0.41324180364608765,0
78,0.3850255012512207,-0.7838374972343445,-46.52419662475586,-5.810451984405518,19.709810256958008,0.5166526436805725,2.4173007011413574,-0.41324180364608765,0.0,0.0,0.0,0.0,0.0,0.0,0.0,-0.8082871754501917,-0.1337026381294749,-0.5871509519697125,0.5116606566025859,-0.07724540023375613,0.15939677779522668,-0.4146202366805444,0.8782526761230669,0.7556888575972173,-0.2823081358194781,-1.66930289956143,0.14139000365212095,2.4034122124248083,1.0273672544075312,0.878092876070424,0.7554597494309409,-0.2825552651693207,-1.6690993614607135,0.1414185955172306,2.4034451173676383,1.0273381002308042,-0.0002818500341898155,0.002000393578089882,0.0013411482473011016,2.6704361453441173e-05,-0.0002560037489751488,0.00028471516734816386,0.00020597522815201375,0.0,0.0,0.0,0.0,0.0,0.0,0.0,-0.0001598000526429333,-0.00022910816627641495,-0.0002471293498426119,0.00020353810071660483,2.8591865109645065e-05,3.290494283003653e-05,-2.9154176726997605e-05,0.0002818500341898155,-0.002000393578089882,-0.0013411482473011016,-2.6704361453441173e-05,0.0002560037489751488,-0.00028471516734816386,-0.00020597522815201375,0.7838374972343445,46.52419662475586,5.810451984405518,-19.709810256958008,-0.5166526436805725,-2.4173007011413574,0.41324180364608765,0
79,0.3899953365325928,-0.7838374972343445,-46.52419662475586,-5.810451984405518,19.709810256958008,0.5166526436805725,2.4173007011413574,-0.41324180364608765,0.0,0.0,0.0,0.0,0.0,0.0,0.0,-0.8082871754501917,-0.1337026381294749,-0.5871509519697125,0.5116606566025859,-0.07724540023375613,0.15939677779522668,-0.4146202366805444,0.8782526761230669,0.7556888575972173,-0.2823081358194781,-1.66930289956143,0.14139000365212095,2.4034122124248083,1.0273672544075312,0.878092876070424,0.7554597494309409,-0.2825552651693207,-1.6690993614607135,0.1414185955172306,2.4034451173676383,1.0273381002308042,-0.0002818500341898155,0.002000393578089882,0.0013411482473011016,2.6704361453441173e-05,-0.0002560037489751488,0.00028471516734816386,0.00020597522815201375,0.0,0.0,0.0,0.0,0.0,0.0,0.0,-0.0001598000526429333,-0.00022910816627641495,-0.0002471293498426119,0.00020353810071660483,2.8591865109645065e-05,3.290494283003653e-05,-2.9154176726997605e-05,0.0002818500341898155,-0.002000393578089882,-0.0013411482473011016,-2.6704361453441173e-05,0.0002560037489751488,-0.00028471516734816386,-0.00020597522815201375,0.7838374972343445,46.52419662475586,5.810451984405518,-19.709810256958008,-0.5166526436805725,-2.4173007011413574,0.41324180364608765,0
80,0.39499783515930176,-0.8592159152030945,-46.44881820678711,-5.762844562530518,19.733613967895508,0.5102439522743225,2.4237093925476074,-0.39950889348983765,0.0,0.0,0.0,0.0,0.0,0.0,0.0,-0.8122775798630892,-0.14098743382378318,-0.5905663870215057,0.5161456856611962,-0.0772786497875941,0.16025823412656365,-0.4150884167119305,0.8782579658366086,0.7556835678836755,-0.2823114766865446,-1.6693037752686883,0.14139071621497382,2.403411500347985,1.0273657285306186,0.878092876070424,0.7554597494309409,-0.2825552651693207,-1.6690993614607135,0.1414185955172306,2.4034451173676383,1.0273381002308042,0.0008991553814331879,-0.0001153726954706083,0.00023346024493914484,-0.00025129576652631807,5.1716801420532196e-05,0.00010714326248300172,-0.0010207186033382584,0.0,0.0,0.0,0.0,0.0,0.0,0.0,-0.0001650897661846784,-0.00022381845273466983,-0.00024378848277611942,0.00020441380797486808,2.787930225678359e-05,3.361701965332031e-05,-2.7628299814397295e-05,-0.0008991553814331879,0.0001153726954706083,-0.00023346024493914484,0.00025129576652631807,-5.1716801420532196e-05,-0.00010714326248300172,0.0010207186033382584,0.8592159152030945,46.44881820678711,5.762844562530518,-19.733613967895508,-0.5102439522743225,-2.4237093925476074,0.39950889348983765,0
