rezayati/contactInterpretation/dataset/franka_main/labeled_data/link6/b5_6.csv
index,time,tau_J0,tau_J1,tau_J2,tau_J3,tau_J4,tau_J5,tau_J6,tau_J_d0,tau_J_d1,tau_J_d2,tau_J_d3,tau_J_d4,tau_J_d5,tau_J_d6,tau_ext0,tau_ext1,tau_ext2,tau_ext3,tau_ext4,tau_ext5,tau_ext6,q0,q1,q2,q3,q4,q5,q6,q_d0,q_d1,q_d2,q_d3,q_d4,q_d5,q_d6,dq0,dq1,dq2,dq3,dq4,dq5,dq6,dq_d0,dq_d1,dq_d2,dq_d3,dq_d4,dq_d5,dq_d6,e0,e1,e2,e3,e4,e5,e6,de0,de1,de2,de3,de4,de5,de6,etau_J0,etau_J1,etau_J2,etau_J3,etau_J4,etau_J5,etau_J6,label
1,0.0,-0.09352988004684448,-18.205713272094727,0.9180634021759033,18.269685745239258,0.7253928780555725,2.2882113456726074,-0.20724813640117645,0.0,0.0,0.0,0.0,0.0,0.0,0.0,-0.054772608410917564,0.5470055708825161,0.10596436588978048,0.630456617570726,0.29416076969475985,0.08772776469908287,-0.2133721171115024,-0.6088911821089292,-0.05758892184182217,-0.6664608645773771,-2.594873088542487,-0.05579286323984464,2.507933706796737,0.8763191901759968,-0.6090851748156966,-0.05753196718556838,-0.666603097082616,-2.5945565370258534,-0.05562143941554,2.507976027223799,0.8763108487046415,0.0005877184245430433,0.0011983440518502054,0.00039116765757326623,-0.0003143822330398115,-0.0003951569900241493,-7.448756771678688e-05,-0.00035663577337754235,0.0,0.0,0.0,0.0,0.0,0.0,0.0,-0.00019399270676734304,5.6954656253785374e-05,-0.00014223250523892617,0.0003165515166334565,0.00017142382430464231,4.232042706187045e-05,-8.341471355310937e-06,-0.0005877184245430433,-0.0011983440518502054,-0.00039116765757326623,0.0003143822330398115,0.0003951569900241493,7.448756771678688e-05,0.00035663577337754235,0.09352988004684448,18.205713272094727,-0.9180634021759033,-18.269685745239258,-0.7253928780555725,-2.2882113456726074,0.20724813640117645,0
2,0.004695892333984375,-0.09352988004684448,-18.205713272094727,0.9180634021759033,18.269685745239258,0.7253928780555725,2.2882113456726074,-0.20724813640117645,0.0,0.0,0.0,0.0,0.0,0.0,0.0,-0.054772608410917564,0.5470055708825161,0.10596436588978048,0.630456617570726,0.29416076969475985,0.08772776469908287,-0.2133721171115024,-0.6088911821089292,-0.05758892184182217,-0.6664608645773771,-2.594873088542487,-0.05579286323984464,2.507933706796737,0.8763191901759968,-0.6090851748156966,-0.05753196718556838,-0.666603097082616,-2.5945565370258534,-0.05562143941554,2.507976027223799,0.8763108487046415,0.0005877184245430433,0.0011983440518502054,0.00039116765757326623,-0.0003143822330398115,-0.0003951569900241493,-7.448756771678688e-05,-0.00035663577337754235,0.0,0.0,0.0,0.0,0.0,0.0,0.0,-0.00019399270676734304,5.6954656253785374e-05,-0.00014223250523892617,0.0003165515166334565,0.00017142382430464231,4.232042706187045e-05,-8.341471355310937e-06,-0.0005877184245430433,-0.0011983440518502054,-0.00039116765757326623,0.0003143822330398115,0.0003951569900241493,7.448756771678688e-05,0.00035663577337754235,0.09352988004684448,18.205713272094727,-0.9180634021759033,-18.269685745239258,-0.7253928780555725,-2.2882113456726074,0.20724813640117645,0
3,0.009696722030639648,-0.09352988004684448,-18.205713272094727,0.8704559803009033,18.269685745239258,0.7189841866493225,2.2818026542663574,-0.22830526530742645,0.0,0.0,0.0,0.0,0.0,0.0,0.0,-0.06478493285777627,0.5453428718444709,0.09874745502472336,0.6213425036645579,0.29390884312684185,0.0886222383610211,-0.2150584925738136,-0.6088911821089292,-0.05758892184182217,-0.6664575237056666,-2.594873058018104,-0.055792151163021726,2.507933004156147,0.8763215298569863,-0.6090851748156966,-0.05753196718556838,-0.666603097082616,-2.5945565370258534,-0.05562143941554,2.507976027223799,0.8763108487046415,0.0001667027867647591,0.000981052661837657,0.0008396789319367652,-0.0005479616621129983,0.000126411030711033,-0.0002886029441849297,0.0003479453156014019,0.0,0.0,0.0,0.0,0.0,0.0,0.0,-0.00019399270676734304,5.6954656253785374e-05,-0.00014557337694942607,0.0003165209922504353,0.0001707117474817263,4.3023067652026015e-05,-1.0681152344815814e-05,-0.0001667027867647591,-0.000981052661837657,-0.0008396789319367652,0.0005479616621129983,-0.000126411030711033,0.0002886029441849297,-0.0003479453156014019,0.09352988004684448,18.205713272094727,-0.8704559803009033,-18.269685745239258,-0.7189841866493225,-2.2818026542663574,0.22830526530742645,0
4,0.015851497650146484,-0.09352988004684448,-18.205713272094727,0.8704559803009033,18.269685745239258,0.7189841866493225,2.2818026542663574,-0.22830526530742645,0.0,0.0,0.0,0.0,0.0,0.0,0.0,-0.06478493285777627,0.5453428718444709,0.09874745502472336,0.6213425036645579,0.29390884312684185,0.0886222383610211,-0.2150584925738136,-0.6088911821089292,-0.05758892184182217,-0.6664575237056666,-2.594873058018104,-0.055792151163021726,2.507933004156147,0.8763215298569863,-0.6090851748156966,-0.05753196718556838,-0.666603097082616,-2.5945565370258534,-0.05562143941554,2.507976027223799,0.8763108487046415,0.0001667027867647591,0.000981052661837657,0.0008396789319367652,-0.0005479616621129983,0.000126411030711033,-0.0002886029441849297,0.0003479453156014019,0.0,0.0,0.0,0.0,0.0,0.0,0.0,-0.00019399270676734304,5.6954656253785374e-05,-0.00014557337694942607,0.0003165209922504353,0.0001707117474817263,4.3023067652026015e-05,-1.0681152344815814e-05,-0.0001667027867647591,-0.000981052661837657,-0.0008396789319367652,0.0005479616621129983,-0.000126411030711033,0.0002886029441849297,-0.0003479453156014019,0.09352988004684448,18.205713272094727,-0.8704559803009033,-18.269685745239258,-0.7189841866493225,-2.2818026542663574,0.22830526530742645,0
5,0.019695043563842773,-0.09352988004684448,-18.205713272094727,0.8704559803009033,18.269685745239258,0.7189841866493225,2.2818026542663574,-0.22830526530742645,0.0,0.0,0.0,0.0,0.0,0.0,0.0,-0.06478493285777627,0.5453428718444709,0.09874745502472336,0.6213425036645579,0.29390884312684185,0.0886222383610211,-0.2150584925738136,-0.6088911821089292,-0.05758892184182217,-0.6664575237056666,-2.594873058018104,-0.055792151163021726,2.507933004156147,0.8763215298569863,-0.6090851748156966,-0.05753196718556838,-0.666603097082616,-2.5945565370258534,-0.05562143941554,2.507976027223799,0.8763108487046415,0.0001667027867647591,0.000981052661837657,0.0008396789319367652,-0.0005479616621129983,0.000126411030711033,-0.0002886029441849297,0.0003479453156014019,0.0,0.0,0.0,0.0,0.0,0.0,0.0,-0.00019399270676734304,5.6954656253785374e-05,-0.00014557337694942607,0.0003165209922504353,0.0001707117474817263,4.3023067652026015e-05,-1.0681152344815814e-05,-0.0001667027867647591,-0.000981052661837657,-0.0008396789319367652,0.0005479616621129983,-0.000126411030711033,0.0002886029441849297,-0.0003479453156014019,0.09352988004684448,18.205713272094727,-0.8704559803009033,-18.269685745239258,-0.7189841866493225,-2.2818026542663574,0.22830526530742645,0
6,0.024698734283447266,-0.09352988004684448,-18.205713272094727,0.8704559803009033,18.269685745239258,0.7189841866493225,2.2818026542663574,-0.22830526530742645,0.0,0.0,0.0,0.0,0.0,0.0,0.0,-0.06478493285777627,0.5453428718444709,0.09874745502472336,0.6213425036645579,0.29390884312684185,0.0886222383610211,-0.2150584925738136,-0.6088911821089292,-0.05758892184182217,-0.6664575237056666,-2.594873058018104,-0.055792151163021726,2.507933004156147,0.8763215298569863,-0.6090851748156966,-0.05753196718556838,-0.666603097082616,-2.5945565370258534,-0.05562143941554,2.507976027223799,0.8763108487046415,0.0001667027867647591,0.000981052661837657,0.0008396789319367652,-0.0005479616621129983,0.000126411030711033,-0.0002886029441849297,0.0003479453156014019,0.0,0.0,0.0,0.0,0.0,0.0,0.0,-0.00019399270676734304,5.6954656253785374e-05,-0.00014557337694942607,0.0003165209922504353,0.0001707117474817263,4.3023067652026015e-05,-1.0681152344815814e-05,-0.0001667027867647591,-0.000981052661837657,-0.0008396789319367652,0.0005479616621129983,-0.000126411030711033,0.0002886029441849297,-0.0003479453156014019,0.09352988004684448,18.205713272094727,-0.8704559803009033,-18.269685745239258,-0.7189841866493225,-2.2818026542663574,0.22830526530742645,0
7,0.02969813346862793,-0.09352988004684448,-18.205713272094727,0.8704559803009033,18.269685745239258,0.7189841866493225,2.2818026542663574,-0.22830526530742645,0.0,0.0,0.0,0.0,0.0,0.0,0.0,-0.06478493285777627,0.5453428718444709,0.09874745502472336,0.6213425036645579,0.29390884312684185,0.0886222383610211,-0.2150584925738136,-0.6088911821089292,-0.05758892184182217,-0.6664575237056666,-2.594873058018104,-0.055792151163021726,2.507933004156147,0.8763215298569863,-0.6090851748156966,-0.05753196718556838,-0.666603097082616,-2.5945565370258534,-0.05562143941554,2.507976027223799,0.8763108487046415,0.0001667027867647591,0.000981052661837657,0.0008396789319367652,-0.0005479616621129983,0.000126411030711033,-0.0002886029441849297,0.0003479453156014019,0.0,0.0,0.0,0.0,0.0,0.0,0.0,-0.00019399270676734304,5.6954656253785374e-05,-0.00014557337694942607,0.0003165209922504353,0.0001707117474817263,4.3023067652026015e-05,-1.0681152344815814e-05,-0.0001667027867647591,-0.000981052661837657,-0.0008396789319367652,0.0005479616621129983,-0.000126411030711033,0.0002886029441849297,-0.0003479453156014019,0.09352988004684448,18.205713272094727,-0.8704559803009033,-18.269685745239258,-0.7189841866493225,-2.2818026542663574,0.22830526530742645,0
8,0.03470587730407715,-0.09352988004684448,-18.054956436157227,0.9180634021759033,18.269685745239258,0.7189841866493225,2.2689852714538574,-0.20724813640117645,0.0,0.0,0.0,0.0,0.0,0.0,0.0,-0.0696350297912254,0.5349829012613931,0.09489942669261434,0.6234223667649923,0.29478263187425485,0.09006973138420366,-0.21658031970771643,-0.6088911821089292,-0.0575995012689055,-0.6664608645773771,-2.5948730580179316,-0.055792151163021726,2.5079326751588105,0.8763191901759968,-0.6090851748156966,-0.05753196718556838,-0.666603097082616,-2.5945565370258534,-0.05562143941554,2.507976027223799,0.8763108487046415,0.0004219623696310947,-0.0011621227194371759,-0.0007501349546262489,-0.0003589482979163639,3.3983197535030525e-05,0.0003138435838029903,1.5792856464382868e-05,0.0,0.0,0.0,0.0,0.0,0.0,0.0,-0.00019399270676734304,6.753408333711602e-05,-0.00014223250523892617,0.00031652099207812867,0.0001707117474817263,4.3352064988511074e-05,-8.341471355310937e-06,-0.0004219623696310947,0.0011621227194371759,0.0007501349546262489,0.0003589482979163639,-3.3983197535030525e-05,-0.0003138435838029903,-1.5792856464382868e-05,0.09352988004684448,18.054956436157227,-0.9180634021759033,-18.269685745239258,-0.7189841866493225,-2.2689852714538574,0.20724813640117645,0
9,0.03971505165100098,-0.09352988004684448,-18.054956436157227,0.9180634021759033,18.269685745239258,0.7189841866493225,2.2689852714538574,-0.20724813640117645,0.0,0.0,0.0,0.0,0.0,0.0,0.0,-0.0696350297912254,0.5349829012613931,0.09489942669261434,0.6234223667649923,0.29478263187425485,0.09006973138420366,-0.21658031970771643,-0.6088911821089292,-0.0575995012689055,-0.6664608645773771,-2.5948730580179316,-0.055792151163021726,2.5079326751588105,0.8763191901759968,-0.6090851748156966,-0.05753196718556838,-0.666603097082616,-2.5945565370258534,-0.05562143941554,2.507976027223799,0.8763108487046415,0.0004219623696310947,-0.0011621227194371759,-0.0007501349546262489,-0.0003589482979163639,3.3983197535030525e-05,0.0003138435838029903,1.5792856464382868e-05,0.0,0.0,0.0,0.0,0.0,0.0,0.0,-0.00019399270676734304,6.753408333711602e-05,-0.00014223250523892617,0.00031652099207812867,0.0001707117474817263,4.3352064988511074e-05,-8.341471355310937e-06,-0.0004219623696310947,0.0011621227194371759,0.0007501349546262489,0.0003589482979163639,-3.3983197535030525e-05,-0.0003138435838029903,-1.5792856464382868e-05,0.09352988004684448,18.054956436157227,-0.9180634021759033,-18.269685745239258,-0.7189841866493225,-2.2689852714538574,0.20724813640117645,0
10,0.04471731185913086,-0.09352988004684448,-18.106531143188477,0.8942596912384033,18.245882034301758,0.7189841866493225,2.2689852714538574,-0.20724813640117645,0.0,0.0,0.0,0.0,0.0,0.0,0.0,-0.06801213454069052,0.5393531050532886,0.09427844254739096,0.6208224125786528,0.2946938060260811,0.08935916851839874,-0.2164572475757904,-0.6088911821089292,-0.057595881991219094,-0.6664591941415218,-2.594871387582076,-0.05579215132553672,2.5079358415734307,0.8763191901759968,-0.6090851748156966,-0.05753196718556838,-0.666603097082616,-2.5945565370258534,-0.05562143941554,2.507976027223799,0.8763108487046415,0.0006624964682165297,0.0002499727788306531,0.00011315887292997025,-0.0001441771057530686,-7.421405698083031e-06,-0.0001425524327695044,-0.0005618367484555701,0.0,0.0,0.0,0.0,0.0,0.0,0.0,-0.00019399270676734304,6.391480565071106e-05,-0.00014390294109423163,0.0003148505562227122,0.0001707119099967208,4.018565036822963e-05,-8.341471355310937e-06,-0.0006624964682165297,-0.0002499727788306531,-0.00011315887292997025,0.0001441771057530686,7.421405698083031e-06,0.0001425524327695044,0.0005618367484555701,0.09352988004684448,18.106531143188477,-0.8942596912384033,-18.245882034301758,-0.7189841866493225,-2.2689852714538574,0.20724813640117645,0
11,0.04970192909240723,-0.09352988004684448,-18.106531143188477,0.8942596912384033,18.245882034301758,0.7189841866493225,2.2689852714538574,-0.20724813640117645,0.0,0.0,0.0,0.0,0.0,0.0,0.0,-0.06801213454069052,0.5393531050532886,0.09427844254739096,0.6208224125786528,0.2946938060260811,0.08935916851839874,-0.2164572475757904,-0.6088911821089292,-0.057595881991219094,-0.6664591941415218,-2.594871387582076,-0.05579215132553672,2.5079358415734307,0.8763191901759968,-0.6090851748156966,-0.05753196718556838,-0.666603097082616,-2.5945565370258534,-0.05562143941554,2.507976027223799,0.8763108487046415,0.0006624964682165297,0.0002499727788306531,0.00011315887292997025,-0.0001441771057530686,-7.421405698083031e-06,-0.0001425524327695044,-0.0005618367484555701,0.0,0.0,0.0,0.0,0.0,0.0,0.0,-0.00019399270676734304,6.391480565071106e-05,-0.00014390294109423163,0.0003148505562227122,0.0001707119099967208,4.018565036822963e-05,-8.341471355310937e-06,-0.0006624964682165297,-0.0002499727788306531,-0.00011315887292997025,0.0001441771057530686,7.421405698083031e-06,0.0001425524327695044,0.0005618367484555701,0.09352988004684448,18.106531143188477,-0.8942596912384033,-18.245882034301758,-0.7189841866493225,-2.2689852714538574,0.20724813640117645,0
12,0.054700613021850586,-0.06972616910934448,-18.078760147094727,0.9418671131134033,18.222078323364258,0.7253928780555725,2.2818026542663574,-0.16604940593242645,0.0,0.0,0.0,0.0,0.0,0.0,0.0,-0.05885632328584613,0.5392276984809107,0.10217553165954245,0.6294536048658377,0.2946069796469575,0.08958480187701832,-0.21616768202005077,-0.6088928525447845,-0.057597830833050236,-0.6664625350132323,-2.5948719423862925,-0.05579286323984556,2.5079330611137745,0.876314612539278,-0.6090851748156966,-0.05753196718556838,-0.666603097082616,-2.5945565370258534,-0.05562143941554,2.507976027223799,0.8763108487046415,0.0008068039008775172,-0.0009680836490111492,-0.00016054244016537828,0.000892981520947942,-0.00014514623743695733,-0.0005051951824703933,-0.002188016383200717,0.0,0.0,0.0,0.0,0.0,0.0,0.0,-0.00019232227091203757,6.58636474818522e-05,-0.00014056206938373172,0.0003154053604390583,0.00017142382430555825,4.2966110024522663e-05,-3.7638346365165276e-06,-0.0008068039008775172,0.0009680836490111492,0.00016054244016537828,-0.000892981520947942,0.00014514623743695733,0.0005051951824703933,0.002188016383200717,0.06972616910934448,18.078760147094727,-0.9418671131134033,-18.222078323364258,-0.7253928780555725,-2.2818026542663574,0.16604940593242645,0
13,0.05969572067260742,-0.06972616910934448,-18.078760147094727,0.9418671131134033,18.222078323364258,0.7253928780555725,2.2818026542663574,-0.16604940593242645,0.0,0.0,0.0,0.0,0.0,0.0,0.0,-0.05885632328584613,0.5392276984809107,0.10217553165954245,0.6294536048658377,0.2946069796469575,0.08958480187701832,-0.21616768202005077,-0.6088928525447845,-0.057597830833050236,-0.6664625350132323,-2.5948719423862925,-0.05579286323984556,2.5079330611137745,0.876314612539278,-0.6090851748156966,-0.05753196718556838,-0.666603097082616,-2.5945565370258534,-0.05562143941554,2.507976027223799,0.8763108487046415,0.0008068039008775172,-0.0009680836490111492,-0.00016054244016537828,0.000892981520947942,-0.00014514623743695733,-0.0005051951824703933,-0.002188016383200717,0.0,0.0,0.0,0.0,0.0,0.0,0.0,-0.00019232227091203757,6.58636474818522e-05,-0.00014056206938373172,0.0003154053604390583,0.00017142382430555825,4.2966110024522663e-05,-3.7638346365165276e-06,-0.0008068039008775172,0.0009680836490111492,0.00016054244016537828,-0.000892981520947942,0.00014514623743695733,0.0005051951824703933,0.002188016383200717,0.06972616910934448,18.078760147094727,-0.9418671131134033,-18.222078323364258,-0.7253928780555725,-2.2818026542663574,0.16604940593242645,0
14,0.06469964981079102,-0.06972616910934448,-18.078760147094727,0.9418671131134033,18.222078323364258,0.7253928780555725,2.2818026542663574,-0.16604940593242645,0.0,0.0,0.0,0.0,0.0,0.0,0.0,-0.05885632328584613,0.5392276984809107,0.10217553165954245,0.6294536048658377,0.2946069796469575,0.08958480187701832,-0.21616768202005077,-0.6088928525447845,-0.057597830833050236,-0.6664625350132323,-2.5948719423862925,-0.05579286323984556,2.5079330611137745,0.876314612539278,-0.6090851748156966,-0.05753196718556838,-0.666603097082616,-2.5945565370258534,-0.05562143941554,2.507976027223799,0.8763108487046415,0.0008068039008775172,-0.0009680836490111492,-0.00016054244016537828,0.000892981520947942,-0.00014514623743695733,-0.0005051951824703933,-0.002188016383200717,0.0,0.0,0.0,0.0,0.0,0.0,0.0,-0.00019232227091203757,6.58636474818522e-05,-0.00014056206938373172,0.0003154053604390583,0.00017142382430555825,4.2966110024522663e-05,-3.7638346365165276e-06,-0.0008068039008775172,0.0009680836490111492,0.00016054244016537828,-0.000892981520947942,0.00014514623743695733,0.0005051951824703933,0.002188016383200717,0.06972616910934448,18.078760147094727,-0.9418671131134033,-18.222078323364258,-0.7253928780555725,-2.2818026542663574,0.16604940593242645,0
15,0.06969976425170898,-0.06972616910934448,-18.078760147094727,0.9418671131134033,18.222078323364258,0.7253928780555725,2.2818026542663574,-0.16604940593242645,0.0,0.0,0.0,0.0,0.0,0.0,0.0,-0.05885632328584613,0.5392276984809107,0.10217553165954245,0.6294536048658377,0.2946069796469575,0.08958480187701832,-0.21616768202005077,-0.6088928525447845,-0.057597830833050236,-0.6664625350132323,-2.5948719423862925,-0.05579286323984556,2.5079330611137745,0.876314612539278,-0.6090851748156966,-0.05753196718556838,-0.666603097082616,-2.5945565370258534,-0.05562143941554,2.507976027223799,0.8763108487046415,0.0008068039008775172,-0.0009680836490111492,-0.00016054244016537828,0.000892981520947942,-0.00014514623743695733,-0.0005051951824703933,-0.002188016383200717,0.0,0.0,0.0,0.0,0.0,0.0,0.0,-0.00019232227091203757,6.58636474818522e-05,-0.00014056206938373172,0.0003154053604390583,0.00017142382430555825,4.2966110024522663e-05,-3.7638346365165276e-06,-0.0008068039008775172,0.0009680836490111492,0.00016054244016537828,-0.000892981520947942,0.00014514623743695733,0.0005051951824703933,0.002188016383200717,0.06972616910934448,18.078760147094727,-0.9418671131134033,-18.222078323364258,-0.7253928780555725,-2.2818026542663574,0.16604940593242645,0
16,0.07470035552978516,-0.04592245817184448,-18.177942276000977,0.9180634021759033,18.269685745239258,0.7189841866493225,2.2753939628601074,-0.24112264811992645,0.0,0.0,0.0,0.0,0.0,0.0,0.0,-0.06319385258101194,0.5434906212197654,0.09540228694001082,0.6267745432041447,0.2953161485859975,0.089099246961704,-0.21496924394652667,-0.6088945229806398,-0.0575908706836533,-0.6664608645773771,-2.594873058030493,-0.05579215121719339,2.507930896822345,0.876322953956797,-0.6090851748156966,-0.05753196718556838,-0.666603097082616,-2.5945565370258534,-0.05562143941554,2.507976027223799,0.8763108487046415,-7.798173943044156e-05,0.0012040804531235564,0.00022318278474033748,-0.0002200239401032308,-1.191562621426964e-05,0.0001852758037780688,0.0014774642193675237,0.0,0.0,0.0,0.0,0.0,0.0,0.0,-0.0001906518350567321,5.890349808491957e-05,-0.00014223250523892617,0.00031652100463963606,0.00017071180165339345,4.5130401454152036e-05,-1.2105252155558688e-05,7.798173943044156e-05,-0.0012040804531235564,-0.00022318278474033748,0.0002200239401032308,1.191562621426964e-05,-0.0001852758037780688,-0.0014774642193675237,0.04592245817184448,18.177942276000977,-0.9180634021759033,-18.269685745239258,-0.7189841866493225,-2.2753939628601074,0.24112264811992645,0
17,0.07969951629638672,-0.04592245817184448,-18.177942276000977,0.9180634021759033,18.269685745239258,0.7189841866493225,2.2753939628601074,-0.24112264811992645,0.0,0.0,0.0,0.0,0.0,0.0,0.0,-0.06319385258101194,0.5434906212197654,0.09540228694001082,0.6267745432041447,0.2953161485859975,0.089099246961704,-0.21496924394652667,-0.6088945229806398,-0.0575908706836533,-0.6664608645773771,-2.594873058030493,-0.05579215121719339,2.507930896822345,0.876322953956797,-0.6090851748156966,-0.05753196718556838,-0.666603097082616,-2.5945565370258534,-0.05562143941554,2.507976027223799,0.8763108487046415,-7.798173943044156e-05,0.0012040804531235564,0.00022318278474033748,-0.0002200239401032308,-1.191562621426964e-05,0.0001852758037780688,0.0014774642193675237,0.0,0.0,0.0,0.0,0.0,0.0,0.0,-0.0001906518350567321,5.890349808491957e-05,-0.00014223250523892617,0.00031652100463963606,0.00017071180165339345,4.5130401454152036e-05,-1.2105252155558688e-05,7.798173943044156e-05,-0.0012040804531235564,-0.00022318278474033748,0.0002200239401032308,1.191562621426964e-05,-0.0001852758037780688,-0.0014774642193675237,0.04592245817184448,18.177942276000977,-0.9180634021759033,-18.269685745239258,-0.7189841866493225,-2.2753939628601074,0.24112264811992645,0
18,0.08469748497009277,-0.04592245817184448,-18.106531143188477,0.9180634021759033,18.269685745239258,0.7134910225868225,2.2753939628601074,-0.19351522624492645,0.0,0.0,0.0,0.0,0.0,0.0,0.0,-0.059389099650434755,0.5477527440506154,0.09623385588783134,0.6242536141502656,0.2951755440625694,0.08926755641865484,-0.21478682077954292,-0.6088945229806398,-0.057595881991219094,-0.6664608645773771,-2.5948730580179316,-0.05579154081145933,2.5079350118230024,0.8763176642970906,-0.6090851748156966,-0.05753196718556838,-0.666603097082616,-2.5945565370258534,-0.05562143941554,2.507976027223799,0.8763108487046415,9.56270692066417e-05,-0.00029775258446745065,-0.00012403378928436463,-0.0005325101818491307,0.00010354545724252023,-7.909051583761186e-05,-0.0005752861274256805,0.0,0.0,0.0,0.0,0.0,0.0,0.0,-0.0001906518350567321,6.391480565071106e-05,-0.00014223250523892617,0.00031652099207812867,0.00017010139591933093,4.1015400796595713e-05,-6.815592449083141e-06,-9.56270692066417e-05,0.00029775258446745065,0.00012403378928436463,0.0005325101818491307,-0.00010354545724252023,7.909051583761186e-05,0.0005752861274256805,0.04592245817184448,18.106531143188477,-0.9180634021759033,-18.269685745239258,-0.7134910225868225,-2.2753939628601074,0.19351522624492645,0
19,0.08969759941101074,-0.04592245817184448,-18.106531143188477,0.9180634021759033,18.269685745239258,0.7134910225868225,2.2753939628601074,-0.19351522624492645,0.0,0.0,0.0,0.0,0.0,0.0,0.0,-0.059389099650434755,0.5477527440506154,0.09623385588783134,0.6242536141502656,0.2951755440625694,0.08926755641865484,-0.21478682077954292,-0.6088945229806398,-0.057595881991219094,-0.6664608645773771,-2.5948730580179316,-0.05579154081145933,2.5079350118230024,0.8763176642970906,-0.6090851748156966,-0.05753196718556838,-0.666603097082616,-2.5945565370258534,-0.05562143941554,2.507976027223799,0.8763108487046415,9.56270692066417e-05,-0.00029775258446745065,-0.00012403378928436463,-0.0005325101818491307,0.00010354545724252023,-7.909051583761186e-05,-0.0005752861274256805,0.0,0.0,0.0,0.0,0.0,0.0,0.0,-0.0001906518350567321,6.391480565071106e-05,-0.00014223250523892617,0.00031652099207812867,0.00017010139591933093,4.1015400796595713e-05,-6.815592449083141e-06,-9.56270692066417e-05,0.00029775258446745065,0.00012403378928436463,0.0005325101818491307,-0.00010354545724252023,7.909051583761186e-05,0.0005752861274256805,0.04592245817184448,18.106531143188477,-0.9180634021759033,-18.269685745239258,-0.7134910225868225,-2.2753939628601074,0.19351522624492645,0
20,0.09469795227050781,-0.06972616910934448,-18.031152725219727,0.9696381092071533,18.245882034301758,0.7070823311805725,2.2753939628601074,-0.24844686686992645,0.0,0.0,0.0,0.0,0.0,0.0,0.0,-0.05890889136030497,0.5515531465136809,0.09458296947079071,0.6213263952102085,0.29449576946882416,0.08862662050295249,-0.21386893402999238,-0.6088928525447845,-0.05760117170476076,-0.6664644838550634,-2.5948736219795143,-0.055790828734636304,2.5079318501429575,0.8763237678127155,-0.6090851748156966,-0.05753196718556838,-0.666603097082616,-2.5945565370258534,-0.05562143941554,2.507976027223799,0.8763108487046415,-0.0003668208999470649,-0.0015828866814562488,-0.0013224207833634624,-0.00027364750607505075,0.0003415268235404152,-6.707049923508682e-05,0.000456023142838195,0.0,0.0,0.0,0.0,0.0,0.0,0.0,-0.00019232227091203757,6.920451919237985e-05,-0.00013861322755259753,0.0003170849536608955,0.0001693893190963039,4.4177080841478755e-05,-1.2919108073994323e-05,0.0003668208999470649,0.0015828866814562488,0.0013224207833634624,0.00027364750607505075,-0.0003415268235404152,6.707049923508682e-05,-0.000456023142838195,0.06972616910934448,18.031152725219727,-0.9696381092071533,-18.245882034301758,-0.7070823311805725,-2.2753939628601074,0.24844686686992645,0
21,0.09969663619995117,-0.06972616910934448,-18.031152725219727,0.9696381092071533,18.245882034301758,0.7070823311805725,2.2753939628601074,-0.24844686686992645,0.0,0.0,0.0,0.0,0.0,0.0,0.0,-0.05890889136030497,0.5515531465136809,0.09458296947079071,0.6213263952102085,0.29449576946882416,0.08862662050295249,-0.21386893402999238,-0.6088928525447845,-0.05760117170476076,-0.6664644838550634,-2.5948736219795143,-0.055790828734636304,2.5079318501429575,0.8763237678127155,-0.6090851748156966,-0.05753196718556838,-0.666603097082616,-2.5945565370258534,-0.05562143941554,2.507976027223799,0.8763108487046415,-0.0003668208999470649,-0.0015828866814562488,-0.0013224207833634624,-0.00027364750607505075,0.0003415268235404152,-6.707049923508682e-05,0.000456023142838195,0.0,0.0,0.0,0.0,0.0,0.0,0.0,-0.00019232227091203757,6.920451919237985e-05,-0.00013861322755259753,0.0003170849536608955,0.0001693893190963039,4.4177080841478755e-05,-1.2919108073994323e-05,0.0003668208999470649,0.0015828866814562488,0.0013224207833634624,0.00027364750607505075,-0.0003415268235404152,6.707049923508682e-05,-0.000456023142838195,0.06972616910934448,18.031152725219727,-0.9696381092071533,-18.245882034301758,-0.7070823311805725,-2.2753939628601074,0.24844686686992645,0
22,0.10470271110534668,-0.12130087614059448,-18.106531143188477,0.8942596912384033,18.297456741333008,0.7253928780555725,2.2753939628601074,-0.22098104655742645,0.0,0.0,0.0,0.0,0.0,0.0,0.0,-0.06177684563685817,0.5474422750675126,0.09530768518092658,0.6285635804629319,0.29418114035711446,0.08957948478514959,-0.21538097965946512,-0.6088892332670981,-0.057595803070254255,-0.6664591941415218,-2.5948750068723756,-0.05579286323984464,2.5079346581150093,0.876320716054903,-0.6090851748156966,-0.05753196718556838,-0.666603097082616,-2.5945565370258534,-0.05562143941554,2.507976027223799,0.8763108487046415,0.0009923374337602263,2.5478980397142846e-05,3.4034871505593955e-05,-0.0009910854745421856,-0.00026282322150720676,-8.760884412989942e-05,0.0005038870584406437,0.0,0.0,0.0,0.0,0.0,0.0,0.0,-0.00019594154859847723,6.383588468587137e-05,-0.00014390294109423163,0.0003184698465221736,0.00017142382430464231,4.136910878971278e-05,-9.867350261538732e-06,-0.0009923374337602263,-2.5478980397142846e-05,-3.4034871505593955e-05,0.0009910854745421856,0.00026282322150720676,8.760884412989942e-05,-0.0005038870584406437,0.12130087614059448,18.106531143188477,-0.8942596912384033,-18.297456741333008,-0.7253928780555725,-2.2753939628601074,0.22098104655742645,0
23,0.10970401763916016,-0.12130087614059448,-18.106531143188477,0.8942596912384033,18.297456741333008,0.7253928780555725,2.2753939628601074,-0.22098104655742645,0.0,0.0,0.0,0.0,0.0,0.0,0.0,-0.06177684563685817,0.5474422750675126,0.09530768518092658,0.6285635804629319,0.29418114035711446,0.08957948478514959,-0.21538097965946512,-0.6088892332670981,-0.057595803070254255,-0.6664591941415218,-2.5948750068723756,-0.05579286323984464,2.5079346581150093,0.876320716054903,-0.6090851748156966,-0.05753196718556838,-0.666603097082616,-2.5945565370258534,-0.05562143941554,2.507976027223799,0.8763108487046415,0.0009923374337602263,2.5478980397142846e-05,3.4034871505593955e-05,-0.0009910854745421856,-0.00026282322150720676,-8.760884412989942e-05,0.0005038870584406437,0.0,0.0,0.0,0.0,0.0,0.0,0.0,-0.00019594154859847723,6.383588468587137e-05,-0.00014390294109423163,0.0003184698465221736,0.00017142382430464231,4.136910878971278e-05,-9.867350261538732e-06,-0.0009923374337602263,-2.5478980397142846e-05,-3.4034871505593955e-05,0.0009910854745421856,0.00026282322150720676,8.760884412989942e-05,-0.0005038870584406437,0.12130087614059448,18.106531143188477,-0.8942596912384033,-18.297456741333008,-0.7253928780555725,-2.2753939628601074,0.22098104655742645,0
24,0.11580395698547363,-0.06972616910934448,-18.106531143188477,0.8942596912384033,18.222078323364258,0.7189841866493225,2.2689852714538574,-0.25485557317733765,0.0,0.0,0.0,0.0,0.0,0.0,0.0,-0.057876965772024815,0.5484641458077124,0.10119520835186538,0.6261904766096633,0.29376237602679534,0.08890324842725857,-0.21564128295767637,-0.6088928525447845,-0.05759588199077358,-0.6664591941415218,-2.594869717146221,-0.055792151163021726,2.507935389534518,0.8763244798911941,-0.6090851748156966,-0.05753196718556838,-0.666603097082616,-2.5945565370258534,-0.05562143941554,2.507976027223799,0.8763108487046415,1.117382698507041e-05,-0.0004999771516165837,0.00046801971196350325,0.0006775923915608538,-4.032978469353189e-05,0.00024905234771612167,0.001454556632521101,0.0,0.0,0.0,0.0,0.0,0.0,0.0,-0.00019232227091203757,6.391480520519938e-05,-0.00014390294109423163,0.0003131801203677398,0.0001707117474817263,4.063768928119771e-05,-1.3631186552620633e-05,-1.117382698507041e-05,0.0004999771516165837,-0.00046801971196350325,-0.0006775923915608538,4.032978469353189e-05,-0.00024905234771612167,-0.001454556632521101,0.06972616910934448,18.106531143188477,-0.8942596912384033,-18.222078323364258,-0.7189841866493225,-2.2689852714538574,0.25485557317733765,0
25,0.1197056770324707,-0.06972616910934448,-18.106531143188477,0.8942596912384033,18.222078323364258,0.7189841866493225,2.2689852714538574,-0.25485557317733765,0.0,0.0,0.0,0.0,0.0,0.0,0.0,-0.057876965772024815,0.5484641458077124,0.10119520835186538,0.6261904766096633,0.29376237602679534,0.08890324842725857,-0.21564128295767637,-0.6088928525447845,-0.05759588199077358,-0.6664591941415218,-2.594869717146221,-0.055792151163021726,2.507935389534518,0.8763244798911941,-0.6090851748156966,-0.05753196718556838,-0.666603097082616,-2.5945565370258534,-0.05562143941554,2.507976027223799,0.8763108487046415,1.117382698507041e-05,-0.0004999771516165837,0.00046801971196350325,0.0006775923915608538,-4.032978469353189e-05,0.00024905234771612167,0.001454556632521101,0.0,0.0,0.0,0.0,0.0,0.0,0.0,-0.00019232227091203757,6.391480520519938e-05,-0.00014390294109423163,0.0003131801203677398,0.0001707117474817263,4.063768928119771e-05,-1.3631186552620633e-05,-1.117382698507041e-05,0.0004999771516165837,-0.00046801971196350325,-0.0006775923915608538,4.032978469353189e-05,-0.00024905234771612167,-0.001454556632521101,0.06972616910934448,18.106531143188477,-0.8942596912384033,-18.222078323364258,-0.7189841866493225,-2.2689852714538574,0.25485557317733765,0
26,0.12469768524169922,-0.04592245817184448,-18.106531143188477,0.8942596912384033,18.245882034301758,0.7070823311805725,2.2753939628601074,-0.18710653483867645,0.0,0.0,0.0,0.0,0.0,0.0,0.0,-0.06358190810291994,0.545797385996379,0.09688364555516359,0.6271235069787127,0.2943083639357629,0.08935478162049124,-0.21687695435800924,-0.6088945229806398,-0.057595881991219094,-0.6664591941415218,-2.594871387582076,-0.05579086822577955,2.507935169726821,0.8763169522202676,-0.6090851748156966,-0.05753196718556838,-0.666603097082616,-2.5945565370258534,-0.05562143941554,2.507976027223799,0.8763108487046415,-0.00024236393761272804,-0.00047986579657415186,9.624669322004474e-05,6.466358554779132e-06,0.00046236309487235973,0.00017663863363388244,-0.0009296450412859629,0.0,0.0,0.0,0.0,0.0,0.0,0.0,-0.0001906518350567321,6.391480565071106e-05,-0.00014390294109423163,0.0003148505562227122,0.0001694288102395483,4.085749697813057e-05,-6.1035156261324275e-06,0.00024236393761272804,0.00047986579657415186,-9.624669322004474e-05,-6.466358554779132e-06,-0.00046236309487235973,-0.00017663863363388244,0.0009296450412859629,0.04592245817184448,18.106531143188477,-0.8942596912384033,-18.245882034301758,-0.7070823311805725,-2.2753939628601074,0.18710653483867645,0
27,0.12964391708374023,-0.04592245817184448,-18.106531143188477,0.8942596912384033,18.245882034301758,0.7070823311805725,2.2753939628601074,-0.18710653483867645,0.0,0.0,0.0,0.0,0.0,0.0,0.0,-0.06358190810291994,0.545797385996379,0.09688364555516359,0.6271235069787127,0.2943083639357629,0.08935478162049124,-0.21687695435800924,-0.6088945229806398,-0.057595881991219094,-0.6664591941415218,-2.594871387582076,-0.05579086822577955,2.507935169726821,0.8763169522202676,-0.6090851748156966,-0.05753196718556838,-0.666603097082616,-2.5945565370258534,-0.05562143941554,2.507976027223799,0.8763108487046415,-0.00024236393761272804,-0.00047986579657415186,9.624669322004474e-05,6.466358554779132e-06,0.00046236309487235973,0.00017663863363388244,-0.0009296450412859629,0.0,0.0,0.0,0.0,0.0,0.0,0.0,-0.0001906518350567321,6.391480565071106e-05,-0.00014390294109423163,0.0003148505562227122,0.0001694288102395483,4.085749697813057e-05,-6.1035156261324275e-06,0.00024236393761272804,0.00047986579657415186,-9.624669322004474e-05,-6.466358554779132e-06,-0.00046236309487235973,-0.00017663863363388244,0.0009296450412859629,0.04592245817184448,18.106531143188477,-0.8942596912384033,-18.245882034301758,-0.7070823311805725,-2.2753939628601074,0.18710653483867645,0
28,0.13469672203063965,-0.06972616910934448,-18.154138565063477,0.8704559803009033,18.245882034301758,0.7253928780555725,2.2689852714538574,-0.23471395671367645,0.0,0.0,0.0,0.0,0.0,0.0,0.0,-0.06608047579099005,0.5393009450604,0.09548161961118265,0.6290094609151251,0.2947841774215723,0.09080261182316804,-0.21505871312870908,-0.6088928525447845,-0.05759254111950857,-0.6664568188064748,-2.594871415054176,-0.05579286324006757,2.507934683111986,0.8763222419338093,-0.6090851748156966,-0.05753196718556838,-0.666603097082616,-2.5945565370258534,-0.05562143941554,2.507976027223799,0.8763108487046415,-3.508912774504744e-05,0.0002955318536092257,0.0011255618623201363,0.0003254262923812704,-0.00024030101360136494,0.00022240579536089675,0.0012929185293189208,0.0,0.0,0.0,0.0,0.0,0.0,0.0,-0.00019232227091203757,6.05739339401834e-05,-0.0001462782761412207,0.0003148780283224184,0.00017142382452756816,4.134411181277997e-05,-1.1393229167766528e-05,3.508912774504744e-05,-0.0002955318536092257,-0.0011255618623201363,-0.0003254262923812704,0.00024030101360136494,-0.00022240579536089675,-0.0012929185293189208,0.06972616910934448,18.154138565063477,-0.8704559803009033,-18.245882034301758,-0.7253928780555725,-2.2689852714538574,0.23471395671367645,0
29,0.13970398902893066,-0.06972616910934448,-18.154138565063477,0.8704559803009033,18.245882034301758,0.7253928780555725,2.2689852714538574,-0.23471395671367645,0.0,0.0,0.0,0.0,0.0,0.0,0.0,-0.06608047579099005,0.5393009450604,0.09548161961118265,0.6290094609151251,0.2947841774215723,0.09080261182316804,-0.21505871312870908,-0.6088928525447845,-0.05759254111950857,-0.6664568188064748,-2.594871415054176,-0.05579286324006757,2.507934683111986,0.8763222419338093,-0.6090851748156966,-0.05753196718556838,-0.666603097082616,-2.5945565370258534,-0.05562143941554,2.507976027223799,0.8763108487046415,-3.508912774504744e-05,0.0002955318536092257,0.0011255618623201363,0.0003254262923812704,-0.00024030101360136494,0.00022240579536089675,0.0012929185293189208,0.0,0.0,0.0,0.0,0.0,0.0,0.0,-0.00019232227091203757,6.05739339401834e-05,-0.0001462782761412207,0.0003148780283224184,0.00017142382452756816,4.134411181277997e-05,-1.1393229167766528e-05,3.508912774504744e-05,-0.0002955318536092257,-0.0011255618623201363,-0.0003254262923812704,0.00024030101360136494,-0.00022240579536089675,-0.0012929185293189208,0.06972616910934448,18.154138565063477,-0.8704559803009033,-18.245882034301758,-0.7253928780555725,-2.2689852714538574,0.23471395671367645,0
30,0.1446976661682129,-0.04592245817184448,-18.054956436157227,0.9180634021759033,18.245882034301758,0.7134910225868225,2.2753939628601074,-0.22830526530742645,0.0,0.0,0.0,0.0,0.0,0.0,0.0,-0.06434350560011505,0.5492846876295366,0.09853352380527793,0.6219244472152965,0.2943571387483644,0.0894091902272512,-0.2144884164517998,-0.6088945229806398,-0.0575995012689055,-0.6664608645733979,-2.594872129328922,-0.05579154081145923,2.507935069966218,0.8763215298569863,-0.6090851748156966,-0.05753196718556838,-0.666603097082616,-2.5945565370258534,-0.05562143941554,2.507976027223799,0.8763108487046415,-8.17099053571933e-06,-0.0010052598607231584,-4.75446288589045e-05,-0.00010987456431652518,0.00036138150515784343,-0.00017199203554055652,0.0006953123356083587,0.0,0.0,0.0,0.0,0.0,0.0,0.0,-0.0001906518350567321,6.753408333711602e-05,-0.0001422325092180765,0.0003155923030684349,0.00017010139591922685,4.09572575810202e-05,-1.0681152344815814e-05,8.17099053571933e-06,0.0010052598607231584,4.75446288589045e-05,0.00010987456431652518,-0.00036138150515784343,0.00017199203554055652,-0.0006953123356083587,0.04592245817184448,18.054956436157227,-0.9180634021759033,-18.245882034301758,-0.7134910225868225,-2.2753939628601074,0.22830526530742645,0
31,0.14969515800476074,-0.04592245817184448,-18.054956436157227,0.9180634021759033,18.245882034301758,0.7134910225868225,2.2753939628601074,-0.22830526530742645,0.0,0.0,0.0,0.0,0.0,0.0,0.0,-0.06434350560011505,0.5492846876295366,0.09853352380527793,0.6219244472152965,0.2943571387483644,0.0894091902272512,-0.2144884164517998,-0.6088945229806398,-0.0575995012689055,-0.6664608645733979,-2.594872129328922,-0.05579154081145923,2.507935069966218,0.8763215298569863,-0.6090851748156966,-0.05753196718556838,-0.666603097082616,-2.5945565370258534,-0.05562143941554,2.507976027223799,0.8763108487046415,-8.17099053571933e-06,-0.0010052598607231584,-4.75446288589045e-05,-0.00010987456431652518,0.00036138150515784343,-0.00017199203554055652,0.0006953123356083587,0.0,0.0,0.0,0.0,0.0,0.0,0.0,-0.0001906518350567321,6.753408333711602e-05,-0.0001422325092180765,0.0003155923030684349,0.00017010139591922685,4.09572575810202e-05,-1.0681152344815814e-05,8.17099053571933e-06,0.0010052598607231584,4.75446288589045e-05,0.00010987456431652518,-0.00036138150515784343,0.00017199203554055652,-0.0006953123356083587,0.04592245817184448,18.054956436157227,-0.9180634021759033,-18.245882034301758,-0.7134910225868225,-2.2753939628601074,0.22830526530742645,0
32,0.15469574928283691,-0.04592245817184448,-18.078760147094727,0.9418671131134033,18.297456741333008,0.7253928780555725,2.2689852714538574,-0.19351522624492645,0.0,0.0,0.0,0.0,0.0,0.0,0.0,-0.063341530512614,0.5478294421151544,0.0997872156865157,0.6259524833611562,0.29452885119976996,0.08933214180469508,-0.21315984448461756,-0.6088945229806398,-0.057597830833050236,-0.6664625350132323,-2.59487500686395,-0.05579286323984464,2.50793572821405,0.8763176642970906,-0.6090851748156966,-0.05753196718556838,-0.666603097082616,-2.5945565370258534,-0.05562143941554,2.507976027223799,0.8763108487046415,-0.0002917255380240186,-0.00025228087901494077,-0.0002481159395529249,-0.001443491074626834,-0.0002428322886962009,9.517967197625434e-05,-0.0010523092292021665,0.0,0.0,0.0,0.0,0.0,0.0,0.0,-0.0001906518350567321,6.58636474818522e-05,-0.00014056206938373172,0.000318469838096469,0.00017142382430464231,4.029900974877876e-05,-6.815592449083141e-06,0.0002917255380240186,0.00025228087901494077,0.0002481159395529249,0.001443491074626834,0.0002428322886962009,-9.517967197625434e-05,0.0010523092292021665,0.04592245817184448,18.078760147094727,-0.9418671131134033,-18.297456741333008,-0.7253928780555725,-2.2689852714538574,0.19351522624492645,0
33,0.15970778465270996,-0.04592245817184448,-18.078760147094727,0.9418671131134033,18.297456741333008,0.7253928780555725,2.2689852714538574,-0.19351522624492645,0.0,0.0,0.0,0.0,0.0,0.0,0.0,-0.063341530512614,0.5478294421151544,0.0997872156865157,0.6259524833611562,0.29452885119976996,0.08933214180469508,-0.21315984448461756,-0.6088945229806398,-0.057597830833050236,-0.6664625350132323,-2.59487500686395,-0.05579286323984464,2.50793572821405,0.8763176642970906,-0.6090851748156966,-0.05753196718556838,-0.666603097082616,-2.5945565370258534,-0.05562143941554,2.507976027223799,0.8763108487046415,-0.0002917255380240186,-0.00025228087901494077,-0.0002481159395529249,-0.001443491074626834,-0.0002428322886962009,9.517967197625434e-05,-0.0010523092292021665,0.0,0.0,0.0,0.0,0.0,0.0,0.0,-0.0001906518350567321,6.58636474818522e-05,-0.00014056206938373172,0.000318469838096469,0.00017142382430464231,4.029900974877876e-05,-6.815592449083141e-06,0.0002917255380240186,0.00025228087901494077,0.0002481159395529249,0.001443491074626834,0.0002428322886962009,-9.517967197625434e-05,0.0010523092292021665,0.04592245817184448,18.078760147094727,-0.9418671131134033,-18.297456741333008,-0.7253928780555725,-2.2689852714538574,0.19351522624492645,0
34,0.16470003128051758,-0.04592245817184448,-18.106531143188477,0.9180634021759033,18.245882034301758,0.7189841866493225,2.2753939628601074,-0.23471395671367645,0.0,0.0,0.0,0.0,0.0,0.0,0.0,-0.05979923347867608,0.5496727874637782,0.10240453954113364,0.6275789883600631,0.2944707418012644,0.08910240721008883,-0.214370578844133,-0.6088945229806398,-0.057595881991219094,-0.6664608645773771,-2.594871387582076,-0.055792151163021726,2.507933952030473,0.8763222419338093,-0.6090851748156966,-0.05753196718556838,-0.666603097082616,-2.5945565370258534,-0.05562143941554,2.507976027223799,0.8763108487046415,0.00021469294128049007,8.310956727712294e-06,0.00036252139472521533,2.535547847737139e-05,8.061964784390563e-05,-9.710478242628843e-05,0.0009630189740949647,0.0,0.0,0.0,0.0,0.0,0.0,0.0,-0.0001906518350567321,6.391480565071106e-05,-0.00014223250523892617,0.0003148505562227122,0.0001707117474817263,4.207519332588561e-05,-1.1393229167766528e-05,-0.00021469294128049007,-8.310956727712294e-06,-0.00036252139472521533,-2.535547847737139e-05,-8.061964784390563e-05,9.710478242628843e-05,-0.0009630189740949647,0.04592245817184448,18.106531143188477,-0.9180634021759033,-18.245882034301758,-0.7189841866493225,-2.2753939628601074,0.23471395671367645,0
35,0.16969728469848633,-0.04592245817184448,-18.106531143188477,0.9180634021759033,18.245882034301758,0.7189841866493225,2.2753939628601074,-0.23471395671367645,0.0,0.0,0.0,0.0,0.0,0.0,0.0,-0.05979923347867608,0.5496727874637782,0.10240453954113364,0.6275789883600631,0.2944707418012644,0.08910240721008883,-0.214370578844133,-0.6088945229806398,-0.057595881991219094,-0.6664608645773771,-2.594871387582076,-0.055792151163021726,2.507933952030473,0.8763222419338093,-0.6090851748156966,-0.05753196718556838,-0.666603097082616,-2.5945565370258534,-0.05562143941554,2.507976027223799,0.8763108487046415,0.00021469294128049007,8.310956727712294e-06,0.00036252139472521533,2.535547847737139e-05,8.061964784390563e-05,-9.710478242628843e-05,0.0009630189740949647,0.0,0.0,0.0,0.0,0.0,0.0,0.0,-0.0001906518350567321,6.391480565071106e-05,-0.00014223250523892617,0.0003148505562227122,0.0001707117474817263,4.207519332588561e-05,-1.1393229167766528e-05,-0.00021469294128049007,-8.310956727712294e-06,-0.00036252139472521533,-2.535547847737139e-05,-8.061964784390563e-05,9.710478242628843e-05,-0.0009630189740949647,0.04592245817184448,18.106531143188477,-0.9180634021759033,-18.245882034301758,-0.7189841866493225,-2.2753939628601074,0.23471395671367645,0
36,0.1746964454650879,-0.04592245817184448,-18.106531143188477,0.9180634021759033,18.245882034301758,0.7189841866493225,2.2753939628601074,-0.23471395671367645,0.0,0.0,0.0,0.0,0.0,0.0,0.0,-0.05979923347867608,0.5496727874637782,0.10240453954113364,0.6275789883600631,0.2944707418012644,0.08910240721008883,-0.214370578844133,-0.6088945229806398,-0.057595881991219094,-0.6664608645773771,-2.594871387582076,-0.055792151163021726,2.507933952030473,0.8763222419338093,-0.6090851748156966,-0.05753196718556838,-0.666603097082616,-2.5945565370258534,-0.05562143941554,2.507976027223799,0.8763108487046415,0.00021469294128049007,8.310956727712294e-06,0.00036252139472521533,2.535547847737139e-05,8.061964784390563e-05,-9.710478242628843e-05,0.0009630189740949647,0.0,0.0,0.0,0.0,0.0,0.0,0.0,-0.0001906518350567321,6.391480565071106e-05,-0.00014223250523892617,0.0003148505562227122,0.0001707117474817263,4.207519332588561e-05,-1.1393229167766528e-05,-0.00021469294128049007,-8.310956727712294e-06,-0.00036252139472521533,-2.535547847737139e-05,-8.061964784390563e-05,9.710478242628843e-05,-0.0009630189740949647,0.04592245817184448,18.106531143188477,-0.9180634021759033,-18.245882034301758,-0.7189841866493225,-2.2753939628601074,0.23471395671367645,0
37,0.17970657348632812,-0.04592245817184448,-18.106531143188477,0.9180634021759033,18.245882034301758,0.7189841866493225,2.2753939628601074,-0.23471395671367645,0.0,0.0,0.0,0.0,0.0,0.0,0.0,-0.05979923347867608,0.5496727874637782,0.10240453954113364,0.6275789883600631,0.2944707418012644,0.08910240721008883,-0.214370578844133,-0.6088945229806398,-0.057595881991219094,-0.6664608645773771,-2.594871387582076,-0.055792151163021726,2.507933952030473,0.8763222419338093,-0.6090851748156966,-0.05753196718556838,-0.666603097082616,-2.5945565370258534,-0.05562143941554,2.507976027223799,0.8763108487046415,0.00021469294128049007,8.310956727712294e-06,0.00036252139472521533,2.535547847737139e-05,8.061964784390563e-05,-9.710478242628843e-05,0.0009630189740949647,0.0,0.0,0.0,0.0,0.0,0.0,0.0,-0.0001906518350567321,6.391480565071106e-05,-0.00014223250523892617,0.0003148505562227122,0.0001707117474817263,4.207519332588561e-05,-1.1393229167766528e-05,-0.00021469294128049007,-8.310956727712294e-06,-0.00036252139472521533,-2.535547847737139e-05,-8.061964784390563e-05,9.710478242628843e-05,-0.0009630189740949647,0.04592245817184448,18.106531143188477,-0.9180634021759033,-18.245882034301758,-0.7189841866493225,-2.2753939628601074,0.23471395671367645,0
38,0.1847066879272461,-0.04592245817184448,-18.130334854125977,0.9696381092071533,18.245882034301758,0.7253928780555725,2.2818026542663574,-0.20724813640117645,0.0,0.0,0.0,0.0,0.0,0.0,0.0,-0.05535513390095886,0.546129576591716,0.10295886506689057,0.6299862193893694,0.29503150984580423,0.08984337317929263,-0.2138574416604572,-0.6088945229806398,-0.05759421155536383,-0.6664644838550634,-2.594871387582076,-0.05579286323984464,2.5079332836618207,0.8763191901759968,-0.6090851748156966,-0.05753196718556838,-0.666603097082616,-2.5945565370258534,-0.05562143941554,2.507976027223799,0.8763108487046415,0.00018857010913793262,-0.0001295428728614063,-0.0011556899801095392,0.0005512539833537404,-0.00010122561934066439,-0.00023647574373926667,-0.0005932718042734364,0.0,0.0,0.0,0.0,0.0,0.0,0.0,-0.0001906518350567321,6.224436979544723e-05,-0.00013861322755259753,0.0003148505562227122,0.00017142382430464231,4.2743561978308975e-05,-8.341471355310937e-06,-0.00018857010913793262,0.0001295428728614063,0.0011556899801095392,-0.0005512539833537404,0.00010122561934066439,0.00023647574373926667,0.0005932718042734364,0.04592245817184448,18.130334854125977,-0.9696381092071533,-18.245882034301758,-0.7253928780555725,-2.2818026542663574,0.20724813640117645,0
39,0.1896986961364746,-0.04592245817184448,-18.130334854125977,0.9696381092071533,18.245882034301758,0.7253928780555725,2.2818026542663574,-0.20724813640117645,0.0,0.0,0.0,0.0,0.0,0.0,0.0,-0.05535513390095886,0.546129576591716,0.10295886506689057,0.6299862193893694,0.29503150984580423,0.08984337317929263,-0.2138574416604572,-0.6088945229806398,-0.05759421155536383,-0.6664644838550634,-2.594871387582076,-0.05579286323984464,2.5079332836618207,0.8763191901759968,-0.6090851748156966,-0.05753196718556838,-0.666603097082616,-2.5945565370258534,-0.05562143941554,2.507976027223799,0.8763108487046415,0.00018857010913793262,-0.0001295428728614063,-0.0011556899801095392,0.0005512539833537404,-0.00010122561934066439,-0.00023647574373926667,-0.0005932718042734364,0.0,0.0,0.0,0.0,0.0,0.0,0.0,-0.0001906518350567321,6.224436979544723e-05,-0.00013861322755259753,0.0003148505562227122,0.00017142382430464231,4.2743561978308975e-05,-8.341471355310937e-06,-0.00018857010913793262,0.0001295428728614063,0.0011556899801095392,-0.0005512539833537404,0.00010122561934066439,0.00023647574373926667,0.0005932718042734364,0.04592245817184448,18.130334854125977,-0.9696381092071533,-18.245882034301758,-0.7253928780555725,-2.2818026542663574,0.20724813640117645,0
40,0.19464635848999023,-0.04592245817184448,-18.154138565063477,0.9180634021759033,18.222078323364258,0.7134910225868225,2.2625765800476074,-0.24844686686992645,0.0,0.0,0.0,0.0,0.0,0.0,0.0,-0.05696176008615764,0.5435565151702838,0.09861770912683254,0.6254081119909303,0.29582706404256515,0.08945802799560569,-0.21454405752724934,-0.6088945229806398,-0.05759254111950857,-0.6664608645773771,-2.594869717146221,-0.05579154081145923,2.507936571158166,0.8763237678127155,-0.6090851748156966,-0.05753196718556838,-0.666603097082616,-2.5945565370258534,-0.05562143941554,2.507976027223799,0.8763108487046415,-0.0006399985945661913,0.0002071901421373706,0.00017166467657232467,0.00043400810735768974,0.00024401673750047457,0.00043289245206958005,0.001109261034627163,0.0,0.0,0.0,0.0,0.0,0.0,0.0,-0.0001906518350567321,6.05739339401834e-05,-0.00014223250523892617,0.0003131801203677398,0.00017010139591922685,3.94560656329368e-05,-1.2919108073994323e-05,0.0006399985945661913,-0.0002071901421373706,-0.00017166467657232467,-0.00043400810735768974,-0.00024401673750047457,-0.00043289245206958005,-0.001109261034627163,0.04592245817184448,18.154138565063477,-0.9180634021759033,-18.222078323364258,-0.7134910225868225,-2.2625765800476074,0.24844686686992645,0
41,0.19969844818115234,-0.04592245817184448,-18.154138565063477,0.9180634021759033,18.222078323364258,0.7134910225868225,2.2625765800476074,-0.24844686686992645,0.0,0.0,0.0,0.0,0.0,0.0,0.0,-0.05696176008615764,0.5435565151702838,0.09861770912683254,0.6254081119909303,0.29582706404256515,0.08945802799560569,-0.21454405752724934,-0.6088945229806398,-0.05759254111950857,-0.6664608645773771,-2.594869717146221,-0.05579154081145923,2.507936571158166,0.8763237678127155,-0.6090851748156966,-0.05753196718556838,-0.666603097082616,-2.5945565370258534,-0.05562143941554,2.507976027223799,0.8763108487046415,-0.0006399985945661913,0.0002071901421373706,0.00017166467657232467,0.00043400810735768974,0.00024401673750047457,0.00043289245206958005,0.001109261034627163,0.0,0.0,0.0,0.0,0.0,0.0,0.0,-0.0001906518350567321,6.05739339401834e-05,-0.00014223250523892617,0.0003131801203677398,0.00017010139591922685,3.94560656329368e-05,-1.2919108073994323e-05,0.0006399985945661913,-0.0002071901421373706,-0.00017166467657232467,-0.00043400810735768974,-0.00024401673750047457,-0.00043289245206958005,-0.001109261034627163,0.04592245817184448,18.154138565063477,-0.9180634021759033,-18.222078323364258,-0.7134910225868225,-2.2625765800476074,0.24844686686992645,0
42,0.2046949863433838,-0.06972616910934448,-18.154138565063477,0.9418671131134033,18.245882034301758,0.7189841866493225,2.2753939628601074,-0.22830526530742645,0.0,0.0,0.0,0.0,0.0,0.0,0.0,-0.059724089349794944,0.542242119725293,0.09636043504382986,0.6240915515575159,0.2953891767932313,0.08966291517118155,-0.2160972968891632,-0.6088928525447845,-0.05759254111950857,-0.6664625350132323,-2.594871387582076,-0.055792151163021726,2.507934676975938,0.8763215298569863,-0.6090851748156966,-0.05753196718556838,-0.666603097082616,-2.5945565370258534,-0.05562143941554,2.507976027223799,0.8763108487046415,-0.000709225003749825,0.00071246753365354,-0.0011129971556978451,3.1364044457280176e-05,4.714932723981414e-06,3.156279988285954e-05,0.000759027069745335,0.0,0.0,0.0,0.0,0.0,0.0,0.0,-0.00019232227091203757,6.05739339401834e-05,-0.00014056206938373172,0.0003148505562227122,0.0001707117474817263,4.135024786089403e-05,-1.0681152344815814e-05,0.000709225003749825,-0.00071246753365354,0.0011129971556978451,-3.1364044457280176e-05,-4.714932723981414e-06,-3.156279988285954e-05,-0.000759027069745335,0.06972616910934448,18.154138565063477,-0.9418671131134033,-18.245882034301758,-0.7189841866493225,-2.2753939628601074,0.22830526530742645,0
43,0.20969772338867188,-0.06972616910934448,-18.154138565063477,0.9418671131134033,18.245882034301758,0.7189841866493225,2.2753939628601074,-0.22830526530742645,0.0,0.0,0.0,0.0,0.0,0.0,0.0,-0.059724089349794944,0.542242119725293,0.09636043504382986,0.6240915515575159,0.2953891767932313,0.08966291517118155,-0.2160972968891632,-0.6088928525447845,-0.05759254111950857,-0.6664625350132323,-2.594871387582076,-0.055792151163021726,2.507934676975938,0.8763215298569863,-0.6090851748156966,-0.05753196718556838,-0.666603097082616,-2.5945565370258534,-0.05562143941554,2.507976027223799,0.8763108487046415,-0.000709225003749825,0.00071246753365354,-0.0011129971556978451,3.1364044457280176e-05,4.714932723981414e-06,3.156279988285954e-05,0.000759027069745335,0.0,0.0,0.0,0.0,0.0,0.0,0.0,-0.00019232227091203757,6.05739339401834e-05,-0.00014056206938373172,0.0003148505562227122,0.0001707117474817263,4.135024786089403e-05,-1.0681152344815814e-05,0.000709225003749825,-0.00071246753365354,0.0011129971556978451,-3.1364044457280176e-05,-4.714932723981414e-06,-3.156279988285954e-05,-0.000759027069745335,0.06972616910934448,18.154138565063477,-0.9418671131134033,-18.245882034301758,-0.7189841866493225,-2.2753939628601074,0.22830526530742645,0
44,0.21469998359680176,-0.09352988004684448,-18.078760147094727,0.8942596912384033,18.222078323364258,0.7189841866493225,2.2689852714538574,-0.20083944499492645,0.0,0.0,0.0,0.0,0.0,0.0,0.0,-0.05885620272888109,0.5403576841666273,0.09886490655468161,0.6225791155869909,0.29470879938877986,0.08993863428872631,-0.215358149157386,-0.6088911821089292,-0.057597830833050236,-0.6664591941415218,-2.5948697181637064,-0.0557921516505667,2.507934327796922,0.8763184780991738,-0.6090851748156966,-0.05753196718556838,-0.666603097082616,-2.5945565370258534,-0.05562143941554,2.507976027223799,0.8763108487046415,0.00023687748068332992,-0.0008264860191526107,5.3526848786819505e-05,0.0004343155211336293,1.8685793473428653e-05,-4.1033935573612056e-05,-0.0008617213018176353,0.0,0.0,0.0,0.0,0.0,0.0,0.0,-0.00019399270676734304,6.58636474818522e-05,-0.00014390294109423163,0.000313181137852947,0.0001707122350267029,4.1699426876817824e-05,-7.629394532360223e-06,-0.00023687748068332992,0.0008264860191526107,-5.3526848786819505e-05,-0.0004343155211336293,-1.8685793473428653e-05,4.1033935573612056e-05,0.0008617213018176353,0.09352988004684448,18.078760147094727,-0.8942596912384033,-18.222078323364258,-0.7189841866493225,-2.2689852714538574,0.20083944499492645,0
45,0.21970057487487793,-0.09352988004684448,-18.078760147094727,0.8942596912384033,18.222078323364258,0.7189841866493225,2.2689852714538574,-0.20083944499492645,0.0,0.0,0.0,0.0,0.0,0.0,0.0,-0.05885620272888109,0.5403576841666273,0.09886490655468161,0.6225791155869909,0.29470879938877986,0.08993863428872631,-0.215358149157386,-0.6088911821089292,-0.057597830833050236,-0.6664591941415218,-2.5948697181637064,-0.0557921516505667,2.507934327796922,0.8763184780991738,-0.6090851748156966,-0.05753196718556838,-0.666603097082616,-2.5945565370258534,-0.05562143941554,2.507976027223799,0.8763108487046415,0.00023687748068332992,-0.0008264860191526107,5.3526848786819505e-05,0.0004343155211336293,1.8685793473428653e-05,-4.1033935573612056e-05,-0.0008617213018176353,0.0,0.0,0.0,0.0,0.0,0.0,0.0,-0.00019399270676734304,6.58636474818522e-05,-0.00014390294109423163,0.000313181137852947,0.0001707122350267029,4.1699426876817824e-05,-7.629394532360223e-06,-0.00023687748068332992,0.0008264860191526107,-5.3526848786819505e-05,-0.0004343155211336293,-1.8685793473428653e-05,4.1033935573612056e-05,0.0008617213018176353,0.09352988004684448,18.078760147094727,-0.8942596912384033,-18.222078323364258,-0.7189841866493225,-2.2689852714538574,0.20083944499492645,0
46,0.22469758987426758,-0.06972616910934448,-18.106531143188477,0.9180634021759033,18.245882034301758,0.7253928780555725,2.2818026542663574,-0.22098104655742645,0.0,0.0,0.0,0.0,0.0,0.0,0.0,-0.06431729876939546,0.5403582483542448,0.09573634937586624,0.624422243913416,0.2945038675806875,0.08871394766958739,-0.21551919746797504,-0.6088928525447845,-0.057595881991219094,-0.6664608645773771,-2.5948713876197664,-0.0557928632398474,2.507929766122162,0.876320716054903,-0.6090851748156966,-0.05753196718556838,-0.666603097082616,-2.5945565370258534,-0.05562143941554,2.507976027223799,0.8763108487046415,-0.0002876226669758757,-3.95601972298256e-05,-0.00036270594769865735,-0.00018978620098900861,-0.00020164786315600983,-0.0008006904842876642,0.0007240349883937164,0.0,0.0,0.0,0.0,0.0,0.0,0.0,-0.00019232227091203757,6.391480565071106e-05,-0.00014223250523892617,0.0003148505939130075,0.00017142382430739705,4.6261101636968505e-05,-9.867350261538732e-06,0.0002876226669758757,3.95601972298256e-05,0.00036270594769865735,0.00018978620098900861,0.00020164786315600983,0.0008006904842876642,-0.0007240349883937164,0.06972616910934448,18.106531143188477,-0.9180634021759033,-18.245882034301758,-0.7253928780555725,-2.2818026542663574,0.22098104655742645,0
47,0.22969722747802734,-0.06972616910934448,-18.106531143188477,0.9180634021759033,18.245882034301758,0.7253928780555725,2.2818026542663574,-0.22098104655742645,0.0,0.0,0.0,0.0,0.0,0.0,0.0,-0.06431729876939546,0.5403582483542448,0.09573634937586624,0.624422243913416,0.2945038675806875,0.08871394766958739,-0.21551919746797504,-0.6088928525447845,-0.057595881991219094,-0.6664608645773771,-2.5948713876197664,-0.0557928632398474,2.507929766122162,0.876320716054903,-0.6090851748156966,-0.05753196718556838,-0.666603097082616,-2.5945565370258534,-0.05562143941554,2.507976027223799,0.8763108487046415,-0.0002876226669758757,-3.95601972298256e-05,-0.00036270594769865735,-0.00018978620098900861,-0.00020164786315600983,-0.0008006904842876642,0.0007240349883937164,0.0,0.0,0.0,0.0,0.0,0.0,0.0,-0.00019232227091203757,6.391480565071106e-05,-0.00014223250523892617,0.0003148505939130075,0.00017142382430739705,4.6261101636968505e-05,-9.867350261538732e-06,0.0002876226669758757,3.95601972298256e-05,0.00036270594769865735,0.00018978620098900861,0.00020164786315600983,0.0008006904842876642,-0.0007240349883937164,0.06972616910934448,18.106531143188477,-0.9180634021759033,-18.245882034301758,-0.7253928780555725,-2.2818026542663574,0.22098104655742645,0
48,0.23469805717468262,-0.04592245817184448,-18.106531143188477,0.9180634021759033,18.198274612426758,0.7372947335243225,2.2625765800476074,-0.22098104655742645,0.0,0.0,0.0,0.0,0.0,0.0,0.0,-0.07053514889217657,0.5420969662416811,0.09165815637472288,0.6252010113225964,0.2946435946734063,0.08745106333790251,-0.2136334834496444,-0.6088945229806398,-0.057595881991219094,-0.6664608645773771,-2.5948680467103675,-0.05579418566823006,2.5079332970459562,0.876320716054903,-0.6090851748156966,-0.05753196718556838,-0.666603097082616,-2.5945565370258534,-0.05562143941554,2.507976027223799,0.8763108487046415,-0.0007159508878335868,1.469962018969509e-05,-0.0003399066537426433,0.0013434290673939276,-0.0008330428348013113,0.000489628040346414,0.0006770582129748853,0.0,0.0,0.0,0.0,0.0,0.0,0.0,-0.0001906518350567321,6.391480565071106e-05,-0.00014223250523892617,0.00031150968451409966,0.00017274625269005778,4.2730177842731365e-05,-9.867350261538732e-06,0.0007159508878335868,-1.469962018969509e-05,0.0003399066537426433,-0.0013434290673939276,0.0008330428348013113,-0.000489628040346414,-0.0006770582129748853,0.04592245817184448,18.106531143188477,-0.9180634021759033,-18.198274612426758,-0.7372947335243225,-2.2625765800476074,0.22098104655742645,0
49,0.2397928237915039,-0.04592245817184448,-18.106531143188477,0.9180634021759033,18.198274612426758,0.7372947335243225,2.2625765800476074,-0.22098104655742645,0.0,0.0,0.0,0.0,0.0,0.0,0.0,-0.07053514889217657,0.5420969662416811,0.09165815637472288,0.6252010113225964,0.2946435946734063,0.08745106333790251,-0.2136334834496444,-0.6088945229806398,-0.057595881991219094,-0.6664608645773771,-2.5948680467103675,-0.05579418566823006,2.5079332970459562,0.876320716054903,-0.6090851748156966,-0.05753196718556838,-0.666603097082616,-2.5945565370258534,-0.05562143941554,2.507976027223799,0.8763108487046415,-0.0007159508878335868,1.469962018969509e-05,-0.0003399066537426433,0.0013434290673939276,-0.0008330428348013113,0.000489628040346414,0.0006770582129748853,0.0,0.0,0.0,0.0,0.0,0.0,0.0,-0.0001906518350567321,6.391480565071106e-05,-0.00014223250523892617,0.00031150968451409966,0.00017274625269005778,4.2730177842731365e-05,-9.867350261538732e-06,0.0007159508878335868,-1.469962018969509e-05,0.0003399066537426433,-0.0013434290673939276,0.0008330428348013113,-0.000489628040346414,-0.0006770582129748853,0.04592245817184448,18.106531143188477,-0.9180634021759033,-18.198274612426758,-0.7372947335243225,-2.2625765800476074,0.22098104655742645,0
50,0.24484014511108398,-0.04592245817184448,-18.177942276000977,0.9696381092071533,18.269685745239258,0.7189841866493225,2.2689852714538574,-0.18710653483867645,0.0,0.0,0.0,0.0,0.0,0.0,0.0,-0.06287696904573196,0.5443396760774601,0.09944989086907832,0.6232354834821104,0.2940388175166563,0.08786056852475256,-0.21300880059901833,-0.6088945229806398,-0.0575908706836533,-0.6664644838550634,-2.5948730580179316,-0.055792151163021726,2.507932589401309,0.8763169522202676,-0.6090851748156966,-0.05753196718556838,-0.666603097082616,-2.5945565370258534,-0.05562143941554,2.507976027223799,0.8763108487046415,0.0002059514577042952,0.0017057704994107646,-0.0009589145313909174,-0.00044082034838970437,-0.00015332411394119622,0.00020642261192648184,-0.0011704022060368036,0.0,0.0,0.0,0.0,0.0,0.0,0.0,-0.0001906518350567321,5.890349808491957e-05,-0.00013861322755259753,0.00031652099207812867,0.0001707117474817263,4.3437822490055567e-05,-6.1035156261324275e-06,-0.0002059514577042952,-0.0017057704994107646,0.0009589145313909174,0.00044082034838970437,0.00015332411394119622,-0.00020642261192648184,0.0011704022060368036,0.04592245817184448,18.177942276000977,-0.9696381092071533,-18.269685745239258,-0.7189841866493225,-2.2689852714538574,0.18710653483867645,0
51,0.24970149993896484,-0.04592245817184448,-18.177942276000977,0.9696381092071533,18.269685745239258,0.7189841866493225,2.2689852714538574,-0.18710653483867645,0.0,0.0,0.0,0.0,0.0,0.0,0.0,-0.06287696904573196,0.5443396760774601,0.09944989086907832,0.6232354834821104,0.2940388175166563,0.08786056852475256,-0.21300880059901833,-0.6088945229806398,-0.0575908706836533,-0.6664644838550634,-2.5948730580179316,-0.055792151163021726,2.507932589401309,0.8763169522202676,-0.6090851748156966,-0.05753196718556838,-0.666603097082616,-2.5945565370258534,-0.05562143941554,2.507976027223799,0.8763108487046415,0.0002059514577042952,0.0017057704994107646,-0.0009589145313909174,-0.00044082034838970437,-0.00015332411394119622,0.00020642261192648184,-0.0011704022060368036,0.0,0.0,0.0,0.0,0.0,0.0,0.0,-0.0001906518350567321,5.890349808491957e-05,-0.00013861322755259753,0.00031652099207812867,0.0001707117474817263,4.3437822490055567e-05,-6.1035156261324275e-06,-0.0002059514577042952,-0.0017057704994107646,0.0009589145313909174,0.00044082034838970437,0.00015332411394119622,-0.00020642261192648184,0.0011704022060368036,0.04592245817184448,18.177942276000977,-0.9696381092071533,-18.269685745239258,-0.7189841866493225,-2.2689852714538574,0.18710653483867645,0
52,0.2547135353088379,-0.04592245817184448,-18.106531143188477,0.9180634021759033,18.269685745239258,0.7134910225868225,2.2689852714538574,-0.24844686686992645,0.0,0.0,0.0,0.0,0.0,0.0,0.0,-0.06741430889476085,0.5406628096824564,0.09476334232973314,0.6263545662528748,0.2943778225675656,0.08823931897837871,-0.212594155956769,-0.6088945229806398,-0.057595881991219094,-0.6664608645773771,-2.5948730580179316,-0.05579154081145923,2.507935488360237,0.8763237678127155,-0.6090851748156966,-0.05753196718556838,-0.666603097082616,-2.5945565370258534,-0.05562143941554,2.507976027223799,0.8763108487046415,0.00023134099466006906,-0.00042570836938967375,8.538567101309647e-05,1.9656522811922795e-05,0.00015867180040071764,0.0002312196248552075,0.0011673897394551744,0.0,0.0,0.0,0.0,0.0,0.0,0.0,-0.0001906518350567321,6.391480565071106e-05,-0.00014223250523892617,0.00031652099207812867,0.00017010139591922685,4.0538863562034066e-05,-1.2919108073994323e-05,-0.00023134099466006906,0.00042570836938967375,-8.538567101309647e-05,-1.9656522811922795e-05,-0.00015867180040071764,-0.0002312196248552075,-0.0011673897394551744,0.04592245817184448,18.106531143188477,-0.9180634021759033,-18.269685745239258,-0.7134910225868225,-2.2689852714538574,0.24844686686992645,0
53,0.25964927673339844,-0.04592245817184448,-18.106531143188477,0.9180634021759033,18.269685745239258,0.7134910225868225,2.2689852714538574,-0.24844686686992645,0.0,0.0,0.0,0.0,0.0,0.0,0.0,-0.06741430889476085,0.5406628096824564,0.09476334232973314,0.6263545662528748,0.2943778225675656,0.08823931897837871,-0.212594155956769,-0.6088945229806398,-0.057595881991219094,-0.6664608645773771,-2.5948730580179316,-0.05579154081145923,2.507935488360237,0.8763237678127155,-0.6090851748156966,-0.05753196718556838,-0.666603097082616,-2.5945565370258534,-0.05562143941554,2.507976027223799,0.8763108487046415,0.00023134099466006906,-0.00042570836938967375,8.538567101309647e-05,1.9656522811922795e-05,0.00015867180040071764,0.0002312196248552075,0.0011673897394551744,0.0,0.0,0.0,0.0,0.0,0.0,0.0,-0.0001906518350567321,6.391480565071106e-05,-0.00014223250523892617,0.00031652099207812867,0.00017010139591922685,4.0538863562034066e-05,-1.2919108073994323e-05,-0.00023134099466006906,0.00042570836938967375,-8.538567101309647e-05,-1.9656522811922795e-05,-0.00015867180040071764,-0.0002312196248552075,-0.0011673897394551744,0.04592245817184448,18.106531143188477,-0.9180634021759033,-18.269685745239258,-0.7134910225868225,-2.2689852714538574,0.24844686686992645,0
54,0.26469898223876953,-0.04592245817184448,-18.106531143188477,0.9180634021759033,18.269685745239258,0.7308860421180725,2.2753939628601074,-0.17337362468242645,0.0,0.0,0.0,0.0,0.0,0.0,0.0,-0.05723875279216728,0.5428814030123891,0.1019001550488774,0.6235805226392086,0.2941758744618428,0.08809550129853777,-0.21342917957312987,-0.6088945229806398,-0.057595881991219094,-0.6664608645773771,-2.5948730580179316,-0.05579347359140714,2.507930580923087,0.8763154263413614,-0.6090851748156966,-0.05753196718556838,-0.666603097082616,-2.5945565370258534,-0.05562143941554,2.507976027223799,0.8763108487046415,-0.00016657841684620454,-0.00020454751023969413,0.00037186507520641085,-0.0006203669177785421,-0.0004166284237053605,-3.0710087568203136e-06,-0.0010230044081345694,0.0,0.0,0.0,0.0,0.0,0.0,0.0,-0.0001906518350567321,6.391480565071106e-05,-0.00014223250523892617,0.00031652099207812867,0.00017203417586714176,4.5446300712015386e-05,-4.577636719904632e-06,0.00016657841684620454,0.00020454751023969413,-0.00037186507520641085,0.0006203669177785421,0.0004166284237053605,3.0710087568203136e-06,0.0010230044081345694,0.04592245817184448,18.106531143188477,-0.9180634021759033,-18.269685745239258,-0.7308860421180725,-2.2753939628601074,0.17337362468242645,0
55,0.26969480514526367,-0.04592245817184448,-18.106531143188477,0.9180634021759033,18.269685745239258,0.7308860421180725,2.2753939628601074,-0.17337362468242645,0.0,0.0,0.0,0.0,0.0,0.0,0.0,-0.05723875279216728,0.5428814030123891,0.1019001550488774,0.6235805226392086,0.2941758744618428,0.08809550129853777,-0.21342917957312987,-0.6088945229806398,-0.057595881991219094,-0.6664608645773771,-2.5948730580179316,-0.05579347359140714,2.507930580923087,0.8763154263413614,-0.6090851748156966,-0.05753196718556838,-0.666603097082616,-2.5945565370258534,-0.05562143941554,2.507976027223799,0.8763108487046415,-0.00016657841684620454,-0.00020454751023969413,0.00037186507520641085,-0.0006203669177785421,-0.0004166284237053605,-3.0710087568203136e-06,-0.0010230044081345694,0.0,0.0,0.0,0.0,0.0,0.0,0.0,-0.0001906518350567321,6.391480565071106e-05,-0.00014223250523892617,0.00031652099207812867,0.00017203417586714176,4.5446300712015386e-05,-4.577636719904632e-06,0.00016657841684620454,0.00020454751023969413,-0.00037186507520641085,0.0006203669177785421,0.0004166284237053605,3.0710087568203136e-06,0.0010230044081345694,0.04592245817184448,18.106531143188477,-0.9180634021759033,-18.269685745239258,-0.7308860421180725,-2.2753939628601074,0.17337362468242645,0
56,0.27469491958618164,-0.09352988004684448,-18.106531143188477,0.9418671131134033,18.269685745239258,0.7134910225868225,2.2689852714538574,-0.24112264811992645,0.0,0.0,0.0,0.0,0.0,0.0,0.0,-0.058116452762498674,0.5449986857427098,0.10005420400654633,0.6255967107107886,0.29444520345898106,0.08834435352505358,-0.2108252664190796,-0.6088911821089292,-0.057595881991219094,-0.6664625350132323,-2.594873058357093,-0.05579154081145923,2.507934355929607,0.8763229540106322,-0.6090851748156966,-0.05753196718556838,-0.666603097082616,-2.5945565370258534,-0.05562143941554,2.507976027223799,0.8763108487046415,0.0008923830712089781,0.00022357928853996754,-0.0007741380946313597,-0.0005744226589037409,6.651340376166736e-05,-2.465211315729668e-05,0.0012715116046925058,0.0,0.0,0.0,0.0,0.0,0.0,0.0,-0.00019399270676734304,6.391480565071106e-05,-0.00014056206938373172,0.0003165213312397164,0.00017010139591922685,4.167129419219151e-05,-1.2105305990717241e-05,-0.0008923830712089781,-0.00022357928853996754,0.0007741380946313597,0.0005744226589037409,-6.651340376166736e-05,2.465211315729668e-05,-0.0012715116046925058,0.09352988004684448,18.106531143188477,-0.9418671131134033,-18.269685745239258,-0.7134910225868225,-2.2689852714538574,0.24112264811992645,0
57,0.2796950340270996,-0.09352988004684448,-18.106531143188477,0.9418671131134033,18.269685745239258,0.7134910225868225,2.2689852714538574,-0.24112264811992645,0.0,0.0,0.0,0.0,0.0,0.0,0.0,-0.058116452762498674,0.5449986857427098,0.10005420400654633,0.6255967107107886,0.29444520345898106,0.08834435352505358,-0.2108252664190796,-0.6088911821089292,-0.057595881991219094,-0.6664625350132323,-2.594873058357093,-0.05579154081145923,2.507934355929607,0.8763229540106322,-0.6090851748156966,-0.05753196718556838,-0.666603097082616,-2.5945565370258534,-0.05562143941554,2.507976027223799,0.8763108487046415,0.0008923830712089781,0.00022357928853996754,-0.0007741380946313597,-0.0005744226589037409,6.651340376166736e-05,-2.465211315729668e-05,0.0012715116046925058,0.0,0.0,0.0,0.0,0.0,0.0,0.0,-0.00019399270676734304,6.391480565071106e-05,-0.00014056206938373172,0.0003165213312397164,0.00017010139591922685,4.167129419219151e-05,-1.2105305990717241e-05,-0.0008923830712089781,-0.00022357928853996754,0.0007741380946313597,0.0005744226589037409,-6.651340376166736e-05,2.465211315729668e-05,-0.0012715116046925058,0.09352988004684448,18.106531143188477,-0.9418671131134033,-18.269685745239258,-0.7134910225868225,-2.2689852714538574,0.24112264811992645,0
58,0.2846987247467041,-0.06972616910934448,-18.078760147094727,0.8942596912384033,18.269685745239258,0.7253928780555725,2.2689852714538574,-0.17978231608867645,0.0,0.0,0.0,0.0,0.0,0.0,0.0,-0.05912289857360067,0.5460429177345257,0.09864376326423989,0.6271246694935656,0.2939844796817097,0.08801194890615502,-0.2106560868972376,-0.6088928525447845,-0.05759759407015571,-0.6664591941415218,-2.5948730580179333,-0.05579286323984464,2.5079347958342697,0.8763160206806143,-0.6090851748156966,-0.05753196718556838,-0.666603097082616,-2.5945565370258534,-0.05562143941554,2.507976027223799,0.8763108487046415,4.648903154230928e-05,-0.0005448493509709175,0.00012272593645441194,-0.0002919824021050202,-0.00025757278351384643,3.441299941670208e-05,-0.0019081065950889336,0.0,0.0,0.0,0.0,0.0,0.0,0.0,-0.00019232227091203757,6.562688458732618e-05,-0.00014390294109423163,0.00031652099207990503,0.00017142382430464231,4.123138952927263e-05,-5.171975972828591e-06,-4.648903154230928e-05,0.0005448493509709175,-0.00012272593645441194,0.0002919824021050202,0.00025757278351384643,-3.441299941670208e-05,0.0019081065950889336,0.06972616910934448,18.078760147094727,-0.8942596912384033,-18.269685745239258,-0.7253928780555725,-2.2689852714538574,0.17978231608867645,0
59,0.2896919250488281,-0.06972616910934448,-18.078760147094727,0.8942596912384033,18.269685745239258,0.7253928780555725,2.2689852714538574,-0.17978231608867645,0.0,0.0,0.0,0.0,0.0,0.0,0.0,-0.05912289857360067,0.5460429177345257,0.09864376326423989,0.6271246694935656,0.2939844796817097,0.08801194890615502,-0.2106560868972376,-0.6088928525447845,-0.05759759407015571,-0.6664591941415218,-2.5948730580179333,-0.05579286323984464,2.5079347958342697,0.8763160206806143,-0.6090851748156966,-0.05753196718556838,-0.666603097082616,-2.5945565370258534,-0.05562143941554,2.507976027223799,0.8763108487046415,4.648903154230928e-05,-0.0005448493509709175,0.00012272593645441194,-0.0002919824021050202,-0.00025757278351384643,3.441299941670208e-05,-0.0019081065950889336,0.0,0.0,0.0,0.0,0.0,0.0,0.0,-0.00019232227091203757,6.562688458732618e-05,-0.00014390294109423163,0.00031652099207990503,0.00017142382430464231,4.123138952927263e-05,-5.171975972828591e-06,-4.648903154230928e-05,0.0005448493509709175,-0.00012272593645441194,0.0002919824021050202,0.00025757278351384643,-3.441299941670208e-05,0.0019081065950889336,0.06972616910934448,18.078760147094727,-0.8942596912384033,-18.269685745239258,-0.7253928780555725,-2.2689852714538574,0.17978231608867645,0
60,0.2946927547454834,-0.04592245817184448,-18.106531143188477,0.9180634021759033,18.245882034301758,0.7189841866493225,2.2753939628601074,-0.22098104655742645,0.0,0.0,0.0,0.0,0.0,0.0,0.0,-0.06186816854427249,0.5468679830645481,0.09754333121078236,0.6276631553948113,0.29413029339638036,0.0875417723249938,-0.2120566268364307,-0.6088945229806398,-0.05759588198988256,-0.6664608645773771,-2.594871387582076,-0.055792151163021726,2.507931968844322,0.8763203628415287,-0.6090851748156966,-0.05753196718556838,-0.666603097082616,-2.5945565370258534,-0.05562143941554,2.507976027223799,0.8763108487046415,-0.0009085571327632523,6.223260632871262e-05,0.0002531011584320364,0.00044906415346544304,8.748656928778958e-05,-4.129040236449583e-05,-4.931847798356117e-05,0.0,0.0,0.0,0.0,0.0,0.0,0.0,-0.0001906518350567321,6.391480431417601e-05,-0.00014223250523892617,0.0003148505562227122,0.0001707117474817263,4.405837947718538e-05,-9.514136887212032e-06,0.0009085571327632523,-6.223260632871262e-05,-0.0002531011584320364,-0.00044906415346544304,-8.748656928778958e-05,4.129040236449583e-05,4.931847798356117e-05,0.04592245817184448,18.106531143188477,-0.9180634021759033,-18.245882034301758,-0.7189841866493225,-2.2753939628601074,0.22098104655742645,0
61,0.2996973991394043,-0.04592245817184448,-18.106531143188477,0.9180634021759033,18.245882034301758,0.7189841866493225,2.2753939628601074,-0.22098104655742645,0.0,0.0,0.0,0.0,0.0,0.0,0.0,-0.06186816854427249,0.5468679830645481,0.09754333121078236,0.6276631553948113,0.29413029339638036,0.0875417723249938,-0.2120566268364307,-0.6088945229806398,-0.05759588198988256,-0.6664608645773771,-2.594871387582076,-0.055792151163021726,2.507931968844322,0.8763203628415287,-0.6090851748156966,-0.05753196718556838,-0.666603097082616,-2.5945565370258534,-0.05562143941554,2.507976027223799,0.8763108487046415,-0.0009085571327632523,6.223260632871262e-05,0.0002531011584320364,0.00044906415346544304,8.748656928778958e-05,-4.129040236449583e-05,-4.931847798356117e-05,0.0,0.0,0.0,0.0,0.0,0.0,0.0,-0.0001906518350567321,6.391480431417601e-05,-0.00014223250523892617,0.0003148505562227122,0.0001707117474817263,4.405837947718538e-05,-9.514136887212032e-06,0.0009085571327632523,-6.223260632871262e-05,-0.0002531011584320364,-0.00044906415346544304,-8.748656928778958e-05,4.129040236449583e-05,4.931847798356117e-05,0.04592245817184448,18.106531143188477,-0.9180634021759033,-18.245882034301758,-0.7189841866493225,-2.2753939628601074,0.22098104655742645,0
62,0.30470871925354004,-0.04592245817184448,-18.106531143188477,0.9180634021759033,18.245882034301758,0.7189841866493225,2.2753939628601074,-0.22098104655742645,0.0,0.0,0.0,0.0,0.0,0.0,0.0,-0.06186816854427249,0.5468679830645481,0.09754333121078236,0.6276631553948113,0.29413029339638036,0.0875417723249938,-0.2120566268364307,-0.6088945229806398,-0.05759588198988256,-0.6664608645773771,-2.594871387582076,-0.055792151163021726,2.507931968844322,0.8763203628415287,-0.6090851748156966,-0.05753196718556838,-0.666603097082616,-2.5945565370258534,-0.05562143941554,2.507976027223799,0.8763108487046415,-0.0009085571327632523,6.223260632871262e-05,0.0002531011584320364,0.00044906415346544304,8.748656928778958e-05,-4.129040236449583e-05,-4.931847798356117e-05,0.0,0.0,0.0,0.0,0.0,0.0,0.0,-0.0001906518350567321,6.391480431417601e-05,-0.00014223250523892617,0.0003148505562227122,0.0001707117474817263,4.405837947718538e-05,-9.514136887212032e-06,0.0009085571327632523,-6.223260632871262e-05,-0.0002531011584320364,-0.00044906415346544304,-8.748656928778958e-05,4.129040236449583e-05,4.931847798356117e-05,0.04592245817184448,18.106531143188477,-0.9180634021759033,-18.245882034301758,-0.7189841866493225,-2.2753939628601074,0.22098104655742645,0
63,0.30969715118408203,-0.04592245817184448,-18.106531143188477,0.9180634021759033,18.245882034301758,0.7189841866493225,2.2753939628601074,-0.22098104655742645,0.0,0.0,0.0,0.0,0.0,0.0,0.0,-0.06186816854427249,0.5468679830645481,0.09754333121078236,0.6276631553948113,0.29413029339638036,0.0875417723249938,-0.2120566268364307,-0.6088945229806398,-0.05759588198988256,-0.6664608645773771,-2.594871387582076,-0.055792151163021726,2.507931968844322,0.8763203628415287,-0.6090851748156966,-0.05753196718556838,-0.666603097082616,-2.5945565370258534,-0.05562143941554,2.507976027223799,0.8763108487046415,-0.0009085571327632523,6.223260632871262e-05,0.0002531011584320364,0.00044906415346544304,8.748656928778958e-05,-4.129040236449583e-05,-4.931847798356117e-05,0.0,0.0,0.0,0.0,0.0,0.0,0.0,-0.0001906518350567321,6.391480431417601e-05,-0.00014223250523892617,0.0003148505562227122,0.0001707117474817263,4.405837947718538e-05,-9.514136887212032e-06,0.0009085571327632523,-6.223260632871262e-05,-0.0002531011584320364,-0.00044906415346544304,-8.748656928778958e-05,4.129040236449583e-05,4.931847798356117e-05,0.04592245817184448,18.106531143188477,-0.9180634021759033,-18.245882034301758,-0.7189841866493225,-2.2753939628601074,0.22098104655742645,0
64,0.3146989345550537,-0.06972616910934448,-18.177942276000977,0.8704559803009033,18.245882034301758,0.7189841866493225,2.2689852714538574,-0.25485557317733765,0.0,0.0,0.0,0.0,0.0,0.0,0.0,-0.06610374820193982,0.5394101399494976,0.09603829312351814,0.629032755016733,0.294268296975331,0.08864520479072466,-0.21375362584775895,-0.6088928525447845,-0.05759087068365328,-0.6664575237056666,-2.594871387582076,-0.055792151163021726,2.5079313021535388,0.8763244798852124,-0.6090851748156966,-0.05753196718556838,-0.666603097082616,-2.5945565370258534,-0.05562143941554,2.507976027223799,0.8763108487046415,-0.00035905666184856013,0.0005135057540537085,0.0006722919292282267,-0.00016432268201447008,0.006454595525930078,0.0001471886206549082,0.0012172384645881664,0.0,0.0,0.0,0.0,0.0,0.0,0.0,-0.00019232227091203757,5.890349808489875e-05,-0.00014557337694942607,0.0003148505562227122,0.0001707117474817263,4.4725070260209776e-05,-1.3631180570961021e-05,0.00035905666184856013,-0.0005135057540537085,-0.0006722919292282267,0.00016432268201447008,-0.006454595525930078,-0.0001471886206549082,-0.0012172384645881664,0.06972616910934448,18.177942276000977,-0.8704559803009033,-18.245882034301758,-0.7189841866493225,-2.2689852714538574,0.25485557317733765,0
65,0.31969428062438965,-0.06972616910934448,-18.177942276000977,0.8704559803009033,18.245882034301758,0.7189841866493225,2.2689852714538574,-0.25485557317733765,0.0,0.0,0.0,0.0,0.0,0.0,0.0,-0.06610374820193982,0.5394101399494976,0.09603829312351814,0.629032755016733,0.294268296975331,0.08864520479072466,-0.21375362584775895,-0.6088928525447845,-0.05759087068365328,-0.6664575237056666,-2.594871387582076,-0.055792151163021726,2.5079313021535388,0.8763244798852124,-0.6090851748156966,-0.05753196718556838,-0.666603097082616,-2.5945565370258534,-0.05562143941554,2.507976027223799,0.8763108487046415,-0.00035905666184856013,0.0005135057540537085,0.0006722919292282267,-0.00016432268201447008,0.006454595525930078,0.0001471886206549082,0.0012172384645881664,0.0,0.0,0.0,0.0,0.0,0.0,0.0,-0.00019232227091203757,5.890349808489875e-05,-0.00014557337694942607,0.0003148505562227122,0.0001707117474817263,4.4725070260209776e-05,-1.3631180570961021e-05,0.00035905666184856013,-0.0005135057540537085,-0.0006722919292282267,0.00016432268201447008,-0.006454595525930078,-0.0001471886206549082,-0.0012172384645881664,0.06972616910934448,18.177942276000977,-0.8704559803009033,-18.245882034301758,-0.7189841866493225,-2.2689852714538574,0.25485557317733765,0
66,0.3246948719024658,-0.06972616910934448,-18.177942276000977,0.8942596912384033,18.245882034301758,0.7253928780555725,2.2753939628601074,-0.17978231608867645,0.0,0.0,0.0,0.0,0.0,0.0,0.0,-0.06585527074339684,0.541620168213921,0.09647726399689528,0.6206034040643968,0.2939272346577613,0.08806581425555854,-0.21492474869146663,-0.6088928525447845,-0.0575908706836533,-0.6664591941415218,-2.594871387582076,-0.05579286323984464,2.507935129003698,0.8763161384181842,-0.6090851748156966,-0.05753196718556838,-0.666603097082616,-2.5945565370258534,-0.05562143941554,2.507976027223799,0.8763108487046415,-0.00035762116955008347,0.0009816688477020596,0.00021913426991551543,-0.00026972889201916595,-0.00010105524383768492,-0.00012243767493152973,-0.0013339225179096264,0.0,0.0,0.0,0.0,0.0,0.0,0.0,-0.00019232227091203757,5.890349808491957e-05,-0.00014390294109423163,0.0003148505562227122,0.00017142382430464231,4.089822010078237e-05,-5.289713542744323e-06,0.00035762116955008347,-0.0009816688477020596,-0.00021913426991551543,0.00026972889201916595,0.00010105524383768492,0.00012243767493152973,0.0013339225179096264,0.06972616910934448,18.177942276000977,-0.8942596912384033,-18.245882034301758,-0.7253928780555725,-2.2753939628601074,0.17978231608867645,0
67,0.3296973705291748,-0.06972616910934448,-18.177942276000977,0.8942596912384033,18.245882034301758,0.7253928780555725,2.2753939628601074,-0.17978231608867645,0.0,0.0,0.0,0.0,0.0,0.0,0.0,-0.06585527074339684,0.541620168213921,0.09647726399689528,0.6206034040643968,0.2939272346577613,0.08806581425555854,-0.21492474869146663,-0.6088928525447845,-0.0575908706836533,-0.6664591941415218,-2.594871387582076,-0.05579286323984464,2.507935129003698,0.8763161384181842,-0.6090851748156966,-0.05753196718556838,-0.666603097082616,-2.5945565370258534,-0.05562143941554,2.507976027223799,0.8763108487046415,-0.00035762116955008347,0.0009816688477020596,0.00021913426991551543,-0.00026972889201916595,-0.00010105524383768492,-0.00012243767493152973,-0.0013339225179096264,0.0,0.0,0.0,0.0,0.0,0.0,0.0,-0.00019232227091203757,5.890349808491957e-05,-0.00014390294109423163,0.0003148505562227122,0.00017142382430464231,4.089822010078237e-05,-5.289713542744323e-06,0.00035762116955008347,-0.0009816688477020596,-0.00021913426991551543,0.00026972889201916595,0.00010105524383768492,0.00012243767493152973,0.0013339225179096264,0.06972616910934448,18.177942276000977,-0.8942596912384033,-18.245882034301758,-0.7253928780555725,-2.2753939628601074,0.17978231608867645,0
68,0.33470892906188965,-0.04592245817184448,-18.130334854125977,0.9418671131134033,18.245882034301758,0.7134910225868225,2.2753939628601074,-0.20724813640117645,0.0,0.0,0.0,0.0,0.0,0.0,0.0,-0.06635004388365437,0.5373937998417284,0.09650266820539434,0.621799273255491,0.2942217573037074,0.08868743710174921,-0.21417699239567417,-0.6088945229806398,-0.05759421154333503,-0.6664625263464389,-2.594871387582076,-0.05579154081145923,2.507930790021194,0.8763191901759968,-0.6090851748156966,-0.05753196718556838,-0.666603097082616,-2.5945565370258534,-0.05562143941554,2.507976027223799,0.8763108487046415,-0.0004611791969782768,0.0003614391729152996,-0.0004902815274404967,0.00017019783804675948,0.00017969922532913468,9.177921168658336e-06,-0.0006173255056265918,0.0,0.0,0.0,0.0,0.0,0.0,0.0,-0.0001906518350567321,6.224435776664566e-05,-0.0001405707361771258,0.0003148505562227122,0.00017010139591922685,4.5237202605186155e-05,-8.341471355310937e-06,0.0004611791969782768,-0.0003614391729152996,0.0004902815274404967,-0.00017019783804675948,-0.00017969922532913468,-9.177921168658336e-06,0.0006173255056265918,0.04592245817184448,18.130334854125977,-0.9418671131134033,-18.245882034301758,-0.7134910225868225,-2.2753939628601074,0.20724813640117645,0
69,0.33969688415527344,-0.04592245817184448,-18.130334854125977,0.9418671131134033,18.245882034301758,0.7134910225868225,2.2753939628601074,-0.20724813640117645,0.0,0.0,0.0,0.0,0.0,0.0,0.0,-0.06635004388365437,0.5373937998417284,0.09650266820539434,0.621799273255491,0.2942217573037074,0.08868743710174921,-0.21417699239567417,-0.6088945229806398,-0.05759421154333503,-0.6664625263464389,-2.594871387582076,-0.05579154081145923,2.507930790021194,0.8763191901759968,-0.6090851748156966,-0.05753196718556838,-0.666603097082616,-2.5945565370258534,-0.05562143941554,2.507976027223799,0.8763108487046415,-0.0004611791969782768,0.0003614391729152996,-0.0004902815274404967,0.00017019783804675948,0.00017969922532913468,9.177921168658336e-06,-0.0006173255056265918,0.0,0.0,0.0,0.0,0.0,0.0,0.0,-0.0001906518350567321,6.224435776664566e-05,-0.0001405707361771258,0.0003148505562227122,0.00017010139591922685,4.5237202605186155e-05,-8.341471355310937e-06,0.0004611791969782768,-0.0003614391729152996,0.0004902815274404967,-0.00017019783804675948,-0.00017969922532913468,-9.177921168658336e-06,0.0006173255056265918,0.04592245817184448,18.130334854125977,-0.9418671131134033,-18.245882034301758,-0.7134910225868225,-2.2753939628601074,0.20724813640117645,0
70,0.34470438957214355,-0.06972616910934448,-18.106531143188477,0.8942596912384033,18.222078323364258,0.7253928780555725,2.2689852714538574,-0.15964071452617645,0.0,0.0,0.0,0.0,0.0,0.0,0.0,-0.062308577319745595,0.53831248594767,0.09976399834903492,0.6212871615332277,0.29364668120889026,0.08884172924645148,-0.2150282730357241,-0.6088928525447845,-0.05759588199121889,-0.666459194141375,-2.594869717146221,-0.05579286323984464,2.507932323494882,0.876313900462455,-0.6090851748156966,-0.05753196718556838,-0.666603097082616,-2.5945565370258534,-0.05562143941554,2.507976027223799,0.8763108487046415,0.0005793664950316379,0.00014800983193384,0.0008493327336771314,0.0006599912913089467,-0.0004417407720781665,0.0002887330278865441,-0.0016409539201341463,0.0,0.0,0.0,0.0,0.0,0.0,0.0,-0.00019232227091203757,6.391480565050983e-05,-0.0001439029412410031,0.0003131801203677398,0.00017142382430464231,4.3703728917154905e-05,-3.051757813565814e-06,-0.0005793664950316379,-0.00014800983193384,-0.0008493327336771314,-0.0006599912913089467,0.0004417407720781665,-0.0002887330278865441,0.0016409539201341463,0.06972616910934448,18.106531143188477,-0.8942596912384033,-18.222078323364258,-0.7253928780555725,-2.2689852714538574,0.15964071452617645,0
71,0.34969449043273926,-0.06972616910934448,-18.106531143188477,0.8942596912384033,18.222078323364258,0.7253928780555725,2.2689852714538574,-0.15964071452617645,0.0,0.0,0.0,0.0,0.0,0.0,0.0,-0.062308577319745595,0.53831248594767,0.09976399834903492,0.6212871615332277,0.29364668120889026,0.08884172924645148,-0.2150282730357241,-0.6088928525447845,-0.05759588199121889,-0.666459194141375,-2.594869717146221,-0.05579286323984464,2.507932323494882,0.876313900462455,-0.6090851748156966,-0.05753196718556838,-0.666603097082616,-2.5945565370258534,-0.05562143941554,2.507976027223799,0.8763108487046415,0.0005793664950316379,0.00014800983193384,0.0008493327336771314,0.0006599912913089467,-0.0004417407720781665,0.0002887330278865441,-0.0016409539201341463,0.0,0.0,0.0,0.0,0.0,0.0,0.0,-0.00019232227091203757,6.391480565050983e-05,-0.0001439029412410031,0.0003131801203677398,0.00017142382430464231,4.3703728917154905e-05,-3.051757813565814e-06,-0.0005793664950316379,-0.00014800983193384,-0.0008493327336771314,-0.0006599912913089467,0.0004417407720781665,-0.0002887330278865441,0.0016409539201341463,0.06972616910934448,18.106531143188477,-0.8942596912384033,-18.222078323364258,-0.7253928780555725,-2.2689852714538574,0.15964071452617645,0
72,0.3547084331512451,-0.04592245817184448,-18.106531143188477,0.9180634021759033,18.269685745239258,0.7253928780555725,2.2689852714538574,-0.24112264811992645,0.0,0.0,0.0,0.0,0.0,0.0,0.0,-0.05900400551816942,0.5377967793432893,0.10160469195554529,0.624248864296422,0.2933296641662027,0.0891450698860626,-0.21190487581185788,-0.6088945229806398,-0.057595881991219094,-0.6664608644703797,-2.5948730590354168,-0.05579286323984464,2.5079323102473894,0.8763229540106322,-0.6090851748156966,-0.05753196718556838,-0.666603097082616,-2.5945565370258534,-0.05562143941554,2.507976027223799,0.8763108487046415,0.00011879580640379636,-0.00011575872321008558,0.00044972437258316623,-0.0005912794476258563,-0.0002048779280504437,-1.54980417963174e-05,0.0011277138987998458,0.0,0.0,0.0,0.0,0.0,0.0,0.0,-0.0001906518350567321,6.391480565071106e-05,-0.0001422326122363371,0.00031652200956333587,0.00017142382430464231,4.371697640959127e-05,-1.2105305990717241e-05,-0.00011879580640379636,0.00011575872321008558,-0.00044972437258316623,0.0005912794476258563,0.0002048779280504437,1.54980417963174e-05,-0.0011277138987998458,0.04592245817184448,18.106531143188477,-0.9180634021759033,-18.269685745239258,-0.7253928780555725,-2.2689852714538574,0.24112264811992645,0
73,0.359694242477417,-0.04592245817184448,-18.106531143188477,0.9180634021759033,18.269685745239258,0.7253928780555725,2.2689852714538574,-0.24112264811992645,0.0,0.0,0.0,0.0,0.0,0.0,0.0,-0.05900400551816942,0.5377967793432893,0.10160469195554529,0.624248864296422,0.2933296641662027,0.0891450698860626,-0.21190487581185788,-0.6088945229806398,-0.057595881991219094,-0.6664608644703797,-2.5948730590354168,-0.05579286323984464,2.5079323102473894,0.8763229540106322,-0.6090851748156966,-0.05753196718556838,-0.666603097082616,-2.5945565370258534,-0.05562143941554,2.507976027223799,0.8763108487046415,0.00011879580640379636,-0.00011575872321008558,0.00044972437258316623,-0.0005912794476258563,-0.0002048779280504437,-1.54980417963174e-05,0.0011277138987998458,0.0,0.0,0.0,0.0,0.0,0.0,0.0,-0.0001906518350567321,6.391480565071106e-05,-0.0001422326122363371,0.00031652200956333587,0.00017142382430464231,4.371697640959127e-05,-1.2105305990717241e-05,-0.00011879580640379636,0.00011575872321008558,-0.00044972437258316623,0.0005912794476258563,0.0002048779280504437,1.54980417963174e-05,-0.0011277138987998458,0.04592245817184448,18.106531143188477,-0.9180634021759033,-18.269685745239258,-0.7253928780555725,-2.2689852714538574,0.24112264811992645,0
74,0.3647341728210449,-0.04592245817184448,-18.130334854125977,0.9180634021759033,18.245882034301758,0.7189841866493225,2.2625765800476074,-0.17978231608867645,0.0,0.0,0.0,0.0,0.0,0.0,0.0,-0.062365485758267745,0.5406535693852239,0.09813072225646396,0.6238714856200398,0.2939713699547374,0.0888763118159818,-0.2129932127889811,-0.6088945229806398,-0.05759421155536383,-0.6664608645773765,-2.5948713906345375,-0.055792151163021726,2.50793620630352,0.8763161384181842,-0.6090851748156966,-0.05753196718556838,-0.666603097082616,-2.5945565370258534,-0.05562143941554,2.507976027223799,0.8763108487046415,-0.00032858923738958857,0.0003449376597505993,7.518968627439699e-06,0.000194374276566171,2.5335491039725083e-05,0.0007333507593327923,-0.001021844887159379,0.0,0.0,0.0,0.0,0.0,0.0,0.0,-0.0001906518350567321,6.224436979544723e-05,-0.00014223250523948128,0.00031485360868410694,0.0001707117474817263,3.982092027898787e-05,-5.289713542744323e-06,0.00032858923738958857,-0.0003449376597505993,-7.518968627439699e-06,-0.000194374276566171,-2.5335491039725083e-05,-0.0007333507593327923,0.001021844887159379,0.04592245817184448,18.130334854125977,-0.9180634021759033,-18.245882034301758,-0.7189841866493225,-2.2625765800476074,0.17978231608867645,0
75,0.36969780921936035,-0.04592245817184448,-18.130334854125977,0.9180634021759033,18.245882034301758,0.7189841866493225,2.2625765800476074,-0.17978231608867645,0.0,0.0,0.0,0.0,0.0,0.0,0.0,-0.062365485758267745,0.5406535693852239,0.09813072225646396,0.6238714856200398,0.2939713699547374,0.0888763118159818,-0.2129932127889811,-0.6088945229806398,-0.05759421155536383,-0.6664608645773765,-2.5948713906345375,-0.055792151163021726,2.50793620630352,0.8763161384181842,-0.6090851748156966,-0.05753196718556838,-0.666603097082616,-2.5945565370258534,-0.05562143941554,2.507976027223799,0.8763108487046415,-0.00032858923738958857,0.0003449376597505993,7.518968627439699e-06,0.000194374276566171,2.5335491039725083e-05,0.0007333507593327923,-0.001021844887159379,0.0,0.0,0.0,0.0,0.0,0.0,0.0,-0.0001906518350567321,6.224436979544723e-05,-0.00014223250523948128,0.00031485360868410694,0.0001707117474817263,3.982092027898787e-05,-5.289713542744323e-06,0.00032858923738958857,-0.0003449376597505993,-7.518968627439699e-06,-0.000194374276566171,-2.5335491039725083e-05,-0.0007333507593327923,0.001021844887159379,0.04592245817184448,18.130334854125977,-0.9180634021759033,-18.245882034301758,-0.7189841866493225,-2.2625765800476074,0.17978231608867645,0
76,0.37469935417175293,-0.09352988004684448,-18.106531143188477,0.8942596912384033,18.245882034301758,0.7189841866493225,2.2625765800476074,-0.23471395671367645,0.0,0.0,0.0,0.0,0.0,0.0,0.0,-0.060069003024540844,0.544849020436945,0.10191082173569732,0.6215545698799899,0.29385256492119305,0.08949395602184913,-0.21209848179194,-0.6088911821089292,-0.057595881991219094,-0.6664591941415218,-2.5948713875820935,-0.055792151163021726,2.5079318628980176,0.8763222419338093,-0.6090851748156966,-0.05753196718556838,-0.666603097082616,-2.5945565370258534,-0.05562143941554,2.507976027223799,0.8763108487046415,0.000434265425516274,-0.0002036061182320287,0.0005202363633587927,0.00013697813690555024,-4.2080977690264634e-05,0.0006090327012556369,0.0009295667269758877,0.0,0.0,0.0,0.0,0.0,0.0,0.0,-0.00019399270676734304,6.391480565071106e-05,-0.00014390294109423163,0.00031485055624003166,0.0001707117474817263,4.416432578135954e-05,-1.1393229167766528e-05,-0.000434265425516274,0.0002036061182320287,-0.0005202363633587927,-0.00013697813690555024,4.2080977690264634e-05,-0.0006090327012556369,-0.0009295667269758877,0.09352988004684448,18.106531143188477,-0.8942596912384033,-18.245882034301758,-0.7189841866493225,-2.2625765800476074,0.23471395671367645,0
77,0.3796987533569336,-0.09352988004684448,-18.106531143188477,0.8942596912384033,18.245882034301758,0.7189841866493225,2.2625765800476074,-0.23471395671367645,0.0,0.0,0.0,0.0,0.0,0.0,0.0,-0.060069003024540844,0.544849020436945,0.10191082173569732,0.6215545698799899,0.29385256492119305,0.08949395602184913,-0.21209848179194,-0.6088911821089292,-0.057595881991219094,-0.6664591941415218,-2.5948713875820935,-0.055792151163021726,2.5079318628980176,0.8763222419338093,-0.6090851748156966,-0.05753196718556838,-0.666603097082616,-2.5945565370258534,-0.05562143941554,2.507976027223799,0.8763108487046415,0.000434265425516274,-0.0002036061182320287,0.0005202363633587927,0.00013697813690555024,-4.2080977690264634e-05,0.0006090327012556369,0.0009295667269758877,0.0,0.0,0.0,0.0,0.0,0.0,0.0,-0.00019399270676734304,6.391480565071106e-05,-0.00014390294109423163,0.00031485055624003166,0.0001707117474817263,4.416432578135954e-05,-1.1393229167766528e-05,-0.000434265425516274,0.0002036061182320287,-0.0005202363633587927,-0.00013697813690555024,4.2080977690264634e-05,-0.0006090327012556369,-0.0009295667269758877,0.09352988004684448,18.106531143188477,-0.8942596912384033,-18.245882034301758,-0.7189841866493225,-2.2625765800476074,0.23471395671367645,0
78,0.3847637176513672,-0.06972616910934448,-18.106531143188477,0.8426849842071533,18.297456741333008,0.7253928780555725,2.2753939628601074,-0.20083944499492645,0.0,0.0,0.0,0.0,0.0,0.0,0.0,-0.061786560662252694,0.5456974440603285,0.10276252710183915,0.6223727773076048,0.29388552107088656,0.08984201943983826,-0.21210793936324618,-0.6088928525447845,-0.057595881991219094,-0.6664555748638353,-2.5948750068597626,-0.05579286323984464,2.507931615611036,0.8763184780991738,-0.6090851748156966,-0.05753196718556838,-0.666603097082616,-2.5945565370258534,-0.05562143941554,2.507976027223799,0.8763108487046415,-0.0003621043741158654,-0.0001320588580065366,0.0019715467910661442,-0.0012868237464123923,-0.0002020632673410962,-0.00027505710163478473,-0.0011927705232926938,0.0,0.0,0.0,0.0,0.0,0.0,0.0,-0.00019232227091203757,6.391480565071106e-05,-0.0001475222187806713,0.00031846983390915184,0.00017142382430464231,4.441161276291794e-05,-7.629394532360223e-06,0.0003621043741158654,0.0001320588580065366,-0.0019715467910661442,0.0012868237464123923,0.0002020632673410962,0.00027505710163478473,0.0011927705232926938,0.06972616910934448,18.106531143188477,-0.8426849842071533,-18.297456741333008,-0.7253928780555725,-2.2753939628601074,0.20083944499492645,0
79,0.3896958827972412,-0.06972616910934448,-18.106531143188477,0.8426849842071533,18.297456741333008,0.7253928780555725,2.2753939628601074,-0.20083944499492645,0.0,0.0,0.0,0.0,0.0,0.0,0.0,-0.061786560662252694,0.5456974440603285,0.10276252710183915,0.6223727773076048,0.29388552107088656,0.08984201943983826,-0.21210793936324618,-0.6088928525447845,-0.057595881991219094,-0.6664555748638353,-2.5948750068597626,-0.05579286323984464,2.507931615611036,0.8763184780991738,-0.6090851748156966,-0.05753196718556838,-0.666603097082616,-2.5945565370258534,-0.05562143941554,2.507976027223799,0.8763108487046415,-0.0003621043741158654,-0.0001320588580065366,0.0019715467910661442,-0.0012868237464123923,-0.0002020632673410962,-0.00027505710163478473,-0.0011927705232926938,0.0,0.0,0.0,0.0,0.0,0.0,0.0,-0.00019232227091203757,6.391480565071106e-05,-0.0001475222187806713,0.00031846983390915184,0.00017142382430464231,4.441161276291794e-05,-7.629394532360223e-06,0.0003621043741158654,0.0001320588580065366,-0.0019715467910661442,0.0012868237464123923,0.0002020632673410962,0.00027505710163478473,0.0011927705232926938,0.06972616910934448,18.106531143188477,-0.8426849842071533,-18.297456741333008,-0.7253928780555725,-2.2753939628601074,0.20083944499492645,0
