rezayati/contactInterpretation/dataset/franka_main/labeled_data/link6/b5_7.csv
index,time,tau_J0,tau_J1,tau_J2,tau_J3,tau_J4,tau_J5,tau_J6,tau_J_d0,tau_J_d1,tau_J_d2,tau_J_d3,tau_J_d4,tau_J_d5,tau_J_d6,tau_ext0,tau_ext1,tau_ext2,tau_ext3,tau_ext4,tau_ext5,tau_ext6,q0,q1,q2,q3,q4,q5,q6,q_d0,q_d1,q_d2,q_d3,q_d4,q_d5,q_d6,dq0,dq1,dq2,dq3,dq4,dq5,dq6,dq_d0,dq_d1,dq_d2,dq_d3,dq_d4,dq_d5,dq_d6,e0,e1,e2,e3,e4,e5,e6,de0,de1,de2,de3,de4,de5,de6,etau_J0,etau_J1,etau_J2,etau_J3,etau_J4,etau_J5,etau_J6,label
1,0.0,-0.17287558317184448,-11.850122451782227,1.2156097888946533,21.816438674926758,0.3317161202430725,2.5335726737976074,-0.30978721380233765,0.0,0.0,0.0,0.0,0.0,0.0,0.0,-0.16677697553456217,0.4757758283232048,0.00042648269006001174,0.5353465986657396,-0.19696654424346932,0.12395928603441907,-0.3045189545205828,0.17294291162259226,-0.48762924827445425,-0.11128613778059943,-1.9465868205522237,0.13362082112744086,2.59545711338552,0.9452590084385506,0.1728802376190821,-0.48752024683155326,-0.11147110072896137,-1.9463801863486305,0.1336059019074957,2.595550359778934,0.9452445589611904,0.0004129624574638509,-0.001804639878493765,-0.0012283519037290735,0.00035097700434708144,0.00021413801202401042,-6.643553176642161e-05,0.0008651593584253772,0.0,0.0,0.0,0.0,0.0,0.0,0.0,-6.267400351014918e-05,0.00010900144290099112,-0.00018496294836194138,0.00020663420359312568,-1.491921994517531e-05,9.324639341379282e-05,-1.4449477360178875e-05,-0.0004129624574638509,0.001804639878493765,0.0012283519037290735,-0.00035097700434708144,-0.00021413801202401042,6.643553176642161e-05,-0.0008651593584253772,0.17287558317184448,11.850122451782227,-1.2156097888946533,-21.816438674926758,-0.3317161202430725,-2.5335726737976074,0.30978721380233765,0
2,0.004953145980834961,-0.22445029020309448,-11.750940322875977,1.1441986560821533,21.792634963989258,0.3500266671180725,2.5207552909851074,-0.32352012395858765,0.0,0.0,0.0,0.0,0.0,0.0,0.0,-0.16765124913356694,0.5039699659284955,-0.004257855789780865,0.5240715610702764,-0.1967416558485936,0.12298377485854939,-0.3038339159474459,0.17294866380357457,-0.4876364497127378,-0.11128112647303363,-1.9465851510975145,0.1336187871098509,2.5954585824589342,0.9452605851208409,0.1728802376190821,-0.48752024683155326,-0.11147110072896137,-1.9463801863486305,0.1336059019074957,2.595550359778934,0.9452445589611904,0.0006876550957145949,-0.00035991776006279923,0.0010088541463217028,0.0009784673860363969,-0.00040444456132573525,2.118626927955734e-05,0.0014030136662604674,0.0,0.0,0.0,0.0,0.0,0.0,0.0,-6.842618449245941e-05,0.00011620288118452393,-0.00018997425592773287,0.00020496474888398453,-1.2885202355206182e-05,9.177731999976402e-05,-1.6026159650461835e-05,-0.0006876550957145949,0.00035991776006279923,-0.0010088541463217028,-0.0009784673860363969,0.00040444456132573525,-2.118626927955734e-05,-0.0014030136662604674,0.22445029020309448,11.750940322875977,-1.1441986560821533,-21.792634963989258,-0.3500266671180725,-2.5207552909851074,0.32352012395858765,0
3,0.009847640991210938,-0.22445029020309448,-11.750940322875977,1.1441986560821533,21.792634963989258,0.3500266671180725,2.5207552909851074,-0.32352012395858765,0.0,0.0,0.0,0.0,0.0,0.0,0.0,-0.16765124913356694,0.5039699659284955,-0.004257855789780865,0.5240715610702764,-0.1967416558485936,0.12298377485854939,-0.3038339159474459,0.17294866380357457,-0.4876364497127378,-0.11128112647303363,-1.9465851510975145,0.1336187871098509,2.5954585824589342,0.9452605851208409,0.1728802376190821,-0.48752024683155326,-0.11147110072896137,-1.9463801863486305,0.1336059019074957,2.595550359778934,0.9452445589611904,0.0006876550957145949,-0.00035991776006279923,0.0010088541463217028,0.0009784673860363969,-0.00040444456132573525,2.118626927955734e-05,0.0014030136662604674,0.0,0.0,0.0,0.0,0.0,0.0,0.0,-6.842618449245941e-05,0.00011620288118452393,-0.00018997425592773287,0.00020496474888398453,-1.2885202355206182e-05,9.177731999976402e-05,-1.6026159650461835e-05,-0.0006876550957145949,0.00035991776006279923,-0.0010088541463217028,-0.0009784673860363969,0.00040444456132573525,-2.118626927955734e-05,-0.0014030136662604674,0.22445029020309448,11.750940322875977,-1.1441986560821533,-21.792634963989258,-0.3500266671180725,-2.5207552909851074,0.32352012395858765,0
4,0.014863014221191406,-0.17287558317184448,-11.750940322875977,1.2156097888946533,21.840242385864258,0.3317161202430725,2.5207552909851074,-0.27591270208358765,0.0,0.0,0.0,0.0,0.0,0.0,0.0,-0.16611855470826192,0.502274688273144,0.0022788397764478617,0.5341096653724221,-0.19690383963008698,0.1234163020647104,-0.3038309053967303,0.17294290870483503,-0.48763644982220766,-0.11128613778059943,-1.9465884910971005,0.13362082161506014,2.5954599783464523,0.9452552402817098,0.1728802376190821,-0.48752024683155326,-0.11147110072896137,-1.9463801863486305,0.1336059019074957,2.595550359778934,0.9452445589611904,0.0003801653640470922,0.0007032991722609459,-0.0005440641580292758,-0.0006388534978178401,0.00033187198251498465,-0.00017657740680788675,-0.0007924946038358953,0.0,0.0,0.0,0.0,0.0,0.0,0.0,-6.267108575291891e-05,0.00011620299065440154,-0.00018496294836194138,0.0002083047484700007,-1.49197075644536e-05,9.038143248174535e-05,-1.0681320519401183e-05,-0.0003801653640470922,-0.0007032991722609459,0.0005440641580292758,0.0006388534978178401,-0.00033187198251498465,0.00017657740680788675,0.0007924946038358953,0.17287558317184448,11.750940322875977,-1.2156097888946533,-21.840242385864258,-0.3317161202430725,-2.5207552909851074,0.27591270208358765,0
5,0.01986074447631836,-0.17287558317184448,-11.750940322875977,1.2156097888946533,21.840242385864258,0.3317161202430725,2.5207552909851074,-0.27591270208358765,0.0,0.0,0.0,0.0,0.0,0.0,0.0,-0.16611855470826192,0.502274688273144,0.0022788397764478617,0.5341096653724221,-0.19690383963008698,0.1234163020647104,-0.3038309053967303,0.17294290870483503,-0.48763644982220766,-0.11128613778059943,-1.9465884910971005,0.13362082161506014,2.5954599783464523,0.9452552402817098,0.1728802376190821,-0.48752024683155326,-0.11147110072896137,-1.9463801863486305,0.1336059019074957,2.595550359778934,0.9452445589611904,0.0003801653640470922,0.0007032991722609459,-0.0005440641580292758,-0.0006388534978178401,0.00033187198251498465,-0.00017657740680788675,-0.0007924946038358953,0.0,0.0,0.0,0.0,0.0,0.0,0.0,-6.267108575291891e-05,0.00011620299065440154,-0.00018496294836194138,0.0002083047484700007,-1.49197075644536e-05,9.038143248174535e-05,-1.0681320519401183e-05,-0.0003801653640470922,-0.0007032991722609459,0.0005440641580292758,0.0006388534978178401,-0.00033187198251498465,0.00017657740680788675,0.0007924946038358953,0.17287558317184448,11.750940322875977,-1.2156097888946533,-21.840242385864258,-0.3317161202430725,-2.5207552909851074,0.27591270208358765,0
6,0.02485346794128418,-0.19667929410934448,-11.802515029907227,1.2156097888946533,21.868013381958008,0.3317161202430725,2.5207552909851074,-0.31711143255233765,0.0,0.0,0.0,0.0,0.0,0.0,0.0,-0.17148438875193092,0.4711831327266571,-0.006505046613238983,0.5576488951967856,-0.19617709402942132,0.1264287431326148,-0.3041312712799294,0.1729445791286335,-0.4876328305445219,-0.11128613778059943,-1.9465904398299105,0.13362082210109102,2.5954598646544014,0.9452601799611449,0.1728802376190821,-0.48752024683155326,-0.11147110072896137,-1.9463801863486305,0.1336059019074957,2.595550359778934,0.9452445589611904,0.0005348260076203835,-0.0005048708989093305,-0.0004673719871657244,-0.0008837453291684047,0.00028502876545875427,-2.3820119763276006e-05,0.0015278113398135781,0.0,0.0,0.0,0.0,0.0,0.0,0.0,-6.434150955139661e-05,0.00011258371296862801,-0.00018496294836194138,0.00021025348128000942,-1.4920193595335807e-05,9.04951245326302e-05,-1.5620999954446546e-05,-0.0005348260076203835,0.0005048708989093305,0.0004673719871657244,0.0008837453291684047,-0.00028502876545875427,2.3820119763276006e-05,-0.0015278113398135781,0.19667929410934448,11.802515029907227,-1.2156097888946533,-21.868013381958008,-0.3317161202430725,-2.5207552909851074,0.31711143255233765,0
7,0.029851436614990234,-0.19667929410934448,-11.802515029907227,1.2156097888946533,21.868013381958008,0.3317161202430725,2.5207552909851074,-0.31711143255233765,0.0,0.0,0.0,0.0,0.0,0.0,0.0,-0.17148438875193092,0.4711831327266571,-0.006505046613238983,0.5576488951967856,-0.19617709402942132,0.1264287431326148,-0.3041312712799294,0.1729445791286335,-0.4876328305445219,-0.11128613778059943,-1.9465904398299105,0.13362082210109102,2.5954598646544014,0.9452601799611449,0.1728802376190821,-0.48752024683155326,-0.11147110072896137,-1.9463801863486305,0.1336059019074957,2.595550359778934,0.9452445589611904,0.0005348260076203835,-0.0005048708989093305,-0.0004673719871657244,-0.0008837453291684047,0.00028502876545875427,-2.3820119763276006e-05,0.0015278113398135781,0.0,0.0,0.0,0.0,0.0,0.0,0.0,-6.434150955139661e-05,0.00011258371296862801,-0.00018496294836194138,0.00021025348128000942,-1.4920193595335807e-05,9.04951245326302e-05,-1.5620999954446546e-05,-0.0005348260076203835,0.0005048708989093305,0.0004673719871657244,0.0008837453291684047,-0.00028502876545875427,2.3820119763276006e-05,-0.0015278113398135781,0.19667929410934448,11.802515029907227,-1.2156097888946533,-21.868013381958008,-0.3317161202430725,-2.5207552909851074,0.31711143255233765,0
8,0.03484940528869629,-0.19667929410934448,-11.802515029907227,1.2156097888946533,21.868013381958008,0.3317161202430725,2.5207552909851074,-0.31711143255233765,0.0,0.0,0.0,0.0,0.0,0.0,0.0,-0.17148438875193092,0.4711831327266571,-0.006505046613238983,0.5576488951967856,-0.19617709402942132,0.1264287431326148,-0.3041312712799294,0.1729445791286335,-0.4876328305445219,-0.11128613778059943,-1.9465904398299105,0.13362082210109102,2.5954598646544014,0.9452601799611449,0.1728802376190821,-0.48752024683155326,-0.11147110072896137,-1.9463801863486305,0.1336059019074957,2.595550359778934,0.9452445589611904,0.0005348260076203835,-0.0005048708989093305,-0.0004673719871657244,-0.0008837453291684047,0.00028502876545875427,-2.3820119763276006e-05,0.0015278113398135781,0.0,0.0,0.0,0.0,0.0,0.0,0.0,-6.434150955139661e-05,0.00011258371296862801,-0.00018496294836194138,0.00021025348128000942,-1.4920193595335807e-05,9.04951245326302e-05,-1.5620999954446546e-05,-0.0005348260076203835,0.0005048708989093305,0.0004673719871657244,0.0008837453291684047,-0.00028502876545875427,2.3820119763276006e-05,-0.0015278113398135781,0.19667929410934448,11.802515029907227,-1.2156097888946533,-21.868013381958008,-0.3317161202430725,-2.5207552909851074,0.31711143255233765,0
9,0.03985142707824707,-0.19667929410934448,-11.802515029907227,1.2156097888946533,21.868013381958008,0.3317161202430725,2.5207552909851074,-0.31711143255233765,0.0,0.0,0.0,0.0,0.0,0.0,0.0,-0.17148438875193092,0.4711831327266571,-0.006505046613238983,0.5576488951967856,-0.19617709402942132,0.1264287431326148,-0.3041312712799294,0.1729445791286335,-0.4876328305445219,-0.11128613778059943,-1.9465904398299105,0.13362082210109102,2.5954598646544014,0.9452601799611449,0.1728802376190821,-0.48752024683155326,-0.11147110072896137,-1.9463801863486305,0.1336059019074957,2.595550359778934,0.9452445589611904,0.0005348260076203835,-0.0005048708989093305,-0.0004673719871657244,-0.0008837453291684047,0.00028502876545875427,-2.3820119763276006e-05,0.0015278113398135781,0.0,0.0,0.0,0.0,0.0,0.0,0.0,-6.434150955139661e-05,0.00011258371296862801,-0.00018496294836194138,0.00021025348128000942,-1.4920193595335807e-05,9.04951245326302e-05,-1.5620999954446546e-05,-0.0005348260076203835,0.0005048708989093305,0.0004673719871657244,0.0008837453291684047,-0.00028502876545875427,2.3820119763276006e-05,-0.0015278113398135781,0.19667929410934448,11.802515029907227,-1.2156097888946533,-21.868013381958008,-0.3317161202430725,-2.5207552909851074,0.31711143255233765,0
10,0.04484891891479492,-0.19667929410934448,-11.802515029907227,1.2156097888946533,21.868013381958008,0.3317161202430725,2.5207552909851074,-0.31711143255233765,0.0,0.0,0.0,0.0,0.0,0.0,0.0,-0.17148438875193092,0.4711831327266571,-0.006505046613238983,0.5576488951967856,-0.19617709402942132,0.1264287431326148,-0.3041312712799294,0.1729445791286335,-0.4876328305445219,-0.11128613778059943,-1.9465904398299105,0.13362082210109102,2.5954598646544014,0.9452601799611449,0.1728802376190821,-0.48752024683155326,-0.11147110072896137,-1.9463801863486305,0.1336059019074957,2.595550359778934,0.9452445589611904,0.0005348260076203835,-0.0005048708989093305,-0.0004673719871657244,-0.0008837453291684047,0.00028502876545875427,-2.3820119763276006e-05,0.0015278113398135781,0.0,0.0,0.0,0.0,0.0,0.0,0.0,-6.434150955139661e-05,0.00011258371296862801,-0.00018496294836194138,0.00021025348128000942,-1.4920193595335807e-05,9.04951245326302e-05,-1.5620999954446546e-05,-0.0005348260076203835,0.0005048708989093305,0.0004673719871657244,0.0008837453291684047,-0.00028502876545875427,2.3820119763276006e-05,-0.0015278113398135781,0.19667929410934448,11.802515029907227,-1.2156097888946533,-21.868013381958008,-0.3317161202430725,-2.5207552909851074,0.31711143255233765,0
11,0.04984688758850098,-0.14510458707809448,-11.949304580688477,1.2671844959259033,21.840242385864258,0.3381248116493225,2.5207552909851074,-0.33725303411483765,0.0,0.0,0.0,0.0,0.0,0.0,0.0,-0.15692774320232503,0.4846638024805254,0.020380460256332122,0.5416234445674045,-0.19728113495150218,0.12420571667744089,-0.3055206737649908,0.17294095985094707,-0.4876203572652493,-0.11128975705828582,-1.9465884909880788,0.13362010953823725,2.595456424417877,0.9452620559474235,0.1728802376190821,-0.48752024683155326,-0.11147110072896137,-1.9463801863486305,0.1336059019074957,2.595550359778934,0.9452445589611904,5.6728952660083005e-05,0.00024127174363022854,-0.0004241800575591236,0.00047531262026441733,0.0008668667856381712,0.00026376202615519093,0.0018807669629676692,0.0,0.0,0.0,0.0,0.0,0.0,0.0,-6.0722231864956955e-05,0.00010011043369606565,-0.00018134367067554336,0.00020830463944832012,-1.4207630741558397e-05,9.39353610571736e-05,-1.749698623310092e-05,-5.6728952660083005e-05,-0.00024127174363022854,0.0004241800575591236,-0.00047531262026441733,-0.0008668667856381712,-0.00026376202615519093,-0.0018807669629676692,0.14510458707809448,11.949304580688477,-1.2671844959259033,-21.840242385864258,-0.3381248116493225,-2.5207552909851074,0.33725303411483765,0
12,0.05484318733215332,-0.14510458707809448,-11.949304580688477,1.2671844959259033,21.840242385864258,0.3381248116493225,2.5207552909851074,-0.33725303411483765,0.0,0.0,0.0,0.0,0.0,0.0,0.0,-0.15692774320232503,0.4846638024805254,0.020380460256332122,0.5416234445674045,-0.19728113495150218,0.12420571667744089,-0.3055206737649908,0.17294095985094707,-0.4876203572652493,-0.11128975705828582,-1.9465884909880788,0.13362010953823725,2.595456424417877,0.9452620559474235,0.1728802376190821,-0.48752024683155326,-0.11147110072896137,-1.9463801863486305,0.1336059019074957,2.595550359778934,0.9452445589611904,5.6728952660083005e-05,0.00024127174363022854,-0.0004241800575591236,0.00047531262026441733,0.0008668667856381712,0.00026376202615519093,0.0018807669629676692,0.0,0.0,0.0,0.0,0.0,0.0,0.0,-6.0722231864956955e-05,0.00010011043369606565,-0.00018134367067554336,0.00020830463944832012,-1.4207630741558397e-05,9.39353610571736e-05,-1.749698623310092e-05,-5.6728952660083005e-05,-0.00024127174363022854,0.0004241800575591236,-0.00047531262026441733,-0.0008668667856381712,-0.00026376202615519093,-0.0018807669629676692,0.14510458707809448,11.949304580688477,-1.2671844959259033,-21.840242385864258,-0.3381248116493225,-2.5207552909851074,0.33725303411483765,0
13,0.059847116470336914,-0.14510458707809448,-11.802515029907227,1.2156097888946533,21.816438674926758,0.3317161202430725,2.5271639823913574,-0.32352012395858765,0.0,0.0,0.0,0.0,0.0,0.0,0.0,-0.15623651325761084,0.5024727206822449,0.01926730296007012,0.5238560524139114,-0.1966977598691723,0.12219629696927992,-0.3047277793012187,0.17294095985094707,-0.4876328040131424,-0.11128613778059943,-1.9465868205522237,0.13362082161506017,2.595456104458147,0.9452616159584791,0.1728802376190821,-0.48752024683155326,-0.11147110072896137,-1.9463801863486305,0.1336059019074957,2.595550359778934,0.9452445589611904,8.666203430234898e-05,-0.0009749714143651752,0.00025658067525622427,0.0002631319997831738,8.367881398068364e-05,-0.00023816661972762818,0.001406720361030793,0.0,0.0,0.0,0.0,0.0,0.0,0.0,-6.0722231864956955e-05,0.00011255718158914574,-0.00018496294836194138,0.00020663420359312568,-1.4919707564481355e-05,9.425532078699561e-05,-1.705699728871135e-05,-8.666203430234898e-05,0.0009749714143651752,-0.00025658067525622427,-0.0002631319997831738,-8.367881398068364e-05,0.00023816661972762818,-0.001406720361030793,0.14510458707809448,11.802515029907227,-1.2156097888946533,-21.816438674926758,-0.3317161202430725,-2.5271639823913574,0.32352012395858765,0
14,0.06485176086425781,-0.14510458707809448,-11.802515029907227,1.2156097888946533,21.816438674926758,0.3317161202430725,2.5271639823913574,-0.32352012395858765,0.0,0.0,0.0,0.0,0.0,0.0,0.0,-0.15623651325761084,0.5024727206822449,0.01926730296007012,0.5238560524139114,-0.1966977598691723,0.12219629696927992,-0.3047277793012187,0.17294095985094707,-0.4876328040131424,-0.11128613778059943,-1.9465868205522237,0.13362082161506017,2.595456104458147,0.9452616159584791,0.1728802376190821,-0.48752024683155326,-0.11147110072896137,-1.9463801863486305,0.1336059019074957,2.595550359778934,0.9452445589611904,8.666203430234898e-05,-0.0009749714143651752,0.00025658067525622427,0.0002631319997831738,8.367881398068364e-05,-0.00023816661972762818,0.001406720361030793,0.0,0.0,0.0,0.0,0.0,0.0,0.0,-6.0722231864956955e-05,0.00011255718158914574,-0.00018496294836194138,0.00020663420359312568,-1.4919707564481355e-05,9.425532078699561e-05,-1.705699728871135e-05,-8.666203430234898e-05,0.0009749714143651752,-0.00025658067525622427,-0.0002631319997831738,-8.367881398068364e-05,0.00023816661972762818,-0.001406720361030793,0.14510458707809448,11.802515029907227,-1.2156097888946533,-21.816438674926758,-0.3317161202430725,-2.5271639823913574,0.32352012395858765,0
15,0.06984853744506836,-0.17287558317184448,-11.802515029907227,1.2156097888946533,21.792634963989258,0.3436179757118225,2.5207552909851074,-0.32352012395858765,0.0,0.0,0.0,0.0,0.0,0.0,0.0,-0.15737621258794815,0.4899120818698284,0.017374712216016136,0.5307855411971052,-0.1971915414076539,0.12320162895182553,-0.30310015656482336,0.1729429086927782,-0.4876328305443721,-0.11128613778059943,-1.9465851766073214,0.13361949918667476,2.5954584216918404,0.9452641502658026,0.1728802376190821,-0.48752024683155326,-0.11147110072896137,-1.9463801863486305,0.1336059019074957,2.595550359778934,0.9452445589611904,0.00019524031012021218,0.0006382291238357044,-0.0005097996788801124,0.00031071299779890284,-0.0003190110081620187,-8.841715868955876e-05,0.001301704575676471,0.0,0.0,0.0,0.0,0.0,0.0,0.0,-6.267107369609115e-05,0.00011258371281885893,-0.00018496294836194138,0.00020499025869091803,-1.359727917907283e-05,9.193808709362372e-05,-1.9591304612154303e-05,-0.00019524031012021218,-0.0006382291238357044,0.0005097996788801124,-0.00031071299779890284,0.0003190110081620187,8.841715868955876e-05,-0.001301704575676471,0.17287558317184448,11.802515029907227,-1.2156097888946533,-21.792634963989258,-0.3436179757118225,-2.5207552909851074,0.32352012395858765,0
16,0.07485008239746094,-0.17287558317184448,-11.802515029907227,1.2156097888946533,21.792634963989258,0.3436179757118225,2.5207552909851074,-0.32352012395858765,0.0,0.0,0.0,0.0,0.0,0.0,0.0,-0.15737621258794815,0.4899120818698284,0.017374712216016136,0.5307855411971052,-0.1971915414076539,0.12320162895182553,-0.30310015656482336,0.1729429086927782,-0.4876328305443721,-0.11128613778059943,-1.9465851766073214,0.13361949918667476,2.5954584216918404,0.9452641502658026,0.1728802376190821,-0.48752024683155326,-0.11147110072896137,-1.9463801863486305,0.1336059019074957,2.595550359778934,0.9452445589611904,0.00019524031012021218,0.0006382291238357044,-0.0005097996788801124,0.00031071299779890284,-0.0003190110081620187,-8.841715868955876e-05,0.001301704575676471,0.0,0.0,0.0,0.0,0.0,0.0,0.0,-6.267107369609115e-05,0.00011258371281885893,-0.00018496294836194138,0.00020499025869091803,-1.359727917907283e-05,9.193808709362372e-05,-1.9591304612154303e-05,-0.00019524031012021218,-0.0006382291238357044,0.0005097996788801124,-0.00031071299779890284,0.0003190110081620187,8.841715868955876e-05,-0.001301704575676471,0.17287558317184448,11.802515029907227,-1.2156097888946533,-21.792634963989258,-0.3436179757118225,-2.5207552909851074,0.32352012395858765,0
17,0.07984685897827148,-0.24825400114059448,-11.802515029907227,1.1441986560821533,21.840242385864258,0.3317161202430725,2.5271639823913574,-0.30337852239608765,0.0,0.0,0.0,0.0,0.0,0.0,0.0,-0.1637096988634066,0.4729762291421292,0.01332075933660882,0.5450350834802838,-0.19699942060600575,0.12497386687267738,-0.30238348096773193,0.17294819840631986,-0.4876328305445219,-0.11128110016604535,-1.9465885174791815,0.13362082161506017,2.5954559856058164,0.9452583053031054,0.1728802376190821,-0.48752024683155326,-0.11147110072896137,-1.9463801863486305,0.1336059019074957,2.595550359778934,0.9452445589611904,0.0011819216995056653,0.0007313673894281831,0.0009516503785906967,-0.0007211808839657991,0.00033488592224160783,-0.000493334277338679,0.0004843845435593744,0.0,0.0,0.0,0.0,0.0,0.0,0.0,-6.7960787237753e-05,0.00011258371296862801,-0.00019000056291601508,0.00020833113055096497,-1.4919707564481355e-05,9.437417311763951e-05,-1.3746341914977478e-05,-0.0011819216995056653,-0.0007313673894281831,-0.0009516503785906967,0.0007211808839657991,-0.00033488592224160783,0.000493334277338679,-0.0004843845435593744,0.24825400114059448,11.802515029907227,-1.1441986560821533,-21.840242385864258,-0.3317161202430725,-2.5271639823913574,0.30337852239608765,0
18,0.08485960960388184,-0.24825400114059448,-11.802515029907227,1.1441986560821533,21.840242385864258,0.3317161202430725,2.5271639823913574,-0.30337852239608765,0.0,0.0,0.0,0.0,0.0,0.0,0.0,-0.1637096988634066,0.4729762291421292,0.01332075933660882,0.5450350834802838,-0.19699942060600575,0.12497386687267738,-0.30238348096773193,0.17294819840631986,-0.4876328305445219,-0.11128110016604535,-1.9465885174791815,0.13362082161506017,2.5954559856058164,0.9452583053031054,0.1728802376190821,-0.48752024683155326,-0.11147110072896137,-1.9463801863486305,0.1336059019074957,2.595550359778934,0.9452445589611904,0.0011819216995056653,0.0007313673894281831,0.0009516503785906967,-0.0007211808839657991,0.00033488592224160783,-0.000493334277338679,0.0004843845435593744,0.0,0.0,0.0,0.0,0.0,0.0,0.0,-6.7960787237753e-05,0.00011258371296862801,-0.00019000056291601508,0.00020833113055096497,-1.4919707564481355e-05,9.437417311763951e-05,-1.3746341914977478e-05,-0.0011819216995056653,-0.0007313673894281831,-0.0009516503785906967,0.0007211808839657991,-0.00033488592224160783,0.000493334277338679,-0.0004843845435593744,0.24825400114059448,11.802515029907227,-1.1441986560821533,-21.840242385864258,-0.3317161202430725,-2.5271639823913574,0.30337852239608765,0
19,0.08985710144042969,-0.17287558317184448,-11.901697158813477,1.1680023670196533,21.816438674926758,0.3317161202430725,2.5335726737976074,-0.26858848333358765,0.0,0.0,0.0,0.0,0.0,0.0,0.0,-0.1687878888679065,0.46665522072915644,0.01643156168588171,0.5521672830596438,-0.1969482568213968,0.12550240894427656,-0.3031330715919033,0.1729429086927782,-0.48762587039512495,-0.11128279690874039,-1.946586820552373,0.13362081722715535,2.5954584496880546,0.9452577046214624,0.1728802376190821,-0.48752024683155326,-0.11147110072896137,-1.9463801863486305,0.1336059019074957,2.595550359778934,0.9452445589611904,0.00021929208577274064,0.0012203158754174387,-9.849515473568303e-05,0.0005944863877052889,0.00027469895727828743,-0.0003629497770771475,-0.0014156881671191078,0.0,0.0,0.0,0.0,0.0,0.0,0.0,-6.267107369609115e-05,0.00010562356357168845,-0.00018830382022097525,0.0002066342037425617,-1.4915319659664084e-05,9.191009087938795e-05,-1.314566027199593e-05,-0.00021929208577274064,-0.0012203158754174387,9.849515473568303e-05,-0.0005944863877052889,-0.00027469895727828743,0.0003629497770771475,0.0014156881671191078,0.17287558317184448,11.901697158813477,-1.1680023670196533,-21.816438674926758,-0.3317161202430725,-2.5335726737976074,0.26858848333358765,0
20,0.0948481559753418,-0.17287558317184448,-11.901697158813477,1.1680023670196533,21.816438674926758,0.3317161202430725,2.5335726737976074,-0.26858848333358765,0.0,0.0,0.0,0.0,0.0,0.0,0.0,-0.1687878888679065,0.46665522072915644,0.01643156168588171,0.5521672830596438,-0.1969482568213968,0.12550240894427656,-0.3031330715919033,0.1729429086927782,-0.48762587039512495,-0.11128279690874039,-1.946586820552373,0.13362081722715535,2.5954584496880546,0.9452577046214624,0.1728802376190821,-0.48752024683155326,-0.11147110072896137,-1.9463801863486305,0.1336059019074957,2.595550359778934,0.9452445589611904,0.00021929208577274064,0.0012203158754174387,-9.849515473568303e-05,0.0005944863877052889,0.00027469895727828743,-0.0003629497770771475,-0.0014156881671191078,0.0,0.0,0.0,0.0,0.0,0.0,0.0,-6.267107369609115e-05,0.00010562356357168845,-0.00018830382022097525,0.0002066342037425617,-1.4915319659664084e-05,9.191009087938795e-05,-1.314566027199593e-05,-0.00021929208577274064,-0.0012203158754174387,9.849515473568303e-05,-0.0005944863877052889,-0.00027469895727828743,0.0003629497770771475,0.0014156881671191078,0.17287558317184448,11.901697158813477,-1.1680023670196533,-21.816438674926758,-0.3317161202430725,-2.5335726737976074,0.26858848333358765,0
21,0.0998537540435791,-0.12130087614059448,-11.901697158813477,1.1918060779571533,21.840242385864258,0.3381248116493225,2.5271639823913574,-0.28964561223983765,0.0,0.0,0.0,0.0,0.0,0.0,0.0,-0.1601831867326867,0.4744503606746144,0.01984235742265216,0.5452466981881453,-0.19721446221248906,0.12460279727557104,-0.30360956508595793,0.1729392894150918,-0.48762587039512495,-0.11128446734474416,-1.9465885263093496,0.13362010953821246,2.5954580672594716,0.9452567665098965,0.1728802376190821,-0.48752024683155326,-0.11147110072896137,-1.9463801863486305,0.1336059019074957,2.595550359778934,0.9452445589611904,-0.00026765907406332704,-5.305936699003963e-05,0.00029281206477795133,-7.761962242363633e-06,-1.0102907441873543e-05,7.602497367437165e-05,-0.00023669543219552393,0.0,0.0,0.0,0.0,0.0,0.0,0.0,-5.905179600967925e-05,0.00010562356357168845,-0.0001866333842172052,0.0002083399607191172,-1.4207630716772668e-05,9.229251946241135e-05,-1.2207548706122395e-05,0.00026765907406332704,5.305936699003963e-05,-0.00029281206477795133,7.761962242363633e-06,1.0102907441873543e-05,-7.602497367437165e-05,0.00023669543219552393,0.12130087614059448,11.901697158813477,-1.1918060779571533,-21.840242385864258,-0.3381248116493225,-2.5271639823913574,0.28964561223983765,0
22,0.10486531257629395,-0.12130087614059448,-11.901697158813477,1.1918060779571533,21.840242385864258,0.3381248116493225,2.5271639823913574,-0.28964561223983765,0.0,0.0,0.0,0.0,0.0,0.0,0.0,-0.1601831867326867,0.4744503606746144,0.01984235742265216,0.5452466981881453,-0.19721446221248906,0.12460279727557104,-0.30360956508595793,0.1729392894150918,-0.48762587039512495,-0.11128446734474416,-1.9465885263093496,0.13362010953821246,2.5954580672594716,0.9452567665098965,0.1728802376190821,-0.48752024683155326,-0.11147110072896137,-1.9463801863486305,0.1336059019074957,2.595550359778934,0.9452445589611904,-0.00026765907406332704,-5.305936699003963e-05,0.00029281206477795133,-7.761962242363633e-06,-1.0102907441873543e-05,7.602497367437165e-05,-0.00023669543219552393,0.0,0.0,0.0,0.0,0.0,0.0,0.0,-5.905179600967925e-05,0.00010562356357168845,-0.0001866333842172052,0.0002083399607191172,-1.4207630716772668e-05,9.229251946241135e-05,-1.2207548706122395e-05,0.00026765907406332704,5.305936699003963e-05,-0.00029281206477795133,7.761962242363633e-06,1.0102907441873543e-05,-7.602497367437165e-05,0.00023669543219552393,0.12130087614059448,11.901697158813477,-1.1918060779571533,-21.840242385864258,-0.3381248116493225,-2.5271639823913574,0.28964561223983765,0
23,0.10985112190246582,-0.17287558317184448,-11.826318740844727,1.2433807849884033,21.840242385864258,0.3317161202430725,2.5207552909851074,-0.28964561223983765,0.0,0.0,0.0,0.0,0.0,0.0,0.0,-0.11971129896204909,0.4952033606690694,0.07195338459883902,0.5294332641746949,-0.1996172451887152,0.1216765134531333,-0.30461617740149927,0.172942987797708,-0.48763115716522737,-0.11128811292941886,-1.946588490988278,0.13362082161506014,2.595456681857111,0.9452600646090143,0.1728802376190821,-0.48752024683155326,-0.11147110072896137,-1.9463801863486305,0.1336059019074957,2.595550359778934,0.9452445589611904,0.0013842725009708106,-0.0010033162416129171,-0.0024851649938427848,-0.0003372943526160922,0.0002987009759014244,5.4373020742434865e-05,-0.0004219973868851354,0.0,0.0,0.0,0.0,0.0,0.0,0.0,-6.275017862589216e-05,0.00011091033367410796,-0.0001829877995425111,0.00020830463964749413,-1.49197075644536e-05,9.367792182279899e-05,-1.5505647823932378e-05,-0.0013842725009708106,0.0010033162416129171,0.0024851649938427848,0.0003372943526160922,-0.0002987009759014244,-5.4373020742434865e-05,0.0004219973868851354,0.17287558317184448,11.826318740844727,-1.2433807849884033,-21.840242385864258,-0.3317161202430725,-2.5207552909851074,0.28964561223983765,0
24,0.11485028266906738,-0.17287558317184448,-11.826318740844727,1.2433807849884033,21.840242385864258,0.3317161202430725,2.5207552909851074,-0.28964561223983765,0.0,0.0,0.0,0.0,0.0,0.0,0.0,-0.11971129896204909,0.4952033606690694,0.07195338459883902,0.5294332641746949,-0.1996172451887152,0.1216765134531333,-0.30461617740149927,0.172942987797708,-0.48763115716522737,-0.11128811292941886,-1.946588490988278,0.13362082161506014,2.595456681857111,0.9452600646090143,0.1728802376190821,-0.48752024683155326,-0.11147110072896137,-1.9463801863486305,0.1336059019074957,2.595550359778934,0.9452445589611904,0.0013842725009708106,-0.0010033162416129171,-0.0024851649938427848,-0.0003372943526160922,0.0002987009759014244,5.4373020742434865e-05,-0.0004219973868851354,0.0,0.0,0.0,0.0,0.0,0.0,0.0,-6.275017862589216e-05,0.00011091033367410796,-0.0001829877995425111,0.00020830463964749413,-1.49197075644536e-05,9.367792182279899e-05,-1.5505647823932378e-05,-0.0013842725009708106,0.0010033162416129171,0.0024851649938427848,0.0003372943526160922,-0.0002987009759014244,-5.4373020742434865e-05,0.0004219973868851354,0.17287558317184448,11.826318740844727,-1.2433807849884033,-21.840242385864258,-0.3317161202430725,-2.5207552909851074,0.28964561223983765,0
25,0.11985063552856445,-0.17287558317184448,-11.826318740844727,1.2433807849884033,21.840242385864258,0.3317161202430725,2.5207552909851074,-0.28964561223983765,0.0,0.0,0.0,0.0,0.0,0.0,0.0,-0.11971129896204909,0.4952033606690694,0.07195338459883902,0.5294332641746949,-0.1996172451887152,0.1216765134531333,-0.30461617740149927,0.172942987797708,-0.48763115716522737,-0.11128811292941886,-1.946588490988278,0.13362082161506014,2.595456681857111,0.9452600646090143,0.1728802376190821,-0.48752024683155326,-0.11147110072896137,-1.9463801863486305,0.1336059019074957,2.595550359778934,0.9452445589611904,0.0013842725009708106,-0.0010033162416129171,-0.0024851649938427848,-0.0003372943526160922,0.0002987009759014244,5.4373020742434865e-05,-0.0004219973868851354,0.0,0.0,0.0,0.0,0.0,0.0,0.0,-6.275017862589216e-05,0.00011091033367410796,-0.0001829877995425111,0.00020830463964749413,-1.49197075644536e-05,9.367792182279899e-05,-1.5505647823932378e-05,-0.0013842725009708106,0.0010033162416129171,0.0024851649938427848,0.0003372943526160922,-0.0002987009759014244,-5.4373020742434865e-05,0.0004219973868851354,0.17287558317184448,11.826318740844727,-1.2433807849884033,-21.840242385864258,-0.3317161202430725,-2.5207552909851074,0.28964561223983765,0
26,0.1248466968536377,-0.17287558317184448,-11.826318740844727,1.2433807849884033,21.840242385864258,0.3317161202430725,2.5207552909851074,-0.28964561223983765,0.0,0.0,0.0,0.0,0.0,0.0,0.0,-0.11971129896204909,0.4952033606690694,0.07195338459883902,0.5294332641746949,-0.1996172451887152,0.1216765134531333,-0.30461617740149927,0.172942987797708,-0.48763115716522737,-0.11128811292941886,-1.946588490988278,0.13362082161506014,2.595456681857111,0.9452600646090143,0.1728802376190821,-0.48752024683155326,-0.11147110072896137,-1.9463801863486305,0.1336059019074957,2.595550359778934,0.9452445589611904,0.0013842725009708106,-0.0010033162416129171,-0.0024851649938427848,-0.0003372943526160922,0.0002987009759014244,5.4373020742434865e-05,-0.0004219973868851354,0.0,0.0,0.0,0.0,0.0,0.0,0.0,-6.275017862589216e-05,0.00011091033367410796,-0.0001829877995425111,0.00020830463964749413,-1.49197075644536e-05,9.367792182279899e-05,-1.5505647823932378e-05,-0.0013842725009708106,0.0010033162416129171,0.0024851649938427848,0.0003372943526160922,-0.0002987009759014244,-5.4373020742434865e-05,0.0004219973868851354,0.17287558317184448,11.826318740844727,-1.2433807849884033,-21.840242385864258,-0.3317161202430725,-2.5207552909851074,0.28964561223983765,0
27,0.12984681129455566,-0.14510458707809448,-11.727136611938477,1.2156097888946533,21.840242385864258,0.3381248116493225,2.5271639823913574,-0.30337852239608765,0.0,0.0,0.0,0.0,0.0,0.0,0.0,-0.1483706501154729,0.5160307213633529,0.02206142863231604,0.520906076851071,-0.19776953892935362,0.12070615621993389,-0.3045976490981011,0.17294096278120583,-0.4876381202580469,-0.11128613778074793,-1.9465884909880788,0.13362010953823722,2.595455006064635,0.945258696148837,0.1728802376190821,-0.48752024683155326,-0.11147110072896137,-1.9463801863486305,0.1336059019074957,2.595550359778934,0.9452445589611904,-0.0003463043390794578,-0.0007483952178115652,-4.3786511595194245e-05,-0.0003931526592461016,-1.035608530181473e-05,-0.00014523002732122847,0.0007690096420375226,0.0,0.0,0.0,0.0,0.0,0.0,0.0,-6.0725162123714815e-05,0.00011787342649366428,-0.00018496294821343517,0.00020830463944832012,-1.4207630741530641e-05,9.535371429914008e-05,-1.4137187646534599e-05,0.0003463043390794578,0.0007483952178115652,4.3786511595194245e-05,0.0003931526592461016,1.035608530181473e-05,0.00014523002732122847,-0.0007690096420375226,0.14510458707809448,11.727136611938477,-1.2156097888946533,-21.840242385864258,-0.3381248116493225,-2.5271639823913574,0.30337852239608765,0
28,0.13484954833984375,-0.14510458707809448,-11.727136611938477,1.2156097888946533,21.840242385864258,0.3381248116493225,2.5271639823913574,-0.30337852239608765,0.0,0.0,0.0,0.0,0.0,0.0,0.0,-0.1483706501154729,0.5160307213633529,0.02206142863231604,0.520906076851071,-0.19776953892935362,0.12070615621993389,-0.3045976490981011,0.17294096278120583,-0.4876381202580469,-0.11128613778074793,-1.9465884909880788,0.13362010953823722,2.595455006064635,0.945258696148837,0.1728802376190821,-0.48752024683155326,-0.11147110072896137,-1.9463801863486305,0.1336059019074957,2.595550359778934,0.9452445589611904,-0.0003463043390794578,-0.0007483952178115652,-4.3786511595194245e-05,-0.0003931526592461016,-1.035608530181473e-05,-0.00014523002732122847,0.0007690096420375226,0.0,0.0,0.0,0.0,0.0,0.0,0.0,-6.0725162123714815e-05,0.00011787342649366428,-0.00018496294821343517,0.00020830463944832012,-1.4207630741530641e-05,9.535371429914008e-05,-1.4137187646534599e-05,0.0003463043390794578,0.0007483952178115652,4.3786511595194245e-05,0.0003931526592461016,1.035608530181473e-05,0.00014523002732122847,-0.0007690096420375226,0.14510458707809448,11.727136611938477,-1.2156097888946533,-21.840242385864258,-0.3381248116493225,-2.5271639823913574,0.30337852239608765,0
29,0.1398468017578125,-0.19667929410934448,-11.802515029907227,1.1918060779571533,21.816438674926758,0.3317161202430725,2.5271639823913574,-0.26858848333358765,0.0,0.0,0.0,0.0,0.0,0.0,0.0,-0.16547496256619648,0.487483880568017,-0.005000259669923045,0.5426845850305531,-0.19639761978115164,0.12403182440005693,-0.3039733152904495,0.17294529107301815,-0.48763283021747306,-0.11128446734474416,-1.9465868205522237,0.13362082161506014,2.595458806877747,0.9452545918592757,0.1728802376190821,-0.48752024683155326,-0.11147110072896137,-1.9463801863486305,0.1336059019074957,2.595550359778934,0.9452445589611904,0.0012652426543253298,0.0007469511021585823,0.00010557133819256104,0.00011081720608959482,0.00024550140900757886,-0.00035693558811894055,-0.001177821478194033,0.0,0.0,0.0,0.0,0.0,0.0,0.0,-6.505345393603701e-05,0.00011258338591979555,-0.0001866333842172052,0.00020663420359312568,-1.49197075644536e-05,9.155290118689763e-05,-1.0032898085321484e-05,-0.0012652426543253298,-0.0007469511021585823,-0.00010557133819256104,-0.00011081720608959482,-0.00024550140900757886,0.00035693558811894055,0.001177821478194033,0.19667929410934448,11.802515029907227,-1.1918060779571533,-21.816438674926758,-0.3317161202430725,-2.5271639823913574,0.26858848333358765,0
30,0.14484858512878418,-0.19667929410934448,-11.802515029907227,1.1918060779571533,21.816438674926758,0.3317161202430725,2.5271639823913574,-0.26858848333358765,0.0,0.0,0.0,0.0,0.0,0.0,0.0,-0.16547496256619648,0.487483880568017,-0.005000259669923045,0.5426845850305531,-0.19639761978115164,0.12403182440005693,-0.3039733152904495,0.17294529107301815,-0.48763283021747306,-0.11128446734474416,-1.9465868205522237,0.13362082161506014,2.595458806877747,0.9452545918592757,0.1728802376190821,-0.48752024683155326,-0.11147110072896137,-1.9463801863486305,0.1336059019074957,2.595550359778934,0.9452445589611904,0.0012652426543253298,0.0007469511021585823,0.00010557133819256104,0.00011081720608959482,0.00024550140900757886,-0.00035693558811894055,-0.001177821478194033,0.0,0.0,0.0,0.0,0.0,0.0,0.0,-6.505345393603701e-05,0.00011258338591979555,-0.0001866333842172052,0.00020663420359312568,-1.49197075644536e-05,9.155290118689763e-05,-1.0032898085321484e-05,-0.0012652426543253298,-0.0007469511021585823,-0.00010557133819256104,-0.00011081720608959482,-0.00024550140900757886,0.00035693558811894055,0.001177821478194033,0.19667929410934448,11.802515029907227,-1.1918060779571533,-21.816438674926758,-0.3317161202430725,-2.5271639823913574,0.26858848333358765,0
31,0.1498551368713379,-0.17287558317184448,-11.873926162719727,1.1918060779571533,21.816438674926758,0.3381248116493225,2.5207552909851074,-0.30978721380233765,0.0,0.0,0.0,0.0,0.0,0.0,0.0,-0.17014778408840345,0.4759003121688681,-0.007902434921993199,0.5516299560326233,-0.1959116728134104,0.12502972566848133,-0.30392691749279654,0.17294315773083538,-0.48762781923695425,-0.11128446734474416,-1.9465875361350096,0.13362010953823722,2.5954584522854858,0.9452590218852736,0.1728802376190821,-0.48752024683155326,-0.11147110072896137,-1.9463801863486305,0.1336059019074957,2.595550359778934,0.9452445589611904,-0.0004316688492477531,0.0007901373900425381,0.0001313496874833661,0.00013003372795381598,-0.00020095050272803455,4.807321342121652e-05,0.00021121445831888137,0.0,0.0,0.0,0.0,0.0,0.0,0.0,-6.29201117532674e-05,0.00010757240540099078,-0.0001866333842172052,0.00020734978637904078,-1.4207630741530641e-05,9.19074934482289e-05,-1.4462924083136208e-05,0.0004316688492477531,-0.0007901373900425381,-0.0001313496874833661,-0.00013003372795381598,0.00020095050272803455,-4.807321342121652e-05,-0.00021121445831888137,0.17287558317184448,11.873926162719727,-1.1918060779571533,-21.816438674926758,-0.3381248116493225,-2.5207552909851074,0.30978721380233765,0
32,0.15485668182373047,-0.17287558317184448,-11.873926162719727,1.1918060779571533,21.816438674926758,0.3381248116493225,2.5207552909851074,-0.30978721380233765,0.0,0.0,0.0,0.0,0.0,0.0,0.0,-0.17014778408840345,0.4759003121688681,-0.007902434921993199,0.5516299560326233,-0.1959116728134104,0.12502972566848133,-0.30392691749279654,0.17294315773083538,-0.48762781923695425,-0.11128446734474416,-1.9465875361350096,0.13362010953823722,2.5954584522854858,0.9452590218852736,0.1728802376190821,-0.48752024683155326,-0.11147110072896137,-1.9463801863486305,0.1336059019074957,2.595550359778934,0.9452445589611904,-0.0004316688492477531,0.0007901373900425381,0.0001313496874833661,0.00013003372795381598,-0.00020095050272803455,4.807321342121652e-05,0.00021121445831888137,0.0,0.0,0.0,0.0,0.0,0.0,0.0,-6.29201117532674e-05,0.00010757240540099078,-0.0001866333842172052,0.00020734978637904078,-1.4207630741530641e-05,9.19074934482289e-05,-1.4462924083136208e-05,0.0004316688492477531,-0.0007901373900425381,-0.0001313496874833661,-0.00013003372795381598,0.00020095050272803455,-4.807321342121652e-05,-0.00021121445831888137,0.17287558317184448,11.873926162719727,-1.1918060779571533,-21.816438674926758,-0.3381248116493225,-2.5207552909851074,0.30978721380233765,0
33,0.15985512733459473,-0.14510458707809448,-11.925500869750977,1.2156097888946533,21.868013381958008,0.3317161202430725,2.5335726737976074,-0.24844686686992645,0.0,0.0,0.0,0.0,0.0,0.0,0.0,-0.16087007149462038,0.46714029647992206,0.012939582274148655,0.5526261220606635,-0.19719058621014204,0.12492356692935701,-0.304239885737422,0.17294096115449165,-0.4876241734683165,-0.1112859010177049,-1.9465904398339495,0.13362082161506014,2.5954574932618977,0.9452522038071882,0.1728802376190821,-0.48752024683155326,-0.11147110072896137,-1.9463801863486305,0.1336059019074957,2.595550359778934,0.9452445589611904,-1.9267036349064923e-05,-6.48786016876008e-05,0.0002819002218382155,-0.0005996704613889611,0.0002593365242263957,-0.0001998581533748385,-0.0018810692496682737,0.0,0.0,0.0,0.0,0.0,0.0,0.0,-6.072353540953479e-05,0.00010392663676322966,-0.0001851997112564674,0.0002102534853190008,-1.49197075644536e-05,9.286651703632742e-05,-7.644845997800687e-06,1.9267036349064923e-05,6.48786016876008e-05,-0.0002819002218382155,0.0005996704613889611,-0.0002593365242263957,0.0001998581533748385,0.0018810692496682737,0.14510458707809448,11.925500869750977,-1.2156097888946533,-21.868013381958008,-0.3317161202430725,-2.5335726737976074,0.24844686686992645,0
34,0.16485166549682617,-0.14510458707809448,-11.925500869750977,1.2156097888946533,21.868013381958008,0.3317161202430725,2.5335726737976074,-0.24844686686992645,0.0,0.0,0.0,0.0,0.0,0.0,0.0,-0.16087007149462038,0.46714029647992206,0.012939582274148655,0.5526261220606635,-0.19719058621014204,0.12492356692935701,-0.304239885737422,0.17294096115449165,-0.4876241734683165,-0.1112859010177049,-1.9465904398339495,0.13362082161506014,2.5954574932618977,0.9452522038071882,0.1728802376190821,-0.48752024683155326,-0.11147110072896137,-1.9463801863486305,0.1336059019074957,2.595550359778934,0.9452445589611904,-1.9267036349064923e-05,-6.48786016876008e-05,0.0002819002218382155,-0.0005996704613889611,0.0002593365242263957,-0.0001998581533748385,-0.0018810692496682737,0.0,0.0,0.0,0.0,0.0,0.0,0.0,-6.072353540953479e-05,0.00010392663676322966,-0.0001851997112564674,0.0002102534853190008,-1.49197075644536e-05,9.286651703632742e-05,-7.644845997800687e-06,1.9267036349064923e-05,6.48786016876008e-05,-0.0002819002218382155,0.0005996704613889611,-0.0002593365242263957,0.0001998581533748385,0.0018810692496682737,0.14510458707809448,11.925500869750977,-1.2156097888946533,-21.868013381958008,-0.3317161202430725,-2.5335726737976074,0.24844686686992645,0
35,0.16984868049621582,-0.14510458707809448,-11.949304580688477,1.2156097888946533,21.792634963989258,0.3381248116493225,2.5207552909851074,-0.30978721380233765,0.0,0.0,0.0,0.0,0.0,0.0,0.0,-0.16098094506223337,0.4762814114276109,0.010181655647931715,0.5402564305735449,-0.19750993351820686,0.12395701966058875,-0.304062473768973,0.17294095985095442,-0.48762252069294715,-0.1112861377792629,-1.9465851501163682,0.13362010953823722,2.5954566818578906,0.9452590039505772,0.1728802376190821,-0.48752024683155326,-0.11147110072896137,-1.9463801863486305,0.1336059019074957,2.595550359778934,0.9452445589611904,0.0005457215228245497,0.00027131446719276314,0.00020116383770213742,0.0009984008939925694,-0.00014527168263209667,0.00023530161762907827,0.0009262060013171522,0.0,0.0,0.0,0.0,0.0,0.0,0.0,-6.072223187231218e-05,0.00010227386139388672,-0.0001849629496984695,0.0002049637677377092,-1.4207630741530641e-05,9.367792104342243e-05,-1.4444989386741547e-05,-0.0005457215228245497,-0.00027131446719276314,-0.00020116383770213742,-0.0009984008939925694,0.00014527168263209667,-0.00023530161762907827,-0.0009262060013171522,0.14510458707809448,11.949304580688477,-1.2156097888946533,-21.792634963989258,-0.3381248116493225,-2.5207552909851074,0.30978721380233765,0
36,0.1748499870300293,-0.14510458707809448,-11.949304580688477,1.2156097888946533,21.792634963989258,0.3381248116493225,2.5207552909851074,-0.30978721380233765,0.0,0.0,0.0,0.0,0.0,0.0,0.0,-0.16098094506223337,0.4762814114276109,0.010181655647931715,0.5402564305735449,-0.19750993351820686,0.12395701966058875,-0.304062473768973,0.17294095985095442,-0.48762252069294715,-0.1112861377792629,-1.9465851501163682,0.13362010953823722,2.5954566818578906,0.9452590039505772,0.1728802376190821,-0.48752024683155326,-0.11147110072896137,-1.9463801863486305,0.1336059019074957,2.595550359778934,0.9452445589611904,0.0005457215228245497,0.00027131446719276314,0.00020116383770213742,0.0009984008939925694,-0.00014527168263209667,0.00023530161762907827,0.0009262060013171522,0.0,0.0,0.0,0.0,0.0,0.0,0.0,-6.072223187231218e-05,0.00010227386139388672,-0.0001849629496984695,0.0002049637677377092,-1.4207630741530641e-05,9.367792104342243e-05,-1.4444989386741547e-05,-0.0005457215228245497,-0.00027131446719276314,-0.00020116383770213742,-0.0009984008939925694,0.00014527168263209667,-0.00023530161762907827,-0.0009262060013171522,0.14510458707809448,11.949304580688477,-1.2156097888946533,-21.792634963989258,-0.3381248116493225,-2.5207552909851074,0.30978721380233765,0
37,0.17984652519226074,-0.17287558317184448,-11.802515029907227,1.1918060779571533,21.840242385864258,0.3436179757118225,2.5335726737976074,-0.24844686686992645,0.0,0.0,0.0,0.0,0.0,0.0,0.0,-0.15820003019263176,0.49226513564208124,0.007313168508115355,0.5259882672417436,-0.19799176714133437,0.12213075229467836,-0.3036280063487082,0.1729429086927782,-0.48763274976341714,-0.11128446734474415,-1.9465906367552908,0.13361949918667473,2.595458558704234,0.9452521885219295,0.1728802376190821,-0.48752024683155326,-0.11147110072896137,-1.9463801863486305,0.1336059019074957,2.595550359778934,0.9452445589611904,0.0006877591425149483,-0.0011183798563730286,0.0003108546735763597,4.855394538323921e-05,-0.00014758521156857786,-0.0003389175291910451,-0.0019320529361928004,0.0,0.0,0.0,0.0,0.0,0.0,0.0,-6.267107369609115e-05,0.00011250293186387816,-0.0001866333842172191,0.00021045040666023418,-1.3597279179045074e-05,9.180107470019294e-05,-7.62956073907528e-06,-0.0006877591425149483,0.0011183798563730286,-0.0003108546735763597,-4.855394538323921e-05,0.00014758521156857786,0.0003389175291910451,0.0019320529361928004,0.17287558317184448,11.802515029907227,-1.1918060779571533,-21.840242385864258,-0.3436179757118225,-2.5335726737976074,0.24844686686992645,0
38,0.18484997749328613,-0.17287558317184448,-11.802515029907227,1.1918060779571533,21.840242385864258,0.3436179757118225,2.5335726737976074,-0.24844686686992645,0.0,0.0,0.0,0.0,0.0,0.0,0.0,-0.15820003019263176,0.49226513564208124,0.007313168508115355,0.5259882672417436,-0.19799176714133437,0.12213075229467836,-0.3036280063487082,0.1729429086927782,-0.48763274976341714,-0.11128446734474415,-1.9465906367552908,0.13361949918667473,2.595458558704234,0.9452521885219295,0.1728802376190821,-0.48752024683155326,-0.11147110072896137,-1.9463801863486305,0.1336059019074957,2.595550359778934,0.9452445589611904,0.0006877591425149483,-0.0011183798563730286,0.0003108546735763597,4.855394538323921e-05,-0.00014758521156857786,-0.0003389175291910451,-0.0019320529361928004,0.0,0.0,0.0,0.0,0.0,0.0,0.0,-6.267107369609115e-05,0.00011250293186387816,-0.0001866333842172191,0.00021045040666023418,-1.3597279179045074e-05,9.180107470019294e-05,-7.62956073907528e-06,-0.0006877591425149483,0.0011183798563730286,-0.0003108546735763597,-4.855394538323921e-05,0.00014758521156857786,0.0003389175291910451,0.0019320529361928004,0.17287558317184448,11.802515029907227,-1.1918060779571533,-21.840242385864258,-0.3436179757118225,-2.5335726737976074,0.24844686686992645,0
39,0.18984675407409668,-0.24825400114059448,-11.750940322875977,1.1680023670196533,21.840242385864258,0.3317161202430725,2.5207552909851074,-0.33725303411483765,0.0,0.0,0.0,0.0,0.0,0.0,0.0,-0.16907949792217233,0.4849005107266424,-0.005311768538599834,0.5312811314490299,-0.1969108349820024,0.12336625045538746,-0.3028077122583889,0.17294819840631986,-0.48763644982175225,-0.1112827969088889,-1.9465884910001916,0.13362082161506014,2.5954564197403442,0.9452624222209978,0.1728802376190821,-0.48752024683155326,-0.11147110072896137,-1.9463801863486305,0.1336059019074957,2.595550359778934,0.9452445589611904,0.0006918749562242215,-0.0007638290976432905,8.888506507042453e-05,-0.0003778886130444586,0.00034892195419793337,0.0002386984690736958,0.001659306149699674,0.0,0.0,0.0,0.0,0.0,0.0,0.0,-6.7960787237753e-05,0.00011620299019898805,-0.00018830382007246904,0.00020830465156107536,-1.49197075644536e-05,9.394003858975708e-05,-1.7863259807349152e-05,-0.0006918749562242215,0.0007638290976432905,-8.888506507042453e-05,0.0003778886130444586,-0.00034892195419793337,-0.0002386984690736958,-0.001659306149699674,0.24825400114059448,11.750940322875977,-1.1680023670196533,-21.840242385864258,-0.3317161202430725,-2.5207552909851074,0.33725303411483765,0
40,0.19484758377075195,-0.24825400114059448,-11.750940322875977,1.1680023670196533,21.840242385864258,0.3317161202430725,2.5207552909851074,-0.33725303411483765,0.0,0.0,0.0,0.0,0.0,0.0,0.0,-0.16907949792217233,0.4849005107266424,-0.005311768538599834,0.5312811314490299,-0.1969108349820024,0.12336625045538746,-0.3028077122583889,0.17294819840631986,-0.48763644982175225,-0.1112827969088889,-1.9465884910001916,0.13362082161506014,2.5954564197403442,0.9452624222209978,0.1728802376190821,-0.48752024683155326,-0.11147110072896137,-1.9463801863486305,0.1336059019074957,2.595550359778934,0.9452445589611904,0.0006918749562242215,-0.0007638290976432905,8.888506507042453e-05,-0.0003778886130444586,0.00034892195419793337,0.0002386984690736958,0.001659306149699674,0.0,0.0,0.0,0.0,0.0,0.0,0.0,-6.7960787237753e-05,0.00011620299019898805,-0.00018830382007246904,0.00020830465156107536,-1.49197075644536e-05,9.394003858975708e-05,-1.7863259807349152e-05,-0.0006918749562242215,0.0007638290976432905,-8.888506507042453e-05,0.0003778886130444586,-0.00034892195419793337,-0.0002386984690736958,-0.001659306149699674,0.24825400114059448,11.750940322875977,-1.1680023670196533,-21.840242385864258,-0.3317161202430725,-2.5207552909851074,0.33725303411483765,0
41,0.1998445987701416,-0.14510458707809448,-11.826318740844727,1.1680023670196533,21.868013381958008,0.3317161202430725,2.5207552909851074,-0.26858848333358765,0.0,0.0,0.0,0.0,0.0,0.0,0.0,-0.16723624204550872,0.46274508451715624,0.00917800589750965,0.5488585625798045,-0.19717038435257578,0.12572592909243518,-0.302007190386019,0.17294095985094707,-0.48763116010866664,-0.1112827969088889,-1.94659043982991,0.13362082161506014,2.5954568168624585,0.9452548285858706,0.1728802376190821,-0.48752024683155326,-0.11147110072896137,-1.9463801863486305,0.1336059019074957,2.595550359778934,0.9452445589611904,-0.0006905849558785461,0.00025458374577526626,7.052419100524732e-05,-0.0009602014774754154,0.00030482361397160903,-0.00014605753229441037,-0.0005687371926662844,0.0,0.0,0.0,0.0,0.0,0.0,0.0,-6.0722231864956955e-05,0.00011091327711337806,-0.00018830382007246904,0.00021025348127956534,-1.49197075644536e-05,9.35429164754531e-05,-1.0269624680203648e-05,0.0006905849558785461,-0.00025458374577526626,-7.052419100524732e-05,0.0009602014774754154,-0.00030482361397160903,0.00014605753229441037,0.0005687371926662844,0.14510458707809448,11.826318740844727,-1.1680023670196533,-21.868013381958008,-0.3317161202430725,-2.5207552909851074,0.26858848333358765,0
42,0.20628666877746582,-0.14510458707809448,-11.826318740844727,1.1680023670196533,21.868013381958008,0.3317161202430725,2.5207552909851074,-0.26858848333358765,0.0,0.0,0.0,0.0,0.0,0.0,0.0,-0.16723624204550872,0.46274508451715624,0.00917800589750965,0.5488585625798045,-0.19717038435257578,0.12572592909243518,-0.302007190386019,0.17294095985094707,-0.48763116010866664,-0.1112827969088889,-1.94659043982991,0.13362082161506014,2.5954568168624585,0.9452548285858706,0.1728802376190821,-0.48752024683155326,-0.11147110072896137,-1.9463801863486305,0.1336059019074957,2.595550359778934,0.9452445589611904,-0.0006905849558785461,0.00025458374577526626,7.052419100524732e-05,-0.0009602014774754154,0.00030482361397160903,-0.00014605753229441037,-0.0005687371926662844,0.0,0.0,0.0,0.0,0.0,0.0,0.0,-6.0722231864956955e-05,0.00011091327711337806,-0.00018830382007246904,0.00021025348127956534,-1.49197075644536e-05,9.35429164754531e-05,-1.0269624680203648e-05,0.0006905849558785461,-0.00025458374577526626,-7.052419100524732e-05,0.0009602014774754154,-0.00030482361397160903,0.00014605753229441037,0.0005687371926662844,0.14510458707809448,11.826318740844727,-1.1680023670196533,-21.868013381958008,-0.3317161202430725,-2.5207552909851074,0.26858848333358765,0
43,0.20984601974487305,-0.14510458707809448,-11.873926162719727,1.2156097888946533,21.840242385864258,0.3381248116493225,2.5271639823913574,-0.28232139348983765,0.0,0.0,0.0,0.0,0.0,0.0,0.0,-0.16437678900266955,0.4674194139147587,0.008981922194460151,0.5476215930355091,-0.19675079028258205,0.12526063379615615,-0.3009423349315268,0.17294096868861109,-0.4876278192369561,-0.11128613778059943,-1.9465884909880788,0.13362010953823722,2.5954548878552743,0.945259215050349,0.1728802376190821,-0.48752024683155326,-0.11147110072896137,-1.9463801863486305,0.1336059019074957,2.595550359778934,0.9452445589611904,0.00010259777752803881,0.00018222267549207203,-0.00041909828681361265,-0.0005118769005439148,-9.371665102102513e-06,0.00017238305748802394,-0.00021597940790251302,0.0,0.0,0.0,0.0,0.0,0.0,0.0,-6.0731069528974224e-05,0.00010757240540282265,-0.00018496294836194138,0.00020830463944832012,-1.4207630741530641e-05,9.54719236596624e-05,-1.4656089158626706e-05,-0.00010259777752803881,-0.00018222267549207203,0.00041909828681361265,0.0005118769005439148,9.371665102102513e-06,-0.00017238305748802394,0.00021597940790251302,0.14510458707809448,11.873926162719727,-1.2156097888946533,-21.840242385864258,-0.3381248116493225,-2.5271639823913574,0.28232139348983765,0
44,0.21486592292785645,-0.14510458707809448,-11.873926162719727,1.2156097888946533,21.840242385864258,0.3381248116493225,2.5271639823913574,-0.28232139348983765,0.0,0.0,0.0,0.0,0.0,0.0,0.0,-0.16437678900266955,0.4674194139147587,0.008981922194460151,0.5476215930355091,-0.19675079028258205,0.12526063379615615,-0.3009423349315268,0.17294096868861109,-0.4876278192369561,-0.11128613778059943,-1.9465884909880788,0.13362010953823722,2.5954548878552743,0.945259215050349,0.1728802376190821,-0.48752024683155326,-0.11147110072896137,-1.9463801863486305,0.1336059019074957,2.595550359778934,0.9452445589611904,0.00010259777752803881,0.00018222267549207203,-0.00041909828681361265,-0.0005118769005439148,-9.371665102102513e-06,0.00017238305748802394,-0.00021597940790251302,0.0,0.0,0.0,0.0,0.0,0.0,0.0,-6.0731069528974224e-05,0.00010757240540282265,-0.00018496294836194138,0.00020830463944832012,-1.4207630741530641e-05,9.54719236596624e-05,-1.4656089158626706e-05,-0.00010259777752803881,-0.00018222267549207203,0.00041909828681361265,0.0005118769005439148,9.371665102102513e-06,-0.00017238305748802394,0.00021597940790251302,0.14510458707809448,11.873926162719727,-1.2156097888946533,-21.840242385864258,-0.3381248116493225,-2.5271639823913574,0.28232139348983765,0
45,0.21985149383544922,-0.06972616910934448,-11.901697158813477,1.2909882068634033,21.816438674926758,0.3317161202430725,2.5399813652038574,-0.29605430364608765,0.0,0.0,0.0,0.0,0.0,0.0,0.0,-0.1651173943632579,0.4771277890527905,0.002951359265919562,0.5400441301954744,-0.19577928753694213,0.12509859985001895,-0.30105613863744396,0.17293567013745528,-0.48762587039512495,-0.11129142749414109,-1.9465868205522237,0.13362082161506014,2.5954535629548934,0.9452585642190852,0.1728802376190821,-0.48752024683155326,-0.11147110072896137,-1.9463801863486305,0.1336059019074957,2.595550359778934,0.9452445589611904,-0.0019215905462848313,0.0006035539240163825,-0.0019817497008568054,0.0002500031342304874,0.0003157104378145108,-0.0005004849682474981,0.00011647280761152833,0.0,0.0,0.0,0.0,0.0,0.0,0.0,-5.543251837317187e-05,0.00010562356357168845,-0.00017967323482027953,0.00020663420359312568,-1.49197075644536e-05,9.679682404062362e-05,-1.4005257894744716e-05,0.0019215905462848313,-0.0006035539240163825,0.0019817497008568054,-0.0002500031342304874,-0.0003157104378145108,0.0005004849682474981,-0.00011647280761152833,0.06972616910934448,11.901697158813477,-1.2909882068634033,-21.816438674926758,-0.3317161202430725,-2.5399813652038574,0.29605430364608765,0
46,0.22494292259216309,-0.06972616910934448,-11.901697158813477,1.2909882068634033,21.816438674926758,0.3317161202430725,2.5399813652038574,-0.29605430364608765,0.0,0.0,0.0,0.0,0.0,0.0,0.0,-0.1651173943632579,0.4771277890527905,0.002951359265919562,0.5400441301954744,-0.19577928753694213,0.12509859985001895,-0.30105613863744396,0.17293567013745528,-0.48762587039512495,-0.11129142749414109,-1.9465868205522237,0.13362082161506014,2.5954535629548934,0.9452585642190852,0.1728802376190821,-0.48752024683155326,-0.11147110072896137,-1.9463801863486305,0.1336059019074957,2.595550359778934,0.9452445589611904,-0.0019215905462848313,0.0006035539240163825,-0.0019817497008568054,0.0002500031342304874,0.0003157104378145108,-0.0005004849682474981,0.00011647280761152833,0.0,0.0,0.0,0.0,0.0,0.0,0.0,-5.543251837317187e-05,0.00010562356357168845,-0.00017967323482027953,0.00020663420359312568,-1.49197075644536e-05,9.679682404062362e-05,-1.4005257894744716e-05,0.0019215905462848313,-0.0006035539240163825,0.0019817497008568054,-0.0002500031342304874,-0.0003157104378145108,0.0005004849682474981,-0.00011647280761152833,0.06972616910934448,11.901697158813477,-1.2909882068634033,-21.816438674926758,-0.3317161202430725,-2.5399813652038574,0.29605430364608765,0
47,0.22985267639160156,-0.06972616910934448,-11.901697158813477,1.2909882068634033,21.816438674926758,0.3317161202430725,2.5399813652038574,-0.29605430364608765,0.0,0.0,0.0,0.0,0.0,0.0,0.0,-0.1651173943632579,0.4771277890527905,0.002951359265919562,0.5400441301954744,-0.19577928753694213,0.12509859985001895,-0.30105613863744396,0.17293567013745528,-0.48762587039512495,-0.11129142749414109,-1.9465868205522237,0.13362082161506014,2.5954535629548934,0.9452585642190852,0.1728802376190821,-0.48752024683155326,-0.11147110072896137,-1.9463801863486305,0.1336059019074957,2.595550359778934,0.9452445589611904,-0.0019215905462848313,0.0006035539240163825,-0.0019817497008568054,0.0002500031342304874,0.0003157104378145108,-0.0005004849682474981,0.00011647280761152833,0.0,0.0,0.0,0.0,0.0,0.0,0.0,-5.543251837317187e-05,0.00010562356357168845,-0.00017967323482027953,0.00020663420359312568,-1.49197075644536e-05,9.679682404062362e-05,-1.4005257894744716e-05,0.0019215905462848313,-0.0006035539240163825,0.0019817497008568054,-0.0002500031342304874,-0.0003157104378145108,0.0005004849682474981,-0.00011647280761152833,0.06972616910934448,11.901697158813477,-1.2909882068634033,-21.816438674926758,-0.3317161202430725,-2.5399813652038574,0.29605430364608765,0
48,0.2348470687866211,-0.06972616910934448,-11.901697158813477,1.2909882068634033,21.816438674926758,0.3317161202430725,2.5399813652038574,-0.29605430364608765,0.0,0.0,0.0,0.0,0.0,0.0,0.0,-0.1651173943632579,0.4771277890527905,0.002951359265919562,0.5400441301954744,-0.19577928753694213,0.12509859985001895,-0.30105613863744396,0.17293567013745528,-0.48762587039512495,-0.11129142749414109,-1.9465868205522237,0.13362082161506014,2.5954535629548934,0.9452585642190852,0.1728802376190821,-0.48752024683155326,-0.11147110072896137,-1.9463801863486305,0.1336059019074957,2.595550359778934,0.9452445589611904,-0.0019215905462848313,0.0006035539240163825,-0.0019817497008568054,0.0002500031342304874,0.0003157104378145108,-0.0005004849682474981,0.00011647280761152833,0.0,0.0,0.0,0.0,0.0,0.0,0.0,-5.543251837317187e-05,0.00010562356357168845,-0.00017967323482027953,0.00020663420359312568,-1.49197075644536e-05,9.679682404062362e-05,-1.4005257894744716e-05,0.0019215905462848313,-0.0006035539240163825,0.0019817497008568054,-0.0002500031342304874,-0.0003157104378145108,0.0005004849682474981,-0.00011647280761152833,0.06972616910934448,11.901697158813477,-1.2909882068634033,-21.816438674926758,-0.3317161202430725,-2.5399813652038574,0.29605430364608765,0
49,0.2402791976928711,-0.14510458707809448,-11.802515029907227,1.2156097888946533,21.816438674926758,0.3500266671180725,2.5335726737976074,-0.29605430364608765,0.0,0.0,0.0,0.0,0.0,0.0,0.0,-0.15882824759640515,0.5030023606776673,0.007939761131039946,0.5245184856242119,-0.19555591764306093,0.12319775975147955,-0.3018332451307097,0.17294095985094707,-0.4876328305445219,-0.11128613778059943,-1.9465868208792723,0.1336187871098518,2.5954573939204226,0.9452578937567466,0.1728802376190821,-0.48752024683155326,-0.11147110072896137,-1.9463801863486305,0.1336059019074957,2.595550359778934,0.9452445589611904,0.0007098780553338538,-0.00020819455329705095,-0.00015145930655474838,0.0002892674724227351,-0.0004581653021494369,-0.00032073320105513854,-0.00041584319242788206,0.0,0.0,0.0,0.0,0.0,0.0,0.0,-6.0722231864956955e-05,0.00011258371296862801,-0.00018496294836194138,0.0002066345306417361,-1.2885202356122116e-05,9.296585851137351e-05,-1.3334795556207979e-05,-0.0007098780553338538,0.00020819455329705095,0.00015145930655474838,-0.0002892674724227351,0.0004581653021494369,0.00032073320105513854,0.00041584319242788206,0.14510458707809448,11.802515029907227,-1.2156097888946533,-21.816438674926758,-0.3500266671180725,-2.5335726737976074,0.29605430364608765,0
50,0.2456371784210205,-0.14510458707809448,-11.802515029907227,1.2156097888946533,21.816438674926758,0.3500266671180725,2.5335726737976074,-0.29605430364608765,0.0,0.0,0.0,0.0,0.0,0.0,0.0,-0.15882824759640515,0.5030023606776673,0.007939761131039946,0.5245184856242119,-0.19555591764306093,0.12319775975147955,-0.3018332451307097,0.17294095985094707,-0.4876328305445219,-0.11128613778059943,-1.9465868208792723,0.1336187871098518,2.5954573939204226,0.9452578937567466,0.1728802376190821,-0.48752024683155326,-0.11147110072896137,-1.9463801863486305,0.1336059019074957,2.595550359778934,0.9452445589611904,0.0007098780553338538,-0.00020819455329705095,-0.00015145930655474838,0.0002892674724227351,-0.0004581653021494369,-0.00032073320105513854,-0.00041584319242788206,0.0,0.0,0.0,0.0,0.0,0.0,0.0,-6.0722231864956955e-05,0.00011258371296862801,-0.00018496294836194138,0.0002066345306417361,-1.2885202356122116e-05,9.296585851137351e-05,-1.3334795556207979e-05,-0.0007098780553338538,0.00020819455329705095,0.00015145930655474838,-0.0002892674724227351,0.0004581653021494369,0.00032073320105513854,0.00041584319242788206,0.14510458707809448,11.802515029907227,-1.2156097888946533,-21.816438674926758,-0.3500266671180725,-2.5335726737976074,0.29605430364608765,0
51,0.24985074996948242,-0.17287558317184448,-11.774744033813477,1.1918060779571533,21.792634963989258,0.3381248116493225,2.5207552909851074,-0.33084434270858765,0.0,0.0,0.0,0.0,0.0,0.0,0.0,-0.16161006610629358,0.4932091537975834,0.0002512600210683982,0.5328466998205073,-0.1949647310287387,0.12498344412953828,-0.303202424139506,0.1729429086927782,-0.487634779386353,-0.11128446734474416,-1.9465851530598093,0.13362010953823722,2.5954589363137615,0.9452625555757577,0.1728802376190821,-0.48752024683155326,-0.11147110072896137,-1.9463801863486305,0.1336059019074957,2.595550359778934,0.9452445589611904,0.0005437031212718001,-0.00022339572180828403,1.4939472889699794e-05,0.0007468917218058013,1.703254479330746e-05,0.0003574655682575742,0.0019381487042071542,0.0,0.0,0.0,0.0,0.0,0.0,0.0,-6.267107369609115e-05,0.00011453255479976221,-0.0001866333842172052,0.00020496671117875565,-1.4207630741530641e-05,9.142346517254651e-05,-1.7996614567250546e-05,-0.0005437031212718001,0.00022339572180828403,-1.4939472889699794e-05,-0.0007468917218058013,-1.703254479330746e-05,-0.0003574655682575742,-0.0019381487042071542,0.17287558317184448,11.774744033813477,-1.1918060779571533,-21.792634963989258,-0.3381248116493225,-2.5207552909851074,0.33084434270858765,0
52,0.254849910736084,-0.17287558317184448,-11.774744033813477,1.1918060779571533,21.792634963989258,0.3381248116493225,2.5207552909851074,-0.33084434270858765,0.0,0.0,0.0,0.0,0.0,0.0,0.0,-0.16161006610629358,0.4932091537975834,0.0002512600210683982,0.5328466998205073,-0.1949647310287387,0.12498344412953828,-0.303202424139506,0.1729429086927782,-0.487634779386353,-0.11128446734474416,-1.9465851530598093,0.13362010953823722,2.5954589363137615,0.9452625555757577,0.1728802376190821,-0.48752024683155326,-0.11147110072896137,-1.9463801863486305,0.1336059019074957,2.595550359778934,0.9452445589611904,0.0005437031212718001,-0.00022339572180828403,1.4939472889699794e-05,0.0007468917218058013,1.703254479330746e-05,0.0003574655682575742,0.0019381487042071542,0.0,0.0,0.0,0.0,0.0,0.0,0.0,-6.267107369609115e-05,0.00011453255479976221,-0.0001866333842172052,0.00020496671117875565,-1.4207630741530641e-05,9.142346517254651e-05,-1.7996614567250546e-05,-0.0005437031212718001,0.00022339572180828403,-1.4939472889699794e-05,-0.0007468917218058013,-1.703254479330746e-05,-0.0003574655682575742,-0.0019381487042071542,0.17287558317184448,11.774744033813477,-1.1918060779571533,-21.792634963989258,-0.3381248116493225,-2.5207552909851074,0.33084434270858765,0
53,0.2598452568054199,-0.19667929410934448,-11.802515029907227,1.1918060779571533,21.792634963989258,0.3381248116493225,2.5335726737976074,-0.26217979192733765,0.0,0.0,0.0,0.0,0.0,0.0,0.0,-0.1604289725549432,0.4773921857008629,0.005026692449661643,0.5433816845791879,-0.19477948999481584,0.1267163547294235,-0.30330921263635635,0.1729445879180701,-0.4876328305445219,-0.11128446734474416,-1.9465851501163847,0.13362010953823722,2.595457388609012,0.9452537187686378,0.1728802376190821,-0.48752024683155326,-0.11147110072896137,-1.9463801863486305,0.1336059019074957,2.595550359778934,0.9452445589611904,0.00025375774118608247,-0.00033706527049430463,0.0001277842947933322,0.0007415645285127182,1.0468955782881034e-05,-0.00029351365263153716,-0.0016318437457331953,0.0,0.0,0.0,0.0,0.0,0.0,0.0,-6.435029898799183e-05,0.00011258371296862801,-0.0001866333842172052,0.0002049637677541405,-1.4207630741530641e-05,9.29711699217961e-05,-9.159807447423063e-06,-0.00025375774118608247,0.00033706527049430463,-0.0001277842947933322,-0.0007415645285127182,-1.0468955782881034e-05,0.00029351365263153716,0.0016318437457331953,0.19667929410934448,11.802515029907227,-1.1918060779571533,-21.792634963989258,-0.3381248116493225,-2.5335726737976074,0.26217979192733765,0
54,0.2648482322692871,-0.19667929410934448,-11.802515029907227,1.1918060779571533,21.792634963989258,0.3381248116493225,2.5335726737976074,-0.26217979192733765,0.0,0.0,0.0,0.0,0.0,0.0,0.0,-0.1604289725549432,0.4773921857008629,0.005026692449661643,0.5433816845791879,-0.19477948999481584,0.1267163547294235,-0.30330921263635635,0.1729445879180701,-0.4876328305445219,-0.11128446734474416,-1.9465851501163847,0.13362010953823722,2.595457388609012,0.9452537187686378,0.1728802376190821,-0.48752024683155326,-0.11147110072896137,-1.9463801863486305,0.1336059019074957,2.595550359778934,0.9452445589611904,0.00025375774118608247,-0.00033706527049430463,0.0001277842947933322,0.0007415645285127182,1.0468955782881034e-05,-0.00029351365263153716,-0.0016318437457331953,0.0,0.0,0.0,0.0,0.0,0.0,0.0,-6.435029898799183e-05,0.00011258371296862801,-0.0001866333842172052,0.0002049637677541405,-1.4207630741530641e-05,9.29711699217961e-05,-9.159807447423063e-06,-0.00025375774118608247,0.00033706527049430463,-0.0001277842947933322,-0.0007415645285127182,-1.0468955782881034e-05,0.00029351365263153716,0.0016318437457331953,0.19667929410934448,11.802515029907227,-1.1918060779571533,-21.792634963989258,-0.3381248116493225,-2.5335726737976074,0.26217979192733765,0
55,0.2698698043823242,-0.14510458707809448,-11.873926162719727,1.1918060779571533,21.792634963989258,0.3500266671180725,2.5271639823913574,-0.29605430364608765,0.0,0.0,0.0,0.0,0.0,0.0,0.0,-0.1580839342246788,0.4741371418663707,0.01707623301373831,0.5439695122535442,-0.19569457813353663,0.1269686893626695,-0.3037136849247835,0.1729409598509967,-0.4876278191279398,-0.11128446734474416,-1.9465851501163682,0.1336187871098518,2.5954592426911143,0.9452574785682389,0.1728802376190821,-0.48752024683155326,-0.11147110072896137,-1.9463801863486305,0.1336059019074957,2.595550359778934,0.9452445589611904,-6.580827922637188e-06,1.8468761925045165e-05,0.0003923084056113219,0.0006222648989301293,-0.000275608190207817,-4.703112076508618e-05,0.00033680373734515704,0.0,0.0,0.0,0.0,0.0,0.0,0.0,-6.0722231914583924e-05,0.00010757229638652666,-0.0001866333842172052,0.0002049637677377092,-1.2885202356122116e-05,9.111708781972538e-05,-1.2919607048522685e-05,6.580827922637188e-06,-1.8468761925045165e-05,-0.0003923084056113219,-0.0006222648989301293,0.000275608190207817,4.703112076508618e-05,-0.00033680373734515704,0.14510458707809448,11.873926162719727,-1.1918060779571533,-21.792634963989258,-0.3500266671180725,-2.5271639823913574,0.29605430364608765,0
56,0.27487707138061523,-0.14510458707809448,-11.873926162719727,1.1918060779571533,21.792634963989258,0.3500266671180725,2.5271639823913574,-0.29605430364608765,0.0,0.0,0.0,0.0,0.0,0.0,0.0,-0.1580839342246788,0.4741371418663707,0.01707623301373831,0.5439695122535442,-0.19569457813353663,0.1269686893626695,-0.3037136849247835,0.1729409598509967,-0.4876278191279398,-0.11128446734474416,-1.9465851501163682,0.1336187871098518,2.5954592426911143,0.9452574785682389,0.1728802376190821,-0.48752024683155326,-0.11147110072896137,-1.9463801863486305,0.1336059019074957,2.595550359778934,0.9452445589611904,-6.580827922637188e-06,1.8468761925045165e-05,0.0003923084056113219,0.0006222648989301293,-0.000275608190207817,-4.703112076508618e-05,0.00033680373734515704,0.0,0.0,0.0,0.0,0.0,0.0,0.0,-6.0722231914583924e-05,0.00010757229638652666,-0.0001866333842172052,0.0002049637677377092,-1.2885202356122116e-05,9.111708781972538e-05,-1.2919607048522685e-05,6.580827922637188e-06,-1.8468761925045165e-05,-0.0003923084056113219,-0.0006222648989301293,0.000275608190207817,4.703112076508618e-05,-0.00033680373734515704,0.14510458707809448,11.873926162719727,-1.1918060779571533,-21.792634963989258,-0.3500266671180725,-2.5271639823913574,0.29605430364608765,0
57,0.27986955642700195,-0.14510458707809448,-11.949304580688477,1.2156097888946533,21.868013381958008,0.3317161202430725,2.5271639823913574,-0.28232139348983765,0.0,0.0,0.0,0.0,0.0,0.0,0.0,-0.16281151069618288,0.4649760839919014,0.0070910107558383095,0.5438062722483,-0.19509215160261403,0.12726991599177465,-0.30288274736866794,0.172940986219257,-0.48762252952341384,-0.11128613778059943,-1.94659043982991,0.13362082177707044,2.595458812446688,0.9452563142357078,0.1728802376190821,-0.48752024683155326,-0.11147110072896137,-1.9463801863486305,0.1336059019074957,2.595550359778934,0.9452445589611904,0.00013039268493305275,0.0006662586427612384,-0.0005536972017868505,-0.0005161803629847647,0.0003767397085274178,6.608270873634246e-05,-0.0006517895854624528,0.0,0.0,0.0,0.0,0.0,0.0,0.0,-6.074860017488137e-05,0.00010228269186057792,-0.00018496294836194138,0.00021025348127956534,-1.4919869574747668e-05,9.154733224603362e-05,-1.1755274517355474e-05,-0.00013039268493305275,-0.0006662586427612384,0.0005536972017868505,0.0005161803629847647,-0.0003767397085274178,-6.608270873634246e-05,0.0006517895854624528,0.14510458707809448,11.949304580688477,-1.2156097888946533,-21.868013381958008,-0.3317161202430725,-2.5271639823913574,0.28232139348983765,0
58,0.2848482131958008,-0.14510458707809448,-11.949304580688477,1.2156097888946533,21.868013381958008,0.3317161202430725,2.5271639823913574,-0.28232139348983765,0.0,0.0,0.0,0.0,0.0,0.0,0.0,-0.16281151069618288,0.4649760839919014,0.0070910107558383095,0.5438062722483,-0.19509215160261403,0.12726991599177465,-0.30288274736866794,0.172940986219257,-0.48762252952341384,-0.11128613778059943,-1.94659043982991,0.13362082177707044,2.595458812446688,0.9452563142357078,0.1728802376190821,-0.48752024683155326,-0.11147110072896137,-1.9463801863486305,0.1336059019074957,2.595550359778934,0.9452445589611904,0.00013039268493305275,0.0006662586427612384,-0.0005536972017868505,-0.0005161803629847647,0.0003767397085274178,6.608270873634246e-05,-0.0006517895854624528,0.0,0.0,0.0,0.0,0.0,0.0,0.0,-6.074860017488137e-05,0.00010228269186057792,-0.00018496294836194138,0.00021025348127956534,-1.4919869574747668e-05,9.154733224603362e-05,-1.1755274517355474e-05,-0.00013039268493305275,-0.0006662586427612384,0.0005536972017868505,0.0005161803629847647,-0.0003767397085274178,-6.608270873634246e-05,0.0006517895854624528,0.14510458707809448,11.949304580688477,-1.2156097888946533,-21.868013381958008,-0.3317161202430725,-2.5271639823913574,0.28232139348983765,0
59,0.2898440361022949,-0.14510458707809448,-11.901697158813477,1.1918060779571533,21.792634963989258,0.3436179757118225,2.5207552909851074,-0.28964561223983765,0.0,0.0,0.0,0.0,0.0,0.0,0.0,-0.15646734867760614,0.4859639247956794,0.00748750673555335,0.5257487493205607,-0.19506662087001306,0.12474492823963786,-0.301910487095202,0.17294095995960748,-0.4876251521959484,-0.11128446734474416,-1.9465851501163682,0.13361949918667565,2.595459625085225,0.945257145973681,0.1728802376190821,-0.48752024683155326,-0.11147110072896137,-1.9463801863486305,0.1336059019074957,2.595550359778934,0.9452445589611904,0.00010843980884478485,0.00022994555456849256,5.872935236297064e-05,0.0007877174217923641,-0.00010566928580652894,0.0003687710353680039,0.00011827649175081279,0.0,0.0,0.0,0.0,0.0,0.0,0.0,-6.0722340525370955e-05,0.00010490536439511366,-0.0001866333842172052,0.0002049637677377092,-1.3597279179961008e-05,9.07346937091269e-05,-1.2587012490627991e-05,-0.00010843980884478485,-0.00022994555456849256,-5.872935236297064e-05,-0.0007877174217923641,0.00010566928580652894,-0.0003687710353680039,-0.00011827649175081279,0.14510458707809448,11.901697158813477,-1.1918060779571533,-21.792634963989258,-0.3436179757118225,-2.5207552909851074,0.28964561223983765,0
60,0.2948429584503174,-0.14510458707809448,-11.901697158813477,1.1918060779571533,21.792634963989258,0.3436179757118225,2.5207552909851074,-0.28964561223983765,0.0,0.0,0.0,0.0,0.0,0.0,0.0,-0.15646734867760614,0.4859639247956794,0.00748750673555335,0.5257487493205607,-0.19506662087001306,0.12474492823963786,-0.301910487095202,0.17294095995960748,-0.4876251521959484,-0.11128446734474416,-1.9465851501163682,0.13361949918667565,2.595459625085225,0.945257145973681,0.1728802376190821,-0.48752024683155326,-0.11147110072896137,-1.9463801863486305,0.1336059019074957,2.595550359778934,0.9452445589611904,0.00010843980884478485,0.00022994555456849256,5.872935236297064e-05,0.0007877174217923641,-0.00010566928580652894,0.0003687710353680039,0.00011827649175081279,0.0,0.0,0.0,0.0,0.0,0.0,0.0,-6.0722340525370955e-05,0.00010490536439511366,-0.0001866333842172052,0.0002049637677377092,-1.3597279179961008e-05,9.07346937091269e-05,-1.2587012490627991e-05,-0.00010843980884478485,-0.00022994555456849256,-5.872935236297064e-05,-0.0007877174217923641,0.00010566928580652894,-0.0003687710353680039,-0.00011827649175081279,0.14510458707809448,11.901697158813477,-1.1918060779571533,-21.792634963989258,-0.3436179757118225,-2.5207552909851074,0.28964561223983765,0
61,0.2998499870300293,-0.17287558317184448,-11.873926162719727,1.1441986560821533,21.816438674926758,0.3436179757118225,2.5271639823913574,-0.28232139348983765,0.0,0.0,0.0,0.0,0.0,0.0,0.0,-0.1578277666678093,0.48179546905590026,0.004451548875244853,0.5244007057242268,-0.19491022377478692,0.12463295916301224,-0.30170997608186934,0.17294362063714697,-0.4876278182517554,-0.11128112647303363,-1.9465868205522237,0.13361949918667476,2.5954560991510345,0.9452559521948224,0.1728802376190821,-0.48752024683155326,-0.11147110072896137,-1.9463801863486305,0.1336059019074957,2.595550359778934,0.9452445589611904,0.0002994682216305518,0.0007017670588893027,0.0008425023751822074,9.988929008338237e-05,-0.0002626642982134218,-0.0001706415781148782,-0.0004060240111777989,0.0,0.0,0.0,0.0,0.0,0.0,0.0,-6.338301806485536e-05,0.00010757142020212385,-0.00018997425592773287,0.00020663420359312568,-1.359727917907283e-05,9.426062789952283e-05,-1.139323363197331e-05,-0.0002994682216305518,-0.0007017670588893027,-0.0008425023751822074,-9.988929008338237e-05,0.0002626642982134218,0.0001706415781148782,0.0004060240111777989,0.17287558317184448,11.873926162719727,-1.1441986560821533,-21.816438674926758,-0.3436179757118225,-2.5271639823913574,0.28232139348983765,0
62,0.3048567771911621,-0.17287558317184448,-11.873926162719727,1.1441986560821533,21.816438674926758,0.3436179757118225,2.5271639823913574,-0.28232139348983765,0.0,0.0,0.0,0.0,0.0,0.0,0.0,-0.1578277666678093,0.48179546905590026,0.004451548875244853,0.5244007057242268,-0.19491022377478692,0.12463295916301224,-0.30170997608186934,0.17294362063714697,-0.4876278182517554,-0.11128112647303363,-1.9465868205522237,0.13361949918667476,2.5954560991510345,0.9452559521948224,0.1728802376190821,-0.48752024683155326,-0.11147110072896137,-1.9463801863486305,0.1336059019074957,2.595550359778934,0.9452445589611904,0.0002994682216305518,0.0007017670588893027,0.0008425023751822074,9.988929008338237e-05,-0.0002626642982134218,-0.0001706415781148782,-0.0004060240111777989,0.0,0.0,0.0,0.0,0.0,0.0,0.0,-6.338301806485536e-05,0.00010757142020212385,-0.00018997425592773287,0.00020663420359312568,-1.359727917907283e-05,9.426062789952283e-05,-1.139323363197331e-05,-0.0002994682216305518,-0.0007017670588893027,-0.0008425023751822074,-9.988929008338237e-05,0.0002626642982134218,0.0001706415781148782,0.0004060240111777989,0.17287558317184448,11.873926162719727,-1.1441986560821533,-21.816438674926758,-0.3436179757118225,-2.5271639823913574,0.28232139348983765,0
63,0.30985569953918457,-0.22445029020309448,-11.802515029907227,1.1918060779571533,21.840242385864258,0.3381248116493225,2.5079379081726074,-0.27591270208358765,0.0,0.0,0.0,0.0,0.0,0.0,0.0,-0.15923076995230467,0.4777681912002238,0.006546315119195989,0.5276118403536203,-0.19554395350713635,0.12431481964877172,-0.30170355911368457,0.1729465543508314,-0.4876328302174564,-0.11128446734474416,-1.9465884909880788,0.13362010953823725,2.5954603415239696,0.945256326244937,0.1728802376190821,-0.48752024683155326,-0.11147110072896137,-1.9463801863486305,0.1336059019074957,2.595550359778934,0.9452445589611904,0.0009118502635803825,-0.0002778771758321143,-0.00028822322813943545,-0.0006303283998221705,-0.00025355268008288534,0.0005512039381585271,-0.0006565191978880573,0.0,0.0,0.0,0.0,0.0,0.0,0.0,-6.631673174928299e-05,0.00011258338590314221,-0.0001866333842172052,0.00020830463944832012,-1.4207630741558397e-05,9.001825496435245e-05,-1.1767283746633161e-05,-0.0009118502635803825,0.0002778771758321143,0.00028822322813943545,0.0006303283998221705,0.00025355268008288534,-0.0005512039381585271,0.0006565191978880573,0.22445029020309448,11.802515029907227,-1.1918060779571533,-21.840242385864258,-0.3381248116493225,-2.5079379081726074,0.27591270208358765,0
64,0.3148622512817383,-0.22445029020309448,-11.802515029907227,1.1918060779571533,21.840242385864258,0.3381248116493225,2.5079379081726074,-0.27591270208358765,0.0,0.0,0.0,0.0,0.0,0.0,0.0,-0.15923076995230467,0.4777681912002238,0.006546315119195989,0.5276118403536203,-0.19554395350713635,0.12431481964877172,-0.30170355911368457,0.1729465543508314,-0.4876328302174564,-0.11128446734474416,-1.9465884909880788,0.13362010953823725,2.5954603415239696,0.945256326244937,0.1728802376190821,-0.48752024683155326,-0.11147110072896137,-1.9463801863486305,0.1336059019074957,2.595550359778934,0.9452445589611904,0.0009118502635803825,-0.0002778771758321143,-0.00028822322813943545,-0.0006303283998221705,-0.00025355268008288534,0.0005512039381585271,-0.0006565191978880573,0.0,0.0,0.0,0.0,0.0,0.0,0.0,-6.631673174928299e-05,0.00011258338590314221,-0.0001866333842172052,0.00020830463944832012,-1.4207630741558397e-05,9.001825496435245e-05,-1.1767283746633161e-05,-0.0009118502635803825,0.0002778771758321143,0.00028822322813943545,0.0006303283998221705,0.00025355268008288534,-0.0005512039381585271,0.0006565191978880573,0.22445029020309448,11.802515029907227,-1.1918060779571533,-21.840242385864258,-0.3381248116493225,-2.5079379081726074,0.27591270208358765,0
65,0.3198583126068115,-0.14510458707809448,-11.802515029907227,1.2433807849884033,21.816438674926758,0.3317161202430725,2.5207552909851074,-0.28232139348983765,0.0,0.0,0.0,0.0,0.0,0.0,0.0,-0.15915549862686068,0.47287887307841003,0.013938630260066438,0.5333630703165658,-0.19676509829561606,0.12442127107366338,-0.30175231154648346,0.1729409598509967,-0.4876328305445213,-0.11128808662243057,-1.9465868205522237,0.13362082161506017,2.5954598636116577,0.9452564351394822,0.1728802376190821,-0.48752024683155326,-0.11147110072896137,-1.9463801863486305,0.1336059019074957,2.595550359778934,0.9452445589611904,-0.0001237802876951652,-0.0002800557576984293,-0.0012110990432106041,-0.0001297508536200593,0.00029467607516096817,6.141909489652787e-05,-0.0009354650198051688,0.0,0.0,0.0,0.0,0.0,0.0,0.0,-6.0722231914583924e-05,0.00011258371296801739,-0.0001830141065307933,0.00020663420359312568,-1.4919707564481355e-05,9.049616727629939e-05,-1.1876178291791994e-05,0.0001237802876951652,0.0002800557576984293,0.0012110990432106041,0.0001297508536200593,-0.00029467607516096817,-6.141909489652787e-05,0.0009354650198051688,0.14510458707809448,11.802515029907227,-1.2433807849884033,-21.816438674926758,-0.3317161202430725,-2.5207552909851074,0.28232139348983765,0
66,0.32488560676574707,-0.14510458707809448,-11.802515029907227,1.2433807849884033,21.816438674926758,0.3317161202430725,2.5207552909851074,-0.28232139348983765,0.0,0.0,0.0,0.0,0.0,0.0,0.0,-0.15915549862686068,0.47287887307841003,0.013938630260066438,0.5333630703165658,-0.19676509829561606,0.12442127107366338,-0.30175231154648346,0.1729409598509967,-0.4876328305445213,-0.11128808662243057,-1.9465868205522237,0.13362082161506017,2.5954598636116577,0.9452564351394822,0.1728802376190821,-0.48752024683155326,-0.11147110072896137,-1.9463801863486305,0.1336059019074957,2.595550359778934,0.9452445589611904,-0.0001237802876951652,-0.0002800557576984293,-0.0012110990432106041,-0.0001297508536200593,0.00029467607516096817,6.141909489652787e-05,-0.0009354650198051688,0.0,0.0,0.0,0.0,0.0,0.0,0.0,-6.0722231914583924e-05,0.00011258371296801739,-0.0001830141065307933,0.00020663420359312568,-1.4919707564481355e-05,9.049616727629939e-05,-1.1876178291791994e-05,0.0001237802876951652,0.0002800557576984293,0.0012110990432106041,0.0001297508536200593,-0.00029467607516096817,-6.141909489652787e-05,0.0009354650198051688,0.14510458707809448,11.802515029907227,-1.2433807849884033,-21.816438674926758,-0.3317161202430725,-2.5207552909851074,0.28232139348983765,0
67,0.329878568649292,-0.19667929410934448,-11.850122451782227,1.2156097888946533,21.868013381958008,0.3436179757118225,2.5271639823913574,-0.30337852239608765,0.0,0.0,0.0,0.0,0.0,0.0,0.0,-0.16740178953711862,0.46815178863940354,0.0011058997882771305,0.541891833379433,-0.1959114589558949,0.1254691458301514,-0.3021325649701996,0.17294457912863345,-0.4876273439055994,-0.11128613778059943,-1.94659043982991,0.13361949918667476,2.5954592693280203,0.9452583321751535,0.1728802376190821,-0.48752024683155326,-0.11147110072896137,-1.9463801863486305,0.1336059019074957,2.595550359778934,0.9452445589611904,0.0004647181815980408,0.0003818140965028278,8.900388957719988e-05,-0.0006218639950649407,-0.00014378653482895846,-7.852969759600091e-05,0.00013542163269784593,0.0,0.0,0.0,0.0,0.0,0.0,0.0,-6.43415095513411e-05,0.00010709707404615854,-0.00018496294836194138,0.00021025348127956534,-1.359727917907283e-05,9.109045091371115e-05,-1.3773213963119701e-05,-0.0004647181815980408,-0.0003818140965028278,-8.900388957719988e-05,0.0006218639950649407,0.00014378653482895846,7.852969759600091e-05,-0.00013542163269784593,0.19667929410934448,11.850122451782227,-1.2156097888946533,-21.868013381958008,-0.3436179757118225,-2.5271639823913574,0.30337852239608765,0
68,0.3348522186279297,-0.19667929410934448,-11.850122451782227,1.2156097888946533,21.868013381958008,0.3436179757118225,2.5271639823913574,-0.30337852239608765,0.0,0.0,0.0,0.0,0.0,0.0,0.0,-0.16740178953711862,0.46815178863940354,0.0011058997882771305,0.541891833379433,-0.1959114589558949,0.1254691458301514,-0.3021325649701996,0.17294457912863345,-0.4876273439055994,-0.11128613778059943,-1.94659043982991,0.13361949918667476,2.5954592693280203,0.9452583321751535,0.1728802376190821,-0.48752024683155326,-0.11147110072896137,-1.9463801863486305,0.1336059019074957,2.595550359778934,0.9452445589611904,0.0004647181815980408,0.0003818140965028278,8.900388957719988e-05,-0.0006218639950649407,-0.00014378653482895846,-7.852969759600091e-05,0.00013542163269784593,0.0,0.0,0.0,0.0,0.0,0.0,0.0,-6.43415095513411e-05,0.00010709707404615854,-0.00018496294836194138,0.00021025348127956534,-1.359727917907283e-05,9.109045091371115e-05,-1.3773213963119701e-05,-0.0004647181815980408,-0.0003818140965028278,-8.900388957719988e-05,0.0006218639950649407,0.00014378653482895846,7.852969759600091e-05,-0.00013542163269784593,0.19667929410934448,11.850122451782227,-1.2156097888946533,-21.868013381958008,-0.3436179757118225,-2.5271639823913574,0.30337852239608765,0
69,0.3398933410644531,-0.19667929410934448,-11.850122451782227,1.2156097888946533,21.868013381958008,0.3436179757118225,2.5271639823913574,-0.30337852239608765,0.0,0.0,0.0,0.0,0.0,0.0,0.0,-0.16740178953711862,0.46815178863940354,0.0011058997882771305,0.541891833379433,-0.1959114589558949,0.1254691458301514,-0.3021325649701996,0.17294457912863345,-0.4876273439055994,-0.11128613778059943,-1.94659043982991,0.13361949918667476,2.5954592693280203,0.9452583321751535,0.1728802376190821,-0.48752024683155326,-0.11147110072896137,-1.9463801863486305,0.1336059019074957,2.595550359778934,0.9452445589611904,0.0004647181815980408,0.0003818140965028278,8.900388957719988e-05,-0.0006218639950649407,-0.00014378653482895846,-7.852969759600091e-05,0.00013542163269784593,0.0,0.0,0.0,0.0,0.0,0.0,0.0,-6.43415095513411e-05,0.00010709707404615854,-0.00018496294836194138,0.00021025348127956534,-1.359727917907283e-05,9.109045091371115e-05,-1.3773213963119701e-05,-0.0004647181815980408,-0.0003818140965028278,-8.900388957719988e-05,0.0006218639950649407,0.00014378653482895846,7.852969759600091e-05,-0.00013542163269784593,0.19667929410934448,11.850122451782227,-1.2156097888946533,-21.868013381958008,-0.3436179757118225,-2.5271639823913574,0.30337852239608765,0
70,0.3448789119720459,-0.19667929410934448,-11.850122451782227,1.2156097888946533,21.868013381958008,0.3436179757118225,2.5271639823913574,-0.30337852239608765,0.0,0.0,0.0,0.0,0.0,0.0,0.0,-0.16740178953711862,0.46815178863940354,0.0011058997882771305,0.541891833379433,-0.1959114589558949,0.1254691458301514,-0.3021325649701996,0.17294457912863345,-0.4876273439055994,-0.11128613778059943,-1.94659043982991,0.13361949918667476,2.5954592693280203,0.9452583321751535,0.1728802376190821,-0.48752024683155326,-0.11147110072896137,-1.9463801863486305,0.1336059019074957,2.595550359778934,0.9452445589611904,0.0004647181815980408,0.0003818140965028278,8.900388957719988e-05,-0.0006218639950649407,-0.00014378653482895846,-7.852969759600091e-05,0.00013542163269784593,0.0,0.0,0.0,0.0,0.0,0.0,0.0,-6.43415095513411e-05,0.00010709707404615854,-0.00018496294836194138,0.00021025348127956534,-1.359727917907283e-05,9.109045091371115e-05,-1.3773213963119701e-05,-0.0004647181815980408,-0.0003818140965028278,-8.900388957719988e-05,0.0006218639950649407,0.00014378653482895846,7.852969759600091e-05,-0.00013542163269784593,0.19667929410934448,11.850122451782227,-1.2156097888946533,-21.868013381958008,-0.3436179757118225,-2.5271639823913574,0.30337852239608765,0
71,0.3498659133911133,-0.14510458707809448,-11.850122451782227,1.2156097888946533,21.816438674926758,0.3381248116493225,2.5335726737976074,-0.28964561223983765,0.0,0.0,0.0,0.0,0.0,0.0,0.0,-0.16381484393710158,0.4683241592536989,0.008914455015781947,0.5444443916552613,-0.19544543548657548,0.12542540959846504,-0.3021825263326356,0.17294119716573644,-0.4876294896606984,-0.11128613778059943,-1.9465868205522237,0.13362010953823725,2.595458451913834,0.9452567659949882,0.1728802376190821,-0.48752024683155326,-0.11147110072896137,-1.9463801863486305,0.1336059019074957,2.595550359778934,0.9452445589611904,-6.282739469072575e-05,-0.00026434998886276786,-0.00011108967328391024,0.0006760334390040325,-9.811603718796228e-05,-0.00028717042775032616,0.000568420689181213,0.0,0.0,0.0,0.0,0.0,0.0,0.0,-6.095954665433223e-05,0.00010924282914515082,-0.00018496294836194138,0.00020663420359312568,-1.4207630741558397e-05,9.190786509982729e-05,-1.2207033797784206e-05,6.282739469072575e-05,0.00026434998886276786,0.00011108967328391024,-0.0006760334390040325,9.811603718796228e-05,0.00028717042775032616,-0.000568420689181213,0.14510458707809448,11.850122451782227,-1.2156097888946533,-21.816438674926758,-0.3381248116493225,-2.5335726737976074,0.28964561223983765,0
72,0.3548598289489746,-0.14510458707809448,-11.850122451782227,1.2156097888946533,21.816438674926758,0.3381248116493225,2.5335726737976074,-0.28964561223983765,0.0,0.0,0.0,0.0,0.0,0.0,0.0,-0.16381484393710158,0.4683241592536989,0.008914455015781947,0.5444443916552613,-0.19544543548657548,0.12542540959846504,-0.3021825263326356,0.17294119716573644,-0.4876294896606984,-0.11128613778059943,-1.9465868205522237,0.13362010953823725,2.595458451913834,0.9452567659949882,0.1728802376190821,-0.48752024683155326,-0.11147110072896137,-1.9463801863486305,0.1336059019074957,2.595550359778934,0.9452445589611904,-6.282739469072575e-05,-0.00026434998886276786,-0.00011108967328391024,0.0006760334390040325,-9.811603718796228e-05,-0.00028717042775032616,0.000568420689181213,0.0,0.0,0.0,0.0,0.0,0.0,0.0,-6.095954665433223e-05,0.00010924282914515082,-0.00018496294836194138,0.00020663420359312568,-1.4207630741558397e-05,9.190786509982729e-05,-1.2207033797784206e-05,6.282739469072575e-05,0.00026434998886276786,0.00011108967328391024,-0.0006760334390040325,9.811603718796228e-05,0.00028717042775032616,-0.000568420689181213,0.14510458707809448,11.850122451782227,-1.2156097888946533,-21.816438674926758,-0.3381248116493225,-2.5335726737976074,0.28964561223983765,0
73,0.3598484992980957,-0.14510458707809448,-11.850122451782227,1.2433807849884033,21.792634963989258,0.3436179757118225,2.5143465995788574,-0.27591270208358765,0.0,0.0,0.0,0.0,0.0,0.0,0.0,-0.1579531125030554,0.4850309201003887,0.01230417009209426,0.5364943574727437,-0.1954946638752051,0.12454864555874783,-0.3012591592892184,0.17294095985228672,-0.487629489563795,-0.11128808662243057,-1.9465851511338532,0.13361949967270562,2.5954591759927266,0.9452552401158545,0.1728802376190821,-0.48752024683155326,-0.11147110072896137,-1.9463801863486305,0.1336059019074957,2.595550359778934,0.9452445589611904,0.00030354989739202453,0.00032161644371835166,-0.0007074290611198307,0.001141543573198359,-0.00025260755833487694,0.00030889370904800957,-0.000469377428035697,0.0,0.0,0.0,0.0,0.0,0.0,0.0,-6.072223320460757e-05,0.0001092427322417211,-0.0001830141065307933,0.00020496478522269435,-1.3597765209927282e-05,9.118378620742718e-05,-1.0681154664071713e-05,-0.00030354989739202453,-0.00032161644371835166,0.0007074290611198307,-0.001141543573198359,0.00025260755833487694,-0.00030889370904800957,0.000469377428035697,0.14510458707809448,11.850122451782227,-1.2433807849884033,-21.792634963989258,-0.3436179757118225,-2.5143465995788574,0.27591270208358765,0
74,0.36484837532043457,-0.14510458707809448,-11.850122451782227,1.2433807849884033,21.792634963989258,0.3436179757118225,2.5143465995788574,-0.27591270208358765,0.0,0.0,0.0,0.0,0.0,0.0,0.0,-0.1579531125030554,0.4850309201003887,0.01230417009209426,0.5364943574727437,-0.1954946638752051,0.12454864555874783,-0.3012591592892184,0.17294095985228672,-0.487629489563795,-0.11128808662243057,-1.9465851511338532,0.13361949967270562,2.5954591759927266,0.9452552401158545,0.1728802376190821,-0.48752024683155326,-0.11147110072896137,-1.9463801863486305,0.1336059019074957,2.595550359778934,0.9452445589611904,0.00030354989739202453,0.00032161644371835166,-0.0007074290611198307,0.001141543573198359,-0.00025260755833487694,0.00030889370904800957,-0.000469377428035697,0.0,0.0,0.0,0.0,0.0,0.0,0.0,-6.072223320460757e-05,0.0001092427322417211,-0.0001830141065307933,0.00020496478522269435,-1.3597765209927282e-05,9.118378620742718e-05,-1.0681154664071713e-05,-0.00030354989739202453,-0.00032161644371835166,0.0007074290611198307,-0.001141543573198359,0.00025260755833487694,-0.00030889370904800957,0.000469377428035697,0.14510458707809448,11.850122451782227,-1.2433807849884033,-21.792634963989258,-0.3436179757118225,-2.5143465995788574,0.27591270208358765,0
75,0.3698463439941406,-0.17287558317184448,-11.826318740844727,1.2156097888946533,21.792634963989258,0.3381248116493225,2.5271639823913574,-0.28964561223983765,0.0,0.0,0.0,0.0,0.0,0.0,0.0,-0.15680156027412637,0.48994883462287336,0.00879978216795262,0.5341269832245595,-0.19509780837119486,0.12432114965615983,-0.30091998560990063,0.1729429086927782,-0.48763116010866603,-0.11128613778059943,-1.9465872958835857,0.13362010953823997,2.5954545693635986,0.945256766160304,0.1728802376190821,-0.48752024683155326,-0.11147110072896137,-1.9463801863486305,0.1336059019074957,2.595550359778934,0.9452445589611904,0.00032724526613943134,0.00010109830566725835,-0.00018024473787369818,0.0005961106567015692,-4.75395595737014e-06,-1.6254006980048637e-05,2.130161545765184e-05,0.0,0.0,0.0,0.0,0.0,0.0,0.0,-6.267107369609115e-05,0.00011091327711276744,-0.00018496294836194138,0.00020710953495517437,-1.4207630744278443e-05,9.57904153353617e-05,-1.2207199113545286e-05,-0.00032724526613943134,-0.00010109830566725835,0.00018024473787369818,-0.0005961106567015692,4.75395595737014e-06,1.6254006980048637e-05,-2.130161545765184e-05,0.17287558317184448,11.826318740844727,-1.2156097888946533,-21.792634963989258,-0.3381248116493225,-2.5271639823913574,0.28964561223983765,0
76,0.37487006187438965,-0.17287558317184448,-11.826318740844727,1.2156097888946533,21.792634963989258,0.3381248116493225,2.5271639823913574,-0.28964561223983765,0.0,0.0,0.0,0.0,0.0,0.0,0.0,-0.15680156027412637,0.48994883462287336,0.00879978216795262,0.5341269832245595,-0.19509780837119486,0.12432114965615983,-0.30091998560990063,0.1729429086927782,-0.48763116010866603,-0.11128613778059943,-1.9465872958835857,0.13362010953823997,2.5954545693635986,0.945256766160304,0.1728802376190821,-0.48752024683155326,-0.11147110072896137,-1.9463801863486305,0.1336059019074957,2.595550359778934,0.9452445589611904,0.00032724526613943134,0.00010109830566725835,-0.00018024473787369818,0.0005961106567015692,-4.75395595737014e-06,-1.6254006980048637e-05,2.130161545765184e-05,0.0,0.0,0.0,0.0,0.0,0.0,0.0,-6.267107369609115e-05,0.00011091327711276744,-0.00018496294836194138,0.00020710953495517437,-1.4207630744278443e-05,9.57904153353617e-05,-1.2207199113545286e-05,-0.00032724526613943134,-0.00010109830566725835,0.00018024473787369818,-0.0005961106567015692,4.75395595737014e-06,1.6254006980048637e-05,-2.130161545765184e-05,0.17287558317184448,11.826318740844727,-1.2156097888946533,-21.792634963989258,-0.3381248116493225,-2.5271639823913574,0.28964561223983765,0
77,0.37989234924316406,-0.17287558317184448,-11.826318740844727,1.2156097888946533,21.816438674926758,0.3436179757118225,2.5271639823913574,-0.26217979192733765,0.0,0.0,0.0,0.0,0.0,0.0,0.0,-0.15580896114719922,0.4833078182560567,0.01677326542731793,0.5378885166832701,-0.19526061480277343,0.12523790463889434,-0.3019963000108592,0.1729429086927782,-0.48763116010866664,-0.11128613778059943,-1.9465868206733528,0.13361949918667476,2.595458219802488,0.9452569741140859,0.1728802376190821,-0.48752024683155326,-0.11147110072896137,-1.9463801863486305,0.1336059019074957,2.595550359778934,0.9452445589611904,-5.471831722241454e-05,-3.8303754283871794e-05,-0.00021704861275464895,0.00023151084644516053,-0.00022919822022063988,-0.00018856285660292802,-0.001428167105125975,0.0,0.0,0.0,0.0,0.0,0.0,0.0,-6.267107369609115e-05,0.00011091327711337806,-0.00018496294836194138,0.00020663432472223242,-1.359727917907283e-05,9.213997644597072e-05,-1.2415152895517423e-05,5.471831722241454e-05,3.8303754283871794e-05,0.00021704861275464895,-0.00023151084644516053,0.00022919822022063988,0.00018856285660292802,0.001428167105125975,0.17287558317184448,11.826318740844727,-1.2156097888946533,-21.816438674926758,-0.3436179757118225,-2.5271639823913574,0.26217979192733765,0
78,0.3848586082458496,-0.17287558317184448,-11.826318740844727,1.2156097888946533,21.816438674926758,0.3436179757118225,2.5271639823913574,-0.26217979192733765,0.0,0.0,0.0,0.0,0.0,0.0,0.0,-0.15580896114719922,0.4833078182560567,0.01677326542731793,0.5378885166832701,-0.19526061480277343,0.12523790463889434,-0.3019963000108592,0.1729429086927782,-0.48763116010866664,-0.11128613778059943,-1.9465868206733528,0.13361949918667476,2.595458219802488,0.9452569741140859,0.1728802376190821,-0.48752024683155326,-0.11147110072896137,-1.9463801863486305,0.1336059019074957,2.595550359778934,0.9452445589611904,-5.471831722241454e-05,-3.8303754283871794e-05,-0.00021704861275464895,0.00023151084644516053,-0.00022919822022063988,-0.00018856285660292802,-0.001428167105125975,0.0,0.0,0.0,0.0,0.0,0.0,0.0,-6.267107369609115e-05,0.00011091327711337806,-0.00018496294836194138,0.00020663432472223242,-1.359727917907283e-05,9.213997644597072e-05,-1.2415152895517423e-05,5.471831722241454e-05,3.8303754283871794e-05,0.00021704861275464895,-0.00023151084644516053,0.00022919822022063988,0.00018856285660292802,0.001428167105125975,0.17287558317184448,11.826318740844727,-1.2156097888946533,-21.816438674926758,-0.3436179757118225,-2.5271639823913574,0.26217979192733765,0
79,0.3916440010070801,-0.17287558317184448,-11.873926162719727,1.2156097888946533,21.816438674926758,0.3436179757118225,2.5335726737976074,-0.28232139348983765,0.0,0.0,0.0,0.0,0.0,0.0,0.0,-0.1598033782487005,0.4671335380400226,0.013482458286080384,0.5475517835897546,-0.19507351619398247,0.1265418403140707,-0.302023207692893,0.1729429086927782,-0.4876278191279398,-0.11128613778059943,-1.9465868205522243,0.13361949918667476,2.595457158302026,0.9452559522110795,0.1728802376190821,-0.48752024683155326,-0.11147110072896137,-1.9463801863486305,0.1336059019074957,2.595550359778934,0.9452445589611904,0.0004806839282660726,-4.3937133968820876e-05,-0.0005919667355771014,0.000687835545941736,0.00011681612980932155,-0.00028435047428747903,-0.0002137356566688851,0.0,0.0,0.0,0.0,0.0,0.0,0.0,-6.267107369609115e-05,0.00010757229638652666,-0.00018496294836194138,0.0002066342035937918,-1.359727917907283e-05,9.320147690816682e-05,-1.1393249889080082e-05,-0.0004806839282660726,4.3937133968820876e-05,0.0005919667355771014,-0.000687835545941736,-0.00011681612980932155,0.00028435047428747903,0.0002137356566688851,0.17287558317184448,11.873926162719727,-1.2156097888946533,-21.816438674926758,-0.3436179757118225,-2.5335726737976074,0.28232139348983765,0
