rezayati/contactInterpretation/dataset/franka_main/labeled_data/link6/b5_8.csv
index,time,tau_J0,tau_J1,tau_J2,tau_J3,tau_J4,tau_J5,tau_J6,tau_J_d0,tau_J_d1,tau_J_d2,tau_J_d3,tau_J_d4,tau_J_d5,tau_J_d6,tau_ext0,tau_ext1,tau_ext2,tau_ext3,tau_ext4,tau_ext5,tau_ext6,q0,q1,q2,q3,q4,q5,q6,q_d0,q_d1,q_d2,q_d3,q_d4,q_d5,q_d6,dq0,dq1,dq2,dq3,dq4,dq5,dq6,dq_d0,dq_d1,dq_d2,dq_d3,dq_d4,dq_d5,dq_d6,e0,e1,e2,e3,e4,e5,e6,de0,de1,de2,de3,de4,de5,de6,etau_J0,etau_J1,etau_J2,etau_J3,etau_J4,etau_J5,etau_J6,label
1,0.0,-0.3236324191093445,-22.795862197875977,0.04922797530889511,14.131807327270508,-0.0015358328819274902,2.1582064628601074,-0.38577598333358765,0.0,0.0,0.0,0.0,0.0,0.0,0.0,-0.2851647808418846,-0.009580837790393197,-0.05582510554924004,0.2772684401122921,-0.2379190302730625,-0.024479740377979006,-0.4186502413006219,1.6755070107066838,0.05231056285326136,0.029806908830554615,-2.752707624241167,0.034465338493044076,2.7663471790027225,0.7691941476331815,1.6754973547542302,0.052104326824870026,0.029969505109285054,-2.752394845125968,0.0342448039870148,2.7663679543071322,0.7691630533470046,0.0011287665568916535,-5.65540393067551e-05,-0.0010536997090575544,0.0002634293214526617,-0.000294667661188381,1.2889152195828066e-06,-0.00205863899734138,0.0,0.0,0.0,0.0,0.0,0.0,0.0,-9.655952453613281e-06,-0.00020623602839133642,0.000162596278730439,0.0003127791151991133,-0.00022053450602927543,2.0775304409692552e-05,-3.109428617686927e-05,-0.0011287665568916535,5.65540393067551e-05,0.0010536997090575544,-0.0002634293214526617,0.000294667661188381,-1.2889152195828066e-06,0.00205863899734138,0.3236324191093445,22.795862197875977,-0.04922797530889511,-14.131807327270508,0.0015358328819274902,-2.1582064628601074,0.38577598333358765,0
2,0.004967689514160156,-0.3236324191093445,-22.795862197875977,0.04922797530889511,14.131807327270508,-0.0015358328819274902,2.1582064628601074,-0.38577598333358765,0.0,0.0,0.0,0.0,0.0,0.0,0.0,-0.2851647808418846,-0.009580837790393197,-0.05582510554924004,0.2772684401122921,-0.2379190302730625,-0.024479740377979006,-0.4186502413006219,1.6755070107066838,0.05231056285326136,0.029806908830554615,-2.752707624241167,0.034465338493044076,2.7663471790027225,0.7691941476331815,1.6754973547542302,0.052104326824870026,0.029969505109285054,-2.752394845125968,0.0342448039870148,2.7663679543071322,0.7691630533470046,0.0011287665568916535,-5.65540393067551e-05,-0.0010536997090575544,0.0002634293214526617,-0.000294667661188381,1.2889152195828066e-06,-0.00205863899734138,0.0,0.0,0.0,0.0,0.0,0.0,0.0,-9.655952453613281e-06,-0.00020623602839133642,0.000162596278730439,0.0003127791151991133,-0.00022053450602927543,2.0775304409692552e-05,-3.109428617686927e-05,-0.0011287665568916535,5.65540393067551e-05,0.0010536997090575544,-0.0002634293214526617,0.000294667661188381,-1.2889152195828066e-06,0.00205863899734138,0.3236324191093445,22.795862197875977,-0.04922797530889511,-14.131807327270508,0.0015358328819274902,-2.1582064628601074,0.38577598333358765,0
3,0.009966611862182617,-0.2720577120780945,-22.795862197875977,0.04922797530889511,14.155611038208008,-0.00702899694442749,2.1582064628601074,-0.39218467473983765,0.0,0.0,0.0,0.0,0.0,0.0,0.0,-0.286267438024712,-0.01777251557276905,-0.05674571762980292,0.28294613463717894,-0.23851400683245524,-0.024030070330966942,-0.4204825934093247,1.6755033914289974,0.052310563249683424,0.029806800184779967,-2.752709751879208,0.03446372993709924,2.7663472181945226,0.7691959193421521,1.6754973547542302,0.052104326824870026,0.029969505109285054,-2.752394845125968,0.0342448039870148,2.7663679543071322,0.7691630533470046,-0.00036942357479868734,-0.0008758723647404575,-0.0006680806549853475,-0.00027907103517094904,-0.0001972081899969803,-3.704725642648409e-05,-0.0014721762914409416,0.0,0.0,0.0,0.0,0.0,0.0,0.0,-6.036674767173622e-06,-0.00020623642481339827,0.0001627049245050867,0.0003149067532399741,-0.0002189259500844365,2.0736112609665014e-05,-3.286599514751298e-05,0.00036942357479868734,0.0008758723647404575,0.0006680806549853475,0.00027907103517094904,0.0001972081899969803,3.704725642648409e-05,0.0014721762914409416,0.2720577120780945,22.795862197875977,-0.04922797530889511,-14.155611038208008,0.00702899694442749,-2.1582064628601074,0.39218467473983765,0
4,0.014968633651733398,-0.2720577120780945,-22.795862197875977,0.04922797530889511,14.155611038208008,-0.00702899694442749,2.1582064628601074,-0.39218467473983765,0.0,0.0,0.0,0.0,0.0,0.0,0.0,-0.286267438024712,-0.01777251557276905,-0.05674571762980292,0.28294613463717894,-0.23851400683245524,-0.024030070330966942,-0.4204825934093247,1.6755033914289974,0.052310563249683424,0.029806800184779967,-2.752709751879208,0.03446372993709924,2.7663472181945226,0.7691959193421521,1.6754973547542302,0.052104326824870026,0.029969505109285054,-2.752394845125968,0.0342448039870148,2.7663679543071322,0.7691630533470046,-0.00036942357479868734,-0.0008758723647404575,-0.0006680806549853475,-0.00027907103517094904,-0.0001972081899969803,-3.704725642648409e-05,-0.0014721762914409416,0.0,0.0,0.0,0.0,0.0,0.0,0.0,-6.036674767173622e-06,-0.00020623642481339827,0.0001627049245050867,0.0003149067532399741,-0.0002189259500844365,2.0736112609665014e-05,-3.286599514751298e-05,0.00036942357479868734,0.0008758723647404575,0.0006680806549853475,0.00027907103517094904,0.0001972081899969803,3.704725642648409e-05,0.0014721762914409416,0.2720577120780945,22.795862197875977,-0.04922797530889511,-14.155611038208008,0.00702899694442749,-2.1582064628601074,0.39218467473983765,0
5,0.019965171813964844,-0.3236324191093445,-22.819665908813477,0.04922797530889511,14.131807327270508,-0.0015358328819274902,2.1517977714538574,-0.39950889348983765,0.0,0.0,0.0,0.0,0.0,0.0,0.0,-0.2873008387184449,-0.01489892565584319,-0.05655232050704158,0.28288649955007494,-0.23923984126657338,-0.024662949670531543,-0.4205080552516414,1.6755070107066838,0.05231231219012256,0.029806899624446152,-2.752709767714957,0.034462007930162235,2.7663468706872725,0.7691967331502172,1.6754973547542302,0.052104326824870026,0.029969505109285054,-2.752394845125968,0.0342448039870148,2.7663679543071322,0.7691630533470046,0.001130071282493753,0.00023082961403822602,-0.0006838457137756818,0.0008276984110702866,-6.947461025361257e-05,0.0003470476527133697,-0.00016405744711303874,0.0,0.0,0.0,0.0,0.0,0.0,0.0,-9.655952453613281e-06,-0.00020798536525253736,0.00016260548483890136,0.0003149225889886864,-0.0002172039431474343,2.1083619859751934e-05,-3.36798032125607e-05,-0.001130071282493753,-0.00023082961403822602,0.0006838457137756818,-0.0008276984110702866,6.947461025361257e-05,-0.0003470476527133697,0.00016405744711303874,0.3236324191093445,22.819665908813477,-0.04922797530889511,-14.131807327270508,0.0015358328819274902,-2.1517977714538574,0.39950889348983765,0
6,0.024965763092041016,-0.3236324191093445,-22.819665908813477,0.04922797530889511,14.131807327270508,-0.0015358328819274902,2.1517977714538574,-0.39950889348983765,0.0,0.0,0.0,0.0,0.0,0.0,0.0,-0.2873008387184449,-0.01489892565584319,-0.05655232050704158,0.28288649955007494,-0.23923984126657338,-0.024662949670531543,-0.4205080552516414,1.6755070107066838,0.05231231219012256,0.029806899624446152,-2.752709767714957,0.034462007930162235,2.7663468706872725,0.7691967331502172,1.6754973547542302,0.052104326824870026,0.029969505109285054,-2.752394845125968,0.0342448039870148,2.7663679543071322,0.7691630533470046,0.001130071282493753,0.00023082961403822602,-0.0006838457137756818,0.0008276984110702866,-6.947461025361257e-05,0.0003470476527133697,-0.00016405744711303874,0.0,0.0,0.0,0.0,0.0,0.0,0.0,-9.655952453613281e-06,-0.00020798536525253736,0.00016260548483890136,0.0003149225889886864,-0.0002172039431474343,2.1083619859751934e-05,-3.36798032125607e-05,-0.001130071282493753,-0.00023082961403822602,0.0006838457137756818,-0.0008276984110702866,6.947461025361257e-05,-0.0003470476527133697,0.00016405744711303874,0.3236324191093445,22.819665908813477,-0.04922797530889511,-14.131807327270508,0.0015358328819274902,-2.1517977714538574,0.39950889348983765,0
7,0.029969453811645508,-0.2720577120780945,-22.819665908813477,0.02542426437139511,14.155611038208008,-0.00702899694442749,2.1582064628601074,-0.40591758489608765,0.0,0.0,0.0,0.0,0.0,0.0,0.0,-0.28686905899308357,-0.018691432856282032,-0.05560040730860797,0.28215840109659784,-0.23871009312457203,-0.025171161839323213,-0.4187024418880848,1.6755033914289974,0.05231246974039905,0.02980850019257093,-2.7527099927822682,0.03446582191962854,2.766347217758081,0.76919744522704,1.6754973547542302,0.052104326824870026,0.029969505109285054,-2.752394845125968,0.0342448039870148,2.7663679543071322,0.7691630533470046,-0.00018175198441514463,-0.00014720952229478398,0.00010407125020145642,-0.0005486102145143605,-2.0570332216308043e-05,0.00030594411261696214,-0.0005174753222730745,0.0,0.0,0.0,0.0,0.0,0.0,0.0,-6.036674767173622e-06,-0.0002081429155290221,0.00016100491671412406,0.00031514765630014097,-0.00022101793261374014,2.073654905121458e-05,-3.439188003540039e-05,0.00018175198441514463,0.00014720952229478398,-0.00010407125020145642,0.0005486102145143605,2.0570332216308043e-05,-0.00030594411261696214,0.0005174753222730745,0.2720577120780945,22.819665908813477,-0.02542426437139511,-14.155611038208008,0.00702899694442749,-2.1582064628601074,0.40591758489608765,0
8,0.03496599197387695,-0.2720577120780945,-22.819665908813477,0.02542426437139511,14.155611038208008,-0.00702899694442749,2.1582064628601074,-0.40591758489608765,0.0,0.0,0.0,0.0,0.0,0.0,0.0,-0.28686905899308357,-0.018691432856282032,-0.05560040730860797,0.28215840109659784,-0.23871009312457203,-0.025171161839323213,-0.4187024418880848,1.6755033914289974,0.05231246974039905,0.02980850019257093,-2.7527099927822682,0.03446582191962854,2.766347217758081,0.76919744522704,1.6754973547542302,0.052104326824870026,0.029969505109285054,-2.752394845125968,0.0342448039870148,2.7663679543071322,0.7691630533470046,-0.00018175198441514463,-0.00014720952229478398,0.00010407125020145642,-0.0005486102145143605,-2.0570332216308043e-05,0.00030594411261696214,-0.0005174753222730745,0.0,0.0,0.0,0.0,0.0,0.0,0.0,-6.036674767173622e-06,-0.0002081429155290221,0.00016100491671412406,0.00031514765630014097,-0.00022101793261374014,2.073654905121458e-05,-3.439188003540039e-05,0.00018175198441514463,0.00014720952229478398,-0.00010407125020145642,0.0005486102145143605,2.0570332216308043e-05,-0.00030594411261696214,0.0005174753222730745,0.2720577120780945,22.819665908813477,-0.02542426437139511,-14.155611038208008,0.00702899694442749,-2.1582064628601074,0.40591758489608765,0
9,0.03996610641479492,-0.2720577120780945,-22.795862197875977,0.04922797530889511,14.131807327270508,0.00487285852432251,2.1719393730163574,-0.43979209661483765,0.0,0.0,0.0,0.0,0.0,0.0,0.0,-0.285852760244443,-0.016325514003099832,-0.055353519026977376,0.2812420499239983,-0.2381366013647874,-0.02544912981541781,-0.4202550046268473,1.6755033914289974,0.052310565738078005,0.029806908831599636,-2.752708142824799,0.034462363791464265,2.7663456923696703,0.7692012090616754,1.6754973547542302,0.052104326824870026,0.029969505109285054,-2.752394845125968,0.0342448039870148,2.7663679543071322,0.7691630533470046,-6.433698966857486e-05,-0.0004160254055793443,-0.0003855354468971831,0.0002801022667953933,-0.0004910712254880119,-0.0005615016688136363,0.00040752745115776824,0.0,0.0,0.0,0.0,0.0,0.0,0.0,-6.036674767173622e-06,-0.00020623891320797894,0.0001625962776854173,0.0003132976988307057,-0.0002175598044494645,2.2261937461909298e-05,-3.8155714670806695e-05,6.433698966857486e-05,0.0004160254055793443,0.0003855354468971831,-0.0002801022667953933,0.0004910712254880119,0.0005615016688136363,-0.00040752745115776824,0.2720577120780945,22.795862197875977,-0.04922797530889511,-14.131807327270508,-0.00487285852432251,-2.1719393730163574,0.43979209661483765,0
10,0.04576373100280762,-0.2720577120780945,-22.795862197875977,0.04922797530889511,14.131807327270508,0.00487285852432251,2.1719393730163574,-0.43979209661483765,0.0,0.0,0.0,0.0,0.0,0.0,0.0,-0.285852760244443,-0.016325514003099832,-0.055353519026977376,0.2812420499239983,-0.2381366013647874,-0.02544912981541781,-0.4202550046268473,1.6755033914289974,0.052310565738078005,0.029806908831599636,-2.752708142824799,0.034462363791464265,2.7663456923696703,0.7692012090616754,1.6754973547542302,0.052104326824870026,0.029969505109285054,-2.752394845125968,0.0342448039870148,2.7663679543071322,0.7691630533470046,-6.433698966857486e-05,-0.0004160254055793443,-0.0003855354468971831,0.0002801022667953933,-0.0004910712254880119,-0.0005615016688136363,0.00040752745115776824,0.0,0.0,0.0,0.0,0.0,0.0,0.0,-6.036674767173622e-06,-0.00020623891320797894,0.0001625962776854173,0.0003132976988307057,-0.0002175598044494645,2.2261937461909298e-05,-3.8155714670806695e-05,6.433698966857486e-05,0.0004160254055793443,0.0003855354468971831,-0.0002801022667953933,0.0004910712254880119,0.0005615016688136363,-0.00040752745115776824,0.2720577120780945,22.795862197875977,-0.04922797530889511,-14.131807327270508,-0.00487285852432251,-2.1719393730163574,0.43979209661483765,0
11,0.04996514320373535,-0.3236324191093445,-22.819665908813477,0.07303168624639511,14.155611038208008,-0.00702899694442749,2.1655306816101074,-0.41965049505233765,0.0,0.0,0.0,0.0,0.0,0.0,0.0,-0.282301659294627,-0.015927193124994132,-0.05330455139713133,0.28166946455904857,-0.23801009774821688,-0.025684878110368986,-0.42181972562621284,1.6755070107066838,0.052312234262264494,0.02980523828786846,-2.7527113587550147,0.03446298750166796,2.7663464043926607,0.7691989711059464,1.6754973547542302,0.052104326824870026,0.029969505109285054,-2.752394845125968,0.0342448039870148,2.7663679543071322,0.7691630533470046,0.0011700662710871228,0.0006290803088267301,-0.0007293245227137893,-0.00012551430013133834,-0.00012176089342912404,-0.00024027237061017306,-0.003165556967379693,0.0,0.0,0.0,0.0,0.0,0.0,0.0,-9.655952453613281e-06,-0.0002079074373944681,0.00016426682141659418,0.00031651362904661084,-0.00021818351465315716,2.1549914471563625e-05,-3.591775894173921e-05,-0.0011700662710871228,-0.0006290803088267301,0.0007293245227137893,0.00012551430013133834,0.00012176089342912404,0.00024027237061017306,0.003165556967379693,0.3236324191093445,22.819665908813477,-0.07303168624639511,-14.155611038208008,0.00702899694442749,-2.1655306816101074,0.41965049505233765,0
12,0.0549778938293457,-0.3236324191093445,-22.819665908813477,0.07303168624639511,14.155611038208008,-0.00702899694442749,2.1655306816101074,-0.41965049505233765,0.0,0.0,0.0,0.0,0.0,0.0,0.0,-0.282301659294627,-0.015927193124994132,-0.05330455139713133,0.28166946455904857,-0.23801009774821688,-0.025684878110368986,-0.42181972562621284,1.6755070107066838,0.052312234262264494,0.02980523828786846,-2.7527113587550147,0.03446298750166796,2.7663464043926607,0.7691989711059464,1.6754973547542302,0.052104326824870026,0.029969505109285054,-2.752394845125968,0.0342448039870148,2.7663679543071322,0.7691630533470046,0.0011700662710871228,0.0006290803088267301,-0.0007293245227137893,-0.00012551430013133834,-0.00012176089342912404,-0.00024027237061017306,-0.003165556967379693,0.0,0.0,0.0,0.0,0.0,0.0,0.0,-9.655952453613281e-06,-0.0002079074373944681,0.00016426682141659418,0.00031651362904661084,-0.00021818351465315716,2.1549914471563625e-05,-3.591775894173921e-05,-0.0011700662710871228,-0.0006290803088267301,0.0007293245227137893,0.00012551430013133834,0.00012176089342912404,0.00024027237061017306,0.003165556967379693,0.3236324191093445,22.819665908813477,-0.07303168624639511,-14.155611038208008,0.00702899694442749,-2.1655306816101074,0.41965049505233765,0
13,0.05999040603637695,-0.3236324191093445,-22.795862197875977,0.02542426437139511,14.131807327270508,-0.0015358328819274902,2.1655306816101074,-0.42605918645858765,0.0,0.0,0.0,0.0,0.0,0.0,0.0,-0.2816052009444252,-0.016286731618036964,-0.052853904954735645,0.28126559665290574,-0.23786598642886925,-0.025609883309942075,-0.4206513247749221,1.6755070107066838,0.05231057481992364,0.02980857829299998,-2.752708066967954,0.03446319903865134,2.766346402992945,0.7691996788221185,1.6754973547542302,0.052104326824870026,0.029969505109285054,-2.752394845125968,0.0342448039870148,2.7663679543071322,0.7691630533470046,0.000966142773749418,-0.0003245569006205771,0.0003795421667114291,8.982802865574005e-05,-5.306075453844552e-05,-0.00017569816047553521,0.00033321185387264363,0.0,0.0,0.0,0.0,0.0,0.0,0.0,-9.655952453613281e-06,-0.00020624799505361557,0.000160926816285073,0.0003132218419859001,-0.0002183950516365385,2.1551314187018278e-05,-3.6625475113849504e-05,-0.000966142773749418,0.0003245569006205771,-0.0003795421667114291,-8.982802865574005e-05,5.306075453844552e-05,0.00017569816047553521,-0.00033321185387264363,0.3236324191093445,22.795862197875977,-0.02542426437139511,-14.131807327270508,0.0015358328819274902,-2.1655306816101074,0.42605918645858765,0
14,0.0649726390838623,-0.3236324191093445,-22.795862197875977,0.02542426437139511,14.131807327270508,-0.0015358328819274902,2.1655306816101074,-0.42605918645858765,0.0,0.0,0.0,0.0,0.0,0.0,0.0,-0.2816052009444252,-0.016286731618036964,-0.052853904954735645,0.28126559665290574,-0.23786598642886925,-0.025609883309942075,-0.4206513247749221,1.6755070107066838,0.05231057481992364,0.02980857829299998,-2.752708066967954,0.03446319903865134,2.766346402992945,0.7691996788221185,1.6754973547542302,0.052104326824870026,0.029969505109285054,-2.752394845125968,0.0342448039870148,2.7663679543071322,0.7691630533470046,0.000966142773749418,-0.0003245569006205771,0.0003795421667114291,8.982802865574005e-05,-5.306075453844552e-05,-0.00017569816047553521,0.00033321185387264363,0.0,0.0,0.0,0.0,0.0,0.0,0.0,-9.655952453613281e-06,-0.00020624799505361557,0.000160926816285073,0.0003132218419859001,-0.0002183950516365385,2.1551314187018278e-05,-3.6625475113849504e-05,-0.000966142773749418,0.0003245569006205771,-0.0003795421667114291,-8.982802865574005e-05,5.306075453844552e-05,0.00017569816047553521,-0.00033321185387264363,0.3236324191093445,22.795862197875977,-0.02542426437139511,-14.131807327270508,0.0015358328819274902,-2.1655306816101074,0.42605918645858765,0
15,0.0699777603149414,-0.3236324191093445,-22.795862197875977,0.02542426437139511,14.131807327270508,-0.0015358328819274902,2.1655306816101074,-0.42605918645858765,0.0,0.0,0.0,0.0,0.0,0.0,0.0,-0.2816052009444252,-0.016286731618036964,-0.052853904954735645,0.28126559665290574,-0.23786598642886925,-0.025609883309942075,-0.4206513247749221,1.6755070107066838,0.05231057481992364,0.02980857829299998,-2.752708066967954,0.03446319903865134,2.766346402992945,0.7691996788221185,1.6754973547542302,0.052104326824870026,0.029969505109285054,-2.752394845125968,0.0342448039870148,2.7663679543071322,0.7691630533470046,0.000966142773749418,-0.0003245569006205771,0.0003795421667114291,8.982802865574005e-05,-5.306075453844552e-05,-0.00017569816047553521,0.00033321185387264363,0.0,0.0,0.0,0.0,0.0,0.0,0.0,-9.655952453613281e-06,-0.00020624799505361557,0.000160926816285073,0.0003132218419859001,-0.0002183950516365385,2.1551314187018278e-05,-3.6625475113849504e-05,-0.000966142773749418,0.0003245569006205771,-0.0003795421667114291,-8.982802865574005e-05,5.306075453844552e-05,0.00017569816047553521,-0.00033321185387264363,0.3236324191093445,22.795862197875977,-0.02542426437139511,-14.131807327270508,0.0015358328819274902,-2.1655306816101074,0.42605918645858765,0
16,0.0749969482421875,-0.3236324191093445,-22.795862197875977,0.02542426437139511,14.131807327270508,-0.0015358328819274902,2.1655306816101074,-0.42605918645858765,0.0,0.0,0.0,0.0,0.0,0.0,0.0,-0.2816052009444252,-0.016286731618036964,-0.052853904954735645,0.28126559665290574,-0.23786598642886925,-0.025609883309942075,-0.4206513247749221,1.6755070107066838,0.05231057481992364,0.02980857829299998,-2.752708066967954,0.03446319903865134,2.766346402992945,0.7691996788221185,1.6754973547542302,0.052104326824870026,0.029969505109285054,-2.752394845125968,0.0342448039870148,2.7663679543071322,0.7691630533470046,0.000966142773749418,-0.0003245569006205771,0.0003795421667114291,8.982802865574005e-05,-5.306075453844552e-05,-0.00017569816047553521,0.00033321185387264363,0.0,0.0,0.0,0.0,0.0,0.0,0.0,-9.655952453613281e-06,-0.00020624799505361557,0.000160926816285073,0.0003132218419859001,-0.0002183950516365385,2.1551314187018278e-05,-3.6625475113849504e-05,-0.000966142773749418,0.0003245569006205771,-0.0003795421667114291,-8.982802865574005e-05,5.306075453844552e-05,0.00017569816047553521,-0.00033321185387264363,0.3236324191093445,22.795862197875977,-0.02542426437139511,-14.131807327270508,0.0015358328819274902,-2.1655306816101074,0.42605918645858765,0
17,0.07996630668640137,-0.3236324191093445,-22.795862197875977,0.02542426437139511,14.131807327270508,-0.0015358328819274902,2.1655306816101074,-0.42605918645858765,0.0,0.0,0.0,0.0,0.0,0.0,0.0,-0.2816052009444252,-0.016286731618036964,-0.052853904954735645,0.28126559665290574,-0.23786598642886925,-0.025609883309942075,-0.4206513247749221,1.6755070107066838,0.05231057481992364,0.02980857829299998,-2.752708066967954,0.03446319903865134,2.766346402992945,0.7691996788221185,1.6754973547542302,0.052104326824870026,0.029969505109285054,-2.752394845125968,0.0342448039870148,2.7663679543071322,0.7691630533470046,0.000966142773749418,-0.0003245569006205771,0.0003795421667114291,8.982802865574005e-05,-5.306075453844552e-05,-0.00017569816047553521,0.00033321185387264363,0.0,0.0,0.0,0.0,0.0,0.0,0.0,-9.655952453613281e-06,-0.00020624799505361557,0.000160926816285073,0.0003132218419859001,-0.0002183950516365385,2.1551314187018278e-05,-3.6625475113849504e-05,-0.000966142773749418,0.0003245569006205771,-0.0003795421667114291,-8.982802865574005e-05,5.306075453844552e-05,0.00017569816047553521,-0.00033321185387264363,0.3236324191093445,22.795862197875977,-0.02542426437139511,-14.131807327270508,0.0015358328819274902,-2.1655306816101074,0.42605918645858765,0
18,0.08497953414916992,-0.2998287081718445,-22.819665908813477,-0.04995415359735489,14.108003616333008,-0.00702899694442749,2.1655306816101074,-0.42605918645858765,0.0,0.0,0.0,0.0,0.0,0.0,0.0,-0.28098968059471263,-0.015657610070421508,-0.05245536388873829,0.2816348169297268,-0.2379476514488742,-0.024869114416618997,-0.4207059251524772,1.6755053402708286,0.052314387911925414,0.02981386789821446,-2.752706384625368,0.03446416329833604,2.7663464027775966,0.7691996831827446,1.6754973547542302,0.052104326824870026,0.029969505109285054,-2.752394845125968,0.0342448039870148,2.7663679543071322,0.7691630533470046,0.0008139997870464243,0.0004267023083904156,0.0017032400281097797,0.0007160518493898917,0.00012412112957810144,-0.00022726277258051545,-8.874704942921452e-05,0.0,0.0,0.0,0.0,0.0,0.0,0.0,-7.98551659841884e-06,-0.00021006108705538817,0.00015563721107059517,0.0003115394993997711,-0.00021935931132124192,2.1551529535646097e-05,-3.662983573993195e-05,-0.0008139997870464243,-0.0004267023083904156,-0.0017032400281097797,-0.0007160518493898917,-0.00012412112957810144,0.00022726277258051545,8.874704942921452e-05,0.2998287081718445,22.819665908813477,0.04995415359735489,-14.108003616333008,0.00702899694442749,-2.1655306816101074,0.42605918645858765,0
19,0.08996367454528809,-0.2998287081718445,-22.819665908813477,-0.04995415359735489,14.108003616333008,-0.00702899694442749,2.1655306816101074,-0.42605918645858765,0.0,0.0,0.0,0.0,0.0,0.0,0.0,-0.28098968059471263,-0.015657610070421508,-0.05245536388873829,0.2816348169297268,-0.2379476514488742,-0.024869114416618997,-0.4207059251524772,1.6755053402708286,0.052314387911925414,0.02981386789821446,-2.752706384625368,0.03446416329833604,2.7663464027775966,0.7691996831827446,1.6754973547542302,0.052104326824870026,0.029969505109285054,-2.752394845125968,0.0342448039870148,2.7663679543071322,0.7691630533470046,0.0008139997870464243,0.0004267023083904156,0.0017032400281097797,0.0007160518493898917,0.00012412112957810144,-0.00022726277258051545,-8.874704942921452e-05,0.0,0.0,0.0,0.0,0.0,0.0,0.0,-7.98551659841884e-06,-0.00021006108705538817,0.00015563721107059517,0.0003115394993997711,-0.00021935931132124192,2.1551529535646097e-05,-3.662983573993195e-05,-0.0008139997870464243,-0.0004267023083904156,-0.0017032400281097797,-0.0007160518493898917,-0.00012412112957810144,0.00022726277258051545,8.874704942921452e-05,0.2998287081718445,22.819665908813477,0.04995415359735489,-14.108003616333008,0.00702899694442749,-2.1655306816101074,0.42605918645858765,0
20,0.09497761726379395,-0.2998287081718445,-22.795862197875977,0.04922797530889511,14.155611038208008,-0.0015358328819274902,2.1655306816101074,-0.45352500677108765,0.0,0.0,0.0,0.0,0.0,0.0,0.0,-0.2781286020893182,-0.014614442485961526,-0.05216294120079523,0.27969359064257365,-0.2379642812008605,-0.024556183459923327,-0.4221694584052841,1.6755053402708286,0.05231080843548056,0.029804776724225754,-2.752709725077097,0.03446240337188408,2.7663464044464865,0.7692027349405818,1.6754973547542302,0.052104326824870026,0.029969505109285054,-2.752394845125968,0.0342448039870148,2.7663679543071322,0.7691630533470046,-7.807299634389998e-05,-0.0001941552828136377,-0.00013950660273607398,-0.0006688938332936073,-0.00010948563186905442,-9.333983539662149e-05,0.0012818273469728978,0.0,0.0,0.0,0.0,0.0,0.0,0.0,-7.98551659841884e-06,-0.00020648161061053577,0.00016472838505929982,0.000314879951128777,-0.00021759938486928115,2.1549860645730945e-05,-3.968159357714551e-05,7.807299634389998e-05,0.0001941552828136377,0.00013950660273607398,0.0006688938332936073,0.00010948563186905442,9.333983539662149e-05,-0.0012818273469728978,0.2998287081718445,22.795862197875977,-0.04922797530889511,-14.155611038208008,0.0015358328819274902,-2.1655306816101074,0.45352500677108765,0
21,0.10009646415710449,-0.2998287081718445,-22.795862197875977,0.04922797530889511,14.155611038208008,-0.0015358328819274902,2.1655306816101074,-0.45352500677108765,0.0,0.0,0.0,0.0,0.0,0.0,0.0,-0.2781286020893182,-0.014614442485961526,-0.05216294120079523,0.27969359064257365,-0.2379642812008605,-0.024556183459923327,-0.4221694584052841,1.6755053402708286,0.05231080843548056,0.029804776724225754,-2.752709725077097,0.03446240337188408,2.7663464044464865,0.7692027349405818,1.6754973547542302,0.052104326824870026,0.029969505109285054,-2.752394845125968,0.0342448039870148,2.7663679543071322,0.7691630533470046,-7.807299634389998e-05,-0.0001941552828136377,-0.00013950660273607398,-0.0006688938332936073,-0.00010948563186905442,-9.333983539662149e-05,0.0012818273469728978,0.0,0.0,0.0,0.0,0.0,0.0,0.0,-7.98551659841884e-06,-0.00020648161061053577,0.00016472838505929982,0.000314879951128777,-0.00021759938486928115,2.1549860645730945e-05,-3.968159357714551e-05,7.807299634389998e-05,0.0001941552828136377,0.00013950660273607398,0.0006688938332936073,0.00010948563186905442,9.333983539662149e-05,-0.0012818273469728978,0.2998287081718445,22.795862197875977,-0.04922797530889511,-14.155611038208008,0.0015358328819274902,-2.1655306816101074,0.45352500677108765,0
22,0.10497808456420898,-0.24825400114059448,-22.795862197875977,0.02542426437139511,14.155611038208008,-0.01343768835067749,2.1655306816101074,-0.46725791692733765,0.0,0.0,0.0,0.0,0.0,0.0,0.0,-0.2844247871796312,-0.014656586699251467,-0.05568633314612409,0.28154008106901685,-0.2375486344668519,-0.024097796626907763,-0.42236209535519464,1.6755017209931422,0.052312691525460565,0.029808342354997235,-2.7527113605391538,0.034463821785969184,2.7663431862324157,0.769204260819488,1.6754973547542302,0.052104326824870026,0.029969505109285054,-2.752394845125968,0.0342448039870148,2.7663679543071322,0.7691630533470046,-0.0015047823865902428,-0.0002634367659296321,5.9557361234955325e-05,-0.00017576962359720896,0.0002960681659343705,-0.00019753880154133168,0.0015145355674758593,0.0,0.0,0.0,0.0,0.0,0.0,0.0,-4.366238911979181e-06,-0.00020836470059053952,0.00016116275428781912,0.00031651541318566956,-0.00021901779895438372,2.4768074716519095e-05,-4.120747248337331e-05,0.0015047823865902428,0.0002634367659296321,-5.9557361234955325e-05,0.00017576962359720896,-0.0002960681659343705,0.00019753880154133168,-0.0015145355674758593,0.24825400114059448,22.795862197875977,-0.02542426437139511,-14.155611038208008,0.01343768835067749,-2.1655306816101074,0.46725791692733765,0
23,0.10999703407287598,-0.24825400114059448,-22.795862197875977,0.02542426437139511,14.155611038208008,-0.01343768835067749,2.1655306816101074,-0.46725791692733765,0.0,0.0,0.0,0.0,0.0,0.0,0.0,-0.2844247871796312,-0.014656586699251467,-0.05568633314612409,0.28154008106901685,-0.2375486344668519,-0.024097796626907763,-0.42236209535519464,1.6755017209931422,0.052312691525460565,0.029808342354997235,-2.7527113605391538,0.034463821785969184,2.7663431862324157,0.769204260819488,1.6754973547542302,0.052104326824870026,0.029969505109285054,-2.752394845125968,0.0342448039870148,2.7663679543071322,0.7691630533470046,-0.0015047823865902428,-0.0002634367659296321,5.9557361234955325e-05,-0.00017576962359720896,0.0002960681659343705,-0.00019753880154133168,0.0015145355674758593,0.0,0.0,0.0,0.0,0.0,0.0,0.0,-4.366238911979181e-06,-0.00020836470059053952,0.00016116275428781912,0.00031651541318566956,-0.00021901779895438372,2.4768074716519095e-05,-4.120747248337331e-05,0.0015047823865902428,0.0002634367659296321,-5.9557361234955325e-05,0.00017576962359720896,-0.0002960681659343705,0.00019753880154133168,-0.0015145355674758593,0.24825400114059448,22.795862197875977,-0.02542426437139511,-14.155611038208008,0.01343768835067749,-2.1655306816101074,0.46725791692733765,0
24,0.11497855186462402,-0.24825400114059448,-22.819665908813477,0.04922797530889511,14.155611038208008,-0.00702899694442749,2.1655306816101074,-0.45352500677108765,0.0,0.0,0.0,0.0,0.0,0.0,0.0,-0.28433216019383506,-0.01693444597578269,-0.05545677128546926,0.282568918750922,-0.23828327462967389,-0.02354731531091002,-0.42375642643964095,1.6755017209931422,0.05231223330106732,0.029806828888851868,-2.752711131100096,0.03446275434357056,2.7663462469065503,0.7692027349405818,1.6754973547542302,0.052104326824870026,0.029969505109285054,-2.752394845125968,0.0342448039870148,2.7663679543071322,0.7691630533470046,-0.0007613026410238239,0.00010890331745420653,-0.0007210481489959054,-0.0002008941610118818,4.1292966168165e-05,-7.709371026096021e-05,0.001162010458303664,0.0,0.0,0.0,0.0,0.0,0.0,0.0,-4.366238911979181e-06,-0.0002079064761972907,0.00016267622043318608,0.00031628597412769466,-0.00021795035655575862,2.170740058193843e-05,-3.968159357714551e-05,0.0007613026410238239,-0.00010890331745420653,0.0007210481489959054,0.0002008941610118818,-4.1292966168165e-05,7.709371026096021e-05,-0.001162010458303664,0.24825400114059448,22.819665908813477,-0.04922797530889511,-14.155611038208008,0.00702899694442749,-2.1655306816101074,0.45352500677108765,0
25,0.11998462677001953,-0.24825400114059448,-22.819665908813477,0.04922797530889511,14.155611038208008,-0.00702899694442749,2.1655306816101074,-0.45352500677108765,0.0,0.0,0.0,0.0,0.0,0.0,0.0,-0.28433216019383506,-0.01693444597578269,-0.05545677128546926,0.282568918750922,-0.23828327462967389,-0.02354731531091002,-0.42375642643964095,1.6755017209931422,0.05231223330106732,0.029806828888851868,-2.752711131100096,0.03446275434357056,2.7663462469065503,0.7692027349405818,1.6754973547542302,0.052104326824870026,0.029969505109285054,-2.752394845125968,0.0342448039870148,2.7663679543071322,0.7691630533470046,-0.0007613026410238239,0.00010890331745420653,-0.0007210481489959054,-0.0002008941610118818,4.1292966168165e-05,-7.709371026096021e-05,0.001162010458303664,0.0,0.0,0.0,0.0,0.0,0.0,0.0,-4.366238911979181e-06,-0.0002079064761972907,0.00016267622043318608,0.00031628597412769466,-0.00021795035655575862,2.170740058193843e-05,-3.968159357714551e-05,0.0007613026410238239,-0.00010890331745420653,0.0007210481489959054,0.0002008941610118818,-4.1292966168165e-05,7.709371026096021e-05,-0.001162010458303664,0.24825400114059448,22.819665908813477,-0.04922797530889511,-14.155611038208008,0.00702899694442749,-2.1655306816101074,0.45352500677108765,0
26,0.12498927116394043,-0.2998287081718445,-22.795862197875977,0.001620553433895111,14.131807327270508,-0.0015358328819274902,2.1655306816101074,-0.43979209661483765,0.0,0.0,0.0,0.0,0.0,0.0,0.0,-0.283673571616915,-0.0177306989395602,-0.05475558936204335,0.2841147503773265,-0.23804641519991132,-0.023044696300416178,-0.4246467906459907,1.6755053402708286,0.05231065332450202,0.029810249594080403,-2.7527073999211185,0.034462053254000743,2.766346286706258,0.7692012090616754,1.6754973547542302,0.052104326824870026,0.029969505109285054,-2.752394845125968,0.0342448039870148,2.7663679543071322,0.7691630533470046,0.00026200245402197085,-0.0006330858475192422,0.0008311581094843495,0.00058029696523711,-0.00014036485764714558,-0.0002385701048411583,0.0009301708100092,0.0,0.0,0.0,0.0,0.0,0.0,0.0,-7.98551659841884e-06,-0.00020632649963199523,0.00015925551520465028,0.0003125547951503549,-0.000217249266985943,2.1667600874408777e-05,-3.8155714670806695e-05,-0.00026200245402197085,0.0006330858475192422,-0.0008311581094843495,-0.00058029696523711,0.00014036485764714558,0.0002385701048411583,-0.0009301708100092,0.2998287081718445,22.795862197875977,-0.001620553433895111,-14.131807327270508,0.0015358328819274902,-2.1655306816101074,0.43979209661483765,0
27,0.1300182342529297,-0.2998287081718445,-22.795862197875977,0.001620553433895111,14.131807327270508,-0.0015358328819274902,2.1655306816101074,-0.43979209661483765,0.0,0.0,0.0,0.0,0.0,0.0,0.0,-0.283673571616915,-0.0177306989395602,-0.05475558936204335,0.2841147503773265,-0.23804641519991132,-0.023044696300416178,-0.4246467906459907,1.6755053402708286,0.05231065332450202,0.029810249594080403,-2.7527073999211185,0.034462053254000743,2.766346286706258,0.7692012090616754,1.6754973547542302,0.052104326824870026,0.029969505109285054,-2.752394845125968,0.0342448039870148,2.7663679543071322,0.7691630533470046,0.00026200245402197085,-0.0006330858475192422,0.0008311581094843495,0.00058029696523711,-0.00014036485764714558,-0.0002385701048411583,0.0009301708100092,0.0,0.0,0.0,0.0,0.0,0.0,0.0,-7.98551659841884e-06,-0.00020632649963199523,0.00015925551520465028,0.0003125547951503549,-0.000217249266985943,2.1667600874408777e-05,-3.8155714670806695e-05,-0.00026200245402197085,0.0006330858475192422,-0.0008311581094843495,-0.00058029696523711,0.00014036485764714558,0.0002385701048411583,-0.0009301708100092,0.2998287081718445,22.795862197875977,-0.001620553433895111,-14.131807327270508,0.0015358328819274902,-2.1655306816101074,0.43979209661483765,0
28,0.13561272621154785,-0.24825400114059448,-22.772058486938477,0.04922797530889511,14.155611038208008,-0.01343768835067749,2.1655306816101074,-0.43979209661483765,0.0,0.0,0.0,0.0,0.0,0.0,0.0,-0.2842880705997228,-0.01306855290068469,-0.05186981135059169,0.2787008549057924,-0.23799796110874818,-0.024171182071606435,-0.42384457985139007,1.6755017209931422,0.0523110999534158,0.029806908687616082,-2.752709762235705,0.03446386127496536,2.766346404392439,0.7692012090616754,1.6754973547542302,0.052104326824870026,0.029969505109285054,-2.752394845125968,0.0342448039870148,2.7663679543071322,0.7691630533470046,-0.0011543182970378237,-0.0007511332190787913,-8.074603077751562e-05,-0.00031947396558699905,0.0002932132018478694,-0.00010728796275020067,0.000853607131302791,0.0,0.0,0.0,0.0,0.0,0.0,0.0,-4.366238911979181e-06,-0.00020677312854577162,0.00016259642166897154,0.0003149171097369674,-0.0002190572879505609,2.154991469316414e-05,-3.8155714670806695e-05,0.0011543182970378237,0.0007511332190787913,8.074603077751562e-05,0.00031947396558699905,-0.0002932132018478694,0.00010728796275020067,-0.000853607131302791,0.24825400114059448,22.772058486938477,-0.04922797530889511,-14.155611038208008,0.01343768835067749,-2.1655306816101074,0.43979209661483765,0
29,0.1400163173675537,-0.24825400114059448,-22.772058486938477,0.04922797530889511,14.155611038208008,-0.01343768835067749,2.1655306816101074,-0.43979209661483765,0.0,0.0,0.0,0.0,0.0,0.0,0.0,-0.2842880705997228,-0.01306855290068469,-0.05186981135059169,0.2787008549057924,-0.23799796110874818,-0.024171182071606435,-0.42384457985139007,1.6755017209931422,0.0523110999534158,0.029806908687616082,-2.752709762235705,0.03446386127496536,2.766346404392439,0.7692012090616754,1.6754973547542302,0.052104326824870026,0.029969505109285054,-2.752394845125968,0.0342448039870148,2.7663679543071322,0.7691630533470046,-0.0011543182970378237,-0.0007511332190787913,-8.074603077751562e-05,-0.00031947396558699905,0.0002932132018478694,-0.00010728796275020067,0.000853607131302791,0.0,0.0,0.0,0.0,0.0,0.0,0.0,-4.366238911979181e-06,-0.00020677312854577162,0.00016259642166897154,0.0003149171097369674,-0.0002190572879505609,2.154991469316414e-05,-3.8155714670806695e-05,0.0011543182970378237,0.0007511332190787913,8.074603077751562e-05,0.00031947396558699905,-0.0002932132018478694,0.00010728796275020067,-0.000853607131302791,0.24825400114059448,22.772058486938477,-0.04922797530889511,-14.155611038208008,0.01343768835067749,-2.1655306816101074,0.43979209661483765,0
30,0.14496755599975586,-0.2720577120780945,-22.819665908813477,0.04922797530889511,14.179414749145508,-0.0015358328819274902,2.1517977714538574,-0.45352500677108765,0.0,0.0,0.0,0.0,0.0,0.0,0.0,-0.28785311651746903,-0.016218544038903233,-0.053504960696779666,0.281720582964031,-0.23776973222413883,-0.023736901451033108,-0.42287379276247433,1.6755033914289974,0.05231226051499292,0.029806908832045207,-2.752711015805459,0.03446236338747123,2.7663479303254017,0.7692027349405818,1.6754973547542302,0.052104326824870026,0.029969505109285054,-2.752394845125968,0.0342448039870148,2.7663679543071322,0.7691630533470046,-0.0004899939433250333,0.0002289246888078697,-0.0006893363536987018,-0.0007593391925521478,-0.00019621095830493732,0.0002803444101505746,0.0010179350227780886,0.0,0.0,0.0,0.0,0.0,0.0,0.0,-6.036674767173622e-06,-0.00020793369012289675,0.00016259627723984663,0.00031617067949074595,-0.00021755940045643102,2.0023981730510343e-05,-3.968159357714551e-05,0.0004899939433250333,-0.0002289246888078697,0.0006893363536987018,0.0007593391925521478,0.00019621095830493732,-0.0002803444101505746,-0.0010179350227780886,0.2720577120780945,22.819665908813477,-0.04922797530889511,-14.179414749145508,0.0015358328819274902,-2.1517977714538574,0.45352500677108765,0
31,0.14997029304504395,-0.2720577120780945,-22.819665908813477,0.04922797530889511,14.179414749145508,-0.0015358328819274902,2.1517977714538574,-0.45352500677108765,0.0,0.0,0.0,0.0,0.0,0.0,0.0,-0.28785311651746903,-0.016218544038903233,-0.053504960696779666,0.281720582964031,-0.23776973222413883,-0.023736901451033108,-0.42287379276247433,1.6755033914289974,0.05231226051499292,0.029806908832045207,-2.752711015805459,0.03446236338747123,2.7663479303254017,0.7692027349405818,1.6754973547542302,0.052104326824870026,0.029969505109285054,-2.752394845125968,0.0342448039870148,2.7663679543071322,0.7691630533470046,-0.0004899939433250333,0.0002289246888078697,-0.0006893363536987018,-0.0007593391925521478,-0.00019621095830493732,0.0002803444101505746,0.0010179350227780886,0.0,0.0,0.0,0.0,0.0,0.0,0.0,-6.036674767173622e-06,-0.00020793369012289675,0.00016259627723984663,0.00031617067949074595,-0.00021755940045643102,2.0023981730510343e-05,-3.968159357714551e-05,0.0004899939433250333,-0.0002289246888078697,0.0006893363536987018,0.0007593391925521478,0.00019621095830493732,-0.0002803444101505746,-0.0010179350227780886,0.2720577120780945,22.819665908813477,-0.04922797530889511,-14.179414749145508,0.0015358328819274902,-2.1517977714538574,0.45352500677108765,0
32,0.1549665927886963,-0.2720577120780945,-22.847436904907227,0.02542426437139511,14.131807327270508,-0.01343768835067749,2.1453890800476074,-0.44711631536483765,0.0,0.0,0.0,0.0,0.0,0.0,0.0,-0.28612440654179705,-0.015328612969168555,-0.054479930831743975,0.28003452981909943,-0.2377717091876228,-0.02384105557539148,-0.4245129949795647,1.6755033914289974,0.052314182094991384,0.029807868565296568,-2.752707392748841,0.034463687223329445,2.7663486417562027,0.7692052415145767,1.6754973547542302,0.052104326824870026,0.029969505109285054,-2.752394845125968,0.0342448039870148,2.7663679543071322,0.7691630533470046,-0.0003627000196659193,0.0009245671045291355,6.862769112617036e-05,-2.070725455838768e-05,0.0002938423970913859,0.0007444491905713596,0.0006691509295784987,0.0,0.0,0.0,0.0,0.0,0.0,0.0,-6.036674767173622e-06,-0.00020985527012135768,0.00016163654398848593,0.00031254762287291626,-0.00021888323631464451,1.931255092957329e-05,-4.218816757206589e-05,0.0003627000196659193,-0.0009245671045291355,-6.862769112617036e-05,2.070725455838768e-05,-0.0002938423970913859,-0.0007444491905713596,-0.0006691509295784987,0.2720577120780945,22.847436904907227,-0.02542426437139511,-14.131807327270508,0.01343768835067749,-2.1453890800476074,0.44711631536483765,0
33,0.16020822525024414,-0.2720577120780945,-22.847436904907227,0.02542426437139511,14.131807327270508,-0.01343768835067749,2.1453890800476074,-0.44711631536483765,0.0,0.0,0.0,0.0,0.0,0.0,0.0,-0.28612440654179705,-0.015328612969168555,-0.054479930831743975,0.28003452981909943,-0.2377717091876228,-0.02384105557539148,-0.4245129949795647,1.6755033914289974,0.052314182094991384,0.029807868565296568,-2.752707392748841,0.034463687223329445,2.7663486417562027,0.7692052415145767,1.6754973547542302,0.052104326824870026,0.029969505109285054,-2.752394845125968,0.0342448039870148,2.7663679543071322,0.7691630533470046,-0.0003627000196659193,0.0009245671045291355,6.862769112617036e-05,-2.070725455838768e-05,0.0002938423970913859,0.0007444491905713596,0.0006691509295784987,0.0,0.0,0.0,0.0,0.0,0.0,0.0,-6.036674767173622e-06,-0.00020985527012135768,0.00016163654398848593,0.00031254762287291626,-0.00021888323631464451,1.931255092957329e-05,-4.218816757206589e-05,0.0003627000196659193,-0.0009245671045291355,-6.862769112617036e-05,2.070725455838768e-05,-0.0002938423970913859,-0.0007444491905713596,-0.0006691509295784987,0.2720577120780945,22.847436904907227,-0.02542426437139511,-14.131807327270508,0.01343768835067749,-2.1453890800476074,0.44711631536483765,0
34,0.16496729850769043,-0.3514034152030945,-22.795862197875977,0.001620553433895111,14.155611038208008,0.01036602258682251,2.1719393730163574,-0.43979209661483765,0.0,0.0,0.0,0.0,0.0,0.0,0.0,-0.2844593901249589,-0.016252959278927028,-0.055665893925447275,0.28260284059077007,-0.2379327151128098,-0.023129351753617397,-0.425994132578353,1.6755089595485149,0.05231340358010817,0.029810240917614507,-2.752711825486068,0.03446104529586568,2.766345692369662,0.7692012071781166,1.6754973547542302,0.052104326824870026,0.029969505109285054,-2.752394845125968,0.0342448039870148,2.7663679543071322,0.7691630533470046,0.0019620290191742,-0.0002677144697658452,0.0006240285353019044,-8.862070648256264e-05,-0.0005084748496078343,-0.00045988370885039566,0.0010031708571273037,0.0,0.0,0.0,0.0,0.0,0.0,0.0,-1.1604794284636455e-05,-0.00020907675523814534,0.00015926419167054673,0.0003169803600999721,-0.00021624130885088133,2.2261937470346993e-05,-3.815383111194226e-05,-0.0019620290191742,0.0002677144697658452,-0.0006240285353019044,8.862070648256264e-05,0.0005084748496078343,0.00045988370885039566,-0.0010031708571273037,0.3514034152030945,22.795862197875977,-0.001620553433895111,-14.155611038208008,-0.01036602258682251,-2.1719393730163574,0.43979209661483765,0
35,0.16996979713439941,-0.3514034152030945,-22.795862197875977,0.001620553433895111,14.155611038208008,0.01036602258682251,2.1719393730163574,-0.43979209661483765,0.0,0.0,0.0,0.0,0.0,0.0,0.0,-0.2844593901249589,-0.016252959278927028,-0.055665893925447275,0.28260284059077007,-0.2379327151128098,-0.023129351753617397,-0.425994132578353,1.6755089595485149,0.05231340358010817,0.029810240917614507,-2.752711825486068,0.03446104529586568,2.766345692369662,0.7692012071781166,1.6754973547542302,0.052104326824870026,0.029969505109285054,-2.752394845125968,0.0342448039870148,2.7663679543071322,0.7691630533470046,0.0019620290191742,-0.0002677144697658452,0.0006240285353019044,-8.862070648256264e-05,-0.0005084748496078343,-0.00045988370885039566,0.0010031708571273037,0.0,0.0,0.0,0.0,0.0,0.0,0.0,-1.1604794284636455e-05,-0.00020907675523814534,0.00015926419167054673,0.0003169803600999721,-0.00021624130885088133,2.2261937470346993e-05,-3.815383111194226e-05,-0.0019620290191742,0.0002677144697658452,-0.0006240285353019044,8.862070648256264e-05,0.0005084748496078343,0.00045988370885039566,-0.0010031708571273037,0.3514034152030945,22.795862197875977,-0.001620553433895111,-14.155611038208008,-0.01036602258682251,-2.1719393730163574,0.43979209661483765,0
36,0.17499947547912598,-0.2998287081718445,-22.819665908813477,-0.02615044265985489,14.131807327270508,-0.0015358328819274902,2.1655306816101074,-0.43979209661483765,0.0,0.0,0.0,0.0,0.0,0.0,0.0,-0.286290653419498,-0.013339582932598475,-0.05783847905781139,0.28056620566367796,-0.23723794268214238,-0.02382194378210174,-0.4248928249236788,1.6755053402708286,0.05231224497276385,0.029810057555328475,-2.752709460621376,0.03446525273920782,2.7663463913645434,0.7692012090616719,1.6754973547542302,0.052104326824870026,0.029969505109285054,-2.752394845125968,0.0342448039870148,2.7663679543071322,0.7691630533470046,-1.882264023739436e-05,0.00013927936657763526,0.0015287541307220129,0.00022974012404740883,-8.655893422736082e-05,5.083892090856674e-05,0.0010260501829774706,0.0,0.0,0.0,0.0,0.0,0.0,0.0,-7.98551659841884e-06,-0.00020791814789382357,0.00015944755395657859,0.00031461549540789946,-0.00022044875219302124,2.1562942588815304e-05,-3.815571466725398e-05,1.882264023739436e-05,-0.00013927936657763526,-0.0015287541307220129,-0.00022974012404740883,8.655893422736082e-05,-5.083892090856674e-05,-0.0010260501829774706,0.2998287081718445,22.819665908813477,0.02615044265985489,-14.131807327270508,0.0015358328819274902,-2.1655306816101074,0.43979209661483765,0
37,0.17996954917907715,-0.2998287081718445,-22.819665908813477,-0.02615044265985489,14.131807327270508,-0.0015358328819274902,2.1655306816101074,-0.43979209661483765,0.0,0.0,0.0,0.0,0.0,0.0,0.0,-0.286290653419498,-0.013339582932598475,-0.05783847905781139,0.28056620566367796,-0.23723794268214238,-0.02382194378210174,-0.4248928249236788,1.6755053402708286,0.05231224497276385,0.029810057555328475,-2.752709460621376,0.03446525273920782,2.7663463913645434,0.7692012090616719,1.6754973547542302,0.052104326824870026,0.029969505109285054,-2.752394845125968,0.0342448039870148,2.7663679543071322,0.7691630533470046,-1.882264023739436e-05,0.00013927936657763526,0.0015287541307220129,0.00022974012404740883,-8.655893422736082e-05,5.083892090856674e-05,0.0010260501829774706,0.0,0.0,0.0,0.0,0.0,0.0,0.0,-7.98551659841884e-06,-0.00020791814789382357,0.00015944755395657859,0.00031461549540789946,-0.00022044875219302124,2.1562942588815304e-05,-3.815571466725398e-05,1.882264023739436e-05,-0.00013927936657763526,-0.0015287541307220129,-0.00022974012404740883,8.655893422736082e-05,-5.083892090856674e-05,-0.0010260501829774706,0.2998287081718445,22.819665908813477,0.02615044265985489,-14.131807327270508,0.0015358328819274902,-2.1655306816101074,0.43979209661483765,0
38,0.18497586250305176,-0.3236324191093445,-22.847436904907227,0.04922797530889511,14.155611038208008,-0.00702899694442749,2.1582064628601074,-0.46084922552108765,0.0,0.0,0.0,0.0,0.0,0.0,0.0,-0.28730413480570177,-0.014008736407169342,-0.05590394836531964,0.28209461251255136,-0.23722702942621712,-0.023022242995741585,-0.42300542478386954,1.6755070107066838,0.052315128042692026,0.02980689712115176,-2.7527091501520737,0.034465981419325165,2.7663472166334495,0.769203548742665,1.6754973547542302,0.052104326824870026,0.029969505109285054,-2.752394845125968,0.0342448039870148,2.7663679543071322,0.7691630533470046,0.0008641976871117861,0.0007796466851969633,-0.0005160133269468775,-0.00045681354868839743,1.815600597358332e-05,-3.72599709776702e-05,0.0010059602019482662,0.0,0.0,0.0,0.0,0.0,0.0,0.0,-9.655952453613281e-06,-0.00021080121782200006,0.00016260798813329258,0.0003143050261056324,-0.00022117743231036407,2.073767368271362e-05,-4.0495395660422595e-05,-0.0008641976871117861,-0.0007796466851969633,0.0005160133269468775,0.00045681354868839743,-1.815600597358332e-05,3.72599709776702e-05,-0.0010059602019482662,0.3236324191093445,22.847436904907227,-0.04922797530889511,-14.155611038208008,0.00702899694442749,-2.1582064628601074,0.46084922552108765,0
39,0.1900031566619873,-0.3236324191093445,-22.847436904907227,0.04922797530889511,14.155611038208008,-0.00702899694442749,2.1582064628601074,-0.46084922552108765,0.0,0.0,0.0,0.0,0.0,0.0,0.0,-0.28730413480570177,-0.014008736407169342,-0.05590394836531964,0.28209461251255136,-0.23722702942621712,-0.023022242995741585,-0.42300542478386954,1.6755070107066838,0.052315128042692026,0.02980689712115176,-2.7527091501520737,0.034465981419325165,2.7663472166334495,0.769203548742665,1.6754973547542302,0.052104326824870026,0.029969505109285054,-2.752394845125968,0.0342448039870148,2.7663679543071322,0.7691630533470046,0.0008641976871117861,0.0007796466851969633,-0.0005160133269468775,-0.00045681354868839743,1.815600597358332e-05,-3.72599709776702e-05,0.0010059602019482662,0.0,0.0,0.0,0.0,0.0,0.0,0.0,-9.655952453613281e-06,-0.00021080121782200006,0.00016260798813329258,0.0003143050261056324,-0.00022117743231036407,2.073767368271362e-05,-4.0495395660422595e-05,-0.0008641976871117861,-0.0007796466851969633,0.0005160133269468775,0.00045681354868839743,-1.815600597358332e-05,3.72599709776702e-05,-0.0010059602019482662,0.3236324191093445,22.847436904907227,-0.04922797530889511,-14.155611038208008,0.00702899694442749,-2.1582064628601074,0.46084922552108765,0
40,0.19500732421875,-0.2998287081718445,-22.772058486938477,0.07303168624639511,14.131807327270508,-0.0015358328819274902,2.1582064628601074,-0.46084922552108765,0.0,0.0,0.0,0.0,0.0,0.0,0.0,-0.2870660041725151,-0.011130789893503619,-0.05655223175228274,0.2807041601602728,-0.2376960974874635,-0.023510902707855545,-0.42431193636335585,1.6755053402708286,0.05231102087729261,0.02980310531340981,-2.752710206314964,0.0344656810928652,2.766347205166618,0.769203548742665,1.6754973547542302,0.052104326824870026,0.029969505109285054,-2.752394845125968,0.0342448039870148,2.7663679543071322,0.7691630533470046,0.000628923982281026,-0.0006530114360797833,-0.0009630666292228627,0.0004882105590364402,-0.0003109196211104893,0.00010781157042985618,0.0012231727414170061,0.0,0.0,0.0,0.0,0.0,0.0,0.0,-7.98551659841884e-06,-0.00020669405242258743,0.00016639979587524528,0.00031536118899611054,-0.00022087710585039916,2.074914051419796e-05,-4.0495395660422595e-05,-0.000628923982281026,0.0006530114360797833,0.0009630666292228627,-0.0004882105590364402,0.0003109196211104893,-0.00010781157042985618,-0.0012231727414170061,0.2998287081718445,22.772058486938477,-0.07303168624639511,-14.131807327270508,0.0015358328819274902,-2.1582064628601074,0.46084922552108765,0
41,0.20001816749572754,-0.2998287081718445,-22.772058486938477,0.07303168624639511,14.131807327270508,-0.0015358328819274902,2.1582064628601074,-0.46084922552108765,0.0,0.0,0.0,0.0,0.0,0.0,0.0,-0.2870660041725151,-0.011130789893503619,-0.05655223175228274,0.2807041601602728,-0.2376960974874635,-0.023510902707855545,-0.42431193636335585,1.6755053402708286,0.05231102087729261,0.02980310531340981,-2.752710206314964,0.0344656810928652,2.766347205166618,0.769203548742665,1.6754973547542302,0.052104326824870026,0.029969505109285054,-2.752394845125968,0.0342448039870148,2.7663679543071322,0.7691630533470046,0.000628923982281026,-0.0006530114360797833,-0.0009630666292228627,0.0004882105590364402,-0.0003109196211104893,0.00010781157042985618,0.0012231727414170061,0.0,0.0,0.0,0.0,0.0,0.0,0.0,-7.98551659841884e-06,-0.00020669405242258743,0.00016639979587524528,0.00031536118899611054,-0.00022087710585039916,2.074914051419796e-05,-4.0495395660422595e-05,-0.000628923982281026,0.0006530114360797833,0.0009630666292228627,-0.0004882105590364402,0.0003109196211104893,-0.00010781157042985618,-0.0012231727414170061,0.2998287081718445,22.772058486938477,-0.07303168624639511,-14.131807327270508,0.0015358328819274902,-2.1582064628601074,0.46084922552108765,0
42,0.20498347282409668,-0.2998287081718445,-22.772058486938477,0.07303168624639511,14.131807327270508,-0.0015358328819274902,2.1582064628601074,-0.46084922552108765,0.0,0.0,0.0,0.0,0.0,0.0,0.0,-0.2870660041725151,-0.011130789893503619,-0.05655223175228274,0.2807041601602728,-0.2376960974874635,-0.023510902707855545,-0.42431193636335585,1.6755053402708286,0.05231102087729261,0.02980310531340981,-2.752710206314964,0.0344656810928652,2.766347205166618,0.769203548742665,1.6754973547542302,0.052104326824870026,0.029969505109285054,-2.752394845125968,0.0342448039870148,2.7663679543071322,0.7691630533470046,0.000628923982281026,-0.0006530114360797833,-0.0009630666292228627,0.0004882105590364402,-0.0003109196211104893,0.00010781157042985618,0.0012231727414170061,0.0,0.0,0.0,0.0,0.0,0.0,0.0,-7.98551659841884e-06,-0.00020669405242258743,0.00016639979587524528,0.00031536118899611054,-0.00022087710585039916,2.074914051419796e-05,-4.0495395660422595e-05,-0.000628923982281026,0.0006530114360797833,0.0009630666292228627,-0.0004882105590364402,0.0003109196211104893,-0.00010781157042985618,-0.0012231727414170061,0.2998287081718445,22.772058486938477,-0.07303168624639511,-14.131807327270508,0.0015358328819274902,-2.1582064628601074,0.46084922552108765,0
43,0.20996427536010742,-0.2998287081718445,-22.772058486938477,0.07303168624639511,14.131807327270508,-0.0015358328819274902,2.1582064628601074,-0.46084922552108765,0.0,0.0,0.0,0.0,0.0,0.0,0.0,-0.2870660041725151,-0.011130789893503619,-0.05655223175228274,0.2807041601602728,-0.2376960974874635,-0.023510902707855545,-0.42431193636335585,1.6755053402708286,0.05231102087729261,0.02980310531340981,-2.752710206314964,0.0344656810928652,2.766347205166618,0.769203548742665,1.6754973547542302,0.052104326824870026,0.029969505109285054,-2.752394845125968,0.0342448039870148,2.7663679543071322,0.7691630533470046,0.000628923982281026,-0.0006530114360797833,-0.0009630666292228627,0.0004882105590364402,-0.0003109196211104893,0.00010781157042985618,0.0012231727414170061,0.0,0.0,0.0,0.0,0.0,0.0,0.0,-7.98551659841884e-06,-0.00020669405242258743,0.00016639979587524528,0.00031536118899611054,-0.00022087710585039916,2.074914051419796e-05,-4.0495395660422595e-05,-0.000628923982281026,0.0006530114360797833,0.0009630666292228627,-0.0004882105590364402,0.0003109196211104893,-0.00010781157042985618,-0.0012231727414170061,0.2998287081718445,22.772058486938477,-0.07303168624639511,-14.131807327270508,0.0015358328819274902,-2.1582064628601074,0.46084922552108765,0
44,0.21497464179992676,-0.24825400114059448,-22.819665908813477,0.001620553433895111,14.155611038208008,-0.01343768835067749,2.1655306816101074,-0.40591758489608765,0.0,0.0,0.0,0.0,0.0,0.0,0.0,-0.29012508662049435,-0.01497349535695223,-0.06062953331641121,0.2869450703613351,-0.23720735492551417,-0.022583014517366194,-0.426260717847112,1.6755017209931422,0.052312262460941165,0.029810249691715234,-2.752709759417252,0.03446807536354978,2.766346389749414,0.76919744522704,1.6754973547542302,0.052104326824870026,0.029969505109285054,-2.752394845125968,0.0342448039870148,2.7663679543071322,0.7691630533470046,-0.0006887290066967568,0.0004378699082576567,-2.3081410835446586e-05,0.00023414057284453998,0.0002758632278505345,-0.00022663408960766149,-0.0009525557818877404,0.0,0.0,0.0,0.0,0.0,0.0,0.0,-4.366238911979181e-06,-0.00020793563607113957,0.0001592554175698195,0.0003149142912839409,-0.00022327137653498086,2.156455771817889e-05,-3.439188003540039e-05,0.0006887290066967568,-0.0004378699082576567,2.3081410835446586e-05,-0.00023414057284453998,-0.0002758632278505345,0.00022663408960766149,0.0009525557818877404,0.24825400114059448,22.819665908813477,-0.001620553433895111,-14.155611038208008,0.01343768835067749,-2.1655306816101074,0.40591758489608765,0
45,0.22000479698181152,-0.24825400114059448,-22.819665908813477,0.001620553433895111,14.155611038208008,-0.01343768835067749,2.1655306816101074,-0.40591758489608765,0.0,0.0,0.0,0.0,0.0,0.0,0.0,-0.29012508662049435,-0.01497349535695223,-0.06062953331641121,0.2869450703613351,-0.23720735492551417,-0.022583014517366194,-0.426260717847112,1.6755017209931422,0.052312262460941165,0.029810249691715234,-2.752709759417252,0.03446807536354978,2.766346389749414,0.76919744522704,1.6754973547542302,0.052104326824870026,0.029969505109285054,-2.752394845125968,0.0342448039870148,2.7663679543071322,0.7691630533470046,-0.0006887290066967568,0.0004378699082576567,-2.3081410835446586e-05,0.00023414057284453998,0.0002758632278505345,-0.00022663408960766149,-0.0009525557818877404,0.0,0.0,0.0,0.0,0.0,0.0,0.0,-4.366238911979181e-06,-0.00020793563607113957,0.0001592554175698195,0.0003149142912839409,-0.00022327137653498086,2.156455771817889e-05,-3.439188003540039e-05,0.0006887290066967568,-0.0004378699082576567,2.3081410835446586e-05,-0.00023414057284453998,-0.0002758632278505345,0.00022663408960766149,0.0009525557818877404,0.24825400114059448,22.819665908813477,-0.001620553433895111,-14.155611038208008,0.01343768835067749,-2.1655306816101074,0.40591758489608765,0
46,0.22498869895935059,-0.2720577120780945,-22.819665908813477,0.04922797530889511,14.108003616333008,-0.0015358328819274902,2.1517977714538574,-0.45352500677108765,0.0,0.0,0.0,0.0,0.0,0.0,0.0,-0.2831875113318722,-0.015007566194816694,-0.05782489446052488,0.285140283994322,-0.23782120671614368,-0.02296731132828122,-0.42577849054612527,1.6755033914289974,0.05231223426241289,0.029806171807122542,-2.752705806018283,0.034463561796816665,2.766347889625912,0.7692027349405818,1.6754973547542302,0.052104326824870026,0.029969505109285054,-2.752394845125968,0.0342448039870148,2.7663679543071322,0.7691630533470046,-0.00011163522729953016,-3.194918999359976e-05,-0.000619418274009551,0.0011724844284472563,-0.00010538441109430316,0.0002894250407903592,0.0018252270027805072,0.0,0.0,0.0,0.0,0.0,0.0,0.0,-6.036674767173622e-06,-0.00020790743754286328,0.0001633333021625119,0.0003109608923148599,-0.00021875780980186443,2.006468122006666e-05,-3.968159357714551e-05,0.00011163522729953016,3.194918999359976e-05,0.000619418274009551,-0.0011724844284472563,0.00010538441109430316,-0.0002894250407903592,-0.0018252270027805072,0.2720577120780945,22.819665908813477,-0.04922797530889511,-14.108003616333008,0.0015358328819274902,-2.1517977714538574,0.45352500677108765,0
47,0.22998929023742676,-0.2720577120780945,-22.819665908813477,0.04922797530889511,14.108003616333008,-0.0015358328819274902,2.1517977714538574,-0.45352500677108765,0.0,0.0,0.0,0.0,0.0,0.0,0.0,-0.2831875113318722,-0.015007566194816694,-0.05782489446052488,0.285140283994322,-0.23782120671614368,-0.02296731132828122,-0.42577849054612527,1.6755033914289974,0.05231223426241289,0.029806171807122542,-2.752705806018283,0.034463561796816665,2.766347889625912,0.7692027349405818,1.6754973547542302,0.052104326824870026,0.029969505109285054,-2.752394845125968,0.0342448039870148,2.7663679543071322,0.7691630533470046,-0.00011163522729953016,-3.194918999359976e-05,-0.000619418274009551,0.0011724844284472563,-0.00010538441109430316,0.0002894250407903592,0.0018252270027805072,0.0,0.0,0.0,0.0,0.0,0.0,0.0,-6.036674767173622e-06,-0.00020790743754286328,0.0001633333021625119,0.0003109608923148599,-0.00021875780980186443,2.006468122006666e-05,-3.968159357714551e-05,0.00011163522729953016,3.194918999359976e-05,0.000619418274009551,-0.0011724844284472563,0.00010538441109430316,-0.0002894250407903592,-0.0018252270027805072,0.2720577120780945,22.819665908813477,-0.04922797530889511,-14.108003616333008,0.0015358328819274902,-2.1517977714538574,0.45352500677108765,0
48,0.23499155044555664,-0.2720577120780945,-22.847436904907227,0.04922797530889511,14.155611038208008,-0.0015358328819274902,2.1517977714538574,-0.45352500677108765,0.0,0.0,0.0,0.0,0.0,0.0,0.0,-0.2830157202010064,-0.011153937587521054,-0.06055636706317309,0.28130842004943757,-0.2380913277496721,-0.023918858517198504,-0.42342101417324535,1.6755033914289974,0.05231491783201193,0.02980477672007134,-2.752712033658858,0.03446520670138788,2.7663479156281645,0.7692027349405818,1.6754973547542302,0.052104326824870026,0.029969505109285054,-2.752394845125968,0.0342448039870148,2.7663679543071322,0.7691630533470046,-0.0004344184426910105,0.0010227439535358662,-0.0005858875869771282,-0.0004204166642475518,-0.00011934683649598619,0.0003835856051515309,0.0010716394574381651,0.0,0.0,0.0,0.0,0.0,0.0,0.0,-6.036674767173622e-06,-0.0002105910071419012,0.00016472838921371274,0.0003171885328900892,-0.00022040271437307607,2.0038678967715384e-05,-3.968159357714551e-05,0.0004344184426910105,-0.0010227439535358662,0.0005858875869771282,0.0004204166642475518,0.00011934683649598619,-0.0003835856051515309,-0.0010716394574381651,0.2720577120780945,22.847436904907227,-0.04922797530889511,-14.155611038208008,0.0015358328819274902,-2.1517977714538574,0.45352500677108765,0
49,0.2411959171295166,-0.2720577120780945,-22.847436904907227,0.04922797530889511,14.155611038208008,-0.0015358328819274902,2.1517977714538574,-0.45352500677108765,0.0,0.0,0.0,0.0,0.0,0.0,0.0,-0.2830157202010064,-0.011153937587521054,-0.06055636706317309,0.28130842004943757,-0.2380913277496721,-0.023918858517198504,-0.42342101417324535,1.6755033914289974,0.05231491783201193,0.02980477672007134,-2.752712033658858,0.03446520670138788,2.7663479156281645,0.7692027349405818,1.6754973547542302,0.052104326824870026,0.029969505109285054,-2.752394845125968,0.0342448039870148,2.7663679543071322,0.7691630533470046,-0.0004344184426910105,0.0010227439535358662,-0.0005858875869771282,-0.0004204166642475518,-0.00011934683649598619,0.0003835856051515309,0.0010716394574381651,0.0,0.0,0.0,0.0,0.0,0.0,0.0,-6.036674767173622e-06,-0.0002105910071419012,0.00016472838921371274,0.0003171885328900892,-0.00022040271437307607,2.0038678967715384e-05,-3.968159357714551e-05,0.0004344184426910105,-0.0010227439535358662,0.0005858875869771282,0.0004204166642475518,0.00011934683649598619,-0.0003835856051515309,-0.0010716394574381651,0.2720577120780945,22.847436904907227,-0.04922797530889511,-14.155611038208008,0.0015358328819274902,-2.1517977714538574,0.45352500677108765,0
50,0.2449789047241211,-0.2720577120780945,-22.772058486938477,0.07303168624639511,14.108003616333008,-0.00702899694442749,2.1719393730163574,-0.46084922552108765,0.0,0.0,0.0,0.0,0.0,0.0,0.0,-0.2772838511156735,-0.012820767176009298,-0.054839678506735004,0.28144888729412276,-0.23839886232738666,-0.024101691237409243,-0.4241005079233032,1.6755033914289974,0.05230889335864639,0.029805238275832625,-2.7527085528669315,0.034463738657993216,2.7663456875244226,0.769203548742665,1.6754973547542302,0.052104326824870026,0.029969505109285054,-2.752394845125968,0.0342448039870148,2.7663679543071322,0.7691630533470046,-6.485822334108709e-05,-0.0006294934518987587,-0.0006566278581034109,0.0007693805903555414,-1.131698581651287e-06,-0.0003415766426780776,0.0014090780411300362,0.0,0.0,0.0,0.0,0.0,0.0,0.0,-6.036674767173622e-06,-0.00020456653377636663,0.00016426683345242832,0.00031370774096339815,-0.00021893467097841568,2.2266782709667865e-05,-4.0495395660422595e-05,6.485822334108709e-05,0.0006294934518987587,0.0006566278581034109,-0.0007693805903555414,1.131698581651287e-06,0.0003415766426780776,-0.0014090780411300362,0.2720577120780945,22.772058486938477,-0.07303168624639511,-14.108003616333008,0.00702899694442749,-2.1719393730163574,0.46084922552108765,0
51,0.24996709823608398,-0.2720577120780945,-22.772058486938477,0.07303168624639511,14.108003616333008,-0.00702899694442749,2.1719393730163574,-0.46084922552108765,0.0,0.0,0.0,0.0,0.0,0.0,0.0,-0.2772838511156735,-0.012820767176009298,-0.054839678506735004,0.28144888729412276,-0.23839886232738666,-0.024101691237409243,-0.4241005079233032,1.6755033914289974,0.05230889335864639,0.029805238275832625,-2.7527085528669315,0.034463738657993216,2.7663456875244226,0.769203548742665,1.6754973547542302,0.052104326824870026,0.029969505109285054,-2.752394845125968,0.0342448039870148,2.7663679543071322,0.7691630533470046,-6.485822334108709e-05,-0.0006294934518987587,-0.0006566278581034109,0.0007693805903555414,-1.131698581651287e-06,-0.0003415766426780776,0.0014090780411300362,0.0,0.0,0.0,0.0,0.0,0.0,0.0,-6.036674767173622e-06,-0.00020456653377636663,0.00016426683345242832,0.00031370774096339815,-0.00021893467097841568,2.2266782709667865e-05,-4.0495395660422595e-05,6.485822334108709e-05,0.0006294934518987587,0.0006566278581034109,-0.0007693805903555414,1.131698581651287e-06,0.0003415766426780776,-0.0014090780411300362,0.2720577120780945,22.772058486938477,-0.07303168624639511,-14.108003616333008,0.00702899694442749,-2.1719393730163574,0.46084922552108765,0
52,0.25519275665283203,-0.2720577120780945,-22.819665908813477,0.02542426437139511,14.131807327270508,-0.00702899694442749,2.1655306816101074,-0.45352500677108765,0.0,0.0,0.0,0.0,0.0,0.0,0.0,-0.2784119999985894,-0.01930409607282409,-0.05415763400529937,0.2839347281388791,-0.23803058449713618,-0.023675915233686257,-0.42529805683066074,1.6755033914289974,0.0523123471170975,0.029808579267900606,-2.7527096901505335,0.03446618579702194,2.7663451878249123,0.7692027349405818,1.6754973547542302,0.052104326824870026,0.029969505109285054,-2.752394845125968,0.0342448039870148,2.7663679543071322,0.7691630533470046,0.00023742450727832982,-5.877609898577179e-05,0.00010550490261014174,0.0003144629338281246,-0.00010667912279830581,-0.00015635626587156735,0.000964785534710138,0.0,0.0,0.0,0.0,0.0,0.0,0.0,-6.036674767173622e-06,-0.0002080202922274746,0.0001609258413844475,0.0003148450245653578,-0.00022138181000713741,2.2766482219882533e-05,-3.968159357714551e-05,-0.00023742450727832982,5.877609898577179e-05,-0.00010550490261014174,-0.0003144629338281246,0.00010667912279830581,0.00015635626587156735,-0.000964785534710138,0.2720577120780945,22.819665908813477,-0.02542426437139511,-14.131807327270508,0.00702899694442749,-2.1655306816101074,0.45352500677108765,0
53,0.2599647045135498,-0.2720577120780945,-22.819665908813477,0.02542426437139511,14.131807327270508,-0.00702899694442749,2.1655306816101074,-0.45352500677108765,0.0,0.0,0.0,0.0,0.0,0.0,0.0,-0.2784119999985894,-0.01930409607282409,-0.05415763400529937,0.2839347281388791,-0.23803058449713618,-0.023675915233686257,-0.42529805683066074,1.6755033914289974,0.0523123471170975,0.029808579267900606,-2.7527096901505335,0.03446618579702194,2.7663451878249123,0.7692027349405818,1.6754973547542302,0.052104326824870026,0.029969505109285054,-2.752394845125968,0.0342448039870148,2.7663679543071322,0.7691630533470046,0.00023742450727832982,-5.877609898577179e-05,0.00010550490261014174,0.0003144629338281246,-0.00010667912279830581,-0.00015635626587156735,0.000964785534710138,0.0,0.0,0.0,0.0,0.0,0.0,0.0,-6.036674767173622e-06,-0.0002080202922274746,0.0001609258413844475,0.0003148450245653578,-0.00022138181000713741,2.2766482219882533e-05,-3.968159357714551e-05,-0.00023742450727832982,5.877609898577179e-05,-0.00010550490261014174,-0.0003144629338281246,0.00010667912279830581,0.00015635626587156735,-0.000964785534710138,0.2720577120780945,22.819665908813477,-0.02542426437139511,-14.131807327270508,0.00702899694442749,-2.1655306816101074,0.45352500677108765,0
54,0.26497745513916016,-0.2998287081718445,-22.795862197875977,0.02542426437139511,14.179414749145508,-0.01343768835067749,2.1655306816101074,-0.44711631536483765,0.0,0.0,0.0,0.0,0.0,0.0,0.0,-0.2798987003218084,-0.016396945284224015,-0.05392315214102106,0.2810823224690598,-0.23775333940085194,-0.023950329383595426,-0.4262197331583576,1.6755053402708286,0.05231128442557938,0.02980644716008713,-2.7527113969218973,0.03446369081679145,2.76634639119617,0.7692020214102085,1.6754973547542302,0.052104326824870026,0.029969505109285054,-2.752394845125968,0.0342448039870148,2.7663679543071322,0.7691630533470046,0.00016863143579454062,-0.00035890283863861637,0.0003275331042124741,-0.0009887041133973123,0.0001667393776440418,-0.00022478353769047723,0.0010724629350190855,0.0,0.0,0.0,0.0,0.0,0.0,0.0,-7.98551659841884e-06,-0.00020695760070935099,0.00016305794919792282,0.00031655179592915417,-0.00021888682977665164,2.1563110962130594e-05,-3.896806320391466e-05,-0.00016863143579454062,0.00035890283863861637,-0.0003275331042124741,0.0009887041133973123,-0.0001667393776440418,0.00022478353769047723,-0.0010724629350190855,0.2998287081718445,22.795862197875977,-0.02542426437139511,-14.179414749145508,0.01343768835067749,-2.1655306816101074,0.44711631536483765,0
55,0.27001261711120605,-0.2998287081718445,-22.795862197875977,0.02542426437139511,14.179414749145508,-0.01343768835067749,2.1655306816101074,-0.44711631536483765,0.0,0.0,0.0,0.0,0.0,0.0,0.0,-0.2798987003218084,-0.016396945284224015,-0.05392315214102106,0.2810823224690598,-0.23775333940085194,-0.023950329383595426,-0.4262197331583576,1.6755053402708286,0.05231128442557938,0.02980644716008713,-2.7527113969218973,0.03446369081679145,2.76634639119617,0.7692020214102085,1.6754973547542302,0.052104326824870026,0.029969505109285054,-2.752394845125968,0.0342448039870148,2.7663679543071322,0.7691630533470046,0.00016863143579454062,-0.00035890283863861637,0.0003275331042124741,-0.0009887041133973123,0.0001667393776440418,-0.00022478353769047723,0.0010724629350190855,0.0,0.0,0.0,0.0,0.0,0.0,0.0,-7.98551659841884e-06,-0.00020695760070935099,0.00016305794919792282,0.00031655179592915417,-0.00021888682977665164,2.1563110962130594e-05,-3.896806320391466e-05,-0.00016863143579454062,0.00035890283863861637,-0.0003275331042124741,0.0009887041133973123,-0.0001667393776440418,0.00022478353769047723,-0.0010724629350190855,0.2998287081718445,22.795862197875977,-0.02542426437139511,-14.179414749145508,0.01343768835067749,-2.1655306816101074,0.44711631536483765,0
56,0.2750065326690674,-0.2998287081718445,-22.795862197875977,0.04922797530889511,14.108003616333008,-0.00702899694442749,2.1655306816101074,-0.45352500677108765,0.0,0.0,0.0,0.0,0.0,0.0,0.0,-0.2825741345632916,-0.018840218645276074,-0.05357474493377672,0.28345323431380887,-0.23786834377186852,-0.02361186522922863,-0.42485614459432625,1.6755053402708286,0.05231056285726893,0.02980682689224462,-2.752705925063862,0.03446586991775787,2.7663464029928706,0.7692023671923613,1.6754973547542302,0.052104326824870026,0.029969505109285054,-2.752394845125968,0.0342448039870148,2.7663679543071322,0.7691630533470046,0.00025652206339958725,-0.0006271621577155757,-0.0008714696442512236,0.0009564298021415706,4.262995536897792e-05,-0.0003149846916745727,0.0014767826623291811,0.0,0.0,0.0,0.0,0.0,0.0,0.0,-7.98551659841884e-06,-0.00020623603239890154,0.00016267821704043367,0.0003110799378940321,-0.00022106593074307235,2.1551314261625265e-05,-3.931384535671434e-05,-0.00025652206339958725,0.0006271621577155757,0.0008714696442512236,-0.0009564298021415706,-4.262995536897792e-05,0.0003149846916745727,-0.0014767826623291811,0.2998287081718445,22.795862197875977,-0.04922797530889511,-14.108003616333008,0.00702899694442749,-2.1655306816101074,0.45352500677108765,0
57,0.27997803688049316,-0.2998287081718445,-22.795862197875977,0.04922797530889511,14.108003616333008,-0.00702899694442749,2.1655306816101074,-0.45352500677108765,0.0,0.0,0.0,0.0,0.0,0.0,0.0,-0.2825741345632916,-0.018840218645276074,-0.05357474493377672,0.28345323431380887,-0.23786834377186852,-0.02361186522922863,-0.42485614459432625,1.6755053402708286,0.05231056285726893,0.02980682689224462,-2.752705925063862,0.03446586991775787,2.7663464029928706,0.7692023671923613,1.6754973547542302,0.052104326824870026,0.029969505109285054,-2.752394845125968,0.0342448039870148,2.7663679543071322,0.7691630533470046,0.00025652206339958725,-0.0006271621577155757,-0.0008714696442512236,0.0009564298021415706,4.262995536897792e-05,-0.0003149846916745727,0.0014767826623291811,0.0,0.0,0.0,0.0,0.0,0.0,0.0,-7.98551659841884e-06,-0.00020623603239890154,0.00016267821704043367,0.0003110799378940321,-0.00022106593074307235,2.1551314261625265e-05,-3.931384535671434e-05,-0.00025652206339958725,0.0006271621577155757,0.0008714696442512236,-0.0009564298021415706,-4.262995536897792e-05,0.0003149846916745727,-0.0014767826623291811,0.2998287081718445,22.795862197875977,-0.04922797530889511,-14.108003616333008,0.00702899694442749,-2.1655306816101074,0.45352500677108765,0
58,0.28496503829956055,-0.2720577120780945,-22.772058486938477,0.02542426437139511,14.131807327270508,-0.00702899694442749,2.1655306816101074,-0.44711631536483765,0.0,0.0,0.0,0.0,0.0,0.0,0.0,-0.28576870664453824,-0.014072625306522618,-0.055199160607403486,0.2810279605750592,-0.23781578897670494,-0.024742821870530007,-0.4235106751413529,1.6755033914289974,0.05230891869366785,0.029808342366570494,-2.752710232560275,0.034462975704572185,2.766346286493577,0.7692019836158263,1.6754973547542302,0.052104326824870026,0.029969505109285054,-2.752394845125968,0.0342448039870148,2.7663679543071322,0.7691630533470046,-0.0006357476008765602,-0.0006620744646877506,-0.00031892470885118413,-2.650102895746036e-05,-1.617901984190189e-07,-0.00012618939650995797,0.0013842211748664372,0.0,0.0,0.0,0.0,0.0,0.0,0.0,-6.036674767173622e-06,-0.00020459186879782237,0.0001611627427145594,0.00031538743430692406,-0.00021817171755738468,2.1667813555392712e-05,-3.89302688216242e-05,0.0006357476008765602,0.0006620744646877506,0.00031892470885118413,2.650102895746036e-05,1.617901984190189e-07,0.00012618939650995797,-0.0013842211748664372,0.2720577120780945,22.772058486938477,-0.02542426437139511,-14.131807327270508,0.00702899694442749,-2.1655306816101074,0.44711631536483765,0
59,0.2900874614715576,-0.2720577120780945,-22.772058486938477,0.02542426437139511,14.131807327270508,-0.00702899694442749,2.1655306816101074,-0.44711631536483765,0.0,0.0,0.0,0.0,0.0,0.0,0.0,-0.28576870664453824,-0.014072625306522618,-0.055199160607403486,0.2810279605750592,-0.23781578897670494,-0.024742821870530007,-0.4235106751413529,1.6755033914289974,0.05230891869366785,0.029808342366570494,-2.752710232560275,0.034462975704572185,2.766346286493577,0.7692019836158263,1.6754973547542302,0.052104326824870026,0.029969505109285054,-2.752394845125968,0.0342448039870148,2.7663679543071322,0.7691630533470046,-0.0006357476008765602,-0.0006620744646877506,-0.00031892470885118413,-2.650102895746036e-05,-1.617901984190189e-07,-0.00012618939650995797,0.0013842211748664372,0.0,0.0,0.0,0.0,0.0,0.0,0.0,-6.036674767173622e-06,-0.00020459186879782237,0.0001611627427145594,0.00031538743430692406,-0.00021817171755738468,2.1667813555392712e-05,-3.89302688216242e-05,0.0006357476008765602,0.0006620744646877506,0.00031892470885118413,2.650102895746036e-05,1.617901984190189e-07,0.00012618939650995797,-0.0013842211748664372,0.2720577120780945,22.772058486938477,-0.02542426437139511,-14.131807327270508,0.00702899694442749,-2.1655306816101074,0.44711631536483765,0
60,0.2949647903442383,-0.2720577120780945,-22.847436904907227,0.04922797530889511,14.155611038208008,-0.01343768835067749,2.1517977714538574,-0.46725791692733765,0.0,0.0,0.0,0.0,0.0,0.0,0.0,-0.28343842317877677,-0.019201405326498687,-0.053100018648333226,0.28366149659215034,-0.2383220475698755,-0.02404853511095404,-0.4236984747622603,1.6755033914289974,0.05231418209498603,0.029806908830708707,-2.75271203262463,0.03446654429108533,2.7663479302709013,0.7692042608192664,1.6754973547542302,0.052104326824870026,0.029969505109285054,-2.752394845125968,0.0342448039870148,2.7663679543071322,0.7691630533470046,-0.00010841697902479701,0.0005427313828537421,-0.00044619271669100476,-0.00042750766365869575,0.0004088085260980093,0.0006000550988745088,0.00141308286345069,0.0,0.0,0.0,0.0,0.0,0.0,0.0,-6.036674767173622e-06,-0.00020985527011600086,0.00016259627857634698,0.0003171874986618306,-0.0002217403040705307,2.0024036230914533e-05,-4.120747226177279e-05,0.00010841697902479701,-0.0005427313828537421,0.00044619271669100476,0.00042750766365869575,-0.0004088085260980093,-0.0006000550988745088,-0.00141308286345069,0.2720577120780945,22.847436904907227,-0.04922797530889511,-14.155611038208008,0.01343768835067749,-2.1517977714538574,0.46725791692733765,0
61,0.29996776580810547,-0.2720577120780945,-22.847436904907227,0.04922797530889511,14.155611038208008,-0.01343768835067749,2.1517977714538574,-0.46725791692733765,0.0,0.0,0.0,0.0,0.0,0.0,0.0,-0.28343842317877677,-0.019201405326498687,-0.053100018648333226,0.28366149659215034,-0.2383220475698755,-0.02404853511095404,-0.4236984747622603,1.6755033914289974,0.05231418209498603,0.029806908830708707,-2.75271203262463,0.03446654429108533,2.7663479302709013,0.7692042608192664,1.6754973547542302,0.052104326824870026,0.029969505109285054,-2.752394845125968,0.0342448039870148,2.7663679543071322,0.7691630533470046,-0.00010841697902479701,0.0005427313828537421,-0.00044619271669100476,-0.00042750766365869575,0.0004088085260980093,0.0006000550988745088,0.00141308286345069,0.0,0.0,0.0,0.0,0.0,0.0,0.0,-6.036674767173622e-06,-0.00020985527011600086,0.00016259627857634698,0.0003171874986618306,-0.0002217403040705307,2.0024036230914533e-05,-4.120747226177279e-05,0.00010841697902479701,-0.0005427313828537421,0.00044619271669100476,0.00042750766365869575,-0.0004088085260980093,-0.0006000550988745088,-0.00141308286345069,0.2720577120780945,22.847436904907227,-0.04922797530889511,-14.155611038208008,0.01343768835067749,-2.1517977714538574,0.46725791692733765,0
62,0.3049638271331787,-0.2998287081718445,-22.819665908813477,0.02542426437139511,14.108003616333008,-0.00702899694442749,2.1582064628601074,-0.44711631536483765,0.0,0.0,0.0,0.0,0.0,0.0,0.0,-0.2859921868011703,-0.015030519424007916,-0.05644625437611659,0.28106689934053836,-0.23826445688043474,-0.0241302840153907,-0.42488875537945264,1.6755053402708286,0.05231436271686055,0.0298084999759783,-2.7527064129825543,0.034462751542012636,2.766347218248579,0.7692020228637588,1.6754973547542302,0.052104326824870026,0.029969505109285054,-2.752394845125968,0.0342448039870148,2.7663679543071322,0.7691630533470046,0.0002909434417404567,0.00032381201868599425,-2.4970157076840602e-05,0.000820831699221168,-2.618635572322016e-05,0.00016426120108344104,0.0011166051627860215,0.0,0.0,0.0,0.0,0.0,0.0,0.0,-7.98551659841884e-06,-0.00021003589199052736,0.0001610051333067533,0.00031156785658614794,-0.00021794755499783547,2.0736058553350034e-05,-3.89695167541948e-05,-0.0002909434417404567,-0.00032381201868599425,2.4970157076840602e-05,-0.000820831699221168,2.618635572322016e-05,-0.00016426120108344104,-0.0011166051627860215,0.2998287081718445,22.819665908813477,-0.02542426437139511,-14.108003616333008,0.00702899694442749,-2.1582064628601074,0.44711631536483765,0
63,0.3099691867828369,-0.2998287081718445,-22.819665908813477,0.02542426437139511,14.108003616333008,-0.00702899694442749,2.1582064628601074,-0.44711631536483765,0.0,0.0,0.0,0.0,0.0,0.0,0.0,-0.2859921868011703,-0.015030519424007916,-0.05644625437611659,0.28106689934053836,-0.23826445688043474,-0.0241302840153907,-0.42488875537945264,1.6755053402708286,0.05231436271686055,0.0298084999759783,-2.7527064129825543,0.034462751542012636,2.766347218248579,0.7692020228637588,1.6754973547542302,0.052104326824870026,0.029969505109285054,-2.752394845125968,0.0342448039870148,2.7663679543071322,0.7691630533470046,0.0002909434417404567,0.00032381201868599425,-2.4970157076840602e-05,0.000820831699221168,-2.618635572322016e-05,0.00016426120108344104,0.0011166051627860215,0.0,0.0,0.0,0.0,0.0,0.0,0.0,-7.98551659841884e-06,-0.00021003589199052736,0.0001610051333067533,0.00031156785658614794,-0.00021794755499783547,2.0736058553350034e-05,-3.89695167541948e-05,-0.0002909434417404567,-0.00032381201868599425,2.4970157076840602e-05,-0.000820831699221168,2.618635572322016e-05,-0.00016426120108344104,-0.0011166051627860215,0.2998287081718445,22.819665908813477,-0.02542426437139511,-14.108003616333008,0.00702899694442749,-2.1582064628601074,0.44711631536483765,0
64,0.3149862289428711,-0.2720577120780945,-22.795862197875977,0.07303168624639511,14.179414749145508,-0.0015358328819274902,2.1719393730163574,-0.44711631536483765,0.0,0.0,0.0,0.0,0.0,0.0,0.0,-0.28556693408948025,-0.020551803370634815,-0.05450331954503649,0.2824304544313483,-0.23834012970354568,-0.023481723662219015,-0.423952718254245,1.6755033914289974,0.05231056318961542,0.029805238395743155,-2.7527130027359203,0.03446236333105479,2.766345686555472,0.7692020228637588,1.6754973547542302,0.052104326824870026,0.029969505109285054,-2.752394845125968,0.0342448039870148,2.7663679543071322,0.7691630533470046,-0.0004898940167784492,-0.000669213468093965,-0.0011902645353103782,-0.0007481174651526863,-0.00021085778473504298,-0.0003853279069991064,0.0010577063682145594,0.0,0.0,0.0,0.0,0.0,0.0,0.0,-6.036674767173622e-06,-0.00020623636474539214,0.0001642667135418989,0.00031815760995224096,-0.00021755934403999005,2.226775166036532e-05,-3.89695167541948e-05,0.0004898940167784492,0.000669213468093965,0.0011902645353103782,0.0007481174651526863,0.00021085778473504298,0.0003853279069991064,-0.0010577063682145594,0.2720577120780945,22.795862197875977,-0.07303168624639511,-14.179414749145508,0.0015358328819274902,-2.1719393730163574,0.44711631536483765,0
65,0.32001399993896484,-0.2720577120780945,-22.795862197875977,0.07303168624639511,14.179414749145508,-0.0015358328819274902,2.1719393730163574,-0.44711631536483765,0.0,0.0,0.0,0.0,0.0,0.0,0.0,-0.28556693408948025,-0.020551803370634815,-0.05450331954503649,0.2824304544313483,-0.23834012970354568,-0.023481723662219015,-0.423952718254245,1.6755033914289974,0.05231056318961542,0.029805238395743155,-2.7527130027359203,0.03446236333105479,2.766345686555472,0.7692020228637588,1.6754973547542302,0.052104326824870026,0.029969505109285054,-2.752394845125968,0.0342448039870148,2.7663679543071322,0.7691630533470046,-0.0004898940167784492,-0.000669213468093965,-0.0011902645353103782,-0.0007481174651526863,-0.00021085778473504298,-0.0003853279069991064,0.0010577063682145594,0.0,0.0,0.0,0.0,0.0,0.0,0.0,-6.036674767173622e-06,-0.00020623636474539214,0.0001642667135418989,0.00031815760995224096,-0.00021755934403999005,2.226775166036532e-05,-3.89695167541948e-05,0.0004898940167784492,0.000669213468093965,0.0011902645353103782,0.0007481174651526863,0.00021085778473504298,0.0003853279069991064,-0.0010577063682145594,0.2720577120780945,22.795862197875977,-0.07303168624639511,-14.179414749145508,0.0015358328819274902,-2.1719393730163574,0.44711631536483765,0
66,0.32497692108154297,-0.2720577120780945,-22.795862197875977,0.07303168624639511,14.179414749145508,-0.0015358328819274902,2.1719393730163574,-0.44711631536483765,0.0,0.0,0.0,0.0,0.0,0.0,0.0,-0.28556693408948025,-0.020551803370634815,-0.05450331954503649,0.2824304544313483,-0.23834012970354568,-0.023481723662219015,-0.423952718254245,1.6755033914289974,0.05231056318961542,0.029805238395743155,-2.7527130027359203,0.03446236333105479,2.766345686555472,0.7692020228637588,1.6754973547542302,0.052104326824870026,0.029969505109285054,-2.752394845125968,0.0342448039870148,2.7663679543071322,0.7691630533470046,-0.0004898940167784492,-0.000669213468093965,-0.0011902645353103782,-0.0007481174651526863,-0.00021085778473504298,-0.0003853279069991064,0.0010577063682145594,0.0,0.0,0.0,0.0,0.0,0.0,0.0,-6.036674767173622e-06,-0.00020623636474539214,0.0001642667135418989,0.00031815760995224096,-0.00021755934403999005,2.226775166036532e-05,-3.89695167541948e-05,0.0004898940167784492,0.000669213468093965,0.0011902645353103782,0.0007481174651526863,0.00021085778473504298,0.0003853279069991064,-0.0010577063682145594,0.2720577120780945,22.795862197875977,-0.07303168624639511,-14.179414749145508,0.0015358328819274902,-2.1719393730163574,0.44711631536483765,0
67,0.32997608184814453,-0.2720577120780945,-22.795862197875977,0.07303168624639511,14.179414749145508,-0.0015358328819274902,2.1719393730163574,-0.44711631536483765,0.0,0.0,0.0,0.0,0.0,0.0,0.0,-0.28556693408948025,-0.020551803370634815,-0.05450331954503649,0.2824304544313483,-0.23834012970354568,-0.023481723662219015,-0.423952718254245,1.6755033914289974,0.05231056318961542,0.029805238395743155,-2.7527130027359203,0.03446236333105479,2.766345686555472,0.7692020228637588,1.6754973547542302,0.052104326824870026,0.029969505109285054,-2.752394845125968,0.0342448039870148,2.7663679543071322,0.7691630533470046,-0.0004898940167784492,-0.000669213468093965,-0.0011902645353103782,-0.0007481174651526863,-0.00021085778473504298,-0.0003853279069991064,0.0010577063682145594,0.0,0.0,0.0,0.0,0.0,0.0,0.0,-6.036674767173622e-06,-0.00020623636474539214,0.0001642667135418989,0.00031815760995224096,-0.00021755934403999005,2.226775166036532e-05,-3.89695167541948e-05,0.0004898940167784492,0.000669213468093965,0.0011902645353103782,0.0007481174651526863,0.00021085778473504298,0.0003853279069991064,-0.0010577063682145594,0.2720577120780945,22.795862197875977,-0.07303168624639511,-14.179414749145508,0.0015358328819274902,-2.1719393730163574,0.44711631536483765,0
68,0.33496570587158203,-0.24825400114059448,-22.772058486938477,0.02542426437139511,14.131807327270508,-0.00702899694442749,2.1655306816101074,-0.46084922552108765,0.0,0.0,0.0,0.0,0.0,0.0,0.0,-0.2800398896847342,-0.020032029769173797,-0.051268004657941034,0.28089009934690573,-0.23910317343124424,-0.023598813156314728,-0.4229070316607189,1.6755017209931422,0.05231173119786038,0.029807865532272187,-2.752707604956859,0.03446587430563413,2.76634638700386,0.769203548742665,1.6754973547542302,0.052104326824870026,0.029969505109285054,-2.752394845125968,0.0342448039870148,2.7663679543071322,0.7691630533470046,-0.0004914891510743925,-0.001219551736006707,0.0003859060075595863,0.0002873102857212189,-6.850542997959718e-05,-0.0001401895307780685,0.0018145701740507722,0.0,0.0,0.0,0.0,0.0,0.0,0.0,-4.366238911979181e-06,-0.0002074043729903552,0.0001616395770128662,0.0003127598308907409,-0.00022107031861932913,2.1567303272185256e-05,-4.0495395660422595e-05,0.0004914891510743925,0.001219551736006707,-0.0003859060075595863,-0.0002873102857212189,6.850542997959718e-05,0.0001401895307780685,-0.0018145701740507722,0.24825400114059448,22.772058486938477,-0.02542426437139511,-14.131807327270508,0.00702899694442749,-2.1655306816101074,0.46084922552108765,0
69,0.3399665355682373,-0.24825400114059448,-22.772058486938477,0.02542426437139511,14.131807327270508,-0.00702899694442749,2.1655306816101074,-0.46084922552108765,0.0,0.0,0.0,0.0,0.0,0.0,0.0,-0.2800398896847342,-0.020032029769173797,-0.051268004657941034,0.28089009934690573,-0.23910317343124424,-0.023598813156314728,-0.4229070316607189,1.6755017209931422,0.05231173119786038,0.029807865532272187,-2.752707604956859,0.03446587430563413,2.76634638700386,0.769203548742665,1.6754973547542302,0.052104326824870026,0.029969505109285054,-2.752394845125968,0.0342448039870148,2.7663679543071322,0.7691630533470046,-0.0004914891510743925,-0.001219551736006707,0.0003859060075595863,0.0002873102857212189,-6.850542997959718e-05,-0.0001401895307780685,0.0018145701740507722,0.0,0.0,0.0,0.0,0.0,0.0,0.0,-4.366238911979181e-06,-0.0002074043729903552,0.0001616395770128662,0.0003127598308907409,-0.00022107031861932913,2.1567303272185256e-05,-4.0495395660422595e-05,0.0004914891510743925,0.001219551736006707,-0.0003859060075595863,-0.0002873102857212189,6.850542997959718e-05,0.0001401895307780685,-0.0018145701740507722,0.24825400114059448,22.772058486938477,-0.02542426437139511,-14.131807327270508,0.00702899694442749,-2.1655306816101074,0.46084922552108765,0
70,0.34499239921569824,-0.2998287081718445,-22.819665908813477,0.02542426437139511,14.179414749145508,-0.01893085241317749,2.1582064628601074,-0.44711631536483765,0.0,0.0,0.0,0.0,0.0,0.0,0.0,-0.28213551373319573,-0.017341630267224854,-0.056828774011947664,0.28114268230390965,-0.23877427709934979,-0.023680514097220877,-0.42385391918085275,1.6755053402708286,0.052315074356387735,0.029808342363003986,-2.7527108117242562,0.034468601313304606,2.766346851899984,0.7692020228637588,1.6754973547542302,0.052104326824870026,0.029969505109285054,-2.752394845125968,0.0342448039870148,2.7663679543071322,0.7691630533470046,0.00024665713848621556,2.6000364212573964e-05,0.00022457800399041438,-0.0008154462870468462,0.000358837441616436,0.00027585992637428153,0.0006318076138761038,0.0,0.0,0.0,0.0,0.0,0.0,0.0,-7.98551659841884e-06,-0.00021074753151770903,0.0001611627462810676,0.0003159665982881421,-0.00022379732628980548,2.1102407148365643e-05,-3.89695167541948e-05,-0.00024665713848621556,-2.6000364212573964e-05,-0.00022457800399041438,0.0008154462870468462,-0.000358837441616436,-0.00027585992637428153,-0.0006318076138761038,0.2998287081718445,22.819665908813477,-0.02542426437139511,-14.179414749145508,0.01893085241317749,-2.1582064628601074,0.44711631536483765,0
71,0.3500080108642578,-0.2998287081718445,-22.819665908813477,0.02542426437139511,14.179414749145508,-0.01893085241317749,2.1582064628601074,-0.44711631536483765,0.0,0.0,0.0,0.0,0.0,0.0,0.0,-0.28213551373319573,-0.017341630267224854,-0.056828774011947664,0.28114268230390965,-0.23877427709934979,-0.023680514097220877,-0.42385391918085275,1.6755053402708286,0.052315074356387735,0.029808342363003986,-2.7527108117242562,0.034468601313304606,2.766346851899984,0.7692020228637588,1.6754973547542302,0.052104326824870026,0.029969505109285054,-2.752394845125968,0.0342448039870148,2.7663679543071322,0.7691630533470046,0.00024665713848621556,2.6000364212573964e-05,0.00022457800399041438,-0.0008154462870468462,0.000358837441616436,0.00027585992637428153,0.0006318076138761038,0.0,0.0,0.0,0.0,0.0,0.0,0.0,-7.98551659841884e-06,-0.00021074753151770903,0.0001611627462810676,0.0003159665982881421,-0.00022379732628980548,2.1102407148365643e-05,-3.89695167541948e-05,-0.00024665713848621556,-2.6000364212573964e-05,-0.00022457800399041438,0.0008154462870468462,-0.000358837441616436,-0.00027585992637428153,-0.0006318076138761038,0.2998287081718445,22.819665908813477,-0.02542426437139511,-14.179414749145508,0.01893085241317749,-2.1582064628601074,0.44711631536483765,0
72,0.3549809455871582,-0.2720577120780945,-22.847436904907227,0.02542426437139511,14.131807327270508,-0.0015358328819274902,2.1719393730163574,-0.44711631536483765,0.0,0.0,0.0,0.0,0.0,0.0,0.0,-0.2847919574815414,-0.014075493989009393,-0.0585519892882058,0.28102325969745034,-0.23880228997428848,-0.023700527487659752,-0.42550456170657597,1.6755033914289974,0.05231429597496124,0.029806447158749798,-2.7527082937792606,0.034463434222070884,2.7663445891229683,0.7692020228637588,1.6754973547542302,0.052104326824870026,0.029969505109285054,-2.752394845125968,0.0342448039870148,2.7663679543071322,0.7691630533470046,-0.0009020342140210765,0.0012840119737849635,-0.00012283697716889452,0.00032848445007526697,-0.00030427172214046787,-0.00036236122215768104,0.0011336594929134277,0.0,0.0,0.0,0.0,0.0,0.0,0.0,-6.036674767173622e-06,-0.00020996915009121458,0.00016305795053525585,0.00031344865329252514,-0.00021863023505608314,2.3365184163903763e-05,-3.89695167541948e-05,0.0009020342140210765,-0.0012840119737849635,0.00012283697716889452,-0.00032848445007526697,0.00030427172214046787,0.00036236122215768104,-0.0011336594929134277,0.2720577120780945,22.847436904907227,-0.02542426437139511,-14.131807327270508,0.0015358328819274902,-2.1719393730163574,0.44711631536483765,0
73,0.3600046634674072,-0.2720577120780945,-22.847436904907227,0.02542426437139511,14.131807327270508,-0.0015358328819274902,2.1719393730163574,-0.44711631536483765,0.0,0.0,0.0,0.0,0.0,0.0,0.0,-0.2847919574815414,-0.014075493989009393,-0.0585519892882058,0.28102325969745034,-0.23880228997428848,-0.023700527487659752,-0.42550456170657597,1.6755033914289974,0.05231429597496124,0.029806447158749798,-2.7527082937792606,0.034463434222070884,2.7663445891229683,0.7692020228637588,1.6754973547542302,0.052104326824870026,0.029969505109285054,-2.752394845125968,0.0342448039870148,2.7663679543071322,0.7691630533470046,-0.0009020342140210765,0.0012840119737849635,-0.00012283697716889452,0.00032848445007526697,-0.00030427172214046787,-0.00036236122215768104,0.0011336594929134277,0.0,0.0,0.0,0.0,0.0,0.0,0.0,-6.036674767173622e-06,-0.00020996915009121458,0.00016305795053525585,0.00031344865329252514,-0.00021863023505608314,2.3365184163903763e-05,-3.89695167541948e-05,0.0009020342140210765,-0.0012840119737849635,0.00012283697716889452,-0.00032848445007526697,0.00030427172214046787,0.00036236122215768104,-0.0011336594929134277,0.2720577120780945,22.847436904907227,-0.02542426437139511,-14.131807327270508,0.0015358328819274902,-2.1719393730163574,0.44711631536483765,0
74,0.3649709224700928,-0.2720577120780945,-22.795862197875977,0.04922797530889511,14.131807327270508,-0.0015358328819274902,2.1655306816101074,-0.45352500677108765,0.0,0.0,0.0,0.0,0.0,0.0,0.0,-0.2825571521468389,-0.019107783446786066,-0.05601589960005724,0.2879215862288052,-0.2394558394913668,-0.022667018405285663,-0.42385188697152487,1.6755033914289974,0.05231065072995123,0.029806900045903972,-2.7527097393396254,0.03446308750516183,2.7663432240723296,0.7692027349405818,1.6754973547542302,0.052104326824870026,0.029969505109285054,-2.752394845125968,0.0342448039870148,2.7663679543071322,0.7691630533470046,-0.00020495287715026982,-0.00037833144273845596,-0.0006843726248964497,0.0007901557632692588,-0.00012358826335476288,-0.0002714334864674522,0.001693711247239094,0.0,0.0,0.0,0.0,0.0,0.0,0.0,-6.036674767173622e-06,-0.00020632390508120574,0.00016260506338108133,0.00031489421365726855,-0.0002182835181470319,2.473023480265013e-05,-3.968159357714551e-05,0.00020495287715026982,0.00037833144273845596,0.0006843726248964497,-0.0007901557632692588,0.00012358826335476288,0.0002714334864674522,-0.001693711247239094,0.2720577120780945,22.795862197875977,-0.04922797530889511,-14.131807327270508,0.0015358328819274902,-2.1655306816101074,0.45352500677108765,0
75,0.37000179290771484,-0.2720577120780945,-22.795862197875977,0.04922797530889511,14.131807327270508,-0.0015358328819274902,2.1655306816101074,-0.45352500677108765,0.0,0.0,0.0,0.0,0.0,0.0,0.0,-0.2825571521468389,-0.019107783446786066,-0.05601589960005724,0.2879215862288052,-0.2394558394913668,-0.022667018405285663,-0.42385188697152487,1.6755033914289974,0.05231065072995123,0.029806900045903972,-2.7527097393396254,0.03446308750516183,2.7663432240723296,0.7692027349405818,1.6754973547542302,0.052104326824870026,0.029969505109285054,-2.752394845125968,0.0342448039870148,2.7663679543071322,0.7691630533470046,-0.00020495287715026982,-0.00037833144273845596,-0.0006843726248964497,0.0007901557632692588,-0.00012358826335476288,-0.0002714334864674522,0.001693711247239094,0.0,0.0,0.0,0.0,0.0,0.0,0.0,-6.036674767173622e-06,-0.00020632390508120574,0.00016260506338108133,0.00031489421365726855,-0.0002182835181470319,2.473023480265013e-05,-3.968159357714551e-05,0.00020495287715026982,0.00037833144273845596,0.0006843726248964497,-0.0007901557632692588,0.00012358826335476288,0.0002714334864674522,-0.001693711247239094,0.2720577120780945,22.795862197875977,-0.04922797530889511,-14.131807327270508,0.0015358328819274902,-2.1655306816101074,0.45352500677108765,0
76,0.3749656677246094,-0.3236324191093445,-22.819665908813477,0.04922797530889511,14.207185745239258,-0.00702899694442749,2.1582064628601074,-0.45352500677108765,0.0,0.0,0.0,0.0,0.0,0.0,0.0,-0.28570264167593473,-0.016489924233224082,-0.05677674586767093,0.2842103165030398,-0.2389868849450265,-0.02385755672272089,-0.4215013167114415,1.6755070107066838,0.052312233577901726,0.029804772824579502,-2.7527128976102393,0.03446265922144823,2.766347213869975,0.7692027349405818,1.6754973547542302,0.052104326824870026,0.029969505109285054,-2.752394845125968,0.0342448039870148,2.7663679543071322,0.7691630533470046,0.0006523192077241516,0.00019971221878288745,-0.00023267740453883248,-0.0018646090179711113,-0.00013492113824468835,0.00019314535757600609,0.0016996324473825754,0.0,0.0,0.0,0.0,0.0,0.0,0.0,-9.655952453613281e-06,-0.00020790675303170025,0.00016473228470555157,0.0003180524842711918,-0.00021785523443342697,2.0740437157051872e-05,-3.968159357714551e-05,-0.0006523192077241516,-0.00019971221878288745,0.00023267740453883248,0.0018646090179711113,0.00013492113824468835,-0.00019314535757600609,-0.0016996324473825754,0.3236324191093445,22.819665908813477,-0.04922797530889511,-14.207185745239258,0.00702899694442749,-2.1582064628601074,0.45352500677108765,0
77,0.3799769878387451,-0.3236324191093445,-22.819665908813477,0.04922797530889511,14.207185745239258,-0.00702899694442749,2.1582064628601074,-0.45352500677108765,0.0,0.0,0.0,0.0,0.0,0.0,0.0,-0.28570264167593473,-0.016489924233224082,-0.05677674586767093,0.2842103165030398,-0.2389868849450265,-0.02385755672272089,-0.4215013167114415,1.6755070107066838,0.052312233577901726,0.029804772824579502,-2.7527128976102393,0.03446265922144823,2.766347213869975,0.7692027349405818,1.6754973547542302,0.052104326824870026,0.029969505109285054,-2.752394845125968,0.0342448039870148,2.7663679543071322,0.7691630533470046,0.0006523192077241516,0.00019971221878288745,-0.00023267740453883248,-0.0018646090179711113,-0.00013492113824468835,0.00019314535757600609,0.0016996324473825754,0.0,0.0,0.0,0.0,0.0,0.0,0.0,-9.655952453613281e-06,-0.00020790675303170025,0.00016473228470555157,0.0003180524842711918,-0.00021785523443342697,2.0740437157051872e-05,-3.968159357714551e-05,-0.0006523192077241516,-0.00019971221878288745,0.00023267740453883248,0.0018646090179711113,0.00013492113824468835,-0.00019314535757600609,-0.0016996324473825754,0.3236324191093445,22.819665908813477,-0.04922797530889511,-14.207185745239258,0.00702899694442749,-2.1582064628601074,0.45352500677108765,0
78,0.3849663734436035,-0.2720577120780945,-22.819665908813477,0.04922797530889511,14.131807327270508,0.00487285852432251,2.1655306816101074,-0.45352500677108765,0.0,0.0,0.0,0.0,0.0,0.0,0.0,-0.2884237739457379,-0.022165070996345525,-0.05516669051102577,0.28794364591256194,-0.23882535429928586,-0.023081118614326324,-0.4214854469102927,1.6755033914289974,0.052312233253008183,0.0298069084950213,-2.7527101506420215,0.034462498281853104,2.766346404446471,0.7692027349405818,1.6754973547542302,0.052104326824870026,0.029969505109285054,-2.752394845125968,0.0342448039870148,2.7663679543071322,0.7691630533470046,-0.0005174972393870961,-0.0003385120138113352,-0.0007592032644340175,0.0004908289015480527,-0.0004533706174005565,-4.5897716217422105e-05,0.0007906688108275421,0.0,0.0,0.0,0.0,0.0,0.0,0.0,-6.036674767173622e-06,-0.00020790642813815763,0.0001625966142637554,0.0003153055160534102,-0.000217694294838304,2.1549860661274067e-05,-3.968159357714551e-05,0.0005174972393870961,0.0003385120138113352,0.0007592032644340175,-0.0004908289015480527,0.0004533706174005565,4.5897716217422105e-05,-0.0007906688108275421,0.2720577120780945,22.819665908813477,-0.04922797530889511,-14.131807327270508,-0.00487285852432251,-2.1655306816101074,0.45352500677108765,0
79,0.3899667263031006,-0.2720577120780945,-22.819665908813477,0.04922797530889511,14.131807327270508,0.00487285852432251,2.1655306816101074,-0.45352500677108765,0.0,0.0,0.0,0.0,0.0,0.0,0.0,-0.2884237739457379,-0.022165070996345525,-0.05516669051102577,0.28794364591256194,-0.23882535429928586,-0.023081118614326324,-0.4214854469102927,1.6755033914289974,0.052312233253008183,0.0298069084950213,-2.7527101506420215,0.034462498281853104,2.766346404446471,0.7692027349405818,1.6754973547542302,0.052104326824870026,0.029969505109285054,-2.752394845125968,0.0342448039870148,2.7663679543071322,0.7691630533470046,-0.0005174972393870961,-0.0003385120138113352,-0.0007592032644340175,0.0004908289015480527,-0.0004533706174005565,-4.5897716217422105e-05,0.0007906688108275421,0.0,0.0,0.0,0.0,0.0,0.0,0.0,-6.036674767173622e-06,-0.00020790642813815763,0.0001625966142637554,0.0003153055160534102,-0.000217694294838304,2.1549860661274067e-05,-3.968159357714551e-05,0.0005174972393870961,0.0003385120138113352,0.0007592032644340175,-0.0004908289015480527,0.0004533706174005565,4.5897716217422105e-05,-0.0007906688108275421,0.2720577120780945,22.819665908813477,-0.04922797530889511,-14.131807327270508,-0.00487285852432251,-2.1655306816101074,0.45352500677108765,0
