rezayati/contactInterpretation/dataset/franka_main/labeled_data/link6/b6_1.csv
index,time,tau_J0,tau_J1,tau_J2,tau_J3,tau_J4,tau_J5,tau_J6,tau_J_d0,tau_J_d1,tau_J_d2,tau_J_d3,tau_J_d4,tau_J_d5,tau_J_d6,tau_ext0,tau_ext1,tau_ext2,tau_ext3,tau_ext4,tau_ext5,tau_ext6,q0,q1,q2,q3,q4,q5,q6,q_d0,q_d1,q_d2,q_d3,q_d4,q_d5,q_d6,dq0,dq1,dq2,dq3,dq4,dq5,dq6,dq_d0,dq_d1,dq_d2,dq_d3,dq_d4,dq_d5,dq_d6,e0,e1,e2,e3,e4,e5,e6,de0,de1,de2,de3,de4,de5,de6,etau_J0,etau_J1,etau_J2,etau_J3,etau_J4,etau_J5,etau_J6,label
1,0.0,-0.4267818331718445,-47.07168197631836,-1.0695464611053467,21.074556350708008,0.5816550850868225,2.2946200370788574,-0.32352012395858765,0.0,0.0,0.0,0.0,0.0,0.0,0.0,-0.42676059227954255,-0.23959782576539734,-0.1892540846917391,0.6307920372405376,0.00575560385952648,0.10434409395909765,-0.3241790750285947,0.06230957632943203,0.6883056624981395,-0.07865011915400148,-1.6210527506277883,0.02817499979489452,2.2878164492669506,0.846635167909993,0.06226373270833701,0.6884179775783729,-0.07863937525950354,-1.6210372792796082,0.028167345702647853,2.2878312372101677,0.8466366937888992,0.00038878011130565846,0.0021060247079023654,0.0003920256246982932,-0.0010924608137079196,5.9181693224594734e-05,3.743233259313584e-05,0.0001630484728750788,0.0,0.0,0.0,0.0,0.0,0.0,0.0,-4.584362109501944e-05,0.00011231508023334946,1.0743894497941553e-05,1.547134818014051e-05,-7.654092246667937e-06,1.4787943217076105e-05,1.5258789061167732e-06,-0.00038878011130565846,-0.0021060247079023654,-0.0003920256246982932,0.0010924608137079196,-5.9181693224594734e-05,-3.743233259313584e-05,-0.0001630484728750788,0.4267818331718445,47.07168197631836,1.0695464611053467,-21.074556350708008,-0.5816550850868225,-2.2946200370788574,0.32352012395858765,0
2,0.0050427913665771484,-0.4267818331718445,-47.07168197631836,-1.0695464611053467,21.074556350708008,0.5816550850868225,2.2946200370788574,-0.32352012395858765,0.0,0.0,0.0,0.0,0.0,0.0,0.0,-0.42676059227954255,-0.23959782576539734,-0.1892540846917391,0.6307920372405376,0.00575560385952648,0.10434409395909765,-0.3241790750285947,0.06230957632943203,0.6883056624981395,-0.07865011915400148,-1.6210527506277883,0.02817499979489452,2.2878164492669506,0.846635167909993,0.06226373270833701,0.6884179775783729,-0.07863937525950354,-1.6210372792796082,0.028167345702647853,2.2878312372101677,0.8466366937888992,0.00038878011130565846,0.0021060247079023654,0.0003920256246982932,-0.0010924608137079196,5.9181693224594734e-05,3.743233259313584e-05,0.0001630484728750788,0.0,0.0,0.0,0.0,0.0,0.0,0.0,-4.584362109501944e-05,0.00011231508023334946,1.0743894497941553e-05,1.547134818014051e-05,-7.654092246667937e-06,1.4787943217076105e-05,1.5258789061167732e-06,-0.00038878011130565846,-0.0021060247079023654,-0.0003920256246982932,0.0010924608137079196,-5.9181693224594734e-05,-3.743233259313584e-05,-0.0001630484728750788,0.4267818331718445,47.07168197631836,1.0695464611053467,-21.074556350708008,-0.5816550850868225,-2.2946200370788574,0.32352012395858765,0
3,0.010047197341918945,-0.4783565402030945,-47.07168197631836,-1.1171538829803467,20.999177932739258,0.5816550850868225,2.3266634941101074,-0.34457725286483765,0.0,0.0,0.0,0.0,0.0,0.0,0.0,-0.46449020371658445,-0.27416680698471796,-0.2196488715508799,0.6505661665578295,0.006481473246691717,0.10330679183812204,-0.3240825648383528,0.062313195607118434,0.6883056624981395,-0.07864678121210848,-1.6210495243741914,0.02817499995728242,2.287812890820755,0.8466375075909827,0.06226373270833701,0.6884179775783729,-0.07863937525950354,-1.6210372792796082,0.028167345702647853,2.2878312372101677,0.8466366937888992,6.224192814772785e-05,3.32776810034505e-05,0.00039761070702850503,0.0011446784105509948,0.0001153258362652564,0.000230901940530056,0.0010418632408324738,0.0,0.0,0.0,0.0,0.0,0.0,0.0,-4.94628987814244e-05,0.00011231508023334946,7.405952604941368e-06,1.2245094583196448e-05,-7.654254634566204e-06,1.834638941256017e-05,-8.138020834991266e-07,-6.224192814772785e-05,-3.32776810034505e-05,-0.00039761070702850503,-0.0011446784105509948,-0.0001153258362652564,-0.000230901940530056,-0.0010418632408324738,0.4783565402030945,47.07168197631836,1.1171538829803467,-20.999177932739258,-0.5816550850868225,-2.3266634941101074,0.34457725286483765,0
4,0.015049219131469727,-0.4783565402030945,-47.07168197631836,-1.1171538829803467,20.999177932739258,0.5816550850868225,2.3266634941101074,-0.34457725286483765,0.0,0.0,0.0,0.0,0.0,0.0,0.0,-0.46449020371658445,-0.27416680698471796,-0.2196488715508799,0.6505661665578295,0.006481473246691717,0.10330679183812204,-0.3240825648383528,0.062313195607118434,0.6883056624981395,-0.07864678121210848,-1.6210495243741914,0.02817499995728242,2.287812890820755,0.8466375075909827,0.06226373270833701,0.6884179775783729,-0.07863937525950354,-1.6210372792796082,0.028167345702647853,2.2878312372101677,0.8466366937888992,6.224192814772785e-05,3.32776810034505e-05,0.00039761070702850503,0.0011446784105509948,0.0001153258362652564,0.000230901940530056,0.0010418632408324738,0.0,0.0,0.0,0.0,0.0,0.0,0.0,-4.94628987814244e-05,0.00011231508023334946,7.405952604941368e-06,1.2245094583196448e-05,-7.654254634566204e-06,1.834638941256017e-05,-8.138020834991266e-07,-6.224192814772785e-05,-3.32776810034505e-05,-0.00039761070702850503,-0.0011446784105509948,-0.0001153258362652564,-0.000230901940530056,-0.0010418632408324738,0.4783565402030945,47.07168197631836,1.1171538829803467,-20.999177932739258,-0.5816550850868225,-2.3266634941101074,0.34457725286483765,0
5,0.020056962966918945,-0.3752071261405945,-47.11928939819336,-1.0179717540740967,21.098360061645508,0.5880637764930725,2.3522982597351074,-0.31711143255233765,0.0,0.0,0.0,0.0,0.0,0.0,0.0,-0.3968496359836954,-0.2811607895921187,-0.17210253657768484,0.6523986709546958,0.005814281521498734,0.10706938315579075,-0.3247998979984063,0.062305957051745624,0.68830900336985,-0.07865373778064035,-1.6210544182408841,0.02817428788046042,2.287810066739312,0.8466344558331701,0.06226373270833701,0.6884179775783729,-0.07863937525950354,-1.6210372792796082,0.028167345702647853,2.2878312372101677,0.8466366937888992,-0.0008761082907112696,-0.00010315764996314957,-0.0010182477881547842,-0.00032501451544414824,-0.0003084973053853384,0.00042195805359412746,-0.0003599604976990867,0.0,0.0,0.0,0.0,0.0,0.0,0.0,-4.222434340861447e-05,0.00010897420852284956,1.4362521136804252e-05,1.7138961275975362e-05,-6.942177812566119e-06,2.1170470855480517e-05,2.2379557290674867e-06,0.0008761082907112696,0.00010315764996314957,0.0010182477881547842,0.00032501451544414824,0.0003084973053853384,-0.00042195805359412746,0.0003599604976990867,0.3752071261405945,47.11928939819336,1.0179717540740967,-21.098360061645508,-0.5880637764930725,-2.3522982597351074,0.31711143255233765,0
6,0.025964021682739258,-0.3752071261405945,-47.11928939819336,-1.0179717540740967,21.098360061645508,0.5880637764930725,2.3522982597351074,-0.31711143255233765,0.0,0.0,0.0,0.0,0.0,0.0,0.0,-0.3968496359836954,-0.2811607895921187,-0.17210253657768484,0.6523986709546958,0.005814281521498734,0.10706938315579075,-0.3247998979984063,0.062305957051745624,0.68830900336985,-0.07865373778064035,-1.6210544182408841,0.02817428788046042,2.287810066739312,0.8466344558331701,0.06226373270833701,0.6884179775783729,-0.07863937525950354,-1.6210372792796082,0.028167345702647853,2.2878312372101677,0.8466366937888992,-0.0008761082907112696,-0.00010315764996314957,-0.0010182477881547842,-0.00032501451544414824,-0.0003084973053853384,0.00042195805359412746,-0.0003599604976990867,0.0,0.0,0.0,0.0,0.0,0.0,0.0,-4.222434340861447e-05,0.00010897420852284956,1.4362521136804252e-05,1.7138961275975362e-05,-6.942177812566119e-06,2.1170470855480517e-05,2.2379557290674867e-06,0.0008761082907112696,0.00010315764996314957,0.0010182477881547842,0.00032501451544414824,0.0003084973053853384,-0.00042195805359412746,0.0003599604976990867,0.3752071261405945,47.11928939819336,1.0179717540740967,-21.098360061645508,-0.5880637764930725,-2.3522982597351074,0.31711143255233765,0
7,0.03008127212524414,-0.4505855441093445,-47.07168197631836,-1.0179717540740967,21.046785354614258,0.5816550850868225,2.3010287284851074,-0.29605430364608765,0.0,0.0,0.0,0.0,0.0,0.0,0.0,-0.41403677021395285,-0.23265331949451154,-0.1854109323590892,0.6207325268537494,0.005358796812902962,0.10686258250039687,-0.32603445111603835,0.06231124676528729,0.6883056624981395,-0.07865373778062014,-1.6210508841241944,0.028174999957283335,2.2878157634078673,0.8466321161521806,0.06226373270833701,0.6884179775783729,-0.07863937525950354,-1.6210372792796082,0.028167345702647853,2.2878312372101677,0.8466366937888992,0.0016868752149069972,0.0003069985187240943,0.0001489754190278698,1.3819385632163708e-05,9.140284987579358e-06,0.0004283651409196902,-0.001162851659841863,0.0,0.0,0.0,0.0,0.0,0.0,0.0,-4.751405695028327e-05,0.00011231508023334946,1.4362521116598193e-05,1.3604844586234677e-05,-7.654254635482138e-06,1.5473802300380868e-05,4.577636718572364e-06,-0.0016868752149069972,-0.0003069985187240943,-0.0001489754190278698,-1.3819385632163708e-05,-9.140284987579358e-06,-0.0004283651409196902,0.001162851659841863,0.4505855441093445,47.07168197631836,1.0179717540740967,-21.046785354614258,-0.5816550850868225,-2.3010287284851074,0.29605430364608765,0
8,0.03505134582519531,-0.4505855441093445,-47.07168197631836,-1.0179717540740967,21.046785354614258,0.5816550850868225,2.3010287284851074,-0.29605430364608765,0.0,0.0,0.0,0.0,0.0,0.0,0.0,-0.41403677021395285,-0.23265331949451154,-0.1854109323590892,0.6207325268537494,0.005358796812902962,0.10686258250039687,-0.32603445111603835,0.06231124676528729,0.6883056624981395,-0.07865373778062014,-1.6210508841241944,0.028174999957283335,2.2878157634078673,0.8466321161521806,0.06226373270833701,0.6884179775783729,-0.07863937525950354,-1.6210372792796082,0.028167345702647853,2.2878312372101677,0.8466366937888992,0.0016868752149069972,0.0003069985187240943,0.0001489754190278698,1.3819385632163708e-05,9.140284987579358e-06,0.0004283651409196902,-0.001162851659841863,0.0,0.0,0.0,0.0,0.0,0.0,0.0,-4.751405695028327e-05,0.00011231508023334946,1.4362521116598193e-05,1.3604844586234677e-05,-7.654254635482138e-06,1.5473802300380868e-05,4.577636718572364e-06,-0.0016868752149069972,-0.0003069985187240943,-0.0001489754190278698,-1.3819385632163708e-05,-9.140284987579358e-06,-0.0004283651409196902,0.001162851659841863,0.4505855441093445,47.07168197631836,1.0179717540740967,-21.046785354614258,-0.5816550850868225,-2.3010287284851074,0.29605430364608765,0
9,0.04004836082458496,-0.3752071261405945,-47.02010726928711,-1.0417754650115967,21.074556350708008,0.5880637764930725,2.3458895683288574,-0.32352012395858765,0.0,0.0,0.0,0.0,0.0,0.0,0.0,-0.4320736047144014,-0.2690242523920835,-0.19732179031305652,0.6398623758299694,0.00552296123236796,0.10599182349170386,-0.32596668095089876,0.062305957051745624,0.6883020432204531,-0.07865278189341054,-1.6210527477938454,0.02817428788046042,2.2878107395704155,0.846635167909993,0.06226373270833701,0.6884179775783729,-0.07863937525950354,-1.6210372792796082,0.028167345702647853,2.2878312372101677,0.8466366937888992,-0.001000716415352389,-0.0006481816862276312,0.00015663903714054276,-0.00029204180123396057,-0.00017344463934734525,-0.0005324808177127176,-0.0003466551789446753,0.0,0.0,0.0,0.0,0.0,0.0,0.0,-4.222434340861447e-05,0.00011593435791978912,1.3406633907003807e-05,1.546851423728235e-05,-6.942177812566119e-06,2.0497639752203867e-05,1.5258789061167732e-06,0.001000716415352389,0.0006481816862276312,-0.00015663903714054276,0.00029204180123396057,0.00017344463934734525,0.0005324808177127176,0.0003466551789446753,0.3752071261405945,47.02010726928711,1.0417754650115967,-21.074556350708008,-0.5880637764930725,-2.3458895683288574,0.32352012395858765,0
10,0.04504871368408203,-0.3752071261405945,-47.02010726928711,-1.0417754650115967,21.074556350708008,0.5880637764930725,2.3458895683288574,-0.32352012395858765,0.0,0.0,0.0,0.0,0.0,0.0,0.0,-0.4320736047144014,-0.2690242523920835,-0.19732179031305652,0.6398623758299694,0.00552296123236796,0.10599182349170386,-0.32596668095089876,0.062305957051745624,0.6883020432204531,-0.07865278189341054,-1.6210527477938454,0.02817428788046042,2.2878107395704155,0.846635167909993,0.06226373270833701,0.6884179775783729,-0.07863937525950354,-1.6210372792796082,0.028167345702647853,2.2878312372101677,0.8466366937888992,-0.001000716415352389,-0.0006481816862276312,0.00015663903714054276,-0.00029204180123396057,-0.00017344463934734525,-0.0005324808177127176,-0.0003466551789446753,0.0,0.0,0.0,0.0,0.0,0.0,0.0,-4.222434340861447e-05,0.00011593435791978912,1.3406633907003807e-05,1.546851423728235e-05,-6.942177812566119e-06,2.0497639752203867e-05,1.5258789061167732e-06,0.001000716415352389,0.0006481816862276312,-0.00015663903714054276,0.00029204180123396057,0.00017344463934734525,0.0005324808177127176,0.0003466551789446753,0.3752071261405945,47.02010726928711,1.0417754650115967,-21.074556350708008,-0.5880637764930725,-2.3458895683288574,0.32352012395858765,0
11,0.05004549026489258,-0.4029781222343445,-46.97249984741211,-1.0933501720428467,21.074556350708008,0.5816550850868225,2.3266634941101074,-0.37204307317733765,0.0,0.0,0.0,0.0,0.0,0.0,0.0,-0.4167652465433312,-0.2327431851468281,-0.1836661980166746,0.6269139465757328,0.004851011164572592,0.10526637041853633,-0.3264883334634085,0.062305775027526045,0.6882987023487426,-0.07864868603697088,-1.6210527490531084,0.02817499930772807,2.2878128758006624,0.8466394997106658,0.06226373270833701,0.6884179775783729,-0.07863937525950354,-1.6210372792796082,0.028167345702647853,2.2878312372101677,0.8466366937888992,0.0001962431007334229,0.0001966741984499424,0.0008149162836154323,-0.0001707338942693789,-2.69135210714599e-05,0.0005001451745784773,0.0017785637418816272,0.0,0.0,0.0,0.0,0.0,0.0,0.0,-4.204231918903539e-05,0.00011927522963028903,9.310777467338993e-06,1.5469773500198514e-05,-7.653605080218395e-06,1.836140950528531e-05,-2.805921766602104e-06,-0.0001962431007334229,-0.0001966741984499424,-0.0008149162836154323,0.0001707338942693789,2.69135210714599e-05,-0.0005001451745784773,-0.0017785637418816272,0.4029781222343445,46.97249984741211,1.0933501720428467,-21.074556350708008,-0.5816550850868225,-2.3266634941101074,0.37204307317733765,0
12,0.05504608154296875,-0.4029781222343445,-46.97249984741211,-1.0933501720428467,21.074556350708008,0.5816550850868225,2.3266634941101074,-0.37204307317733765,0.0,0.0,0.0,0.0,0.0,0.0,0.0,-0.4167652465433312,-0.2327431851468281,-0.1836661980166746,0.6269139465757328,0.004851011164572592,0.10526637041853633,-0.3264883334634085,0.062305775027526045,0.6882987023487426,-0.07864868603697088,-1.6210527490531084,0.02817499930772807,2.2878128758006624,0.8466394997106658,0.06226373270833701,0.6884179775783729,-0.07863937525950354,-1.6210372792796082,0.028167345702647853,2.2878312372101677,0.8466366937888992,0.0001962431007334229,0.0001966741984499424,0.0008149162836154323,-0.0001707338942693789,-2.69135210714599e-05,0.0005001451745784773,0.0017785637418816272,0.0,0.0,0.0,0.0,0.0,0.0,0.0,-4.204231918903539e-05,0.00011927522963028903,9.310777467338993e-06,1.5469773500198514e-05,-7.653605080218395e-06,1.836140950528531e-05,-2.805921766602104e-06,-0.0001962431007334229,-0.0001966741984499424,-0.0008149162836154323,0.0001707338942693789,2.69135210714599e-05,-0.0005001451745784773,-0.0017785637418816272,0.4029781222343445,46.97249984741211,1.0933501720428467,-21.074556350708008,-0.5816550850868225,-2.3266634941101074,0.37204307317733765,0
13,0.060047149658203125,-0.3752071261405945,-46.97249984741211,-1.0417754650115967,21.022981643676758,0.5816550850868225,2.2946200370788574,-0.30337852239608765,0.0,0.0,0.0,0.0,0.0,0.0,0.0,-0.407027851515586,-0.23785367743572308,-0.18087259937549247,0.6350677536923954,0.004608827298134147,0.10542729853682238,-0.3274427619812595,0.06230595604132632,0.6882987023487426,-0.0786520670232639,-1.6210492051500986,0.028174999957272337,2.2878164366692935,0.8466329299363188,0.06226373270833701,0.6884179775783729,-0.07863937525950354,-1.6210372792796082,0.028167345702647853,2.2878312372101677,0.8466366937888992,-0.0007050518621167482,0.00024381036558178897,-0.00034689204068563743,-8.134011500134297e-05,0.00011800343761987593,-7.177286367099738e-05,-0.0013425591151289729,0.0,0.0,0.0,0.0,0.0,0.0,0.0,-4.222333298931069e-05,0.00011927522963028903,1.2691763760355745e-05,1.1925870490481216e-05,-7.654254624483992e-06,1.4800540874215784e-05,3.763852580385141e-06,0.0007050518621167482,-0.00024381036558178897,0.00034689204068563743,8.134011500134297e-05,-0.00011800343761987593,7.177286367099738e-05,0.0013425591151289729,0.3752071261405945,46.97249984741211,1.0417754650115967,-21.022981643676758,-0.5816550850868225,-2.2946200370788574,0.30337852239608765,0
14,0.0650472640991211,-0.3752071261405945,-46.97249984741211,-1.0417754650115967,21.022981643676758,0.5816550850868225,2.2946200370788574,-0.30337852239608765,0.0,0.0,0.0,0.0,0.0,0.0,0.0,-0.407027851515586,-0.23785367743572308,-0.18087259937549247,0.6350677536923954,0.004608827298134147,0.10542729853682238,-0.3274427619812595,0.06230595604132632,0.6882987023487426,-0.0786520670232639,-1.6210492051500986,0.028174999957272337,2.2878164366692935,0.8466329299363188,0.06226373270833701,0.6884179775783729,-0.07863937525950354,-1.6210372792796082,0.028167345702647853,2.2878312372101677,0.8466366937888992,-0.0007050518621167482,0.00024381036558178897,-0.00034689204068563743,-8.134011500134297e-05,0.00011800343761987593,-7.177286367099738e-05,-0.0013425591151289729,0.0,0.0,0.0,0.0,0.0,0.0,0.0,-4.222333298931069e-05,0.00011927522963028903,1.2691763760355745e-05,1.1925870490481216e-05,-7.654254624483992e-06,1.4800540874215784e-05,3.763852580385141e-06,0.0007050518621167482,-0.00024381036558178897,0.00034689204068563743,8.134011500134297e-05,-0.00011800343761987593,7.177286367099738e-05,0.0013425591151289729,0.3752071261405945,46.97249984741211,1.0417754650115967,-21.022981643676758,-0.5816550850868225,-2.2946200370788574,0.30337852239608765,0
15,0.07005500793457031,-0.4267818331718445,-47.09548568725586,-1.0417754650115967,21.046785354614258,0.5880637764930725,2.3522982597351074,-0.30978721380233765,0.0,0.0,0.0,0.0,0.0,0.0,0.0,-0.40664865123861044,-0.2761256254142053,-0.1824544685092147,0.6605385806066507,0.005440768133867534,0.10346941780355086,-0.32783439286589233,0.06230957632943013,0.6883073329339947,-0.078652075808665,-1.6210508245664632,0.02817428788046042,2.287810027493372,0.8466336420310868,0.06226373270833701,0.6884179775783729,-0.07863937525950354,-1.6210372792796082,0.028167345702647853,2.2878312372101677,0.8466366937888992,0.00040662422055240356,0.0016089413893555728,1.1156549766596003e-05,2.6513214601854636e-05,-0.000235344222999509,-0.0006447708584784353,-0.0009334430399080353,0.0,0.0,0.0,0.0,0.0,0.0,0.0,-4.584362109311818e-05,0.00011064464437815502,1.2700549161456798e-05,1.3545286855043415e-05,-6.942177812566119e-06,2.1209716795755895e-05,3.0517578123445688e-06,-0.00040662422055240356,-0.0016089413893555728,-1.1156549766596003e-05,-2.6513214601854636e-05,0.000235344222999509,0.0006447708584784353,0.0009334430399080353,0.4267818331718445,47.09548568725586,1.0417754650115967,-21.046785354614258,-0.5880637764930725,-2.3522982597351074,0.30978721380233765,0
16,0.07505345344543457,-0.4267818331718445,-47.09548568725586,-1.0417754650115967,21.046785354614258,0.5880637764930725,2.3522982597351074,-0.30978721380233765,0.0,0.0,0.0,0.0,0.0,0.0,0.0,-0.40664865123861044,-0.2761256254142053,-0.1824544685092147,0.6605385806066507,0.005440768133867534,0.10346941780355086,-0.32783439286589233,0.06230957632943013,0.6883073329339947,-0.078652075808665,-1.6210508245664632,0.02817428788046042,2.287810027493372,0.8466336420310868,0.06226373270833701,0.6884179775783729,-0.07863937525950354,-1.6210372792796082,0.028167345702647853,2.2878312372101677,0.8466366937888992,0.00040662422055240356,0.0016089413893555728,1.1156549766596003e-05,2.6513214601854636e-05,-0.000235344222999509,-0.0006447708584784353,-0.0009334430399080353,0.0,0.0,0.0,0.0,0.0,0.0,0.0,-4.584362109311818e-05,0.00011064464437815502,1.2700549161456798e-05,1.3545286855043415e-05,-6.942177812566119e-06,2.1209716795755895e-05,3.0517578123445688e-06,-0.00040662422055240356,-0.0016089413893555728,-1.1156549766596003e-05,-2.6513214601854636e-05,0.000235344222999509,0.0006447708584784353,0.0009334430399080353,0.4267818331718445,47.09548568725586,1.0417754650115967,-21.046785354614258,-0.5880637764930725,-2.3522982597351074,0.30978721380233765,0
17,0.0800466537475586,-0.4783565402030945,-47.09548568725586,-1.1171538829803467,21.074556350708008,0.5697532296180725,2.3266634941101074,-0.31711143255233765,0.0,0.0,0.0,0.0,0.0,0.0,0.0,-0.4398118325471914,-0.26917009542437614,-0.20376695309696424,0.6547842351170795,0.005508858236094319,0.10637242394813408,-0.32688830494806015,0.062313195607118434,0.6883080349442554,-0.07864678027171904,-1.6210528243229299,0.02817632238566875,2.2878129935382323,0.8466344558331701,0.06226373270833701,0.6884179775783729,-0.07863937525950354,-1.6210372792796082,0.028167345702647853,2.2878312372101677,0.8466366937888992,0.0007712049910669669,0.00044805597679695505,3.420305495952736e-05,-0.00034768091201769905,0.00029598325383718,0.0007977664010478275,-0.0001279909151451101,0.0,0.0,0.0,0.0,0.0,0.0,0.0,-4.94628987814244e-05,0.00010994263411745475,7.4050122154945e-06,1.554504332168527e-05,-8.976683020897602e-06,1.8243671935369576e-05,2.2379557290674867e-06,-0.0007712049910669669,-0.00044805597679695505,-3.420305495952736e-05,0.00034768091201769905,-0.00029598325383718,-0.0007977664010478275,0.0001279909151451101,0.4783565402030945,47.09548568725586,1.1171538829803467,-21.074556350708008,-0.5697532296180725,-2.3266634941101074,0.31711143255233765,0
18,0.08595013618469238,-0.4783565402030945,-47.09548568725586,-1.1171538829803467,21.074556350708008,0.5697532296180725,2.3266634941101074,-0.31711143255233765,0.0,0.0,0.0,0.0,0.0,0.0,0.0,-0.4398118325471914,-0.26917009542437614,-0.20376695309696424,0.6547842351170795,0.005508858236094319,0.10637242394813408,-0.32688830494806015,0.062313195607118434,0.6883080349442554,-0.07864678027171904,-1.6210528243229299,0.02817632238566875,2.2878129935382323,0.8466344558331701,0.06226373270833701,0.6884179775783729,-0.07863937525950354,-1.6210372792796082,0.028167345702647853,2.2878312372101677,0.8466366937888992,0.0007712049910669669,0.00044805597679695505,3.420305495952736e-05,-0.00034768091201769905,0.00029598325383718,0.0007977664010478275,-0.0001279909151451101,0.0,0.0,0.0,0.0,0.0,0.0,0.0,-4.94628987814244e-05,0.00010994263411745475,7.4050122154945e-06,1.554504332168527e-05,-8.976683020897602e-06,1.8243671935369576e-05,2.2379557290674867e-06,-0.0007712049910669669,-0.00044805597679695505,-3.420305495952736e-05,0.00034768091201769905,-0.00029598325383718,-0.0007977664010478275,0.0001279909151451101,0.4783565402030945,47.09548568725586,1.1171538829803467,-21.074556350708008,-0.5697532296180725,-2.3266634941101074,0.31711143255233765,0
19,0.0900726318359375,-0.4783565402030945,-47.11928939819336,-1.0417754650115967,21.098360061645508,0.5761619210243225,2.3074374198913574,-0.32352012395858765,0.0,0.0,0.0,0.0,0.0,0.0,0.0,-0.40536563202451975,-0.255782256814882,-0.17818956165486827,0.6422887571938902,0.0047310878057267225,0.10727298578267444,-0.3251668550089712,0.062313195607118434,0.6883090033738128,-0.07865209338755501,-1.6210565960113081,0.028175610308845835,2.287815013485346,0.8466351662949372,0.06226373270833701,0.6884179775783729,-0.07863937525950354,-1.6210372792796082,0.028167345702647853,2.2878312372101677,0.8466366937888992,0.0012704204516968281,0.0005203568468276391,-0.0008586512544713948,-0.0009134331761482035,-0.0002141943890315224,0.00039373491077515025,-0.0008179468463144222,0.0,0.0,0.0,0.0,0.0,0.0,0.0,-4.94628987814244e-05,0.0001089742045600195,1.2718128051467104e-05,1.9316731699969836e-05,-8.264606197981583e-06,1.622372482179557e-05,1.5274939619835948e-06,-0.0012704204516968281,-0.0005203568468276391,0.0008586512544713948,0.0009134331761482035,0.0002141943890315224,-0.00039373491077515025,0.0008179468463144222,0.4783565402030945,47.11928939819336,1.0417754650115967,-21.098360061645508,-0.5761619210243225,-2.3074374198913574,0.32352012395858765,0
20,0.09505105018615723,-0.4783565402030945,-47.11928939819336,-1.0417754650115967,21.098360061645508,0.5761619210243225,2.3074374198913574,-0.32352012395858765,0.0,0.0,0.0,0.0,0.0,0.0,0.0,-0.40536563202451975,-0.255782256814882,-0.17818956165486827,0.6422887571938902,0.0047310878057267225,0.10727298578267444,-0.3251668550089712,0.062313195607118434,0.6883090033738128,-0.07865209338755501,-1.6210565960113081,0.028175610308845835,2.287815013485346,0.8466351662949372,0.06226373270833701,0.6884179775783729,-0.07863937525950354,-1.6210372792796082,0.028167345702647853,2.2878312372101677,0.8466366937888992,0.0012704204516968281,0.0005203568468276391,-0.0008586512544713948,-0.0009134331761482035,-0.0002141943890315224,0.00039373491077515025,-0.0008179468463144222,0.0,0.0,0.0,0.0,0.0,0.0,0.0,-4.94628987814244e-05,0.0001089742045600195,1.2718128051467104e-05,1.9316731699969836e-05,-8.264606197981583e-06,1.622372482179557e-05,1.5274939619835948e-06,-0.0012704204516968281,-0.0005203568468276391,0.0008586512544713948,0.0009134331761482035,0.0002141943890315224,-0.00039373491077515025,0.0008179468463144222,0.4783565402030945,47.11928939819336,1.0417754650115967,-21.098360061645508,-0.5761619210243225,-2.3074374198913574,0.32352012395858765,0
21,0.1000969409942627,-0.4783565402030945,-47.11928939819336,-1.0417754650115967,21.098360061645508,0.5761619210243225,2.3074374198913574,-0.32352012395858765,0.0,0.0,0.0,0.0,0.0,0.0,0.0,-0.40536563202451975,-0.255782256814882,-0.17818956165486827,0.6422887571938902,0.0047310878057267225,0.10727298578267444,-0.3251668550089712,0.062313195607118434,0.6883090033738128,-0.07865209338755501,-1.6210565960113081,0.028175610308845835,2.287815013485346,0.8466351662949372,0.06226373270833701,0.6884179775783729,-0.07863937525950354,-1.6210372792796082,0.028167345702647853,2.2878312372101677,0.8466366937888992,0.0012704204516968281,0.0005203568468276391,-0.0008586512544713948,-0.0009134331761482035,-0.0002141943890315224,0.00039373491077515025,-0.0008179468463144222,0.0,0.0,0.0,0.0,0.0,0.0,0.0,-4.94628987814244e-05,0.0001089742045600195,1.2718128051467104e-05,1.9316731699969836e-05,-8.264606197981583e-06,1.622372482179557e-05,1.5274939619835948e-06,-0.0012704204516968281,-0.0005203568468276391,0.0008586512544713948,0.0009134331761482035,0.0002141943890315224,-0.00039373491077515025,0.0008179468463144222,0.4783565402030945,47.11928939819336,1.0417754650115967,-21.098360061645508,-0.5761619210243225,-2.3074374198913574,0.32352012395858765,0
22,0.10504579544067383,-0.4783565402030945,-47.11928939819336,-1.0417754650115967,21.098360061645508,0.5761619210243225,2.3074374198913574,-0.32352012395858765,0.0,0.0,0.0,0.0,0.0,0.0,0.0,-0.40536563202451975,-0.255782256814882,-0.17818956165486827,0.6422887571938902,0.0047310878057267225,0.10727298578267444,-0.3251668550089712,0.062313195607118434,0.6883090033738128,-0.07865209338755501,-1.6210565960113081,0.028175610308845835,2.287815013485346,0.8466351662949372,0.06226373270833701,0.6884179775783729,-0.07863937525950354,-1.6210372792796082,0.028167345702647853,2.2878312372101677,0.8466366937888992,0.0012704204516968281,0.0005203568468276391,-0.0008586512544713948,-0.0009134331761482035,-0.0002141943890315224,0.00039373491077515025,-0.0008179468463144222,0.0,0.0,0.0,0.0,0.0,0.0,0.0,-4.94628987814244e-05,0.0001089742045600195,1.2718128051467104e-05,1.9316731699969836e-05,-8.264606197981583e-06,1.622372482179557e-05,1.5274939619835948e-06,-0.0012704204516968281,-0.0005203568468276391,0.0008586512544713948,0.0009134331761482035,0.0002141943890315224,-0.00039373491077515025,0.0008179468463144222,0.4783565402030945,47.11928939819336,1.0417754650115967,-21.098360061645508,-0.5761619210243225,-2.3074374198913574,0.32352012395858765,0
23,0.11004853248596191,-0.4505855441093445,-47.07168197631836,-1.0933501720428467,21.074556350708008,0.5761619210243225,2.3458895683288574,-0.30978721380233765,0.0,0.0,0.0,0.0,0.0,0.0,0.0,-0.42342987651123853,-0.2536653031353092,-0.18990988476258164,0.6334996527670643,0.0036901270763188506,0.10561378332351835,-0.3263533126626657,0.06231124676528729,0.6883063731751936,-0.07864844774169079,-1.6210527478056584,0.028175610308845835,2.287810739570202,0.8466336289491255,0.06226373270833701,0.6884179775783729,-0.07863937525950354,-1.6210372792796082,0.028167345702647853,2.2878312372101677,0.8466366937888992,0.00048434411028278035,-0.0002833143802871992,0.0005230374591176608,-0.000637385819582261,3.768306462504133e-05,-0.00022965954301678822,-0.0009158135718975735,0.0,0.0,0.0,0.0,0.0,0.0,0.0,-4.751405695028327e-05,0.00011160440317925513,9.072482187247322e-06,1.5468526050277376e-05,-8.264606197981583e-06,2.0497639965810777e-05,3.064839773636585e-06,-0.00048434411028278035,0.0002833143802871992,-0.0005230374591176608,0.000637385819582261,-3.768306462504133e-05,0.00022965954301678822,0.0009158135718975735,0.4505855441093445,47.07168197631836,1.0933501720428467,-21.074556350708008,-0.5761619210243225,-2.3458895683288574,0.30978721380233765,0
24,0.11504697799682617,-0.4505855441093445,-47.07168197631836,-1.0933501720428467,21.074556350708008,0.5761619210243225,2.3458895683288574,-0.30978721380233765,0.0,0.0,0.0,0.0,0.0,0.0,0.0,-0.42342987651123853,-0.2536653031353092,-0.18990988476258164,0.6334996527670643,0.0036901270763188506,0.10561378332351835,-0.3263533126626657,0.06231124676528729,0.6883063731751936,-0.07864844774169079,-1.6210527478056584,0.028175610308845835,2.287810739570202,0.8466336289491255,0.06226373270833701,0.6884179775783729,-0.07863937525950354,-1.6210372792796082,0.028167345702647853,2.2878312372101677,0.8466366937888992,0.00048434411028278035,-0.0002833143802871992,0.0005230374591176608,-0.000637385819582261,3.768306462504133e-05,-0.00022965954301678822,-0.0009158135718975735,0.0,0.0,0.0,0.0,0.0,0.0,0.0,-4.751405695028327e-05,0.00011160440317925513,9.072482187247322e-06,1.5468526050277376e-05,-8.264606197981583e-06,2.0497639965810777e-05,3.064839773636585e-06,-0.00048434411028278035,0.0002833143802871992,-0.0005230374591176608,0.000637385819582261,-3.768306462504133e-05,0.00022965954301678822,0.0009158135718975735,0.4505855441093445,47.07168197631836,1.0933501720428467,-21.074556350708008,-0.5761619210243225,-2.3458895683288574,0.30978721380233765,0
25,0.12004542350769043,-0.4505855441093445,-46.99630355834961,-1.1171538829803467,20.999177932739258,0.5816550850868225,2.3202548027038574,-0.27591270208358765,0.0,0.0,0.0,0.0,0.0,0.0,0.0,-0.4541643248779539,-0.2542761627792673,-0.2138343241242714,0.6300285315291017,0.0036781050750103795,0.10688612196096217,-0.3264078636194619,0.06231124676528729,0.6883006068000534,-0.07864748925005484,-1.6210474580798233,0.028174999957283335,2.287813588362002,0.8466298781962299,0.06226373270833701,0.6884179775783729,-0.07863937525950354,-1.6210372792796082,0.028167345702647853,2.2878312372101677,0.8466366937888992,-0.00045858103459545476,-0.0014223181973521478,0.00023357159825746255,0.0011150885309656588,4.7015994324603905e-05,0.0004034334889700146,-0.0021658077506334465,0.0,0.0,0.0,0.0,0.0,0.0,0.0,-4.751405695028327e-05,0.00011737077831941445,8.1139905512978e-06,1.0178800215143724e-05,-7.654254635482138e-06,1.764884816557455e-05,6.815592669240367e-06,0.00045858103459545476,0.0014223181973521478,-0.00023357159825746255,-0.0011150885309656588,-4.7015994324603905e-05,-0.0004034334889700146,0.0021658077506334465,0.4505855441093445,46.99630355834961,1.1171538829803467,-20.999177932739258,-0.5816550850868225,-2.3202548027038574,0.27591270208358765,0
26,0.12553048133850098,-0.4505855441093445,-46.99630355834961,-1.1171538829803467,20.999177932739258,0.5816550850868225,2.3202548027038574,-0.27591270208358765,0.0,0.0,0.0,0.0,0.0,0.0,0.0,-0.4541643248779539,-0.2542761627792673,-0.2138343241242714,0.6300285315291017,0.0036781050750103795,0.10688612196096217,-0.3264078636194619,0.06231124676528729,0.6883006068000534,-0.07864748925005484,-1.6210474580798233,0.028174999957283335,2.287813588362002,0.8466298781962299,0.06226373270833701,0.6884179775783729,-0.07863937525950354,-1.6210372792796082,0.028167345702647853,2.2878312372101677,0.8466366937888992,-0.00045858103459545476,-0.0014223181973521478,0.00023357159825746255,0.0011150885309656588,4.7015994324603905e-05,0.0004034334889700146,-0.0021658077506334465,0.0,0.0,0.0,0.0,0.0,0.0,0.0,-4.751405695028327e-05,0.00011737077831941445,8.1139905512978e-06,1.0178800215143724e-05,-7.654254635482138e-06,1.764884816557455e-05,6.815592669240367e-06,0.00045858103459545476,0.0014223181973521478,-0.00023357159825746255,-0.0011150885309656588,-4.7015994324603905e-05,-0.0004034334889700146,0.0021658077506334465,0.4505855441093445,46.99630355834961,1.1171538829803467,-20.999177932739258,-0.5816550850868225,-2.3202548027038574,0.27591270208358765,0
27,0.13005590438842773,-0.3752071261405945,-47.02010726928711,-1.0179717540740967,21.046785354614258,0.5880637764930725,2.3074374198913574,-0.29605430364608765,0.0,0.0,0.0,0.0,0.0,0.0,0.0,-0.3947231018357493,-0.24570110560721842,-0.17524938096597298,0.630976983916536,0.0036081758708109792,0.1057657299579772,-0.32613815462226586,0.062305957051745624,0.6883020432208934,-0.07865468675175132,-1.621050799896341,0.02817428788046042,2.2878150120311322,0.8466321161521806,0.06226373270833701,0.6884179775783729,-0.07863937525950354,-1.6210372792796082,0.028167345702647853,2.2878312372101677,0.8466366937888992,-0.00024527318869692376,0.0011893107434132674,-0.0004027541690552529,0.0003086414177913888,-0.0003323384159376941,3.109049520791571e-05,-0.0009402273976893931,0.0,0.0,0.0,0.0,0.0,0.0,0.0,-4.222434340861447e-05,0.00011593435747947467,1.5311492247774283e-05,1.3520616732876078e-05,-6.942177812566119e-06,1.6225179035433968e-05,4.577636718572364e-06,0.00024527318869692376,-0.0011893107434132674,0.0004027541690552529,-0.0003086414177913888,0.0003323384159376941,-3.109049520791571e-05,0.0009402273976893931,0.3752071261405945,47.02010726928711,1.0179717540740967,-21.046785354614258,-0.5880637764930725,-2.3074374198913574,0.29605430364608765,0
28,0.13505101203918457,-0.3752071261405945,-47.02010726928711,-1.0179717540740967,21.046785354614258,0.5880637764930725,2.3074374198913574,-0.29605430364608765,0.0,0.0,0.0,0.0,0.0,0.0,0.0,-0.3947231018357493,-0.24570110560721842,-0.17524938096597298,0.630976983916536,0.0036081758708109792,0.1057657299579772,-0.32613815462226586,0.062305957051745624,0.6883020432208934,-0.07865468675175132,-1.621050799896341,0.02817428788046042,2.2878150120311322,0.8466321161521806,0.06226373270833701,0.6884179775783729,-0.07863937525950354,-1.6210372792796082,0.028167345702647853,2.2878312372101677,0.8466366937888992,-0.00024527318869692376,0.0011893107434132674,-0.0004027541690552529,0.0003086414177913888,-0.0003323384159376941,3.109049520791571e-05,-0.0009402273976893931,0.0,0.0,0.0,0.0,0.0,0.0,0.0,-4.222434340861447e-05,0.00011593435747947467,1.5311492247774283e-05,1.3520616732876078e-05,-6.942177812566119e-06,1.6225179035433968e-05,4.577636718572364e-06,0.00024527318869692376,-0.0011893107434132674,0.0004027541690552529,-0.0003086414177913888,0.0003323384159376941,-3.109049520791571e-05,0.0009402273976893931,0.3752071261405945,47.02010726928711,1.0179717540740967,-21.046785354614258,-0.5880637764930725,-2.3074374198913574,0.29605430364608765,0
29,0.14004778861999512,-0.3752071261405945,-47.02010726928711,-1.0179717540740967,21.046785354614258,0.5880637764930725,2.3074374198913574,-0.29605430364608765,0.0,0.0,0.0,0.0,0.0,0.0,0.0,-0.3947231018357493,-0.24570110560721842,-0.17524938096597298,0.630976983916536,0.0036081758708109792,0.1057657299579772,-0.32613815462226586,0.062305957051745624,0.6883020432208934,-0.07865468675175132,-1.621050799896341,0.02817428788046042,2.2878150120311322,0.8466321161521806,0.06226373270833701,0.6884179775783729,-0.07863937525950354,-1.6210372792796082,0.028167345702647853,2.2878312372101677,0.8466366937888992,-0.00024527318869692376,0.0011893107434132674,-0.0004027541690552529,0.0003086414177913888,-0.0003323384159376941,3.109049520791571e-05,-0.0009402273976893931,0.0,0.0,0.0,0.0,0.0,0.0,0.0,-4.222434340861447e-05,0.00011593435747947467,1.5311492247774283e-05,1.3520616732876078e-05,-6.942177812566119e-06,1.6225179035433968e-05,4.577636718572364e-06,0.00024527318869692376,-0.0011893107434132674,0.0004027541690552529,-0.0003086414177913888,0.0003323384159376941,-3.109049520791571e-05,0.0009402273976893931,0.3752071261405945,47.02010726928711,1.0179717540740967,-21.046785354614258,-0.5880637764930725,-2.3074374198913574,0.29605430364608765,0
30,0.14506053924560547,-0.4505855441093445,-47.02010726928711,-1.0417754650115967,21.046785354614258,0.5816550850868225,2.3266634941101074,-0.30337852239608765,0.0,0.0,0.0,0.0,0.0,0.0,0.0,-0.42679319331229265,-0.2633572931566198,-0.19709498284994229,0.6431041614534503,0.004285519525502173,0.10385431241712756,-0.32527924586019263,0.06231124676528729,0.6883020432204531,-0.07865310417811112,-1.621052865560827,0.028174999957283335,2.2878132304669223,0.8466329299542639,0.06226373270833701,0.6884179775783729,-0.07863937525950354,-1.6210372792796082,0.028167345702647853,2.2878312372101677,0.8466366937888992,0.001373451454965494,0.0005094668344013423,0.000804483955868267,-0.00047916433874042506,2.3348685808231013e-05,-0.0005103266705622168,-0.0011491837313449375,0.0,0.0,0.0,0.0,0.0,0.0,0.0,-4.751405695028327e-05,0.00011593435791978912,1.3728918607583407e-05,1.558628121878236e-05,-7.654254635482138e-06,1.8006743245368995e-05,3.7638346352952823e-06,-0.001373451454965494,-0.0005094668344013423,-0.000804483955868267,0.00047916433874042506,-2.3348685808231013e-05,0.0005103266705622168,0.0011491837313449375,0.4505855441093445,47.02010726928711,1.0417754650115967,-21.046785354614258,-0.5816550850868225,-2.3266634941101074,0.30337852239608765,0
31,0.1500554084777832,-0.4505855441093445,-47.02010726928711,-1.0417754650115967,21.046785354614258,0.5816550850868225,2.3266634941101074,-0.30337852239608765,0.0,0.0,0.0,0.0,0.0,0.0,0.0,-0.42679319331229265,-0.2633572931566198,-0.19709498284994229,0.6431041614534503,0.004285519525502173,0.10385431241712756,-0.32527924586019263,0.06231124676528729,0.6883020432204531,-0.07865310417811112,-1.621052865560827,0.028174999957283335,2.2878132304669223,0.8466329299542639,0.06226373270833701,0.6884179775783729,-0.07863937525950354,-1.6210372792796082,0.028167345702647853,2.2878312372101677,0.8466366937888992,0.001373451454965494,0.0005094668344013423,0.000804483955868267,-0.00047916433874042506,2.3348685808231013e-05,-0.0005103266705622168,-0.0011491837313449375,0.0,0.0,0.0,0.0,0.0,0.0,0.0,-4.751405695028327e-05,0.00011593435791978912,1.3728918607583407e-05,1.558628121878236e-05,-7.654254635482138e-06,1.8006743245368995e-05,3.7638346352952823e-06,-0.001373451454965494,-0.0005094668344013423,-0.000804483955868267,0.00047916433874042506,-2.3348685808231013e-05,0.0005103266705622168,0.0011491837313449375,0.4505855441093445,47.02010726928711,1.0417754650115967,-21.046785354614258,-0.5816550850868225,-2.3266634941101074,0.30337852239608765,0
32,0.1550583839416504,-0.4267818331718445,-47.09548568725586,-1.0933501720428467,21.074556350708008,0.5761619210243225,2.3394808769226074,-0.33084434270858765,0.0,0.0,0.0,0.0,0.0,0.0,0.0,-0.4419055320029251,-0.27040588702563495,-0.20290901075038228,0.650215651978072,0.004846285725371084,0.1043547547767619,-0.32613626558827685,0.06230957632943203,0.6883073329339947,-0.07864939700655427,-1.6210527487848314,0.02817561025471623,2.287811464784806,0.8466359816582413,0.06226373270833701,0.6884179775783729,-0.07863937525950354,-1.6210372792796082,0.028167345702647853,2.2878312372101677,0.8466366937888992,0.0003242755069301254,0.0013220440820960245,0.0003469013171645569,-0.0006027812444614664,0.0002863658969069235,-8.474620458049998e-05,-6.380410812314211e-05,0.0,0.0,0.0,0.0,0.0,0.0,0.0,-4.584362109501944e-05,0.00011064464437815502,1.0021747050725782e-05,1.5469505223242308e-05,-8.264552068378006e-06,1.9772425361885837e-05,7.121306578872222e-07,-0.0003242755069301254,-0.0013220440820960245,-0.0003469013171645569,0.0006027812444614664,-0.0002863658969069235,8.474620458049998e-05,6.380410812314211e-05,0.4267818331718445,47.09548568725586,1.0933501720428467,-21.074556350708008,-0.5761619210243225,-2.3394808769226074,0.33084434270858765,0
33,0.16004681587219238,-0.4267818331718445,-47.09548568725586,-1.0933501720428467,21.074556350708008,0.5761619210243225,2.3394808769226074,-0.33084434270858765,0.0,0.0,0.0,0.0,0.0,0.0,0.0,-0.4419055320029251,-0.27040588702563495,-0.20290901075038228,0.650215651978072,0.004846285725371084,0.1043547547767619,-0.32613626558827685,0.06230957632943203,0.6883073329339947,-0.07864939700655427,-1.6210527487848314,0.02817561025471623,2.287811464784806,0.8466359816582413,0.06226373270833701,0.6884179775783729,-0.07863937525950354,-1.6210372792796082,0.028167345702647853,2.2878312372101677,0.8466366937888992,0.0003242755069301254,0.0013220440820960245,0.0003469013171645569,-0.0006027812444614664,0.0002863658969069235,-8.474620458049998e-05,-6.380410812314211e-05,0.0,0.0,0.0,0.0,0.0,0.0,0.0,-4.584362109501944e-05,0.00011064464437815502,1.0021747050725782e-05,1.5469505223242308e-05,-8.264552068378006e-06,1.9772425361885837e-05,7.121306578872222e-07,-0.0003242755069301254,-0.0013220440820960245,-0.0003469013171645569,0.0006027812444614664,-0.0002863658969069235,8.474620458049998e-05,6.380410812314211e-05,0.4267818331718445,47.09548568725586,1.0933501720428467,-21.074556350708008,-0.5761619210243225,-2.3394808769226074,0.33084434270858765,0
34,0.16504406929016113,-0.4029781222343445,-47.04787826538086,-1.0179717540740967,21.046785354614258,0.5880637764930725,2.3394808769226074,-0.34457725286483765,0.0,0.0,0.0,0.0,0.0,0.0,0.0,-0.406133943065336,-0.2492899892669397,-0.1783913156192816,0.6392249197676289,0.004452732882917007,0.10525839009828025,-0.3264420603510862,0.062307905893576765,0.6883039920622842,-0.07865376415428685,-1.6210514878213018,0.028174287880460114,2.287811451647091,0.8466375075909823,0.06226373270833701,0.6884179775783729,-0.07863937525950354,-1.6210372792796082,0.028167345702647853,2.2878312372101677,0.8466366937888992,-0.00016474962635271539,-4.046868258627443e-05,-0.0005767967583959885,1.1784596425018818e-06,-3.528527852180076e-05,-0.00031435111667000454,0.0008727385304565868,0.0,0.0,0.0,0.0,0.0,0.0,0.0,-4.417318523975561e-05,0.00011398551608865493,1.4388894783307071e-05,1.4208541693649934e-05,-6.942177812260808e-06,1.9785563076801793e-05,-8.138020831660597e-07,0.00016474962635271539,4.046868258627443e-05,0.0005767967583959885,-1.1784596425018818e-06,3.528527852180076e-05,0.00031435111667000454,-0.0008727385304565868,0.4029781222343445,47.04787826538086,1.0179717540740967,-21.046785354614258,-0.5880637764930725,-2.3394808769226074,0.34457725286483765,0
35,0.17004680633544922,-0.4029781222343445,-47.04787826538086,-1.0179717540740967,21.046785354614258,0.5880637764930725,2.3394808769226074,-0.34457725286483765,0.0,0.0,0.0,0.0,0.0,0.0,0.0,-0.406133943065336,-0.2492899892669397,-0.1783913156192816,0.6392249197676289,0.004452732882917007,0.10525839009828025,-0.3264420603510862,0.062307905893576765,0.6883039920622842,-0.07865376415428685,-1.6210514878213018,0.028174287880460114,2.287811451647091,0.8466375075909823,0.06226373270833701,0.6884179775783729,-0.07863937525950354,-1.6210372792796082,0.028167345702647853,2.2878312372101677,0.8466366937888992,-0.00016474962635271539,-4.046868258627443e-05,-0.0005767967583959885,1.1784596425018818e-06,-3.528527852180076e-05,-0.00031435111667000454,0.0008727385304565868,0.0,0.0,0.0,0.0,0.0,0.0,0.0,-4.417318523975561e-05,0.00011398551608865493,1.4388894783307071e-05,1.4208541693649934e-05,-6.942177812260808e-06,1.9785563076801793e-05,-8.138020831660597e-07,0.00016474962635271539,4.046868258627443e-05,0.0005767967583959885,-1.1784596425018818e-06,3.528527852180076e-05,0.00031435111667000454,-0.0008727385304565868,0.4029781222343445,47.04787826538086,1.0179717540740967,-21.046785354614258,-0.5880637764930725,-2.3394808769226074,0.34457725286483765,0
36,0.17505216598510742,-0.3752071261405945,-47.04787826538086,-0.9941680431365967,21.046785354614258,0.5697532296180725,2.3202548027038574,-0.30978721380233765,0.0,0.0,0.0,0.0,0.0,0.0,0.0,-0.41685691713516204,-0.2627610589242365,-0.18590223090220537,0.6440496864945229,0.004994781617999806,0.10718992517634358,-0.3261878268861581,0.062305957051745624,0.6883060980930662,-0.0786561198474141,-1.6210507998976373,0.028175967241326965,2.287817120004583,0.8466336420310868,0.06226373270833701,0.6884179775783729,-0.07863937525950354,-1.6210372792796082,0.028167345702647853,2.2878312372101677,0.8466366937888992,-0.0007881984248554152,-0.00032669598853826,-0.0011392563488880165,0.0003980774351371373,0.00013900854459919078,0.00024916718640740243,-0.0006057876597740856,0.0,0.0,0.0,0.0,0.0,0.0,0.0,-4.222434340861447e-05,0.00011187948530666514,1.6744587910552666e-05,1.3520618029172482e-05,-8.621538679112056e-06,1.4117205584529557e-05,3.0517578123445688e-06,0.0007881984248554152,0.00032669598853826,0.0011392563488880165,-0.0003980774351371373,-0.00013900854459919078,-0.00024916718640740243,0.0006057876597740856,0.3752071261405945,47.04787826538086,0.9941680431365967,-21.046785354614258,-0.5697532296180725,-2.3202548027038574,0.30978721380233765,0
37,0.18005108833312988,-0.3752071261405945,-47.04787826538086,-0.9941680431365967,21.046785354614258,0.5697532296180725,2.3202548027038574,-0.30978721380233765,0.0,0.0,0.0,0.0,0.0,0.0,0.0,-0.41685691713516204,-0.2627610589242365,-0.18590223090220537,0.6440496864945229,0.004994781617999806,0.10718992517634358,-0.3261878268861581,0.062305957051745624,0.6883060980930662,-0.0786561198474141,-1.6210507998976373,0.028175967241326965,2.287817120004583,0.8466336420310868,0.06226373270833701,0.6884179775783729,-0.07863937525950354,-1.6210372792796082,0.028167345702647853,2.2878312372101677,0.8466366937888992,-0.0007881984248554152,-0.00032669598853826,-0.0011392563488880165,0.0003980774351371373,0.00013900854459919078,0.00024916718640740243,-0.0006057876597740856,0.0,0.0,0.0,0.0,0.0,0.0,0.0,-4.222434340861447e-05,0.00011187948530666514,1.6744587910552666e-05,1.3520618029172482e-05,-8.621538679112056e-06,1.4117205584529557e-05,3.0517578123445688e-06,0.0007881984248554152,0.00032669598853826,0.0011392563488880165,-0.0003980774351371373,-0.00013900854459919078,-0.00024916718640740243,0.0006057876597740856,0.3752071261405945,47.04787826538086,0.9941680431365967,-21.046785354614258,-0.5697532296180725,-2.3202548027038574,0.30978721380233765,0
38,0.18505167961120605,-0.3752071261405945,-47.04787826538086,-1.0417754650115967,21.046785354614258,0.5761619210243225,2.3330721855163574,-0.35098594427108765,0.0,0.0,0.0,0.0,0.0,0.0,0.0,-0.4239765684863024,-0.24486212868432966,-0.18873775358603634,0.6332988210422271,0.0037492074304310745,0.10562291569543504,-0.32513401626437255,0.062305957051745624,0.6883040700753129,-0.07865206734878205,-1.6210507989515388,0.028175610306841035,2.287812517441005,0.8466382153071549,0.06226373270833701,0.6884179775783729,-0.07863937525950354,-1.6210372792796082,0.028167345702647853,2.2878312372101677,0.8466366937888992,-0.0010945117393362223,0.00035310266169729526,-0.00019403183066306527,0.00017159201763516243,0.00010808878805671278,1.1060705134141595e-05,0.0010029648202606297,0.0,0.0,0.0,0.0,0.0,0.0,0.0,-4.222434340861447e-05,0.00011390750305995123,1.2692089278509844e-05,1.3519671930639632e-05,-8.264604193182479e-06,1.871976916278939e-05,-1.5215182557204443e-06,0.0010945117393362223,-0.00035310266169729526,0.00019403183066306527,-0.00017159201763516243,-0.00010808878805671278,-1.1060705134141595e-05,-0.0010029648202606297,0.3752071261405945,47.04787826538086,1.0417754650115967,-21.046785354614258,-0.5761619210243225,-2.3330721855163574,0.35098594427108765,0
39,0.19004511833190918,-0.3752071261405945,-47.04787826538086,-1.0417754650115967,21.046785354614258,0.5761619210243225,2.3330721855163574,-0.35098594427108765,0.0,0.0,0.0,0.0,0.0,0.0,0.0,-0.4239765684863024,-0.24486212868432966,-0.18873775358603634,0.6332988210422271,0.0037492074304310745,0.10562291569543504,-0.32513401626437255,0.062305957051745624,0.6883040700753129,-0.07865206734878205,-1.6210507989515388,0.028175610306841035,2.287812517441005,0.8466382153071549,0.06226373270833701,0.6884179775783729,-0.07863937525950354,-1.6210372792796082,0.028167345702647853,2.2878312372101677,0.8466366937888992,-0.0010945117393362223,0.00035310266169729526,-0.00019403183066306527,0.00017159201763516243,0.00010808878805671278,1.1060705134141595e-05,0.0010029648202606297,0.0,0.0,0.0,0.0,0.0,0.0,0.0,-4.222434340861447e-05,0.00011390750305995123,1.2692089278509844e-05,1.3519671930639632e-05,-8.264604193182479e-06,1.871976916278939e-05,-1.5215182557204443e-06,0.0010945117393362223,-0.00035310266169729526,0.00019403183066306527,-0.00017159201763516243,-0.00010808878805671278,-1.1060705134141595e-05,-0.0010029648202606297,0.3752071261405945,47.04787826538086,1.0417754650115967,-21.046785354614258,-0.5761619210243225,-2.3330721855163574,0.35098594427108765,0
40,0.19500517845153809,-0.4505855441093445,-47.02010726928711,-0.9703643321990967,21.022981643676758,0.5880637764930725,2.3074374198913574,-0.30337852239608765,0.0,0.0,0.0,0.0,0.0,0.0,0.0,-0.4194128305335003,-0.25071948367390595,-0.18669401720290335,0.6364652593380475,0.0036879765847240074,0.10708347538747917,-0.32549812232862757,0.06231124676528729,0.6883020432208935,-0.07865715840832986,-1.6210491313501012,0.02817428788046041,2.28781502511508,0.8466329299542392,0.06226373270833701,0.6884179775783729,-0.07863937525950354,-1.6210372792796082,0.028167345702647853,2.2878312372101677,0.8466366937888992,0.00035724042992709755,6.703777559227457e-05,-0.0021057031604767096,0.00082147303466437,-0.00021050272184111517,0.00027240188049684804,-0.0007981072728877241,0.0,0.0,0.0,0.0,0.0,0.0,0.0,-4.751405695028327e-05,0.00011593435747936365,1.7783148826319706e-05,1.1852070493034716e-05,-6.942177812555711e-06,1.6212095087730916e-05,3.7638346599422334e-06,-0.00035724042992709755,-6.703777559227457e-05,0.0021057031604767096,-0.00082147303466437,0.00021050272184111517,-0.00027240188049684804,0.0007981072728877241,0.4505855441093445,47.02010726928711,0.9703643321990967,-21.022981643676758,-0.5880637764930725,-2.3074374198913574,0.30337852239608765,0
41,0.20000195503234863,-0.4505855441093445,-47.02010726928711,-0.9703643321990967,21.022981643676758,0.5880637764930725,2.3074374198913574,-0.30337852239608765,0.0,0.0,0.0,0.0,0.0,0.0,0.0,-0.4194128305335003,-0.25071948367390595,-0.18669401720290335,0.6364652593380475,0.0036879765847240074,0.10708347538747917,-0.32549812232862757,0.06231124676528729,0.6883020432208935,-0.07865715840832986,-1.6210491313501012,0.02817428788046041,2.28781502511508,0.8466329299542392,0.06226373270833701,0.6884179775783729,-0.07863937525950354,-1.6210372792796082,0.028167345702647853,2.2878312372101677,0.8466366937888992,0.00035724042992709755,6.703777559227457e-05,-0.0021057031604767096,0.00082147303466437,-0.00021050272184111517,0.00027240188049684804,-0.0007981072728877241,0.0,0.0,0.0,0.0,0.0,0.0,0.0,-4.751405695028327e-05,0.00011593435747936365,1.7783148826319706e-05,1.1852070493034716e-05,-6.942177812555711e-06,1.6212095087730916e-05,3.7638346599422334e-06,-0.00035724042992709755,-6.703777559227457e-05,0.0021057031604767096,-0.00082147303466437,0.00021050272184111517,-0.00027240188049684804,0.0007981072728877241,0.4505855441093445,47.02010726928711,0.9703643321990967,-21.022981643676758,-0.5880637764930725,-2.3074374198913574,0.30337852239608765,0
42,0.205047607421875,-0.5021602511405945,-46.99630355834961,-1.0933501720428467,21.022981643676758,0.5880637764930725,2.3202548027038574,-0.28232139348983765,0.0,0.0,0.0,0.0,0.0,0.0,0.0,-0.4293503302952976,-0.25638395883388093,-0.19204554140651836,0.639901176859153,0.004334290594881622,0.10535824922186944,-0.3258326000892947,0.0623148660429737,0.6883010748305244,-0.07864844871859808,-1.6210491370189632,0.02817428788046042,2.2878135878775594,0.8466305902732744,0.06226373270833701,0.6884179775783729,-0.07863937525950354,-1.6210372792796082,0.028167345702647853,2.2878312372101677,0.8466366937888992,0.0014579682165849516,-0.0007501794671041944,0.0006520563863187134,0.00037230320754087065,-0.00023736007771857717,-0.00034092454718364057,-0.0017279282889047722,0.0,0.0,0.0,0.0,0.0,0.0,0.0,-5.113333463668823e-05,0.00011690274784847965,9.073459094538494e-06,1.1857739355081165e-05,-6.942177812566119e-06,1.764933260828272e-05,6.10351562480016e-06,-0.0014579682165849516,0.0007501794671041944,-0.0006520563863187134,-0.00037230320754087065,0.00023736007771857717,0.00034092454718364057,0.0017279282889047722,0.5021602511405945,46.99630355834961,1.0933501720428467,-21.022981643676758,-0.5880637764930725,-2.3202548027038574,0.28232139348983765,0
43,0.21004724502563477,-0.5021602511405945,-46.99630355834961,-1.0933501720428467,21.022981643676758,0.5880637764930725,2.3202548027038574,-0.28232139348983765,0.0,0.0,0.0,0.0,0.0,0.0,0.0,-0.4293503302952976,-0.25638395883388093,-0.19204554140651836,0.639901176859153,0.004334290594881622,0.10535824922186944,-0.3258326000892947,0.0623148660429737,0.6883010748305244,-0.07864844871859808,-1.6210491370189632,0.02817428788046042,2.2878135878775594,0.8466305902732744,0.06226373270833701,0.6884179775783729,-0.07863937525950354,-1.6210372792796082,0.028167345702647853,2.2878312372101677,0.8466366937888992,0.0014579682165849516,-0.0007501794671041944,0.0006520563863187134,0.00037230320754087065,-0.00023736007771857717,-0.00034092454718364057,-0.0017279282889047722,0.0,0.0,0.0,0.0,0.0,0.0,0.0,-5.113333463668823e-05,0.00011690274784847965,9.073459094538494e-06,1.1857739355081165e-05,-6.942177812566119e-06,1.764933260828272e-05,6.10351562480016e-06,-0.0014579682165849516,0.0007501794671041944,-0.0006520563863187134,-0.00037230320754087065,0.00023736007771857717,0.00034092454718364057,0.0017279282889047722,0.5021602511405945,46.99630355834961,1.0933501720428467,-21.022981643676758,-0.5880637764930725,-2.3202548027038574,0.28232139348983765,0
44,0.21600031852722168,-0.4267818331718445,-47.02010726928711,-1.0933501720428467,21.074556350708008,0.5816550850868225,2.3266634941101074,-0.32352012395858765,0.0,0.0,0.0,0.0,0.0,0.0,0.0,-0.4197142523756439,-0.27121045735759947,-0.18719418827547202,0.6488576674412928,0.004473855785265077,0.10534794382562956,-0.32657983752428,0.06230957632943203,0.6883020432244161,-0.07864844774154746,-1.6210527477934127,0.028174999957283335,2.2878128758006624,0.846635167909993,0.06226373270833701,0.6884179775783729,-0.07863937525950354,-1.6210372792796082,0.028167345702647853,2.2878312372101677,0.8466366937888992,-5.762613592782235e-05,-0.0007896639400222077,0.0001820531414731042,-3.977945240004935e-05,0.00013161129310978914,0.00014606552414081,-0.00016065615905622567,0.0,0.0,0.0,0.0,0.0,0.0,0.0,-4.584362109501944e-05,0.00011593435395673701,9.072482043917529e-06,1.5468513804517414e-05,-7.654254635482138e-06,1.836140950528531e-05,1.5258789061167732e-06,5.762613592782235e-05,0.0007896639400222077,-0.0001820531414731042,3.977945240004935e-05,-0.00013161129310978914,-0.00014606552414081,0.00016065615905622567,0.4267818331718445,47.02010726928711,1.0933501720428467,-21.074556350708008,-0.5816550850868225,-2.3266634941101074,0.32352012395858765,0
45,0.22012686729431152,-0.4267818331718445,-47.02010726928711,-1.0933501720428467,21.074556350708008,0.5816550850868225,2.3266634941101074,-0.32352012395858765,0.0,0.0,0.0,0.0,0.0,0.0,0.0,-0.4197142523756439,-0.27121045735759947,-0.18719418827547202,0.6488576674412928,0.004473855785265077,0.10534794382562956,-0.32657983752428,0.06230957632943203,0.6883020432244161,-0.07864844774154746,-1.6210527477934127,0.028174999957283335,2.2878128758006624,0.846635167909993,0.06226373270833701,0.6884179775783729,-0.07863937525950354,-1.6210372792796082,0.028167345702647853,2.2878312372101677,0.8466366937888992,-5.762613592782235e-05,-0.0007896639400222077,0.0001820531414731042,-3.977945240004935e-05,0.00013161129310978914,0.00014606552414081,-0.00016065615905622567,0.0,0.0,0.0,0.0,0.0,0.0,0.0,-4.584362109501944e-05,0.00011593435395673701,9.072482043917529e-06,1.5468513804517414e-05,-7.654254635482138e-06,1.836140950528531e-05,1.5258789061167732e-06,5.762613592782235e-05,0.0007896639400222077,-0.0001820531414731042,3.977945240004935e-05,-0.00013161129310978914,-0.00014606552414081,0.00016065615905622567,0.4267818331718445,47.02010726928711,1.0933501720428467,-21.074556350708008,-0.5816550850868225,-2.3266634941101074,0.32352012395858765,0
46,0.2250509262084961,-0.4267818331718445,-47.04787826538086,-1.0695464611053467,21.046785354614258,0.5816550850868225,2.3266634941101074,-0.34457725286483765,0.0,0.0,0.0,0.0,0.0,0.0,0.0,-0.4180788230626019,-0.2615450832637933,-0.19439537255258804,0.6425117689251124,0.004077345635644242,0.10631430081673708,-0.32699948168274273,0.06230957632943203,0.6883039920622842,-0.07865011915400127,-1.6210508074548025,0.028174999957283335,2.2878139373768587,0.8466375075909827,0.06226373270833701,0.6884179775783729,-0.07863937525950354,-1.6210372792796082,0.028167345702647853,2.2878312372101677,0.8466366937888992,-0.00011000311644090222,-0.00043771990843019087,-0.00041715050516841993,0.00024355768899294339,-8.360523252665105e-05,0.00029946361585736215,0.001269095402736985,0.0,0.0,0.0,0.0,0.0,0.0,0.0,-4.584362109501944e-05,0.00011398551608865493,1.0743894497733386e-05,1.3528175194288394e-05,-7.654254635482138e-06,1.729983330900353e-05,-8.138020834991266e-07,0.00011000311644090222,0.00043771990843019087,0.00041715050516841993,-0.00024355768899294339,8.360523252665105e-05,-0.00029946361585736215,-0.001269095402736985,0.4267818331718445,47.04787826538086,1.0695464611053467,-21.046785354614258,-0.5816550850868225,-2.3266634941101074,0.34457725286483765,0
47,0.23006057739257812,-0.4267818331718445,-47.04787826538086,-1.0695464611053467,21.046785354614258,0.5816550850868225,2.3266634941101074,-0.34457725286483765,0.0,0.0,0.0,0.0,0.0,0.0,0.0,-0.4180788230626019,-0.2615450832637933,-0.19439537255258804,0.6425117689251124,0.004077345635644242,0.10631430081673708,-0.32699948168274273,0.06230957632943203,0.6883039920622842,-0.07865011915400127,-1.6210508074548025,0.028174999957283335,2.2878139373768587,0.8466375075909827,0.06226373270833701,0.6884179775783729,-0.07863937525950354,-1.6210372792796082,0.028167345702647853,2.2878312372101677,0.8466366937888992,-0.00011000311644090222,-0.00043771990843019087,-0.00041715050516841993,0.00024355768899294339,-8.360523252665105e-05,0.00029946361585736215,0.001269095402736985,0.0,0.0,0.0,0.0,0.0,0.0,0.0,-4.584362109501944e-05,0.00011398551608865493,1.0743894497733386e-05,1.3528175194288394e-05,-7.654254635482138e-06,1.729983330900353e-05,-8.138020834991266e-07,0.00011000311644090222,0.00043771990843019087,0.00041715050516841993,-0.00024355768899294339,8.360523252665105e-05,-0.00029946361585736215,-0.001269095402736985,0.4267818331718445,47.04787826538086,1.0695464611053467,-21.046785354614258,-0.5816550850868225,-2.3266634941101074,0.34457725286483765,0
48,0.23506474494934082,-0.4267818331718445,-47.04787826538086,-1.0695464611053467,21.046785354614258,0.5816550850868225,2.3266634941101074,-0.34457725286483765,0.0,0.0,0.0,0.0,0.0,0.0,0.0,-0.4180788230626019,-0.2615450832637933,-0.19439537255258804,0.6425117689251124,0.004077345635644242,0.10631430081673708,-0.32699948168274273,0.06230957632943203,0.6883039920622842,-0.07865011915400127,-1.6210508074548025,0.028174999957283335,2.2878139373768587,0.8466375075909827,0.06226373270833701,0.6884179775783729,-0.07863937525950354,-1.6210372792796082,0.028167345702647853,2.2878312372101677,0.8466366937888992,-0.00011000311644090222,-0.00043771990843019087,-0.00041715050516841993,0.00024355768899294339,-8.360523252665105e-05,0.00029946361585736215,0.001269095402736985,0.0,0.0,0.0,0.0,0.0,0.0,0.0,-4.584362109501944e-05,0.00011398551608865493,1.0743894497733386e-05,1.3528175194288394e-05,-7.654254635482138e-06,1.729983330900353e-05,-8.138020834991266e-07,0.00011000311644090222,0.00043771990843019087,0.00041715050516841993,-0.00024355768899294339,8.360523252665105e-05,-0.00029946361585736215,-0.001269095402736985,0.4267818331718445,47.04787826538086,1.0695464611053467,-21.046785354614258,-0.5816550850868225,-2.3266634941101074,0.34457725286483765,0
49,0.24000096321105957,-0.4267818331718445,-47.04787826538086,-1.0695464611053467,21.046785354614258,0.5816550850868225,2.3266634941101074,-0.34457725286483765,0.0,0.0,0.0,0.0,0.0,0.0,0.0,-0.4180788230626019,-0.2615450832637933,-0.19439537255258804,0.6425117689251124,0.004077345635644242,0.10631430081673708,-0.32699948168274273,0.06230957632943203,0.6883039920622842,-0.07865011915400127,-1.6210508074548025,0.028174999957283335,2.2878139373768587,0.8466375075909827,0.06226373270833701,0.6884179775783729,-0.07863937525950354,-1.6210372792796082,0.028167345702647853,2.2878312372101677,0.8466366937888992,-0.00011000311644090222,-0.00043771990843019087,-0.00041715050516841993,0.00024355768899294339,-8.360523252665105e-05,0.00029946361585736215,0.001269095402736985,0.0,0.0,0.0,0.0,0.0,0.0,0.0,-4.584362109501944e-05,0.00011398551608865493,1.0743894497733386e-05,1.3528175194288394e-05,-7.654254635482138e-06,1.729983330900353e-05,-8.138020834991266e-07,0.00011000311644090222,0.00043771990843019087,0.00041715050516841993,-0.00024355768899294339,8.360523252665105e-05,-0.00029946361585736215,-0.001269095402736985,0.4267818331718445,47.04787826538086,1.0695464611053467,-21.046785354614258,-0.5816550850868225,-2.3266634941101074,0.34457725286483765,0
50,0.24506688117980957,-0.4267818331718445,-47.04787826538086,-1.0417754650115967,21.046785354614258,0.5816550850868225,2.3266634941101074,-0.37845176458358765,0.0,0.0,0.0,0.0,0.0,0.0,0.0,-0.405687339485189,-0.26997234087805905,-0.18539129025978424,0.6441620911133897,0.004202443340370893,0.10792936942212977,-0.3259233995221144,0.06230957632943203,0.6883039920622842,-0.07865277896359833,-1.6210507989515495,0.028174986803789197,2.28781287580266,0.8466412714256181,0.06226373270833701,0.6884179775783729,-0.07863937525950354,-1.6210372792796082,0.028167345702647853,2.2878312372101677,0.8466366937888992,0.00040337337288194803,-0.0007523934994600997,0.0003779180845750852,0.00026251610968741856,-0.0022590486249847107,-0.00021378400734104757,0.0021870687952098757,0.0,0.0,0.0,0.0,0.0,0.0,0.0,-4.584362109501944e-05,0.00011398551608865493,1.3403704094791524e-05,1.3519671941297773e-05,-7.641101141344503e-06,1.8361407507772043e-05,-4.577636718905431e-06,-0.00040337337288194803,0.0007523934994600997,-0.0003779180845750852,-0.00026251610968741856,0.0022590486249847107,0.00021378400734104757,-0.0021870687952098757,0.4267818331718445,47.04787826538086,1.0417754650115967,-21.046785354614258,-0.5816550850868225,-2.3266634941101074,0.37845176458358765,0
51,0.2500467300415039,-0.4267818331718445,-47.04787826538086,-1.0417754650115967,21.046785354614258,0.5816550850868225,2.3266634941101074,-0.37845176458358765,0.0,0.0,0.0,0.0,0.0,0.0,0.0,-0.405687339485189,-0.26997234087805905,-0.18539129025978424,0.6441620911133897,0.004202443340370893,0.10792936942212977,-0.3259233995221144,0.06230957632943203,0.6883039920622842,-0.07865277896359833,-1.6210507989515495,0.028174986803789197,2.28781287580266,0.8466412714256181,0.06226373270833701,0.6884179775783729,-0.07863937525950354,-1.6210372792796082,0.028167345702647853,2.2878312372101677,0.8466366937888992,0.00040337337288194803,-0.0007523934994600997,0.0003779180845750852,0.00026251610968741856,-0.0022590486249847107,-0.00021378400734104757,0.0021870687952098757,0.0,0.0,0.0,0.0,0.0,0.0,0.0,-4.584362109501944e-05,0.00011398551608865493,1.3403704094791524e-05,1.3519671941297773e-05,-7.641101141344503e-06,1.8361407507772043e-05,-4.577636718905431e-06,-0.00040337337288194803,0.0007523934994600997,-0.0003779180845750852,-0.00026251610968741856,0.0022590486249847107,0.00021378400734104757,-0.0021870687952098757,0.4267818331718445,47.04787826538086,1.0417754650115967,-21.046785354614258,-0.5816550850868225,-2.3266634941101074,0.37845176458358765,0
52,0.2550473213195801,-0.3752071261405945,-47.02010726928711,-1.0695464611053467,21.046785354614258,0.5816550850868225,2.3330721855163574,-0.33084434270858765,0.0,0.0,0.0,0.0,0.0,0.0,0.0,-0.4265552457354013,-0.26393916336219136,-0.19732656402902443,0.637547549256182,0.0028225535411372893,0.10697738775737528,-0.3256520657298204,0.062305957051745624,0.6883020432204531,-0.07865228038283054,-1.6210510285397948,0.028174999957209085,2.287813223361969,0.8466359817120764,0.06226373270833701,0.6884179775783729,-0.07863937525950354,-1.6210372792796082,0.028167345702647853,2.2878312372101677,0.8466366937888992,-0.0006140589722518711,-0.0010648721405023618,-0.00029374327368248673,-7.512749192273359e-05,-7.99938883617088e-05,-0.00015730617390619965,0.0005296490233813365,0.0,0.0,0.0,0.0,0.0,0.0,0.0,-4.222434340861447e-05,0.00011593435791978912,1.2905123326995005e-05,1.374926018660183e-05,-7.654254561232504e-06,1.801384819888341e-05,7.120768227286689e-07,0.0006140589722518711,0.0010648721405023618,0.00029374327368248673,7.512749192273359e-05,7.99938883617088e-05,0.00015730617390619965,-0.0005296490233813365,0.3752071261405945,47.02010726928711,1.0695464611053467,-21.046785354614258,-0.5816550850868225,-2.3330721855163574,0.33084434270858765,0
53,0.26100826263427734,-0.3752071261405945,-47.02010726928711,-1.0695464611053467,21.046785354614258,0.5816550850868225,2.3330721855163574,-0.33084434270858765,0.0,0.0,0.0,0.0,0.0,0.0,0.0,-0.4265552457354013,-0.26393916336219136,-0.19732656402902443,0.637547549256182,0.0028225535411372893,0.10697738775737528,-0.3256520657298204,0.062305957051745624,0.6883020432204531,-0.07865228038283054,-1.6210510285397948,0.028174999957209085,2.287813223361969,0.8466359817120764,0.06226373270833701,0.6884179775783729,-0.07863937525950354,-1.6210372792796082,0.028167345702647853,2.2878312372101677,0.8466366937888992,-0.0006140589722518711,-0.0010648721405023618,-0.00029374327368248673,-7.512749192273359e-05,-7.99938883617088e-05,-0.00015730617390619965,0.0005296490233813365,0.0,0.0,0.0,0.0,0.0,0.0,0.0,-4.222434340861447e-05,0.00011593435791978912,1.2905123326995005e-05,1.374926018660183e-05,-7.654254561232504e-06,1.801384819888341e-05,7.120768227286689e-07,0.0006140589722518711,0.0010648721405023618,0.00029374327368248673,7.512749192273359e-05,7.99938883617088e-05,0.00015730617390619965,-0.0005296490233813365,0.3752071261405945,47.02010726928711,1.0695464611053467,-21.046785354614258,-0.5816550850868225,-2.3330721855163574,0.33084434270858765,0
54,0.2650449275970459,-0.4267818331718445,-47.02010726928711,-1.0417754650115967,21.046785354614258,0.5880637764930725,2.3138461112976074,-0.27591270208358765,0.0,0.0,0.0,0.0,0.0,0.0,0.0,-0.42562338197083305,-0.25248246172741035,-0.19857928033483377,0.6324224489480242,0.0024946549983086122,0.10721916031808497,-0.3253649570065077,0.06230957632943203,0.6883020432204531,-0.07865206703143406,-1.6210508244626363,0.028174248419978,2.28781429996029,0.8466298781964514,0.06226373270833701,0.6884179775783729,-0.07863937525950354,-1.6210372792796082,0.028167345702647853,2.2878312372101677,0.8466366937888992,8.389392095923662e-05,5.591200118930939e-06,-0.00037574492845646857,0.00018334455873955343,-0.00021175366445131584,0.0002278144683150181,-0.0014502585507455228,0.0,0.0,0.0,0.0,0.0,0.0,0.0,-4.584362109501944e-05,0.00011593435791978912,1.269177193051474e-05,1.3545183028096375e-05,-6.902717330146274e-06,1.693724987772427e-05,6.815592447750873e-06,-8.389392095923662e-05,-5.591200118930939e-06,0.00037574492845646857,-0.00018334455873955343,0.00021175366445131584,-0.0002278144683150181,0.0014502585507455228,0.4267818331718445,47.02010726928711,1.0417754650115967,-21.046785354614258,-0.5880637764930725,-2.3138461112976074,0.27591270208358765,0
55,0.27004480361938477,-0.4267818331718445,-47.02010726928711,-1.0417754650115967,21.046785354614258,0.5880637764930725,2.3138461112976074,-0.27591270208358765,0.0,0.0,0.0,0.0,0.0,0.0,0.0,-0.42562338197083305,-0.25248246172741035,-0.19857928033483377,0.6324224489480242,0.0024946549983086122,0.10721916031808497,-0.3253649570065077,0.06230957632943203,0.6883020432204531,-0.07865206703143406,-1.6210508244626363,0.028174248419978,2.28781429996029,0.8466298781964514,0.06226373270833701,0.6884179775783729,-0.07863937525950354,-1.6210372792796082,0.028167345702647853,2.2878312372101677,0.8466366937888992,8.389392095923662e-05,5.591200118930939e-06,-0.00037574492845646857,0.00018334455873955343,-0.00021175366445131584,0.0002278144683150181,-0.0014502585507455228,0.0,0.0,0.0,0.0,0.0,0.0,0.0,-4.584362109501944e-05,0.00011593435791978912,1.269177193051474e-05,1.3545183028096375e-05,-6.902717330146274e-06,1.693724987772427e-05,6.815592447750873e-06,-8.389392095923662e-05,-5.591200118930939e-06,0.00037574492845646857,-0.00018334455873955343,0.00021175366445131584,-0.0002278144683150181,0.0014502585507455228,0.4267818331718445,47.02010726928711,1.0417754650115967,-21.046785354614258,-0.5880637764930725,-2.3138461112976074,0.27591270208358765,0
56,0.2750434875488281,-0.3752071261405945,-46.97249984741211,-1.0695464611053467,21.022981643676758,0.5816550850868225,2.3202548027038574,-0.31711143255233765,0.0,0.0,0.0,0.0,0.0,0.0,0.0,-0.4050139534687207,-0.2523601214711882,-0.18078627015921536,0.6353643821836037,0.0022715037978012385,0.10513263016673748,-0.32382064937430577,0.062305957051745624,0.6882987023487426,-0.0786503584581694,-1.6210491285158224,0.028174999957060583,2.2878135878774857,0.8466344558331701,0.06226373270833701,0.6884179775783729,-0.07863937525950354,-1.6210372792796082,0.028167345702647853,2.2878312372101677,0.8466366937888992,-0.0004529644695444384,-0.0008270862141279848,0.0011236648541527291,0.00012750582975569903,-9.626165066427638e-05,-0.00042862317731786795,-0.00047888260769245644,0.0,0.0,0.0,0.0,0.0,0.0,0.0,-4.222434340861447e-05,0.00011927522963028903,1.0983198665853733e-05,1.1849236214223069e-05,-7.654254412729766e-06,1.764933268200153e-05,2.2379557290674867e-06,0.0004529644695444384,0.0008270862141279848,-0.0011236648541527291,-0.00012750582975569903,9.626165066427638e-05,0.00042862317731786795,0.00047888260769245644,0.3752071261405945,46.97249984741211,1.0695464611053467,-21.022981643676758,-0.5816550850868225,-2.3202548027038574,0.31711143255233765,0
57,0.2800438404083252,-0.3752071261405945,-46.97249984741211,-1.0695464611053467,21.022981643676758,0.5816550850868225,2.3202548027038574,-0.31711143255233765,0.0,0.0,0.0,0.0,0.0,0.0,0.0,-0.4050139534687207,-0.2523601214711882,-0.18078627015921536,0.6353643821836037,0.0022715037978012385,0.10513263016673748,-0.32382064937430577,0.062305957051745624,0.6882987023487426,-0.0786503584581694,-1.6210491285158224,0.028174999957060583,2.2878135878774857,0.8466344558331701,0.06226373270833701,0.6884179775783729,-0.07863937525950354,-1.6210372792796082,0.028167345702647853,2.2878312372101677,0.8466366937888992,-0.0004529644695444384,-0.0008270862141279848,0.0011236648541527291,0.00012750582975569903,-9.626165066427638e-05,-0.00042862317731786795,-0.00047888260769245644,0.0,0.0,0.0,0.0,0.0,0.0,0.0,-4.222434340861447e-05,0.00011927522963028903,1.0983198665853733e-05,1.1849236214223069e-05,-7.654254412729766e-06,1.764933268200153e-05,2.2379557290674867e-06,0.0004529644695444384,0.0008270862141279848,-0.0011236648541527291,-0.00012750582975569903,9.626165066427638e-05,0.00042862317731786795,0.00047888260769245644,0.3752071261405945,46.97249984741211,1.0695464611053467,-21.022981643676758,-0.5816550850868225,-2.3202548027038574,0.31711143255233765,0
58,0.28505492210388184,-0.4029781222343445,-47.02010726928711,-1.0933501720428467,21.046785354614258,0.5697532296180725,2.3330721855163574,-0.30978721380233765,0.0,0.0,0.0,0.0,0.0,0.0,0.0,-0.4266933290769854,-0.2587052866086556,-0.1938831599003858,0.6427226580846439,0.002346206540960824,0.10394078777201016,-0.32353904788781834,0.062307905893576765,0.6883020432204531,-0.07865058358715538,-1.6210508017859564,0.02817632238566875,2.2878121637238396,0.8466336420310868,0.06226373270833701,0.6884179775783729,-0.07863937525950354,-1.6210372792796082,0.028167345702647853,2.2878312372101677,0.8466366937888992,2.6254182200946133e-05,1.7036060667001175e-05,0.0009795732949032488,-0.00017269116167195132,0.00042411392272956316,-0.0003166883104912952,-0.0005781180841108067,0.0,0.0,0.0,0.0,0.0,0.0,0.0,-4.417318523975561e-05,0.00011593435791978912,1.1208327651834882e-05,1.3522506348229157e-05,-8.976683020897602e-06,1.9073486328125e-05,3.0517578123445688e-06,-2.6254182200946133e-05,-1.7036060667001175e-05,-0.0009795732949032488,0.00017269116167195132,-0.00042411392272956316,0.0003166883104912952,0.0005781180841108067,0.4029781222343445,47.02010726928711,1.0933501720428467,-21.046785354614258,-0.5697532296180725,-2.3330721855163574,0.30978721380233765,0
59,0.2900559902191162,-0.4029781222343445,-47.02010726928711,-1.0933501720428467,21.046785354614258,0.5697532296180725,2.3330721855163574,-0.30978721380233765,0.0,0.0,0.0,0.0,0.0,0.0,0.0,-0.4266933290769854,-0.2587052866086556,-0.1938831599003858,0.6427226580846439,0.002346206540960824,0.10394078777201016,-0.32353904788781834,0.062307905893576765,0.6883020432204531,-0.07865058358715538,-1.6210508017859564,0.02817632238566875,2.2878121637238396,0.8466336420310868,0.06226373270833701,0.6884179775783729,-0.07863937525950354,-1.6210372792796082,0.028167345702647853,2.2878312372101677,0.8466366937888992,2.6254182200946133e-05,1.7036060667001175e-05,0.0009795732949032488,-0.00017269116167195132,0.00042411392272956316,-0.0003166883104912952,-0.0005781180841108067,0.0,0.0,0.0,0.0,0.0,0.0,0.0,-4.417318523975561e-05,0.00011593435791978912,1.1208327651834882e-05,1.3522506348229157e-05,-8.976683020897602e-06,1.9073486328125e-05,3.0517578123445688e-06,-2.6254182200946133e-05,-1.7036060667001175e-05,-0.0009795732949032488,0.00017269116167195132,-0.00042411392272956316,0.0003166883104912952,0.0005781180841108067,0.4029781222343445,47.02010726928711,1.0933501720428467,-21.046785354614258,-0.5697532296180725,-2.3330721855163574,0.30978721380233765,0
60,0.2950472831726074,-0.4267818331718445,-47.04787826538086,-1.0417754650115967,21.074556350708008,0.5944724678993225,2.3138461112976074,-0.36471885442733765,0.0,0.0,0.0,0.0,0.0,0.0,0.0,-0.42279530843596047,-0.2618514087580059,-0.19235389915552756,0.6447060872978476,0.002342308343408732,0.10526554536018853,-0.32325498011510523,0.06230957632943203,0.6883039920622842,-0.07865420579420192,-1.6210535130875854,0.0281735758036375,2.2878153595924378,0.8466397455467118,0.06226373270833701,0.6884179775783729,-0.07863937525950354,-1.6210372792796082,0.028167345702647853,2.2878312372101677,0.8466366937888992,-0.00017502213016173213,-0.0005022750142156422,-0.00048815004200773775,-0.0007569082918134806,-0.000509822301533842,0.0005359666689776551,0.0017317532716528117,0.0,0.0,0.0,0.0,0.0,0.0,0.0,-4.584362109501944e-05,0.00011398551608865493,1.4830534698376252e-05,1.6233807977217296e-05,-6.230100989646631e-06,1.5877617729920246e-05,-3.0517578126776357e-06,0.00017502213016173213,0.0005022750142156422,0.00048815004200773775,0.0007569082918134806,0.000509822301533842,-0.0005359666689776551,-0.0017317532716528117,0.4267818331718445,47.04787826538086,1.0417754650115967,-21.074556350708008,-0.5944724678993225,-2.3138461112976074,0.36471885442733765,0
61,0.30005502700805664,-0.4267818331718445,-47.04787826538086,-1.0417754650115967,21.074556350708008,0.5944724678993225,2.3138461112976074,-0.36471885442733765,0.0,0.0,0.0,0.0,0.0,0.0,0.0,-0.42279530843596047,-0.2618514087580059,-0.19235389915552756,0.6447060872978476,0.002342308343408732,0.10526554536018853,-0.32325498011510523,0.06230957632943203,0.6883039920622842,-0.07865420579420192,-1.6210535130875854,0.0281735758036375,2.2878153595924378,0.8466397455467118,0.06226373270833701,0.6884179775783729,-0.07863937525950354,-1.6210372792796082,0.028167345702647853,2.2878312372101677,0.8466366937888992,-0.00017502213016173213,-0.0005022750142156422,-0.00048815004200773775,-0.0007569082918134806,-0.000509822301533842,0.0005359666689776551,0.0017317532716528117,0.0,0.0,0.0,0.0,0.0,0.0,0.0,-4.584362109501944e-05,0.00011398551608865493,1.4830534698376252e-05,1.6233807977217296e-05,-6.230100989646631e-06,1.5877617729920246e-05,-3.0517578126776357e-06,0.00017502213016173213,0.0005022750142156422,0.00048815004200773775,0.0007569082918134806,0.000509822301533842,-0.0005359666689776551,-0.0017317532716528117,0.4267818331718445,47.04787826538086,1.0417754650115967,-21.074556350708008,-0.5944724678993225,-2.3138461112976074,0.36471885442733765,0
62,0.3050649166107178,-0.4267818331718445,-47.07168197631836,-1.1171538829803467,21.074556350708008,0.5816550850868225,2.3266634941101074,-0.34457725286483765,0.0,0.0,0.0,0.0,0.0,0.0,0.0,-0.4216929573184708,-0.2587408512695507,-0.1887330151740809,0.6403507316510244,0.003082367458616738,0.10546299992748934,-0.32383982560369634,0.06230957632943203,0.6883056629261293,-0.07864680466267412,-1.6210536661507302,0.028174999957283335,2.287812875806644,0.8466375074294771,0.06226373270833701,0.6884179775783729,-0.07863937525950354,-1.6210372792796082,0.028167345702647853,2.2878312372101677,0.8466366937888992,-0.00024284750309142694,-0.0002629630501108978,0.0011708950779587143,-0.00040334415474705244,0.00015891110511945773,-8.011053942080597e-05,0.0007976433699091902,0.0,0.0,0.0,0.0,0.0,0.0,0.0,-4.584362109501944e-05,0.00011231465224359471,7.429403170583493e-06,1.6386871122042734e-05,-7.654254635482138e-06,1.836140352384774e-05,-8.136405779124445e-07,0.00024284750309142694,0.0002629630501108978,-0.0011708950779587143,0.00040334415474705244,-0.00015891110511945773,8.011053942080597e-05,-0.0007976433699091902,0.4267818331718445,47.07168197631836,1.1171538829803467,-21.074556350708008,-0.5816550850868225,-2.3266634941101074,0.34457725286483765,0
63,0.3100545406341553,-0.4267818331718445,-47.07168197631836,-1.1171538829803467,21.074556350708008,0.5816550850868225,2.3266634941101074,-0.34457725286483765,0.0,0.0,0.0,0.0,0.0,0.0,0.0,-0.4216929573184708,-0.2587408512695507,-0.1887330151740809,0.6403507316510244,0.003082367458616738,0.10546299992748934,-0.32383982560369634,0.06230957632943203,0.6883056629261293,-0.07864680466267412,-1.6210536661507302,0.028174999957283335,2.287812875806644,0.8466375074294771,0.06226373270833701,0.6884179775783729,-0.07863937525950354,-1.6210372792796082,0.028167345702647853,2.2878312372101677,0.8466366937888992,-0.00024284750309142694,-0.0002629630501108978,0.0011708950779587143,-0.00040334415474705244,0.00015891110511945773,-8.011053942080597e-05,0.0007976433699091902,0.0,0.0,0.0,0.0,0.0,0.0,0.0,-4.584362109501944e-05,0.00011231465224359471,7.429403170583493e-06,1.6386871122042734e-05,-7.654254635482138e-06,1.836140352384774e-05,-8.136405779124445e-07,0.00024284750309142694,0.0002629630501108978,-0.0011708950779587143,0.00040334415474705244,-0.00015891110511945773,8.011053942080597e-05,-0.0007976433699091902,0.4267818331718445,47.07168197631836,1.1171538829803467,-21.074556350708008,-0.5816550850868225,-2.3266634941101074,0.34457725286483765,0
64,0.31505703926086426,-0.4783565402030945,-47.07168197631836,-1.1171538829803467,21.098360061645508,0.5761619210243225,2.3202548027038574,-0.33084434270858765,0.0,0.0,0.0,0.0,0.0,0.0,0.0,-0.4305782468736247,-0.25319129975444293,-0.1952553492186541,0.6335856756674664,0.0035770359492666866,0.10564319119154433,-0.32411980260744494,0.062313195607118434,0.6883056624981403,-0.07864701788793128,-1.6210544182309479,0.028175610308845835,2.2878135878774857,0.8466356284993664,0.06226373270833701,0.6884179775783729,-0.07863937525950354,-1.6210372792796082,0.028167345702647853,2.2878312372101677,0.8466366937888992,0.0008465823161786625,-3.9598275335194e-06,0.00035872236147506447,-0.0013425169027675471,0.00033692727256586527,0.0005241027621251918,4.670911131523803e-05,0.0,0.0,0.0,0.0,0.0,0.0,0.0,-4.94628987814244e-05,0.0001123150802325723,7.642628427742548e-06,1.7138951339701336e-05,-8.264606197981583e-06,1.764933268200153e-05,1.065289532808933e-06,-0.0008465823161786625,3.9598275335194e-06,-0.00035872236147506447,0.0013425169027675471,-0.00033692727256586527,-0.0005241027621251918,-4.670911131523803e-05,0.4783565402030945,47.07168197631836,1.1171538829803467,-21.098360061645508,-0.5761619210243225,-2.3202548027038574,0.33084434270858765,0
65,0.32004356384277344,-0.4783565402030945,-47.07168197631836,-1.1171538829803467,21.098360061645508,0.5761619210243225,2.3202548027038574,-0.33084434270858765,0.0,0.0,0.0,0.0,0.0,0.0,0.0,-0.4305782468736247,-0.25319129975444293,-0.1952553492186541,0.6335856756674664,0.0035770359492666866,0.10564319119154433,-0.32411980260744494,0.062313195607118434,0.6883056624981403,-0.07864701788793128,-1.6210544182309479,0.028175610308845835,2.2878135878774857,0.8466356284993664,0.06226373270833701,0.6884179775783729,-0.07863937525950354,-1.6210372792796082,0.028167345702647853,2.2878312372101677,0.8466366937888992,0.0008465823161786625,-3.9598275335194e-06,0.00035872236147506447,-0.0013425169027675471,0.00033692727256586527,0.0005241027621251918,4.670911131523803e-05,0.0,0.0,0.0,0.0,0.0,0.0,0.0,-4.94628987814244e-05,0.0001123150802325723,7.642628427742548e-06,1.7138951339701336e-05,-8.264606197981583e-06,1.764933268200153e-05,1.065289532808933e-06,-0.0008465823161786625,3.9598275335194e-06,-0.00035872236147506447,0.0013425169027675471,-0.00033692727256586527,-0.0005241027621251918,-4.670911131523803e-05,0.4783565402030945,47.07168197631836,1.1171538829803467,-21.098360061645508,-0.5761619210243225,-2.3202548027038574,0.33084434270858765,0
66,0.3250691890716553,-0.4783565402030945,-47.07168197631836,-1.1171538829803467,21.098360061645508,0.5761619210243225,2.3202548027038574,-0.33084434270858765,0.0,0.0,0.0,0.0,0.0,0.0,0.0,-0.4305782468736247,-0.25319129975444293,-0.1952553492186541,0.6335856756674664,0.0035770359492666866,0.10564319119154433,-0.32411980260744494,0.062313195607118434,0.6883056624981403,-0.07864701788793128,-1.6210544182309479,0.028175610308845835,2.2878135878774857,0.8466356284993664,0.06226373270833701,0.6884179775783729,-0.07863937525950354,-1.6210372792796082,0.028167345702647853,2.2878312372101677,0.8466366937888992,0.0008465823161786625,-3.9598275335194e-06,0.00035872236147506447,-0.0013425169027675471,0.00033692727256586527,0.0005241027621251918,4.670911131523803e-05,0.0,0.0,0.0,0.0,0.0,0.0,0.0,-4.94628987814244e-05,0.0001123150802325723,7.642628427742548e-06,1.7138951339701336e-05,-8.264606197981583e-06,1.764933268200153e-05,1.065289532808933e-06,-0.0008465823161786625,3.9598275335194e-06,-0.00035872236147506447,0.0013425169027675471,-0.00033692727256586527,-0.0005241027621251918,-4.670911131523803e-05,0.4783565402030945,47.07168197631836,1.1171538829803467,-21.098360061645508,-0.5761619210243225,-2.3202548027038574,0.33084434270858765,0
67,0.33004307746887207,-0.4783565402030945,-47.07168197631836,-1.1171538829803467,21.098360061645508,0.5761619210243225,2.3202548027038574,-0.33084434270858765,0.0,0.0,0.0,0.0,0.0,0.0,0.0,-0.4305782468736247,-0.25319129975444293,-0.1952553492186541,0.6335856756674664,0.0035770359492666866,0.10564319119154433,-0.32411980260744494,0.062313195607118434,0.6883056624981403,-0.07864701788793128,-1.6210544182309479,0.028175610308845835,2.2878135878774857,0.8466356284993664,0.06226373270833701,0.6884179775783729,-0.07863937525950354,-1.6210372792796082,0.028167345702647853,2.2878312372101677,0.8466366937888992,0.0008465823161786625,-3.9598275335194e-06,0.00035872236147506447,-0.0013425169027675471,0.00033692727256586527,0.0005241027621251918,4.670911131523803e-05,0.0,0.0,0.0,0.0,0.0,0.0,0.0,-4.94628987814244e-05,0.0001123150802325723,7.642628427742548e-06,1.7138951339701336e-05,-8.264606197981583e-06,1.764933268200153e-05,1.065289532808933e-06,-0.0008465823161786625,3.9598275335194e-06,-0.00035872236147506447,0.0013425169027675471,-0.00033692727256586527,-0.0005241027621251918,-4.670911131523803e-05,0.4783565402030945,47.07168197631836,1.1171538829803467,-21.098360061645508,-0.5761619210243225,-2.3202548027038574,0.33084434270858765,0
68,0.33503270149230957,-0.4783565402030945,-47.02010726928711,-1.0417754650115967,21.046785354614258,0.5816550850868225,2.3202548027038574,-0.33725303411483765,0.0,0.0,0.0,0.0,0.0,0.0,0.0,-0.4218157799448938,-0.25495625375976905,-0.19328205880747792,0.6348038920868156,0.003526416600439844,0.10694721116681054,-0.32453382890021365,0.062313195607118434,0.6883020461093842,-0.07865206702058643,-1.6210507989865264,0.02817464481294155,2.2878137186970076,0.8466335148725174,0.06226373270833701,0.6884179775783729,-0.07863937525950354,-1.6210372792796082,0.028167345702647853,2.2878312372101677,0.8466366937888992,0.0007474114521818787,-0.000412414210307269,-0.0008495245744980179,0.00045099424126032137,-0.0001474187116786531,0.00015031795897004025,0.00027321827885071356,0.0,0.0,0.0,0.0,0.0,0.0,0.0,-4.94628987814244e-05,0.00011593146898869477,1.2691761082886388e-05,1.351970691820803e-05,-7.299110293696592e-06,1.7518513160119653e-05,3.1789163817963484e-06,-0.0007474114521818787,0.000412414210307269,0.0008495245744980179,-0.00045099424126032137,0.0001474187116786531,-0.00015031795897004025,-0.00027321827885071356,0.4783565402030945,47.02010726928711,1.0417754650115967,-21.046785354614258,-0.5816550850868225,-2.3202548027038574,0.33725303411483765,0
69,0.34004712104797363,-0.4783565402030945,-47.02010726928711,-1.0417754650115967,21.046785354614258,0.5816550850868225,2.3202548027038574,-0.33725303411483765,0.0,0.0,0.0,0.0,0.0,0.0,0.0,-0.4218157799448938,-0.25495625375976905,-0.19328205880747792,0.6348038920868156,0.003526416600439844,0.10694721116681054,-0.32453382890021365,0.062313195607118434,0.6883020461093842,-0.07865206702058643,-1.6210507989865264,0.02817464481294155,2.2878137186970076,0.8466335148725174,0.06226373270833701,0.6884179775783729,-0.07863937525950354,-1.6210372792796082,0.028167345702647853,2.2878312372101677,0.8466366937888992,0.0007474114521818787,-0.000412414210307269,-0.0008495245744980179,0.00045099424126032137,-0.0001474187116786531,0.00015031795897004025,0.00027321827885071356,0.0,0.0,0.0,0.0,0.0,0.0,0.0,-4.94628987814244e-05,0.00011593146898869477,1.2691761082886388e-05,1.351970691820803e-05,-7.299110293696592e-06,1.7518513160119653e-05,3.1789163817963484e-06,-0.0007474114521818787,0.000412414210307269,0.0008495245744980179,-0.00045099424126032137,0.0001474187116786531,-0.00015031795897004025,-0.00027321827885071356,0.4783565402030945,47.02010726928711,1.0417754650115967,-21.046785354614258,-0.5816550850868225,-2.3202548027038574,0.33725303411483765,0
70,0.345076322555542,-0.4029781222343445,-47.02010726928711,-1.0417754650115967,21.098360061645508,0.5816550850868225,2.3074374198913574,-0.30978721380233765,0.0,0.0,0.0,0.0,0.0,0.0,0.0,-0.40821145361979594,-0.24371777182200008,-0.18212771957499185,0.6325607645915055,0.002757268156107472,0.10573753261535146,-0.32482420847719834,0.062307905893576765,0.688302121221642,-0.07865428195726261,-1.6210544182292206,0.028174999951268938,2.2878150125178633,0.8466304630628635,0.06226373270833701,0.6884179775783729,-0.07863937525950354,-1.6210372792796082,0.028167345702647853,2.2878312372101677,0.8466366937888992,-0.00023877764133138087,0.0006354133800241236,2.915357853950025e-05,-0.0013017182897401124,5.7570124443669026e-05,0.00037031231814866163,-0.0006942374670764005,0.0,0.0,0.0,0.0,0.0,0.0,0.0,-4.417318523975561e-05,0.00011585635673083683,1.4906697759067833e-05,1.7138949612416354e-05,-7.654248621084825e-06,1.62246923043341e-05,6.230726035671985e-06,0.00023877764133138087,-0.0006354133800241236,-2.915357853950025e-05,0.0013017182897401124,-5.7570124443669026e-05,-0.00037031231814866163,0.0006942374670764005,0.4029781222343445,47.02010726928711,1.0417754650115967,-21.098360061645508,-0.5816550850868225,-2.3074374198913574,0.30978721380233765,0
71,0.35007381439208984,-0.4029781222343445,-47.02010726928711,-1.0417754650115967,21.098360061645508,0.5816550850868225,2.3074374198913574,-0.30978721380233765,0.0,0.0,0.0,0.0,0.0,0.0,0.0,-0.40821145361979594,-0.24371777182200008,-0.18212771957499185,0.6325607645915055,0.002757268156107472,0.10573753261535146,-0.32482420847719834,0.062307905893576765,0.688302121221642,-0.07865428195726261,-1.6210544182292206,0.028174999951268938,2.2878150125178633,0.8466304630628635,0.06226373270833701,0.6884179775783729,-0.07863937525950354,-1.6210372792796082,0.028167345702647853,2.2878312372101677,0.8466366937888992,-0.00023877764133138087,0.0006354133800241236,2.915357853950025e-05,-0.0013017182897401124,5.7570124443669026e-05,0.00037031231814866163,-0.0006942374670764005,0.0,0.0,0.0,0.0,0.0,0.0,0.0,-4.417318523975561e-05,0.00011585635673083683,1.4906697759067833e-05,1.7138949612416354e-05,-7.654248621084825e-06,1.62246923043341e-05,6.230726035671985e-06,0.00023877764133138087,-0.0006354133800241236,-2.915357853950025e-05,0.0013017182897401124,-5.7570124443669026e-05,-0.00037031231814866163,0.0006942374670764005,0.4029781222343445,47.02010726928711,1.0417754650115967,-21.098360061645508,-0.5816550850868225,-2.3074374198913574,0.30978721380233765,0
72,0.3550715446472168,-0.4029781222343445,-47.02010726928711,-1.0417754650115967,21.046785354614258,0.5816550850868225,2.3330721855163574,-0.29605430364608765,0.0,0.0,0.0,0.0,0.0,0.0,0.0,-0.4406793029779252,-0.261370258089486,-0.20472419810223613,0.6445419272333152,0.003294230819019169,0.10527085952274022,-0.32560273098607767,0.062307905893576765,0.6883020432208934,-0.0786520680083358,-1.621053094834147,0.028174999957283304,2.2878121642083586,0.8466321161342352,0.06226373270833701,0.6884179775783729,-0.07863937525950354,-1.6210372792796082,0.028167345702647853,2.2878312372101677,0.8466366937888992,-4.104492981430727e-05,-0.00021009720177113576,-0.0009371361079316956,-0.00040643977305792445,-4.1051968725935335e-05,-0.0006572439566950064,-0.0016166188275751657,0.0,0.0,0.0,0.0,0.0,0.0,0.0,-4.417318523975561e-05,0.00011593435747947467,1.2692748832254797e-05,1.5815554538889387e-05,-7.654254635450913e-06,1.9073001809033485e-05,4.57765466399529e-06,4.104492981430727e-05,0.00021009720177113576,0.0009371361079316956,0.00040643977305792445,4.1051968725935335e-05,0.0006572439566950064,0.0016166188275751657,0.4029781222343445,47.02010726928711,1.0417754650115967,-21.046785354614258,-0.5816550850868225,-2.3330721855163574,0.29605430364608765,0
73,0.36005640029907227,-0.4029781222343445,-47.02010726928711,-1.0417754650115967,21.046785354614258,0.5816550850868225,2.3330721855163574,-0.29605430364608765,0.0,0.0,0.0,0.0,0.0,0.0,0.0,-0.4406793029779252,-0.261370258089486,-0.20472419810223613,0.6445419272333152,0.003294230819019169,0.10527085952274022,-0.32560273098607767,0.062307905893576765,0.6883020432208934,-0.0786520680083358,-1.621053094834147,0.028174999957283304,2.2878121642083586,0.8466321161342352,0.06226373270833701,0.6884179775783729,-0.07863937525950354,-1.6210372792796082,0.028167345702647853,2.2878312372101677,0.8466366937888992,-4.104492981430727e-05,-0.00021009720177113576,-0.0009371361079316956,-0.00040643977305792445,-4.1051968725935335e-05,-0.0006572439566950064,-0.0016166188275751657,0.0,0.0,0.0,0.0,0.0,0.0,0.0,-4.417318523975561e-05,0.00011593435747947467,1.2692748832254797e-05,1.5815554538889387e-05,-7.654254635450913e-06,1.9073001809033485e-05,4.57765466399529e-06,4.104492981430727e-05,0.00021009720177113576,0.0009371361079316956,0.00040643977305792445,4.1051968725935335e-05,0.0006572439566950064,0.0016166188275751657,0.4029781222343445,47.02010726928711,1.0417754650115967,-21.046785354614258,-0.5816550850868225,-2.3330721855163574,0.29605430364608765,0
74,0.3650686740875244,-0.4267818331718445,-47.04787826538086,-1.0695464611053467,21.074556350708008,0.5816550850868225,2.3202548027038574,-0.33725303411483765,0.0,0.0,0.0,0.0,0.0,0.0,0.0,-0.42009294219750964,-0.2529941400368388,-0.19303717018924885,0.6424050841756521,0.0032590143056060563,0.10453949157059911,-0.3264713071284625,0.06230744546338131,0.6883040007290776,-0.07865011915400687,-1.6210527507457266,0.028174999957283335,2.2878135878774883,0.8466366937888992,0.06226373270833701,0.6884179775783729,-0.07863937525950354,-1.6210372792796082,0.028167345702647853,2.2878312372101677,0.8466366937888992,0.00038855864587279985,0.0004814540288212707,0.0004805971597934087,-0.0005088461629099678,-2.4165533572123042e-05,0.00013293412918467833,0.00015619738339798665,0.0,0.0,0.0,0.0,0.0,0.0,0.0,-4.371275504429922e-05,0.00011397684929526086,1.0743894503326135e-05,1.547146611846628e-05,-7.654254635482138e-06,1.7649332679336993e-05,0.0,-0.00038855864587279985,-0.0004814540288212707,-0.0004805971597934087,0.0005088461629099678,2.4165533572123042e-05,-0.00013293412918467833,-0.00015619738339798665,0.4267818331718445,47.04787826538086,1.0695464611053467,-21.074556350708008,-0.5816550850868225,-2.3202548027038574,0.33725303411483765,0
75,0.37007570266723633,-0.4267818331718445,-47.04787826538086,-1.0695464611053467,21.074556350708008,0.5816550850868225,2.3202548027038574,-0.33725303411483765,0.0,0.0,0.0,0.0,0.0,0.0,0.0,-0.42009294219750964,-0.2529941400368388,-0.19303717018924885,0.6424050841756521,0.0032590143056060563,0.10453949157059911,-0.3264713071284625,0.06230744546338131,0.6883040007290776,-0.07865011915400687,-1.6210527507457266,0.028174999957283335,2.2878135878774883,0.8466366937888992,0.06226373270833701,0.6884179775783729,-0.07863937525950354,-1.6210372792796082,0.028167345702647853,2.2878312372101677,0.8466366937888992,0.00038855864587279985,0.0004814540288212707,0.0004805971597934087,-0.0005088461629099678,-2.4165533572123042e-05,0.00013293412918467833,0.00015619738339798665,0.0,0.0,0.0,0.0,0.0,0.0,0.0,-4.371275504429922e-05,0.00011397684929526086,1.0743894503326135e-05,1.547146611846628e-05,-7.654254635482138e-06,1.7649332679336993e-05,0.0,-0.00038855864587279985,-0.0004814540288212707,-0.0004805971597934087,0.0005088461629099678,2.4165533572123042e-05,-0.00013293412918467833,-0.00015619738339798665,0.4267818331718445,47.04787826538086,1.0695464611053467,-21.074556350708008,-0.5816550850868225,-2.3202548027038574,0.33725303411483765,0
76,0.37506890296936035,-0.3752071261405945,-47.07168197631836,-1.0417754650115967,21.046785354614258,0.5880637764930725,2.3330721855163574,-0.30337852239608765,0.0,0.0,0.0,0.0,0.0,0.0,0.0,-0.4107590618025285,-0.26199406883933546,-0.18655942140468293,0.646077899232914,0.003822524183198434,0.10591488141225662,-0.32679809428836476,0.062305956073403126,0.6883077685289378,-0.07865301920819993,-1.6210507998963466,0.02817428788046042,2.2878121637238396,0.8466329299542639,0.06226373270833701,0.6884179775783729,-0.07863937525950354,-1.6210372792796082,0.028167345702647853,2.2878312372101677,0.8466366937888992,-0.0002914662623985816,0.0004336371893570338,-0.00011133457128874606,0.0003083596492686769,-0.0001727655191596037,-0.00033169492425886877,-0.0010141156465601853,0.0,0.0,0.0,0.0,0.0,0.0,0.0,-4.222336506611718e-05,0.0001102090494350394,1.364394869639296e-05,1.3520616738427194e-05,-6.942177812566119e-06,1.9073486328125e-05,3.7638346352952823e-06,0.0002914662623985816,-0.0004336371893570338,0.00011133457128874606,-0.0003083596492686769,0.0001727655191596037,0.00033169492425886877,0.0010141156465601853,0.3752071261405945,47.07168197631836,1.0417754650115967,-21.046785354614258,-0.5880637764930725,-2.3330721855163574,0.30337852239608765,0
77,0.38005948066711426,-0.3752071261405945,-47.07168197631836,-1.0417754650115967,21.046785354614258,0.5880637764930725,2.3330721855163574,-0.30337852239608765,0.0,0.0,0.0,0.0,0.0,0.0,0.0,-0.4107590618025285,-0.26199406883933546,-0.18655942140468293,0.646077899232914,0.003822524183198434,0.10591488141225662,-0.32679809428836476,0.062305956073403126,0.6883077685289378,-0.07865301920819993,-1.6210507998963466,0.02817428788046042,2.2878121637238396,0.8466329299542639,0.06226373270833701,0.6884179775783729,-0.07863937525950354,-1.6210372792796082,0.028167345702647853,2.2878312372101677,0.8466366937888992,-0.0002914662623985816,0.0004336371893570338,-0.00011133457128874606,0.0003083596492686769,-0.0001727655191596037,-0.00033169492425886877,-0.0010141156465601853,0.0,0.0,0.0,0.0,0.0,0.0,0.0,-4.222336506611718e-05,0.0001102090494350394,1.364394869639296e-05,1.3520616738427194e-05,-6.942177812566119e-06,1.9073486328125e-05,3.7638346352952823e-06,0.0002914662623985816,-0.0004336371893570338,0.00011133457128874606,-0.0003083596492686769,0.0001727655191596037,0.00033169492425886877,0.0010141156465601853,0.3752071261405945,47.07168197631836,1.0417754650115967,-21.046785354614258,-0.5880637764930725,-2.3330721855163574,0.30337852239608765,0
78,0.38504767417907715,-0.4267818331718445,-47.09548568725586,-1.0417754650115967,21.074556350708008,0.5816550850868225,2.3394808769226074,-0.33725303411483765,0.0,0.0,0.0,0.0,0.0,0.0,0.0,-0.4271026495559521,-0.2610995237588283,-0.19871715211769864,0.6416429959199164,0.004568587282343123,0.10579865799289603,-0.3262088366257582,0.062309576329426505,0.6883073329458833,-0.07865206702460348,-1.6210528243227904,0.028174999957283335,2.287811451700852,0.8466366937888993,0.06226373270833701,0.6884179775783729,-0.07863937525950354,-1.6210372792796082,0.028167345702647853,2.2878312372101677,0.8466366937888992,0.0002896538721229181,0.0005285196833163866,-0.0005342939180613936,-0.0007611851316593985,7.493558756605088e-05,-0.0005693374140305372,0.0005858160106472953,0.0,0.0,0.0,0.0,0.0,0.0,0.0,-4.584362108949608e-05,0.00011064463248955381,1.2691765099936969e-05,1.5545043182241258e-05,-7.654254635482138e-06,1.9785509315806138e-05,-1.1102230246251565e-16,-0.0002896538721229181,-0.0005285196833163866,0.0005342939180613936,0.0007611851316593985,-7.493558756605088e-05,0.0005693374140305372,-0.0005858160106472953,0.4267818331718445,47.09548568725586,1.0417754650115967,-21.074556350708008,-0.5816550850868225,-2.3394808769226074,0.33725303411483765,0
79,0.39004969596862793,-0.4267818331718445,-47.09548568725586,-1.0417754650115967,21.074556350708008,0.5816550850868225,2.3394808769226074,-0.33725303411483765,0.0,0.0,0.0,0.0,0.0,0.0,0.0,-0.4271026495559521,-0.2610995237588283,-0.19871715211769864,0.6416429959199164,0.004568587282343123,0.10579865799289603,-0.3262088366257582,0.062309576329426505,0.6883073329458833,-0.07865206702460348,-1.6210528243227904,0.028174999957283335,2.287811451700852,0.8466366937888993,0.06226373270833701,0.6884179775783729,-0.07863937525950354,-1.6210372792796082,0.028167345702647853,2.2878312372101677,0.8466366937888992,0.0002896538721229181,0.0005285196833163866,-0.0005342939180613936,-0.0007611851316593985,7.493558756605088e-05,-0.0005693374140305372,0.0005858160106472953,0.0,0.0,0.0,0.0,0.0,0.0,0.0,-4.584362108949608e-05,0.00011064463248955381,1.2691765099936969e-05,1.5545043182241258e-05,-7.654254635482138e-06,1.9785509315806138e-05,-1.1102230246251565e-16,-0.0002896538721229181,-0.0005285196833163866,0.0005342939180613936,0.0007611851316593985,-7.493558756605088e-05,0.0005693374140305372,-0.0005858160106472953,0.4267818331718445,47.09548568725586,1.0417754650115967,-21.074556350708008,-0.5816550850868225,-2.3394808769226074,0.33725303411483765,0
