rezayati/contactInterpretation/dataset/franka_main/labeled_data/link6/b6_3.csv
index,time,tau_J0,tau_J1,tau_J2,tau_J3,tau_J4,tau_J5,tau_J6,tau_J_d0,tau_J_d1,tau_J_d2,tau_J_d3,tau_J_d4,tau_J_d5,tau_J_d6,tau_ext0,tau_ext1,tau_ext2,tau_ext3,tau_ext4,tau_ext5,tau_ext6,q0,q1,q2,q3,q4,q5,q6,q_d0,q_d1,q_d2,q_d3,q_d4,q_d5,q_d6,dq0,dq1,dq2,dq3,dq4,dq5,dq6,dq_d0,dq_d1,dq_d2,dq_d3,dq_d4,dq_d5,dq_d6,e0,e1,e2,e3,e4,e5,e6,de0,de1,de2,de3,de4,de5,de6,etau_J0,etau_J1,etau_J2,etau_J3,etau_J4,etau_J5,etau_J6,label
1,0.0,-0.5021602511405945,-34.21371078491211,-3.9220244884490967,19.586824417114258,0.08177715539932251,1.809390664100647,-0.13217489421367645,0.0,0.0,0.0,0.0,0.0,0.0,0.0,-0.5198180494307034,-0.1476817915797257,-0.38981911658201923,0.5398176055595066,0.02858472166625646,-0.09137814178699279,-0.10316589216266805,1.0545129309662602,0.3241822398168998,-0.39251017036354335,-2.1534922431811947,0.8648061487873395,2.4658793837633417,0.5444916124261088,1.0544104758940245,0.3238615046091247,-0.39250456234122666,-2.153291787532338,0.8647539153680389,2.46587817577521,0.5445020185570556,-5.206180177130821e-05,-0.000714391412751065,0.00016564075133639457,-0.0004956834035423653,-1.157255079912648e-05,-9.895891464156223e-06,0.001402162784545778,0.0,0.0,0.0,0.0,0.0,0.0,0.0,-0.0001024550722357187,-0.00032073520777509135,5.608022316694328e-06,0.00020045564885684541,-5.2233419300606876e-05,-1.2079881317461627e-06,1.0406130946827297e-05,5.206180177130821e-05,0.000714391412751065,-0.00016564075133639457,0.0004956834035423653,1.157255079912648e-05,9.895891464156223e-06,-0.001402162784545778,0.5021602511405945,34.21371078491211,3.9220244884490967,-19.586824417114258,-0.08177715539932251,-1.809390664100647,0.13217489421367645,0
2,0.00497889518737793,-0.5021602511405945,-34.21371078491211,-3.9220244884490967,19.586824417114258,0.08177715539932251,1.809390664100647,-0.13217489421367645,0.0,0.0,0.0,0.0,0.0,0.0,0.0,-0.5198180494307034,-0.1476817915797257,-0.38981911658201923,0.5398176055595066,0.02858472166625646,-0.09137814178699279,-0.10316589216266805,1.0545129309662602,0.3241822398168998,-0.39251017036354335,-2.1534922431811947,0.8648061487873395,2.4658793837633417,0.5444916124261088,1.0544104758940245,0.3238615046091247,-0.39250456234122666,-2.153291787532338,0.8647539153680389,2.46587817577521,0.5445020185570556,-5.206180177130821e-05,-0.000714391412751065,0.00016564075133639457,-0.0004956834035423653,-1.157255079912648e-05,-9.895891464156223e-06,0.001402162784545778,0.0,0.0,0.0,0.0,0.0,0.0,0.0,-0.0001024550722357187,-0.00032073520777509135,5.608022316694328e-06,0.00020045564885684541,-5.2233419300606876e-05,-1.2079881317461627e-06,1.0406130946827297e-05,5.206180177130821e-05,0.000714391412751065,-0.00016564075133639457,0.0004956834035423653,1.157255079912648e-05,9.895891464156223e-06,-0.001402162784545778,0.5021602511405945,34.21371078491211,3.9220244884490967,-19.586824417114258,-0.08177715539932251,-1.809390664100647,0.13217489421367645,0
3,0.009981155395507812,-0.5021602511405945,-34.21371078491211,-3.9220244884490967,19.586824417114258,0.08177715539932251,1.809390664100647,-0.13217489421367645,0.0,0.0,0.0,0.0,0.0,0.0,0.0,-0.5198180494307034,-0.1476817915797257,-0.38981911658201923,0.5398176055595066,0.02858472166625646,-0.09137814178699279,-0.10316589216266805,1.0545129309662602,0.3241822398168998,-0.39251017036354335,-2.1534922431811947,0.8648061487873395,2.4658793837633417,0.5444916124261088,1.0544104758940245,0.3238615046091247,-0.39250456234122666,-2.153291787532338,0.8647539153680389,2.46587817577521,0.5445020185570556,-5.206180177130821e-05,-0.000714391412751065,0.00016564075133639457,-0.0004956834035423653,-1.157255079912648e-05,-9.895891464156223e-06,0.001402162784545778,0.0,0.0,0.0,0.0,0.0,0.0,0.0,-0.0001024550722357187,-0.00032073520777509135,5.608022316694328e-06,0.00020045564885684541,-5.2233419300606876e-05,-1.2079881317461627e-06,1.0406130946827297e-05,5.206180177130821e-05,0.000714391412751065,-0.00016564075133639457,0.0004956834035423653,1.157255079912648e-05,9.895891464156223e-06,-0.001402162784545778,0.5021602511405945,34.21371078491211,3.9220244884490967,-19.586824417114258,-0.08177715539932251,-1.809390664100647,0.13217489421367645,0
4,0.014981985092163086,-0.5299312472343445,-34.23751449584961,-3.9735991954803467,19.610628128051758,0.08177715539932251,1.815799355506897,-0.08365194499492645,0.0,0.0,0.0,0.0,0.0,0.0,0.0,-0.5177543683963127,-0.14716208260252062,-0.383519668332061,0.5398596857628684,0.028640279608101362,-0.09264311320489918,-0.10298646314324054,1.0545148798080912,0.3241839102527551,-0.39250678729685656,-2.15349391361705,0.8648061487873395,2.4658786716858545,0.5444862230868792,1.0544104758940245,0.3238615046091247,-0.39250456234122666,-2.153291787532338,0.8647539153680389,2.46587817577521,0.5445020185570556,0.0007018715829770328,4.1619318152677447e-07,0.0005611754959812348,-0.0008687644566583488,0.0001457426459120983,-0.0002872170671008744,-0.0009949712850595143,0.0,0.0,0.0,0.0,0.0,0.0,0.0,-0.00010440391406674188,-0.0003224056436303968,2.2249556299036577e-06,0.0002021260847122619,-5.2233419300606876e-05,-4.959106445490136e-07,1.5795470176382942e-05,-0.0007018715829770328,-4.1619318152677447e-07,-0.0005611754959812348,0.0008687644566583488,-0.0001457426459120983,0.0002872170671008744,0.0009949712850595143,0.5299312472343445,34.23751449584961,3.9735991954803467,-19.610628128051758,-0.08177715539932251,-1.815799355506897,0.08365194499492645,0
5,0.01998281478881836,-0.5299312472343445,-34.23751449584961,-3.9735991954803467,19.610628128051758,0.08177715539932251,1.815799355506897,-0.08365194499492645,0.0,0.0,0.0,0.0,0.0,0.0,0.0,-0.5177543683963127,-0.14716208260252062,-0.383519668332061,0.5398596857628684,0.028640279608101362,-0.09264311320489918,-0.10298646314324054,1.0545148798080912,0.3241839102527551,-0.39250678729685656,-2.15349391361705,0.8648061487873395,2.4658786716858545,0.5444862230868792,1.0544104758940245,0.3238615046091247,-0.39250456234122666,-2.153291787532338,0.8647539153680389,2.46587817577521,0.5445020185570556,0.0007018715829770328,4.1619318152677447e-07,0.0005611754959812348,-0.0008687644566583488,0.0001457426459120983,-0.0002872170671008744,-0.0009949712850595143,0.0,0.0,0.0,0.0,0.0,0.0,0.0,-0.00010440391406674188,-0.0003224056436303968,2.2249556299036577e-06,0.0002021260847122619,-5.2233419300606876e-05,-4.959106445490136e-07,1.5795470176382942e-05,-0.0007018715829770328,-4.1619318152677447e-07,-0.0005611754959812348,0.0008687644566583488,-0.0001457426459120983,0.0002872170671008744,0.0009949712850595143,0.5299312472343445,34.23751449584961,3.9735991954803467,-19.610628128051758,-0.08177715539932251,-1.815799355506897,0.08365194499492645,0
6,0.025017976760864258,-0.4783565402030945,-34.18990707397461,-3.9735991954803467,19.511445999145508,0.07628399133682251,1.822208046913147,-0.09738485515117645,0.0,0.0,0.0,0.0,0.0,0.0,0.0,-0.5246139512146257,-0.13384418640892468,-0.3888078762780894,0.5304488935358174,0.028879394667945948,-0.0934814491250529,-0.1032669620421409,1.0545112605304048,0.32418056938104456,-0.39250655109785765,-2.1534869534676533,0.864806759138902,2.4658779596090317,0.5444881000790294,1.0544104758940245,0.3238615046091247,-0.39250456234122666,-2.153291787532338,0.8647539153680389,2.46587817577521,0.5445020185570556,-0.0014601671272736674,-1.3101115110969595e-05,4.328563504320996e-06,0.0010087609985902721,2.0861594770270997e-05,-0.00033780564997244994,7.334237549098777e-05,0.0,0.0,0.0,0.0,0.0,0.0,0.0,-0.00010078463638030222,-0.0003190647719198414,1.9887566309884086e-06,0.00019516593531543336,-5.28437708631202e-05,2.1616617829067764e-07,1.3918478026231362e-05,0.0014601671272736674,1.3101115110969595e-05,-4.328563504320996e-06,-0.0010087609985902721,-2.0861594770270997e-05,0.00033780564997244994,-7.334237549098777e-05,0.4783565402030945,34.18990707397461,3.9735991954803467,-19.511445999145508,-0.07628399133682251,-1.822208046913147,0.09738485515117645,0
7,0.029992341995239258,-0.4783565402030945,-34.18990707397461,-3.9735991954803467,19.511445999145508,0.07628399133682251,1.822208046913147,-0.09738485515117645,0.0,0.0,0.0,0.0,0.0,0.0,0.0,-0.5246139512146257,-0.13384418640892468,-0.3888078762780894,0.5304488935358174,0.028879394667945948,-0.0934814491250529,-0.1032669620421409,1.0545112605304048,0.32418056938104456,-0.39250655109785765,-2.1534869534676533,0.864806759138902,2.4658779596090317,0.5444881000790294,1.0544104758940245,0.3238615046091247,-0.39250456234122666,-2.153291787532338,0.8647539153680389,2.46587817577521,0.5445020185570556,-0.0014601671272736674,-1.3101115110969595e-05,4.328563504320996e-06,0.0010087609985902721,2.0861594770270997e-05,-0.00033780564997244994,7.334237549098777e-05,0.0,0.0,0.0,0.0,0.0,0.0,0.0,-0.00010078463638030222,-0.0003190647719198414,1.9887566309884086e-06,0.00019516593531543336,-5.28437708631202e-05,2.1616617829067764e-07,1.3918478026231362e-05,0.0014601671272736674,1.3101115110969595e-05,-4.328563504320996e-06,-0.0010087609985902721,-2.0861594770270997e-05,0.00033780564997244994,-7.334237549098777e-05,0.4783565402030945,34.18990707397461,3.9735991954803467,-19.511445999145508,-0.07628399133682251,-1.822208046913147,0.09738485515117645,0
8,0.03498578071594238,-0.5299312472343445,-34.26528549194336,-3.9497954845428467,19.586824417114258,0.07628399133682251,1.809390664100647,-0.08365194499492645,0.0,0.0,0.0,0.0,0.0,0.0,0.0,-0.5356239404809192,-0.15392482232201904,-0.40397639392252066,0.5407385005947315,0.028011048946655417,-0.09038089756176519,-0.10363592920316238,1.0545148798080912,0.32418585898557,-0.39250822152171216,-2.1534922431811947,0.864806759138902,2.4658793837626773,0.5444862360075474,1.0544104758940245,0.3238615046091247,-0.39250456234122666,-2.153291787532338,0.8647539153680389,2.46587817577521,0.5445020185570556,-0.0012081663512692202,0.001250426520019686,-0.0012710411578278809,-0.0006673374345011806,-0.006902507489244957,0.00014877369795182307,-0.0007649050959767215,0.0,0.0,0.0,0.0,0.0,0.0,0.0,-0.00010440391406674188,-0.0003243543764452905,3.6591804855046206e-06,0.00020045564885684541,-5.28437708631202e-05,-1.2079874673887048e-06,1.578254950818092e-05,0.0012081663512692202,-0.001250426520019686,0.0012710411578278809,0.0006673374345011806,0.006902507489244957,-0.00014877369795182307,0.0007649050959767215,0.5299312472343445,34.26528549194336,3.9497954845428467,-19.586824417114258,-0.07628399133682251,-1.809390664100647,0.08365194499492645,0
9,0.04000377655029297,-0.5299312472343445,-34.26528549194336,-3.9497954845428467,19.586824417114258,0.07628399133682251,1.809390664100647,-0.08365194499492645,0.0,0.0,0.0,0.0,0.0,0.0,0.0,-0.5356239404809192,-0.15392482232201904,-0.40397639392252066,0.5407385005947315,0.028011048946655417,-0.09038089756176519,-0.10363592920316238,1.0545148798080912,0.32418585898557,-0.39250822152171216,-2.1534922431811947,0.864806759138902,2.4658793837626773,0.5444862360075474,1.0544104758940245,0.3238615046091247,-0.39250456234122666,-2.153291787532338,0.8647539153680389,2.46587817577521,0.5445020185570556,-0.0012081663512692202,0.001250426520019686,-0.0012710411578278809,-0.0006673374345011806,-0.006902507489244957,0.00014877369795182307,-0.0007649050959767215,0.0,0.0,0.0,0.0,0.0,0.0,0.0,-0.00010440391406674188,-0.0003243543764452905,3.6591804855046206e-06,0.00020045564885684541,-5.28437708631202e-05,-1.2079874673887048e-06,1.578254950818092e-05,0.0012081663512692202,-0.001250426520019686,0.0012710411578278809,0.0006673374345011806,0.006902507489244957,-0.00014877369795182307,0.0007649050959767215,0.5299312472343445,34.26528549194336,3.9497954845428467,-19.586824417114258,-0.07628399133682251,-1.809390664100647,0.08365194499492645,0
10,0.04540872573852539,-0.5299312472343445,-34.26528549194336,-3.9497954845428467,19.586824417114258,0.07628399133682251,1.809390664100647,-0.08365194499492645,0.0,0.0,0.0,0.0,0.0,0.0,0.0,-0.5356239404809192,-0.15392482232201904,-0.40397639392252066,0.5407385005947315,0.028011048946655417,-0.09038089756176519,-0.10363592920316238,1.0545148798080912,0.32418585898557,-0.39250822152171216,-2.1534922431811947,0.864806759138902,2.4658793837626773,0.5444862360075474,1.0544104758940245,0.3238615046091247,-0.39250456234122666,-2.153291787532338,0.8647539153680389,2.46587817577521,0.5445020185570556,-0.0012081663512692202,0.001250426520019686,-0.0012710411578278809,-0.0006673374345011806,-0.006902507489244957,0.00014877369795182307,-0.0007649050959767215,0.0,0.0,0.0,0.0,0.0,0.0,0.0,-0.00010440391406674188,-0.0003243543764452905,3.6591804855046206e-06,0.00020045564885684541,-5.28437708631202e-05,-1.2079874673887048e-06,1.578254950818092e-05,0.0012081663512692202,-0.001250426520019686,0.0012710411578278809,0.0006673374345011806,0.006902507489244957,-0.00014877369795182307,0.0007649050959767215,0.5299312472343445,34.26528549194336,3.9497954845428467,-19.586824417114258,-0.07628399133682251,-1.809390664100647,0.08365194499492645,0
11,0.04998135566711426,-0.5299312472343445,-34.26528549194336,-3.9497954845428467,19.586824417114258,0.07628399133682251,1.809390664100647,-0.08365194499492645,0.0,0.0,0.0,0.0,0.0,0.0,0.0,-0.5356239404809192,-0.15392482232201904,-0.40397639392252066,0.5407385005947315,0.028011048946655417,-0.09038089756176519,-0.10363592920316238,1.0545148798080912,0.32418585898557,-0.39250822152171216,-2.1534922431811947,0.864806759138902,2.4658793837626773,0.5444862360075474,1.0544104758940245,0.3238615046091247,-0.39250456234122666,-2.153291787532338,0.8647539153680389,2.46587817577521,0.5445020185570556,-0.0012081663512692202,0.001250426520019686,-0.0012710411578278809,-0.0006673374345011806,-0.006902507489244957,0.00014877369795182307,-0.0007649050959767215,0.0,0.0,0.0,0.0,0.0,0.0,0.0,-0.00010440391406674188,-0.0003243543764452905,3.6591804855046206e-06,0.00020045564885684541,-5.28437708631202e-05,-1.2079874673887048e-06,1.578254950818092e-05,0.0012081663512692202,-0.001250426520019686,0.0012710411578278809,0.0006673374345011806,0.006902507489244957,-0.00014877369795182307,0.0007649050959767215,0.5299312472343445,34.26528549194336,3.9497954845428467,-19.586824417114258,-0.07628399133682251,-1.809390664100647,0.08365194499492645,0
12,0.05498147010803223,-0.5299312472343445,-34.23751449584961,-3.9497954845428467,19.559053421020508,0.08177715539932251,1.809390664100647,-0.13858358561992645,0.0,0.0,0.0,0.0,0.0,0.0,0.0,-0.5184991773740133,-0.14654641790166617,-0.38272957572355215,0.536946608621573,0.02670243825112358,-0.09313316843178818,-0.10239002543562098,1.0545148798080912,0.3241839102527545,-0.39250822152171216,-2.1534902943393637,0.8648061487873395,2.4658793837626773,0.5444923245030164,1.0544104758940245,0.3238615046091247,-0.39250456234122666,-2.153291787532338,0.8647539153680389,2.46587817577521,0.5445020185570556,-0.0006322735385242559,0.00011813845311278483,-0.00013386656635476355,7.01738843932737e-05,-0.00029337579516535095,-7.47225547596116e-05,0.0017096848506298918,0.0,0.0,0.0,0.0,0.0,0.0,0.0,-0.00010440391406674188,-0.0003224056436297862,3.6591804855046206e-06,0.00019850680702582224,-5.2233419300606876e-05,-1.2079874673887048e-06,9.694054039166566e-06,0.0006322735385242559,-0.00011813845311278483,0.00013386656635476355,-7.01738843932737e-05,0.00029337579516535095,7.47225547596116e-05,-0.0017096848506298918,0.5299312472343445,34.23751449584961,3.9497954845428467,-19.559053421020508,-0.08177715539932251,-1.809390664100647,0.13858358561992645,0
13,0.05998563766479492,-0.5299312472343445,-34.23751449584961,-3.9497954845428467,19.559053421020508,0.08177715539932251,1.809390664100647,-0.13858358561992645,0.0,0.0,0.0,0.0,0.0,0.0,0.0,-0.5184991773740133,-0.14654641790166617,-0.38272957572355215,0.536946608621573,0.02670243825112358,-0.09313316843178818,-0.10239002543562098,1.0545148798080912,0.3241839102527545,-0.39250822152171216,-2.1534902943393637,0.8648061487873395,2.4658793837626773,0.5444923245030164,1.0544104758940245,0.3238615046091247,-0.39250456234122666,-2.153291787532338,0.8647539153680389,2.46587817577521,0.5445020185570556,-0.0006322735385242559,0.00011813845311278483,-0.00013386656635476355,7.01738843932737e-05,-0.00029337579516535095,-7.47225547596116e-05,0.0017096848506298918,0.0,0.0,0.0,0.0,0.0,0.0,0.0,-0.00010440391406674188,-0.0003224056436297862,3.6591804855046206e-06,0.00019850680702582224,-5.2233419300606876e-05,-1.2079874673887048e-06,9.694054039166566e-06,0.0006322735385242559,-0.00011813845311278483,0.00013386656635476355,-7.01738843932737e-05,0.00029337579516535095,7.47225547596116e-05,-0.0017096848506298918,0.5299312472343445,34.23751449584961,3.9497954845428467,-19.559053421020508,-0.08177715539932251,-1.809390664100647,0.13858358561992645,0
14,0.06494736671447754,-0.4783565402030945,-34.21371078491211,-3.9735991954803467,19.586824417114258,0.07628399133682251,1.828616738319397,-0.10470907390117645,0.0,0.0,0.0,0.0,0.0,0.0,0.0,-0.5200938699439016,-0.13537534329567072,-0.3771031967387303,0.5294334260678112,0.026618708541793476,-0.09477096678342686,-0.10321258661628722,1.0545112605304048,0.3241822398168998,-0.3925065510858569,-2.1534922431811947,0.864806759138902,2.465877247532209,0.5444885607221315,1.0544104758940245,0.3238615046091247,-0.39250456234122666,-2.153291787532338,0.8647539153680389,2.46587817577521,0.5445020185570556,-0.00022851538957808175,0.000464003745380368,0.0007605935772658811,-0.0007179267795038906,0.0001032337651515331,-0.000788040644345761,0.00039611878679192777,0.0,0.0,0.0,0.0,0.0,0.0,0.0,-0.00010078463638030222,-0.00032073520777509135,1.9887446302546685e-06,0.00020045564885684541,-5.28437708631202e-05,9.282430011303688e-07,1.3457834924124334e-05,0.00022851538957808175,-0.000464003745380368,-0.0007605935772658811,0.0007179267795038906,-0.0001032337651515331,0.000788040644345761,-0.00039611878679192777,0.4783565402030945,34.21371078491211,3.9735991954803467,-19.586824417114258,-0.07628399133682251,-1.828616738319397,0.10470907390117645,0
15,0.06993246078491211,-0.4783565402030945,-34.21371078491211,-3.9735991954803467,19.586824417114258,0.07628399133682251,1.828616738319397,-0.10470907390117645,0.0,0.0,0.0,0.0,0.0,0.0,0.0,-0.5200938699439016,-0.13537534329567072,-0.3771031967387303,0.5294334260678112,0.026618708541793476,-0.09477096678342686,-0.10321258661628722,1.0545112605304048,0.3241822398168998,-0.3925065510858569,-2.1534922431811947,0.864806759138902,2.465877247532209,0.5444885607221315,1.0544104758940245,0.3238615046091247,-0.39250456234122666,-2.153291787532338,0.8647539153680389,2.46587817577521,0.5445020185570556,-0.00022851538957808175,0.000464003745380368,0.0007605935772658811,-0.0007179267795038906,0.0001032337651515331,-0.000788040644345761,0.00039611878679192777,0.0,0.0,0.0,0.0,0.0,0.0,0.0,-0.00010078463638030222,-0.00032073520777509135,1.9887446302546685e-06,0.00020045564885684541,-5.28437708631202e-05,9.282430011303688e-07,1.3457834924124334e-05,0.00022851538957808175,-0.000464003745380368,-0.0007605935772658811,0.0007179267795038906,-0.0001032337651515331,0.000788040644345761,-0.00039611878679192777,0.4783565402030945,34.21371078491211,3.9735991954803467,-19.586824417114258,-0.07628399133682251,-1.828616738319397,0.10470907390117645,0
16,0.07498621940612793,-0.5299312472343445,-34.21371078491211,-3.9735991954803467,19.586824417114258,0.07628399133682251,1.802981972694397,-0.07724325358867645,0.0,0.0,0.0,0.0,0.0,0.0,0.0,-0.5431788163872008,-0.14976545197189153,-0.4049346052774101,0.5335634287325223,0.027299725500103754,-0.0918976972107492,-0.10327138642573379,1.0545148798080912,0.3241822398168998,-0.3925065510858569,-2.1534922431811947,0.864806759138902,2.4658800958395006,0.5444855091258248,1.0544104758940245,0.3238615046091247,-0.39250456234122666,-2.153291787532338,0.8647539153680389,2.46587817577521,0.5445020185570556,0.0002338162655236781,8.22758009902345e-05,-0.00019780116799449058,-0.0013860627706876,-0.00019906733866626133,0.0003313374727051938,-0.0010376382410742335,0.0,0.0,0.0,0.0,0.0,0.0,0.0,-0.00010440391406674188,-0.00032073520777509135,1.9887446302546685e-06,0.00020045564885684541,-5.28437708631202e-05,-1.920064290672485e-06,1.65094312307712e-05,-0.0002338162655236781,-8.22758009902345e-05,0.00019780116799449058,0.0013860627706876,0.00019906733866626133,-0.0003313374727051938,0.0010376382410742335,0.5299312472343445,34.21371078491211,3.9735991954803467,-19.586824417114258,-0.07628399133682251,-1.802981972694397,0.07724325358867645,0
17,0.07998490333557129,-0.5299312472343445,-34.21371078491211,-3.9735991954803467,19.586824417114258,0.07628399133682251,1.802981972694397,-0.07724325358867645,0.0,0.0,0.0,0.0,0.0,0.0,0.0,-0.5431788163872008,-0.14976545197189153,-0.4049346052774101,0.5335634287325223,0.027299725500103754,-0.0918976972107492,-0.10327138642573379,1.0545148798080912,0.3241822398168998,-0.3925065510858569,-2.1534922431811947,0.864806759138902,2.4658800958395006,0.5444855091258248,1.0544104758940245,0.3238615046091247,-0.39250456234122666,-2.153291787532338,0.8647539153680389,2.46587817577521,0.5445020185570556,0.0002338162655236781,8.22758009902345e-05,-0.00019780116799449058,-0.0013860627706876,-0.00019906733866626133,0.0003313374727051938,-0.0010376382410742335,0.0,0.0,0.0,0.0,0.0,0.0,0.0,-0.00010440391406674188,-0.00032073520777509135,1.9887446302546685e-06,0.00020045564885684541,-5.28437708631202e-05,-1.920064290672485e-06,1.65094312307712e-05,-0.0002338162655236781,-8.22758009902345e-05,0.00019780116799449058,0.0013860627706876,0.00019906733866626133,-0.0003313374727051938,0.0010376382410742335,0.5299312472343445,34.21371078491211,3.9735991954803467,-19.586824417114258,-0.07628399133682251,-1.802981972694397,0.07724325358867645,0
18,0.08494973182678223,-0.5299312472343445,-34.21371078491211,-3.9220244884490967,19.559053421020508,0.08177715539932251,1.822208046913147,-0.11844198405742645,0.0,0.0,0.0,0.0,0.0,0.0,0.0,-0.5131866255374753,-0.15806618399519967,-0.38352283457493336,0.5429592916247757,0.025428857790454246,-0.09342971989779518,-0.10307610625430397,1.0545148798080912,0.3241822398168998,-0.39251017036354335,-2.1534902943393637,0.8648061487873395,2.4658779594475257,0.544490099629156,1.0544104758940245,0.3238615046091247,-0.39250456234122666,-2.153291787532338,0.8647539153680389,2.46587817577521,0.5445020185570556,0.0005052332725273604,-0.0007407339449009469,-0.00012208117494124008,0.0007584634792118219,-0.0001137653605963435,-0.0005842225694527579,0.0002968920998490941,0.0,0.0,0.0,0.0,0.0,0.0,0.0,-0.00010440391406674188,-0.00032073520777509135,5.608022316694328e-06,0.00019850680702582224,-5.2233419300606876e-05,2.163276842104267e-07,1.191892789964566e-05,-0.0005052332725273604,0.0007407339449009469,0.00012208117494124008,-0.0007584634792118219,0.0001137653605963435,0.0005842225694527579,-0.0002968920998490941,0.5299312472343445,34.21371078491211,3.9220244884490967,-19.559053421020508,-0.08177715539932251,-1.822208046913147,0.11844198405742645,0
19,0.08998417854309082,-0.5299312472343445,-34.21371078491211,-3.9220244884490967,19.559053421020508,0.08177715539932251,1.822208046913147,-0.11844198405742645,0.0,0.0,0.0,0.0,0.0,0.0,0.0,-0.5131866255374753,-0.15806618399519967,-0.38352283457493336,0.5429592916247757,0.025428857790454246,-0.09342971989779518,-0.10307610625430397,1.0545148798080912,0.3241822398168998,-0.39251017036354335,-2.1534902943393637,0.8648061487873395,2.4658779594475257,0.544490099629156,1.0544104758940245,0.3238615046091247,-0.39250456234122666,-2.153291787532338,0.8647539153680389,2.46587817577521,0.5445020185570556,0.0005052332725273604,-0.0007407339449009469,-0.00012208117494124008,0.0007584634792118219,-0.0001137653605963435,-0.0005842225694527579,0.0002968920998490941,0.0,0.0,0.0,0.0,0.0,0.0,0.0,-0.00010440391406674188,-0.00032073520777509135,5.608022316694328e-06,0.00019850680702582224,-5.2233419300606876e-05,2.163276842104267e-07,1.191892789964566e-05,-0.0005052332725273604,0.0007407339449009469,0.00012208117494124008,-0.0007584634792118219,0.0001137653605963435,0.0005842225694527579,-0.0002968920998490941,0.5299312472343445,34.21371078491211,3.9220244884490967,-19.559053421020508,-0.08177715539932251,-1.822208046913147,0.11844198405742645,0
20,0.09499526023864746,-0.5021602511405945,-34.21371078491211,-3.9735991954803467,19.559053421020508,0.06987529993057251,1.809390664100647,-0.08365194499492645,0.0,0.0,0.0,0.0,0.0,0.0,0.0,-0.527848820785051,-0.14371781623447766,-0.39435688211308223,0.5319669765207287,0.02595687787719657,-0.09374029118679568,-0.10403919423149453,1.0545129309662602,0.3241822398168998,-0.3925065510858569,-2.1534902943393637,0.864807471215725,2.465879383762676,0.5444862209873805,1.0544104758940245,0.3238615046091247,-0.39250456234122666,-2.153291787532338,0.8647539153680389,2.46587817577521,0.5445020185570556,-0.0003520114151137137,-0.00028333448212879863,5.323034950080205e-05,-0.00030646489884684217,0.0002771219946421878,7.005205521993035e-06,-0.001345735592034962,0.0,0.0,0.0,0.0,0.0,0.0,0.0,-0.0001024550722357187,-0.00032073520777509135,1.9887446302546685e-06,0.00019850680702582224,-5.355584768607091e-05,-1.2079874660564371e-06,1.5797569675068956e-05,0.0003520114151137137,0.00028333448212879863,-5.323034950080205e-05,0.00030646489884684217,-0.0002771219946421878,-7.005205521993035e-06,0.001345735592034962,0.5021602511405945,34.21371078491211,3.9735991954803467,-19.559053421020508,-0.06987529993057251,-1.809390664100647,0.08365194499492645,0
21,0.09997940063476562,-0.5021602511405945,-34.21371078491211,-3.9735991954803467,19.559053421020508,0.06987529993057251,1.809390664100647,-0.08365194499492645,0.0,0.0,0.0,0.0,0.0,0.0,0.0,-0.527848820785051,-0.14371781623447766,-0.39435688211308223,0.5319669765207287,0.02595687787719657,-0.09374029118679568,-0.10403919423149453,1.0545129309662602,0.3241822398168998,-0.3925065510858569,-2.1534902943393637,0.864807471215725,2.465879383762676,0.5444862209873805,1.0544104758940245,0.3238615046091247,-0.39250456234122666,-2.153291787532338,0.8647539153680389,2.46587817577521,0.5445020185570556,-0.0003520114151137137,-0.00028333448212879863,5.323034950080205e-05,-0.00030646489884684217,0.0002771219946421878,7.005205521993035e-06,-0.001345735592034962,0.0,0.0,0.0,0.0,0.0,0.0,0.0,-0.0001024550722357187,-0.00032073520777509135,1.9887446302546685e-06,0.00019850680702582224,-5.355584768607091e-05,-1.2079874660564371e-06,1.5797569675068956e-05,0.0003520114151137137,0.00028333448212879863,-5.323034950080205e-05,0.00030646489884684217,-0.0002771219946421878,-7.005205521993035e-06,0.001345735592034962,0.5021602511405945,34.21371078491211,3.9735991954803467,-19.559053421020508,-0.06987529993057251,-1.809390664100647,0.08365194499492645,0
22,0.10498476028442383,-0.5021602511405945,-34.21371078491211,-3.9735991954803467,19.511445999145508,0.07628399133682251,1.815799355506897,-0.13217489421367645,0.0,0.0,0.0,0.0,0.0,0.0,0.0,-0.520312056019936,-0.1458114180514775,-0.3923501214394186,0.53370009463814,0.024980327363302714,-0.09296290252979421,-0.10737392596397796,1.0545129309662602,0.3241822398168998,-0.3925065510858569,-2.1534869534676533,0.864806759138902,2.465878671685854,0.5444916298687117,1.0544104758940245,0.3238615046091247,-0.39250456234122666,-2.153291787532338,0.8647539153680389,2.46587817577521,0.5445020185570556,-0.0004490033700306375,0.000207838719934199,-0.0003236540317261901,0.0009772876796687873,-6.365335857329741e-08,-6.593445557560318e-05,0.0009665629723946421,0.0,0.0,0.0,0.0,0.0,0.0,0.0,-0.0001024550722357187,-0.00032073520777509135,1.9887446302546685e-06,0.00019516593531543336,-5.28437708631202e-05,-4.959106441049244e-07,1.0388688343909713e-05,0.0004490033700306375,-0.000207838719934199,0.0003236540317261901,-0.0009772876796687873,6.365335857329741e-08,6.593445557560318e-05,-0.0009665629723946421,0.5021602511405945,34.21371078491211,3.9735991954803467,-19.511445999145508,-0.07628399133682251,-1.815799355506897,0.13217489421367645,0
23,0.10998129844665527,-0.5021602511405945,-34.21371078491211,-3.9735991954803467,19.511445999145508,0.07628399133682251,1.815799355506897,-0.13217489421367645,0.0,0.0,0.0,0.0,0.0,0.0,0.0,-0.520312056019936,-0.1458114180514775,-0.3923501214394186,0.53370009463814,0.024980327363302714,-0.09296290252979421,-0.10737392596397796,1.0545129309662602,0.3241822398168998,-0.3925065510858569,-2.1534869534676533,0.864806759138902,2.465878671685854,0.5444916298687117,1.0544104758940245,0.3238615046091247,-0.39250456234122666,-2.153291787532338,0.8647539153680389,2.46587817577521,0.5445020185570556,-0.0004490033700306375,0.000207838719934199,-0.0003236540317261901,0.0009772876796687873,-6.365335857329741e-08,-6.593445557560318e-05,0.0009665629723946421,0.0,0.0,0.0,0.0,0.0,0.0,0.0,-0.0001024550722357187,-0.00032073520777509135,1.9887446302546685e-06,0.00019516593531543336,-5.28437708631202e-05,-4.959106441049244e-07,1.0388688343909713e-05,0.0004490033700306375,-0.000207838719934199,0.0003236540317261901,-0.0009772876796687873,6.365335857329741e-08,6.593445557560318e-05,-0.0009665629723946421,0.5021602511405945,34.21371078491211,3.9735991954803467,-19.511445999145508,-0.07628399133682251,-1.815799355506897,0.13217489421367645,0
24,0.11498427391052246,-0.4783565402030945,-34.18990707397461,-3.9497954845428467,19.535249710083008,0.08177715539932251,1.815799355506897,-0.08365194499492645,0.0,0.0,0.0,0.0,0.0,0.0,0.0,-0.5053891024703758,-0.1528931338290864,-0.3827890975673444,0.5390445707555825,0.02418219940562552,-0.09252794039036759,-0.1087920101615646,1.0545112605304048,0.32418056938104456,-0.39250822152171216,-2.1534886239035083,0.8648061487873395,2.465878671685854,0.5444862340701451,1.0544104758940245,0.3238615046091247,-0.39250456234122666,-2.153291787532338,0.8647539153680389,2.46587817577521,0.5445020185570556,-0.0010006622749981718,-0.0011017252210145413,0.0008418203907793596,0.0007527735502475899,5.1111629152162747e-05,-0.00022033423167912034,-0.0008349871157221432,0.0,0.0,0.0,0.0,0.0,0.0,0.0,-0.00010078463638030222,-0.0003190647719198414,3.6591804855046206e-06,0.00019683637117040576,-5.2233419300606876e-05,-4.959106441049244e-07,1.5784486910530582e-05,0.0010006622749981718,0.0011017252210145413,-0.0008418203907793596,-0.0007527735502475899,-5.1111629152162747e-05,0.00022033423167912034,0.0008349871157221432,0.4783565402030945,34.18990707397461,3.9497954845428467,-19.535249710083008,-0.08177715539932251,-1.815799355506897,0.08365194499492645,0
25,0.11998605728149414,-0.4783565402030945,-34.18990707397461,-3.9497954845428467,19.535249710083008,0.08177715539932251,1.815799355506897,-0.08365194499492645,0.0,0.0,0.0,0.0,0.0,0.0,0.0,-0.5053891024703758,-0.1528931338290864,-0.3827890975673444,0.5390445707555825,0.02418219940562552,-0.09252794039036759,-0.1087920101615646,1.0545112605304048,0.32418056938104456,-0.39250822152171216,-2.1534886239035083,0.8648061487873395,2.465878671685854,0.5444862340701451,1.0544104758940245,0.3238615046091247,-0.39250456234122666,-2.153291787532338,0.8647539153680389,2.46587817577521,0.5445020185570556,-0.0010006622749981718,-0.0011017252210145413,0.0008418203907793596,0.0007527735502475899,5.1111629152162747e-05,-0.00022033423167912034,-0.0008349871157221432,0.0,0.0,0.0,0.0,0.0,0.0,0.0,-0.00010078463638030222,-0.0003190647719198414,3.6591804855046206e-06,0.00019683637117040576,-5.2233419300606876e-05,-4.959106441049244e-07,1.5784486910530582e-05,0.0010006622749981718,0.0011017252210145413,-0.0008418203907793596,-0.0007527735502475899,-5.1111629152162747e-05,0.00022033423167912034,0.0008349871157221432,0.4783565402030945,34.18990707397461,3.9497954845428467,-19.535249710083008,-0.08177715539932251,-1.815799355506897,0.08365194499492645,0
26,0.1249382495880127,-0.5299312472343445,-34.23751449584961,-3.9497954845428467,19.559053421020508,0.08177715539932251,1.809390664100647,-0.09738485515117645,0.0,0.0,0.0,0.0,0.0,0.0,0.0,-0.4441426157604561,-0.13495737309058434,-0.3182071771139865,0.5292643466244413,0.02312580081387318,-0.10059234146232177,-0.10787232391259625,1.0545148798080912,0.3241839102527551,-0.39250822152171216,-2.1534902943393637,0.8648061487873395,2.465879383762677,0.5444877468662156,1.0544104758940245,0.3238615046091247,-0.39250456234122666,-2.153291787532338,0.8647539153680389,2.46587817577521,0.5445020185570556,0.00026228584025191087,-0.0002748261844657666,-0.0005123479171500678,0.000381859420237823,4.6104111640694855e-05,0.0022373409068846845,0.00041035780691936333,0.0,0.0,0.0,0.0,0.0,0.0,0.0,-0.00010440391406674188,-0.0003224056436303968,3.6591804855046206e-06,0.00019850680702582224,-5.2233419300606876e-05,-1.2079874669446156e-06,1.4271690840006457e-05,-0.00026228584025191087,0.0002748261844657666,0.0005123479171500678,-0.000381859420237823,-4.6104111640694855e-05,-0.0022373409068846845,-0.00041035780691936333,0.5299312472343445,34.23751449584961,3.9497954845428467,-19.559053421020508,-0.08177715539932251,-1.809390664100647,0.09738485515117645,0
27,0.12997817993164062,-0.5299312472343445,-34.23751449584961,-3.9497954845428467,19.559053421020508,0.08177715539932251,1.809390664100647,-0.09738485515117645,0.0,0.0,0.0,0.0,0.0,0.0,0.0,-0.4441426157604561,-0.13495737309058434,-0.3182071771139865,0.5292643466244413,0.02312580081387318,-0.10059234146232177,-0.10787232391259625,1.0545148798080912,0.3241839102527551,-0.39250822152171216,-2.1534902943393637,0.8648061487873395,2.465879383762677,0.5444877468662156,1.0544104758940245,0.3238615046091247,-0.39250456234122666,-2.153291787532338,0.8647539153680389,2.46587817577521,0.5445020185570556,0.00026228584025191087,-0.0002748261844657666,-0.0005123479171500678,0.000381859420237823,4.6104111640694855e-05,0.0022373409068846845,0.00041035780691936333,0.0,0.0,0.0,0.0,0.0,0.0,0.0,-0.00010440391406674188,-0.0003224056436303968,3.6591804855046206e-06,0.00019850680702582224,-5.2233419300606876e-05,-1.2079874669446156e-06,1.4271690840006457e-05,-0.00026228584025191087,0.0002748261844657666,0.0005123479171500678,-0.000381859420237823,-4.6104111640694855e-05,-0.0022373409068846845,-0.00041035780691936333,0.5299312472343445,34.23751449584961,3.9497954845428467,-19.559053421020508,-0.08177715539932251,-1.809390664100647,0.09738485515117645,0
28,0.1349480152130127,-0.5299312472343445,-34.21371078491211,-3.9974029064178467,19.586824417114258,0.08177715539932251,1.815799355506897,-0.09097616374492645,0.0,0.0,0.0,0.0,0.0,0.0,0.0,-0.5304779287596254,-0.14739478346884136,-0.39394740234061953,0.5303874884137534,0.02654324668630565,-0.09206003606348193,-0.10469638287842666,1.0545148798080912,0.3241822398168998,-0.39250488065000166,-2.1534922431811947,0.8648061487873395,2.465878671685854,0.5444873923627505,1.0544104758940245,0.3238615046091247,-0.39250456234122666,-2.153291787532338,0.8647539153680389,2.46587817577521,0.5445020185570556,-0.000203816714481288,-7.084764932573548e-05,0.0007286135214634118,-0.0005969382630647014,6.249430441706541e-05,0.00018716173080137545,-0.00042949368073797226,0.0,0.0,0.0,0.0,0.0,0.0,0.0,-0.00010440391406674188,-0.00032073520777509135,3.1830877500471644e-07,0.00020045564885684541,-5.2233419300606876e-05,-4.959106441049244e-07,1.4626194305145113e-05,0.000203816714481288,7.084764932573548e-05,-0.0007286135214634118,0.0005969382630647014,-6.249430441706541e-05,-0.00018716173080137545,0.00042949368073797226,0.5299312472343445,34.21371078491211,3.9974029064178467,-19.586824417114258,-0.08177715539932251,-1.815799355506897,0.09097616374492645,0
29,0.14000201225280762,-0.5299312472343445,-34.21371078491211,-3.9974029064178467,19.586824417114258,0.08177715539932251,1.815799355506897,-0.09097616374492645,0.0,0.0,0.0,0.0,0.0,0.0,0.0,-0.5304779287596254,-0.14739478346884136,-0.39394740234061953,0.5303874884137534,0.02654324668630565,-0.09206003606348193,-0.10469638287842666,1.0545148798080912,0.3241822398168998,-0.39250488065000166,-2.1534922431811947,0.8648061487873395,2.465878671685854,0.5444873923627505,1.0544104758940245,0.3238615046091247,-0.39250456234122666,-2.153291787532338,0.8647539153680389,2.46587817577521,0.5445020185570556,-0.000203816714481288,-7.084764932573548e-05,0.0007286135214634118,-0.0005969382630647014,6.249430441706541e-05,0.00018716173080137545,-0.00042949368073797226,0.0,0.0,0.0,0.0,0.0,0.0,0.0,-0.00010440391406674188,-0.00032073520777509135,3.1830877500471644e-07,0.00020045564885684541,-5.2233419300606876e-05,-4.959106441049244e-07,1.4626194305145113e-05,0.000203816714481288,7.084764932573548e-05,-0.0007286135214634118,0.0005969382630647014,-6.249430441706541e-05,-0.00018716173080137545,0.00042949368073797226,0.5299312472343445,34.21371078491211,3.9974029064178467,-19.586824417114258,-0.08177715539932251,-1.815799355506897,0.09097616374492645,0
30,0.14501166343688965,-0.5299312472343445,-34.21371078491211,-3.9497954845428467,19.559053421020508,0.09367901086807251,1.809390664100647,-0.11111776530742645,0.0,0.0,0.0,0.0,0.0,0.0,0.0,-0.5354797861816054,-0.15044919877260932,-0.39984250228641965,0.5357691538150783,0.02727248220913568,-0.09020049910513053,-0.10237447006430687,1.0545148798080912,0.3241822398168998,-0.39250822152171216,-2.1534902943393637,0.8648048263589541,2.465879383762677,0.5444892727471377,1.0544104758940245,0.3238615046091247,-0.39250456234122666,-2.153291787532338,0.8647539153680389,2.46587817577521,0.5445020185570556,-0.0002945013185721078,0.00023337594718226488,5.214196493935558e-05,0.00016217414761801095,-0.00033508680094976095,0.00043288215051658096,0.00029069577814567007,0.0,0.0,0.0,0.0,0.0,0.0,0.0,-0.00010440391406674188,-0.00032073520777509135,3.6591804855046206e-06,0.00019850680702582224,-5.091099091514284e-05,-1.2079874669446156e-06,1.2745809917946715e-05,0.0002945013185721078,-0.00023337594718226488,-5.214196493935558e-05,-0.00016217414761801095,0.00033508680094976095,-0.00043288215051658096,-0.00029069577814567007,0.5299312472343445,34.21371078491211,3.9497954845428467,-19.559053421020508,-0.09367901086807251,-1.809390664100647,0.11111776530742645,0
31,0.15001916885375977,-0.5299312472343445,-34.21371078491211,-3.9497954845428467,19.559053421020508,0.09367901086807251,1.809390664100647,-0.11111776530742645,0.0,0.0,0.0,0.0,0.0,0.0,0.0,-0.5354797861816054,-0.15044919877260932,-0.39984250228641965,0.5357691538150783,0.02727248220913568,-0.09020049910513053,-0.10237447006430687,1.0545148798080912,0.3241822398168998,-0.39250822152171216,-2.1534902943393637,0.8648048263589541,2.465879383762677,0.5444892727471377,1.0544104758940245,0.3238615046091247,-0.39250456234122666,-2.153291787532338,0.8647539153680389,2.46587817577521,0.5445020185570556,-0.0002945013185721078,0.00023337594718226488,5.214196493935558e-05,0.00016217414761801095,-0.00033508680094976095,0.00043288215051658096,0.00029069577814567007,0.0,0.0,0.0,0.0,0.0,0.0,0.0,-0.00010440391406674188,-0.00032073520777509135,3.6591804855046206e-06,0.00019850680702582224,-5.091099091514284e-05,-1.2079874669446156e-06,1.2745809917946715e-05,0.0002945013185721078,-0.00023337594718226488,-5.214196493935558e-05,-0.00016217414761801095,0.00033508680094976095,-0.00043288215051658096,-0.00029069577814567007,0.5299312472343445,34.21371078491211,3.9497954845428467,-19.559053421020508,-0.09367901086807251,-1.809390664100647,0.11111776530742645,0
32,0.1549975872039795,-0.5537349581718445,-34.21371078491211,-3.9220244884490967,19.559053421020508,0.09367901086807251,1.815799355506897,-0.09738485515117645,0.0,0.0,0.0,0.0,0.0,0.0,0.0,-0.5519341247807351,-0.15717844286208263,-0.4123974719633279,0.5378297976915181,0.028870017973354544,-0.08842310885499106,-0.1010907756979522,1.0545165502439466,0.3241822398168998,-0.3925102491005432,-2.1534902943393637,0.8648048263589541,2.465878671685854,0.5444877483197631,1.0544104758940245,0.3238615046091247,-0.39250456234122666,-2.153291787532338,0.8647539153680389,2.46587817577521,0.5445020185570556,5.8837302173927176e-05,-0.0004400904475704518,-0.0014868621612347452,2.831094839061314e-05,-0.0002934228769198498,-0.00019930416377298172,0.00018337529305932268,0.0,0.0,0.0,0.0,0.0,0.0,0.0,-0.00010607434992215836,-0.00032073520777509135,5.68675931655882e-06,0.00019850680702582224,-5.091099091514284e-05,-4.959106441049244e-07,1.4270237292501875e-05,-5.8837302173927176e-05,0.0004400904475704518,0.0014868621612347452,-2.831094839061314e-05,0.0002934228769198498,0.00019930416377298172,-0.00018337529305932268,0.5537349581718445,34.21371078491211,3.9220244884490967,-19.559053421020508,-0.09367901086807251,-1.815799355506897,0.09738485515117645,0
33,0.15997719764709473,-0.5537349581718445,-34.21371078491211,-3.9220244884490967,19.559053421020508,0.09367901086807251,1.815799355506897,-0.09738485515117645,0.0,0.0,0.0,0.0,0.0,0.0,0.0,-0.5519341247807351,-0.15717844286208263,-0.4123974719633279,0.5378297976915181,0.028870017973354544,-0.08842310885499106,-0.1010907756979522,1.0545165502439466,0.3241822398168998,-0.3925102491005432,-2.1534902943393637,0.8648048263589541,2.465878671685854,0.5444877483197631,1.0544104758940245,0.3238615046091247,-0.39250456234122666,-2.153291787532338,0.8647539153680389,2.46587817577521,0.5445020185570556,5.8837302173927176e-05,-0.0004400904475704518,-0.0014868621612347452,2.831094839061314e-05,-0.0002934228769198498,-0.00019930416377298172,0.00018337529305932268,0.0,0.0,0.0,0.0,0.0,0.0,0.0,-0.00010607434992215836,-0.00032073520777509135,5.68675931655882e-06,0.00019850680702582224,-5.091099091514284e-05,-4.959106441049244e-07,1.4270237292501875e-05,-5.8837302173927176e-05,0.0004400904475704518,0.0014868621612347452,-2.831094839061314e-05,0.0002934228769198498,0.00019930416377298172,-0.00018337529305932268,0.5537349581718445,34.21371078491211,3.9220244884490967,-19.559053421020508,-0.09367901086807251,-1.815799355506897,0.09738485515117645,0
34,0.1649789810180664,-0.5537349581718445,-34.21371078491211,-3.9220244884490967,19.559053421020508,0.09367901086807251,1.815799355506897,-0.09738485515117645,0.0,0.0,0.0,0.0,0.0,0.0,0.0,-0.5519341247807351,-0.15717844286208263,-0.4123974719633279,0.5378297976915181,0.028870017973354544,-0.08842310885499106,-0.1010907756979522,1.0545165502439466,0.3241822398168998,-0.3925102491005432,-2.1534902943393637,0.8648048263589541,2.465878671685854,0.5444877483197631,1.0544104758940245,0.3238615046091247,-0.39250456234122666,-2.153291787532338,0.8647539153680389,2.46587817577521,0.5445020185570556,5.8837302173927176e-05,-0.0004400904475704518,-0.0014868621612347452,2.831094839061314e-05,-0.0002934228769198498,-0.00019930416377298172,0.00018337529305932268,0.0,0.0,0.0,0.0,0.0,0.0,0.0,-0.00010607434992215836,-0.00032073520777509135,5.68675931655882e-06,0.00019850680702582224,-5.091099091514284e-05,-4.959106441049244e-07,1.4270237292501875e-05,-5.8837302173927176e-05,0.0004400904475704518,0.0014868621612347452,-2.831094839061314e-05,0.0002934228769198498,0.00019930416377298172,-0.00018337529305932268,0.5537349581718445,34.21371078491211,3.9220244884490967,-19.559053421020508,-0.09367901086807251,-1.815799355506897,0.09738485515117645,0
35,0.16998052597045898,-0.5537349581718445,-34.21371078491211,-3.9220244884490967,19.559053421020508,0.09367901086807251,1.815799355506897,-0.09738485515117645,0.0,0.0,0.0,0.0,0.0,0.0,0.0,-0.5519341247807351,-0.15717844286208263,-0.4123974719633279,0.5378297976915181,0.028870017973354544,-0.08842310885499106,-0.1010907756979522,1.0545165502439466,0.3241822398168998,-0.3925102491005432,-2.1534902943393637,0.8648048263589541,2.465878671685854,0.5444877483197631,1.0544104758940245,0.3238615046091247,-0.39250456234122666,-2.153291787532338,0.8647539153680389,2.46587817577521,0.5445020185570556,5.8837302173927176e-05,-0.0004400904475704518,-0.0014868621612347452,2.831094839061314e-05,-0.0002934228769198498,-0.00019930416377298172,0.00018337529305932268,0.0,0.0,0.0,0.0,0.0,0.0,0.0,-0.00010607434992215836,-0.00032073520777509135,5.68675931655882e-06,0.00019850680702582224,-5.091099091514284e-05,-4.959106441049244e-07,1.4270237292501875e-05,-5.8837302173927176e-05,0.0004400904475704518,0.0014868621612347452,-2.831094839061314e-05,0.0002934228769198498,0.00019930416377298172,-0.00018337529305932268,0.5537349581718445,34.21371078491211,3.9220244884490967,-19.559053421020508,-0.09367901086807251,-1.815799355506897,0.09738485515117645,0
36,0.17498087882995605,-0.5021602511405945,-34.18990707397461,-3.9220244884490967,19.559053421020508,0.08177715539932251,1.802981972694397,-0.10470907390117645,0.0,0.0,0.0,0.0,0.0,0.0,0.0,-0.5276760642797279,-0.14701632225039837,-0.3883323303179972,0.5332088766752123,0.028607664431318375,-0.09160201327498173,-0.10006367235886544,1.0545129309662602,0.32418056938104456,-0.3925101703639878,-2.1534902943393637,0.8648061487873395,2.4658800958395,0.5444885621218547,1.0544104758940245,0.3238615046091247,-0.39250456234122666,-2.153291787532338,0.8647539153680389,2.46587817577521,0.5445020185570556,-0.0004062567276839538,-0.000594517037699841,-0.0006159545161305457,-5.655815384175146e-06,1.307240097057692e-05,0.00032316355118426805,0.0008821385163753367,0.0,0.0,0.0,0.0,0.0,0.0,0.0,-0.0001024550722357187,-0.0003190647719198414,5.6080227611166045e-06,0.00019850680702582224,-5.2233419300606876e-05,-1.920064290228396e-06,1.345643520089812e-05,0.0004062567276839538,0.000594517037699841,0.0006159545161305457,5.655815384175146e-06,-1.307240097057692e-05,-0.00032316355118426805,-0.0008821385163753367,0.5021602511405945,34.18990707397461,3.9220244884490967,-19.559053421020508,-0.08177715539932251,-1.802981972694397,0.10470907390117645,0
37,0.17999672889709473,-0.5021602511405945,-34.18990707397461,-3.9220244884490967,19.559053421020508,0.08177715539932251,1.802981972694397,-0.10470907390117645,0.0,0.0,0.0,0.0,0.0,0.0,0.0,-0.5276760642797279,-0.14701632225039837,-0.3883323303179972,0.5332088766752123,0.028607664431318375,-0.09160201327498173,-0.10006367235886544,1.0545129309662602,0.32418056938104456,-0.3925101703639878,-2.1534902943393637,0.8648061487873395,2.4658800958395,0.5444885621218547,1.0544104758940245,0.3238615046091247,-0.39250456234122666,-2.153291787532338,0.8647539153680389,2.46587817577521,0.5445020185570556,-0.0004062567276839538,-0.000594517037699841,-0.0006159545161305457,-5.655815384175146e-06,1.307240097057692e-05,0.00032316355118426805,0.0008821385163753367,0.0,0.0,0.0,0.0,0.0,0.0,0.0,-0.0001024550722357187,-0.0003190647719198414,5.6080227611166045e-06,0.00019850680702582224,-5.2233419300606876e-05,-1.920064290228396e-06,1.345643520089812e-05,0.0004062567276839538,0.000594517037699841,0.0006159545161305457,5.655815384175146e-06,-1.307240097057692e-05,-0.00032316355118426805,-0.0008821385163753367,0.5021602511405945,34.18990707397461,3.9220244884490967,-19.559053421020508,-0.08177715539932251,-1.802981972694397,0.10470907390117645,0
38,0.184983491897583,-0.5299312472343445,-34.23751449584961,-3.9735991954803467,19.511445999145508,0.08818584680557251,1.809390664100647,-0.12485067546367645,0.0,0.0,0.0,0.0,0.0,0.0,0.0,-0.5360387256377334,-0.13885737933665243,-0.39626267031250484,0.5284200053425672,0.029692888433113945,-0.0921048525092692,-0.09860225208253111,1.0545148798080912,0.3241839102527551,-0.3925065510858569,-2.1534869534676533,0.8648055544480865,2.465879383762677,0.5444939818990724,1.0544104758940245,0.3238615046091247,-0.39250456234122666,-2.153291787532338,0.8647539153680389,2.46587817577521,0.5445020185570556,0.0004454579049390154,0.001424226877738168,0.0005414084233470546,0.0006436974531259857,-9.180856944344345e-05,0.00020728560635784106,0.000858422296866122,0.0,0.0,0.0,0.0,0.0,0.0,0.0,-0.00010440391406674188,-0.0003224056436303968,1.9887446302546685e-06,0.00019516593531543336,-5.1639080047571895e-05,-1.2079874669446156e-06,8.036657983212514e-06,-0.0004454579049390154,-0.001424226877738168,-0.0005414084233470546,-0.0006436974531259857,9.180856944344345e-05,-0.00020728560635784106,-0.000858422296866122,0.5299312472343445,34.23751449584961,3.9735991954803467,-19.511445999145508,-0.08818584680557251,-1.809390664100647,0.12485067546367645,0
39,0.18997979164123535,-0.5299312472343445,-34.23751449584961,-3.9735991954803467,19.511445999145508,0.08818584680557251,1.809390664100647,-0.12485067546367645,0.0,0.0,0.0,0.0,0.0,0.0,0.0,-0.5360387256377334,-0.13885737933665243,-0.39626267031250484,0.5284200053425672,0.029692888433113945,-0.0921048525092692,-0.09860225208253111,1.0545148798080912,0.3241839102527551,-0.3925065510858569,-2.1534869534676533,0.8648055544480865,2.465879383762677,0.5444939818990724,1.0544104758940245,0.3238615046091247,-0.39250456234122666,-2.153291787532338,0.8647539153680389,2.46587817577521,0.5445020185570556,0.0004454579049390154,0.001424226877738168,0.0005414084233470546,0.0006436974531259857,-9.180856944344345e-05,0.00020728560635784106,0.000858422296866122,0.0,0.0,0.0,0.0,0.0,0.0,0.0,-0.00010440391406674188,-0.0003224056436303968,1.9887446302546685e-06,0.00019516593531543336,-5.1639080047571895e-05,-1.2079874669446156e-06,8.036657983212514e-06,-0.0004454579049390154,-0.001424226877738168,-0.0005414084233470546,-0.0006436974531259857,9.180856944344345e-05,-0.00020728560635784106,-0.000858422296866122,0.5299312472343445,34.23751449584961,3.9735991954803467,-19.511445999145508,-0.08818584680557251,-1.809390664100647,0.12485067546367645,0
40,0.19492721557617188,-0.5537349581718445,-34.23751449584961,-3.9497954845428467,19.535249710083008,0.10008770227432251,1.809390664100647,-0.09738485515117645,0.0,0.0,0.0,0.0,0.0,0.0,0.0,-0.5331105527599551,-0.1561356781117803,-0.3984953465817843,0.5374939459677618,0.03058561224601016,-0.09172931141603305,-0.09948314244207888,1.0545165502439466,0.3241839102527551,-0.39250822152171216,-2.1534886239035083,0.8648041142827958,2.465879383762677,0.5444877468841826,1.0544104758940245,0.3238615046091247,-0.39250456234122666,-2.153291787532338,0.8647539153680389,2.46587817577521,0.5445020185570556,0.0005409746211049878,-4.0687649653351383e-05,0.00040669757016505615,0.00020917993006656623,-0.0005719401373809685,0.00017709236543135467,-0.00019039149606522323,0.0,0.0,0.0,0.0,0.0,0.0,0.0,-0.00010607434992215836,-0.0003224056436303968,3.6591804855046206e-06,0.00019683637117040576,-5.019891475688265e-05,-1.2079874669446156e-06,1.4271672873045205e-05,-0.0005409746211049878,4.0687649653351383e-05,-0.00040669757016505615,-0.00020917993006656623,0.0005719401373809685,-0.00017709236543135467,0.00019039149606522323,0.5537349581718445,34.23751449584961,3.9497954845428467,-19.535249710083008,-0.10008770227432251,-1.809390664100647,0.09738485515117645,0
41,0.1999797821044922,-0.5537349581718445,-34.23751449584961,-3.9497954845428467,19.535249710083008,0.10008770227432251,1.809390664100647,-0.09738485515117645,0.0,0.0,0.0,0.0,0.0,0.0,0.0,-0.5331105527599551,-0.1561356781117803,-0.3984953465817843,0.5374939459677618,0.03058561224601016,-0.09172931141603305,-0.09948314244207888,1.0545165502439466,0.3241839102527551,-0.39250822152171216,-2.1534886239035083,0.8648041142827958,2.465879383762677,0.5444877468841826,1.0544104758940245,0.3238615046091247,-0.39250456234122666,-2.153291787532338,0.8647539153680389,2.46587817577521,0.5445020185570556,0.0005409746211049878,-4.0687649653351383e-05,0.00040669757016505615,0.00020917993006656623,-0.0005719401373809685,0.00017709236543135467,-0.00019039149606522323,0.0,0.0,0.0,0.0,0.0,0.0,0.0,-0.00010607434992215836,-0.0003224056436303968,3.6591804855046206e-06,0.00019683637117040576,-5.019891475688265e-05,-1.2079874669446156e-06,1.4271672873045205e-05,-0.0005409746211049878,4.0687649653351383e-05,-0.00040669757016505615,-0.00020917993006656623,0.0005719401373809685,-0.00017709236543135467,0.00019039149606522323,0.5537349581718445,34.23751449584961,3.9497954845428467,-19.535249710083008,-0.10008770227432251,-1.809390664100647,0.09738485515117645,0
42,0.20501041412353516,-0.5815059542655945,-34.21371078491211,-3.9735991954803467,19.586824417114258,0.09367901086807251,1.815799355506897,-0.08365194499492645,0.0,0.0,0.0,0.0,0.0,0.0,0.0,-0.5346000426716195,-0.145850897047849,-0.39630888522602997,0.5298544979737081,0.03100445078608359,-0.09265283323427444,-0.09966671297378109,1.0545184990857777,0.3241822398168998,-0.3925065510858569,-2.1534922431811947,0.8648048263589541,2.465878671685854,0.5444862209873067,1.0544104758940245,0.3238615046091247,-0.39250456234122666,-2.153291787532338,0.8647539153680389,2.46587817577521,0.5445020185570556,0.0012404410308182385,-0.0002954049877418618,0.0005001455676314345,-0.0008278584528172482,-0.00033060762802692334,-0.00023831428401600995,-0.000789717846590002,0.0,0.0,0.0,0.0,0.0,0.0,0.0,-0.00010802319175318154,-0.00032073520777509135,1.9887446302546685e-06,0.00020045564885684541,-5.091099091514284e-05,-4.959106441049244e-07,1.5797569748898788e-05,-0.0012404410308182385,0.0002954049877418618,-0.0005001455676314345,0.0008278584528172482,0.00033060762802692334,0.00023831428401600995,0.000789717846590002,0.5815059542655945,34.21371078491211,3.9735991954803467,-19.586824417114258,-0.09367901086807251,-1.815799355506897,0.08365194499492645,0
43,0.20998263359069824,-0.5815059542655945,-34.21371078491211,-3.9735991954803467,19.586824417114258,0.09367901086807251,1.815799355506897,-0.08365194499492645,0.0,0.0,0.0,0.0,0.0,0.0,0.0,-0.5346000426716195,-0.145850897047849,-0.39630888522602997,0.5298544979737081,0.03100445078608359,-0.09265283323427444,-0.09966671297378109,1.0545184990857777,0.3241822398168998,-0.3925065510858569,-2.1534922431811947,0.8648048263589541,2.465878671685854,0.5444862209873067,1.0544104758940245,0.3238615046091247,-0.39250456234122666,-2.153291787532338,0.8647539153680389,2.46587817577521,0.5445020185570556,0.0012404410308182385,-0.0002954049877418618,0.0005001455676314345,-0.0008278584528172482,-0.00033060762802692334,-0.00023831428401600995,-0.000789717846590002,0.0,0.0,0.0,0.0,0.0,0.0,0.0,-0.00010802319175318154,-0.00032073520777509135,1.9887446302546685e-06,0.00020045564885684541,-5.091099091514284e-05,-4.959106441049244e-07,1.5797569748898788e-05,-0.0012404410308182385,0.0002954049877418618,-0.0005001455676314345,0.0008278584528172482,0.00033060762802692334,0.00023831428401600995,0.000789717846590002,0.5815059542655945,34.21371078491211,3.9735991954803467,-19.586824417114258,-0.09367901086807251,-1.815799355506897,0.08365194499492645,0
44,0.21499109268188477,-0.5299312472343445,-34.18990707397461,-3.9220244884490967,19.586824417114258,0.08818584680557251,1.828616738319397,-0.11844198405742645,0.0,0.0,0.0,0.0,0.0,0.0,0.0,-0.5213544588358249,-0.14819858498440164,-0.38539152241365837,0.5325062124591939,0.030325977443969636,-0.09365232987175397,-0.09988878690499615,1.0545148798080912,0.32418056938104456,-0.39251017036354335,-2.1534922431811947,0.8648054367105166,2.4658772475322084,0.5444900865472025,1.0544104758940245,0.3238615046091247,-0.39250456234122666,-2.153291787532338,0.8647539153680389,2.46587817577521,0.5445020185570556,0.00020342272008488265,-0.0013032984317027623,-0.0007955172502687221,-0.00044995012168392407,-0.0002138333978928351,-0.0007416152035941872,0.0011084559580251286,0.0,0.0,0.0,0.0,0.0,0.0,0.0,-0.00010440391406674188,-0.0003190647719198414,5.608022316694328e-06,0.00020045564885684541,-5.152134247765616e-05,9.28243001574458e-07,1.1932009853055092e-05,-0.00020342272008488265,0.0013032984317027623,0.0007955172502687221,0.00044995012168392407,0.0002138333978928351,0.0007416152035941872,-0.0011084559580251286,0.5299312472343445,34.18990707397461,3.9220244884490967,-19.586824417114258,-0.08818584680557251,-1.828616738319397,0.11844198405742645,0
45,0.21998953819274902,-0.5299312472343445,-34.18990707397461,-3.9220244884490967,19.586824417114258,0.08818584680557251,1.828616738319397,-0.11844198405742645,0.0,0.0,0.0,0.0,0.0,0.0,0.0,-0.5213544588358249,-0.14819858498440164,-0.38539152241365837,0.5325062124591939,0.030325977443969636,-0.09365232987175397,-0.09988878690499615,1.0545148798080912,0.32418056938104456,-0.39251017036354335,-2.1534922431811947,0.8648054367105166,2.4658772475322084,0.5444900865472025,1.0544104758940245,0.3238615046091247,-0.39250456234122666,-2.153291787532338,0.8647539153680389,2.46587817577521,0.5445020185570556,0.00020342272008488265,-0.0013032984317027623,-0.0007955172502687221,-0.00044995012168392407,-0.0002138333978928351,-0.0007416152035941872,0.0011084559580251286,0.0,0.0,0.0,0.0,0.0,0.0,0.0,-0.00010440391406674188,-0.0003190647719198414,5.608022316694328e-06,0.00020045564885684541,-5.152134247765616e-05,9.28243001574458e-07,1.1932009853055092e-05,-0.00020342272008488265,0.0013032984317027623,0.0007955172502687221,0.00044995012168392407,0.0002138333978928351,0.0007416152035941872,-0.0011084559580251286,0.5299312472343445,34.18990707397461,3.9220244884490967,-19.586824417114258,-0.08818584680557251,-1.828616738319397,0.11844198405742645,0
46,0.22500920295715332,-0.4783565402030945,-34.23751449584961,-3.9497954845428467,19.559053421020508,0.07628399133682251,1.815799355506897,-0.07724325358867645,0.0,0.0,0.0,0.0,0.0,0.0,0.0,-0.525422319158663,-0.1444933043790009,-0.3912600063742893,0.5315277801803917,0.030082976858238828,-0.09360823238724383,-0.10012955812245661,1.0545112605304048,0.3241839102527551,-0.39250822152171216,-2.1534902943393637,0.864806759138902,2.465878671685854,0.5444855093950004,1.0544104758940245,0.3238615046091247,-0.39250456234122666,-2.153291787532338,0.8647539153680389,2.46587817577521,0.5445020185570556,-0.0007928608239454437,0.0005139741459666658,-0.0004927813516797281,-0.0002765497582248714,8.44652463880095e-05,-0.0002300951727715058,-0.0011662235357502407,0.0,0.0,0.0,0.0,0.0,0.0,0.0,-0.00010078463638030222,-0.0003224056436303968,3.6591804855046206e-06,0.00019850680702582224,-5.28437708631202e-05,-4.959106441049244e-07,1.6509162055200477e-05,0.0007928608239454437,-0.0005139741459666658,0.0004927813516797281,0.0002765497582248714,-8.44652463880095e-05,0.0002300951727715058,0.0011662235357502407,0.4783565402030945,34.23751449584961,3.9497954845428467,-19.559053421020508,-0.07628399133682251,-1.815799355506897,0.07724325358867645,0
47,0.2299802303314209,-0.4783565402030945,-34.23751449584961,-3.9497954845428467,19.559053421020508,0.07628399133682251,1.815799355506897,-0.07724325358867645,0.0,0.0,0.0,0.0,0.0,0.0,0.0,-0.525422319158663,-0.1444933043790009,-0.3912600063742893,0.5315277801803917,0.030082976858238828,-0.09360823238724383,-0.10012955812245661,1.0545112605304048,0.3241839102527551,-0.39250822152171216,-2.1534902943393637,0.864806759138902,2.465878671685854,0.5444855093950004,1.0544104758940245,0.3238615046091247,-0.39250456234122666,-2.153291787532338,0.8647539153680389,2.46587817577521,0.5445020185570556,-0.0007928608239454437,0.0005139741459666658,-0.0004927813516797281,-0.0002765497582248714,8.44652463880095e-05,-0.0002300951727715058,-0.0011662235357502407,0.0,0.0,0.0,0.0,0.0,0.0,0.0,-0.00010078463638030222,-0.0003224056436303968,3.6591804855046206e-06,0.00019850680702582224,-5.28437708631202e-05,-4.959106441049244e-07,1.6509162055200477e-05,0.0007928608239454437,-0.0005139741459666658,0.0004927813516797281,0.0002765497582248714,-8.44652463880095e-05,0.0002300951727715058,0.0011662235357502407,0.4783565402030945,34.23751449584961,3.9497954845428467,-19.559053421020508,-0.07628399133682251,-1.815799355506897,0.07724325358867645,0
48,0.23493361473083496,-0.5021602511405945,-34.23751449584961,-3.9735991954803467,19.559053421020508,0.07628399133682251,1.815799355506897,-0.10470907390117645,0.0,0.0,0.0,0.0,0.0,0.0,0.0,-0.518874148962587,-0.15174790338825814,-0.38906256413817414,0.5362177714186344,0.02913127771899107,-0.09341402274282352,-0.10195987912224268,1.0545129309662602,0.3241839102527551,-0.3925065510858569,-2.1534902943393637,0.864806759138902,2.465878671685854,0.5444889138810143,1.0544104758940245,0.3238615046091247,-0.39250456234122666,-2.153291787532338,0.8647539153680389,2.46587817577521,0.5445020185570556,-0.0001165798543176297,-1.5457856421604893e-05,0.0005879463755187441,-0.0004072347953292342,0.00021433858984009875,-3.058048148905312e-05,0.00023212772690929157,0.0,0.0,0.0,0.0,0.0,0.0,0.0,-0.0001024550722357187,-0.0003224056436303968,1.9887446302546685e-06,0.00019850680702582224,-5.28437708631202e-05,-4.959106441049244e-07,1.310467604132004e-05,0.0001165798543176297,1.5457856421604893e-05,-0.0005879463755187441,0.0004072347953292342,-0.00021433858984009875,3.058048148905312e-05,-0.00023212772690929157,0.5021602511405945,34.23751449584961,3.9735991954803467,-19.559053421020508,-0.07628399133682251,-1.815799355506897,0.10470907390117645,0
49,0.23997926712036133,-0.5021602511405945,-34.23751449584961,-3.9735991954803467,19.559053421020508,0.07628399133682251,1.815799355506897,-0.10470907390117645,0.0,0.0,0.0,0.0,0.0,0.0,0.0,-0.518874148962587,-0.15174790338825814,-0.38906256413817414,0.5362177714186344,0.02913127771899107,-0.09341402274282352,-0.10195987912224268,1.0545129309662602,0.3241839102527551,-0.3925065510858569,-2.1534902943393637,0.864806759138902,2.465878671685854,0.5444889138810143,1.0544104758940245,0.3238615046091247,-0.39250456234122666,-2.153291787532338,0.8647539153680389,2.46587817577521,0.5445020185570556,-0.0001165798543176297,-1.5457856421604893e-05,0.0005879463755187441,-0.0004072347953292342,0.00021433858984009875,-3.058048148905312e-05,0.00023212772690929157,0.0,0.0,0.0,0.0,0.0,0.0,0.0,-0.0001024550722357187,-0.0003224056436303968,1.9887446302546685e-06,0.00019850680702582224,-5.28437708631202e-05,-4.959106441049244e-07,1.310467604132004e-05,0.0001165798543176297,1.5457856421604893e-05,-0.0005879463755187441,0.0004072347953292342,-0.00021433858984009875,3.058048148905312e-05,-0.00023212772690929157,0.5021602511405945,34.23751449584961,3.9735991954803467,-19.559053421020508,-0.07628399133682251,-1.815799355506897,0.10470907390117645,0
50,0.245805025100708,-0.5537349581718445,-34.23751449584961,-3.9497954845428467,19.586824417114258,0.08177715539932251,1.802981972694397,-0.10470907390117645,0.0,0.0,0.0,0.0,0.0,0.0,0.0,-0.521765070558427,-0.14733976195588458,-0.39178553068773975,0.5314303654385444,0.027717605505875598,-0.09301892194988717,-0.10300835903691816,1.0545165502439466,0.3241839102527551,-0.3925082244378973,-2.1534922431811947,0.8648061487873395,2.465880100200151,0.5444885606689609,1.0544104758940245,0.3238615046091247,-0.39250456234122666,-2.153291787532338,0.8647539153680389,2.46587817577521,0.5445020185570556,0.0006569192259535329,0.0004698812737403368,6.864061684753694e-05,-0.0005777632778911438,-0.0002073767265176472,0.0003596622937636748,-0.0001883074325838584,0.0,0.0,0.0,0.0,0.0,0.0,0.0,-0.00010607434992215836,-0.0003224056436303968,3.662096670631332e-06,0.00020045564885684541,-5.2233419300606876e-05,-1.9244249411798364e-06,1.3457888094703385e-05,-0.0006569192259535329,-0.0004698812737403368,-6.864061684753694e-05,0.0005777632778911438,0.0002073767265176472,-0.0003596622937636748,0.0001883074325838584,0.5537349581718445,34.23751449584961,3.9497954845428467,-19.586824417114258,-0.08177715539932251,-1.802981972694397,0.10470907390117645,0
51,0.2499382495880127,-0.5537349581718445,-34.23751449584961,-3.9497954845428467,19.586824417114258,0.08177715539932251,1.802981972694397,-0.10470907390117645,0.0,0.0,0.0,0.0,0.0,0.0,0.0,-0.521765070558427,-0.14733976195588458,-0.39178553068773975,0.5314303654385444,0.027717605505875598,-0.09301892194988717,-0.10300835903691816,1.0545165502439466,0.3241839102527551,-0.3925082244378973,-2.1534922431811947,0.8648061487873395,2.465880100200151,0.5444885606689609,1.0544104758940245,0.3238615046091247,-0.39250456234122666,-2.153291787532338,0.8647539153680389,2.46587817577521,0.5445020185570556,0.0006569192259535329,0.0004698812737403368,6.864061684753694e-05,-0.0005777632778911438,-0.0002073767265176472,0.0003596622937636748,-0.0001883074325838584,0.0,0.0,0.0,0.0,0.0,0.0,0.0,-0.00010607434992215836,-0.0003224056436303968,3.662096670631332e-06,0.00020045564885684541,-5.2233419300606876e-05,-1.9244249411798364e-06,1.3457888094703385e-05,-0.0006569192259535329,-0.0004698812737403368,-6.864061684753694e-05,0.0005777632778911438,0.0002073767265176472,-0.0003596622937636748,0.0001883074325838584,0.5537349581718445,34.23751449584961,3.9497954845428467,-19.586824417114258,-0.08177715539932251,-1.802981972694397,0.10470907390117645,0
52,0.25498485565185547,-0.5299312472343445,-34.21371078491211,-3.9735991954803467,19.559053421020508,0.07628399133682251,1.822208046913147,-0.14590780436992645,0.0,0.0,0.0,0.0,0.0,0.0,0.0,-0.5182303720627291,-0.15383787816826633,-0.3869888967037809,0.5375206096199238,0.02595267812079539,-0.09255811645358447,-0.10366014459071181,1.0545148798080912,0.3241822398168998,-0.39250655108587335,-2.1534902943393637,0.8648067547782512,2.465877959609056,0.5444931397585652,1.0544104758940245,0.3238615046091247,-0.39250456234122666,-2.153291787532338,0.8647539153680389,2.46587817577521,0.5445020185570556,0.0004836462909887592,-0.0004056851224186393,-0.00016489498794518222,0.0004731785410731561,0.0031435142325686107,-9.939328725594133e-05,0.0017748426309784713,0.0,0.0,0.0,0.0,0.0,0.0,0.0,-0.00010440391406674188,-0.00032073520777509135,1.9887446466859693e-06,0.00019850680702582224,-5.283941021227978e-05,2.161661538657711e-07,8.878798490430384e-06,-0.0004836462909887592,0.0004056851224186393,0.00016489498794518222,-0.0004731785410731561,-0.0031435142325686107,9.939328725594133e-05,-0.0017748426309784713,0.5299312472343445,34.21371078491211,3.9735991954803467,-19.559053421020508,-0.07628399133682251,-1.822208046913147,0.14590780436992645,0
53,0.25998544692993164,-0.5299312472343445,-34.21371078491211,-3.9735991954803467,19.559053421020508,0.07628399133682251,1.822208046913147,-0.14590780436992645,0.0,0.0,0.0,0.0,0.0,0.0,0.0,-0.5182303720627291,-0.15383787816826633,-0.3869888967037809,0.5375206096199238,0.02595267812079539,-0.09255811645358447,-0.10366014459071181,1.0545148798080912,0.3241822398168998,-0.39250655108587335,-2.1534902943393637,0.8648067547782512,2.465877959609056,0.5444931397585652,1.0544104758940245,0.3238615046091247,-0.39250456234122666,-2.153291787532338,0.8647539153680389,2.46587817577521,0.5445020185570556,0.0004836462909887592,-0.0004056851224186393,-0.00016489498794518222,0.0004731785410731561,0.0031435142325686107,-9.939328725594133e-05,0.0017748426309784713,0.0,0.0,0.0,0.0,0.0,0.0,0.0,-0.00010440391406674188,-0.00032073520777509135,1.9887446466859693e-06,0.00019850680702582224,-5.283941021227978e-05,2.161661538657711e-07,8.878798490430384e-06,-0.0004836462909887592,0.0004056851224186393,0.00016489498794518222,-0.0004731785410731561,-0.0031435142325686107,9.939328725594133e-05,-0.0017748426309784713,0.5299312472343445,34.21371078491211,3.9735991954803467,-19.559053421020508,-0.07628399133682251,-1.822208046913147,0.14590780436992645,0
54,0.2649824619293213,-0.5299312472343445,-34.23751449584961,-3.9974029064178467,19.559053421020508,0.08177715539932251,1.822208046913147,-0.07724325358867645,0.0,0.0,0.0,0.0,0.0,0.0,0.0,-0.5205488078985056,-0.14437856775496358,-0.39005428404578263,0.5321928393202388,0.026055144682620747,-0.09237677282251924,-0.10377489690810097,1.0545148798080912,0.3241839102527551,-0.39250488065000166,-2.1534902943393637,0.8648061487873149,2.4658779596090317,0.5444855089104919,1.0544104758940245,0.3238615046091247,-0.39250456234122666,-2.153291787532338,0.8647539153680389,2.46587817577521,0.5445020185570556,0.00021110143910735282,0.0005156856144444105,0.000752588974986081,-0.00013275894906594423,0.00015497815627477473,-0.0002831547756430639,-0.0012501035715502512,0.0,0.0,0.0,0.0,0.0,0.0,0.0,-0.00010440391406674188,-0.0003224056436303968,3.1830877500471644e-07,0.00019850680702582224,-5.2233419275959925e-05,2.1616617829067764e-07,1.6509646563744873e-05,-0.00021110143910735282,-0.0005156856144444105,-0.000752588974986081,0.00013275894906594423,-0.00015497815627477473,0.0002831547756430639,0.0012501035715502512,0.5299312472343445,34.23751449584961,3.9974029064178467,-19.559053421020508,-0.08177715539932251,-1.822208046913147,0.07724325358867645,0
55,0.27001380920410156,-0.5299312472343445,-34.23751449584961,-3.9974029064178467,19.559053421020508,0.08177715539932251,1.822208046913147,-0.07724325358867645,0.0,0.0,0.0,0.0,0.0,0.0,0.0,-0.5205488078985056,-0.14437856775496358,-0.39005428404578263,0.5321928393202388,0.026055144682620747,-0.09237677282251924,-0.10377489690810097,1.0545148798080912,0.3241839102527551,-0.39250488065000166,-2.1534902943393637,0.8648061487873149,2.4658779596090317,0.5444855089104919,1.0544104758940245,0.3238615046091247,-0.39250456234122666,-2.153291787532338,0.8647539153680389,2.46587817577521,0.5445020185570556,0.00021110143910735282,0.0005156856144444105,0.000752588974986081,-0.00013275894906594423,0.00015497815627477473,-0.0002831547756430639,-0.0012501035715502512,0.0,0.0,0.0,0.0,0.0,0.0,0.0,-0.00010440391406674188,-0.0003224056436303968,3.1830877500471644e-07,0.00019850680702582224,-5.2233419275959925e-05,2.1616617829067764e-07,1.6509646563744873e-05,-0.00021110143910735282,-0.0005156856144444105,-0.000752588974986081,0.00013275894906594423,-0.00015497815627477473,0.0002831547756430639,0.0012501035715502512,0.5299312472343445,34.23751449584961,3.9974029064178467,-19.559053421020508,-0.08177715539932251,-1.822208046913147,0.07724325358867645,0
56,0.2749905586242676,-0.5021602511405945,-34.23751449584961,-3.9220244884490967,19.559053421020508,0.07628399133682251,1.809390664100647,-0.11111776530742645,0.0,0.0,0.0,0.0,0.0,0.0,0.0,-0.5213647914706745,-0.15325386446928085,-0.3912701287325433,0.5398739053952374,0.025247623924278387,-0.0910517082132788,-0.10539536045185668,1.0545129309662602,0.3241839102527551,-0.39251017036354335,-2.1534902943393637,0.8648067591389019,2.4658793837626773,0.5444893904826891,1.0544104758940245,0.3238615046091247,-0.39250456234122666,-2.153291787532338,0.8647539153680389,2.46587817577521,0.5445020185570556,-0.0008434391811275963,9.624612460046875e-05,-0.0008924211203001689,0.0003379376206185499,0.002412617244766864,-1.7479158397853173e-05,0.0005803032497304293,0.0,0.0,0.0,0.0,0.0,0.0,0.0,-0.0001024550722357187,-0.0003224056436303968,5.608022316694328e-06,0.00019850680702582224,-5.2843770863009176e-05,-1.2079874673887048e-06,1.2628074366527464e-05,0.0008434391811275963,-9.624612460046875e-05,0.0008924211203001689,-0.0003379376206185499,-0.002412617244766864,1.7479158397853173e-05,-0.0005803032497304293,0.5021602511405945,34.23751449584961,3.9220244884490967,-19.559053421020508,-0.07628399133682251,-1.809390664100647,0.11111776530742645,0
57,0.2799868583679199,-0.5021602511405945,-34.23751449584961,-3.9220244884490967,19.559053421020508,0.07628399133682251,1.809390664100647,-0.11111776530742645,0.0,0.0,0.0,0.0,0.0,0.0,0.0,-0.5213647914706745,-0.15325386446928085,-0.3912701287325433,0.5398739053952374,0.025247623924278387,-0.0910517082132788,-0.10539536045185668,1.0545129309662602,0.3241839102527551,-0.39251017036354335,-2.1534902943393637,0.8648067591389019,2.4658793837626773,0.5444893904826891,1.0544104758940245,0.3238615046091247,-0.39250456234122666,-2.153291787532338,0.8647539153680389,2.46587817577521,0.5445020185570556,-0.0008434391811275963,9.624612460046875e-05,-0.0008924211203001689,0.0003379376206185499,0.002412617244766864,-1.7479158397853173e-05,0.0005803032497304293,0.0,0.0,0.0,0.0,0.0,0.0,0.0,-0.0001024550722357187,-0.0003224056436303968,5.608022316694328e-06,0.00019850680702582224,-5.2843770863009176e-05,-1.2079874673887048e-06,1.2628074366527464e-05,0.0008434391811275963,-9.624612460046875e-05,0.0008924211203001689,-0.0003379376206185499,-0.002412617244766864,1.7479158397853173e-05,-0.0005803032497304293,0.5021602511405945,34.23751449584961,3.9220244884490967,-19.559053421020508,-0.07628399133682251,-1.809390664100647,0.11111776530742645,0
58,0.2849850654602051,-0.5021602511405945,-34.23751449584961,-3.9220244884490967,19.559053421020508,0.07628399133682251,1.809390664100647,-0.11111776530742645,0.0,0.0,0.0,0.0,0.0,0.0,0.0,-0.5213647914706745,-0.15325386446928085,-0.3912701287325433,0.5398739053952374,0.025247623924278387,-0.0910517082132788,-0.10539536045185668,1.0545129309662602,0.3241839102527551,-0.39251017036354335,-2.1534902943393637,0.8648067591389019,2.4658793837626773,0.5444893904826891,1.0544104758940245,0.3238615046091247,-0.39250456234122666,-2.153291787532338,0.8647539153680389,2.46587817577521,0.5445020185570556,-0.0008434391811275963,9.624612460046875e-05,-0.0008924211203001689,0.0003379376206185499,0.002412617244766864,-1.7479158397853173e-05,0.0005803032497304293,0.0,0.0,0.0,0.0,0.0,0.0,0.0,-0.0001024550722357187,-0.0003224056436303968,5.608022316694328e-06,0.00019850680702582224,-5.2843770863009176e-05,-1.2079874673887048e-06,1.2628074366527464e-05,0.0008434391811275963,-9.624612460046875e-05,0.0008924211203001689,-0.0003379376206185499,-0.002412617244766864,1.7479158397853173e-05,-0.0005803032497304293,0.5021602511405945,34.23751449584961,3.9220244884490967,-19.559053421020508,-0.07628399133682251,-1.809390664100647,0.11111776530742645,0
59,0.28998899459838867,-0.5021602511405945,-34.23751449584961,-3.9220244884490967,19.559053421020508,0.07628399133682251,1.809390664100647,-0.11111776530742645,0.0,0.0,0.0,0.0,0.0,0.0,0.0,-0.5213647914706745,-0.15325386446928085,-0.3912701287325433,0.5398739053952374,0.025247623924278387,-0.0910517082132788,-0.10539536045185668,1.0545129309662602,0.3241839102527551,-0.39251017036354335,-2.1534902943393637,0.8648067591389019,2.4658793837626773,0.5444893904826891,1.0544104758940245,0.3238615046091247,-0.39250456234122666,-2.153291787532338,0.8647539153680389,2.46587817577521,0.5445020185570556,-0.0008434391811275963,9.624612460046875e-05,-0.0008924211203001689,0.0003379376206185499,0.002412617244766864,-1.7479158397853173e-05,0.0005803032497304293,0.0,0.0,0.0,0.0,0.0,0.0,0.0,-0.0001024550722357187,-0.0003224056436303968,5.608022316694328e-06,0.00019850680702582224,-5.2843770863009176e-05,-1.2079874673887048e-06,1.2628074366527464e-05,0.0008434391811275963,-9.624612460046875e-05,0.0008924211203001689,-0.0003379376206185499,-0.002412617244766864,1.7479158397853173e-05,-0.0005803032497304293,0.5021602511405945,34.23751449584961,3.9220244884490967,-19.559053421020508,-0.07628399133682251,-1.809390664100647,0.11111776530742645,0
60,0.2950327396392822,-0.5021602511405945,-34.23751449584961,-3.9974029064178467,19.586824417114258,0.06987529993057251,1.796573281288147,-0.11111776530742645,0.0,0.0,0.0,0.0,0.0,0.0,0.0,-0.512671045535009,-0.14954910951997583,-0.38178418670887365,0.5349758083388543,0.025213057170799653,-0.09307478152196585,-0.10478628415493511,1.0545129309662602,0.3241839102527551,-0.39250488065000166,-2.1534922431811947,0.8648074712157249,2.4658808079163235,0.544489274199334,1.0544104758940245,0.3238615046091247,-0.39250456234122666,-2.153291787532338,0.8647539153680389,2.46587817577521,0.5445020185570556,0.00010972905252213362,9.42022999336125e-05,0.0012126120724751332,-0.0010389866971695176,0.0003336080685634272,0.000435444374432893,0.000403112794025054,0.0,0.0,0.0,0.0,0.0,0.0,0.0,-0.0001024550722357187,-0.0003224056436303968,3.1830877500471644e-07,0.00020045564885684541,-5.355584768595989e-05,-2.6321411135121764e-06,1.2744357721583555e-05,-0.00010972905252213362,-9.42022999336125e-05,-0.0012126120724751332,0.0010389866971695176,-0.0003336080685634272,-0.000435444374432893,-0.000403112794025054,0.5021602511405945,34.23751449584961,3.9974029064178467,-19.586824417114258,-0.06987529993057251,-1.796573281288147,0.11111776530742645,0
61,0.30011820793151855,-0.5021602511405945,-34.23751449584961,-3.9974029064178467,19.586824417114258,0.06987529993057251,1.796573281288147,-0.11111776530742645,0.0,0.0,0.0,0.0,0.0,0.0,0.0,-0.512671045535009,-0.14954910951997583,-0.38178418670887365,0.5349758083388543,0.025213057170799653,-0.09307478152196585,-0.10478628415493511,1.0545129309662602,0.3241839102527551,-0.39250488065000166,-2.1534922431811947,0.8648074712157249,2.4658808079163235,0.544489274199334,1.0544104758940245,0.3238615046091247,-0.39250456234122666,-2.153291787532338,0.8647539153680389,2.46587817577521,0.5445020185570556,0.00010972905252213362,9.42022999336125e-05,0.0012126120724751332,-0.0010389866971695176,0.0003336080685634272,0.000435444374432893,0.000403112794025054,0.0,0.0,0.0,0.0,0.0,0.0,0.0,-0.0001024550722357187,-0.0003224056436303968,3.1830877500471644e-07,0.00020045564885684541,-5.355584768595989e-05,-2.6321411135121764e-06,1.2744357721583555e-05,-0.00010972905252213362,-9.42022999336125e-05,-0.0012126120724751332,0.0010389866971695176,-0.0003336080685634272,-0.000435444374432893,-0.000403112794025054,0.5021602511405945,34.23751449584961,3.9974029064178467,-19.586824417114258,-0.06987529993057251,-1.796573281288147,0.11111776530742645,0
62,0.30500006675720215,-0.5537349581718445,-34.16213607788086,-3.9735991954803467,19.559053421020508,0.08177715539932251,1.809390664100647,-0.13858358561992645,0.0,0.0,0.0,0.0,0.0,0.0,0.0,-0.5213458913841682,-0.14901542579004046,-0.3942666960126642,0.531956970651113,0.02520008770473164,-0.09304674790372824,-0.10467411567251357,1.0545165502439466,0.3241786205392134,-0.3925065510858569,-2.1534902943393637,0.8648061487873394,2.4658793837626773,0.5444923245029398,1.0544104758940245,0.3238615046091247,-0.39250456234122666,-2.153291787532338,0.8647539153680389,2.46587817577521,0.5445020185570556,0.0011898394153559773,-0.0013430789973522407,5.6943004673953085e-05,-0.0005328621203475952,-5.726690738086897e-05,0.00039410041247632044,0.001268308787685138,0.0,0.0,0.0,0.0,0.0,0.0,0.0,-0.00010607434992215836,-0.0003171159300887072,1.9887446302546685e-06,0.00019850680702582224,-5.2233419300495854e-05,-1.2079874673887048e-06,9.694054115771955e-06,-0.0011898394153559773,0.0013430789973522407,-5.6943004673953085e-05,0.0005328621203475952,5.726690738086897e-05,-0.00039410041247632044,-0.001268308787685138,0.5537349581718445,34.16213607788086,3.9735991954803467,-19.559053421020508,-0.08177715539932251,-1.809390664100647,0.13858358561992645,0
63,0.3099825382232666,-0.5537349581718445,-34.16213607788086,-3.9735991954803467,19.559053421020508,0.08177715539932251,1.809390664100647,-0.13858358561992645,0.0,0.0,0.0,0.0,0.0,0.0,0.0,-0.5213458913841682,-0.14901542579004046,-0.3942666960126642,0.531956970651113,0.02520008770473164,-0.09304674790372824,-0.10467411567251357,1.0545165502439466,0.3241786205392134,-0.3925065510858569,-2.1534902943393637,0.8648061487873394,2.4658793837626773,0.5444923245029398,1.0544104758940245,0.3238615046091247,-0.39250456234122666,-2.153291787532338,0.8647539153680389,2.46587817577521,0.5445020185570556,0.0011898394153559773,-0.0013430789973522407,5.6943004673953085e-05,-0.0005328621203475952,-5.726690738086897e-05,0.00039410041247632044,0.001268308787685138,0.0,0.0,0.0,0.0,0.0,0.0,0.0,-0.00010607434992215836,-0.0003171159300887072,1.9887446302546685e-06,0.00019850680702582224,-5.2233419300495854e-05,-1.2079874673887048e-06,9.694054115771955e-06,-0.0011898394153559773,0.0013430789973522407,-5.6943004673953085e-05,0.0005328621203475952,5.726690738086897e-05,-0.00039410041247632044,-0.001268308787685138,0.5537349581718445,34.16213607788086,3.9735991954803467,-19.559053421020508,-0.08177715539932251,-1.809390664100647,0.13858358561992645,0
64,0.3149528503417969,-0.5021602511405945,-34.18990707397461,-3.9735991954803467,19.511445999145508,0.08177715539932251,1.809390664100647,-0.11111776530742645,0.0,0.0,0.0,0.0,0.0,0.0,0.0,-0.5245318729287153,-0.15739107625091683,-0.4008461577483288,0.534276602009676,0.025291112186960275,-0.09143282229257105,-0.10617901243132215,1.0545129309662602,0.32418056938104456,-0.3925065510858569,-2.1534869534676533,0.8648061487873394,2.4658793837626773,0.5444893119909757,1.0544104758940245,0.3238615046091247,-0.39250456234122666,-2.153291787532338,0.8647539153680389,2.46587817577521,0.5445020185570556,-0.0006679756060637992,-0.000964826880475979,0.00025128923363427965,0.0009287997192316296,-8.25950856651424e-05,0.00011493701390395077,-0.0002535345198021041,0.0,0.0,0.0,0.0,0.0,0.0,0.0,-0.0001024550722357187,-0.0003190647719198414,1.9887446302546685e-06,0.00019516593531543336,-5.2233419300495854e-05,-1.2079874673887048e-06,1.2706566079878634e-05,0.0006679756060637992,0.000964826880475979,-0.00025128923363427965,-0.0009287997192316296,8.25950856651424e-05,-0.00011493701390395077,0.0002535345198021041,0.5021602511405945,34.18990707397461,3.9735991954803467,-19.511445999145508,-0.08177715539932251,-1.809390664100647,0.11111776530742645,0
65,0.31994032859802246,-0.5021602511405945,-34.18990707397461,-3.9735991954803467,19.511445999145508,0.08177715539932251,1.809390664100647,-0.11111776530742645,0.0,0.0,0.0,0.0,0.0,0.0,0.0,-0.5245318729287153,-0.15739107625091683,-0.4008461577483288,0.534276602009676,0.025291112186960275,-0.09143282229257105,-0.10617901243132215,1.0545129309662602,0.32418056938104456,-0.3925065510858569,-2.1534869534676533,0.8648061487873394,2.4658793837626773,0.5444893119909757,1.0544104758940245,0.3238615046091247,-0.39250456234122666,-2.153291787532338,0.8647539153680389,2.46587817577521,0.5445020185570556,-0.0006679756060637992,-0.000964826880475979,0.00025128923363427965,0.0009287997192316296,-8.25950856651424e-05,0.00011493701390395077,-0.0002535345198021041,0.0,0.0,0.0,0.0,0.0,0.0,0.0,-0.0001024550722357187,-0.0003190647719198414,1.9887446302546685e-06,0.00019516593531543336,-5.2233419300495854e-05,-1.2079874673887048e-06,1.2706566079878634e-05,0.0006679756060637992,0.000964826880475979,-0.00025128923363427965,-0.0009287997192316296,8.25950856651424e-05,-0.00011493701390395077,0.0002535345198021041,0.5021602511405945,34.18990707397461,3.9735991954803467,-19.511445999145508,-0.08177715539932251,-1.809390664100647,0.11111776530742645,0
66,0.3250298500061035,-0.5021602511405945,-34.28908920288086,-3.9735991954803467,19.586824417114258,0.08177715539932251,1.815799355506897,-0.09738485515117645,0.0,0.0,0.0,0.0,0.0,0.0,0.0,-0.5239591326328916,-0.1578881230100653,-0.39923349900072796,0.5323700753784808,0.025189377506709573,-0.09120619832972195,-0.10811159564511685,1.0545129309662602,0.3241875295304415,-0.3925065510858569,-2.1534922431811947,0.8648061487873394,2.4658786716858545,0.5444877468664344,1.0544104758940245,0.3238615046091247,-0.39250456234122666,-2.153291787532338,0.8647539153680389,2.46587817577521,0.5445020185570556,-0.0006972836030137214,0.001126609448498294,0.00013508383740993884,-0.0007251668838508885,-0.0001325487073775751,-2.278535824034157e-05,7.816904426764928e-05,0.0,0.0,0.0,0.0,0.0,0.0,0.0,-0.0001024550722357187,-0.00032602492131678096,1.9887446302546685e-06,0.00020045564885684541,-5.2233419300495854e-05,-4.959106445490136e-07,1.4271690621181499e-05,0.0006972836030137214,-0.001126609448498294,-0.00013508383740993884,0.0007251668838508885,0.0001325487073775751,2.278535824034157e-05,-7.816904426764928e-05,0.5021602511405945,34.28908920288086,3.9735991954803467,-19.586824417114258,-0.08177715539932251,-1.815799355506897,0.09738485515117645,0
67,0.3300144672393799,-0.5021602511405945,-34.28908920288086,-3.9735991954803467,19.586824417114258,0.08177715539932251,1.815799355506897,-0.09738485515117645,0.0,0.0,0.0,0.0,0.0,0.0,0.0,-0.5239591326328916,-0.1578881230100653,-0.39923349900072796,0.5323700753784808,0.025189377506709573,-0.09120619832972195,-0.10811159564511685,1.0545129309662602,0.3241875295304415,-0.3925065510858569,-2.1534922431811947,0.8648061487873394,2.4658786716858545,0.5444877468664344,1.0544104758940245,0.3238615046091247,-0.39250456234122666,-2.153291787532338,0.8647539153680389,2.46587817577521,0.5445020185570556,-0.0006972836030137214,0.001126609448498294,0.00013508383740993884,-0.0007251668838508885,-0.0001325487073775751,-2.278535824034157e-05,7.816904426764928e-05,0.0,0.0,0.0,0.0,0.0,0.0,0.0,-0.0001024550722357187,-0.00032602492131678096,1.9887446302546685e-06,0.00020045564885684541,-5.2233419300495854e-05,-4.959106445490136e-07,1.4271690621181499e-05,0.0006972836030137214,-0.001126609448498294,-0.00013508383740993884,0.0007251668838508885,0.0001325487073775751,2.278535824034157e-05,-7.816904426764928e-05,0.5021602511405945,34.28908920288086,3.9735991954803467,-19.586824417114258,-0.08177715539932251,-1.815799355506897,0.09738485515117645,0
68,0.33501291275024414,-0.4783565402030945,-34.21371078491211,-3.9735991954803467,19.559053421020508,0.06987529993057251,1.815799355506897,-0.07724325358867645,0.0,0.0,0.0,0.0,0.0,0.0,0.0,-0.5162230063223614,-0.14556036775182254,-0.3905937293059116,0.525403615878562,0.025148265071701897,-0.09208966194860908,-0.10715701603900613,1.0545112605304048,0.3241822398168998,-0.3925065510858569,-2.1534902943393637,0.8648074712157249,2.4658786716858545,0.5444886878248717,1.0544104758940245,0.3238615046091247,-0.39250456234122666,-2.153291787532338,0.8647539153680389,2.46587817577521,0.5445020185570556,-0.0011195619681983347,-0.00039816654055703244,0.0003662632098605872,-0.00031827056224288176,0.00045481627500397747,8.644942793432637e-05,-0.0008800887116302437,0.0,0.0,0.0,0.0,0.0,0.0,0.0,-0.00010078463638030222,-0.00032073520777509135,1.9887446302546685e-06,0.00019850680702582224,-5.355584768595989e-05,-4.959106445490136e-07,1.3330732183902683e-05,0.0011195619681983347,0.00039816654055703244,-0.0003662632098605872,0.00031827056224288176,-0.00045481627500397747,-8.644942793432637e-05,0.0008800887116302437,0.4783565402030945,34.21371078491211,3.9735991954803467,-19.559053421020508,-0.06987529993057251,-1.815799355506897,0.07724325358867645,0
69,0.34000396728515625,-0.4783565402030945,-34.21371078491211,-3.9735991954803467,19.559053421020508,0.06987529993057251,1.815799355506897,-0.07724325358867645,0.0,0.0,0.0,0.0,0.0,0.0,0.0,-0.5162230063223614,-0.14556036775182254,-0.3905937293059116,0.525403615878562,0.025148265071701897,-0.09208966194860908,-0.10715701603900613,1.0545112605304048,0.3241822398168998,-0.3925065510858569,-2.1534902943393637,0.8648074712157249,2.4658786716858545,0.5444886878248717,1.0544104758940245,0.3238615046091247,-0.39250456234122666,-2.153291787532338,0.8647539153680389,2.46587817577521,0.5445020185570556,-0.0011195619681983347,-0.00039816654055703244,0.0003662632098605872,-0.00031827056224288176,0.00045481627500397747,8.644942793432637e-05,-0.0008800887116302437,0.0,0.0,0.0,0.0,0.0,0.0,0.0,-0.00010078463638030222,-0.00032073520777509135,1.9887446302546685e-06,0.00019850680702582224,-5.355584768595989e-05,-4.959106445490136e-07,1.3330732183902683e-05,0.0011195619681983347,0.00039816654055703244,-0.0003662632098605872,0.00031827056224288176,-0.00045481627500397747,-8.644942793432637e-05,0.0008800887116302437,0.4783565402030945,34.21371078491211,3.9735991954803467,-19.559053421020508,-0.06987529993057251,-1.815799355506897,0.07724325358867645,0
70,0.3449840545654297,-0.5299312472343445,-34.23751449584961,-3.9974029064178467,19.586824417114258,0.08177715539932251,1.809390664100647,-0.13858358561992645,0.0,0.0,0.0,0.0,0.0,0.0,0.0,-0.5152032266306844,-0.1488591323307883,-0.3909395016625452,0.5292981178733133,0.02577462810223509,-0.091084103312499,-0.10664449680278447,1.0545148798080912,0.3241839102527551,-0.39250488065000166,-2.1534922431811947,0.8648061487873394,2.4658793968446293,0.5444955034352648,1.0544104758940245,0.3238615046091247,-0.39250456234122666,-2.153291787532338,0.8647539153680389,2.46587817577521,0.5445020185570556,0.0005724924043038569,0.0010308441018010374,0.0009778561282187718,-0.0009370790725365076,-1.5916452822600317e-05,0.0003975664248904931,0.001593841876149222,0.0,0.0,0.0,0.0,0.0,0.0,0.0,-0.00010440391406674188,-0.0003224056436303968,3.1830877500471644e-07,0.00020045564885684541,-5.2233419300495854e-05,-1.2210694193548477e-06,6.515121790839906e-06,-0.0005724924043038569,-0.0010308441018010374,-0.0009778561282187718,0.0009370790725365076,1.5916452822600317e-05,-0.0003975664248904931,-0.001593841876149222,0.5299312472343445,34.23751449584961,3.9974029064178467,-19.586824417114258,-0.08177715539932251,-1.809390664100647,0.13858358561992645,0
71,0.34998154640197754,-0.5299312472343445,-34.23751449584961,-3.9974029064178467,19.586824417114258,0.08177715539932251,1.809390664100647,-0.13858358561992645,0.0,0.0,0.0,0.0,0.0,0.0,0.0,-0.5152032266306844,-0.1488591323307883,-0.3909395016625452,0.5292981178733133,0.02577462810223509,-0.091084103312499,-0.10664449680278447,1.0545148798080912,0.3241839102527551,-0.39250488065000166,-2.1534922431811947,0.8648061487873394,2.4658793968446293,0.5444955034352648,1.0544104758940245,0.3238615046091247,-0.39250456234122666,-2.153291787532338,0.8647539153680389,2.46587817577521,0.5445020185570556,0.0005724924043038569,0.0010308441018010374,0.0009778561282187718,-0.0009370790725365076,-1.5916452822600317e-05,0.0003975664248904931,0.001593841876149222,0.0,0.0,0.0,0.0,0.0,0.0,0.0,-0.00010440391406674188,-0.0003224056436303968,3.1830877500471644e-07,0.00020045564885684541,-5.2233419300495854e-05,-1.2210694193548477e-06,6.515121790839906e-06,-0.0005724924043038569,-0.0010308441018010374,-0.0009778561282187718,0.0009370790725365076,1.5916452822600317e-05,-0.0003975664248904931,-0.001593841876149222,0.5299312472343445,34.23751449584961,3.9974029064178467,-19.586824417114258,-0.08177715539932251,-1.809390664100647,0.13858358561992645,0
72,0.3549809455871582,-0.5537349581718445,-34.18990707397461,-3.9735991954803467,19.586824417114258,0.07628399133682251,1.815799355506897,-0.09738485515117645,0.0,0.0,0.0,0.0,0.0,0.0,0.0,-0.5195620752719685,-0.15327405032418498,-0.3943286282974365,0.5339652237972797,0.026549803490986363,-0.09017529117064833,-0.10563197322783606,1.0545165502439466,0.32418056938104456,-0.3925065510858569,-2.1534922431811947,0.8648067460569497,2.4658786716859282,0.5444877473686748,1.0544104758940245,0.3238615046091247,-0.39250456234122666,-2.153291787532338,0.8647539153680389,2.46587817577521,0.5445020185570556,0.0006977780470644971,-0.0006002464426004416,0.0003201074968176143,-0.0003213837026530964,0.00017363332288982924,-0.00018561165103229534,-0.0004330920644979907,0.0,0.0,0.0,0.0,0.0,0.0,0.0,-0.00010607434992215836,-0.0003190647719198414,1.9887446302546685e-06,0.00020045564885684541,-5.283068891082099e-05,-4.959107182678224e-07,1.4271188380821087e-05,-0.0006977780470644971,0.0006002464426004416,-0.0003201074968176143,0.0003213837026530964,-0.00017363332288982924,0.00018561165103229534,0.0004330920644979907,0.5537349581718445,34.18990707397461,3.9735991954803467,-19.586824417114258,-0.07628399133682251,-1.815799355506897,0.09738485515117645,0
73,0.3599984645843506,-0.5537349581718445,-34.18990707397461,-3.9735991954803467,19.586824417114258,0.07628399133682251,1.815799355506897,-0.09738485515117645,0.0,0.0,0.0,0.0,0.0,0.0,0.0,-0.5195620752719685,-0.15327405032418498,-0.3943286282974365,0.5339652237972797,0.026549803490986363,-0.09017529117064833,-0.10563197322783606,1.0545165502439466,0.32418056938104456,-0.3925065510858569,-2.1534922431811947,0.8648067460569497,2.4658786716859282,0.5444877473686748,1.0544104758940245,0.3238615046091247,-0.39250456234122666,-2.153291787532338,0.8647539153680389,2.46587817577521,0.5445020185570556,0.0006977780470644971,-0.0006002464426004416,0.0003201074968176143,-0.0003213837026530964,0.00017363332288982924,-0.00018561165103229534,-0.0004330920644979907,0.0,0.0,0.0,0.0,0.0,0.0,0.0,-0.00010607434992215836,-0.0003190647719198414,1.9887446302546685e-06,0.00020045564885684541,-5.283068891082099e-05,-4.959107182678224e-07,1.4271188380821087e-05,-0.0006977780470644971,0.0006002464426004416,-0.0003201074968176143,0.0003213837026530964,-0.00017363332288982924,0.00018561165103229534,0.0004330920644979907,0.5537349581718445,34.18990707397461,3.9735991954803467,-19.586824417114258,-0.07628399133682251,-1.815799355506897,0.09738485515117645,0
74,0.36498165130615234,-0.5299312472343445,-34.18990707397461,-3.9497954845428467,19.535249710083008,0.07628399133682251,1.822208046913147,-0.11111776530742645,0.0,0.0,0.0,0.0,0.0,0.0,0.0,-0.5390046685635296,-0.14060714280999675,-0.40837391527494915,0.5274276477973392,0.02726256512277515,-0.09058128597138977,-0.10535221459242369,1.0545148798080912,0.32418056938104456,-0.39250822152171216,-2.1534886239035083,0.8648067591388281,2.4658779596090317,0.5444928053567365,1.0544104758940245,0.3238615046091247,-0.39250456234122666,-2.153291787532338,0.8647539153680389,2.46587817577521,0.5445020185570556,-0.00041576472722751903,-5.0570494655559154e-05,-0.0013425930364197541,0.0005667757207767321,0.00014070980851648113,-0.00036874199908163357,0.0005577180874960238,0.0,0.0,0.0,0.0,0.0,0.0,0.0,-0.00010440391406674188,-0.0003190647719198414,3.6591804855046206e-06,0.00019683637117040576,-5.2843770789179345e-05,2.1616617829067764e-07,9.213200319102555e-06,0.00041576472722751903,5.0570494655559154e-05,0.0013425930364197541,-0.0005667757207767321,-0.00014070980851648113,0.00036874199908163357,-0.0005577180874960238,0.5299312472343445,34.18990707397461,3.9497954845428467,-19.535249710083008,-0.07628399133682251,-1.822208046913147,0.11111776530742645,0
75,0.3699953556060791,-0.5299312472343445,-34.18990707397461,-3.9497954845428467,19.535249710083008,0.07628399133682251,1.822208046913147,-0.11111776530742645,0.0,0.0,0.0,0.0,0.0,0.0,0.0,-0.5390046685635296,-0.14060714280999675,-0.40837391527494915,0.5274276477973392,0.02726256512277515,-0.09058128597138977,-0.10535221459242369,1.0545148798080912,0.32418056938104456,-0.39250822152171216,-2.1534886239035083,0.8648067591388281,2.4658779596090317,0.5444928053567365,1.0544104758940245,0.3238615046091247,-0.39250456234122666,-2.153291787532338,0.8647539153680389,2.46587817577521,0.5445020185570556,-0.00041576472722751903,-5.0570494655559154e-05,-0.0013425930364197541,0.0005667757207767321,0.00014070980851648113,-0.00036874199908163357,0.0005577180874960238,0.0,0.0,0.0,0.0,0.0,0.0,0.0,-0.00010440391406674188,-0.0003190647719198414,3.6591804855046206e-06,0.00019683637117040576,-5.2843770789179345e-05,2.1616617829067764e-07,9.213200319102555e-06,0.00041576472722751903,5.0570494655559154e-05,0.0013425930364197541,-0.0005667757207767321,-0.00014070980851648113,0.00036874199908163357,-0.0005577180874960238,0.5299312472343445,34.18990707397461,3.9497954845428467,-19.535249710083008,-0.07628399133682251,-1.822208046913147,0.11111776530742645,0
76,0.3749842643737793,-0.5537349581718445,-34.21371078491211,-3.9497954845428467,19.559053421020508,0.08818584680557251,1.809390664100647,-0.08365194499492645,0.0,0.0,0.0,0.0,0.0,0.0,0.0,-0.53159554049934,-0.16842673421462684,-0.4052776791395454,0.5578702100929737,0.027255507232810956,-0.08850552922152051,-0.10450561193640043,1.0545165502439466,0.3241822398168998,-0.39250822152171216,-2.1534902943393637,0.8648054367105165,2.4658793837626773,0.5444895176592063,1.0544104758940245,0.3238615046091247,-0.39250456234122666,-2.153291787532338,0.8647539153680389,2.46587817577521,0.5445020185570556,-0.0003957996289520535,-0.00019373235785200905,-0.0005514187123070002,-0.0034348393293637904,-0.0008848618990396924,0.0002574230985259628,-0.000849552485725217,0.0,0.0,0.0,0.0,0.0,0.0,0.0,-0.00010607434992215836,-0.00032073520777509135,3.6591804855046206e-06,0.00019850680702582224,-5.152134247754514e-05,-1.2079874673887048e-06,1.250089784932129e-05,0.0003957996289520535,0.00019373235785200905,0.0005514187123070002,0.0034348393293637904,0.0008848618990396924,-0.0002574230985259628,0.000849552485725217,0.5537349581718445,34.21371078491211,3.9497954845428467,-19.559053421020508,-0.08818584680557251,-1.809390664100647,0.08365194499492645,0
77,0.3799855709075928,-0.5537349581718445,-34.21371078491211,-3.9497954845428467,19.559053421020508,0.08818584680557251,1.809390664100647,-0.08365194499492645,0.0,0.0,0.0,0.0,0.0,0.0,0.0,-0.53159554049934,-0.16842673421462684,-0.4052776791395454,0.5578702100929737,0.027255507232810956,-0.08850552922152051,-0.10450561193640043,1.0545165502439466,0.3241822398168998,-0.39250822152171216,-2.1534902943393637,0.8648054367105165,2.4658793837626773,0.5444895176592063,1.0544104758940245,0.3238615046091247,-0.39250456234122666,-2.153291787532338,0.8647539153680389,2.46587817577521,0.5445020185570556,-0.0003957996289520535,-0.00019373235785200905,-0.0005514187123070002,-0.0034348393293637904,-0.0008848618990396924,0.0002574230985259628,-0.000849552485725217,0.0,0.0,0.0,0.0,0.0,0.0,0.0,-0.00010607434992215836,-0.00032073520777509135,3.6591804855046206e-06,0.00019850680702582224,-5.152134247754514e-05,-1.2079874673887048e-06,1.250089784932129e-05,0.0003957996289520535,0.00019373235785200905,0.0005514187123070002,0.0034348393293637904,0.0008848618990396924,-0.0002574230985259628,0.000849552485725217,0.5537349581718445,34.21371078491211,3.9497954845428467,-19.559053421020508,-0.08818584680557251,-1.809390664100647,0.08365194499492645,0
78,0.3849813938140869,-0.5021602511405945,-34.23751449584961,-3.9735991954803467,19.535249710083008,0.08818584680557251,1.809390664100647,-0.11844198405742645,0.0,0.0,0.0,0.0,0.0,0.0,0.0,-0.5115858593395451,-0.1632219158122093,-0.38567135980926415,0.5536524977685926,0.02629958161652711,-0.08994243310363198,-0.10471313558193142,1.0545129309662602,0.3241839102527551,-0.3925065510858569,-2.1534886239035083,0.8648054367105165,2.4658793837626773,0.5444900996477645,1.0544104758940245,0.3238615046091247,-0.39250456234122666,-2.153291787532338,0.8647539153680389,2.46587817577521,0.5445020185570556,-0.00010662047708287426,-9.209811030181316e-05,0.00034504981564485433,0.000279370775432387,-0.00033372063984280637,0.00030290557925174153,0.0008624221452199832,0.0,0.0,0.0,0.0,0.0,0.0,0.0,-0.0001024550722357187,-0.0003224056436303968,1.9887446302546685e-06,0.00019683637117040576,-5.152134247754514e-05,-1.2079874673887048e-06,1.1918909291086521e-05,0.00010662047708287426,9.209811030181316e-05,-0.00034504981564485433,-0.000279370775432387,0.00033372063984280637,-0.00030290557925174153,-0.0008624221452199832,0.5021602511405945,34.23751449584961,3.9735991954803467,-19.535249710083008,-0.08818584680557251,-1.809390664100647,0.11844198405742645,0
79,0.39034557342529297,-0.5021602511405945,-34.23751449584961,-3.9735991954803467,19.535249710083008,0.08818584680557251,1.809390664100647,-0.11844198405742645,0.0,0.0,0.0,0.0,0.0,0.0,0.0,-0.5115858593395451,-0.1632219158122093,-0.38567135980926415,0.5536524977685926,0.02629958161652711,-0.08994243310363198,-0.10471313558193142,1.0545129309662602,0.3241839102527551,-0.3925065510858569,-2.1534886239035083,0.8648054367105165,2.4658793837626773,0.5444900996477645,1.0544104758940245,0.3238615046091247,-0.39250456234122666,-2.153291787532338,0.8647539153680389,2.46587817577521,0.5445020185570556,-0.00010662047708287426,-9.209811030181316e-05,0.00034504981564485433,0.000279370775432387,-0.00033372063984280637,0.00030290557925174153,0.0008624221452199832,0.0,0.0,0.0,0.0,0.0,0.0,0.0,-0.0001024550722357187,-0.0003224056436303968,1.9887446302546685e-06,0.00019683637117040576,-5.152134247754514e-05,-1.2079874673887048e-06,1.1918909291086521e-05,0.00010662047708287426,9.209811030181316e-05,-0.00034504981564485433,-0.000279370775432387,0.00033372063984280637,-0.00030290557925174153,-0.0008624221452199832,0.5021602511405945,34.23751449584961,3.9735991954803467,-19.535249710083008,-0.08818584680557251,-1.809390664100647,0.11844198405742645,0
80,0.3949887752532959,-0.5021602511405945,-34.23751449584961,-3.9735991954803467,19.535249710083008,0.08818584680557251,1.809390664100647,-0.11844198405742645,0.0,0.0,0.0,0.0,0.0,0.0,0.0,-0.5115858593395451,-0.1632219158122093,-0.38567135980926415,0.5536524977685926,0.02629958161652711,-0.08994243310363198,-0.10471313558193142,1.0545129309662602,0.3241839102527551,-0.3925065510858569,-2.1534886239035083,0.8648054367105165,2.4658793837626773,0.5444900996477645,1.0544104758940245,0.3238615046091247,-0.39250456234122666,-2.153291787532338,0.8647539153680389,2.46587817577521,0.5445020185570556,-0.00010662047708287426,-9.209811030181316e-05,0.00034504981564485433,0.000279370775432387,-0.00033372063984280637,0.00030290557925174153,0.0008624221452199832,0.0,0.0,0.0,0.0,0.0,0.0,0.0,-0.0001024550722357187,-0.0003224056436303968,1.9887446302546685e-06,0.00019683637117040576,-5.152134247754514e-05,-1.2079874673887048e-06,1.1918909291086521e-05,0.00010662047708287426,9.209811030181316e-05,-0.00034504981564485433,-0.000279370775432387,0.00033372063984280637,-0.00030290557925174153,-0.0008624221452199832,0.5021602511405945,34.23751449584961,3.9735991954803467,-19.535249710083008,-0.08818584680557251,-1.809390664100647,0.11844198405742645,0
