rezayati/contactInterpretation/dataset/franka_main/labeled_data/link6/b6_4.csv
index,time,tau_J0,tau_J1,tau_J2,tau_J3,tau_J4,tau_J5,tau_J6,tau_J_d0,tau_J_d1,tau_J_d2,tau_J_d3,tau_J_d4,tau_J_d5,tau_J_d6,tau_ext0,tau_ext1,tau_ext2,tau_ext3,tau_ext4,tau_ext5,tau_ext6,q0,q1,q2,q3,q4,q5,q6,q_d0,q_d1,q_d2,q_d3,q_d4,q_d5,q_d6,dq0,dq1,dq2,dq3,dq4,dq5,dq6,dq_d0,dq_d1,dq_d2,dq_d3,dq_d4,dq_d5,dq_d6,e0,e1,e2,e3,e4,e5,e6,de0,de1,de2,de3,de4,de5,de6,etau_J0,etau_J1,etau_J2,etau_J3,etau_J4,etau_J5,etau_J6,label
1,0.0,-0.22445029020309448,-19.745019912719727,-0.2483184039592743,20.130342483520508,0.4031272530555725,2.4758944511413574,-0.22830526530742645,0.0,0.0,0.0,0.0,0.0,0.0,0.0,-0.226238182014796,0.006042899037019891,-0.07909597682386316,0.3478595813099887,-0.1879938835262164,0.11589032587042727,-0.2443336174372935,1.213375362373832,-0.22017556313255374,-0.007601346013049013,-2.604079748889856,-0.10873213313023249,2.4681826760265415,0.8264734840775475,1.2134413937687574,-0.2202432315892585,-0.0075118285948192216,-2.6038483821997875,-0.10888392708698907,2.4681821257803174,0.826474908251239,5.349447604824444e-05,0.0005607021655044755,-0.0009041574827413961,0.00022285566161054718,-0.00015650258805927176,0.00022449620539303727,-0.0006768986292297105,0.0,0.0,0.0,0.0,0.0,0.0,0.0,6.603139492544763e-05,-6.76684567047503e-05,8.951741822979184e-05,0.00023136669006840194,-0.0001517939567565879,-5.502462241402384e-07,1.4241736915332481e-06,-5.349447604824444e-05,-0.0005607021655044755,0.0009041574827413961,-0.00022285566161054718,0.00015650258805927176,-0.00022449620539303727,0.0006768986292297105,0.22445029020309448,19.745019912719727,0.2483184039592743,-20.130342483520508,-0.4031272530555725,-2.4758944511413574,0.22830526530742645,0
2,0.00499415397644043,-0.22445029020309448,-19.745019912719727,-0.2483184039592743,20.130342483520508,0.4031272530555725,2.4758944511413574,-0.22830526530742645,0.0,0.0,0.0,0.0,0.0,0.0,0.0,-0.226238182014796,0.006042899037019891,-0.07909597682386316,0.3478595813099887,-0.1879938835262164,0.11589032587042727,-0.2443336174372935,1.213375362373832,-0.22017556313255374,-0.007601346013049013,-2.604079748889856,-0.10873213313023249,2.4681826760265415,0.8264734840775475,1.2134413937687574,-0.2202432315892585,-0.0075118285948192216,-2.6038483821997875,-0.10888392708698907,2.4681821257803174,0.826474908251239,5.349447604824444e-05,0.0005607021655044755,-0.0009041574827413961,0.00022285566161054718,-0.00015650258805927176,0.00022449620539303727,-0.0006768986292297105,0.0,0.0,0.0,0.0,0.0,0.0,0.0,6.603139492544763e-05,-6.76684567047503e-05,8.951741822979184e-05,0.00023136669006840194,-0.0001517939567565879,-5.502462241402384e-07,1.4241736915332481e-06,-5.349447604824444e-05,-0.0005607021655044755,0.0009041574827413961,-0.00022285566161054718,0.00015650258805927176,-0.00022449620539303727,0.0006768986292297105,0.22445029020309448,19.745019912719727,0.2483184039592743,-20.130342483520508,-0.4031272530555725,-2.4758944511413574,0.22830526530742645,0
3,0.010092973709106445,-0.24825400114059448,-19.717248916625977,-0.3236968219280243,20.106538772583008,0.3976340889930725,2.4823031425476074,-0.22830526530742645,0.0,0.0,0.0,0.0,0.0,0.0,0.0,-0.22666417677665654,0.001691416823826256,-0.0809882207797353,0.3509498878769248,-0.18780440797133346,0.1153690833171359,-0.2445533925475384,1.2133771263839506,-0.22017751197438487,-0.007593916976184424,-2.6040780784540005,-0.10873152229036795,2.468181954045134,0.826476298153117,1.2134413937687574,-0.2202432315892585,-0.0075118285948192216,-2.6038483821997875,-0.10888392708698907,2.4681821257803174,0.826474908251239,0.0004091395803739978,-0.0005937076672067121,0.0012247019414318135,0.0008089254644461467,-1.0932887589659367e-05,2.014941102204395e-05,3.1754513261763604e-05,0.0,0.0,0.0,0.0,0.0,0.0,0.0,6.426738480680427e-05,-6.57196148736161e-05,8.208838136520256e-05,0.00022969625421298545,-0.00015240479662112505,1.7173518340740657e-07,-1.3899018779239825e-06,-0.0004091395803739978,0.0005937076672067121,-0.0012247019414318135,-0.0008089254644461467,1.0932887589659367e-05,-2.014941102204395e-05,-3.1754513261763604e-05,0.24825400114059448,19.717248916625977,0.3236968219280243,-20.106538772583008,-0.3976340889930725,-2.4823031425476074,0.22830526530742645,0
4,0.014993667602539062,-0.24825400114059448,-19.717248916625977,-0.3236968219280243,20.106538772583008,0.3976340889930725,2.4823031425476074,-0.22830526530742645,0.0,0.0,0.0,0.0,0.0,0.0,0.0,-0.22666417677665654,0.001691416823826256,-0.0809882207797353,0.3509498878769248,-0.18780440797133346,0.1153690833171359,-0.2445533925475384,1.2133771263839506,-0.22017751197438487,-0.007593916976184424,-2.6040780784540005,-0.10873152229036795,2.468181954045134,0.826476298153117,1.2134413937687574,-0.2202432315892585,-0.0075118285948192216,-2.6038483821997875,-0.10888392708698907,2.4681821257803174,0.826474908251239,0.0004091395803739978,-0.0005937076672067121,0.0012247019414318135,0.0008089254644461467,-1.0932887589659367e-05,2.014941102204395e-05,3.1754513261763604e-05,0.0,0.0,0.0,0.0,0.0,0.0,0.0,6.426738480680427e-05,-6.57196148736161e-05,8.208838136520256e-05,0.00022969625421298545,-0.00015240479662112505,1.7173518340740657e-07,-1.3899018779239825e-06,-0.0004091395803739978,0.0005937076672067121,-0.0012247019414318135,-0.0008089254644461467,1.0932887589659367e-05,-2.014941102204395e-05,-3.1754513261763604e-05,0.24825400114059448,19.717248916625977,0.3236968219280243,-20.106538772583008,-0.3976340889930725,-2.4823031425476074,0.22830526530742645,0
5,0.019997119903564453,-0.24825400114059448,-19.768823623657227,-0.2721221148967743,20.130342483520508,0.3976340889930725,2.4823031425476074,-0.27591270208358765,0.0,0.0,0.0,0.0,0.0,0.0,0.0,-0.22273118780457263,0.03475076085207329,-0.0776494468406352,0.30829464225094855,-0.18878606439621498,0.10801154961656197,-0.24253911784049165,1.213377131948346,-0.2201738926966985,-0.007599675456879267,-2.604079748889856,-0.10873150959451226,2.4681778436203228,0.826480879951395,1.2134413937687574,-0.2202432315892585,-0.0075118285948192216,-2.6038483821997875,-0.10888392708698907,2.4681821257803174,0.826474908251239,0.0006334903230294503,0.0011849004806914205,0.0003336388037297832,0.0006683829763716755,3.089645839312198e-05,4.5960992459782807e-05,0.001380840127727724,0.0,0.0,0.0,0.0,0.0,0.0,0.0,6.426182041141537e-05,-6.933889256000025e-05,8.784686206004567e-05,0.00023136669006840194,-0.00015241749247681124,4.282159994595247e-06,-5.97170015592674e-06,-0.0006334903230294503,-0.0011849004806914205,-0.0003336388037297832,-0.0006683829763716755,-3.089645839312198e-05,-4.5960992459782807e-05,-0.001380840127727724,0.24825400114059448,19.768823623657227,0.2721221148967743,-20.130342483520508,-0.3976340889930725,-2.4823031425476074,0.27591270208358765,0
6,0.02503371238708496,-0.24825400114059448,-19.768823623657227,-0.2721221148967743,20.130342483520508,0.3976340889930725,2.4823031425476074,-0.27591270208358765,0.0,0.0,0.0,0.0,0.0,0.0,0.0,-0.22273118780457263,0.03475076085207329,-0.0776494468406352,0.30829464225094855,-0.18878606439621498,0.10801154961656197,-0.24253911784049165,1.213377131948346,-0.2201738926966985,-0.007599675456879267,-2.604079748889856,-0.10873150959451226,2.4681778436203228,0.826480879951395,1.2134413937687574,-0.2202432315892585,-0.0075118285948192216,-2.6038483821997875,-0.10888392708698907,2.4681821257803174,0.826474908251239,0.0006334903230294503,0.0011849004806914205,0.0003336388037297832,0.0006683829763716755,3.089645839312198e-05,4.5960992459782807e-05,0.001380840127727724,0.0,0.0,0.0,0.0,0.0,0.0,0.0,6.426182041141537e-05,-6.933889256000025e-05,8.784686206004567e-05,0.00023136669006840194,-0.00015241749247681124,4.282159994595247e-06,-5.97170015592674e-06,-0.0006334903230294503,-0.0011849004806914205,-0.0003336388037297832,-0.0006683829763716755,-3.089645839312198e-05,-4.5960992459782807e-05,-0.001380840127727724,0.24825400114059448,19.768823623657227,0.2721221148967743,-20.130342483520508,-0.3976340889930725,-2.4823031425476074,0.27591270208358765,0
7,0.030002832412719727,-0.24825400114059448,-19.745019912719727,-0.2245146930217743,20.106538772583008,0.3912253975868225,2.4823031425476074,-0.21457235515117645,0.0,0.0,0.0,0.0,0.0,0.0,0.0,-0.22395141420204445,0.006393674641800201,-0.07819636170126822,0.3533637491696693,-0.18749476263615605,0.11426498871862993,-0.24276168215695348,1.2133770498550898,-0.22017556313255374,-0.007603016448909096,-2.6040780784540005,-0.1087340045714094,2.468180668814281,0.8264749665773162,1.2134413937687574,-0.2202432315892585,-0.0075118285948192216,-2.6038483821997875,-0.10888392708698907,2.4681821257803174,0.826474908251239,0.0003925756680061891,0.0005727250081677995,-0.0006774545385721186,0.00043481866083942274,0.00014838416753586915,-7.151764840161392e-05,-0.0011985819244693882,0.0,0.0,0.0,0.0,0.0,0.0,0.0,6.434391366760828e-05,-6.76684567047503e-05,9.118785408987473e-05,0.00022969625421298545,-0.00014992251557967295,1.4569660362617753e-06,-5.8326077190251624e-08,-0.0003925756680061891,-0.0005727250081677995,0.0006774545385721186,-0.00043481866083942274,-0.00014838416753586915,7.151764840161392e-05,0.0011985819244693882,0.24825400114059448,19.745019912719727,0.2245146930217743,-20.106538772583008,-0.3912253975868225,-2.4823031425476074,0.21457235515117645,0
8,0.03500652313232422,-0.24825400114059448,-19.745019912719727,-0.2245146930217743,20.106538772583008,0.3912253975868225,2.4823031425476074,-0.21457235515117645,0.0,0.0,0.0,0.0,0.0,0.0,0.0,-0.22395141420204445,0.006393674641800201,-0.07819636170126822,0.3533637491696693,-0.18749476263615605,0.11426498871862993,-0.24276168215695348,1.2133770498550898,-0.22017556313255374,-0.007603016448909096,-2.6040780784540005,-0.1087340045714094,2.468180668814281,0.8264749665773162,1.2134413937687574,-0.2202432315892585,-0.0075118285948192216,-2.6038483821997875,-0.10888392708698907,2.4681821257803174,0.826474908251239,0.0003925756680061891,0.0005727250081677995,-0.0006774545385721186,0.00043481866083942274,0.00014838416753586915,-7.151764840161392e-05,-0.0011985819244693882,0.0,0.0,0.0,0.0,0.0,0.0,0.0,6.434391366760828e-05,-6.76684567047503e-05,9.118785408987473e-05,0.00022969625421298545,-0.00014992251557967295,1.4569660362617753e-06,-5.8326077190251624e-08,-0.0003925756680061891,-0.0005727250081677995,0.0006774545385721186,-0.00043481866083942274,-0.00014838416753586915,7.151764840161392e-05,0.0011985819244693882,0.24825400114059448,19.745019912719727,0.2245146930217743,-20.106538772583008,-0.3912253975868225,-2.4823031425476074,0.21457235515117645,0
9,0.04010295867919922,-0.22445029020309448,-19.768823623657227,-0.2483184039592743,20.130342483520508,0.3976340889930725,2.4758944511413574,-0.23471395671367645,0.0,0.0,0.0,0.0,0.0,0.0,0.0,-0.22824281697329002,-0.004492651738196931,-0.07628801465465192,0.36340207896580706,-0.1874693022567255,0.11534694364616957,-0.2421579519471178,1.2133754531137684,-0.2201738926966985,-0.0076013460130545125,-2.604079748889856,-0.10873152279669947,2.4681813072605068,0.826476190283078,1.2134413937687574,-0.2202432315892585,-0.0075118285948192216,-2.6038483821997875,-0.10888392708698907,2.4681821257803174,0.826474908251239,-5.500500849567039e-05,0.00023109746799674215,-0.0003232164502369629,-0.00025275695597634336,-0.0001343770276512414,0.00036814496157664117,-0.000465335954696842,0.0,0.0,0.0,0.0,0.0,0.0,0.0,6.594065498899404e-05,-6.933889256000025e-05,8.951741823529091e-05,0.00023136669006840194,-0.00015240429028960667,8.18519810596996e-07,-1.2820318389117347e-06,5.500500849567039e-05,-0.00023109746799674215,0.0003232164502369629,0.00025275695597634336,0.0001343770276512414,-0.00036814496157664117,0.000465335954696842,0.22445029020309448,19.768823623657227,0.2483184039592743,-20.130342483520508,-0.3976340889930725,-2.4758944511413574,0.23471395671367645,0
10,0.045005083084106445,-0.22445029020309448,-19.768823623657227,-0.2483184039592743,20.130342483520508,0.3976340889930725,2.4758944511413574,-0.23471395671367645,0.0,0.0,0.0,0.0,0.0,0.0,0.0,-0.22824281697329002,-0.004492651738196931,-0.07628801465465192,0.36340207896580706,-0.1874693022567255,0.11534694364616957,-0.2421579519471178,1.2133754531137684,-0.2201738926966985,-0.0076013460130545125,-2.604079748889856,-0.10873152279669947,2.4681813072605068,0.826476190283078,1.2134413937687574,-0.2202432315892585,-0.0075118285948192216,-2.6038483821997875,-0.10888392708698907,2.4681821257803174,0.826474908251239,-5.500500849567039e-05,0.00023109746799674215,-0.0003232164502369629,-0.00025275695597634336,-0.0001343770276512414,0.00036814496157664117,-0.000465335954696842,0.0,0.0,0.0,0.0,0.0,0.0,0.0,6.594065498899404e-05,-6.933889256000025e-05,8.951741823529091e-05,0.00023136669006840194,-0.00015240429028960667,8.18519810596996e-07,-1.2820318389117347e-06,5.500500849567039e-05,-0.00023109746799674215,0.0003232164502369629,0.00025275695597634336,0.0001343770276512414,-0.00036814496157664117,0.000465335954696842,0.22445029020309448,19.768823623657227,0.2483184039592743,-20.130342483520508,-0.3976340889930725,-2.4758944511413574,0.23471395671367645,0
11,0.04999351501464844,-0.22445029020309448,-19.745019912719727,-0.2721221148967743,20.154146194458008,0.3976340889930725,2.4887118339538574,-0.23471395671367645,0.0,0.0,0.0,0.0,0.0,0.0,0.0,-0.2315701601090744,-0.0023080357781998934,-0.07827638350984895,0.3600684010080978,-0.18798541722944961,0.11459726567033894,-0.24228595870893413,1.213375464136983,-0.22017556313255374,-0.007599675577199249,-2.604081419325711,-0.10873152277867001,2.46817823026407,0.8264736727328073,1.2134413937687574,-0.2202432315892585,-0.0075118285948192216,-2.6038483821997875,-0.10888392708698907,2.4681821257803174,0.826474908251239,-0.0005742941480872082,-3.142801626877184e-05,-0.0003542205761692703,-0.0006261523070882612,-0.00014589361271122032,-0.00020581420186927855,-0.0002543227596620296,0.0,0.0,0.0,0.0,0.0,0.0,0.0,6.592963177443067e-05,-6.76684567047503e-05,8.784698238002708e-05,0.00023303712592337433,-0.0001524043083190596,3.8955162473541805e-06,1.2355184317858203e-06,0.0005742941480872082,3.142801626877184e-05,0.0003542205761692703,0.0006261523070882612,0.00014589361271122032,0.00020581420186927855,0.0002543227596620296,0.22445029020309448,19.745019912719727,0.2721221148967743,-20.154146194458008,-0.3976340889930725,-2.4887118339538574,0.23471395671367645,0
12,0.05499386787414551,-0.22445029020309448,-19.745019912719727,-0.2721221148967743,20.154146194458008,0.3976340889930725,2.4887118339538574,-0.23471395671367645,0.0,0.0,0.0,0.0,0.0,0.0,0.0,-0.2315701601090744,-0.0023080357781998934,-0.07827638350984895,0.3600684010080978,-0.18798541722944961,0.11459726567033894,-0.24228595870893413,1.213375464136983,-0.22017556313255374,-0.007599675577199249,-2.604081419325711,-0.10873152277867001,2.46817823026407,0.8264736727328073,1.2134413937687574,-0.2202432315892585,-0.0075118285948192216,-2.6038483821997875,-0.10888392708698907,2.4681821257803174,0.826474908251239,-0.0005742941480872082,-3.142801626877184e-05,-0.0003542205761692703,-0.0006261523070882612,-0.00014589361271122032,-0.00020581420186927855,-0.0002543227596620296,0.0,0.0,0.0,0.0,0.0,0.0,0.0,6.592963177443067e-05,-6.76684567047503e-05,8.784698238002708e-05,0.00023303712592337433,-0.0001524043083190596,3.8955162473541805e-06,1.2355184317858203e-06,0.0005742941480872082,3.142801626877184e-05,0.0003542205761692703,0.0006261523070882612,0.00014589361271122032,0.00020581420186927855,0.0002543227596620296,0.22445029020309448,19.745019912719727,0.2721221148967743,-20.154146194458008,-0.3976340889930725,-2.4887118339538574,0.23471395671367645,0
13,0.05999279022216797,-0.24825400114059448,-19.768823623657227,-0.2721221148967743,20.082735061645508,0.3976340889930725,2.4887118339538574,-0.24844686686992645,0.0,0.0,0.0,0.0,0.0,0.0,0.0,-0.22668862277706664,0.002072641959100445,-0.0759150434359316,0.3540765545342985,-0.18947284271295498,0.11347254718742475,-0.24283919880462554,1.2133770583583734,-0.2201738926966985,-0.007599674603008298,-2.604076408018145,-0.10873152277866999,2.468181413524018,0.8264742998144523,1.2134413937687574,-0.2202432315892585,-0.0075118285948192216,-2.6038483821997875,-0.10888392708698907,2.4681821257803174,0.826474908251239,0.00017437231374140666,0.0009971515970675134,0.0001481152659865055,0.000746747993842346,-0.00019173037013298086,2.5641868319101094e-05,0.00043745742190621925,0.0,0.0,0.0,0.0,0.0,0.0,0.0,6.43354103839755e-05,-6.933889256000025e-05,8.784600818907608e-05,0.00022802581835756897,-0.00015240430831908736,7.122562992734061e-07,6.084367867309481e-07,-0.00017437231374140666,-0.0009971515970675134,-0.0001481152659865055,-0.000746747993842346,0.00019173037013298086,-2.5641868319101094e-05,-0.00043745742190621925,0.24825400114059448,19.768823623657227,0.2721221148967743,-20.082735061645508,-0.3976340889930725,-2.4887118339538574,0.24844686686992645,0
14,0.06499314308166504,-0.24825400114059448,-19.768823623657227,-0.2721221148967743,20.082735061645508,0.3976340889930725,2.4887118339538574,-0.24844686686992645,0.0,0.0,0.0,0.0,0.0,0.0,0.0,-0.22668862277706664,0.002072641959100445,-0.0759150434359316,0.3540765545342985,-0.18947284271295498,0.11347254718742475,-0.24283919880462554,1.2133770583583734,-0.2201738926966985,-0.007599674603008298,-2.604076408018145,-0.10873152277866999,2.468181413524018,0.8264742998144523,1.2134413937687574,-0.2202432315892585,-0.0075118285948192216,-2.6038483821997875,-0.10888392708698907,2.4681821257803174,0.826474908251239,0.00017437231374140666,0.0009971515970675134,0.0001481152659865055,0.000746747993842346,-0.00019173037013298086,2.5641868319101094e-05,0.00043745742190621925,0.0,0.0,0.0,0.0,0.0,0.0,0.0,6.43354103839755e-05,-6.933889256000025e-05,8.784600818907608e-05,0.00022802581835756897,-0.00015240430831908736,7.122562992734061e-07,6.084367867309481e-07,-0.00017437231374140666,-0.0009971515970675134,-0.0001481152659865055,-0.000746747993842346,0.00019173037013298086,-2.5641868319101094e-05,-0.00043745742190621925,0.24825400114059448,19.768823623657227,0.2721221148967743,-20.082735061645508,-0.3976340889930725,-2.4887118339538574,0.24844686686992645,0
15,0.0699930191040039,-0.24825400114059448,-19.768823623657227,-0.2721221148967743,20.082735061645508,0.3976340889930725,2.4887118339538574,-0.24844686686992645,0.0,0.0,0.0,0.0,0.0,0.0,0.0,-0.22668862277706664,0.002072641959100445,-0.0759150434359316,0.3540765545342985,-0.18947284271295498,0.11347254718742475,-0.24283919880462554,1.2133770583583734,-0.2201738926966985,-0.007599674603008298,-2.604076408018145,-0.10873152277866999,2.468181413524018,0.8264742998144523,1.2134413937687574,-0.2202432315892585,-0.0075118285948192216,-2.6038483821997875,-0.10888392708698907,2.4681821257803174,0.826474908251239,0.00017437231374140666,0.0009971515970675134,0.0001481152659865055,0.000746747993842346,-0.00019173037013298086,2.5641868319101094e-05,0.00043745742190621925,0.0,0.0,0.0,0.0,0.0,0.0,0.0,6.43354103839755e-05,-6.933889256000025e-05,8.784600818907608e-05,0.00022802581835756897,-0.00015240430831908736,7.122562992734061e-07,6.084367867309481e-07,-0.00017437231374140666,-0.0009971515970675134,-0.0001481152659865055,-0.000746747993842346,0.00019173037013298086,-2.5641868319101094e-05,-0.00043745742190621925,0.24825400114059448,19.768823623657227,0.2721221148967743,-20.082735061645508,-0.3976340889930725,-2.4887118339538574,0.24844686686992645,0
16,0.07500362396240234,-0.24825400114059448,-19.768823623657227,-0.2721221148967743,20.082735061645508,0.3976340889930725,2.4887118339538574,-0.24844686686992645,0.0,0.0,0.0,0.0,0.0,0.0,0.0,-0.22668862277706664,0.002072641959100445,-0.0759150434359316,0.3540765545342985,-0.18947284271295498,0.11347254718742475,-0.24283919880462554,1.2133770583583734,-0.2201738926966985,-0.007599674603008298,-2.604076408018145,-0.10873152277866999,2.468181413524018,0.8264742998144523,1.2134413937687574,-0.2202432315892585,-0.0075118285948192216,-2.6038483821997875,-0.10888392708698907,2.4681821257803174,0.826474908251239,0.00017437231374140666,0.0009971515970675134,0.0001481152659865055,0.000746747993842346,-0.00019173037013298086,2.5641868319101094e-05,0.00043745742190621925,0.0,0.0,0.0,0.0,0.0,0.0,0.0,6.43354103839755e-05,-6.933889256000025e-05,8.784600818907608e-05,0.00022802581835756897,-0.00015240430831908736,7.122562992734061e-07,6.084367867309481e-07,-0.00017437231374140666,-0.0009971515970675134,-0.0001481152659865055,-0.000746747993842346,0.00019173037013298086,-2.5641868319101094e-05,-0.00043745742190621925,0.24825400114059448,19.768823623657227,0.2721221148967743,-20.082735061645508,-0.3976340889930725,-2.4887118339538574,0.24844686686992645,0
17,0.07999801635742188,-0.22445029020309448,-19.717248916625977,-0.2483184039592743,20.130342483520508,0.4031272530555725,2.4951205253601074,-0.21457235515117645,0.0,0.0,0.0,0.0,0.0,0.0,0.0,-0.22807327477778525,0.0024063978905630016,-0.07610483112268247,0.3566840443603164,-0.18961370761602434,0.1139911283059847,-0.24255224296887185,1.2133753876062878,-0.22017751197438487,-0.007601346013038015,-2.604079748889856,-0.10873213313023249,2.4681803353320064,0.8264747310302457,1.2134413937687574,-0.2202432315892585,-0.0075118285948192216,-2.6038483821997875,-0.10888392708698907,2.4681821257803174,0.826474908251239,0.00026638012233642515,0.00017558782484882075,-0.0008794865000374427,-1.5348610573721732e-05,-0.00025863981428657286,-0.0004539898342331438,-0.00126849605265775,0.0,0.0,0.0,0.0,0.0,0.0,0.0,6.600616246954516e-05,-6.57196148736161e-05,8.951741821879369e-05,0.00023136669006840194,-0.0001517939567565879,1.790448310945436e-06,1.7722099332484476e-07,-0.00026638012233642515,-0.00017558782484882075,0.0008794865000374427,1.5348610573721732e-05,0.00025863981428657286,0.0004539898342331438,0.00126849605265775,0.22445029020309448,19.717248916625977,0.2483184039592743,-20.130342483520508,-0.4031272530555725,-2.4951205253601074,0.21457235515117645,0
18,0.08500838279724121,-0.22445029020309448,-19.717248916625977,-0.2483184039592743,20.130342483520508,0.4031272530555725,2.4951205253601074,-0.21457235515117645,0.0,0.0,0.0,0.0,0.0,0.0,0.0,-0.22807327477778525,0.0024063978905630016,-0.07610483112268247,0.3566840443603164,-0.18961370761602434,0.1139911283059847,-0.24255224296887185,1.2133753876062878,-0.22017751197438487,-0.007601346013038015,-2.604079748889856,-0.10873213313023249,2.4681803353320064,0.8264747310302457,1.2134413937687574,-0.2202432315892585,-0.0075118285948192216,-2.6038483821997875,-0.10888392708698907,2.4681821257803174,0.826474908251239,0.00026638012233642515,0.00017558782484882075,-0.0008794865000374427,-1.5348610573721732e-05,-0.00025863981428657286,-0.0004539898342331438,-0.00126849605265775,0.0,0.0,0.0,0.0,0.0,0.0,0.0,6.600616246954516e-05,-6.57196148736161e-05,8.951741821879369e-05,0.00023136669006840194,-0.0001517939567565879,1.790448310945436e-06,1.7722099332484476e-07,-0.00026638012233642515,-0.00017558782484882075,0.0008794865000374427,1.5348610573721732e-05,0.00025863981428657286,0.0004539898342331438,0.00126849605265775,0.22445029020309448,19.717248916625977,0.2483184039592743,-20.130342483520508,-0.4031272530555725,-2.4951205253601074,0.21457235515117645,0
19,0.09000992774963379,-0.24825400114059448,-19.693445205688477,-0.2998931109905243,20.106538772583008,0.3976340889930725,2.4887118339538574,-0.25485557317733765,0.0,0.0,0.0,0.0,0.0,0.0,0.0,-0.23214599547448778,0.013172732596601648,-0.0806256827179539,0.34337014483411343,-0.18957999444459872,0.11231297997141491,-0.24106042726554677,1.2133768287699693,-0.22017918241024015,-0.00759693764069779,-2.6040780784540005,-0.10873152277866999,2.468181408696132,0.826479261053194,1.2134413937687574,-0.2202432315892585,-0.0075118285948192216,-2.6038483821997875,-0.10888392708698907,2.4681821257803174,0.826474908251239,0.0007039544884463419,-0.0007160975964570448,0.0002468447523265528,0.005358770356391678,-0.00010446883867820599,-0.00017365406541841786,0.0005670945960752036,0.0,0.0,0.0,0.0,0.0,0.0,0.0,6.456499878804145e-05,-6.40491790183384e-05,8.510904587856818e-05,0.00022969625421298545,-0.00015240430831908736,7.17084185364314e-07,-4.352801954987662e-06,-0.0007039544884463419,0.0007160975964570448,-0.0002468447523265528,-0.005358770356391678,0.00010446883867820599,0.00017365406541841786,-0.0005670945960752036,0.24825400114059448,19.693445205688477,0.2998931109905243,-20.106538772583008,-0.3976340889930725,-2.4887118339538574,0.25485557317733765,0
20,0.09500718116760254,-0.24825400114059448,-19.693445205688477,-0.2998931109905243,20.106538772583008,0.3976340889930725,2.4887118339538574,-0.25485557317733765,0.0,0.0,0.0,0.0,0.0,0.0,0.0,-0.23214599547448778,0.013172732596601648,-0.0806256827179539,0.34337014483411343,-0.18957999444459872,0.11231297997141491,-0.24106042726554677,1.2133768287699693,-0.22017918241024015,-0.00759693764069779,-2.6040780784540005,-0.10873152277866999,2.468181408696132,0.826479261053194,1.2134413937687574,-0.2202432315892585,-0.0075118285948192216,-2.6038483821997875,-0.10888392708698907,2.4681821257803174,0.826474908251239,0.0007039544884463419,-0.0007160975964570448,0.0002468447523265528,0.005358770356391678,-0.00010446883867820599,-0.00017365406541841786,0.0005670945960752036,0.0,0.0,0.0,0.0,0.0,0.0,0.0,6.456499878804145e-05,-6.40491790183384e-05,8.510904587856818e-05,0.00022969625421298545,-0.00015240430831908736,7.17084185364314e-07,-4.352801954987662e-06,-0.0007039544884463419,0.0007160975964570448,-0.0002468447523265528,-0.005358770356391678,0.00010446883867820599,0.00017365406541841786,-0.0005670945960752036,0.24825400114059448,19.693445205688477,0.2998931109905243,-20.106538772583008,-0.3976340889930725,-2.4887118339538574,0.25485557317733765,0
21,0.10000276565551758,-0.24825400114059448,-19.745019912719727,-0.2245146930217743,20.130342483520508,0.3976340889930725,2.4887118339538574,-0.24112264811992645,0.0,0.0,0.0,0.0,0.0,0.0,0.0,-0.229051997325902,0.01912958045665413,-0.07780248113067144,0.33365557150179453,-0.18974156356684213,0.11144737551073564,-0.2406299236047008,1.2133770583566472,-0.22017556313255374,-0.007603016119724996,-2.604079748889856,-0.10873152261590263,2.4681814130574438,0.8264733267867772,1.2134413937687574,-0.2202432315892585,-0.0075118285948192216,-2.6038483821997875,-0.10888392708698907,2.4681821257803174,0.826474908251239,0.0003855228265554875,0.0002361348071315081,-0.0011718193122946094,0.0005961313134861811,9.272560340747816e-05,-8.29682851888065e-05,-3.89089847622835e-05,0.0,0.0,0.0,0.0,0.0,0.0,0.0,6.433541211015026e-05,-6.76684567047503e-05,9.118752490577461e-05,0.00023136669006840194,-0.0001524044710864425,7.127228736081292e-07,1.5814644618306062e-06,-0.0003855228265554875,-0.0002361348071315081,0.0011718193122946094,-0.0005961313134861811,-9.272560340747816e-05,8.29682851888065e-05,3.89089847622835e-05,0.24825400114059448,19.745019912719727,0.2245146930217743,-20.130342483520508,-0.3976340889930725,-2.4887118339538574,0.24112264811992645,0
22,0.10499048233032227,-0.24825400114059448,-19.745019912719727,-0.2245146930217743,20.130342483520508,0.3976340889930725,2.4887118339538574,-0.24112264811992645,0.0,0.0,0.0,0.0,0.0,0.0,0.0,-0.229051997325902,0.01912958045665413,-0.07780248113067144,0.33365557150179453,-0.18974156356684213,0.11144737551073564,-0.2406299236047008,1.2133770583566472,-0.22017556313255374,-0.007603016119724996,-2.604079748889856,-0.10873152261590263,2.4681814130574438,0.8264733267867772,1.2134413937687574,-0.2202432315892585,-0.0075118285948192216,-2.6038483821997875,-0.10888392708698907,2.4681821257803174,0.826474908251239,0.0003855228265554875,0.0002361348071315081,-0.0011718193122946094,0.0005961313134861811,9.272560340747816e-05,-8.29682851888065e-05,-3.89089847622835e-05,0.0,0.0,0.0,0.0,0.0,0.0,0.0,6.433541211015026e-05,-6.76684567047503e-05,9.118752490577461e-05,0.00023136669006840194,-0.0001524044710864425,7.127228736081292e-07,1.5814644618306062e-06,-0.0003855228265554875,-0.0002361348071315081,0.0011718193122946094,-0.0005961313134861811,-9.272560340747816e-05,8.29682851888065e-05,3.89089847622835e-05,0.24825400114059448,19.745019912719727,0.2245146930217743,-20.130342483520508,-0.3976340889930725,-2.4887118339538574,0.24112264811992645,0
23,0.10999035835266113,-0.2720577120780945,-19.745019912719727,-0.2721221148967743,20.181917190551758,0.4031272530555725,2.4887118339538574,-0.20083944499492645,0.0,0.0,0.0,0.0,0.0,0.0,0.0,-0.2332469666527263,-0.005258703527060682,-0.07805385403119415,0.3680390085064077,-0.18806976488500898,0.11633753778345639,-0.24113438482519978,1.2133767135190598,-0.22017556313255374,-0.007599675577197391,-2.604083368167542,-0.10873248794437014,2.468176821453747,0.8264699083889901,1.2134413937687574,-0.2202432315892585,-0.0075118285948192216,-2.6038483821997875,-0.10888392708698907,2.4681821257803174,0.826474908251239,0.00040540615034166596,-0.0004960801582115711,0.00021008637341779252,-0.0007366319604675319,-0.0003073597312507564,-0.00013356891980156318,-0.001553422701100116,0.0,0.0,0.0,0.0,0.0,0.0,0.0,6.468024969752406e-05,-6.76684567047503e-05,8.78469823781692e-05,0.0002349859677543975,-0.00015143914261893376,5.304326570421125e-06,4.999862248888931e-06,-0.00040540615034166596,0.0004960801582115711,-0.00021008637341779252,0.0007366319604675319,0.0003073597312507564,0.00013356891980156318,0.001553422701100116,0.2720577120780945,19.745019912719727,0.2721221148967743,-20.181917190551758,-0.4031272530555725,-2.4887118339538574,0.20083944499492645,0
24,0.11500692367553711,-0.2720577120780945,-19.745019912719727,-0.2721221148967743,20.181917190551758,0.4031272530555725,2.4887118339538574,-0.20083944499492645,0.0,0.0,0.0,0.0,0.0,0.0,0.0,-0.2332469666527263,-0.005258703527060682,-0.07805385403119415,0.3680390085064077,-0.18806976488500898,0.11633753778345639,-0.24113438482519978,1.2133767135190598,-0.22017556313255374,-0.007599675577197391,-2.604083368167542,-0.10873248794437014,2.468176821453747,0.8264699083889901,1.2134413937687574,-0.2202432315892585,-0.0075118285948192216,-2.6038483821997875,-0.10888392708698907,2.4681821257803174,0.826474908251239,0.00040540615034166596,-0.0004960801582115711,0.00021008637341779252,-0.0007366319604675319,-0.0003073597312507564,-0.00013356891980156318,-0.001553422701100116,0.0,0.0,0.0,0.0,0.0,0.0,0.0,6.468024969752406e-05,-6.76684567047503e-05,8.78469823781692e-05,0.0002349859677543975,-0.00015143914261893376,5.304326570421125e-06,4.999862248888931e-06,-0.00040540615034166596,0.0004960801582115711,-0.00021008637341779252,0.0007366319604675319,0.0003073597312507564,0.00013356891980156318,0.001553422701100116,0.2720577120780945,19.745019912719727,0.2721221148967743,-20.181917190551758,-0.4031272530555725,-2.4887118339538574,0.20083944499492645,0
25,0.12000799179077148,-0.24825400114059448,-19.717248916625977,-0.2998931109905243,20.130342483520508,0.4031272530555725,2.4823031425476074,-0.22830526530742645,0.0,0.0,0.0,0.0,0.0,0.0,0.0,-0.2323635404332948,0.0006428930257289204,-0.07498863203409623,0.3638158376318351,-0.18804233481514684,0.1151203566791958,-0.24160901605242086,1.2133771092375853,-0.22017751197438487,-0.007597726735368108,-2.604079748889856,-0.10873213313624129,2.468177763436753,0.8264730836626719,1.2134413937687574,-0.2202432315892585,-0.0075118285948192216,-2.6038483821997875,-0.10888392708698907,2.4681821257803174,0.826474908251239,0.0006413541140496137,-0.0005765464534572885,0.0004085857930963148,1.3515121064879835e-05,-0.00024372438740334198,-7.851408755365078e-06,-0.0006224389358990158,0.0,0.0,0.0,0.0,0.0,0.0,0.0,6.428453117202082e-05,-6.57196148736161e-05,8.589814054888682e-05,0.00023136669006840194,-0.00015179395074778335,4.362343564157101e-06,1.8245885671230866e-06,-0.0006413541140496137,0.0005765464534572885,-0.0004085857930963148,-1.3515121064879835e-05,0.00024372438740334198,7.851408755365078e-06,0.0006224389358990158,0.24825400114059448,19.717248916625977,0.2998931109905243,-20.130342483520508,-0.4031272530555725,-2.4823031425476074,0.22830526530742645,0
26,0.12503933906555176,-0.24825400114059448,-19.717248916625977,-0.2998931109905243,20.130342483520508,0.4031272530555725,2.4823031425476074,-0.22830526530742645,0.0,0.0,0.0,0.0,0.0,0.0,0.0,-0.2323635404332948,0.0006428930257289204,-0.07498863203409623,0.3638158376318351,-0.18804233481514684,0.1151203566791958,-0.24160901605242086,1.2133771092375853,-0.22017751197438487,-0.007597726735368108,-2.604079748889856,-0.10873213313624129,2.468177763436753,0.8264730836626719,1.2134413937687574,-0.2202432315892585,-0.0075118285948192216,-2.6038483821997875,-0.10888392708698907,2.4681821257803174,0.826474908251239,0.0006413541140496137,-0.0005765464534572885,0.0004085857930963148,1.3515121064879835e-05,-0.00024372438740334198,-7.851408755365078e-06,-0.0006224389358990158,0.0,0.0,0.0,0.0,0.0,0.0,0.0,6.428453117202082e-05,-6.57196148736161e-05,8.589814054888682e-05,0.00023136669006840194,-0.00015179395074778335,4.362343564157101e-06,1.8245885671230866e-06,-0.0006413541140496137,0.0005765464534572885,-0.0004085857930963148,-1.3515121064879835e-05,0.00024372438740334198,7.851408755365078e-06,0.0006224389358990158,0.24825400114059448,19.717248916625977,0.2998931109905243,-20.130342483520508,-0.4031272530555725,-2.4823031425476074,0.22830526530742645,0
27,0.13003325462341309,-0.24825400114059448,-19.745019912719727,-0.2721221148967743,20.181917190551758,0.3912253975868225,2.4758944511413574,-0.24844686686992645,0.0,0.0,0.0,0.0,0.0,0.0,0.0,-0.23433624927903682,0.00046573226015331567,-0.0808798285243531,0.3643110511003527,-0.18766410905916273,0.1149635941265089,-0.24132168034530066,1.2133764372930942,-0.22017556313255374,-0.0075996755651722,-2.604083368167542,-0.10873081070184708,2.4681828204063287,0.8264787708953604,1.2134413937687574,-0.2202432315892585,-0.0075118285948192216,-2.6038483821997875,-0.10888392708698907,2.4681821257803174,0.826474908251239,0.0002980326654796306,0.0005274907716877045,-0.00013478584836311539,-0.0011920900615726556,0.00010415418186674704,0.00023578300261409643,8.790156430006797e-05,0.0,0.0,0.0,0.0,0.0,0.0,0.0,6.495647566318041e-05,-6.76684567047503e-05,8.784697035297846e-05,0.0002349859677543975,-0.00015311638514199644,-6.94626011377153e-07,-3.86264412133297e-06,-0.0002980326654796306,-0.0005274907716877045,0.00013478584836311539,0.0011920900615726556,-0.00010415418186674704,-0.00023578300261409643,-8.790156430006797e-05,0.24825400114059448,19.745019912719727,0.2721221148967743,-20.181917190551758,-0.3912253975868225,-2.4758944511413574,0.24844686686992645,0
28,0.1350252628326416,-0.24825400114059448,-19.745019912719727,-0.2721221148967743,20.181917190551758,0.3912253975868225,2.4758944511413574,-0.24844686686992645,0.0,0.0,0.0,0.0,0.0,0.0,0.0,-0.23433624927903682,0.00046573226015331567,-0.0808798285243531,0.3643110511003527,-0.18766410905916273,0.1149635941265089,-0.24132168034530066,1.2133764372930942,-0.22017556313255374,-0.0075996755651722,-2.604083368167542,-0.10873081070184708,2.4681828204063287,0.8264787708953604,1.2134413937687574,-0.2202432315892585,-0.0075118285948192216,-2.6038483821997875,-0.10888392708698907,2.4681821257803174,0.826474908251239,0.0002980326654796306,0.0005274907716877045,-0.00013478584836311539,-0.0011920900615726556,0.00010415418186674704,0.00023578300261409643,8.790156430006797e-05,0.0,0.0,0.0,0.0,0.0,0.0,0.0,6.495647566318041e-05,-6.76684567047503e-05,8.784697035297846e-05,0.0002349859677543975,-0.00015311638514199644,-6.94626011377153e-07,-3.86264412133297e-06,-0.0002980326654796306,-0.0005274907716877045,0.00013478584836311539,0.0011920900615726556,-0.00010415418186674704,-0.00023578300261409643,-8.790156430006797e-05,0.24825400114059448,19.745019912719727,0.2721221148967743,-20.181917190551758,-0.3912253975868225,-2.4758944511413574,0.24844686686992645,0
29,0.1400301456451416,-0.24825400114059448,-19.768823623657227,-0.2483184039592743,20.130342483520508,0.3857322335243225,2.4887118339538574,-0.21457235515117645,0.0,0.0,0.0,0.0,0.0,0.0,0.0,-0.23188608907127695,0.002939999452022311,-0.07884755997621891,0.3592833849964988,-0.18829216397294976,0.11386346978209438,-0.24186171305859727,1.213377134848865,-0.2201738926966985,-0.007601346013054445,-2.604079748889856,-0.10873020035028458,2.468181409342745,0.8264704329055855,1.2134413937687574,-0.2202432315892585,-0.0075118285948192216,-2.6038483821997875,-0.10888392708698907,2.4681821257803174,0.826474908251239,0.0006537148666240446,0.0011624464494996037,-0.0006129113630020487,-0.0005038626971251807,0.00021776115046981095,-0.00021789504104742152,-0.001201618143847982,0.0,0.0,0.0,0.0,0.0,0.0,0.0,6.425891989247923e-05,-6.933889256000025e-05,8.951741823522326e-05,0.00023136669006840194,-0.00015372673670449588,7.164375723789362e-07,4.475345653509599e-06,-0.0006537148666240446,-0.0011624464494996037,0.0006129113630020487,0.0005038626971251807,-0.00021776115046981095,0.00021789504104742152,0.001201618143847982,0.24825400114059448,19.768823623657227,0.2483184039592743,-20.130342483520508,-0.3857322335243225,-2.4887118339538574,0.21457235515117645,0
30,0.14503169059753418,-0.24825400114059448,-19.768823623657227,-0.2483184039592743,20.130342483520508,0.3857322335243225,2.4887118339538574,-0.21457235515117645,0.0,0.0,0.0,0.0,0.0,0.0,0.0,-0.23188608907127695,0.002939999452022311,-0.07884755997621891,0.3592833849964988,-0.18829216397294976,0.11386346978209438,-0.24186171305859727,1.213377134848865,-0.2201738926966985,-0.007601346013054445,-2.604079748889856,-0.10873020035028458,2.468181409342745,0.8264704329055855,1.2134413937687574,-0.2202432315892585,-0.0075118285948192216,-2.6038483821997875,-0.10888392708698907,2.4681821257803174,0.826474908251239,0.0006537148666240446,0.0011624464494996037,-0.0006129113630020487,-0.0005038626971251807,0.00021776115046981095,-0.00021789504104742152,-0.001201618143847982,0.0,0.0,0.0,0.0,0.0,0.0,0.0,6.425891989247923e-05,-6.933889256000025e-05,8.951741823522326e-05,0.00023136669006840194,-0.00015372673670449588,7.164375723789362e-07,4.475345653509599e-06,-0.0006537148666240446,-0.0011624464494996037,0.0006129113630020487,0.0005038626971251807,-0.00021776115046981095,0.00021789504104742152,0.001201618143847982,0.24825400114059448,19.768823623657227,0.2483184039592743,-20.130342483520508,-0.3857322335243225,-2.4887118339538574,0.21457235515117645,0
31,0.15002059936523438,-0.22445029020309448,-19.768823623657227,-0.2998931109905243,20.130342483520508,0.3912253975868225,2.4823031425476074,-0.23471395671367645,0.0,0.0,0.0,0.0,0.0,0.0,0.0,-0.23207222939465721,0.005930493022527039,-0.0813334621024791,0.3560997512533889,-0.18842053468095757,0.11372752057012257,-0.24220542350038787,1.2133754635071323,-0.2201738926966985,-0.007597726735368108,-2.604079748889856,-0.10873081070184708,2.4681809352688058,0.8264759140291034,1.2134413937687574,-0.2202432315892585,-0.0075118285948192216,-2.6038483821997875,-0.10888392708698907,2.4681821257803174,0.826474908251239,5.747822692232553e-05,0.0011914188231787089,0.0001817399036860053,-0.00054539968114872,0.00023486449716705199,0.0003125686847481511,-0.0005034294765226903,0.0,0.0,0.0,0.0,0.0,0.0,0.0,6.593026162504678e-05,-6.933889256000025e-05,8.589814054888682e-05,0.00023136669006840194,-0.00015311638514199644,1.1905115115951048e-06,-1.0057778643268733e-06,-5.747822692232553e-05,-0.0011914188231787089,-0.0001817399036860053,0.00054539968114872,-0.00023486449716705199,-0.0003125686847481511,0.0005034294765226903,0.22445029020309448,19.768823623657227,0.2998931109905243,-20.130342483520508,-0.3912253975868225,-2.4823031425476074,0.23471395671367645,0
32,0.1550130844116211,-0.22445029020309448,-19.768823623657227,-0.2998931109905243,20.130342483520508,0.3912253975868225,2.4823031425476074,-0.23471395671367645,0.0,0.0,0.0,0.0,0.0,0.0,0.0,-0.23207222939465721,0.005930493022527039,-0.0813334621024791,0.3560997512533889,-0.18842053468095757,0.11372752057012257,-0.24220542350038787,1.2133754635071323,-0.2201738926966985,-0.007597726735368108,-2.604079748889856,-0.10873081070184708,2.4681809352688058,0.8264759140291034,1.2134413937687574,-0.2202432315892585,-0.0075118285948192216,-2.6038483821997875,-0.10888392708698907,2.4681821257803174,0.826474908251239,5.747822692232553e-05,0.0011914188231787089,0.0001817399036860053,-0.00054539968114872,0.00023486449716705199,0.0003125686847481511,-0.0005034294765226903,0.0,0.0,0.0,0.0,0.0,0.0,0.0,6.593026162504678e-05,-6.933889256000025e-05,8.589814054888682e-05,0.00023136669006840194,-0.00015311638514199644,1.1905115115951048e-06,-1.0057778643268733e-06,-5.747822692232553e-05,-0.0011914188231787089,-0.0001817399036860053,0.00054539968114872,-0.00023486449716705199,-0.0003125686847481511,0.0005034294765226903,0.22445029020309448,19.768823623657227,0.2998931109905243,-20.130342483520508,-0.3912253975868225,-2.4823031425476074,0.23471395671367645,0
33,0.16003155708312988,-0.24825400114059448,-19.745019912719727,-0.2721221148967743,20.154146194458008,0.3976340889930725,2.4887118339538574,-0.27591270208358765,0.0,0.0,0.0,0.0,0.0,0.0,0.0,-0.23061187226107158,0.00738048674896911,-0.08192000636091047,0.35509570718020916,-0.18918625012621834,0.11420697817256983,-0.2430146317725656,1.2133764458080705,-0.22017556313255374,-0.007597545021589386,-2.604081419325711,-0.10873152277866999,2.468181372459015,0.8264775482465375,1.2134413937687574,-0.2202432315892585,-0.0075118285948192216,-2.6038483821997875,-0.10888392708698907,2.4681821257803174,0.826474908251239,0.0001285904081536163,0.0005447989935765844,-0.0005303461850929518,-0.0006270787064994944,0.0014181165249955551,1.733684984674712e-05,0.001998753218428465,0.0,0.0,0.0,0.0,0.0,0.0,0.0,6.494796068690079e-05,-6.76684567047503e-05,8.571642677016478e-05,0.00023303712592337433,-0.00015240430831908736,7.533213022270502e-07,-2.639995298481246e-06,-0.0001285904081536163,-0.0005447989935765844,0.0005303461850929518,0.0006270787064994944,-0.0014181165249955551,-1.733684984674712e-05,-0.001998753218428465,0.24825400114059448,19.745019912719727,0.2721221148967743,-20.154146194458008,-0.3976340889930725,-2.4887118339538574,0.27591270208358765,0
34,0.1650245189666748,-0.24825400114059448,-19.745019912719727,-0.2721221148967743,20.154146194458008,0.3976340889930725,2.4887118339538574,-0.27591270208358765,0.0,0.0,0.0,0.0,0.0,0.0,0.0,-0.23061187226107158,0.00738048674896911,-0.08192000636091047,0.35509570718020916,-0.18918625012621834,0.11420697817256983,-0.2430146317725656,1.2133764458080705,-0.22017556313255374,-0.007597545021589386,-2.604081419325711,-0.10873152277866999,2.468181372459015,0.8264775482465375,1.2134413937687574,-0.2202432315892585,-0.0075118285948192216,-2.6038483821997875,-0.10888392708698907,2.4681821257803174,0.826474908251239,0.0001285904081536163,0.0005447989935765844,-0.0005303461850929518,-0.0006270787064994944,0.0014181165249955551,1.733684984674712e-05,0.001998753218428465,0.0,0.0,0.0,0.0,0.0,0.0,0.0,6.494796068690079e-05,-6.76684567047503e-05,8.571642677016478e-05,0.00023303712592337433,-0.00015240430831908736,7.533213022270502e-07,-2.639995298481246e-06,-0.0001285904081536163,-0.0005447989935765844,0.0005303461850929518,0.0006270787064994944,-0.0014181165249955551,-1.733684984674712e-05,-0.001998753218428465,0.24825400114059448,19.745019912719727,0.2721221148967743,-20.154146194458008,-0.3976340889930725,-2.4887118339538574,0.27591270208358765,0
35,0.17003178596496582,-0.22445029020309448,-19.717248916625977,-0.2483184039592743,20.130342483520508,0.3976340889930725,2.4887118339538574,-0.20724813640117645,0.0,0.0,0.0,0.0,0.0,0.0,0.0,-0.23028448633027118,0.0063639792126680165,-0.08046783710687268,0.35504883861659703,-0.18907235274697987,0.1142739146295366,-0.24238038144567906,1.2133754559097885,-0.22017751197438487,-0.007601346001027464,-2.604079748889856,-0.10873152277866999,2.4681778756004573,0.8264727591247507,1.2134413937687574,-0.2202432315892585,-0.0075118285948192216,-2.6038483821997875,-0.10888392708698907,2.4681821257803174,0.826474908251239,-0.0002271826016485347,-0.00045536982904006263,-0.0008048046258539479,1.4174516523562649e-05,8.530773915824141e-07,-0.00014700882058611228,-0.0015363533288053673,0.0,0.0,0.0,0.0,0.0,0.0,0.0,6.593785896891191e-05,-6.57196148736161e-05,8.951740620824229e-05,0.00023136669006840194,-0.00015240430831908736,4.250179860054715e-06,2.149126488326658e-06,0.0002271826016485347,0.00045536982904006263,0.0008048046258539479,-1.4174516523562649e-05,-8.530773915824141e-07,0.00014700882058611228,0.0015363533288053673,0.22445029020309448,19.717248916625977,0.2483184039592743,-20.130342483520508,-0.3976340889930725,-2.4887118339538574,0.20724813640117645,0
36,0.1750330924987793,-0.22445029020309448,-19.717248916625977,-0.2483184039592743,20.130342483520508,0.3976340889930725,2.4887118339538574,-0.20724813640117645,0.0,0.0,0.0,0.0,0.0,0.0,0.0,-0.23028448633027118,0.0063639792126680165,-0.08046783710687268,0.35504883861659703,-0.18907235274697987,0.1142739146295366,-0.24238038144567906,1.2133754559097885,-0.22017751197438487,-0.007601346001027464,-2.604079748889856,-0.10873152277866999,2.4681778756004573,0.8264727591247507,1.2134413937687574,-0.2202432315892585,-0.0075118285948192216,-2.6038483821997875,-0.10888392708698907,2.4681821257803174,0.826474908251239,-0.0002271826016485347,-0.00045536982904006263,-0.0008048046258539479,1.4174516523562649e-05,8.530773915824141e-07,-0.00014700882058611228,-0.0015363533288053673,0.0,0.0,0.0,0.0,0.0,0.0,0.0,6.593785896891191e-05,-6.57196148736161e-05,8.951740620824229e-05,0.00023136669006840194,-0.00015240430831908736,4.250179860054715e-06,2.149126488326658e-06,0.0002271826016485347,0.00045536982904006263,0.0008048046258539479,-1.4174516523562649e-05,-8.530773915824141e-07,0.00014700882058611228,0.0015363533288053673,0.22445029020309448,19.717248916625977,0.2483184039592743,-20.130342483520508,-0.3976340889930725,-2.4887118339538574,0.20724813640117645,0
37,0.18003082275390625,-0.2720577120780945,-19.745019912719727,-0.2483184039592743,20.130342483520508,0.3976340889930725,2.4823031425476074,-0.23471395671367645,0.0,0.0,0.0,0.0,0.0,0.0,0.0,-0.23439489469882696,0.010261612728389862,-0.0834797777381949,0.3510983227068011,-0.18900946195076906,0.11338288339172585,-0.2420791499052947,1.2133785502255345,-0.22017556313255374,-0.007601346013054445,-2.604079748889856,-0.10873152277866999,2.4681815966142198,0.8264729703384048,1.2134413937687574,-0.2202432315892585,-0.0075118285948192216,-2.6038483821997875,-0.10888392708698907,2.4681821257803174,0.826474908251239,0.0010937175902607577,0.00022797493978508461,-0.0007912494297707044,-0.00048626510290121445,-0.00012170542001398251,0.00017060463315643257,-0.0004950267188128192,0.0,0.0,0.0,0.0,0.0,0.0,0.0,6.28435432228347e-05,-6.76684567047503e-05,8.951741823522326e-05,0.00023136669006840194,-0.00015240430831908736,5.291660976070034e-07,1.937912834204525e-06,-0.0010937175902607577,-0.00022797493978508461,0.0007912494297707044,0.00048626510290121445,0.00012170542001398251,-0.00017060463315643257,0.0004950267188128192,0.2720577120780945,19.745019912719727,0.2483184039592743,-20.130342483520508,-0.3976340889930725,-2.4823031425476074,0.23471395671367645,0
38,0.18502521514892578,-0.2720577120780945,-19.745019912719727,-0.2483184039592743,20.130342483520508,0.3976340889930725,2.4823031425476074,-0.23471395671367645,0.0,0.0,0.0,0.0,0.0,0.0,0.0,-0.23439489469882696,0.010261612728389862,-0.0834797777381949,0.3510983227068011,-0.18900946195076906,0.11338288339172585,-0.2420791499052947,1.2133785502255345,-0.22017556313255374,-0.007601346013054445,-2.604079748889856,-0.10873152277866999,2.4681815966142198,0.8264729703384048,1.2134413937687574,-0.2202432315892585,-0.0075118285948192216,-2.6038483821997875,-0.10888392708698907,2.4681821257803174,0.826474908251239,0.0010937175902607577,0.00022797493978508461,-0.0007912494297707044,-0.00048626510290121445,-0.00012170542001398251,0.00017060463315643257,-0.0004950267188128192,0.0,0.0,0.0,0.0,0.0,0.0,0.0,6.28435432228347e-05,-6.76684567047503e-05,8.951741823522326e-05,0.00023136669006840194,-0.00015240430831908736,5.291660976070034e-07,1.937912834204525e-06,-0.0010937175902607577,-0.00022797493978508461,0.0007912494297707044,0.00048626510290121445,0.00012170542001398251,-0.00017060463315643257,0.0004950267188128192,0.2720577120780945,19.745019912719727,0.2483184039592743,-20.130342483520508,-0.3976340889930725,-2.4823031425476074,0.23471395671367645,0
39,0.1900327205657959,-0.2720577120780945,-19.745019912719727,-0.2483184039592743,20.130342483520508,0.3976340889930725,2.4823031425476074,-0.23471395671367645,0.0,0.0,0.0,0.0,0.0,0.0,0.0,-0.23439489469882696,0.010261612728389862,-0.0834797777381949,0.3510983227068011,-0.18900946195076906,0.11338288339172585,-0.2420791499052947,1.2133785502255345,-0.22017556313255374,-0.007601346013054445,-2.604079748889856,-0.10873152277866999,2.4681815966142198,0.8264729703384048,1.2134413937687574,-0.2202432315892585,-0.0075118285948192216,-2.6038483821997875,-0.10888392708698907,2.4681821257803174,0.826474908251239,0.0010937175902607577,0.00022797493978508461,-0.0007912494297707044,-0.00048626510290121445,-0.00012170542001398251,0.00017060463315643257,-0.0004950267188128192,0.0,0.0,0.0,0.0,0.0,0.0,0.0,6.28435432228347e-05,-6.76684567047503e-05,8.951741823522326e-05,0.00023136669006840194,-0.00015240430831908736,5.291660976070034e-07,1.937912834204525e-06,-0.0010937175902607577,-0.00022797493978508461,0.0007912494297707044,0.00048626510290121445,0.00012170542001398251,-0.00017060463315643257,0.0004950267188128192,0.2720577120780945,19.745019912719727,0.2483184039592743,-20.130342483520508,-0.3976340889930725,-2.4823031425476074,0.23471395671367645,0
40,0.19501161575317383,-0.2720577120780945,-19.745019912719727,-0.2483184039592743,20.130342483520508,0.3976340889930725,2.4823031425476074,-0.23471395671367645,0.0,0.0,0.0,0.0,0.0,0.0,0.0,-0.23439489469882696,0.010261612728389862,-0.0834797777381949,0.3510983227068011,-0.18900946195076906,0.11338288339172585,-0.2420791499052947,1.2133785502255345,-0.22017556313255374,-0.007601346013054445,-2.604079748889856,-0.10873152277866999,2.4681815966142198,0.8264729703384048,1.2134413937687574,-0.2202432315892585,-0.0075118285948192216,-2.6038483821997875,-0.10888392708698907,2.4681821257803174,0.826474908251239,0.0010937175902607577,0.00022797493978508461,-0.0007912494297707044,-0.00048626510290121445,-0.00012170542001398251,0.00017060463315643257,-0.0004950267188128192,0.0,0.0,0.0,0.0,0.0,0.0,0.0,6.28435432228347e-05,-6.76684567047503e-05,8.951741823522326e-05,0.00023136669006840194,-0.00015240430831908736,5.291660976070034e-07,1.937912834204525e-06,-0.0010937175902607577,-0.00022797493978508461,0.0007912494297707044,0.00048626510290121445,0.00012170542001398251,-0.00017060463315643257,0.0004950267188128192,0.2720577120780945,19.745019912719727,0.2483184039592743,-20.130342483520508,-0.3976340889930725,-2.4823031425476074,0.23471395671367645,0
41,0.20002985000610352,-0.19667929410934448,-19.693445205688477,-0.2721221148967743,20.154146194458008,0.3976340889930725,2.4887118339538574,-0.22830526530742645,0.0,0.0,0.0,0.0,0.0,0.0,0.0,-0.23343343920686832,0.00882661491440273,-0.07871190952243194,0.354361059718963,-0.18931009573607935,0.11475173785519693,-0.24231476394181645,1.2133727493346642,-0.22017918241024015,-0.007599675577199249,-2.6040834856200634,-0.10873152277866999,2.4681812567170804,0.8264729649939776,1.2134413937687574,-0.2202432315892585,-0.0075118285948192216,-2.6038483821997875,-0.10888392708698907,2.4681821257803174,0.826474908251239,-0.0006800629958210139,-0.0004840259502080191,0.00020217101437945304,-0.0004858836981441303,6.604174192109598e-05,-0.00013972588751675754,-0.0005273761953542307,0.0,0.0,0.0,0.0,0.0,0.0,0.0,6.86444340931569e-05,-6.40491790183384e-05,8.784698238002708e-05,0.00023510342027588393,-0.00015240430831908736,8.690632369301454e-07,1.9432572614386245e-06,0.0006800629958210139,0.0004840259502080191,-0.00020217101437945304,0.0004858836981441303,-6.604174192109598e-05,0.00013972588751675754,0.0005273761953542307,0.19667929410934448,19.693445205688477,0.2721221148967743,-20.154146194458008,-0.3976340889930725,-2.4887118339538574,0.22830526530742645,0
42,0.2050304412841797,-0.19667929410934448,-19.693445205688477,-0.2721221148967743,20.154146194458008,0.3976340889930725,2.4887118339538574,-0.22830526530742645,0.0,0.0,0.0,0.0,0.0,0.0,0.0,-0.23343343920686832,0.00882661491440273,-0.07871190952243194,0.354361059718963,-0.18931009573607935,0.11475173785519693,-0.24231476394181645,1.2133727493346642,-0.22017918241024015,-0.007599675577199249,-2.6040834856200634,-0.10873152277866999,2.4681812567170804,0.8264729649939776,1.2134413937687574,-0.2202432315892585,-0.0075118285948192216,-2.6038483821997875,-0.10888392708698907,2.4681821257803174,0.826474908251239,-0.0006800629958210139,-0.0004840259502080191,0.00020217101437945304,-0.0004858836981441303,6.604174192109598e-05,-0.00013972588751675754,-0.0005273761953542307,0.0,0.0,0.0,0.0,0.0,0.0,0.0,6.86444340931569e-05,-6.40491790183384e-05,8.784698238002708e-05,0.00023510342027588393,-0.00015240430831908736,8.690632369301454e-07,1.9432572614386245e-06,0.0006800629958210139,0.0004840259502080191,-0.00020217101437945304,0.0004858836981441303,-6.604174192109598e-05,0.00013972588751675754,0.0005273761953542307,0.19667929410934448,19.693445205688477,0.2721221148967743,-20.154146194458008,-0.3976340889930725,-2.4887118339538574,0.22830526530742645,0
43,0.21003079414367676,-0.22445029020309448,-19.792627334594727,-0.2721221148967743,20.106538772583008,0.4031272530555725,2.4887118339538574,-0.25485557317733765,0.0,0.0,0.0,0.0,0.0,0.0,0.0,-0.2357114000326609,0.007826350414625509,-0.08021697860791735,0.3519588492182205,-0.18841836368073378,0.11459853246866274,-0.2424119856427103,1.2133733981532624,-0.2201722222608432,-0.007599675577199249,-2.604078078465665,-0.10873213313023249,2.468179955307195,0.826476081867442,1.2134413937687574,-0.2202432315892585,-0.0075118285948192216,-2.6038483821997875,-0.10888392708698907,2.4681821257803174,0.826474908251239,-2.5866584673127786e-05,0.0011894908965009896,-0.00023743535861321292,0.000177695265584611,-0.0002471811716279755,-0.00016555459456534777,0.0005595122683868082,0.0,0.0,0.0,0.0,0.0,0.0,0.0,6.799561549497568e-05,-7.100932841527796e-05,8.784698238002708e-05,0.00022969626587743264,-0.0001517939567565879,2.1704731225646867e-06,-1.1736162029984953e-06,2.5866584673127786e-05,-0.0011894908965009896,0.00023743535861321292,-0.000177695265584611,0.0002471811716279755,0.00016555459456534777,-0.0005595122683868082,0.22445029020309448,19.792627334594727,0.2721221148967743,-20.106538772583008,-0.4031272530555725,-2.4887118339538574,0.25485557317733765,0
44,0.21503019332885742,-0.22445029020309448,-19.792627334594727,-0.2721221148967743,20.106538772583008,0.4031272530555725,2.4887118339538574,-0.25485557317733765,0.0,0.0,0.0,0.0,0.0,0.0,0.0,-0.2357114000326609,0.007826350414625509,-0.08021697860791735,0.3519588492182205,-0.18841836368073378,0.11459853246866274,-0.2424119856427103,1.2133733981532624,-0.2201722222608432,-0.007599675577199249,-2.604078078465665,-0.10873213313023249,2.468179955307195,0.826476081867442,1.2134413937687574,-0.2202432315892585,-0.0075118285948192216,-2.6038483821997875,-0.10888392708698907,2.4681821257803174,0.826474908251239,-2.5866584673127786e-05,0.0011894908965009896,-0.00023743535861321292,0.000177695265584611,-0.0002471811716279755,-0.00016555459456534777,0.0005595122683868082,0.0,0.0,0.0,0.0,0.0,0.0,0.0,6.799561549497568e-05,-7.100932841527796e-05,8.784698238002708e-05,0.00022969626587743264,-0.0001517939567565879,2.1704731225646867e-06,-1.1736162029984953e-06,2.5866584673127786e-05,-0.0011894908965009896,0.00023743535861321292,-0.000177695265584611,0.0002471811716279755,0.00016555459456534777,-0.0005595122683868082,0.22445029020309448,19.792627334594727,0.2721221148967743,-20.106538772583008,-0.4031272530555725,-2.4887118339538574,0.25485557317733765,0
45,0.22004079818725586,-0.22445029020309448,-19.768823623657227,-0.2721221148967743,20.106538772583008,0.3976340889930725,2.4823031425476074,-0.20724813640117645,0.0,0.0,0.0,0.0,0.0,0.0,0.0,-0.2329266714927594,0.009422759431017424,-0.07904845821484466,0.3510930577312068,-0.1878164914007523,0.11455393058377532,-0.24235420637887306,1.2133733981459238,-0.2201738926966985,-0.007599675577199249,-2.604078078114839,-0.10873152277866999,2.468180698170402,0.8264706654789744,1.2134413937687574,-0.2202432315892585,-0.0075118285948192216,-2.6038483821997875,-0.10888392708698907,2.4681821257803174,0.826474908251239,0.00011624682996446139,0.000821878244452428,-0.00020102244092792018,0.0004264833034107946,-6.70101051457557e-05,0.00019700864212212035,-0.001560595294643483,0.0,0.0,0.0,0.0,0.0,0.0,0.0,6.799562283354987e-05,-6.933889256000025e-05,8.784698238002708e-05,0.00022969591505139775,-0.00015240430831908736,1.4276099151722121e-06,4.242772264628769e-06,-0.00011624682996446139,-0.000821878244452428,0.00020102244092792018,-0.0004264833034107946,6.70101051457557e-05,-0.00019700864212212035,0.001560595294643483,0.22445029020309448,19.768823623657227,0.2721221148967743,-20.106538772583008,-0.3976340889930725,-2.4823031425476074,0.20724813640117645,0
46,0.22503018379211426,-0.22445029020309448,-19.768823623657227,-0.2721221148967743,20.106538772583008,0.3976340889930725,2.4823031425476074,-0.20724813640117645,0.0,0.0,0.0,0.0,0.0,0.0,0.0,-0.2329266714927594,0.009422759431017424,-0.07904845821484466,0.3510930577312068,-0.1878164914007523,0.11455393058377532,-0.24235420637887306,1.2133733981459238,-0.2201738926966985,-0.007599675577199249,-2.604078078114839,-0.10873152277866999,2.468180698170402,0.8264706654789744,1.2134413937687574,-0.2202432315892585,-0.0075118285948192216,-2.6038483821997875,-0.10888392708698907,2.4681821257803174,0.826474908251239,0.00011624682996446139,0.000821878244452428,-0.00020102244092792018,0.0004264833034107946,-6.70101051457557e-05,0.00019700864212212035,-0.001560595294643483,0.0,0.0,0.0,0.0,0.0,0.0,0.0,6.799562283354987e-05,-6.933889256000025e-05,8.784698238002708e-05,0.00022969591505139775,-0.00015240430831908736,1.4276099151722121e-06,4.242772264628769e-06,-0.00011624682996446139,-0.000821878244452428,0.00020102244092792018,-0.0004264833034107946,6.70101051457557e-05,-0.00019700864212212035,0.001560595294643483,0.22445029020309448,19.768823623657227,0.2721221148967743,-20.106538772583008,-0.3976340889930725,-2.4823031425476074,0.20724813640117645,0
47,0.23001813888549805,-0.19667929410934448,-19.768823623657227,-0.2998931109905243,20.130342483520508,0.4031272530555725,2.4951205253601074,-0.25485557317733765,0.0,0.0,0.0,0.0,0.0,0.0,0.0,-0.2327838251720694,0.003272738805166967,-0.07823132834958199,0.3528864812583575,-0.18779490503448296,0.11542749460242172,-0.2418917644564758,1.213371143186411,-0.2201738926966985,-0.007597725761177157,-2.604079748889854,-0.10873213313023249,2.4681796376198326,0.8264753234374516,1.2134413937687574,-0.2202432315892585,-0.0075118285948192216,-2.6038483821997875,-0.10888392708698907,2.4681821257803174,0.826474908251239,-0.0011171032423189118,0.0006420244370154768,0.0006705544603571963,-5.066668923123885e-05,-0.0002476827106767627,-0.00010275699663977599,0.0006156562424391325,0.0,0.0,0.0,0.0,0.0,0.0,0.0,7.025058234644277e-05,-6.933889256000025e-05,8.589716635793582e-05,0.00023136669006662558,-0.0001517939567565879,2.4881604847593053e-06,-4.1518621252123467e-07,0.0011171032423189118,-0.0006420244370154768,-0.0006705544603571963,5.066668923123885e-05,0.0002476827106767627,0.00010275699663977599,-0.0006156562424391325,0.19667929410934448,19.768823623657227,0.2998931109905243,-20.130342483520508,-0.4031272530555725,-2.4951205253601074,0.25485557317733765,0
48,0.23502421379089355,-0.19667929410934448,-19.768823623657227,-0.2998931109905243,20.130342483520508,0.4031272530555725,2.4951205253601074,-0.25485557317733765,0.0,0.0,0.0,0.0,0.0,0.0,0.0,-0.2327838251720694,0.003272738805166967,-0.07823132834958199,0.3528864812583575,-0.18779490503448296,0.11542749460242172,-0.2418917644564758,1.213371143186411,-0.2201738926966985,-0.007597725761177157,-2.604079748889854,-0.10873213313023249,2.4681796376198326,0.8264753234374516,1.2134413937687574,-0.2202432315892585,-0.0075118285948192216,-2.6038483821997875,-0.10888392708698907,2.4681821257803174,0.826474908251239,-0.0011171032423189118,0.0006420244370154768,0.0006705544603571963,-5.066668923123885e-05,-0.0002476827106767627,-0.00010275699663977599,0.0006156562424391325,0.0,0.0,0.0,0.0,0.0,0.0,0.0,7.025058234644277e-05,-6.933889256000025e-05,8.589716635793582e-05,0.00023136669006662558,-0.0001517939567565879,2.4881604847593053e-06,-4.1518621252123467e-07,0.0011171032423189118,-0.0006420244370154768,-0.0006705544603571963,5.066668923123885e-05,0.0002476827106767627,0.00010275699663977599,-0.0006156562424391325,0.19667929410934448,19.768823623657227,0.2998931109905243,-20.130342483520508,-0.4031272530555725,-2.4951205253601074,0.25485557317733765,0
49,0.240020751953125,-0.19667929410934448,-19.768823623657227,-0.2998931109905243,20.130342483520508,0.4031272530555725,2.4951205253601074,-0.25485557317733765,0.0,0.0,0.0,0.0,0.0,0.0,0.0,-0.2327838251720694,0.003272738805166967,-0.07823132834958199,0.3528864812583575,-0.18779490503448296,0.11542749460242172,-0.2418917644564758,1.213371143186411,-0.2201738926966985,-0.007597725761177157,-2.604079748889854,-0.10873213313023249,2.4681796376198326,0.8264753234374516,1.2134413937687574,-0.2202432315892585,-0.0075118285948192216,-2.6038483821997875,-0.10888392708698907,2.4681821257803174,0.826474908251239,-0.0011171032423189118,0.0006420244370154768,0.0006705544603571963,-5.066668923123885e-05,-0.0002476827106767627,-0.00010275699663977599,0.0006156562424391325,0.0,0.0,0.0,0.0,0.0,0.0,0.0,7.025058234644277e-05,-6.933889256000025e-05,8.589716635793582e-05,0.00023136669006662558,-0.0001517939567565879,2.4881604847593053e-06,-4.1518621252123467e-07,0.0011171032423189118,-0.0006420244370154768,-0.0006705544603571963,5.066668923123885e-05,0.0002476827106767627,0.00010275699663977599,-0.0006156562424391325,0.19667929410934448,19.768823623657227,0.2998931109905243,-20.130342483520508,-0.4031272530555725,-2.4951205253601074,0.25485557317733765,0
50,0.24501776695251465,-0.22445029020309448,-19.745019912719727,-0.2245146930217743,20.106538772583008,0.3857322335243225,2.4823031425476074,-0.24112264811992645,0.0,0.0,0.0,0.0,0.0,0.0,0.0,-0.23123587394489384,0.010729003257840514,-0.07754689680120605,0.3482248288597579,-0.18789534137933728,0.11518721008385584,-0.24175935224307038,1.2133754303204933,-0.22017556313255374,-0.007603016448904276,-2.6040780869572697,-0.10873020035028458,2.4681821126923587,0.8264748554148913,1.2134413937687574,-0.2202432315892585,-0.0075118285948192216,-2.6038483821997875,-0.10888392708698907,2.4681821257803174,0.826474908251239,2.5960489192755744e-05,0.0008235736138563841,-0.001370826176910933,0.0004132819878855099,0.00036717295887129365,0.00025249494467957445,0.000172412412765627,0.0,0.0,0.0,0.0,0.0,0.0,0.0,6.596344826403922e-05,-6.76684567047503e-05,9.11878540850548e-05,0.00022970475748218533,-0.00015372673670449588,1.3087958716795356e-08,5.28363477414473e-08,-2.5960489192755744e-05,-0.0008235736138563841,0.001370826176910933,-0.0004132819878855099,-0.00036717295887129365,-0.00025249494467957445,-0.000172412412765627,0.22445029020309448,19.745019912719727,0.2245146930217743,-20.106538772583008,-0.3857322335243225,-2.4823031425476074,0.24112264811992645,0
51,0.2500333786010742,-0.22445029020309448,-19.745019912719727,-0.2245146930217743,20.106538772583008,0.3857322335243225,2.4823031425476074,-0.24112264811992645,0.0,0.0,0.0,0.0,0.0,0.0,0.0,-0.23123587394489384,0.010729003257840514,-0.07754689680120605,0.3482248288597579,-0.18789534137933728,0.11518721008385584,-0.24175935224307038,1.2133754303204933,-0.22017556313255374,-0.007603016448904276,-2.6040780869572697,-0.10873020035028458,2.4681821126923587,0.8264748554148913,1.2134413937687574,-0.2202432315892585,-0.0075118285948192216,-2.6038483821997875,-0.10888392708698907,2.4681821257803174,0.826474908251239,2.5960489192755744e-05,0.0008235736138563841,-0.001370826176910933,0.0004132819878855099,0.00036717295887129365,0.00025249494467957445,0.000172412412765627,0.0,0.0,0.0,0.0,0.0,0.0,0.0,6.596344826403922e-05,-6.76684567047503e-05,9.11878540850548e-05,0.00022970475748218533,-0.00015372673670449588,1.3087958716795356e-08,5.28363477414473e-08,-2.5960489192755744e-05,-0.0008235736138563841,0.001370826176910933,-0.0004132819878855099,-0.00036717295887129365,-0.00025249494467957445,-0.000172412412765627,0.22445029020309448,19.745019912719727,0.2245146930217743,-20.106538772583008,-0.3857322335243225,-2.4823031425476074,0.24112264811992645,0
52,0.25503015518188477,-0.22445029020309448,-19.693445205688477,-0.2998931109905243,20.130342483520508,0.3857322335243225,2.4887118339538574,-0.26858848333358765,0.0,0.0,0.0,0.0,0.0,0.0,0.0,-0.23047411885749028,0.00015142351738587525,-0.08013679638072742,0.35479991600722377,-0.18839236483860142,0.1161748272689791,-0.24034266802859267,1.2133747756869635,-0.22017918241024015,-0.007597726735368108,-2.6040797488899043,-0.10873020035028458,2.4681781948433184,0.8264806154674504,1.2134413937687574,-0.2202432315892585,-0.0075118285948192216,-2.6038483821997875,-0.10888392708698907,2.4681821257803174,0.826474908251239,0.00022907309390735506,-0.0013148098611069996,0.00025281227422416995,5.7499186426898813e-05,0.00032698731440240476,-4.139484463964367e-06,0.0015798106092094618,0.0,0.0,0.0,0.0,0.0,0.0,0.0,6.661808179386774e-05,-6.40491790183384e-05,8.589814054888682e-05,0.00023136669011680766,-0.00015372673670449588,3.930936999019252e-06,-5.707216211403576e-06,-0.00022907309390735506,0.0013148098611069996,-0.00025281227422416995,-5.7499186426898813e-05,-0.00032698731440240476,4.139484463964367e-06,-0.0015798106092094618,0.22445029020309448,19.693445205688477,0.2998931109905243,-20.130342483520508,-0.3857322335243225,-2.4887118339538574,0.26858848333358765,0
53,0.26003217697143555,-0.22445029020309448,-19.693445205688477,-0.2998931109905243,20.130342483520508,0.3857322335243225,2.4887118339538574,-0.26858848333358765,0.0,0.0,0.0,0.0,0.0,0.0,0.0,-0.23047411885749028,0.00015142351738587525,-0.08013679638072742,0.35479991600722377,-0.18839236483860142,0.1161748272689791,-0.24034266802859267,1.2133747756869635,-0.22017918241024015,-0.007597726735368108,-2.6040797488899043,-0.10873020035028458,2.4681781948433184,0.8264806154674504,1.2134413937687574,-0.2202432315892585,-0.0075118285948192216,-2.6038483821997875,-0.10888392708698907,2.4681821257803174,0.826474908251239,0.00022907309390735506,-0.0013148098611069996,0.00025281227422416995,5.7499186426898813e-05,0.00032698731440240476,-4.139484463964367e-06,0.0015798106092094618,0.0,0.0,0.0,0.0,0.0,0.0,0.0,6.661808179386774e-05,-6.40491790183384e-05,8.589814054888682e-05,0.00023136669011680766,-0.00015372673670449588,3.930936999019252e-06,-5.707216211403576e-06,-0.00022907309390735506,0.0013148098611069996,-0.00025281227422416995,-5.7499186426898813e-05,-0.00032698731440240476,4.139484463964367e-06,-0.0015798106092094618,0.22445029020309448,19.693445205688477,0.2998931109905243,-20.130342483520508,-0.3857322335243225,-2.4887118339538574,0.26858848333358765,0
54,0.2650315761566162,-0.24825400114059448,-19.768823623657227,-0.2998931109905243,20.130342483520508,0.3857322335243225,2.4887118339538574,-0.28232139348983765,0.0,0.0,0.0,0.0,0.0,0.0,0.0,-0.23409717171348504,0.005048131749359696,-0.08642460626608398,0.35241499058916015,-0.1883381272132522,0.11559685323668613,-0.23998811723238128,1.2133771348839075,-0.2201738926966985,-0.007597726735368108,-2.6040790071431656,-0.10873020035028458,2.4681798809973423,0.8264780248535134,1.2134413937687574,-0.2202432315892585,-0.0075118285948192216,-2.6038483821997875,-0.10888392708698907,2.4681821257803174,0.826474908251239,0.00015679810233456314,0.0007645914188743992,0.00014396532505057323,2.2720722333783868e-05,0.0005022545833473779,-7.368866003948999e-05,0.001154482825144749,0.0,0.0,0.0,0.0,0.0,0.0,0.0,6.425888484984377e-05,-6.933889256000025e-05,8.589814054888682e-05,0.00023062494337811046,-0.00015372673670449588,2.244782975058257e-06,-3.11660227436672e-06,-0.00015679810233456314,-0.0007645914188743992,-0.00014396532505057323,-2.2720722333783868e-05,-0.0005022545833473779,7.368866003948999e-05,-0.001154482825144749,0.24825400114059448,19.768823623657227,0.2998931109905243,-20.130342483520508,-0.3857322335243225,-2.4887118339538574,0.28232139348983765,0
55,0.2700309753417969,-0.24825400114059448,-19.768823623657227,-0.2998931109905243,20.130342483520508,0.3857322335243225,2.4887118339538574,-0.28232139348983765,0.0,0.0,0.0,0.0,0.0,0.0,0.0,-0.23409717171348504,0.005048131749359696,-0.08642460626608398,0.35241499058916015,-0.1883381272132522,0.11559685323668613,-0.23998811723238128,1.2133771348839075,-0.2201738926966985,-0.007597726735368108,-2.6040790071431656,-0.10873020035028458,2.4681798809973423,0.8264780248535134,1.2134413937687574,-0.2202432315892585,-0.0075118285948192216,-2.6038483821997875,-0.10888392708698907,2.4681821257803174,0.826474908251239,0.00015679810233456314,0.0007645914188743992,0.00014396532505057323,2.2720722333783868e-05,0.0005022545833473779,-7.368866003948999e-05,0.001154482825144749,0.0,0.0,0.0,0.0,0.0,0.0,0.0,6.425888484984377e-05,-6.933889256000025e-05,8.589814054888682e-05,0.00023062494337811046,-0.00015372673670449588,2.244782975058257e-06,-3.11660227436672e-06,-0.00015679810233456314,-0.0007645914188743992,-0.00014396532505057323,-2.2720722333783868e-05,-0.0005022545833473779,7.368866003948999e-05,-0.001154482825144749,0.24825400114059448,19.768823623657227,0.2998931109905243,-20.130342483520508,-0.3857322335243225,-2.4887118339538574,0.28232139348983765,0
56,0.27503490447998047,-0.24825400114059448,-19.768823623657227,-0.2998931109905243,20.130342483520508,0.3912253975868225,2.4887118339538574,-0.22830526530742645,0.0,0.0,0.0,0.0,0.0,0.0,0.0,-0.23152337630375927,0.008794802478487004,-0.08381566218430613,0.348292715955285,-0.18822652322581365,0.11514485638541654,-0.24146381029254319,1.2133771263495339,-0.2201738926966985,-0.007597726735368108,-2.604079748885669,-0.10873081070184708,2.46818129531125,0.8264751333127706,1.2134413937687574,-0.2202432315892585,-0.0075118285948192216,-2.6038483821997875,-0.10888392708698907,2.4681821257803174,0.826474908251239,0.00034338329465798774,0.0009923607792380422,0.0003340253007516954,-0.0003294642218702391,0.00014870097257522078,-9.328077157336397e-05,-0.0008254683388023048,0.0,0.0,0.0,0.0,0.0,0.0,0.0,6.426741922349599e-05,-6.933889256000025e-05,8.589814054888682e-05,0.00023136668588152887,-0.00015311638514199644,8.304690672922277e-07,-2.2506153152246355e-07,-0.00034338329465798774,-0.0009923607792380422,-0.0003340253007516954,0.0003294642218702391,-0.00014870097257522078,9.328077157336397e-05,0.0008254683388023048,0.24825400114059448,19.768823623657227,0.2998931109905243,-20.130342483520508,-0.3912253975868225,-2.4887118339538574,0.22830526530742645,0
57,0.28003883361816406,-0.24825400114059448,-19.768823623657227,-0.2998931109905243,20.130342483520508,0.3912253975868225,2.4887118339538574,-0.22830526530742645,0.0,0.0,0.0,0.0,0.0,0.0,0.0,-0.23152337630375927,0.008794802478487004,-0.08381566218430613,0.348292715955285,-0.18822652322581365,0.11514485638541654,-0.24146381029254319,1.2133771263495339,-0.2201738926966985,-0.007597726735368108,-2.604079748885669,-0.10873081070184708,2.46818129531125,0.8264751333127706,1.2134413937687574,-0.2202432315892585,-0.0075118285948192216,-2.6038483821997875,-0.10888392708698907,2.4681821257803174,0.826474908251239,0.00034338329465798774,0.0009923607792380422,0.0003340253007516954,-0.0003294642218702391,0.00014870097257522078,-9.328077157336397e-05,-0.0008254683388023048,0.0,0.0,0.0,0.0,0.0,0.0,0.0,6.426741922349599e-05,-6.933889256000025e-05,8.589814054888682e-05,0.00023136668588152887,-0.00015311638514199644,8.304690672922277e-07,-2.2506153152246355e-07,-0.00034338329465798774,-0.0009923607792380422,-0.0003340253007516954,0.0003294642218702391,-0.00014870097257522078,9.328077157336397e-05,0.0008254683388023048,0.24825400114059448,19.768823623657227,0.2998931109905243,-20.130342483520508,-0.3912253975868225,-2.4887118339538574,0.22830526530742645,0
58,0.2850220203399658,-0.24825400114059448,-19.745019912719727,-0.2483184039592743,20.130342483520508,0.3976340889930725,2.4887118339538574,-0.22830526530742645,0.0,0.0,0.0,0.0,0.0,0.0,0.0,-0.2333009667539997,0.005980493273618251,-0.0846565371408498,0.34914861630370847,-0.18812792871566422,0.11546077356683032,-0.24163993156080177,1.2133771348877473,-0.22017556313255374,-0.007601267103587481,-2.604079748889856,-0.10873152294093262,2.468181006170405,0.8264720230558128,1.2134413937687574,-0.2202432315892585,-0.0075118285948192216,-2.6038483821997875,-0.10888392708698907,2.4681821257803174,0.826474908251239,0.0002591835899572498,0.00019291192048947865,-0.0006174365752944599,-0.00029853294372831745,-3.432087180237997e-05,-0.00020008947623139823,-0.0004901404578513635,0.0,0.0,0.0,0.0,0.0,0.0,0.0,6.425888101002641e-05,-6.76684567047503e-05,8.943850876825914e-05,0.00023136669006840194,-0.00015240414605645347,1.1196099123367276e-06,2.8851954262387736e-06,-0.0002591835899572498,-0.00019291192048947865,0.0006174365752944599,0.00029853294372831745,3.432087180237997e-05,0.00020008947623139823,0.0004901404578513635,0.24825400114059448,19.745019912719727,0.2483184039592743,-20.130342483520508,-0.3976340889930725,-2.4887118339538574,0.22830526530742645,0
59,0.29003119468688965,-0.24825400114059448,-19.745019912719727,-0.2483184039592743,20.130342483520508,0.3976340889930725,2.4887118339538574,-0.22830526530742645,0.0,0.0,0.0,0.0,0.0,0.0,0.0,-0.2333009667539997,0.005980493273618251,-0.0846565371408498,0.34914861630370847,-0.18812792871566422,0.11546077356683032,-0.24163993156080177,1.2133771348877473,-0.22017556313255374,-0.007601267103587481,-2.604079748889856,-0.10873152294093262,2.468181006170405,0.8264720230558128,1.2134413937687574,-0.2202432315892585,-0.0075118285948192216,-2.6038483821997875,-0.10888392708698907,2.4681821257803174,0.826474908251239,0.0002591835899572498,0.00019291192048947865,-0.0006174365752944599,-0.00029853294372831745,-3.432087180237997e-05,-0.00020008947623139823,-0.0004901404578513635,0.0,0.0,0.0,0.0,0.0,0.0,0.0,6.425888101002641e-05,-6.76684567047503e-05,8.943850876825914e-05,0.00023136669006840194,-0.00015240414605645347,1.1196099123367276e-06,2.8851954262387736e-06,-0.0002591835899572498,-0.00019291192048947865,0.0006174365752944599,0.00029853294372831745,3.432087180237997e-05,0.00020008947623139823,0.0004901404578513635,0.24825400114059448,19.745019912719727,0.2483184039592743,-20.130342483520508,-0.3976340889930725,-2.4887118339538574,0.22830526530742645,0
60,0.2950317859649658,-0.22445029020309448,-19.768823623657227,-0.2721221148967743,20.106538772583008,0.3912253975868225,2.4951205253601074,-0.25485557317733765,0.0,0.0,0.0,0.0,0.0,0.0,0.0,-0.22766151196191908,0.00676998016396078,-0.0774794901926003,0.34878357067416693,-0.18772827546136261,0.11533510798131068,-0.24203572884478253,1.2133733943783573,-0.2201738926966985,-0.007599675576753803,-2.6040780784540005,-0.108730810701848,2.46817928823518,0.8264750123183197,1.2134413937687574,-0.2202432315892585,-0.0075118285948192216,-2.6038483821997875,-0.10888392708698907,2.4681821257803174,0.826474908251239,0.00026144452863037504,0.0008568339940939387,-6.3979683063495735e-06,0.0005096635652615575,0.00041561575634758134,-0.0002882582269094137,0.0008357954388406343,0.0,0.0,0.0,0.0,0.0,0.0,0.0,6.799939040003089e-05,-6.933889256000025e-05,8.784698193458132e-05,0.00022969625421298545,-0.0001531163851410805,2.837545137523989e-06,-1.0406708061960757e-07,-0.00026144452863037504,-0.0008568339940939387,6.3979683063495735e-06,-0.0005096635652615575,-0.00041561575634758134,0.0002882582269094137,-0.0008357954388406343,0.22445029020309448,19.768823623657227,0.2721221148967743,-20.106538772583008,-0.3912253975868225,-2.4951205253601074,0.25485557317733765,0
61,0.3000307083129883,-0.22445029020309448,-19.768823623657227,-0.2721221148967743,20.106538772583008,0.3912253975868225,2.4951205253601074,-0.25485557317733765,0.0,0.0,0.0,0.0,0.0,0.0,0.0,-0.22766151196191908,0.00676998016396078,-0.0774794901926003,0.34878357067416693,-0.18772827546136261,0.11533510798131068,-0.24203572884478253,1.2133733943783573,-0.2201738926966985,-0.007599675576753803,-2.6040780784540005,-0.108730810701848,2.46817928823518,0.8264750123183197,1.2134413937687574,-0.2202432315892585,-0.0075118285948192216,-2.6038483821997875,-0.10888392708698907,2.4681821257803174,0.826474908251239,0.00026144452863037504,0.0008568339940939387,-6.3979683063495735e-06,0.0005096635652615575,0.00041561575634758134,-0.0002882582269094137,0.0008357954388406343,0.0,0.0,0.0,0.0,0.0,0.0,0.0,6.799939040003089e-05,-6.933889256000025e-05,8.784698193458132e-05,0.00022969625421298545,-0.0001531163851410805,2.837545137523989e-06,-1.0406708061960757e-07,-0.00026144452863037504,-0.0008568339940939387,6.3979683063495735e-06,-0.0005096635652615575,-0.00041561575634758134,0.0002882582269094137,-0.0008357954388406343,0.22445029020309448,19.768823623657227,0.2721221148967743,-20.106538772583008,-0.3912253975868225,-2.4951205253601074,0.25485557317733765,0
62,0.3050239086151123,-0.22445029020309448,-19.792627334594727,-0.2483184039592743,20.106538772583008,0.3912253975868225,2.4951205253601074,-0.28232139348983765,0.0,0.0,0.0,0.0,0.0,0.0,0.0,-0.23095490290970477,0.005092596179454314,-0.08182520440888627,0.3492522443783849,-0.18679951508925277,0.11533717626596933,-0.24220072753473285,1.2133754616058317,-0.2201722222608432,-0.007601346013054511,-2.6040780784540005,-0.10873081070184708,2.46818069671969,0.8264790030698126,1.2134413937687574,-0.2202432315892585,-0.0075118285948192216,-2.6038483821997875,-0.10888392708698907,2.4681821257803174,0.826474908251239,5.5112003359405964e-05,0.0012991414666874987,-0.0007810933562585978,0.0004192319162123035,0.00010463807483591695,-0.0003522058651090388,0.0014821649272309502,0.0,0.0,0.0,0.0,0.0,0.0,0.0,6.593216292571924e-05,-7.100932841527796e-05,8.951741823528918e-05,0.00022969625421298545,-0.00015311638514199644,1.429060627167189e-06,-4.094818573552317e-06,-5.5112003359405964e-05,-0.0012991414666874987,0.0007810933562585978,-0.0004192319162123035,-0.00010463807483591695,0.0003522058651090388,-0.0014821649272309502,0.22445029020309448,19.792627334594727,0.2483184039592743,-20.106538772583008,-0.3912253975868225,-2.4951205253601074,0.28232139348983765,0
63,0.31002092361450195,-0.22445029020309448,-19.792627334594727,-0.2483184039592743,20.106538772583008,0.3912253975868225,2.4951205253601074,-0.28232139348983765,0.0,0.0,0.0,0.0,0.0,0.0,0.0,-0.23095490290970477,0.005092596179454314,-0.08182520440888627,0.3492522443783849,-0.18679951508925277,0.11533717626596933,-0.24220072753473285,1.2133754616058317,-0.2201722222608432,-0.007601346013054511,-2.6040780784540005,-0.10873081070184708,2.46818069671969,0.8264790030698126,1.2134413937687574,-0.2202432315892585,-0.0075118285948192216,-2.6038483821997875,-0.10888392708698907,2.4681821257803174,0.826474908251239,5.5112003359405964e-05,0.0012991414666874987,-0.0007810933562585978,0.0004192319162123035,0.00010463807483591695,-0.0003522058651090388,0.0014821649272309502,0.0,0.0,0.0,0.0,0.0,0.0,0.0,6.593216292571924e-05,-7.100932841527796e-05,8.951741823528918e-05,0.00022969625421298545,-0.00015311638514199644,1.429060627167189e-06,-4.094818573552317e-06,-5.5112003359405964e-05,-0.0012991414666874987,0.0007810933562585978,-0.0004192319162123035,-0.00010463807483591695,0.0003522058651090388,-0.0014821649272309502,0.22445029020309448,19.792627334594727,0.2483184039592743,-20.106538772583008,-0.3912253975868225,-2.4951205253601074,0.28232139348983765,0
64,0.3150324821472168,-0.22445029020309448,-19.745019912719727,-0.2483184039592743,20.130342483520508,0.3912253975868225,2.5015292167663574,-0.25485557317733765,0.0,0.0,0.0,0.0,0.0,0.0,0.0,-0.21943161676587064,0.006083298837444189,-0.0709596900502229,0.3481521355554574,-0.18759115181964892,0.11536722004689466,-0.24253204196656775,1.2133752263603939,-0.22017556313255374,-0.0076013460130545125,-2.604079748889856,-0.108730811188635,2.4681796347220555,0.8264785439664227,1.2134413937687574,-0.2202432315892585,-0.0075118285948192216,-2.6038483821997875,-0.10888392708698907,2.4681821257803174,0.826474908251239,0.0006513826537989252,0.0004633714109410453,0.00032232484856293365,-3.339994955909254e-05,0.00018031237982951896,-0.0006139801066509122,0.0004346256833925976,0.0,0.0,0.0,0.0,0.0,0.0,0.0,6.616740836351553e-05,-6.76684567047503e-05,8.951741823529091e-05,0.00023136669006840194,-0.0001531158983540809,2.491058261888668e-06,-3.635715183691879e-06,-0.0006513826537989252,-0.0004633714109410453,-0.00032232484856293365,3.339994955909254e-05,-0.00018031237982951896,0.0006139801066509122,-0.0004346256833925976,0.22445029020309448,19.745019912719727,0.2483184039592743,-20.130342483520508,-0.3912253975868225,-2.5015292167663574,0.25485557317733765,0
65,0.32002711296081543,-0.22445029020309448,-19.745019912719727,-0.2483184039592743,20.130342483520508,0.3912253975868225,2.5015292167663574,-0.25485557317733765,0.0,0.0,0.0,0.0,0.0,0.0,0.0,-0.21943161676587064,0.006083298837444189,-0.0709596900502229,0.3481521355554574,-0.18759115181964892,0.11536722004689466,-0.24253204196656775,1.2133752263603939,-0.22017556313255374,-0.0076013460130545125,-2.604079748889856,-0.108730811188635,2.4681796347220555,0.8264785439664227,1.2134413937687574,-0.2202432315892585,-0.0075118285948192216,-2.6038483821997875,-0.10888392708698907,2.4681821257803174,0.826474908251239,0.0006513826537989252,0.0004633714109410453,0.00032232484856293365,-3.339994955909254e-05,0.00018031237982951896,-0.0006139801066509122,0.0004346256833925976,0.0,0.0,0.0,0.0,0.0,0.0,0.0,6.616740836351553e-05,-6.76684567047503e-05,8.951741823529091e-05,0.00023136669006840194,-0.0001531158983540809,2.491058261888668e-06,-3.635715183691879e-06,-0.0006513826537989252,-0.0004633714109410453,-0.00032232484856293365,3.339994955909254e-05,-0.00018031237982951896,0.0006139801066509122,-0.0004346256833925976,0.22445029020309448,19.745019912719727,0.2483184039592743,-20.130342483520508,-0.3912253975868225,-2.5015292167663574,0.25485557317733765,0
66,0.325031042098999,-0.22445029020309448,-19.745019912719727,-0.2245146930217743,20.154146194458008,0.3912253975868225,2.4887118339538574,-0.20083944499492645,0.0,0.0,0.0,0.0,0.0,0.0,0.0,-0.2267287259667623,-0.0005564647674828432,-0.07390494230157321,0.3504312521007671,-0.18737819257039787,0.11576977929277968,-0.24278583293768044,1.213373395321821,-0.22017556313255374,-0.0076030164489097754,-2.604081419325711,-0.10873081070184983,2.4681809233705416,0.8264721585056084,1.2134413937687574,-0.2202432315892585,-0.0075118285948192216,-2.6038483821997875,-0.10888392708698907,2.4681821257803174,0.826474908251239,2.812502375357717e-05,-1.413405964098562e-05,-0.0006757654151893681,-0.0005467971750341579,0.0003513323068493564,-0.0001835829236090779,-0.0019988049096352546,0.0,0.0,0.0,0.0,0.0,0.0,0.0,6.799844693627932e-05,-6.76684567047503e-05,9.118785409055388e-05,0.00023303712592337433,-0.00015311638513924863,1.2024097757468155e-06,2.7497456306369017e-06,-2.812502375357717e-05,1.413405964098562e-05,0.0006757654151893681,0.0005467971750341579,-0.0003513323068493564,0.0001835829236090779,0.0019988049096352546,0.22445029020309448,19.745019912719727,0.2245146930217743,-20.154146194458008,-0.3912253975868225,-2.4887118339538574,0.20083944499492645,0
67,0.33003807067871094,-0.22445029020309448,-19.745019912719727,-0.2245146930217743,20.154146194458008,0.3912253975868225,2.4887118339538574,-0.20083944499492645,0.0,0.0,0.0,0.0,0.0,0.0,0.0,-0.2267287259667623,-0.0005564647674828432,-0.07390494230157321,0.3504312521007671,-0.18737819257039787,0.11576977929277968,-0.24278583293768044,1.213373395321821,-0.22017556313255374,-0.0076030164489097754,-2.604081419325711,-0.10873081070184983,2.4681809233705416,0.8264721585056084,1.2134413937687574,-0.2202432315892585,-0.0075118285948192216,-2.6038483821997875,-0.10888392708698907,2.4681821257803174,0.826474908251239,2.812502375357717e-05,-1.413405964098562e-05,-0.0006757654151893681,-0.0005467971750341579,0.0003513323068493564,-0.0001835829236090779,-0.0019988049096352546,0.0,0.0,0.0,0.0,0.0,0.0,0.0,6.799844693627932e-05,-6.76684567047503e-05,9.118785409055388e-05,0.00023303712592337433,-0.00015311638513924863,1.2024097757468155e-06,2.7497456306369017e-06,-2.812502375357717e-05,1.413405964098562e-05,0.0006757654151893681,0.0005467971750341579,-0.0003513323068493564,0.0001835829236090779,0.0019988049096352546,0.22445029020309448,19.745019912719727,0.2245146930217743,-20.154146194458008,-0.3912253975868225,-2.4887118339538574,0.20083944499492645,0
68,0.3350071907043457,-0.22445029020309448,-19.745019912719727,-0.2245146930217743,20.154146194458008,0.3912253975868225,2.4887118339538574,-0.20083944499492645,0.0,0.0,0.0,0.0,0.0,0.0,0.0,-0.2267287259667623,-0.0005564647674828432,-0.07390494230157321,0.3504312521007671,-0.18737819257039787,0.11576977929277968,-0.24278583293768044,1.213373395321821,-0.22017556313255374,-0.0076030164489097754,-2.604081419325711,-0.10873081070184983,2.4681809233705416,0.8264721585056084,1.2134413937687574,-0.2202432315892585,-0.0075118285948192216,-2.6038483821997875,-0.10888392708698907,2.4681821257803174,0.826474908251239,2.812502375357717e-05,-1.413405964098562e-05,-0.0006757654151893681,-0.0005467971750341579,0.0003513323068493564,-0.0001835829236090779,-0.0019988049096352546,0.0,0.0,0.0,0.0,0.0,0.0,0.0,6.799844693627932e-05,-6.76684567047503e-05,9.118785409055388e-05,0.00023303712592337433,-0.00015311638513924863,1.2024097757468155e-06,2.7497456306369017e-06,-2.812502375357717e-05,1.413405964098562e-05,0.0006757654151893681,0.0005467971750341579,-0.0003513323068493564,0.0001835829236090779,0.0019988049096352546,0.22445029020309448,19.745019912719727,0.2245146930217743,-20.154146194458008,-0.3912253975868225,-2.4887118339538574,0.20083944499492645,0
69,0.34000515937805176,-0.22445029020309448,-19.745019912719727,-0.2245146930217743,20.154146194458008,0.3912253975868225,2.4887118339538574,-0.20083944499492645,0.0,0.0,0.0,0.0,0.0,0.0,0.0,-0.2267287259667623,-0.0005564647674828432,-0.07390494230157321,0.3504312521007671,-0.18737819257039787,0.11576977929277968,-0.24278583293768044,1.213373395321821,-0.22017556313255374,-0.0076030164489097754,-2.604081419325711,-0.10873081070184983,2.4681809233705416,0.8264721585056084,1.2134413937687574,-0.2202432315892585,-0.0075118285948192216,-2.6038483821997875,-0.10888392708698907,2.4681821257803174,0.826474908251239,2.812502375357717e-05,-1.413405964098562e-05,-0.0006757654151893681,-0.0005467971750341579,0.0003513323068493564,-0.0001835829236090779,-0.0019988049096352546,0.0,0.0,0.0,0.0,0.0,0.0,0.0,6.799844693627932e-05,-6.76684567047503e-05,9.118785409055388e-05,0.00023303712592337433,-0.00015311638513924863,1.2024097757468155e-06,2.7497456306369017e-06,-2.812502375357717e-05,1.413405964098562e-05,0.0006757654151893681,0.0005467971750341579,-0.0003513323068493564,0.0001835829236090779,0.0019988049096352546,0.22445029020309448,19.745019912719727,0.2245146930217743,-20.154146194458008,-0.3912253975868225,-2.4887118339538574,0.20083944499492645,0
70,0.3450496196746826,-0.24825400114059448,-19.745019912719727,-0.2721221148967743,20.154146194458008,0.4031272530555725,2.4887118339538574,-0.24844686686992645,0.0,0.0,0.0,0.0,0.0,0.0,0.0,-0.22448236755462656,0.008164395864931595,-0.06806775895127976,0.34589427100449327,-0.18693574368680352,0.11485082343646584,-0.24318927171710714,1.2133743760377484,-0.22017556313255374,-0.007599675577199249,-2.604081419325711,-0.10873213313023249,2.4681802342254544,0.8264757276980097,1.2134413937687574,-0.2202432315892585,-0.0075118285948192216,-2.6038483821997875,-0.10888392708698907,2.4681821257803174,0.826474908251239,0.0005640207570008163,0.0006238867332172907,0.00041973764468593327,-0.0007073601237286217,-0.0002734700080735657,-0.00018449192595108946,0.0003867045593842754,0.0,0.0,0.0,0.0,0.0,0.0,0.0,6.701773100892261e-05,-6.76684567047503e-05,8.784698238002708e-05,0.00023303712592337433,-0.0001517939567565879,1.8915548629649948e-06,-8.194467706612585e-07,-0.0005640207570008163,-0.0006238867332172907,-0.00041973764468593327,0.0007073601237286217,0.0002734700080735657,0.00018449192595108946,-0.0003867045593842754,0.24825400114059448,19.745019912719727,0.2721221148967743,-20.154146194458008,-0.4031272530555725,-2.4887118339538574,0.24844686686992645,0
71,0.35003161430358887,-0.24825400114059448,-19.745019912719727,-0.2721221148967743,20.154146194458008,0.4031272530555725,2.4887118339538574,-0.24844686686992645,0.0,0.0,0.0,0.0,0.0,0.0,0.0,-0.22448236755462656,0.008164395864931595,-0.06806775895127976,0.34589427100449327,-0.18693574368680352,0.11485082343646584,-0.24318927171710714,1.2133743760377484,-0.22017556313255374,-0.007599675577199249,-2.604081419325711,-0.10873213313023249,2.4681802342254544,0.8264757276980097,1.2134413937687574,-0.2202432315892585,-0.0075118285948192216,-2.6038483821997875,-0.10888392708698907,2.4681821257803174,0.826474908251239,0.0005640207570008163,0.0006238867332172907,0.00041973764468593327,-0.0007073601237286217,-0.0002734700080735657,-0.00018449192595108946,0.0003867045593842754,0.0,0.0,0.0,0.0,0.0,0.0,0.0,6.701773100892261e-05,-6.76684567047503e-05,8.784698238002708e-05,0.00023303712592337433,-0.0001517939567565879,1.8915548629649948e-06,-8.194467706612585e-07,-0.0005640207570008163,-0.0006238867332172907,-0.00041973764468593327,0.0007073601237286217,0.0002734700080735657,0.00018449192595108946,-0.0003867045593842754,0.24825400114059448,19.745019912719727,0.2721221148967743,-20.154146194458008,-0.4031272530555725,-2.4887118339538574,0.24844686686992645,0
72,0.35503411293029785,-0.24825400114059448,-19.717248916625977,-0.2483184039592743,20.154146194458008,0.3793235421180725,2.4823031425476074,-0.25485557317733765,0.0,0.0,0.0,0.0,0.0,0.0,0.0,-0.22551549360979395,0.01079850434500094,-0.06972615218248714,0.34238943153126594,-0.18664902302050135,0.11421641688795826,-0.24359173979640872,1.2133770583428014,-0.22017751197438487,-0.0076013460130545125,-2.604081419325711,-0.10872948827346166,2.468182125773659,0.8264781864496549,1.2134413937687574,-0.2202432315892585,-0.0075118285948192216,-2.6038483821997875,-0.10888392708698907,2.4681821257803174,0.826474908251239,0.00014036366765436066,0.0001380147142764825,-0.0006358927538643883,-0.0013760158929606717,0.0005896359643684384,0.00015969596634125475,0.00014290410538062386,0.0,0.0,0.0,0.0,0.0,0.0,0.0,6.433542595596364e-05,-6.57196148736161e-05,8.951741823529091e-05,0.00023303712592337433,-0.00015443881352741884,6.658229523281989e-12,-3.2781984158347655e-06,-0.00014036366765436066,-0.0001380147142764825,0.0006358927538643883,0.0013760158929606717,-0.0005896359643684384,-0.00015969596634125475,-0.00014290410538062386,0.24825400114059448,19.717248916625977,0.2483184039592743,-20.154146194458008,-0.3793235421180725,-2.4823031425476074,0.25485557317733765,0
73,0.3600330352783203,-0.24825400114059448,-19.717248916625977,-0.2483184039592743,20.154146194458008,0.3793235421180725,2.4823031425476074,-0.25485557317733765,0.0,0.0,0.0,0.0,0.0,0.0,0.0,-0.22551549360979395,0.01079850434500094,-0.06972615218248714,0.34238943153126594,-0.18664902302050135,0.11421641688795826,-0.24359173979640872,1.2133770583428014,-0.22017751197438487,-0.0076013460130545125,-2.604081419325711,-0.10872948827346166,2.468182125773659,0.8264781864496549,1.2134413937687574,-0.2202432315892585,-0.0075118285948192216,-2.6038483821997875,-0.10888392708698907,2.4681821257803174,0.826474908251239,0.00014036366765436066,0.0001380147142764825,-0.0006358927538643883,-0.0013760158929606717,0.0005896359643684384,0.00015969596634125475,0.00014290410538062386,0.0,0.0,0.0,0.0,0.0,0.0,0.0,6.433542595596364e-05,-6.57196148736161e-05,8.951741823529091e-05,0.00023303712592337433,-0.00015443881352741884,6.658229523281989e-12,-3.2781984158347655e-06,-0.00014036366765436066,-0.0001380147142764825,0.0006358927538643883,0.0013760158929606717,-0.0005896359643684384,-0.00015969596634125475,-0.00014290410538062386,0.24825400114059448,19.717248916625977,0.2483184039592743,-20.154146194458008,-0.3793235421180725,-2.4823031425476074,0.25485557317733765,0
74,0.3650243282318115,-0.2720577120780945,-19.745019912719727,-0.2483184039592743,20.130342483520508,0.3976340889930725,2.4887118339538574,-0.20724813640117645,0.0,0.0,0.0,0.0,0.0,0.0,0.0,-0.22533261081750738,0.008137252493331639,-0.0699129591804288,0.3483060461419997,-0.18779271107884488,0.11512382508708104,-0.24355473597773206,1.213378795875142,-0.22017556313255374,-0.0076013460130545125,-2.604079748889856,-0.10873152277866999,2.4681800006373145,0.8264727397070558,1.2134413937687574,-0.2202432315892585,-0.0075118285948192216,-2.6038483821997875,-0.10888392708698907,2.4681821257803174,0.826474908251239,0.0011055906795510795,0.0007275709155546854,-0.0011309473370236212,1.8519538907135486e-05,0.0007928399741848657,-8.489071983058671e-05,-0.0012821782311853247,0.0,0.0,0.0,0.0,0.0,0.0,0.0,6.259789361529045e-05,-6.76684567047503e-05,8.951741823529091e-05,0.00023136669006840194,-0.00015240430831908736,2.125143002906782e-06,2.168544183223098e-06,-0.0011055906795510795,-0.0007275709155546854,0.0011309473370236212,-1.8519538907135486e-05,-0.0007928399741848657,8.489071983058671e-05,0.0012821782311853247,0.2720577120780945,19.745019912719727,0.2483184039592743,-20.130342483520508,-0.3976340889930725,-2.4887118339538574,0.20724813640117645,0
75,0.37003612518310547,-0.2720577120780945,-19.745019912719727,-0.2483184039592743,20.130342483520508,0.3976340889930725,2.4887118339538574,-0.20724813640117645,0.0,0.0,0.0,0.0,0.0,0.0,0.0,-0.22533261081750738,0.008137252493331639,-0.0699129591804288,0.3483060461419997,-0.18779271107884488,0.11512382508708104,-0.24355473597773206,1.213378795875142,-0.22017556313255374,-0.0076013460130545125,-2.604079748889856,-0.10873152277866999,2.4681800006373145,0.8264727397070558,1.2134413937687574,-0.2202432315892585,-0.0075118285948192216,-2.6038483821997875,-0.10888392708698907,2.4681821257803174,0.826474908251239,0.0011055906795510795,0.0007275709155546854,-0.0011309473370236212,1.8519538907135486e-05,0.0007928399741848657,-8.489071983058671e-05,-0.0012821782311853247,0.0,0.0,0.0,0.0,0.0,0.0,0.0,6.259789361529045e-05,-6.76684567047503e-05,8.951741823529091e-05,0.00023136669006840194,-0.00015240430831908736,2.125143002906782e-06,2.168544183223098e-06,-0.0011055906795510795,-0.0007275709155546854,0.0011309473370236212,-1.8519538907135486e-05,-0.0007928399741848657,8.489071983058671e-05,0.0012821782311853247,0.2720577120780945,19.745019912719727,0.2483184039592743,-20.130342483520508,-0.3976340889930725,-2.4887118339538574,0.20724813640117645,0
76,0.3750331401824951,-0.22445029020309448,-19.768823623657227,-0.2998931109905243,20.130342483520508,0.3857322335243225,2.4887118339538574,-0.22098104655742645,0.0,0.0,0.0,0.0,0.0,0.0,0.0,-0.22676116726965542,0.006206248399159063,-0.07294302738532618,0.34951596011257813,-0.18724875699319746,0.11499992993362623,-0.24266708362323722,1.2133733640394804,-0.2201738926966985,-0.007597726735368108,-2.604079748889856,-0.10873020035028458,2.468181237277586,0.8264712102762938,1.2134413937687574,-0.2202432315892585,-0.0075118285948192216,-2.6038483821997875,-0.10888392708698907,2.4681821257803174,0.826474908251239,-0.00023638756133467157,0.0007455279290136274,0.00022481339677444615,4.686262929470248e-05,0.00041188521849104163,0.00019714931896870657,-0.0008243601065865481,0.0,0.0,0.0,0.0,0.0,0.0,0.0,6.802972927699713e-05,-6.933889256000025e-05,8.589814054888682e-05,0.00023136669006840194,-0.00015372673670449588,8.885027313887406e-07,3.6979749452603627e-06,0.00023638756133467157,-0.0007455279290136274,-0.00022481339677444615,-4.686262929470248e-05,-0.00041188521849104163,-0.00019714931896870657,0.0008243601065865481,0.22445029020309448,19.768823623657227,0.2998931109905243,-20.130342483520508,-0.3857322335243225,-2.4887118339538574,0.22098104655742645,0
77,0.38003087043762207,-0.22445029020309448,-19.768823623657227,-0.2998931109905243,20.130342483520508,0.3857322335243225,2.4887118339538574,-0.22098104655742645,0.0,0.0,0.0,0.0,0.0,0.0,0.0,-0.22676116726965542,0.006206248399159063,-0.07294302738532618,0.34951596011257813,-0.18724875699319746,0.11499992993362623,-0.24266708362323722,1.2133733640394804,-0.2201738926966985,-0.007597726735368108,-2.604079748889856,-0.10873020035028458,2.468181237277586,0.8264712102762938,1.2134413937687574,-0.2202432315892585,-0.0075118285948192216,-2.6038483821997875,-0.10888392708698907,2.4681821257803174,0.826474908251239,-0.00023638756133467157,0.0007455279290136274,0.00022481339677444615,4.686262929470248e-05,0.00041188521849104163,0.00019714931896870657,-0.0008243601065865481,0.0,0.0,0.0,0.0,0.0,0.0,0.0,6.802972927699713e-05,-6.933889256000025e-05,8.589814054888682e-05,0.00023136669006840194,-0.00015372673670449588,8.885027313887406e-07,3.6979749452603627e-06,0.00023638756133467157,-0.0007455279290136274,-0.00022481339677444615,-4.686262929470248e-05,-0.00041188521849104163,-0.00019714931896870657,0.0008243601065865481,0.22445029020309448,19.768823623657227,0.2998931109905243,-20.130342483520508,-0.3857322335243225,-2.4887118339538574,0.22098104655742645,0
78,0.3850100040435791,-0.22445029020309448,-19.792627334594727,-0.2721221148967743,20.130342483520508,0.4031272530555725,2.4823031425476074,-0.26217979192733765,0.0,0.0,0.0,0.0,0.0,0.0,0.0,-0.22844349455461538,0.004689099151491386,-0.07520683856201918,0.35181393854063187,-0.1872686031897569,0.11565442264028933,-0.24325851061966547,1.2133751554529857,-0.2201722222608432,-0.007599675541118103,-2.604079748889856,-0.10873213313023249,2.468178888076901,0.8264771165500161,1.2134413937687574,-0.2202432315892585,-0.0075118285948192216,-2.6038483821997875,-0.10888392708698907,2.4681821257803174,0.826474908251239,4.312826667377369e-05,0.0012185763661301447,-0.0002171842834816726,-8.632394431667645e-07,-0.00020448705366260157,0.0003779920534337184,0.0010930129848121617,0.0,0.0,0.0,0.0,0.0,0.0,0.0,6.623831577168282e-05,-7.100932841527796e-05,8.78469462988812e-05,0.00023136669006840194,-0.0001517939567565879,3.237703416480997e-06,-2.20829877706219e-06,-4.312826667377369e-05,-0.0012185763661301447,0.0002171842834816726,8.632394431667645e-07,0.00020448705366260157,-0.0003779920534337184,-0.0010930129848121617,0.22445029020309448,19.792627334594727,0.2721221148967743,-20.130342483520508,-0.4031272530555725,-2.4823031425476074,0.26217979192733765,0
79,0.3900313377380371,-0.22445029020309448,-19.792627334594727,-0.2721221148967743,20.130342483520508,0.4031272530555725,2.4823031425476074,-0.26217979192733765,0.0,0.0,0.0,0.0,0.0,0.0,0.0,-0.22844349455461538,0.004689099151491386,-0.07520683856201918,0.35181393854063187,-0.1872686031897569,0.11565442264028933,-0.24325851061966547,1.2133751554529857,-0.2201722222608432,-0.007599675541118103,-2.604079748889856,-0.10873213313023249,2.468178888076901,0.8264771165500161,1.2134413937687574,-0.2202432315892585,-0.0075118285948192216,-2.6038483821997875,-0.10888392708698907,2.4681821257803174,0.826474908251239,4.312826667377369e-05,0.0012185763661301447,-0.0002171842834816726,-8.632394431667645e-07,-0.00020448705366260157,0.0003779920534337184,0.0010930129848121617,0.0,0.0,0.0,0.0,0.0,0.0,0.0,6.623831577168282e-05,-7.100932841527796e-05,8.78469462988812e-05,0.00023136669006840194,-0.0001517939567565879,3.237703416480997e-06,-2.20829877706219e-06,-4.312826667377369e-05,-0.0012185763661301447,0.0002171842834816726,8.632394431667645e-07,0.00020448705366260157,-0.0003779920534337184,-0.0010930129848121617,0.22445029020309448,19.792627334594727,0.2721221148967743,-20.130342483520508,-0.4031272530555725,-2.4823031425476074,0.26217979192733765,0
