rezayati/contactInterpretation/dataset/franka_main/labeled_data/link6/b6_5.csv
index,time,tau_J0,tau_J1,tau_J2,tau_J3,tau_J4,tau_J5,tau_J6,tau_J_d0,tau_J_d1,tau_J_d2,tau_J_d3,tau_J_d4,tau_J_d5,tau_J_d6,tau_ext0,tau_ext1,tau_ext2,tau_ext3,tau_ext4,tau_ext5,tau_ext6,q0,q1,q2,q3,q4,q5,q6,q_d0,q_d1,q_d2,q_d3,q_d4,q_d5,q_d6,dq0,dq1,dq2,dq3,dq4,dq5,dq6,dq_d0,dq_d1,dq_d2,dq_d3,dq_d4,dq_d5,dq_d6,e0,e1,e2,e3,e4,e5,e6,de0,de1,de2,de3,de4,de5,de6,etau_J0,etau_J1,etau_J2,etau_J3,etau_J4,etau_J5,etau_J6,label
1,0.0,-0.6806880831718445,-46.50039291381836,-5.635891437530518,19.686006546020508,0.5285544991493225,2.4173007011413574,-0.41324180364608765,0.0,0.0,0.0,0.0,0.0,0.0,0.0,-0.6684706086284209,-0.14365735157013146,-0.45329203878251084,0.493737385613426,-0.05773203513413372,0.14772768350367046,-0.41621750178635947,0.8780888561658691,0.755687187161362,-0.282508915169049,-1.6693012291255749,0.14138868170976548,2.4034122124248083,1.027367254409443,0.878092876070424,0.7554597494309409,-0.2825552651693207,-1.6690993614607135,0.1414185955172306,2.4034451173676383,1.0273381002308042,5.3064083137326476e-05,0.0007452518062246118,0.00036236483965900455,0.00037598834911742356,-5.364421538050607e-05,-0.0001796094681196408,0.0002534293108299823,0.0,0.0,0.0,0.0,0.0,0.0,0.0,4.019904554897202e-06,-0.00022743773042110949,-4.635000027169989e-05,0.0002018676648614104,2.9913807465115072e-05,3.290494283003653e-05,-2.9154178638801653e-05,-5.3064083137326476e-05,-0.0007452518062246118,-0.00036236483965900455,-0.00037598834911742356,5.364421538050607e-05,0.0001796094681196408,-0.0002534293108299823,0.6806880831718445,46.50039291381836,5.635891437530518,-19.686006546020508,-0.5285544991493225,-2.4173007011413574,0.41324180364608765,0
2,0.004183053970336914,-0.6806880831718445,-46.44881820678711,-5.612087726593018,19.733613967895508,0.5221458077430725,2.4173007011413574,-0.43979209661483765,0.0,0.0,0.0,0.0,0.0,0.0,0.0,-0.6677083486584605,-0.13957244635627436,-0.4511503872110852,0.4933564698857615,-0.05808767186345646,0.14752982544352755,-0.41456337439241026,0.8780888561658691,0.7556835678836755,-0.28251057685649694,-1.6693045699972853,0.1413883177142575,2.4034122124248083,1.027370204442077,0.878092876070424,0.7554597494309409,-0.2825552651693207,-1.6690993614607135,0.1414185955172306,2.4034451173676383,1.0273381002308042,0.0003822883645779879,-9.124040858793289e-09,-0.00029223203282345014,-0.0009479450538150719,0.00013621136782406386,-0.00015090565778251173,0.0006766111765401559,0.0,0.0,0.0,0.0,0.0,0.0,0.0,4.019904554897202e-06,-0.00022381845273466983,-4.468831282378183e-05,0.00020520853657179927,3.02778029730999e-05,3.290494283003653e-05,-3.210421127275431e-05,-0.0003822883645779879,9.124040858793289e-09,0.00029223203282345014,0.0009479450538150719,-0.00013621136782406386,0.00015090565778251173,-0.0006766111765401559,0.6806880831718445,46.44881820678711,5.612087726593018,-19.733613967895508,-0.5221458077430725,-2.4173007011413574,0.43979209661483765,0
3,0.009274721145629883,-0.6806880831718445,-46.44881820678711,-5.612087726593018,19.733613967895508,0.5221458077430725,2.4173007011413574,-0.43979209661483765,0.0,0.0,0.0,0.0,0.0,0.0,0.0,-0.6677083486584605,-0.13957244635627436,-0.4511503872110852,0.4933564698857615,-0.05808767186345646,0.14752982544352755,-0.41456337439241026,0.8780888561658691,0.7556835678836755,-0.28251057685649694,-1.6693045699972853,0.1413883177142575,2.4034122124248083,1.027370204442077,0.878092876070424,0.7554597494309409,-0.2825552651693207,-1.6690993614607135,0.1414185955172306,2.4034451173676383,1.0273381002308042,0.0003822883645779879,-9.124040858793289e-09,-0.00029223203282345014,-0.0009479450538150719,0.00013621136782406386,-0.00015090565778251173,0.0006766111765401559,0.0,0.0,0.0,0.0,0.0,0.0,0.0,4.019904554897202e-06,-0.00022381845273466983,-4.468831282378183e-05,0.00020520853657179927,3.02778029730999e-05,3.290494283003653e-05,-3.210421127275431e-05,-0.0003822883645779879,9.124040858793289e-09,0.00029223203282345014,0.0009479450538150719,-0.00013621136782406386,0.00015090565778251173,-0.0006766111765401559,0.6806880831718445,46.44881820678711,5.612087726593018,-19.733613967895508,-0.5221458077430725,-2.4173007011413574,0.43979209661483765,0
4,0.014234781265258789,-0.6806880831718445,-46.44881820678711,-5.612087726593018,19.733613967895508,0.5221458077430725,2.4173007011413574,-0.43979209661483765,0.0,0.0,0.0,0.0,0.0,0.0,0.0,-0.6677083486584605,-0.13957244635627436,-0.4511503872110852,0.4933564698857615,-0.05808767186345646,0.14752982544352755,-0.41456337439241026,0.8780888561658691,0.7556835678836755,-0.28251057685649694,-1.6693045699972853,0.1413883177142575,2.4034122124248083,1.027370204442077,0.878092876070424,0.7554597494309409,-0.2825552651693207,-1.6690993614607135,0.1414185955172306,2.4034451173676383,1.0273381002308042,0.0003822883645779879,-9.124040858793289e-09,-0.00029223203282345014,-0.0009479450538150719,0.00013621136782406386,-0.00015090565778251173,0.0006766111765401559,0.0,0.0,0.0,0.0,0.0,0.0,0.0,4.019904554897202e-06,-0.00022381845273466983,-4.468831282378183e-05,0.00020520853657179927,3.02778029730999e-05,3.290494283003653e-05,-3.210421127275431e-05,-0.0003822883645779879,9.124040858793289e-09,0.00029223203282345014,0.0009479450538150719,-0.00013621136782406386,0.00015090565778251173,-0.0006766111765401559,0.6806880831718445,46.44881820678711,5.612087726593018,-19.733613967895508,-0.5221458077430725,-2.4173007011413574,0.43979209661483765,0
5,0.019234895706176758,-0.6806880831718445,-46.44881820678711,-5.612087726593018,19.733613967895508,0.5221458077430725,2.4173007011413574,-0.43979209661483765,0.0,0.0,0.0,0.0,0.0,0.0,0.0,-0.6677083486584605,-0.13957244635627436,-0.4511503872110852,0.4933564698857615,-0.05808767186345646,0.14752982544352755,-0.41456337439241026,0.8780888561658691,0.7556835678836755,-0.28251057685649694,-1.6693045699972853,0.1413883177142575,2.4034122124248083,1.027370204442077,0.878092876070424,0.7554597494309409,-0.2825552651693207,-1.6690993614607135,0.1414185955172306,2.4034451173676383,1.0273381002308042,0.0003822883645779879,-9.124040858793289e-09,-0.00029223203282345014,-0.0009479450538150719,0.00013621136782406386,-0.00015090565778251173,0.0006766111765401559,0.0,0.0,0.0,0.0,0.0,0.0,0.0,4.019904554897202e-06,-0.00022381845273466983,-4.468831282378183e-05,0.00020520853657179927,3.02778029730999e-05,3.290494283003653e-05,-3.210421127275431e-05,-0.0003822883645779879,9.124040858793289e-09,0.00029223203282345014,0.0009479450538150719,-0.00013621136782406386,0.00015090565778251173,-0.0006766111765401559,0.6806880831718445,46.44881820678711,5.612087726593018,-19.733613967895508,-0.5221458077430725,-2.4173007011413574,0.43979209661483765,0
6,0.0242459774017334,-0.7084590792655945,-46.47658920288086,-5.663662433624268,19.709810256958008,0.5221458077430725,2.4108920097351074,-0.39218467473983765,0.0,0.0,0.0,0.0,0.0,0.0,0.0,-0.6761936789732707,-0.13561583858562198,-0.46013466596173186,0.4925228300740977,-0.05835377725937942,0.14777598526682328,-0.4161387089045847,0.8780908050077002,0.7556855167255067,-0.28250696632734956,-1.66930289956143,0.14138939378456447,2.403412924501631,1.0273647969909654,0.878092876070424,0.7554597494309409,-0.2825552651693207,-1.6690993614607135,0.1414185955172306,2.4034451173676383,1.0273381002308042,0.0009822191661509512,0.0006788128134005758,0.0006730710523401919,-0.0005100505219476777,4.620745915667395e-05,0.00022537350124706917,-0.000993922304048795,0.0,0.0,0.0,0.0,0.0,0.0,0.0,2.0710627237630064e-06,-0.00022576729456580402,-4.829884197116163e-05,0.00020353810071660483,2.9201732666128688e-05,3.219286600719684e-05,-2.669676016120448e-05,-0.0009822191661509512,-0.0006788128134005758,-0.0006730710523401919,0.0005100505219476777,-4.620745915667395e-05,-0.00022537350124706917,0.000993922304048795,0.7084590792655945,46.47658920288086,5.663662433624268,-19.709810256958008,-0.5221458077430725,-2.4108920097351074,0.39218467473983765,0
7,0.02923750877380371,-0.7084590792655945,-46.47658920288086,-5.663662433624268,19.709810256958008,0.5221458077430725,2.4108920097351074,-0.39218467473983765,0.0,0.0,0.0,0.0,0.0,0.0,0.0,-0.6761936789732707,-0.13561583858562198,-0.46013466596173186,0.4925228300740977,-0.05835377725937942,0.14777598526682328,-0.4161387089045847,0.8780908050077002,0.7556855167255067,-0.28250696632734956,-1.66930289956143,0.14138939378456447,2.403412924501631,1.0273647969909654,0.878092876070424,0.7554597494309409,-0.2825552651693207,-1.6690993614607135,0.1414185955172306,2.4034451173676383,1.0273381002308042,0.0009822191661509512,0.0006788128134005758,0.0006730710523401919,-0.0005100505219476777,4.620745915667395e-05,0.00022537350124706917,-0.000993922304048795,0.0,0.0,0.0,0.0,0.0,0.0,0.0,2.0710627237630064e-06,-0.00022576729456580402,-4.829884197116163e-05,0.00020353810071660483,2.9201732666128688e-05,3.219286600719684e-05,-2.669676016120448e-05,-0.0009822191661509512,-0.0006788128134005758,-0.0006730710523401919,0.0005100505219476777,-4.620745915667395e-05,-0.00022537350124706917,0.000993922304048795,0.7084590792655945,46.47658920288086,5.663662433624268,-19.709810256958008,-0.5221458077430725,-2.4108920097351074,0.39218467473983765,0
8,0.034233808517456055,-0.6291133761405945,-46.50039291381836,-5.612087726593018,19.658235549926758,0.5340476632118225,2.4237093925476074,-0.38577598333358765,0.0,0.0,0.0,0.0,0.0,0.0,0.0,-0.6633530439646054,-0.14246939955969545,-0.4521273751105736,0.49697331998273575,-0.05883950253569781,0.1485957593896304,-0.41587677924286126,0.8780852368881826,0.755687187161362,-0.28251058560505243,-1.6692990418651645,0.14138807135820378,2.403411500347985,1.0273642026457308,0.878092876070424,0.7554597494309409,-0.2825552651693207,-1.6690993614607135,0.1414185955172306,2.4034451173676383,1.0273381002308042,-0.000802171573910896,0.0007826480190927806,-0.0002677862193082764,0.0007359801392548685,-0.0002693987040116725,-0.000487920811022257,-0.0009129307203226381,0.0,0.0,0.0,0.0,0.0,0.0,0.0,7.639182241336862e-06,-0.00022743773042110949,-4.467956426829067e-05,0.0001996804044510636,3.052415902682348e-05,3.361701965332031e-05,-2.610241492662091e-05,0.000802171573910896,-0.0007826480190927806,0.0002677862193082764,-0.0007359801392548685,0.0002693987040116725,0.000487920811022257,0.0009129307203226381,0.6291133761405945,46.50039291381836,5.612087726593018,-19.658235549926758,-0.5340476632118225,-2.4237093925476074,0.38577598333358765,0
9,0.0392303466796875,-0.6291133761405945,-46.50039291381836,-5.612087726593018,19.658235549926758,0.5340476632118225,2.4237093925476074,-0.38577598333358765,0.0,0.0,0.0,0.0,0.0,0.0,0.0,-0.6633530439646054,-0.14246939955969545,-0.4521273751105736,0.49697331998273575,-0.05883950253569781,0.1485957593896304,-0.41587677924286126,0.8780852368881826,0.755687187161362,-0.28251058560505243,-1.6692990418651645,0.14138807135820378,2.403411500347985,1.0273642026457308,0.878092876070424,0.7554597494309409,-0.2825552651693207,-1.6690993614607135,0.1414185955172306,2.4034451173676383,1.0273381002308042,-0.000802171573910896,0.0007826480190927806,-0.0002677862193082764,0.0007359801392548685,-0.0002693987040116725,-0.000487920811022257,-0.0009129307203226381,0.0,0.0,0.0,0.0,0.0,0.0,0.0,7.639182241336862e-06,-0.00022743773042110949,-4.467956426829067e-05,0.0001996804044510636,3.052415902682348e-05,3.361701965332031e-05,-2.610241492662091e-05,0.000802171573910896,-0.0007826480190927806,0.0002677862193082764,-0.0007359801392548685,0.0002693987040116725,0.000487920811022257,0.0009129307203226381,0.6291133761405945,46.50039291381836,5.612087726593018,-19.658235549926758,-0.5340476632118225,-2.4237093925476074,0.38577598333358765,0
10,0.04423260688781738,-0.6053096652030945,-46.50039291381836,-5.635891437530518,19.709810256958008,0.5340476632118225,2.4108920097351074,-0.44711631536483765,0.0,0.0,0.0,0.0,0.0,0.0,0.0,-0.6649044019792777,-0.13739544891899547,-0.4527291516536844,0.4915413497937876,-0.0587117073695161,0.14772266298454476,-0.4140601417029435,0.8780835664523274,0.755687187161362,-0.28250678927020023,-1.6693028995613803,0.1413880713582039,2.403412924501631,1.02737101679061,0.878092876070424,0.7554597494309409,-0.2825552651693207,-1.6690993614607135,0.1414185955172306,2.4034451173676383,1.0273381002308042,-0.0010910235855702453,0.000424130725562538,-0.00010523534900331749,-0.0008654702581125614,-0.000319405323245632,3.075789104717891e-05,0.0007418403045543937,0.0,0.0,0.0,0.0,0.0,0.0,0.0,9.309618096531302e-06,-0.00022743773042110949,-4.847589912049255e-05,0.00020353810066686684,3.052415902671246e-05,3.219286600719684e-05,-3.291655980586228e-05,0.0010910235855702453,-0.000424130725562538,0.00010523534900331749,0.0008654702581125614,0.000319405323245632,-3.075789104717891e-05,-0.0007418403045543937,0.6053096652030945,46.50039291381836,5.635891437530518,-19.709810256958008,-0.5340476632118225,-2.4108920097351074,0.44711631536483765,0
11,0.04923367500305176,-0.6053096652030945,-46.50039291381836,-5.635891437530518,19.709810256958008,0.5340476632118225,2.4108920097351074,-0.44711631536483765,0.0,0.0,0.0,0.0,0.0,0.0,0.0,-0.6649044019792777,-0.13739544891899547,-0.4527291516536844,0.4915413497937876,-0.0587117073695161,0.14772266298454476,-0.4140601417029435,0.8780835664523274,0.755687187161362,-0.28250678927020023,-1.6693028995613803,0.1413880713582039,2.403412924501631,1.02737101679061,0.878092876070424,0.7554597494309409,-0.2825552651693207,-1.6690993614607135,0.1414185955172306,2.4034451173676383,1.0273381002308042,-0.0010910235855702453,0.000424130725562538,-0.00010523534900331749,-0.0008654702581125614,-0.000319405323245632,3.075789104717891e-05,0.0007418403045543937,0.0,0.0,0.0,0.0,0.0,0.0,0.0,9.309618096531302e-06,-0.00022743773042110949,-4.847589912049255e-05,0.00020353810066686684,3.052415902671246e-05,3.219286600719684e-05,-3.291655980586228e-05,0.0010910235855702453,-0.000424130725562538,0.00010523534900331749,0.0008654702581125614,0.000319405323245632,-3.075789104717891e-05,-0.0007418403045543937,0.6053096652030945,46.50039291381836,5.635891437530518,-19.709810256958008,-0.5340476632118225,-2.4108920097351074,0.44711631536483765,0
12,0.05423307418823242,-0.6291133761405945,-46.50039291381836,-5.612087726593018,19.757417678833008,0.5285544991493225,2.4173007011413574,-0.39950889348983765,0.0,0.0,0.0,0.0,0.0,0.0,0.0,-0.6705100498967014,-0.14364387034765982,-0.4589491328569267,0.4931635484343924,-0.05831210073054317,0.14782583755607134,-0.4152028703784685,0.8780852368881826,0.755687187161362,-0.2825105855930517,-1.6693062404331407,0.1413886817097664,2.4034122124248083,1.0273656103085238,0.878092876070424,0.7554597494309409,-0.2825552651693207,-1.6690993614607135,0.1414185955172306,2.4034451173676383,1.0273381002308042,-0.0008015410755808018,0.00022831087181181056,-0.0001233307158485139,-0.0013230574868693427,-6.567634061757755e-05,-4.099902450113207e-05,-0.0009011114455586421,0.0,0.0,0.0,0.0,0.0,0.0,0.0,7.639182241336862e-06,-0.00022743773042110949,-4.467957626902441e-05,0.00020687897242721576,2.9913807464199138e-05,3.290494283003653e-05,-2.7510077719616888e-05,0.0008015410755808018,-0.00022831087181181056,0.0001233307158485139,0.0013230574868693427,6.567634061757755e-05,4.099902450113207e-05,0.0009011114455586421,0.6291133761405945,46.50039291381836,5.612087726593018,-19.757417678833008,-0.5285544991493225,-2.4173007011413574,0.39950889348983765,0
13,0.059301137924194336,-0.6291133761405945,-46.50039291381836,-5.612087726593018,19.757417678833008,0.5285544991493225,2.4173007011413574,-0.39950889348983765,0.0,0.0,0.0,0.0,0.0,0.0,0.0,-0.6705100498967014,-0.14364387034765982,-0.4589491328569267,0.4931635484343924,-0.05831210073054317,0.14782583755607134,-0.4152028703784685,0.8780852368881826,0.755687187161362,-0.2825105855930517,-1.6693062404331407,0.1413886817097664,2.4034122124248083,1.0273656103085238,0.878092876070424,0.7554597494309409,-0.2825552651693207,-1.6690993614607135,0.1414185955172306,2.4034451173676383,1.0273381002308042,-0.0008015410755808018,0.00022831087181181056,-0.0001233307158485139,-0.0013230574868693427,-6.567634061757755e-05,-4.099902450113207e-05,-0.0009011114455586421,0.0,0.0,0.0,0.0,0.0,0.0,0.0,7.639182241336862e-06,-0.00022743773042110949,-4.467957626902441e-05,0.00020687897242721576,2.9913807464199138e-05,3.290494283003653e-05,-2.7510077719616888e-05,0.0008015410755808018,-0.00022831087181181056,0.0001233307158485139,0.0013230574868693427,6.567634061757755e-05,4.099902450113207e-05,0.0009011114455586421,0.6291133761405945,46.50039291381836,5.612087726593018,-19.757417678833008,-0.5285544991493225,-2.4173007011413574,0.39950889348983765,0
14,0.06422948837280273,-0.7322627902030945,-46.44881820678711,-5.635891437530518,19.686006546020508,0.5285544991493225,2.4237093925476074,-0.39950889348983765,0.0,0.0,0.0,0.0,0.0,0.0,0.0,-0.6720040878336938,-0.1310956123731186,-0.45859373217175614,0.4860154859329065,-0.05812493398337424,0.1467846322525041,-0.4159402903157177,0.8780924754435555,0.7556835678836755,-0.282508915169197,-1.6693012291255749,0.1413876187602679,2.403411500347985,1.0273657285286166,0.878092876070424,0.7554597494309409,-0.2825552651693207,-1.6690993614607135,0.1414185955172306,2.4034451173676383,1.0273381002308042,0.0019563707833489758,-0.0002858707483003523,4.4028868613534424e-05,0.00011804842480105287,-0.00014174956482347118,-0.0002898275132604488,-0.0008710618589221093,0.0,0.0,0.0,0.0,0.0,0.0,0.0,4.0062686845754314e-07,-0.00022381845273466983,-4.635000012370716e-05,0.0002018676648614104,3.0976756962702856e-05,3.361701965332031e-05,-2.7628297812443137e-05,-0.0019563707833489758,0.0002858707483003523,-4.4028868613534424e-05,-0.00011804842480105287,0.00014174956482347118,0.0002898275132604488,0.0008710618589221093,0.7322627902030945,46.44881820678711,5.635891437530518,-19.686006546020508,-0.5285544991493225,-2.4237093925476074,0.39950889348983765,0
15,0.0692293643951416,-0.7322627902030945,-46.44881820678711,-5.635891437530518,19.686006546020508,0.5285544991493225,2.4237093925476074,-0.39950889348983765,0.0,0.0,0.0,0.0,0.0,0.0,0.0,-0.6720040878336938,-0.1310956123731186,-0.45859373217175614,0.4860154859329065,-0.05812493398337424,0.1467846322525041,-0.4159402903157177,0.8780924754435555,0.7556835678836755,-0.282508915169197,-1.6693012291255749,0.1413876187602679,2.403411500347985,1.0273657285286166,0.878092876070424,0.7554597494309409,-0.2825552651693207,-1.6690993614607135,0.1414185955172306,2.4034451173676383,1.0273381002308042,0.0019563707833489758,-0.0002858707483003523,4.4028868613534424e-05,0.00011804842480105287,-0.00014174956482347118,-0.0002898275132604488,-0.0008710618589221093,0.0,0.0,0.0,0.0,0.0,0.0,0.0,4.0062686845754314e-07,-0.00022381845273466983,-4.635000012370716e-05,0.0002018676648614104,3.0976756962702856e-05,3.361701965332031e-05,-2.7628297812443137e-05,-0.0019563707833489758,0.0002858707483003523,-4.4028868613534424e-05,-0.00011804842480105287,0.00014174956482347118,0.0002898275132604488,0.0008710618589221093,0.7322627902030945,46.44881820678711,5.635891437530518,-19.686006546020508,-0.5285544991493225,-2.4237093925476074,0.39950889348983765,0
16,0.07423186302185059,-0.7084590792655945,-46.47658920288086,-5.612087726593018,19.686006546020508,0.5285544991493225,2.4173007011413574,-0.40591758489608765,0.0,0.0,0.0,0.0,0.0,0.0,0.0,-0.6540713496258583,-0.1419601702070103,-0.4457522951240278,0.4956856883711567,-0.05810900790376847,0.1484057871671551,-0.41655691462618155,0.8780908050077002,0.7556855167255067,-0.28251050686805257,-1.6693005138698376,0.1413883317791716,2.4034122124248083,1.0273664406074416,0.878092876070424,0.7554597494309409,-0.2825552651693207,-1.6690993614607135,0.1414185955172306,2.4034451173676383,1.0273381002308042,0.0009867487641032284,0.0006091450813430047,0.0002910966036968336,0.00069383892381743,-0.00014732842497071304,-0.00012625611554303184,-0.00023300763757353653,0.0,0.0,0.0,0.0,0.0,0.0,0.0,2.0710627237630064e-06,-0.00022576729456580402,-4.4758301268155165e-05,0.0002011524091241057,3.0263738059005396e-05,3.290494283003653e-05,-2.834037663745903e-05,-0.0009867487641032284,-0.0006091450813430047,-0.0002910966036968336,-0.00069383892381743,0.00014732842497071304,0.00012625611554303184,0.00023300763757353653,0.7084590792655945,46.47658920288086,5.612087726593018,-19.686006546020508,-0.5285544991493225,-2.4173007011413574,0.40591758489608765,0
17,0.07923579216003418,-0.7084590792655945,-46.47658920288086,-5.612087726593018,19.686006546020508,0.5285544991493225,2.4173007011413574,-0.40591758489608765,0.0,0.0,0.0,0.0,0.0,0.0,0.0,-0.6540713496258583,-0.1419601702070103,-0.4457522951240278,0.4956856883711567,-0.05810900790376847,0.1484057871671551,-0.41655691462618155,0.8780908050077002,0.7556855167255067,-0.28251050686805257,-1.6693005138698376,0.1413883317791716,2.4034122124248083,1.0273664406074416,0.878092876070424,0.7554597494309409,-0.2825552651693207,-1.6690993614607135,0.1414185955172306,2.4034451173676383,1.0273381002308042,0.0009867487641032284,0.0006091450813430047,0.0002910966036968336,0.00069383892381743,-0.00014732842497071304,-0.00012625611554303184,-0.00023300763757353653,0.0,0.0,0.0,0.0,0.0,0.0,0.0,2.0710627237630064e-06,-0.00022576729456580402,-4.4758301268155165e-05,0.0002011524091241057,3.0263738059005396e-05,3.290494283003653e-05,-2.834037663745903e-05,-0.0009867487641032284,-0.0006091450813430047,-0.0002910966036968336,-0.00069383892381743,0.00014732842497071304,0.00012625611554303184,0.00023300763757353653,0.7084590792655945,46.47658920288086,5.612087726593018,-19.686006546020508,-0.5285544991493225,-2.4173007011413574,0.40591758489608765,0
18,0.08423113822937012,-0.7084590792655945,-46.44881820678711,-5.663662433624268,19.658235549926758,0.5285544991493225,2.4173007011413574,-0.41324180364608765,0.0,0.0,0.0,0.0,0.0,0.0,0.0,-0.6740883623080232,-0.13901359049926862,-0.45892582237824103,0.49356764619635884,-0.05804008164517647,0.1481015346552525,-0.4162953892045544,0.8780908050077002,0.7556835678836755,-0.28250688758992165,-1.669299280279706,0.14138864088119849,2.4034122124248083,1.027367254409525,0.878092876070424,0.7554597494309409,-0.2825552651693207,-1.6690993614607135,0.1414185955172306,2.4034451173676383,1.0273381002308042,0.001011874242491366,4.875915115849947e-05,0.00043772848461043974,0.0009257300727868464,-7.688648444316032e-05,-0.00024757348507934584,4.62778047927368e-06,0.0,0.0,0.0,0.0,0.0,0.0,0.0,2.0710627237630064e-06,-0.00022381845273466983,-4.837757939907261e-05,0.00019991881899250608,2.9954636032114568e-05,3.290494283003653e-05,-2.9154178720736112e-05,-0.001011874242491366,-4.875915115849947e-05,-0.00043772848461043974,-0.0009257300727868464,7.688648444316032e-05,0.00024757348507934584,-4.62778047927368e-06,0.7084590792655945,46.44881820678711,5.663662433624268,-19.658235549926758,-0.5285544991493225,-2.4173007011413574,0.41324180364608765,0
19,0.08923602104187012,-0.7084590792655945,-46.44881820678711,-5.663662433624268,19.658235549926758,0.5285544991493225,2.4173007011413574,-0.41324180364608765,0.0,0.0,0.0,0.0,0.0,0.0,0.0,-0.6740883623080232,-0.13901359049926862,-0.45892582237824103,0.49356764619635884,-0.05804008164517647,0.1481015346552525,-0.4162953892045544,0.8780908050077002,0.7556835678836755,-0.28250688758992165,-1.669299280279706,0.14138864088119849,2.4034122124248083,1.027367254409525,0.878092876070424,0.7554597494309409,-0.2825552651693207,-1.6690993614607135,0.1414185955172306,2.4034451173676383,1.0273381002308042,0.001011874242491366,4.875915115849947e-05,0.00043772848461043974,0.0009257300727868464,-7.688648444316032e-05,-0.00024757348507934584,4.62778047927368e-06,0.0,0.0,0.0,0.0,0.0,0.0,0.0,2.0710627237630064e-06,-0.00022381845273466983,-4.837757939907261e-05,0.00019991881899250608,2.9954636032114568e-05,3.290494283003653e-05,-2.9154178720736112e-05,-0.001011874242491366,-4.875915115849947e-05,-0.00043772848461043974,-0.0009257300727868464,7.688648444316032e-05,0.00024757348507934584,-4.62778047927368e-06,0.7084590792655945,46.44881820678711,5.663662433624268,-19.658235549926758,-0.5285544991493225,-2.4173007011413574,0.41324180364608765,0
20,0.0942375659942627,-0.6806880831718445,-46.42501449584961,-5.612087726593018,19.686006546020508,0.5221458077430725,2.4237093925476074,-0.41324180364608765,0.0,0.0,0.0,0.0,0.0,0.0,0.0,-0.6577324726035528,-0.1284200707841158,-0.4471687293640302,0.49095501762548266,-0.05832950838252352,0.14781411160027827,-0.41586616325503684,0.8780888561658691,0.7556818974478203,-0.282510585604608,-1.6693012291255749,0.1413893937863588,2.403411500347985,1.0273672413275727,0.878092876070424,0.7554597494309409,-0.2825552651693207,-1.6690993614607135,0.1414185955172306,2.4034451173676383,1.0273381002308042,0.00025998908560450164,-1.8587932510665494e-05,-0.00046064828233784876,8.55833083016489e-05,0.0003406777636882316,-0.00031538139087167487,6.737477123162947e-05,0.0,0.0,0.0,0.0,0.0,0.0,0.0,4.019904554897202e-06,-0.00022214801687947539,-4.467956471271295e-05,0.0002018676648614104,2.9201730871786236e-05,3.361701965332031e-05,-2.9141096768547925e-05,-0.00025998908560450164,1.8587932510665494e-05,0.00046064828233784876,-8.55833083016489e-05,-0.0003406777636882316,0.00031538139087167487,-6.737477123162947e-05,0.6806880831718445,46.42501449584961,5.612087726593018,-19.686006546020508,-0.5221458077430725,-2.4237093925476074,0.41324180364608765,0
21,0.09923338890075684,-0.6806880831718445,-46.42501449584961,-5.612087726593018,19.686006546020508,0.5221458077430725,2.4237093925476074,-0.41324180364608765,0.0,0.0,0.0,0.0,0.0,0.0,0.0,-0.6577324726035528,-0.1284200707841158,-0.4471687293640302,0.49095501762548266,-0.05832950838252352,0.14781411160027827,-0.41586616325503684,0.8780888561658691,0.7556818974478203,-0.282510585604608,-1.6693012291255749,0.1413893937863588,2.403411500347985,1.0273672413275727,0.878092876070424,0.7554597494309409,-0.2825552651693207,-1.6690993614607135,0.1414185955172306,2.4034451173676383,1.0273381002308042,0.00025998908560450164,-1.8587932510665494e-05,-0.00046064828233784876,8.55833083016489e-05,0.0003406777636882316,-0.00031538139087167487,6.737477123162947e-05,0.0,0.0,0.0,0.0,0.0,0.0,0.0,4.019904554897202e-06,-0.00022214801687947539,-4.467956471271295e-05,0.0002018676648614104,2.9201730871786236e-05,3.361701965332031e-05,-2.9141096768547925e-05,-0.00025998908560450164,1.8587932510665494e-05,0.00046064828233784876,-8.55833083016489e-05,-0.0003406777636882316,0.00031538139087167487,-6.737477123162947e-05,0.6806880831718445,46.42501449584961,5.612087726593018,-19.686006546020508,-0.5221458077430725,-2.4237093925476074,0.41324180364608765,0
22,0.10423994064331055,-0.6806880831718445,-46.47658920288086,-5.635891437530518,19.709810256958008,0.5285544991493225,2.4044833183288574,-0.41324180364608765,0.0,0.0,0.0,0.0,0.0,0.0,0.0,-0.6612777255733793,-0.1385441804299331,-0.45159063936742605,0.4985268902248105,-0.05762317195246158,0.14928172819175464,-0.41426745209005056,0.8780888561658691,0.7556855167255067,-0.2825089151691972,-1.66930289956143,0.1413886817097664,2.403413636578454,1.0273671366718813,0.878092876070424,0.7554597494309409,-0.2825552651693207,-1.6690993614607135,0.1414185955172306,2.4034451173676383,1.0273381002308042,0.00044767389597373503,0.001039086005091129,0.00015482776949968984,-5.014761202668015e-05,-8.348690190690172e-05,0.0003379756465574555,-4.4849205522561084e-05,0.0,0.0,0.0,0.0,0.0,0.0,0.0,4.019904554897202e-06,-0.00022576729456580402,-4.6350000123540624e-05,0.00020353810071660483,2.9913807464199138e-05,3.148078918435715e-05,-2.903644107710157e-05,-0.00044767389597373503,-0.001039086005091129,-0.00015482776949968984,5.014761202668015e-05,8.348690190690172e-05,-0.0003379756465574555,4.4849205522561084e-05,0.6806880831718445,46.47658920288086,5.635891437530518,-19.709810256958008,-0.5285544991493225,-2.4044833183288574,0.41324180364608765,0
23,0.10924267768859863,-0.6806880831718445,-46.47658920288086,-5.635891437530518,19.709810256958008,0.5285544991493225,2.4044833183288574,-0.41324180364608765,0.0,0.0,0.0,0.0,0.0,0.0,0.0,-0.6612777255733793,-0.1385441804299331,-0.45159063936742605,0.4985268902248105,-0.05762317195246158,0.14928172819175464,-0.41426745209005056,0.8780888561658691,0.7556855167255067,-0.2825089151691972,-1.66930289956143,0.1413886817097664,2.403413636578454,1.0273671366718813,0.878092876070424,0.7554597494309409,-0.2825552651693207,-1.6690993614607135,0.1414185955172306,2.4034451173676383,1.0273381002308042,0.00044767389597373503,0.001039086005091129,0.00015482776949968984,-5.014761202668015e-05,-8.348690190690172e-05,0.0003379756465574555,-4.4849205522561084e-05,0.0,0.0,0.0,0.0,0.0,0.0,0.0,4.019904554897202e-06,-0.00022576729456580402,-4.6350000123540624e-05,0.00020353810071660483,2.9913807464199138e-05,3.148078918435715e-05,-2.903644107710157e-05,-0.00044767389597373503,-0.001039086005091129,-0.00015482776949968984,5.014761202668015e-05,8.348690190690172e-05,-0.0003379756465574555,4.4849205522561084e-05,0.6806880831718445,46.47658920288086,5.635891437530518,-19.709810256958008,-0.5285544991493225,-2.4044833183288574,0.41324180364608765,0
24,0.11425971984863281,-0.6568843722343445,-46.47658920288086,-5.635891437530518,19.686006546020508,0.5221458077430725,2.4173007011413574,-0.43338340520858765,0.0,0.0,0.0,0.0,0.0,0.0,0.0,-0.6681143120670548,-0.13868663012572024,-0.4563825619392555,0.4964895629671228,-0.05722881825525473,0.14881882344980268,-0.41340560716184155,0.8780871857300139,0.7556855167255067,-0.28250820653619824,-1.6693012026346217,0.1413893937865893,2.4034122124248083,1.0273694922017547,0.878092876070424,0.7554597494309409,-0.2825552651693207,-1.6690993614607135,0.1414185955172306,2.4034451173676383,1.0273381002308042,1.547209673383663e-05,0.00016775761582917724,2.8597654141284912e-05,-0.00021476259811952885,0.0001201801258003494,-1.571268563604941e-05,0.0001892820161054996,0.0,0.0,0.0,0.0,0.0,0.0,0.0,5.690340410091643e-06,-0.00022576729456580402,-4.705863312248759e-05,0.00020184117390820155,2.9201730641303936e-05,3.290494283003653e-05,-3.139197095047841e-05,-1.547209673383663e-05,-0.00016775761582917724,-2.8597654141284912e-05,0.00021476259811952885,-0.0001201801258003494,1.571268563604941e-05,-0.0001892820161054996,0.6568843722343445,46.47658920288086,5.635891437530518,-19.686006546020508,-0.5221458077430725,-2.4173007011413574,0.43338340520858765,0
25,0.1196894645690918,-0.6568843722343445,-46.47658920288086,-5.635891437530518,19.686006546020508,0.5221458077430725,2.4173007011413574,-0.43338340520858765,0.0,0.0,0.0,0.0,0.0,0.0,0.0,-0.6681143120670548,-0.13868663012572024,-0.4563825619392555,0.4964895629671228,-0.05722881825525473,0.14881882344980268,-0.41340560716184155,0.8780871857300139,0.7556855167255067,-0.28250820653619824,-1.6693012026346217,0.1413893937865893,2.4034122124248083,1.0273694922017547,0.878092876070424,0.7554597494309409,-0.2825552651693207,-1.6690993614607135,0.1414185955172306,2.4034451173676383,1.0273381002308042,1.547209673383663e-05,0.00016775761582917724,2.8597654141284912e-05,-0.00021476259811952885,0.0001201801258003494,-1.571268563604941e-05,0.0001892820161054996,0.0,0.0,0.0,0.0,0.0,0.0,0.0,5.690340410091643e-06,-0.00022576729456580402,-4.705863312248759e-05,0.00020184117390820155,2.9201730641303936e-05,3.290494283003653e-05,-3.139197095047841e-05,-1.547209673383663e-05,-0.00016775761582917724,-2.8597654141284912e-05,0.00021476259811952885,-0.0001201801258003494,1.571268563604941e-05,-0.0001892820161054996,0.6568843722343445,46.47658920288086,5.635891437530518,-19.686006546020508,-0.5221458077430725,-2.4173007011413574,0.43338340520858765,0
26,0.12423586845397949,-0.6568843722343445,-46.47658920288086,-5.635891437530518,19.686006546020508,0.5221458077430725,2.4173007011413574,-0.43338340520858765,0.0,0.0,0.0,0.0,0.0,0.0,0.0,-0.6681143120670548,-0.13868663012572024,-0.4563825619392555,0.4964895629671228,-0.05722881825525473,0.14881882344980268,-0.41340560716184155,0.8780871857300139,0.7556855167255067,-0.28250820653619824,-1.6693012026346217,0.1413893937865893,2.4034122124248083,1.0273694922017547,0.878092876070424,0.7554597494309409,-0.2825552651693207,-1.6690993614607135,0.1414185955172306,2.4034451173676383,1.0273381002308042,1.547209673383663e-05,0.00016775761582917724,2.8597654141284912e-05,-0.00021476259811952885,0.0001201801258003494,-1.571268563604941e-05,0.0001892820161054996,0.0,0.0,0.0,0.0,0.0,0.0,0.0,5.690340410091643e-06,-0.00022576729456580402,-4.705863312248759e-05,0.00020184117390820155,2.9201730641303936e-05,3.290494283003653e-05,-3.139197095047841e-05,-1.547209673383663e-05,-0.00016775761582917724,-2.8597654141284912e-05,0.00021476259811952885,-0.0001201801258003494,1.571268563604941e-05,-0.0001892820161054996,0.6568843722343445,46.47658920288086,5.635891437530518,-19.686006546020508,-0.5221458077430725,-2.4173007011413574,0.43338340520858765,0
27,0.12947773933410645,-0.6568843722343445,-46.47658920288086,-5.635891437530518,19.686006546020508,0.5221458077430725,2.4173007011413574,-0.43338340520858765,0.0,0.0,0.0,0.0,0.0,0.0,0.0,-0.6681143120670548,-0.13868663012572024,-0.4563825619392555,0.4964895629671228,-0.05722881825525473,0.14881882344980268,-0.41340560716184155,0.8780871857300139,0.7556855167255067,-0.28250820653619824,-1.6693012026346217,0.1413893937865893,2.4034122124248083,1.0273694922017547,0.878092876070424,0.7554597494309409,-0.2825552651693207,-1.6690993614607135,0.1414185955172306,2.4034451173676383,1.0273381002308042,1.547209673383663e-05,0.00016775761582917724,2.8597654141284912e-05,-0.00021476259811952885,0.0001201801258003494,-1.571268563604941e-05,0.0001892820161054996,0.0,0.0,0.0,0.0,0.0,0.0,0.0,5.690340410091643e-06,-0.00022576729456580402,-4.705863312248759e-05,0.00020184117390820155,2.9201730641303936e-05,3.290494283003653e-05,-3.139197095047841e-05,-1.547209673383663e-05,-0.00016775761582917724,-2.8597654141284912e-05,0.00021476259811952885,-0.0001201801258003494,1.571268563604941e-05,-0.0001892820161054996,0.6568843722343445,46.47658920288086,5.635891437530518,-19.686006546020508,-0.5221458077430725,-2.4173007011413574,0.43338340520858765,0
28,0.1341876983642578,-0.6568843722343445,-46.52419662475586,-5.612087726593018,19.733613967895508,0.5340476632118225,2.4173007011413574,-0.39950889348983765,0.0,0.0,0.0,0.0,0.0,0.0,0.0,-0.65587630661126,-0.13685204042146526,-0.4525819334474557,0.49646983697555735,-0.057704715197752325,0.14958370832617537,-0.4154175193340119,0.8780871857300139,0.7556888575972173,-0.28251058560371906,-1.6693045696580737,0.14138807085417188,2.403415744551906,1.0273657285306184,0.878092876070424,0.7554597494309409,-0.2825552651693207,-1.6690993614607135,0.1414185955172306,2.4034451173676383,1.0273381002308042,0.00024139489347288842,0.0012759052518002151,-0.0003646571111957972,-0.0005376748027939779,-0.000373639774918929,8.595127547583941e-05,-0.000432612443218063,0.0,0.0,0.0,0.0,0.0,0.0,0.0,5.690340410091643e-06,-0.00022910816627641495,-4.4679565601668525e-05,0.00020520819736025153,3.0524663058723034e-05,2.9372815732120472e-05,-2.762829981417525e-05,-0.00024139489347288842,-0.0012759052518002151,0.0003646571111957972,0.0005376748027939779,0.000373639774918929,-8.595127547583941e-05,0.000432612443218063,0.6568843722343445,46.52419662475586,5.612087726593018,-19.733613967895508,-0.5340476632118225,-2.4173007011413574,0.39950889348983765,0
29,0.13922929763793945,-0.6568843722343445,-46.52419662475586,-5.612087726593018,19.733613967895508,0.5340476632118225,2.4173007011413574,-0.39950889348983765,0.0,0.0,0.0,0.0,0.0,0.0,0.0,-0.65587630661126,-0.13685204042146526,-0.4525819334474557,0.49646983697555735,-0.057704715197752325,0.14958370832617537,-0.4154175193340119,0.8780871857300139,0.7556888575972173,-0.28251058560371906,-1.6693045696580737,0.14138807085417188,2.403415744551906,1.0273657285306184,0.878092876070424,0.7554597494309409,-0.2825552651693207,-1.6690993614607135,0.1414185955172306,2.4034451173676383,1.0273381002308042,0.00024139489347288842,0.0012759052518002151,-0.0003646571111957972,-0.0005376748027939779,-0.000373639774918929,8.595127547583941e-05,-0.000432612443218063,0.0,0.0,0.0,0.0,0.0,0.0,0.0,5.690340410091643e-06,-0.00022910816627641495,-4.4679565601668525e-05,0.00020520819736025153,3.0524663058723034e-05,2.9372815732120472e-05,-2.762829981417525e-05,-0.00024139489347288842,-0.0012759052518002151,0.0003646571111957972,0.0005376748027939779,0.000373639774918929,-8.595127547583941e-05,0.000432612443218063,0.6568843722343445,46.52419662475586,5.612087726593018,-19.733613967895508,-0.5340476632118225,-2.4173007011413574,0.39950889348983765,0
30,0.1442575454711914,-0.6568843722343445,-46.44881820678711,-5.635891437530518,19.686006546020508,0.5459495186805725,2.4173007011413574,-0.41324180364608765,0.0,0.0,0.0,0.0,0.0,0.0,0.0,-0.6645485937989493,-0.13010138377645455,-0.4607698656959332,0.4908397660919917,-0.0580981036367599,0.14899094690433776,-0.41487427981994257,0.8780871857300139,0.7556835678836755,-0.2825089151691972,-1.6693012291255729,0.14138568598031714,2.403412212444747,1.027367254409525,0.878092876070424,0.7554597494309409,-0.2825552651693207,-1.6690993614607135,0.1414185955172306,2.4034451173676383,1.0273381002308042,-0.00033667382024922505,-0.0006623223455200825,0.0002093754045726815,0.00020751658847890548,-0.0007480688013149191,-0.0002446940635817433,-2.410934604636361e-05,0.0,0.0,0.0,0.0,0.0,0.0,0.0,5.690340410091643e-06,-0.00022381845273466983,-4.6350000123540624e-05,0.000201867664859412,3.290953691345577e-05,3.290492289131919e-05,-2.9154178720736112e-05,0.00033667382024922505,0.0006623223455200825,-0.0002093754045726815,-0.00020751658847890548,0.0007480688013149191,0.0002446940635817433,2.410934604636361e-05,0.6568843722343445,46.44881820678711,5.635891437530518,-19.686006546020508,-0.5459495186805725,-2.4173007011413574,0.41324180364608765,0
31,0.14974713325500488,-0.6568843722343445,-46.44881820678711,-5.635891437530518,19.686006546020508,0.5459495186805725,2.4173007011413574,-0.41324180364608765,0.0,0.0,0.0,0.0,0.0,0.0,0.0,-0.6645485937989493,-0.13010138377645455,-0.4607698656959332,0.4908397660919917,-0.0580981036367599,0.14899094690433776,-0.41487427981994257,0.8780871857300139,0.7556835678836755,-0.2825089151691972,-1.6693012291255729,0.14138568598031714,2.403412212444747,1.027367254409525,0.878092876070424,0.7554597494309409,-0.2825552651693207,-1.6690993614607135,0.1414185955172306,2.4034451173676383,1.0273381002308042,-0.00033667382024922505,-0.0006623223455200825,0.0002093754045726815,0.00020751658847890548,-0.0007480688013149191,-0.0002446940635817433,-2.410934604636361e-05,0.0,0.0,0.0,0.0,0.0,0.0,0.0,5.690340410091643e-06,-0.00022381845273466983,-4.6350000123540624e-05,0.000201867664859412,3.290953691345577e-05,3.290492289131919e-05,-2.9154178720736112e-05,0.00033667382024922505,0.0006623223455200825,-0.0002093754045726815,-0.00020751658847890548,0.0007480688013149191,0.0002446940635817433,2.410934604636361e-05,0.6568843722343445,46.44881820678711,5.635891437530518,-19.686006546020508,-0.5459495186805725,-2.4173007011413574,0.41324180364608765,0
32,0.1546494960784912,-0.6806880831718445,-46.47658920288086,-5.588284015655518,19.709810256958008,0.5221458077430725,2.4173007011413574,-0.41965049505233765,0.0,0.0,0.0,0.0,0.0,0.0,0.0,-0.6598963686004455,-0.1230682698761042,-0.4570077291151707,0.48752423193892447,-0.05834600495970167,0.14785497494783356,-0.41539389435531915,0.8780888296749159,0.7556855167255067,-0.2825115473719064,-1.66930289956143,0.14138939329455805,2.4034122124248083,1.0273679664863478,0.878092876070424,0.7554597494309409,-0.2825552651693207,-1.6690993614607135,0.1414185955172306,2.4034451173676383,1.0273381002308042,0.000578096849323536,0.0007395789413366817,-0.0017988407834944025,-0.00042446271358164594,0.0001375914933031769,-0.00013097677384770132,0.0005617532346792445,0.0,0.0,0.0,0.0,0.0,0.0,0.0,4.046395508106038e-06,-0.00022576729456580402,-4.371779741429993e-05,0.00020353810071660483,2.9202222672553013e-05,3.290494283003653e-05,-2.9866255543575804e-05,-0.000578096849323536,-0.0007395789413366817,0.0017988407834944025,0.00042446271358164594,-0.0001375914933031769,0.00013097677384770132,-0.0005617532346792445,0.6806880831718445,46.47658920288086,5.588284015655518,-19.709810256958008,-0.5221458077430725,-2.4173007011413574,0.41965049505233765,0
33,0.159254789352417,-0.6806880831718445,-46.47658920288086,-5.588284015655518,19.709810256958008,0.5221458077430725,2.4173007011413574,-0.41965049505233765,0.0,0.0,0.0,0.0,0.0,0.0,0.0,-0.6598963686004455,-0.1230682698761042,-0.4570077291151707,0.48752423193892447,-0.05834600495970167,0.14785497494783356,-0.41539389435531915,0.8780888296749159,0.7556855167255067,-0.2825115473719064,-1.66930289956143,0.14138939329455805,2.4034122124248083,1.0273679664863478,0.878092876070424,0.7554597494309409,-0.2825552651693207,-1.6690993614607135,0.1414185955172306,2.4034451173676383,1.0273381002308042,0.000578096849323536,0.0007395789413366817,-0.0017988407834944025,-0.00042446271358164594,0.0001375914933031769,-0.00013097677384770132,0.0005617532346792445,0.0,0.0,0.0,0.0,0.0,0.0,0.0,4.046395508106038e-06,-0.00022576729456580402,-4.371779741429993e-05,0.00020353810071660483,2.9202222672553013e-05,3.290494283003653e-05,-2.9866255543575804e-05,-0.000578096849323536,-0.0007395789413366817,0.0017988407834944025,0.00042446271358164594,-0.0001375914933031769,0.00013097677384770132,-0.0005617532346792445,0.6806880831718445,46.47658920288086,5.588284015655518,-19.709810256958008,-0.5221458077430725,-2.4173007011413574,0.41965049505233765,0
34,0.1642317771911621,-0.6806880831718445,-46.44881820678711,-5.612087726593018,19.709810256958008,0.5221458077430725,2.4173007011413574,-0.42605918645858765,0.0,0.0,0.0,0.0,0.0,0.0,0.0,-0.6517805553923056,-0.1480600831984115,-0.4556631990498216,0.49989025983082164,-0.05815644190842224,0.14980322071169816,-0.4138328224094111,0.8780888561657195,0.7556835678836755,-0.282508459702055,-1.66930289956143,0.14138939378658652,2.4034122124248083,1.02736867420252,0.878092876070424,0.7554597494309409,-0.2825552651693207,-1.6690993614607135,0.1414185955172306,2.4034451173676383,1.0273381002308042,0.0008904310584016538,-0.000601911711426648,-0.0010294069369355776,-3.9573792688074443e-05,0.00017719564649405762,4.065638998333961e-05,0.0004914430190577255,0.0,0.0,0.0,0.0,0.0,0.0,0.0,4.019904704444244e-06,-0.00022381845273466983,-4.680546726570922e-05,0.00020353810071660483,2.9201730644079493e-05,3.290494283003653e-05,-3.0573971715908144e-05,-0.0008904310584016538,0.000601911711426648,0.0010294069369355776,3.9573792688074443e-05,-0.00017719564649405762,-4.065638998333961e-05,-0.0004914430190577255,0.6806880831718445,46.44881820678711,5.612087726593018,-19.709810256958008,-0.5221458077430725,-2.4173007011413574,0.42605918645858765,0
35,0.16919898986816406,-0.6806880831718445,-46.44881820678711,-5.612087726593018,19.709810256958008,0.5221458077430725,2.4173007011413574,-0.42605918645858765,0.0,0.0,0.0,0.0,0.0,0.0,0.0,-0.6517805553923056,-0.1480600831984115,-0.4556631990498216,0.49989025983082164,-0.05815644190842224,0.14980322071169816,-0.4138328224094111,0.8780888561657195,0.7556835678836755,-0.282508459702055,-1.66930289956143,0.14138939378658652,2.4034122124248083,1.02736867420252,0.878092876070424,0.7554597494309409,-0.2825552651693207,-1.6690993614607135,0.1414185955172306,2.4034451173676383,1.0273381002308042,0.0008904310584016538,-0.000601911711426648,-0.0010294069369355776,-3.9573792688074443e-05,0.00017719564649405762,4.065638998333961e-05,0.0004914430190577255,0.0,0.0,0.0,0.0,0.0,0.0,0.0,4.019904704444244e-06,-0.00022381845273466983,-4.680546726570922e-05,0.00020353810071660483,2.9201730644079493e-05,3.290494283003653e-05,-3.0573971715908144e-05,-0.0008904310584016538,0.000601911711426648,0.0010294069369355776,3.9573792688074443e-05,-0.00017719564649405762,-4.065638998333961e-05,-0.0004914430190577255,0.6806880831718445,46.44881820678711,5.612087726593018,-19.709810256958008,-0.5221458077430725,-2.4173007011413574,0.42605918645858765,0
36,0.17423105239868164,-0.6568843722343445,-46.44881820678711,-5.635891437530518,19.709810256958008,0.5221458077430725,2.4044833183288574,-0.39218467473983765,0.0,0.0,0.0,0.0,0.0,0.0,0.0,-0.648507756996899,-0.1346568582076411,-0.45202673370041585,0.49259865890631743,-0.05835219442897387,0.14841264162808654,-0.4134204067191857,0.8780871857300139,0.7556835678836755,-0.28250891516519694,-1.66930289956143,0.1413893937865893,2.403413636578454,1.0273649147285273,0.878092876070424,0.7554597494309409,-0.2825552651693207,-1.6690993614607135,0.1414185955172306,2.4034451173676383,1.0273381002308042,0.0005236652920490646,-0.0001654211196321408,0.00031864025108420955,-0.00037502081003195546,-5.127429686099904e-05,0.00023255924244900284,-0.0014650099912351749,0.0,0.0,0.0,0.0,0.0,0.0,0.0,5.690340410091643e-06,-0.00022381845273466983,-4.6350004123785205e-05,0.00020353810071660483,2.9201730641303936e-05,3.148078918435715e-05,-2.6814497723126607e-05,-0.0005236652920490646,0.0001654211196321408,-0.00031864025108420955,0.00037502081003195546,5.127429686099904e-05,-0.00023255924244900284,0.0014650099912351749,0.6568843722343445,46.44881820678711,5.635891437530518,-19.709810256958008,-0.5221458077430725,-2.4044833183288574,0.39218467473983765,0
37,0.17925548553466797,-0.6568843722343445,-46.44881820678711,-5.635891437530518,19.709810256958008,0.5221458077430725,2.4044833183288574,-0.39218467473983765,0.0,0.0,0.0,0.0,0.0,0.0,0.0,-0.648507756996899,-0.1346568582076411,-0.45202673370041585,0.49259865890631743,-0.05835219442897387,0.14841264162808654,-0.4134204067191857,0.8780871857300139,0.7556835678836755,-0.28250891516519694,-1.66930289956143,0.1413893937865893,2.403413636578454,1.0273649147285273,0.878092876070424,0.7554597494309409,-0.2825552651693207,-1.6690993614607135,0.1414185955172306,2.4034451173676383,1.0273381002308042,0.0005236652920490646,-0.0001654211196321408,0.00031864025108420955,-0.00037502081003195546,-5.127429686099904e-05,0.00023255924244900284,-0.0014650099912351749,0.0,0.0,0.0,0.0,0.0,0.0,0.0,5.690340410091643e-06,-0.00022381845273466983,-4.6350004123785205e-05,0.00020353810071660483,2.9201730641303936e-05,3.148078918435715e-05,-2.6814497723126607e-05,-0.0005236652920490646,0.0001654211196321408,-0.00031864025108420955,0.00037502081003195546,5.127429686099904e-05,-0.00023255924244900284,0.0014650099912351749,0.6568843722343445,46.44881820678711,5.635891437530518,-19.709810256958008,-0.5221458077430725,-2.4044833183288574,0.39218467473983765,0
38,0.1842503547668457,-0.7084590792655945,-46.44881820678711,-5.612087726593018,19.686006546020508,0.5221458077430725,2.4044833183288574,-0.43338340520858765,0.0,0.0,0.0,0.0,0.0,0.0,0.0,-0.6592447860980374,-0.14348027614731568,-0.4623520284464313,0.49970989751298894,-0.057972312271535736,0.14939572806766127,-0.4147485077264412,0.8780908050077002,0.7556835678836755,-0.28251058560505243,-1.6693012291255749,0.14138927568108947,2.4034136409391045,1.027369492365254,0.878092876070424,0.7554597494309409,-0.2825552651693207,-1.6690993614607135,0.1414185955172306,2.4034451173676383,1.0273381002308042,0.0014352702817015154,-0.000434946560529953,-0.00021107562066721692,0.0003193304724187656,8.401434115481643e-06,0.0002963583079979094,0.0009522418755368946,0.0,0.0,0.0,0.0,0.0,0.0,0.0,2.0710627237630064e-06,-0.00022381845273466983,-4.467956426829067e-05,0.0002018676648614104,2.931983614112843e-05,3.14764285338498e-05,-3.139213444991462e-05,-0.0014352702817015154,0.000434946560529953,0.00021107562066721692,-0.0003193304724187656,-8.401434115481643e-06,-0.0002963583079979094,-0.0009522418755368946,0.7084590792655945,46.44881820678711,5.612087726593018,-19.686006546020508,-0.5221458077430725,-2.4044833183288574,0.43338340520858765,0
39,0.1892411708831787,-0.7084590792655945,-46.44881820678711,-5.612087726593018,19.686006546020508,0.5221458077430725,2.4044833183288574,-0.43338340520858765,0.0,0.0,0.0,0.0,0.0,0.0,0.0,-0.6592447860980374,-0.14348027614731568,-0.4623520284464313,0.49970989751298894,-0.057972312271535736,0.14939572806766127,-0.4147485077264412,0.8780908050077002,0.7556835678836755,-0.28251058560505243,-1.6693012291255749,0.14138927568108947,2.4034136409391045,1.027369492365254,0.878092876070424,0.7554597494309409,-0.2825552651693207,-1.6690993614607135,0.1414185955172306,2.4034451173676383,1.0273381002308042,0.0014352702817015154,-0.000434946560529953,-0.00021107562066721692,0.0003193304724187656,8.401434115481643e-06,0.0002963583079979094,0.0009522418755368946,0.0,0.0,0.0,0.0,0.0,0.0,0.0,2.0710627237630064e-06,-0.00022381845273466983,-4.467956426829067e-05,0.0002018676648614104,2.931983614112843e-05,3.14764285338498e-05,-3.139213444991462e-05,-0.0014352702817015154,0.000434946560529953,0.00021107562066721692,-0.0003193304724187656,-8.401434115481643e-06,-0.0002963583079979094,-0.0009522418755368946,0.7084590792655945,46.44881820678711,5.612087726593018,-19.686006546020508,-0.5221458077430725,-2.4044833183288574,0.43338340520858765,0
40,0.19423413276672363,-0.6053096652030945,-46.44881820678711,-5.612087726593018,19.658235549926758,0.5404563546180725,2.4108920097351074,-0.41324180364608765,0.0,0.0,0.0,0.0,0.0,0.0,0.0,-0.649543118765782,-0.13278512831633804,-0.45175771566719347,0.4955695562563968,-0.059025635325723746,0.14906949781369233,-0.4146064272168067,0.8780835664523274,0.7556835678836755,-0.28251058560505243,-1.6692982470275513,0.14138735928071425,2.4034129245016556,1.027367254409525,0.878092876070424,0.7554597494309409,-0.2825552651693207,-1.6690993614607135,0.1414185955172306,2.4034451173676383,1.0273381002308042,-0.0010707093928429637,-0.0003615905612008967,-0.00032852101112679417,0.0006479984031001535,-0.0028202905677113207,0.0002977643149250607,-0.00027550862051593236,0.0,0.0,0.0,0.0,0.0,0.0,0.0,9.309618096531302e-06,-0.00022381845273466983,-4.467956426829067e-05,0.00019888556683778091,3.12362365163521e-05,3.2192865982771934e-05,-2.9154178720736112e-05,0.0010707093928429637,0.0003615905612008967,0.00032852101112679417,-0.0006479984031001535,0.0028202905677113207,-0.0002977643149250607,0.00027550862051593236,0.6053096652030945,46.44881820678711,5.612087726593018,-19.658235549926758,-0.5404563546180725,-2.4108920097351074,0.41324180364608765,0
41,0.1992337703704834,-0.6053096652030945,-46.44881820678711,-5.612087726593018,19.658235549926758,0.5404563546180725,2.4108920097351074,-0.41324180364608765,0.0,0.0,0.0,0.0,0.0,0.0,0.0,-0.649543118765782,-0.13278512831633804,-0.45175771566719347,0.4955695562563968,-0.059025635325723746,0.14906949781369233,-0.4146064272168067,0.8780835664523274,0.7556835678836755,-0.28251058560505243,-1.6692982470275513,0.14138735928071425,2.4034129245016556,1.027367254409525,0.878092876070424,0.7554597494309409,-0.2825552651693207,-1.6690993614607135,0.1414185955172306,2.4034451173676383,1.0273381002308042,-0.0010707093928429637,-0.0003615905612008967,-0.00032852101112679417,0.0006479984031001535,-0.0028202905677113207,0.0002977643149250607,-0.00027550862051593236,0.0,0.0,0.0,0.0,0.0,0.0,0.0,9.309618096531302e-06,-0.00022381845273466983,-4.467956426829067e-05,0.00019888556683778091,3.12362365163521e-05,3.2192865982771934e-05,-2.9154178720736112e-05,0.0010707093928429637,0.0003615905612008967,0.00032852101112679417,-0.0006479984031001535,0.0028202905677113207,-0.0002977643149250607,0.00027550862051593236,0.6053096652030945,46.44881820678711,5.612087726593018,-19.658235549926758,-0.5404563546180725,-2.4108920097351074,0.41324180364608765,0
42,0.20424294471740723,-0.6568843722343445,-46.44881820678711,-5.635891437530518,19.709810256958008,0.5285544991493225,2.4108920097351074,-0.39218467473983765,0.0,0.0,0.0,0.0,0.0,0.0,0.0,-0.6598918543618734,-0.14009192830024325,-0.45830732661016244,0.49978478348116934,-0.057509528476768684,0.150006823843346,-0.414872320670315,0.8780871856209976,0.7556835678836755,-0.28250891225301206,-1.6693028966121581,0.1413886817097664,2.403412924501631,1.0273649147285353,0.878092876070424,0.7554597494309409,-0.2825552651693207,-1.6690993614607135,0.1414185955172306,2.4034451173676383,1.0273381002308042,-0.0002440400757830736,-3.985275680536466e-05,4.418635497465268e-05,9.767049752681362e-05,-0.00019957576165499337,7.965586704525917e-05,-0.001011341196152736,0.0,0.0,0.0,0.0,0.0,0.0,0.0,5.690449426332123e-06,-0.00022381845273466983,-4.6352916308667336e-05,0.00020353515144466705,2.9913807464199138e-05,3.219286600719684e-05,-2.6814497731120213e-05,0.0002440400757830736,3.985275680536466e-05,-4.418635497465268e-05,-9.767049752681362e-05,0.00019957576165499337,-7.965586704525917e-05,0.001011341196152736,0.6568843722343445,46.44881820678711,5.635891437530518,-19.709810256958008,-0.5285544991493225,-2.4108920097351074,0.39218467473983765,0
43,0.20927858352661133,-0.6568843722343445,-46.44881820678711,-5.635891437530518,19.709810256958008,0.5285544991493225,2.4108920097351074,-0.39218467473983765,0.0,0.0,0.0,0.0,0.0,0.0,0.0,-0.6598918543618734,-0.14009192830024325,-0.45830732661016244,0.49978478348116934,-0.057509528476768684,0.150006823843346,-0.414872320670315,0.8780871856209976,0.7556835678836755,-0.28250891225301206,-1.6693028966121581,0.1413886817097664,2.403412924501631,1.0273649147285353,0.878092876070424,0.7554597494309409,-0.2825552651693207,-1.6690993614607135,0.1414185955172306,2.4034451173676383,1.0273381002308042,-0.0002440400757830736,-3.985275680536466e-05,4.418635497465268e-05,9.767049752681362e-05,-0.00019957576165499337,7.965586704525917e-05,-0.001011341196152736,0.0,0.0,0.0,0.0,0.0,0.0,0.0,5.690449426332123e-06,-0.00022381845273466983,-4.6352916308667336e-05,0.00020353515144466705,2.9913807464199138e-05,3.219286600719684e-05,-2.6814497731120213e-05,0.0002440400757830736,3.985275680536466e-05,-4.418635497465268e-05,-9.767049752681362e-05,0.00019957576165499337,-7.965586704525917e-05,0.001011341196152736,0.6568843722343445,46.44881820678711,5.635891437530518,-19.709810256958008,-0.5285544991493225,-2.4108920097351074,0.39218467473983765,0
44,0.21427202224731445,-0.6568843722343445,-46.44881820678711,-5.635891437530518,19.709810256958008,0.5285544991493225,2.4108920097351074,-0.39218467473983765,0.0,0.0,0.0,0.0,0.0,0.0,0.0,-0.6598918543618734,-0.14009192830024325,-0.45830732661016244,0.49978478348116934,-0.057509528476768684,0.150006823843346,-0.414872320670315,0.8780871856209976,0.7556835678836755,-0.28250891225301206,-1.6693028966121581,0.1413886817097664,2.403412924501631,1.0273649147285353,0.878092876070424,0.7554597494309409,-0.2825552651693207,-1.6690993614607135,0.1414185955172306,2.4034451173676383,1.0273381002308042,-0.0002440400757830736,-3.985275680536466e-05,4.418635497465268e-05,9.767049752681362e-05,-0.00019957576165499337,7.965586704525917e-05,-0.001011341196152736,0.0,0.0,0.0,0.0,0.0,0.0,0.0,5.690449426332123e-06,-0.00022381845273466983,-4.6352916308667336e-05,0.00020353515144466705,2.9913807464199138e-05,3.219286600719684e-05,-2.6814497731120213e-05,0.0002440400757830736,3.985275680536466e-05,-4.418635497465268e-05,-9.767049752681362e-05,0.00019957576165499337,-7.965586704525917e-05,0.001011341196152736,0.6568843722343445,46.44881820678711,5.635891437530518,-19.709810256958008,-0.5285544991493225,-2.4108920097351074,0.39218467473983765,0
45,0.21923184394836426,-0.6568843722343445,-46.44881820678711,-5.635891437530518,19.709810256958008,0.5285544991493225,2.4108920097351074,-0.39218467473983765,0.0,0.0,0.0,0.0,0.0,0.0,0.0,-0.6598918543618734,-0.14009192830024325,-0.45830732661016244,0.49978478348116934,-0.057509528476768684,0.150006823843346,-0.414872320670315,0.8780871856209976,0.7556835678836755,-0.28250891225301206,-1.6693028966121581,0.1413886817097664,2.403412924501631,1.0273649147285353,0.878092876070424,0.7554597494309409,-0.2825552651693207,-1.6690993614607135,0.1414185955172306,2.4034451173676383,1.0273381002308042,-0.0002440400757830736,-3.985275680536466e-05,4.418635497465268e-05,9.767049752681362e-05,-0.00019957576165499337,7.965586704525917e-05,-0.001011341196152736,0.0,0.0,0.0,0.0,0.0,0.0,0.0,5.690449426332123e-06,-0.00022381845273466983,-4.6352916308667336e-05,0.00020353515144466705,2.9913807464199138e-05,3.219286600719684e-05,-2.6814497731120213e-05,0.0002440400757830736,3.985275680536466e-05,-4.418635497465268e-05,-9.767049752681362e-05,0.00019957576165499337,-7.965586704525917e-05,0.001011341196152736,0.6568843722343445,46.44881820678711,5.635891437530518,-19.709810256958008,-0.5285544991493225,-2.4108920097351074,0.39218467473983765,0
46,0.22426176071166992,-0.6806880831718445,-46.50039291381836,-5.612087726593018,19.658235549926758,0.5285544991493225,2.4237093925476074,-0.43338340520858765,0.0,0.0,0.0,0.0,0.0,0.0,0.0,-0.6652756885070603,-0.1343072824416274,-0.4612029990010796,0.4962688902261235,-0.05723305520144757,0.14896432475613147,-0.41526069545302186,0.8780888561658672,0.755687187161362,-0.2825105856050031,-1.669299200810834,0.1413876187602679,2.403411500347985,1.027369492365254,0.878092876070424,0.7554597494309409,-0.2825552651693207,-1.6690993614607135,0.1414185955172306,2.4034451173676383,1.0273381002308042,1.1523071830155224e-06,0.0011457055766167612,-0.0007126299001931978,0.0010626011490706706,8.431486201770645e-06,-0.0005062578253593737,0.000657675723706583,0.0,0.0,0.0,0.0,0.0,0.0,0.0,4.0199045567845815e-06,-0.00022743773042110949,-4.4679564317640086e-05,0.00019983935012057863,3.0976756962702856e-05,3.361701965332031e-05,-3.139213444991462e-05,-1.1523071830155224e-06,-0.0011457055766167612,0.0007126299001931978,-0.0010626011490706706,-8.431486201770645e-06,0.0005062578253593737,-0.000657675723706583,0.6806880831718445,46.50039291381836,5.612087726593018,-19.658235549926758,-0.5285544991493225,-2.4237093925476074,0.43338340520858765,0
47,0.22925662994384766,-0.6806880831718445,-46.50039291381836,-5.612087726593018,19.658235549926758,0.5285544991493225,2.4237093925476074,-0.43338340520858765,0.0,0.0,0.0,0.0,0.0,0.0,0.0,-0.6652756885070603,-0.1343072824416274,-0.4612029990010796,0.4962688902261235,-0.05723305520144757,0.14896432475613147,-0.41526069545302186,0.8780888561658672,0.755687187161362,-0.2825105856050031,-1.669299200810834,0.1413876187602679,2.403411500347985,1.027369492365254,0.878092876070424,0.7554597494309409,-0.2825552651693207,-1.6690993614607135,0.1414185955172306,2.4034451173676383,1.0273381002308042,1.1523071830155224e-06,0.0011457055766167612,-0.0007126299001931978,0.0010626011490706706,8.431486201770645e-06,-0.0005062578253593737,0.000657675723706583,0.0,0.0,0.0,0.0,0.0,0.0,0.0,4.0199045567845815e-06,-0.00022743773042110949,-4.4679564317640086e-05,0.00019983935012057863,3.0976756962702856e-05,3.361701965332031e-05,-3.139213444991462e-05,-1.1523071830155224e-06,-0.0011457055766167612,0.0007126299001931978,-0.0010626011490706706,-8.431486201770645e-06,0.0005062578253593737,-0.000657675723706583,0.6806880831718445,46.50039291381836,5.612087726593018,-19.658235549926758,-0.5285544991493225,-2.4237093925476074,0.43338340520858765,0
48,0.23423385620117188,-0.6568843722343445,-46.50039291381836,-5.612087726593018,19.709810256958008,0.5221458077430725,2.4108920097351074,-0.43979209661483765,0.0,0.0,0.0,0.0,0.0,0.0,0.0,-0.654966027880032,-0.13917023757019512,-0.4531826010500326,0.5012320141047136,-0.05728862456175644,0.14924725391726157,-0.4173251846719171,0.8780871857300139,0.755687187161362,-0.28251058560505243,-1.6693028995614134,0.14138939378636706,2.403412924501631,1.027370086704507,0.878092876070424,0.7554597494309409,-0.2825552651693207,-1.6690993614607135,0.1414185955172306,2.4034451173676383,1.0273381002308042,-2.797035945034084e-05,0.0007360837439225719,-0.0008895696560386958,0.0002363197967642728,9.038272988126657e-05,-3.723630823307335e-06,0.0005201336046860291,0.0,0.0,0.0,0.0,0.0,0.0,0.0,5.690340410091643e-06,-0.00022743773042110949,-4.467956426829067e-05,0.00020353810069995149,2.920173086354283e-05,3.219286600719684e-05,-3.198647370283858e-05,2.797035945034084e-05,-0.0007360837439225719,0.0008895696560386958,-0.0002363197967642728,-9.038272988126657e-05,3.723630823307335e-06,-0.0005201336046860291,0.6568843722343445,46.50039291381836,5.612087726593018,-19.709810256958008,-0.5221458077430725,-2.4108920097351074,0.43979209661483765,0
49,0.23926115036010742,-0.6568843722343445,-46.50039291381836,-5.612087726593018,19.709810256958008,0.5221458077430725,2.4108920097351074,-0.43979209661483765,0.0,0.0,0.0,0.0,0.0,0.0,0.0,-0.654966027880032,-0.13917023757019512,-0.4531826010500326,0.5012320141047136,-0.05728862456175644,0.14924725391726157,-0.4173251846719171,0.8780871857300139,0.755687187161362,-0.28251058560505243,-1.6693028995614134,0.14138939378636706,2.403412924501631,1.027370086704507,0.878092876070424,0.7554597494309409,-0.2825552651693207,-1.6690993614607135,0.1414185955172306,2.4034451173676383,1.0273381002308042,-2.797035945034084e-05,0.0007360837439225719,-0.0008895696560386958,0.0002363197967642728,9.038272988126657e-05,-3.723630823307335e-06,0.0005201336046860291,0.0,0.0,0.0,0.0,0.0,0.0,0.0,5.690340410091643e-06,-0.00022743773042110949,-4.467956426829067e-05,0.00020353810069995149,2.920173086354283e-05,3.219286600719684e-05,-3.198647370283858e-05,2.797035945034084e-05,-0.0007360837439225719,0.0008895696560386958,-0.0002363197967642728,-9.038272988126657e-05,3.723630823307335e-06,-0.0005201336046860291,0.6568843722343445,46.50039291381836,5.612087726593018,-19.709810256958008,-0.5221458077430725,-2.4108920097351074,0.43979209661483765,0
50,0.24423551559448242,-0.6053096652030945,-46.44881820678711,-5.588284015655518,19.686006546020508,0.5340476632118225,2.4044833183288574,-0.38577598333358765,0.0,0.0,0.0,0.0,0.0,0.0,0.0,-0.6602899065700821,-0.12350461837860657,-0.4543832928513606,0.49228457596605046,-0.05805892949872494,0.14699443972196824,-0.4165893489255401,0.8780835664523274,0.7556835678836755,-0.2825122560409077,-1.6693012291255749,0.14138803198970396,2.403413636578454,1.0273641982908404,0.878092876070424,0.7554597494309409,-0.2825552651693207,-1.6690993614607135,0.1414185955172306,2.4034451173676383,1.0273381002308042,-0.0011778684389923846,3.5505551354542784e-05,-0.0011239973881160452,7.05981902724095e-05,-0.00019265647138399353,0.00020299803087035577,-0.0007195501345854318,0.0,0.0,0.0,0.0,0.0,0.0,0.0,9.309618096531302e-06,-0.00022381845273466983,-4.300912841304072e-05,0.0002018676648614104,3.056352752664471e-05,3.148078918435715e-05,-2.6098060036172654e-05,0.0011778684389923846,-3.5505551354542784e-05,0.0011239973881160452,-7.05981902724095e-05,0.00019265647138399353,-0.00020299803087035577,0.0007195501345854318,0.6053096652030945,46.44881820678711,5.588284015655518,-19.686006546020508,-0.5340476632118225,-2.4044833183288574,0.38577598333358765,0
51,0.24923372268676758,-0.6053096652030945,-46.44881820678711,-5.588284015655518,19.686006546020508,0.5340476632118225,2.4044833183288574,-0.38577598333358765,0.0,0.0,0.0,0.0,0.0,0.0,0.0,-0.6602899065700821,-0.12350461837860657,-0.4543832928513606,0.49228457596605046,-0.05805892949872494,0.14699443972196824,-0.4165893489255401,0.8780835664523274,0.7556835678836755,-0.2825122560409077,-1.6693012291255749,0.14138803198970396,2.403413636578454,1.0273641982908404,0.878092876070424,0.7554597494309409,-0.2825552651693207,-1.6690993614607135,0.1414185955172306,2.4034451173676383,1.0273381002308042,-0.0011778684389923846,3.5505551354542784e-05,-0.0011239973881160452,7.05981902724095e-05,-0.00019265647138399353,0.00020299803087035577,-0.0007195501345854318,0.0,0.0,0.0,0.0,0.0,0.0,0.0,9.309618096531302e-06,-0.00022381845273466983,-4.300912841304072e-05,0.0002018676648614104,3.056352752664471e-05,3.148078918435715e-05,-2.6098060036172654e-05,0.0011778684389923846,-3.5505551354542784e-05,0.0011239973881160452,-7.05981902724095e-05,0.00019265647138399353,-0.00020299803087035577,0.0007195501345854318,0.6053096652030945,46.44881820678711,5.588284015655518,-19.686006546020508,-0.5340476632118225,-2.4044833183288574,0.38577598333358765,0
52,0.25419116020202637,-0.6568843722343445,-46.42501449584961,-5.612087726593018,19.709810256958008,0.5285544991493225,2.4173007011413574,-0.43338340520858765,0.0,0.0,0.0,0.0,0.0,0.0,0.0,-0.6600213875948946,-0.12365870330317519,-0.45649406149186333,0.4943953262228229,-0.0575627826334156,0.14684169113058235,-0.4145776576041811,0.8780871857300139,0.7556818974478203,-0.28251058560505243,-1.66930289956143,0.14138868170954416,2.4034122124248083,1.0273694923652297,0.878092876070424,0.7554597494309409,-0.2825552651693207,-1.6690993614607135,0.1414185955172306,2.4034451173676383,1.0273381002308042,0.0002630834186400782,-0.00015939395569764447,-0.00039528237372964456,-0.0005287770531114791,6.297778752501538e-05,-1.6232163730113096e-05,0.000500306994384691,0.0,0.0,0.0,0.0,0.0,0.0,0.0,5.690340410091643e-06,-0.00022214801687947539,-4.467956426829067e-05,0.00020353810071660483,2.9913807686438032e-05,3.290494283003653e-05,-3.1392134425489715e-05,-0.0002630834186400782,0.00015939395569764447,0.00039528237372964456,0.0005287770531114791,-6.297778752501538e-05,1.6232163730113096e-05,-0.000500306994384691,0.6568843722343445,46.42501449584961,5.612087726593018,-19.709810256958008,-0.5285544991493225,-2.4173007011413574,0.43338340520858765,0
53,0.2592592239379883,-0.6568843722343445,-46.42501449584961,-5.612087726593018,19.709810256958008,0.5285544991493225,2.4173007011413574,-0.43338340520858765,0.0,0.0,0.0,0.0,0.0,0.0,0.0,-0.6600213875948946,-0.12365870330317519,-0.45649406149186333,0.4943953262228229,-0.0575627826334156,0.14684169113058235,-0.4145776576041811,0.8780871857300139,0.7556818974478203,-0.28251058560505243,-1.66930289956143,0.14138868170954416,2.4034122124248083,1.0273694923652297,0.878092876070424,0.7554597494309409,-0.2825552651693207,-1.6690993614607135,0.1414185955172306,2.4034451173676383,1.0273381002308042,0.0002630834186400782,-0.00015939395569764447,-0.00039528237372964456,-0.0005287770531114791,6.297778752501538e-05,-1.6232163730113096e-05,0.000500306994384691,0.0,0.0,0.0,0.0,0.0,0.0,0.0,5.690340410091643e-06,-0.00022214801687947539,-4.467956426829067e-05,0.00020353810071660483,2.9913807686438032e-05,3.290494283003653e-05,-3.1392134425489715e-05,-0.0002630834186400782,0.00015939395569764447,0.00039528237372964456,0.0005287770531114791,-6.297778752501538e-05,1.6232163730113096e-05,-0.000500306994384691,0.6568843722343445,46.42501449584961,5.612087726593018,-19.709810256958008,-0.5285544991493225,-2.4173007011413574,0.43338340520858765,0
54,0.2642533779144287,-0.6053096652030945,-46.50039291381836,-5.612087726593018,19.709810256958008,0.5404563546180725,2.4044833183288574,-0.42605918645858765,0.0,0.0,0.0,0.0,0.0,0.0,0.0,-0.65538035594802,-0.14575375150960454,-0.4583805410450805,0.5074728288454977,-0.05707669699651126,0.14918856766786726,-0.4150337977782023,0.8780835664523274,0.755687187161362,-0.2825105846329907,-1.66930289956143,0.14138629633188246,2.403413636578454,1.0273686785631708,0.878092876070424,0.7554597494309409,-0.2825552651693207,-1.6690993614607135,0.1414185955172306,2.4034451173676383,1.0273381002308042,-0.0010611474020010296,0.0008265528124303524,-0.00044377510842402305,5.192959438704761e-06,-0.0004958460259993432,0.00042155064796723377,0.0007949413954481181,0.0,0.0,0.0,0.0,0.0,0.0,0.0,9.309618096531302e-06,-0.00022743773042110949,-4.4680536329999576e-05,0.00020353810071660483,3.229918534813914e-05,3.148078918435715e-05,-3.057833236663754e-05,0.0010611474020010296,-0.0008265528124303524,0.00044377510842402305,-5.192959438704761e-06,0.0004958460259993432,-0.00042155064796723377,-0.0007949413954481181,0.6053096652030945,46.50039291381836,5.612087726593018,-19.709810256958008,-0.5404563546180725,-2.4044833183288574,0.42605918645858765,0
55,0.2693061828613281,-0.6053096652030945,-46.50039291381836,-5.612087726593018,19.709810256958008,0.5404563546180725,2.4044833183288574,-0.42605918645858765,0.0,0.0,0.0,0.0,0.0,0.0,0.0,-0.65538035594802,-0.14575375150960454,-0.4583805410450805,0.5074728288454977,-0.05707669699651126,0.14918856766786726,-0.4150337977782023,0.8780835664523274,0.755687187161362,-0.2825105846329907,-1.66930289956143,0.14138629633188246,2.403413636578454,1.0273686785631708,0.878092876070424,0.7554597494309409,-0.2825552651693207,-1.6690993614607135,0.1414185955172306,2.4034451173676383,1.0273381002308042,-0.0010611474020010296,0.0008265528124303524,-0.00044377510842402305,5.192959438704761e-06,-0.0004958460259993432,0.00042155064796723377,0.0007949413954481181,0.0,0.0,0.0,0.0,0.0,0.0,0.0,9.309618096531302e-06,-0.00022743773042110949,-4.4680536329999576e-05,0.00020353810071660483,3.229918534813914e-05,3.148078918435715e-05,-3.057833236663754e-05,0.0010611474020010296,-0.0008265528124303524,0.00044377510842402305,-5.192959438704761e-06,0.0004958460259993432,-0.00042155064796723377,-0.0007949413954481181,0.6053096652030945,46.50039291381836,5.612087726593018,-19.709810256958008,-0.5404563546180725,-2.4044833183288574,0.42605918645858765,0
56,0.274249792098999,-0.6291133761405945,-46.50039291381836,-5.588284015655518,19.658235549926758,0.5340476632118225,2.4173007011413574,-0.43979209661483765,0.0,0.0,0.0,0.0,0.0,0.0,0.0,-0.6592541604531466,-0.1282162237385846,-0.4589192319500406,0.4979037630798986,-0.05684222565851672,0.14769953118026594,-0.4146020420060478,0.8780852368881826,0.755687187161362,-0.28251225604090224,-1.6692992769769168,0.1413880713522035,2.4034122124248083,1.0273698512293672,0.878092876070424,0.7554597494309409,-0.2825552651693207,-1.6690993614607135,0.1414185955172306,2.4034451173676383,1.0273381002308042,-0.0005605444847597943,0.0013513633075260168,-0.0007775610340899589,0.0011087066509181402,-0.00012955974950925678,-0.00037982728769541557,0.0013914156942369464,0.0,0.0,0.0,0.0,0.0,0.0,0.0,7.639182241336862e-06,-0.00022743773042110949,-4.300912841848081e-05,0.0001999155162033528,3.0524165027107086e-05,3.290494283003653e-05,-3.1750998563007116e-05,0.0005605444847597943,-0.0013513633075260168,0.0007775610340899589,-0.0011087066509181402,0.00012955974950925678,0.00037982728769541557,-0.0013914156942369464,0.6291133761405945,46.50039291381836,5.588284015655518,-19.658235549926758,-0.5340476632118225,-2.4173007011413574,0.43979209661483765,0
57,0.2792472839355469,-0.6291133761405945,-46.50039291381836,-5.588284015655518,19.658235549926758,0.5340476632118225,2.4173007011413574,-0.43979209661483765,0.0,0.0,0.0,0.0,0.0,0.0,0.0,-0.6592541604531466,-0.1282162237385846,-0.4589192319500406,0.4979037630798986,-0.05684222565851672,0.14769953118026594,-0.4146020420060478,0.8780852368881826,0.755687187161362,-0.28251225604090224,-1.6692992769769168,0.1413880713522035,2.4034122124248083,1.0273698512293672,0.878092876070424,0.7554597494309409,-0.2825552651693207,-1.6690993614607135,0.1414185955172306,2.4034451173676383,1.0273381002308042,-0.0005605444847597943,0.0013513633075260168,-0.0007775610340899589,0.0011087066509181402,-0.00012955974950925678,-0.00037982728769541557,0.0013914156942369464,0.0,0.0,0.0,0.0,0.0,0.0,0.0,7.639182241336862e-06,-0.00022743773042110949,-4.300912841848081e-05,0.0001999155162033528,3.0524165027107086e-05,3.290494283003653e-05,-3.1750998563007116e-05,0.0005605444847597943,-0.0013513633075260168,0.0007775610340899589,-0.0011087066509181402,0.00012955974950925678,0.00037982728769541557,-0.0013914156942369464,0.6291133761405945,46.50039291381836,5.588284015655518,-19.658235549926758,-0.5340476632118225,-2.4173007011413574,0.43979209661483765,0
58,0.28423094749450684,-0.6053096652030945,-46.47658920288086,-5.612087726593018,19.658235549926758,0.5285544991493225,2.4173007011413574,-0.44711631536483765,0.0,0.0,0.0,0.0,0.0,0.0,0.0,-0.6534113118731911,-0.13163955013002354,-0.45232451532308743,0.4999685644349672,-0.056427177378833515,0.1474852458502314,-0.41484812915211966,0.8780835664523274,0.7556855167255067,-0.28251058430897014,-1.669297134516513,0.14138866858693305,2.4034122124248083,1.0273710182421665,0.878092876070424,0.7554597494309409,-0.2825552651693207,-1.6690993614607135,0.1414185955172306,2.4034451173676383,1.0273381002308042,-0.0012679881446017865,0.00030823803897574376,0.00011269092492957573,0.0006301807170153095,-4.367707156418769e-05,-6.77737338422339e-05,0.0012520853956764215,0.0,0.0,0.0,0.0,0.0,0.0,0.0,9.309618096531302e-06,-0.00022576729456580402,-4.4680860350587714e-05,0.00019777305579959936,2.9926930297546894e-05,3.290494283003653e-05,-3.291801136229289e-05,0.0012679881446017865,-0.00030823803897574376,-0.00011269092492957573,-0.0006301807170153095,4.367707156418769e-05,6.77737338422339e-05,-0.0012520853956764215,0.6053096652030945,46.47658920288086,5.612087726593018,-19.658235549926758,-0.5285544991493225,-2.4173007011413574,0.44711631536483765,0
59,0.2892301082611084,-0.6053096652030945,-46.47658920288086,-5.612087726593018,19.658235549926758,0.5285544991493225,2.4173007011413574,-0.44711631536483765,0.0,0.0,0.0,0.0,0.0,0.0,0.0,-0.6534113118731911,-0.13163955013002354,-0.45232451532308743,0.4999685644349672,-0.056427177378833515,0.1474852458502314,-0.41484812915211966,0.8780835664523274,0.7556855167255067,-0.28251058430897014,-1.669297134516513,0.14138866858693305,2.4034122124248083,1.0273710182421665,0.878092876070424,0.7554597494309409,-0.2825552651693207,-1.6690993614607135,0.1414185955172306,2.4034451173676383,1.0273381002308042,-0.0012679881446017865,0.00030823803897574376,0.00011269092492957573,0.0006301807170153095,-4.367707156418769e-05,-6.77737338422339e-05,0.0012520853956764215,0.0,0.0,0.0,0.0,0.0,0.0,0.0,9.309618096531302e-06,-0.00022576729456580402,-4.4680860350587714e-05,0.00019777305579959936,2.9926930297546894e-05,3.290494283003653e-05,-3.291801136229289e-05,0.0012679881446017865,-0.00030823803897574376,-0.00011269092492957573,-0.0006301807170153095,4.367707156418769e-05,6.77737338422339e-05,-0.0012520853956764215,0.6053096652030945,46.47658920288086,5.612087726593018,-19.658235549926758,-0.5285544991493225,-2.4173007011413574,0.44711631536483765,0
60,0.2942333221435547,-0.6568843722343445,-46.47658920288086,-5.635891437530518,19.686006546020508,0.5340476632118225,2.4108920097351074,-0.38577598333358765,0.0,0.0,0.0,0.0,0.0,0.0,0.0,-0.6527391173713009,-0.13921997242324044,-0.4511300426783709,0.503678310486794,-0.056389299601057034,0.14845072333765125,-0.4143896037778232,0.8780871857300139,0.7556855167255067,-0.28250891419712815,-1.669301229113462,0.1413880713581298,2.403412924501631,1.0273642026517125,0.878092876070424,0.7554597494309409,-0.2825552651693207,-1.6690993614607135,0.1414185955172306,2.4034451173676383,1.0273381002308042,0.0003344031767518473,0.0004754598443023924,0.0002917646173174077,0.000386247822834792,-0.00010002339962780471,-7.137338873448878e-05,-0.0010802143376541242,0.0,0.0,0.0,0.0,0.0,0.0,0.0,5.690340410091643e-06,-0.00022576729456580402,-4.6350972192577e-05,0.0002018676527484331,3.052415910079209e-05,3.219286600719684e-05,-2.610242090828052e-05,-0.0003344031767518473,-0.0004754598443023924,-0.0002917646173174077,-0.000386247822834792,0.00010002339962780471,7.137338873448878e-05,0.0010802143376541242,0.6568843722343445,46.47658920288086,5.635891437530518,-19.686006546020508,-0.5340476632118225,-2.4108920097351074,0.38577598333358765,0
61,0.29923081398010254,-0.6568843722343445,-46.47658920288086,-5.635891437530518,19.686006546020508,0.5340476632118225,2.4108920097351074,-0.38577598333358765,0.0,0.0,0.0,0.0,0.0,0.0,0.0,-0.6527391173713009,-0.13921997242324044,-0.4511300426783709,0.503678310486794,-0.056389299601057034,0.14845072333765125,-0.4143896037778232,0.8780871857300139,0.7556855167255067,-0.28250891419712815,-1.669301229113462,0.1413880713581298,2.403412924501631,1.0273642026517125,0.878092876070424,0.7554597494309409,-0.2825552651693207,-1.6690993614607135,0.1414185955172306,2.4034451173676383,1.0273381002308042,0.0003344031767518473,0.0004754598443023924,0.0002917646173174077,0.000386247822834792,-0.00010002339962780471,-7.137338873448878e-05,-0.0010802143376541242,0.0,0.0,0.0,0.0,0.0,0.0,0.0,5.690340410091643e-06,-0.00022576729456580402,-4.6350972192577e-05,0.0002018676527484331,3.052415910079209e-05,3.219286600719684e-05,-2.610242090828052e-05,-0.0003344031767518473,-0.0004754598443023924,-0.0002917646173174077,-0.000386247822834792,0.00010002339962780471,7.137338873448878e-05,0.0010802143376541242,0.6568843722343445,46.47658920288086,5.635891437530518,-19.686006546020508,-0.5340476632118225,-2.4108920097351074,0.38577598333358765,0
62,0.3042292594909668,-0.6568843722343445,-46.47658920288086,-5.635891437530518,19.686006546020508,0.5340476632118225,2.4108920097351074,-0.38577598333358765,0.0,0.0,0.0,0.0,0.0,0.0,0.0,-0.6527391173713009,-0.13921997242324044,-0.4511300426783709,0.503678310486794,-0.056389299601057034,0.14845072333765125,-0.4143896037778232,0.8780871857300139,0.7556855167255067,-0.28250891419712815,-1.669301229113462,0.1413880713581298,2.403412924501631,1.0273642026517125,0.878092876070424,0.7554597494309409,-0.2825552651693207,-1.6690993614607135,0.1414185955172306,2.4034451173676383,1.0273381002308042,0.0003344031767518473,0.0004754598443023924,0.0002917646173174077,0.000386247822834792,-0.00010002339962780471,-7.137338873448878e-05,-0.0010802143376541242,0.0,0.0,0.0,0.0,0.0,0.0,0.0,5.690340410091643e-06,-0.00022576729456580402,-4.6350972192577e-05,0.0002018676527484331,3.052415910079209e-05,3.219286600719684e-05,-2.610242090828052e-05,-0.0003344031767518473,-0.0004754598443023924,-0.0002917646173174077,-0.000386247822834792,0.00010002339962780471,7.137338873448878e-05,0.0010802143376541242,0.6568843722343445,46.47658920288086,5.635891437530518,-19.686006546020508,-0.5340476632118225,-2.4108920097351074,0.38577598333358765,0
63,0.309251070022583,-0.6568843722343445,-46.47658920288086,-5.635891437530518,19.686006546020508,0.5340476632118225,2.4108920097351074,-0.38577598333358765,0.0,0.0,0.0,0.0,0.0,0.0,0.0,-0.6527391173713009,-0.13921997242324044,-0.4511300426783709,0.503678310486794,-0.056389299601057034,0.14845072333765125,-0.4143896037778232,0.8780871857300139,0.7556855167255067,-0.28250891419712815,-1.669301229113462,0.1413880713581298,2.403412924501631,1.0273642026517125,0.878092876070424,0.7554597494309409,-0.2825552651693207,-1.6690993614607135,0.1414185955172306,2.4034451173676383,1.0273381002308042,0.0003344031767518473,0.0004754598443023924,0.0002917646173174077,0.000386247822834792,-0.00010002339962780471,-7.137338873448878e-05,-0.0010802143376541242,0.0,0.0,0.0,0.0,0.0,0.0,0.0,5.690340410091643e-06,-0.00022576729456580402,-4.6350972192577e-05,0.0002018676527484331,3.052415910079209e-05,3.219286600719684e-05,-2.610242090828052e-05,-0.0003344031767518473,-0.0004754598443023924,-0.0002917646173174077,-0.000386247822834792,0.00010002339962780471,7.137338873448878e-05,0.0010802143376541242,0.6568843722343445,46.47658920288086,5.635891437530518,-19.686006546020508,-0.5340476632118225,-2.4108920097351074,0.38577598333358765,0
64,0.31423306465148926,-0.6568843722343445,-46.47658920288086,-5.635891437530518,19.686006546020508,0.5340476632118225,2.4108920097351074,-0.38577598333358765,0.0,0.0,0.0,0.0,0.0,0.0,0.0,-0.6527391173713009,-0.13921997242324044,-0.4511300426783709,0.503678310486794,-0.056389299601057034,0.14845072333765125,-0.4143896037778232,0.8780871857300139,0.7556855167255067,-0.28250891419712815,-1.669301229113462,0.1413880713581298,2.403412924501631,1.0273642026517125,0.878092876070424,0.7554597494309409,-0.2825552651693207,-1.6690993614607135,0.1414185955172306,2.4034451173676383,1.0273381002308042,0.0003344031767518473,0.0004754598443023924,0.0002917646173174077,0.000386247822834792,-0.00010002339962780471,-7.137338873448878e-05,-0.0010802143376541242,0.0,0.0,0.0,0.0,0.0,0.0,0.0,5.690340410091643e-06,-0.00022576729456580402,-4.6350972192577e-05,0.0002018676527484331,3.052415910079209e-05,3.219286600719684e-05,-2.610242090828052e-05,-0.0003344031767518473,-0.0004754598443023924,-0.0002917646173174077,-0.000386247822834792,0.00010002339962780471,7.137338873448878e-05,0.0010802143376541242,0.6568843722343445,46.47658920288086,5.635891437530518,-19.686006546020508,-0.5340476632118225,-2.4108920097351074,0.38577598333358765,0
65,0.31919264793395996,-0.6806880831718445,-46.52419662475586,-5.612087726593018,19.686006546020508,0.5285544991493225,2.4044833183288574,-0.35831016302108765,0.0,0.0,0.0,0.0,0.0,0.0,0.0,-0.6586037334659797,-0.13339255186904025,-0.4527462636118398,0.49994931973222523,-0.05673835546918243,0.14771174800063,-0.4146649750217567,0.8780888561658691,0.7556888575972173,-0.282510585605047,-1.6693012291255749,0.1413886817097664,2.4034136370629704,1.0273611371659255,0.878092876070424,0.7554597494309409,-0.2825552651693207,-1.6690993614607135,0.1414185955172306,2.4034451173676383,1.0273381002308042,0.0003516287334030003,0.0014864279363588544,-0.00033267167176270047,0.00012810711146887146,-0.00023831318028066847,0.00044735068994092764,-0.0025997630265149675,0.0,0.0,0.0,0.0,0.0,0.0,0.0,4.019904554897202e-06,-0.00022910816627641495,-4.4679564273730765e-05,0.0002018676648614104,2.9913807464199138e-05,3.148030466793017e-05,-2.3036935121290014e-05,-0.0003516287334030003,-0.0014864279363588544,0.00033267167176270047,-0.00012810711146887146,0.00023831318028066847,-0.00044735068994092764,0.0025997630265149675,0.6806880831718445,46.52419662475586,5.612087726593018,-19.686006546020508,-0.5285544991493225,-2.4044833183288574,0.35831016302108765,0
66,0.3242330551147461,-0.6806880831718445,-46.52419662475586,-5.612087726593018,19.686006546020508,0.5285544991493225,2.4044833183288574,-0.35831016302108765,0.0,0.0,0.0,0.0,0.0,0.0,0.0,-0.6586037334659797,-0.13339255186904025,-0.4527462636118398,0.49994931973222523,-0.05673835546918243,0.14771174800063,-0.4146649750217567,0.8780888561658691,0.7556888575972173,-0.282510585605047,-1.6693012291255749,0.1413886817097664,2.4034136370629704,1.0273611371659255,0.878092876070424,0.7554597494309409,-0.2825552651693207,-1.6690993614607135,0.1414185955172306,2.4034451173676383,1.0273381002308042,0.0003516287334030003,0.0014864279363588544,-0.00033267167176270047,0.00012810711146887146,-0.00023831318028066847,0.00044735068994092764,-0.0025997630265149675,0.0,0.0,0.0,0.0,0.0,0.0,0.0,4.019904554897202e-06,-0.00022910816627641495,-4.4679564273730765e-05,0.0002018676648614104,2.9913807464199138e-05,3.148030466793017e-05,-2.3036935121290014e-05,-0.0003516287334030003,-0.0014864279363588544,0.00033267167176270047,-0.00012810711146887146,0.00023831318028066847,-0.00044735068994092764,0.0025997630265149675,0.6806880831718445,46.52419662475586,5.612087726593018,-19.686006546020508,-0.5285544991493225,-2.4044833183288574,0.35831016302108765,0
67,0.3292388916015625,-0.6568843722343445,-46.47658920288086,-5.588284015655518,19.686006546020508,0.5404563546180725,2.4173007011413574,-0.39218467473983765,0.0,0.0,0.0,0.0,0.0,0.0,0.0,-0.6513475888226903,-0.13934814809026083,-0.44463143419650464,0.5012508974893852,-0.05761233044994138,0.14800824078310848,-0.415241271530498,0.8780871857300139,0.7556855167255067,-0.28251225571688715,-1.6693009877635565,0.14138735928138096,2.403412212424811,1.0273649147284578,0.878092876070424,0.7554597494309409,-0.2825552651693207,-1.6690993614607135,0.1414185955172306,2.4034451173676383,1.0273381002308042,-0.00013294147632791315,-0.0004954368020573667,-0.000770637628784028,-5.311667845171208e-05,-0.0002708561337534782,-7.121844417184211e-05,-0.0007379080361882278,0.0,0.0,0.0,0.0,0.0,0.0,0.0,5.690340410091643e-06,-0.00022576729456580402,-4.300945243357335e-05,0.00020162630284303873,3.123623584963542e-05,3.2904942827372e-05,-2.6814497653626646e-05,0.00013294147632791315,0.0004954368020573667,0.000770637628784028,5.311667845171208e-05,0.0002708561337534782,7.121844417184211e-05,0.0007379080361882278,0.6568843722343445,46.47658920288086,5.588284015655518,-19.686006546020508,-0.5404563546180725,-2.4173007011413574,0.39218467473983765,0
68,0.3342301845550537,-0.6568843722343445,-46.47658920288086,-5.588284015655518,19.686006546020508,0.5404563546180725,2.4173007011413574,-0.39218467473983765,0.0,0.0,0.0,0.0,0.0,0.0,0.0,-0.6513475888226903,-0.13934814809026083,-0.44463143419650464,0.5012508974893852,-0.05761233044994138,0.14800824078310848,-0.415241271530498,0.8780871857300139,0.7556855167255067,-0.28251225571688715,-1.6693009877635565,0.14138735928138096,2.403412212424811,1.0273649147284578,0.878092876070424,0.7554597494309409,-0.2825552651693207,-1.6690993614607135,0.1414185955172306,2.4034451173676383,1.0273381002308042,-0.00013294147632791315,-0.0004954368020573667,-0.000770637628784028,-5.311667845171208e-05,-0.0002708561337534782,-7.121844417184211e-05,-0.0007379080361882278,0.0,0.0,0.0,0.0,0.0,0.0,0.0,5.690340410091643e-06,-0.00022576729456580402,-4.300945243357335e-05,0.00020162630284303873,3.123623584963542e-05,3.2904942827372e-05,-2.6814497653626646e-05,0.00013294147632791315,0.0004954368020573667,0.000770637628784028,5.311667845171208e-05,0.0002708561337534782,7.121844417184211e-05,0.0007379080361882278,0.6568843722343445,46.47658920288086,5.588284015655518,-19.686006546020508,-0.5404563546180725,-2.4173007011413574,0.39218467473983765,0
69,0.3392307758331299,-0.7084590792655945,-46.47658920288086,-5.612087726593018,19.658235549926758,0.5221458077430725,2.4173007011413574,-0.45352500677108765,0.0,0.0,0.0,0.0,0.0,0.0,0.0,-0.6664300257584606,-0.13937886693996127,-0.451480580122228,0.4975247258961716,-0.056897474653001975,0.14804170556828913,-0.41464740092906444,0.8780908050077002,0.7556855167255067,-0.2825105856050519,-1.6692992802832896,0.141389393624579,2.4034122124248083,1.0273717303209833,0.878092876070424,0.7554597494309409,-0.2825552651693207,-1.6690993614607135,0.1414185955172306,2.4034451173676383,1.0273381002308042,0.0006582358591335315,-0.00016612179896469294,0.000170982839595925,0.000989533531923289,0.00037823906775418935,-0.00028406599823725096,0.001348501061532901,0.0,0.0,0.0,0.0,0.0,0.0,0.0,2.0710627237630064e-06,-0.00022576729456580402,-4.4679564268845784e-05,0.00019991882257608395,2.9201892651598005e-05,3.290494283003653e-05,-3.363009017909313e-05,-0.0006582358591335315,0.00016612179896469294,-0.000170982839595925,-0.000989533531923289,-0.00037823906775418935,0.00028406599823725096,-0.001348501061532901,0.7084590792655945,46.47658920288086,5.612087726593018,-19.658235549926758,-0.5221458077430725,-2.4173007011413574,0.45352500677108765,0
70,0.34424781799316406,-0.7084590792655945,-46.47658920288086,-5.612087726593018,19.658235549926758,0.5221458077430725,2.4173007011413574,-0.45352500677108765,0.0,0.0,0.0,0.0,0.0,0.0,0.0,-0.6664300257584606,-0.13937886693996127,-0.451480580122228,0.4975247258961716,-0.056897474653001975,0.14804170556828913,-0.41464740092906444,0.8780908050077002,0.7556855167255067,-0.2825105856050519,-1.6692992802832896,0.141389393624579,2.4034122124248083,1.0273717303209833,0.878092876070424,0.7554597494309409,-0.2825552651693207,-1.6690993614607135,0.1414185955172306,2.4034451173676383,1.0273381002308042,0.0006582358591335315,-0.00016612179896469294,0.000170982839595925,0.000989533531923289,0.00037823906775418935,-0.00028406599823725096,0.001348501061532901,0.0,0.0,0.0,0.0,0.0,0.0,0.0,2.0710627237630064e-06,-0.00022576729456580402,-4.4679564268845784e-05,0.00019991882257608395,2.9201892651598005e-05,3.290494283003653e-05,-3.363009017909313e-05,-0.0006582358591335315,0.00016612179896469294,-0.000170982839595925,-0.000989533531923289,-0.00037823906775418935,0.00028406599823725096,-0.001348501061532901,0.7084590792655945,46.47658920288086,5.612087726593018,-19.658235549926758,-0.5221458077430725,-2.4173007011413574,0.45352500677108765,0
71,0.3492305278778076,-0.6291133761405945,-46.47658920288086,-5.612087726593018,19.709810256958008,0.5285544991493225,2.4108920097351074,-0.40591758489608765,0.0,0.0,0.0,0.0,0.0,0.0,0.0,-0.662953711004301,-0.13675737189018194,-0.44421307903937873,0.49496185547928206,-0.05725890537712431,0.14784355864958726,-0.415700690406351,0.8780852368881826,0.7556855167255067,-0.28251058560505243,-1.66930289956143,0.14138868170976548,2.403412924501631,1.0273664406074416,0.878092876070424,0.7554597494309409,-0.2825552651693207,-1.6690993614607135,0.1414185955172306,2.4034451173676383,1.0273381002308042,-0.0009415340501277669,0.00020726702438583877,-0.0005900974266721892,-0.00034978822818388343,-2.1502518380861198e-05,8.503663504736241e-05,-0.0006925181882869018,0.0,0.0,0.0,0.0,0.0,0.0,0.0,7.639182241336862e-06,-0.00022576729456580402,-4.467956426829067e-05,0.00020353810071660483,2.9913807465115072e-05,3.219286600719684e-05,-2.834037663745903e-05,0.0009415340501277669,-0.00020726702438583877,0.0005900974266721892,0.00034978822818388343,2.1502518380861198e-05,-8.503663504736241e-05,0.0006925181882869018,0.6291133761405945,46.47658920288086,5.612087726593018,-19.709810256958008,-0.5285544991493225,-2.4108920097351074,0.40591758489608765,0
72,0.3542368412017822,-0.6291133761405945,-46.47658920288086,-5.612087726593018,19.709810256958008,0.5285544991493225,2.4108920097351074,-0.40591758489608765,0.0,0.0,0.0,0.0,0.0,0.0,0.0,-0.662953711004301,-0.13675737189018194,-0.44421307903937873,0.49496185547928206,-0.05725890537712431,0.14784355864958726,-0.415700690406351,0.8780852368881826,0.7556855167255067,-0.28251058560505243,-1.66930289956143,0.14138868170976548,2.403412924501631,1.0273664406074416,0.878092876070424,0.7554597494309409,-0.2825552651693207,-1.6690993614607135,0.1414185955172306,2.4034451173676383,1.0273381002308042,-0.0009415340501277669,0.00020726702438583877,-0.0005900974266721892,-0.00034978822818388343,-2.1502518380861198e-05,8.503663504736241e-05,-0.0006925181882869018,0.0,0.0,0.0,0.0,0.0,0.0,0.0,7.639182241336862e-06,-0.00022576729456580402,-4.467956426829067e-05,0.00020353810071660483,2.9913807465115072e-05,3.219286600719684e-05,-2.834037663745903e-05,0.0009415340501277669,-0.00020726702438583877,0.0005900974266721892,0.00034978822818388343,2.1502518380861198e-05,-8.503663504736241e-05,0.0006925181882869018,0.6291133761405945,46.47658920288086,5.612087726593018,-19.709810256958008,-0.5285544991493225,-2.4108920097351074,0.40591758489608765,0
73,0.3592360019683838,-0.6568843722343445,-46.42501449584961,-5.635891437530518,19.709810256958008,0.5340476632118225,2.4108920097351074,-0.39218467473983765,0.0,0.0,0.0,0.0,0.0,0.0,0.0,-0.6514529124024977,-0.1432494019424351,-0.4362434134605404,0.4973803950715055,-0.05764730712465392,0.14844093731079666,-0.4154741582607479,0.8780871857300139,0.7556818974478203,-0.2825088364321973,-1.66930289956143,0.1413880713582039,2.403412924501631,1.0273649147285353,0.878092876070424,0.7554597494309409,-0.2825552651693207,-1.6690993614607135,0.1414185955172306,2.4034451173676383,1.0273381002308042,0.00015029292919100935,-0.0008539362882019971,0.0007578006551953973,-0.0003047117385467331,-0.00022660103421251278,0.00015838228806316177,-0.0010580497658187664,0.0,0.0,0.0,0.0,0.0,0.0,0.0,5.690340410091643e-06,-0.00022214801687947539,-4.642873712340512e-05,0.00020353810071660483,3.052415902671246e-05,3.219286600719684e-05,-2.6814497731120213e-05,-0.00015029292919100935,0.0008539362882019971,-0.0007578006551953973,0.0003047117385467331,0.00022660103421251278,-0.00015838228806316177,0.0010580497658187664,0.6568843722343445,46.42501449584961,5.635891437530518,-19.709810256958008,-0.5340476632118225,-2.4108920097351074,0.39218467473983765,0
74,0.36425209045410156,-0.6568843722343445,-46.42501449584961,-5.635891437530518,19.709810256958008,0.5340476632118225,2.4108920097351074,-0.39218467473983765,0.0,0.0,0.0,0.0,0.0,0.0,0.0,-0.6514529124024977,-0.1432494019424351,-0.4362434134605404,0.4973803950715055,-0.05764730712465392,0.14844093731079666,-0.4154741582607479,0.8780871857300139,0.7556818974478203,-0.2825088364321973,-1.66930289956143,0.1413880713582039,2.403412924501631,1.0273649147285353,0.878092876070424,0.7554597494309409,-0.2825552651693207,-1.6690993614607135,0.1414185955172306,2.4034451173676383,1.0273381002308042,0.00015029292919100935,-0.0008539362882019971,0.0007578006551953973,-0.0003047117385467331,-0.00022660103421251278,0.00015838228806316177,-0.0010580497658187664,0.0,0.0,0.0,0.0,0.0,0.0,0.0,5.690340410091643e-06,-0.00022214801687947539,-4.642873712340512e-05,0.00020353810071660483,3.052415902671246e-05,3.219286600719684e-05,-2.6814497731120213e-05,-0.00015029292919100935,0.0008539362882019971,-0.0007578006551953973,0.0003047117385467331,0.00022660103421251278,-0.00015838228806316177,0.0010580497658187664,0.6568843722343445,46.42501449584961,5.635891437530518,-19.709810256958008,-0.5340476632118225,-2.4108920097351074,0.39218467473983765,0
75,0.3692469596862793,-0.6291133761405945,-46.47658920288086,-5.564480304718018,19.658235549926758,0.5166526436805725,2.4044833183288574,-0.46084922552108765,0.0,0.0,0.0,0.0,0.0,0.0,0.0,-0.6740387205117708,-0.13764134578800183,-0.45339568548501513,0.49432191033488093,-0.057157837422375714,0.1481206246595732,-0.4149812649216706,0.8780852368881826,0.7556855167255067,-0.2825139264763185,-1.6692992802837436,0.14138681528965633,2.403413636578454,1.0273725441230666,0.878092876070424,0.7554597494309409,-0.2825552651693207,-1.6690993614607135,0.1414185955172306,2.4034451173676383,1.0273381002308042,-0.0009388851196876023,0.00048000785561448184,-0.001560871848903449,0.0007981727103487334,0.0002939326489714725,0.00047684640012905495,0.0023627377532202485,0.0,0.0,0.0,0.0,0.0,0.0,0.0,7.639182241336862e-06,-0.00022576729456580402,-4.1338693002213045e-05,0.00019991882303016517,3.178022757427401e-05,3.148078918435715e-05,-3.444389226237021e-05,0.0009388851196876023,-0.00048000785561448184,0.001560871848903449,-0.0007981727103487334,-0.0002939326489714725,-0.00047684640012905495,-0.0023627377532202485,0.6291133761405945,46.47658920288086,5.564480304718018,-19.658235549926758,-0.5166526436805725,-2.4044833183288574,0.46084922552108765,0
76,0.3742692470550537,-0.6291133761405945,-46.47658920288086,-5.564480304718018,19.658235549926758,0.5166526436805725,2.4044833183288574,-0.46084922552108765,0.0,0.0,0.0,0.0,0.0,0.0,0.0,-0.6740387205117708,-0.13764134578800183,-0.45339568548501513,0.49432191033488093,-0.057157837422375714,0.1481206246595732,-0.4149812649216706,0.8780852368881826,0.7556855167255067,-0.2825139264763185,-1.6692992802837436,0.14138681528965633,2.403413636578454,1.0273725441230666,0.878092876070424,0.7554597494309409,-0.2825552651693207,-1.6690993614607135,0.1414185955172306,2.4034451173676383,1.0273381002308042,-0.0009388851196876023,0.00048000785561448184,-0.001560871848903449,0.0007981727103487334,0.0002939326489714725,0.00047684640012905495,0.0023627377532202485,0.0,0.0,0.0,0.0,0.0,0.0,0.0,7.639182241336862e-06,-0.00022576729456580402,-4.1338693002213045e-05,0.00019991882303016517,3.178022757427401e-05,3.148078918435715e-05,-3.444389226237021e-05,0.0009388851196876023,-0.00048000785561448184,0.001560871848903449,-0.0007981727103487334,-0.0002939326489714725,-0.00047684640012905495,-0.0023627377532202485,0.6291133761405945,46.47658920288086,5.564480304718018,-19.658235549926758,-0.5166526436805725,-2.4044833183288574,0.46084922552108765,0
77,0.37925291061401367,-0.6291133761405945,-46.50039291381836,-5.635891437530518,19.709810256958008,0.5221458077430725,2.4108920097351074,-0.40591758489608765,0.0,0.0,0.0,0.0,0.0,0.0,0.0,-0.6625527684157066,-0.14507324974459582,-0.4473353820601357,0.5002518875122752,-0.05763574772408525,0.1493759158615022,-0.4148628029325709,0.8780852368881826,0.755687187161362,-0.2825089064206417,-1.66930289956143,0.14138939376858814,2.403412924501631,1.0273664406074416,0.878092876070424,0.7554597494309409,-0.2825552651693207,-1.6690993614607135,0.1414185955172306,2.4034451173676383,1.0273381002308042,-0.0008583435271888352,0.0007836408604000614,0.00043493670267392233,-0.00045351555160691735,0.00026136779865521193,0.0003287766630336536,-0.0002453339034924545,0.0,0.0,0.0,0.0,0.0,0.0,0.0,7.639182241336862e-06,-0.00022743773042110949,-4.635874867903178e-05,0.00020353810071660483,2.9201748642460057e-05,3.219286600719684e-05,-2.834037663745903e-05,0.0008583435271888352,-0.0007836408604000614,-0.00043493670267392233,0.00045351555160691735,-0.00026136779865521193,-0.0003287766630336536,0.0002453339034924545,0.6291133761405945,46.50039291381836,5.635891437530518,-19.709810256958008,-0.5221458077430725,-2.4108920097351074,0.40591758489608765,0
78,0.3842318058013916,-0.6291133761405945,-46.50039291381836,-5.635891437530518,19.709810256958008,0.5221458077430725,2.4108920097351074,-0.40591758489608765,0.0,0.0,0.0,0.0,0.0,0.0,0.0,-0.6625527684157066,-0.14507324974459582,-0.4473353820601357,0.5002518875122752,-0.05763574772408525,0.1493759158615022,-0.4148628029325709,0.8780852368881826,0.755687187161362,-0.2825089064206417,-1.66930289956143,0.14138939376858814,2.403412924501631,1.0273664406074416,0.878092876070424,0.7554597494309409,-0.2825552651693207,-1.6690993614607135,0.1414185955172306,2.4034451173676383,1.0273381002308042,-0.0008583435271888352,0.0007836408604000614,0.00043493670267392233,-0.00045351555160691735,0.00026136779865521193,0.0003287766630336536,-0.0002453339034924545,0.0,0.0,0.0,0.0,0.0,0.0,0.0,7.639182241336862e-06,-0.00022743773042110949,-4.635874867903178e-05,0.00020353810071660483,2.9201748642460057e-05,3.219286600719684e-05,-2.834037663745903e-05,0.0008583435271888352,-0.0007836408604000614,-0.00043493670267392233,0.00045351555160691735,-0.00026136779865521193,-0.0003287766630336536,0.0002453339034924545,0.6291133761405945,46.50039291381836,5.635891437530518,-19.709810256958008,-0.5221458077430725,-2.4108920097351074,0.40591758489608765,0
79,0.38922953605651855,-0.6568843722343445,-46.47658920288086,-5.612087726593018,19.709810256958008,0.5340476632118225,2.4044833183288574,-0.43979209661483765,0.0,0.0,0.0,0.0,0.0,0.0,0.0,-0.6576912747207069,-0.13454989383288324,-0.44398266420194205,0.4957347849734384,-0.058343680333510436,0.1491370942236208,-0.41462436530618485,0.8780871857300139,0.7556855167255067,-0.28251050686800316,-1.6693028994524137,0.14138807135820378,2.403413638032004,1.027370204442077,0.878092876070424,0.7554597494309409,-0.2825552651693207,-1.6690993614607135,0.1414185955172306,2.4034451173676383,1.0273381002308042,2.4546727990089765e-06,0.0005314612409902646,-0.0003206375447636368,-0.00027028253616246707,-0.0004181073591639874,0.0005336087887278833,0.0007294078943515811,0.0,0.0,0.0,0.0,0.0,0.0,0.0,5.690340410091643e-06,-0.00022576729456580402,-4.475830131756009e-05,0.00020353799170025333,3.052415902682348e-05,3.147933563418803e-05,-3.210421127275431e-05,-2.4546727990089765e-06,-0.0005314612409902646,0.0003206375447636368,0.00027028253616246707,0.0004181073591639874,-0.0005336087887278833,-0.0007294078943515811,0.6568843722343445,46.47658920288086,5.612087726593018,-19.709810256958008,-0.5340476632118225,-2.4044833183288574,0.43979209661483765,0
80,0.39423537254333496,-0.6568843722343445,-46.47658920288086,-5.612087726593018,19.709810256958008,0.5340476632118225,2.4044833183288574,-0.43979209661483765,0.0,0.0,0.0,0.0,0.0,0.0,0.0,-0.6576912747207069,-0.13454989383288324,-0.44398266420194205,0.4957347849734384,-0.058343680333510436,0.1491370942236208,-0.41462436530618485,0.8780871857300139,0.7556855167255067,-0.28251050686800316,-1.6693028994524137,0.14138807135820378,2.403413638032004,1.027370204442077,0.878092876070424,0.7554597494309409,-0.2825552651693207,-1.6690993614607135,0.1414185955172306,2.4034451173676383,1.0273381002308042,2.4546727990089765e-06,0.0005314612409902646,-0.0003206375447636368,-0.00027028253616246707,-0.0004181073591639874,0.0005336087887278833,0.0007294078943515811,0.0,0.0,0.0,0.0,0.0,0.0,0.0,5.690340410091643e-06,-0.00022576729456580402,-4.475830131756009e-05,0.00020353799170025333,3.052415902682348e-05,3.147933563418803e-05,-3.210421127275431e-05,-2.4546727990089765e-06,-0.0005314612409902646,0.0003206375447636368,0.00027028253616246707,0.0004181073591639874,-0.0005336087887278833,-0.0007294078943515811,0.6568843722343445,46.47658920288086,5.612087726593018,-19.709810256958008,-0.5340476632118225,-2.4044833183288574,0.43979209661483765,0
