rezayati/contactInterpretation/dataset/franka_main/labeled_data/link6/b6_6.csv
index,time,tau_J0,tau_J1,tau_J2,tau_J3,tau_J4,tau_J5,tau_J6,tau_J_d0,tau_J_d1,tau_J_d2,tau_J_d3,tau_J_d4,tau_J_d5,tau_J_d6,tau_ext0,tau_ext1,tau_ext2,tau_ext3,tau_ext4,tau_ext5,tau_ext6,q0,q1,q2,q3,q4,q5,q6,q_d0,q_d1,q_d2,q_d3,q_d4,q_d5,q_d6,dq0,dq1,dq2,dq3,dq4,dq5,dq6,dq_d0,dq_d1,dq_d2,dq_d3,dq_d4,dq_d5,dq_d6,e0,e1,e2,e3,e4,e5,e6,de0,de1,de2,de3,de4,de5,de6,etau_J0,etau_J1,etau_J2,etau_J3,etau_J4,etau_J5,etau_J6,label
1,0.0,0.10880166292190552,-18.130334854125977,1.1164276599884033,18.269685745239258,0.3619285225868225,2.2882113456726074,-0.24112264811992645,0.0,0.0,0.0,0.0,0.0,0.0,0.0,0.08803057656679689,0.557558427132834,0.2827405774000772,0.6435178380942072,-0.05992152732379886,0.08984703257759756,-0.2118899931841102,-0.6092407209563996,-0.057514318979472685,-0.6666050850971714,-2.5948763958775736,-0.05557156315439795,2.507932226427633,0.8763229540106322,-0.6090851748156966,-0.05753196718556838,-0.666603097082616,-2.5945565370258534,-0.05562143941554,2.507976027223799,0.8763108487046415,-0.0008305946538925035,0.0001989567384976184,-0.00018539483857169092,-1.3186245757624187e-05,0.00024787590706620036,-0.00033997735350279744,0.0011483843457654873,0.0,0.0,0.0,0.0,0.0,0.0,0.0,0.0001555461407030112,-1.7648206095698116e-05,1.9880145554207473e-06,0.00031985885172014505,-4.987626114204974e-05,4.380079616606025e-05,-1.2105305990717241e-05,0.0008305946538925035,-0.0001989567384976184,0.00018539483857169092,1.3186245757624187e-05,-0.00024787590706620036,0.00033997735350279744,-0.0011483843457654873,-0.10880166292190552,18.130334854125977,-1.1164276599884033,-18.269685745239258,-0.3619285225868225,-2.2882113456726074,0.24112264811992645,0
2,0.004997968673706055,0.13260537385940552,-18.054956436157227,1.0926239490509033,18.222078323364258,0.3555198311805725,2.2753939628601074,-0.17978231608867645,0.0,0.0,0.0,0.0,0.0,0.0,0.0,0.08383211203219412,0.5529084343164777,0.28207557157764185,0.6436690991757523,-0.0592858435618627,0.09142769985103288,-0.21176460303886083,-0.6092397913568959,-0.057519371930270166,-0.6666013054920942,-2.594873055006328,-0.055573910249182124,2.507930419357314,0.8763161384181842,-0.6090851748156966,-0.05753196718556838,-0.666603097082616,-2.5945565370258534,-0.05562143941554,2.507976027223799,0.8763108487046415,-0.0012199448686542732,-0.00116592305961927,0.0001365386458362854,0.00106356027040621,0.0002762037763297379,0.00023824405002786773,-0.0016451926094966764,0.0,0.0,0.0,0.0,0.0,0.0,0.0,0.0001546165411993039,-1.2595255298217256e-05,-1.791590521826869e-06,0.0003165179804747176,-4.752916635787641e-05,4.560786648477588e-05,-5.289713542744323e-06,0.0012199448686542732,0.00116592305961927,-0.0001365386458362854,-0.00106356027040621,-0.0002762037763297379,-0.00023824405002786773,0.0016451926094966764,-0.13260537385940552,18.054956436157227,-1.0926239490509033,-18.222078323364258,-0.3555198311805725,-2.2753939628601074,0.17978231608867645,0
3,0.009997129440307617,0.13260537385940552,-18.054956436157227,1.0926239490509033,18.222078323364258,0.3555198311805725,2.2753939628601074,-0.17978231608867645,0.0,0.0,0.0,0.0,0.0,0.0,0.0,0.08383211203219412,0.5529084343164777,0.28207557157764185,0.6436690991757523,-0.0592858435618627,0.09142769985103288,-0.21176460303886083,-0.6092397913568959,-0.057519371930270166,-0.6666013054920942,-2.594873055006328,-0.055573910249182124,2.507930419357314,0.8763161384181842,-0.6090851748156966,-0.05753196718556838,-0.666603097082616,-2.5945565370258534,-0.05562143941554,2.507976027223799,0.8763108487046415,-0.0012199448686542732,-0.00116592305961927,0.0001365386458362854,0.00106356027040621,0.0002762037763297379,0.00023824405002786773,-0.0016451926094966764,0.0,0.0,0.0,0.0,0.0,0.0,0.0,0.0001546165411993039,-1.2595255298217256e-05,-1.791590521826869e-06,0.0003165179804747176,-4.752916635787641e-05,4.560786648477588e-05,-5.289713542744323e-06,0.0012199448686542732,0.00116592305961927,-0.0001365386458362854,-0.00106356027040621,-0.0002762037763297379,-0.00023824405002786773,0.0016451926094966764,-0.13260537385940552,18.054956436157227,-1.0926239490509033,-18.222078323364258,-0.3555198311805725,-2.2753939628601074,0.17978231608867645,0
4,0.014997720718383789,0.10880166292190552,-18.106531143188477,1.1164276599884033,18.245882034301758,0.3674216866493225,2.2552523612976074,-0.24112264811992645,0.0,0.0,0.0,0.0,0.0,0.0,0.0,0.08690703138359385,0.5592372307738578,0.2843569691594822,0.6394598714158811,-0.05977053920566873,0.09056948902930007,-0.21177731750206644,-0.6092408682798528,-0.057515989305882545,-0.6666050896863073,-2.594874725442183,-0.0555721735572789,2.507932658909859,0.8763229538491267,-0.6090851748156966,-0.05753196718556838,-0.666603097082616,-2.5945565370258534,-0.05562143941554,2.507976027223799,0.8763108487046415,-0.00044527969308449743,0.0010075218153310288,-0.00015180431209694674,2.6566059231919373e-05,-0.0002495416493386827,0.0002813674099163806,0.0008593031620249194,0.0,0.0,0.0,0.0,0.0,0.0,0.0,0.00015569346415622576,-1.5977879685838414e-05,1.9926036912698564e-06,0.00031818841632968997,-4.92658582611008e-05,4.336831394002871e-05,-1.2105144485241581e-05,0.00044527969308449743,-0.0010075218153310288,0.00015180431209694674,-2.6566059231919373e-05,0.0002495416493386827,-0.0002813674099163806,-0.0008593031620249194,-0.10880166292190552,18.106531143188477,-1.1164276599884033,-18.245882034301758,-0.3674216866493225,-2.2552523612976074,0.24112264811992645,0
5,0.019998550415039062,0.10880166292190552,-18.106531143188477,1.1164276599884033,18.245882034301758,0.3674216866493225,2.2552523612976074,-0.24112264811992645,0.0,0.0,0.0,0.0,0.0,0.0,0.0,0.08690703138359385,0.5592372307738578,0.2843569691594822,0.6394598714158811,-0.05977053920566873,0.09056948902930007,-0.21177731750206644,-0.6092408682798528,-0.057515989305882545,-0.6666050896863073,-2.594874725442183,-0.0555721735572789,2.507932658909859,0.8763229538491267,-0.6090851748156966,-0.05753196718556838,-0.666603097082616,-2.5945565370258534,-0.05562143941554,2.507976027223799,0.8763108487046415,-0.00044527969308449743,0.0010075218153310288,-0.00015180431209694674,2.6566059231919373e-05,-0.0002495416493386827,0.0002813674099163806,0.0008593031620249194,0.0,0.0,0.0,0.0,0.0,0.0,0.0,0.00015569346415622576,-1.5977879685838414e-05,1.9926036912698564e-06,0.00031818841632968997,-4.92658582611008e-05,4.336831394002871e-05,-1.2105144485241581e-05,0.00044527969308449743,-0.0010075218153310288,0.00015180431209694674,-2.6566059231919373e-05,0.0002495416493386827,-0.0002813674099163806,-0.0008593031620249194,-0.10880166292190552,18.106531143188477,-1.1164276599884033,-18.245882034301758,-0.3674216866493225,-2.2552523612976074,0.24112264811992645,0
6,0.024996280670166016,0.08103066682815552,-18.130334854125977,1.0688202381134033,18.245882034301758,0.3619285225868225,2.2818026542663574,-0.22098104655742645,0.0,0.0,0.0,0.0,0.0,0.0,0.0,0.07768549197448393,0.5540093656997147,0.27848509165853663,0.6474911742156946,-0.059250097223960164,0.08956974396607241,-0.21242672843932567,-0.6092389193455544,-0.05751431897962117,-0.6666000790163721,-2.594874725442183,-0.055575073862850106,2.5079297116229293,0.8763207160549004,-0.6090851748156966,-0.05753196718556838,-0.666603097082616,-2.5945565370258534,-0.05562143941554,2.507976027223799,0.8763108487046415,-0.00025691000766786786,0.0010087224696996712,0.0005434296211376562,0.00047512145608078057,-4.017219838460255e-05,-0.0005600387626096865,0.00033300647300329994,0.0,0.0,0.0,0.0,0.0,0.0,0.0,0.0001537445298578355,-1.7648205947212725e-05,-3.0180662439205364e-06,0.00031818841632968997,-4.636555268989345e-05,4.631560086965081e-05,-9.867350258874197e-06,0.00025691000766786786,-0.0010087224696996712,-0.0005434296211376562,-0.00047512145608078057,4.017219838460255e-05,0.0005600387626096865,-0.00033300647300329994,-0.08103066682815552,18.130334854125977,-1.0688202381134033,-18.245882034301758,-0.3619285225868225,-2.2818026542663574,0.22098104655742645,0
7,0.02999734878540039,0.08103066682815552,-18.130334854125977,1.0688202381134033,18.245882034301758,0.3619285225868225,2.2818026542663574,-0.22098104655742645,0.0,0.0,0.0,0.0,0.0,0.0,0.0,0.07768549197448393,0.5540093656997147,0.27848509165853663,0.6474911742156946,-0.059250097223960164,0.08956974396607241,-0.21242672843932567,-0.6092389193455544,-0.05751431897962117,-0.6666000790163721,-2.594874725442183,-0.055575073862850106,2.5079297116229293,0.8763207160549004,-0.6090851748156966,-0.05753196718556838,-0.666603097082616,-2.5945565370258534,-0.05562143941554,2.507976027223799,0.8763108487046415,-0.00025691000766786786,0.0010087224696996712,0.0005434296211376562,0.00047512145608078057,-4.017219838460255e-05,-0.0005600387626096865,0.00033300647300329994,0.0,0.0,0.0,0.0,0.0,0.0,0.0,0.0001537445298578355,-1.7648205947212725e-05,-3.0180662439205364e-06,0.00031818841632968997,-4.636555268989345e-05,4.631560086965081e-05,-9.867350258874197e-06,0.00025691000766786786,-0.0010087224696996712,-0.0005434296211376562,-0.00047512145608078057,4.017219838460255e-05,0.0005600387626096865,-0.00033300647300329994,-0.08103066682815552,18.130334854125977,-1.0688202381134033,-18.245882034301758,-0.3619285225868225,-2.2818026542663574,0.22098104655742645,0
8,0.03500008583068848,0.10880166292190552,-18.154138565063477,1.0688202381134033,18.269685745239258,0.3619285225868225,2.2753939628601074,-0.18710653483867645,0.0,0.0,0.0,0.0,0.0,0.0,0.0,0.0844010488048063,0.5538648209599886,0.2843695482604732,0.6521254873622117,-0.06015963499799082,0.09039467576127327,-0.21106318475587307,-0.6092409549632946,-0.05751051767771704,-0.6666015088931572,-2.5948763958780385,-0.055574714348740145,2.5079304716669073,0.8763169522202676,-0.6090851748156966,-0.05753196718556838,-0.666603097082616,-2.5945565370258534,-0.05562143941554,2.507976027223799,0.8763108487046415,-0.0006212650436949521,0.0010113566204876393,0.0007008870205113995,0.0007066022017570273,-1.6337056712610173e-05,0.0005585858966961899,-0.0012483728036414656,0.0,0.0,0.0,0.0,0.0,0.0,0.0,0.00015578014759798364,-2.1449507851344085e-05,-1.5881894588343215e-06,0.00031985885218510646,-4.6725066799854775e-05,4.555555689167434e-05,-6.1035156261324275e-06,0.0006212650436949521,-0.0010113566204876393,-0.0007008870205113995,-0.0007066022017570273,1.6337056712610173e-05,-0.0005585858966961899,0.0012483728036414656,-0.10880166292190552,18.154138565063477,-1.0688202381134033,-18.269685745239258,-0.3619285225868225,-2.2753939628601074,0.18710653483867645,0
9,0.040006399154663086,0.10880166292190552,-18.154138565063477,1.0688202381134033,18.269685745239258,0.3619285225868225,2.2753939628601074,-0.18710653483867645,0.0,0.0,0.0,0.0,0.0,0.0,0.0,0.0844010488048063,0.5538648209599886,0.2843695482604732,0.6521254873622117,-0.06015963499799082,0.09039467576127327,-0.21106318475587307,-0.6092409549632946,-0.05751051767771704,-0.6666015088931572,-2.5948763958780385,-0.055574714348740145,2.5079304716669073,0.8763169522202676,-0.6090851748156966,-0.05753196718556838,-0.666603097082616,-2.5945565370258534,-0.05562143941554,2.507976027223799,0.8763108487046415,-0.0006212650436949521,0.0010113566204876393,0.0007008870205113995,0.0007066022017570273,-1.6337056712610173e-05,0.0005585858966961899,-0.0012483728036414656,0.0,0.0,0.0,0.0,0.0,0.0,0.0,0.00015578014759798364,-2.1449507851344085e-05,-1.5881894588343215e-06,0.00031985885218510646,-4.6725066799854775e-05,4.555555689167434e-05,-6.1035156261324275e-06,0.0006212650436949521,-0.0010113566204876393,-0.0007008870205113995,-0.0007066022017570273,1.6337056712610173e-05,-0.0005585858966961899,0.0012483728036414656,-0.10880166292190552,18.154138565063477,-1.0688202381134033,-18.269685745239258,-0.3619285225868225,-2.2753939628601074,0.18710653483867645,0
10,0.04503154754638672,0.08103066682815552,-18.106531143188477,1.1164276599884033,18.269685745239258,0.3674216866493225,2.2753939628601074,-0.21457235515117645,0.0,0.0,0.0,0.0,0.0,0.0,0.0,0.08373195440684084,0.5620502479163193,0.2829300404104344,0.6442837845366808,-0.06041970755976706,0.09129820482583341,-0.21194453754847625,-0.6092389194540199,-0.057513855590342465,-0.6666055498822301,-2.5948763958780385,-0.05557556565378743,2.5079304207935103,0.8763200039780801,-0.6090851748156966,-0.05753196718556838,-0.666603097082616,-2.5945565370258534,-0.05562143941554,2.507976027223799,0.8763108487046415,0.00015690451525602226,-9.901837460853254e-06,-0.00022890535700258172,4.5653416445887863e-05,-0.0001320305197666127,0.0003044710307442093,-7.657954966942617e-05,0.0,0.0,0.0,0.0,0.0,0.0,0.0,0.00015374463832329432,-1.8111595225918375e-05,2.4527996140832897e-06,0.00031985885218510646,-4.587376175257257e-05,4.560643028872491e-05,-9.155273438588019e-06,-0.00015690451525602226,9.901837460853254e-06,0.00022890535700258172,-4.5653416445887863e-05,0.0001320305197666127,-0.0003044710307442093,7.657954966942617e-05,-0.08103066682815552,18.106531143188477,-1.1164276599884033,-18.269685745239258,-0.3674216866493225,-2.2753939628601074,0.21457235515117645,0
11,0.05000424385070801,0.08103066682815552,-18.106531143188477,1.1164276599884033,18.269685745239258,0.3674216866493225,2.2753939628601074,-0.21457235515117645,0.0,0.0,0.0,0.0,0.0,0.0,0.0,0.08373195440684084,0.5620502479163193,0.2829300404104344,0.6442837845366808,-0.06041970755976706,0.09129820482583341,-0.21194453754847625,-0.6092389194540199,-0.057513855590342465,-0.6666055498822301,-2.5948763958780385,-0.05557556565378743,2.5079304207935103,0.8763200039780801,-0.6090851748156966,-0.05753196718556838,-0.666603097082616,-2.5945565370258534,-0.05562143941554,2.507976027223799,0.8763108487046415,0.00015690451525602226,-9.901837460853254e-06,-0.00022890535700258172,4.5653416445887863e-05,-0.0001320305197666127,0.0003044710307442093,-7.657954966942617e-05,0.0,0.0,0.0,0.0,0.0,0.0,0.0,0.00015374463832329432,-1.8111595225918375e-05,2.4527996140832897e-06,0.00031985885218510646,-4.587376175257257e-05,4.560643028872491e-05,-9.155273438588019e-06,-0.00015690451525602226,9.901837460853254e-06,0.00022890535700258172,-4.5653416445887863e-05,0.0001320305197666127,-0.0003044710307442093,7.657954966942617e-05,-0.08103066682815552,18.106531143188477,-1.1164276599884033,-18.269685745239258,-0.3674216866493225,-2.2753939628601074,0.21457235515117645,0
12,0.05499768257141113,0.10880166292190552,-18.106531143188477,1.1164276599884033,18.245882034301758,0.3674216866493225,2.2753939628601074,-0.17978231608867645,0.0,0.0,0.0,0.0,0.0,0.0,0.0,0.08691913760990583,0.5615565175977044,0.2856263879800542,0.6450193641036724,-0.060226619343321894,0.0920605492287987,-0.21352904957055185,-0.6092409546426291,-0.05751598941146312,-0.6666056908134297,-2.5948747254296216,-0.055575564686673795,2.5079304324210288,0.8763161384181842,-0.6090851748156966,-0.05753196718556838,-0.666603097082616,-2.5945565370258534,-0.05562143941554,2.507976027223799,0.8763108487046415,0.00013157016629074752,0.0004533504219521542,-0.0003174482913547864,0.0005466088864880415,5.054129373975372e-05,-0.0002742303309549313,-0.0017795108147701606,0.0,0.0,0.0,0.0,0.0,0.0,0.0,0.00015577982693248948,-1.597777410526635e-05,2.5937308136825266e-06,0.0003181884037681826,-4.5874728866204806e-05,4.559480277022132e-05,-5.289713542744323e-06,-0.00013157016629074752,-0.0004533504219521542,0.0003174482913547864,-0.0005466088864880415,-5.054129373975372e-05,0.0002742303309549313,0.0017795108147701606,-0.10880166292190552,18.106531143188477,-1.1164276599884033,-18.245882034301758,-0.3674216866493225,-2.2753939628601074,0.17978231608867645,0
13,0.05995583534240723,0.10880166292190552,-18.106531143188477,1.1164276599884033,18.245882034301758,0.3674216866493225,2.2753939628601074,-0.17978231608867645,0.0,0.0,0.0,0.0,0.0,0.0,0.0,0.08691913760990583,0.5615565175977044,0.2856263879800542,0.6450193641036724,-0.060226619343321894,0.0920605492287987,-0.21352904957055185,-0.6092409546426291,-0.05751598941146312,-0.6666056908134297,-2.5948747254296216,-0.055575564686673795,2.5079304324210288,0.8763161384181842,-0.6090851748156966,-0.05753196718556838,-0.666603097082616,-2.5945565370258534,-0.05562143941554,2.507976027223799,0.8763108487046415,0.00013157016629074752,0.0004533504219521542,-0.0003174482913547864,0.0005466088864880415,5.054129373975372e-05,-0.0002742303309549313,-0.0017795108147701606,0.0,0.0,0.0,0.0,0.0,0.0,0.0,0.00015577982693248948,-1.597777410526635e-05,2.5937308136825266e-06,0.0003181884037681826,-4.5874728866204806e-05,4.559480277022132e-05,-5.289713542744323e-06,-0.00013157016629074752,-0.0004533504219521542,0.0003174482913547864,-0.0005466088864880415,-5.054129373975372e-05,0.0002742303309549313,0.0017795108147701606,-0.10880166292190552,18.106531143188477,-1.1164276599884033,-18.245882034301758,-0.3674216866493225,-2.2753939628601074,0.17978231608867645,0
14,0.06499934196472168,0.08103066682815552,-18.106531143188477,1.0688202381134033,18.269685745239258,0.3619285225868225,2.2753939628601074,-0.23471395671367645,0.0,0.0,0.0,0.0,0.0,0.0,0.0,0.0822783301819287,0.5553761513040821,0.27772003701686276,0.6504979102268241,-0.059450736011436564,0.09217026271723587,-0.21436091005968902,-0.6092383012227597,-0.057515989415478266,-0.6666017150900602,-2.5948763958780385,-0.055571407056843075,2.507930419339148,0.8763222419338093,-0.6090851748156966,-0.05753196718556838,-0.666603097082616,-2.5945565370258534,-0.05562143941554,2.507976027223799,0.8763108487046415,9.259902123433371e-05,0.000132899920815541,-7.369310434781823e-05,9.024332397031623e-05,7.837560522627694e-06,-0.0002253268386703197,0.0009993234546485212,0.0,0.0,0.0,0.0,0.0,0.0,0.0,0.00015312640706310887,-1.5977770090117027e-05,-1.3819925558378188e-06,0.00031985885218510646,-5.0032358696924795e-05,4.560788465113319e-05,-1.1393229167766528e-05,-9.259902123433371e-05,-0.000132899920815541,7.369310434781823e-05,-9.024332397031623e-05,-7.837560522627694e-06,0.0002253268386703197,-0.0009993234546485212,-0.08103066682815552,18.106531143188477,-1.0688202381134033,-18.269685745239258,-0.3619285225868225,-2.2753939628601074,0.23471395671367645,0
15,0.06999778747558594,0.08103066682815552,-18.106531143188477,1.0688202381134033,18.269685745239258,0.3619285225868225,2.2753939628601074,-0.23471395671367645,0.0,0.0,0.0,0.0,0.0,0.0,0.0,0.0822783301819287,0.5553761513040821,0.27772003701686276,0.6504979102268241,-0.059450736011436564,0.09217026271723587,-0.21436091005968902,-0.6092383012227597,-0.057515989415478266,-0.6666017150900602,-2.5948763958780385,-0.055571407056843075,2.507930419339148,0.8763222419338093,-0.6090851748156966,-0.05753196718556838,-0.666603097082616,-2.5945565370258534,-0.05562143941554,2.507976027223799,0.8763108487046415,9.259902123433371e-05,0.000132899920815541,-7.369310434781823e-05,9.024332397031623e-05,7.837560522627694e-06,-0.0002253268386703197,0.0009993234546485212,0.0,0.0,0.0,0.0,0.0,0.0,0.0,0.00015312640706310887,-1.5977770090117027e-05,-1.3819925558378188e-06,0.00031985885218510646,-5.0032358696924795e-05,4.560788465113319e-05,-1.1393229167766528e-05,-9.259902123433371e-05,-0.000132899920815541,7.369310434781823e-05,-9.024332397031623e-05,-7.837560522627694e-06,0.0002253268386703197,-0.0009993234546485212,-0.08103066682815552,18.106531143188477,-1.0688202381134033,-18.269685745239258,-0.3619285225868225,-2.2753939628601074,0.23471395671367645,0
16,0.07500648498535156,0.05722695589065552,-18.106531143188477,1.0410492420196533,18.269685745239258,0.3619285225868225,2.2689852714538574,-0.18710653483867645,0.0,0.0,0.0,0.0,0.0,0.0,0.0,0.07806881045409825,0.5540995247138717,0.27298974593965414,0.6520005328983001,-0.059375051515862226,0.0914236455314861,-0.21409609086942727,-0.6092352296513368,-0.05751598941547829,-0.6665976856079244,-2.5948763958780385,-0.05557404888895301,2.5079311319004134,0.8763169522202676,-0.6090851748156966,-0.05753196718556838,-0.666603097082616,-2.5945565370258534,-0.05562143941554,2.507976027223799,0.8763108487046415,-0.00048441546971010374,3.996074865536382e-05,0.0008521314382956682,-4.982247421756865e-06,0.0001830211648082309,6.652348374966931e-06,-0.0015651812145509743,0.0,0.0,0.0,0.0,0.0,0.0,0.0,0.00015005483564023425,-1.597777009009621e-05,-5.411474691574547e-06,0.00031985885218510646,-4.739052658699061e-05,4.489532338558533e-05,-6.1035156261324275e-06,0.00048441546971010374,-3.996074865536382e-05,-0.0008521314382956682,4.982247421756865e-06,-0.0001830211648082309,-6.652348374966931e-06,0.0015651812145509743,-0.05722695589065552,18.106531143188477,-1.0410492420196533,-18.269685745239258,-0.3619285225868225,-2.2689852714538574,0.18710653483867645,0
17,0.07999801635742188,0.05722695589065552,-18.106531143188477,1.0410492420196533,18.269685745239258,0.3619285225868225,2.2689852714538574,-0.18710653483867645,0.0,0.0,0.0,0.0,0.0,0.0,0.0,0.07806881045409825,0.5540995247138717,0.27298974593965414,0.6520005328983001,-0.059375051515862226,0.0914236455314861,-0.21409609086942727,-0.6092352296513368,-0.05751598941547829,-0.6665976856079244,-2.5948763958780385,-0.05557404888895301,2.5079311319004134,0.8763169522202676,-0.6090851748156966,-0.05753196718556838,-0.666603097082616,-2.5945565370258534,-0.05562143941554,2.507976027223799,0.8763108487046415,-0.00048441546971010374,3.996074865536382e-05,0.0008521314382956682,-4.982247421756865e-06,0.0001830211648082309,6.652348374966931e-06,-0.0015651812145509743,0.0,0.0,0.0,0.0,0.0,0.0,0.0,0.00015005483564023425,-1.597777009009621e-05,-5.411474691574547e-06,0.00031985885218510646,-4.739052658699061e-05,4.489532338558533e-05,-6.1035156261324275e-06,0.00048441546971010374,-3.996074865536382e-05,-0.0008521314382956682,4.982247421756865e-06,-0.0001830211648082309,-6.652348374966931e-06,0.0015651812145509743,-0.05722695589065552,18.106531143188477,-1.0410492420196533,-18.269685745239258,-0.3619285225868225,-2.2689852714538574,0.18710653483867645,0
18,0.08532834053039551,0.05722695589065552,-18.106531143188477,1.0410492420196533,18.269685745239258,0.3619285225868225,2.2689852714538574,-0.18710653483867645,0.0,0.0,0.0,0.0,0.0,0.0,0.0,0.07806881045409825,0.5540995247138717,0.27298974593965414,0.6520005328983001,-0.059375051515862226,0.0914236455314861,-0.21409609086942727,-0.6092352296513368,-0.05751598941547829,-0.6665976856079244,-2.5948763958780385,-0.05557404888895301,2.5079311319004134,0.8763169522202676,-0.6090851748156966,-0.05753196718556838,-0.666603097082616,-2.5945565370258534,-0.05562143941554,2.507976027223799,0.8763108487046415,-0.00048441546971010374,3.996074865536382e-05,0.0008521314382956682,-4.982247421756865e-06,0.0001830211648082309,6.652348374966931e-06,-0.0015651812145509743,0.0,0.0,0.0,0.0,0.0,0.0,0.0,0.00015005483564023425,-1.597777009009621e-05,-5.411474691574547e-06,0.00031985885218510646,-4.739052658699061e-05,4.489532338558533e-05,-6.1035156261324275e-06,0.00048441546971010374,-3.996074865536382e-05,-0.0008521314382956682,4.982247421756865e-06,-0.0001830211648082309,-6.652348374966931e-06,0.0015651812145509743,-0.05722695589065552,18.106531143188477,-1.0410492420196533,-18.269685745239258,-0.3619285225868225,-2.2689852714538574,0.18710653483867645,0
19,0.08999752998352051,0.05722695589065552,-18.106531143188477,1.0410492420196533,18.269685745239258,0.3619285225868225,2.2689852714538574,-0.18710653483867645,0.0,0.0,0.0,0.0,0.0,0.0,0.0,0.07806881045409825,0.5540995247138717,0.27298974593965414,0.6520005328983001,-0.059375051515862226,0.0914236455314861,-0.21409609086942727,-0.6092352296513368,-0.05751598941547829,-0.6665976856079244,-2.5948763958780385,-0.05557404888895301,2.5079311319004134,0.8763169522202676,-0.6090851748156966,-0.05753196718556838,-0.666603097082616,-2.5945565370258534,-0.05562143941554,2.507976027223799,0.8763108487046415,-0.00048441546971010374,3.996074865536382e-05,0.0008521314382956682,-4.982247421756865e-06,0.0001830211648082309,6.652348374966931e-06,-0.0015651812145509743,0.0,0.0,0.0,0.0,0.0,0.0,0.0,0.00015005483564023425,-1.597777009009621e-05,-5.411474691574547e-06,0.00031985885218510646,-4.739052658699061e-05,4.489532338558533e-05,-6.1035156261324275e-06,0.00048441546971010374,-3.996074865536382e-05,-0.0008521314382956682,4.982247421756865e-06,-0.0001830211648082309,-6.652348374966931e-06,0.0015651812145509743,-0.05722695589065552,18.106531143188477,-1.0410492420196533,-18.269685745239258,-0.3619285225868225,-2.2689852714538574,0.18710653483867645,0
20,0.09499812126159668,0.05722695589065552,-18.106531143188477,1.1164276599884033,18.297456741333008,0.3555198311805725,2.2818026542663574,-0.20083944499492645,0.0,0.0,0.0,0.0,0.0,0.0,0.0,0.08324453546042743,0.5561232761989495,0.28113908754804773,0.6521114652031528,-0.06003575537646065,0.09042239725583633,-0.2148059285469452,-0.6092372576730694,-0.05751598909070065,-0.6666054829019277,-2.5948783447198696,-0.05557438661223857,2.507929724758692,0.8763184780991738,-0.6090851748156966,-0.05753196718556838,-0.666603097082616,-2.5945565370258534,-0.05562143941554,2.507976027223799,0.8763108487046415,0.00014974387033163964,-0.00044641899667242533,-0.0007386559870246147,-0.0002056618911462098,0.0001467249954851889,-4.9377393593297174e-05,0.00019569982629007523,0.0,0.0,0.0,0.0,0.0,0.0,0.0,0.0001520828573727817,-1.597809486773155e-05,2.385819311667703e-06,0.00032180769401612963,-4.7052803301431134e-05,4.630246510695102e-05,-7.629394532360223e-06,-0.00014974387033163964,0.00044641899667242533,0.0007386559870246147,0.0002056618911462098,-0.0001467249954851889,4.9377393593297174e-05,-0.00019569982629007523,-0.05722695589065552,18.106531143188477,-1.1164276599884033,-18.297456741333008,-0.3555198311805725,-2.2818026542663574,0.20083944499492645,0
21,0.09999752044677734,0.05722695589065552,-18.106531143188477,1.1164276599884033,18.297456741333008,0.3555198311805725,2.2818026542663574,-0.20083944499492645,0.0,0.0,0.0,0.0,0.0,0.0,0.0,0.08324453546042743,0.5561232761989495,0.28113908754804773,0.6521114652031528,-0.06003575537646065,0.09042239725583633,-0.2148059285469452,-0.6092372576730694,-0.05751598909070065,-0.6666054829019277,-2.5948783447198696,-0.05557438661223857,2.507929724758692,0.8763184780991738,-0.6090851748156966,-0.05753196718556838,-0.666603097082616,-2.5945565370258534,-0.05562143941554,2.507976027223799,0.8763108487046415,0.00014974387033163964,-0.00044641899667242533,-0.0007386559870246147,-0.0002056618911462098,0.0001467249954851889,-4.9377393593297174e-05,0.00019569982629007523,0.0,0.0,0.0,0.0,0.0,0.0,0.0,0.0001520828573727817,-1.597809486773155e-05,2.385819311667703e-06,0.00032180769401612963,-4.7052803301431134e-05,4.630246510695102e-05,-7.629394532360223e-06,-0.00014974387033163964,0.00044641899667242533,0.0007386559870246147,0.0002056618911462098,-0.0001467249954851889,4.9377393593297174e-05,-0.00019569982629007523,-0.05722695589065552,18.106531143188477,-1.1164276599884033,-18.297456741333008,-0.3555198311805725,-2.2818026542663574,0.20083944499492645,0
22,0.10500383377075195,0.05722695589065552,-18.130334854125977,1.0926239490509033,18.321260452270508,0.3674216866493225,2.2689852714538574,-0.18710653483867645,0.0,0.0,0.0,0.0,0.0,0.0,0.0,0.08279943146258527,0.5552289558079386,0.2829224197556702,0.6523946360294083,-0.060948806360475304,0.09093645858170049,-0.21363222628660433,-0.6092373270188642,-0.057514318654843556,-0.6666013073132964,-2.594880015155725,-0.05557240981437227,2.5079344426572914,0.8763169522202676,-0.6090851748156966,-0.05753196718556838,-0.666603097082616,-2.5945565370258534,-0.05562143941554,2.507976027223799,0.8763108487046415,0.0010925966126698729,0.00012491166140163182,0.00034276234046527753,-0.0009328068587659449,-0.0001753574706457095,0.00038388880844136564,-0.0013394581324895286,0.0,0.0,0.0,0.0,0.0,0.0,0.0,0.00015215220316766587,-1.764853072482725e-05,-1.7897693196378128e-06,0.0003234781298715461,-4.9029601167732695e-05,4.1584566507602005e-05,-6.1035156261324275e-06,-0.0010925966126698729,-0.00012491166140163182,-0.00034276234046527753,0.0009328068587659449,0.0001753574706457095,-0.00038388880844136564,0.0013394581324895286,-0.05722695589065552,18.130334854125977,-1.0926239490509033,-18.321260452270508,-0.3674216866493225,-2.2689852714538574,0.18710653483867645,0
23,0.11000990867614746,0.05722695589065552,-18.130334854125977,1.0926239490509033,18.321260452270508,0.3674216866493225,2.2689852714538574,-0.18710653483867645,0.0,0.0,0.0,0.0,0.0,0.0,0.0,0.08279943146258527,0.5552289558079386,0.2829224197556702,0.6523946360294083,-0.060948806360475304,0.09093645858170049,-0.21363222628660433,-0.6092373270188642,-0.057514318654843556,-0.6666013073132964,-2.594880015155725,-0.05557240981437227,2.5079344426572914,0.8763169522202676,-0.6090851748156966,-0.05753196718556838,-0.666603097082616,-2.5945565370258534,-0.05562143941554,2.507976027223799,0.8763108487046415,0.0010925966126698729,0.00012491166140163182,0.00034276234046527753,-0.0009328068587659449,-0.0001753574706457095,0.00038388880844136564,-0.0013394581324895286,0.0,0.0,0.0,0.0,0.0,0.0,0.0,0.00015215220316766587,-1.764853072482725e-05,-1.7897693196378128e-06,0.0003234781298715461,-4.9029601167732695e-05,4.1584566507602005e-05,-6.1035156261324275e-06,-0.0010925966126698729,-0.00012491166140163182,-0.00034276234046527753,0.0009328068587659449,0.0001753574706457095,-0.00038388880844136564,0.0013394581324895286,-0.05722695589065552,18.130334854125977,-1.0926239490509033,-18.321260452270508,-0.3674216866493225,-2.2689852714538574,0.18710653483867645,0
24,0.1150200366973877,0.13260537385940552,-18.078760147094727,1.0926239490509033,18.269685745239258,0.3619285225868225,2.2753939628601074,-0.22830526530742645,0.0,0.0,0.0,0.0,0.0,0.0,0.0,0.08061760801324612,0.5539103552818501,0.2797772899255946,0.6516185133034622,-0.06051070273752169,0.09060766204556261,-0.2125695217844488,-0.6092426137368688,-0.057517938257307596,-0.6666033932500822,-2.5948763958780385,-0.05557507255207832,2.507930424364439,0.8763215284034361,-0.6090851748156966,-0.05753196718556838,-0.666603097082616,-2.5945565370258534,-0.05562143941554,2.507976027223799,0.8763108487046415,-0.0007121556563894198,-0.0009738985585576456,0.00013699631559848893,8.131697849273411e-06,-1.9914377531661077e-05,-6.7852039851905e-05,0.0009771378594935457,0.0,0.0,0.0,0.0,0.0,0.0,0.0,0.00015743892117225933,-1.4028928260786944e-05,2.9616746621830004e-07,0.00031985885218510646,-4.636686346168317e-05,4.560285935983899e-05,-1.0679698794646697e-05,0.0007121556563894198,0.0009738985585576456,-0.00013699631559848893,-8.131697849273411e-06,1.9914377531661077e-05,6.7852039851905e-05,-0.0009771378594935457,-0.13260537385940552,18.078760147094727,-1.0926239490509033,-18.269685745239258,-0.3619285225868225,-2.2753939628601074,0.22830526530742645,0
25,0.12000560760498047,0.13260537385940552,-18.078760147094727,1.0926239490509033,18.269685745239258,0.3619285225868225,2.2753939628601074,-0.22830526530742645,0.0,0.0,0.0,0.0,0.0,0.0,0.0,0.08061760801324612,0.5539103552818501,0.2797772899255946,0.6516185133034622,-0.06051070273752169,0.09060766204556261,-0.2125695217844488,-0.6092426137368688,-0.057517938257307596,-0.6666033932500822,-2.5948763958780385,-0.05557507255207832,2.507930424364439,0.8763215284034361,-0.6090851748156966,-0.05753196718556838,-0.666603097082616,-2.5945565370258534,-0.05562143941554,2.507976027223799,0.8763108487046415,-0.0007121556563894198,-0.0009738985585576456,0.00013699631559848893,8.131697849273411e-06,-1.9914377531661077e-05,-6.7852039851905e-05,0.0009771378594935457,0.0,0.0,0.0,0.0,0.0,0.0,0.0,0.00015743892117225933,-1.4028928260786944e-05,2.9616746621830004e-07,0.00031985885218510646,-4.636686346168317e-05,4.560285935983899e-05,-1.0679698794646697e-05,0.0007121556563894198,0.0009738985585576456,-0.00013699631559848893,-8.131697849273411e-06,1.9914377531661077e-05,6.7852039851905e-05,-0.0009771378594935457,-0.13260537385940552,18.078760147094727,-1.0926239490509033,-18.269685745239258,-0.3619285225868225,-2.2753939628601074,0.22830526530742645,0
26,0.1250007152557373,0.05722695589065552,-18.078760147094727,1.1164276599884033,18.269685745239258,0.3674216866493225,2.2689852714538574,-0.17978231608867645,0.0,0.0,0.0,0.0,0.0,0.0,0.0,0.07691921476652266,0.5518534640825691,0.2731171508110255,0.6528044005666389,-0.059891649502267344,0.09062495859610371,-0.21139574878930112,-0.6092363130044178,-0.05751793825730943,-0.6666048325475578,-2.5948763958780385,-0.05557571023632862,2.5079311706617817,0.8763161384181761,-0.6090851748156966,-0.05753196718556838,-0.666603097082616,-2.5945565370258534,-0.05562143941554,2.507976027223799,0.8763108487046415,0.0006224082234637422,-0.0003972560774905581,-0.0006918356088349556,-0.0001417092057683847,-2.873101305799613e-05,0.00013578468210569217,-0.0015970370409162714,0.0,0.0,0.0,0.0,0.0,0.0,0.0,0.00015113818872125595,-1.4028928258955076e-05,1.735464941754472e-06,0.00031985885218510646,-4.572917921138314e-05,4.485656201724808e-05,-5.289713534639695e-06,-0.0006224082234637422,0.0003972560774905581,0.0006918356088349556,0.0001417092057683847,2.873101305799613e-05,-0.00013578468210569217,0.0015970370409162714,-0.05722695589065552,18.078760147094727,-1.1164276599884033,-18.269685745239258,-0.3674216866493225,-2.2689852714538574,0.17978231608867645,0
27,0.1303844451904297,0.05722695589065552,-18.078760147094727,1.1164276599884033,18.269685745239258,0.3674216866493225,2.2689852714538574,-0.17978231608867645,0.0,0.0,0.0,0.0,0.0,0.0,0.0,0.07691921476652266,0.5518534640825691,0.2731171508110255,0.6528044005666389,-0.059891649502267344,0.09062495859610371,-0.21139574878930112,-0.6092363130044178,-0.05751793825730943,-0.6666048325475578,-2.5948763958780385,-0.05557571023632862,2.5079311706617817,0.8763161384181761,-0.6090851748156966,-0.05753196718556838,-0.666603097082616,-2.5945565370258534,-0.05562143941554,2.507976027223799,0.8763108487046415,0.0006224082234637422,-0.0003972560774905581,-0.0006918356088349556,-0.0001417092057683847,-2.873101305799613e-05,0.00013578468210569217,-0.0015970370409162714,0.0,0.0,0.0,0.0,0.0,0.0,0.0,0.00015113818872125595,-1.4028928258955076e-05,1.735464941754472e-06,0.00031985885218510646,-4.572917921138314e-05,4.485656201724808e-05,-5.289713534639695e-06,-0.0006224082234637422,0.0003972560774905581,0.0006918356088349556,0.0001417092057683847,2.873101305799613e-05,-0.00013578468210569217,0.0015970370409162714,-0.05722695589065552,18.078760147094727,-1.1164276599884033,-18.269685745239258,-0.3674216866493225,-2.2689852714538574,0.17978231608867645,0
28,0.1349952220916748,0.05722695589065552,-18.106531143188477,1.0926239490509033,18.269685745239258,0.3619285225868225,2.2753939628601074,-0.17978231608867645,0.0,0.0,0.0,0.0,0.0,0.0,0.0,0.08139078401125782,0.5559594899447585,0.27937388311725075,0.6516831033354435,-0.05930637736316519,0.0903607933883085,-0.21057961878638976,-0.6092372476214247,-0.057515279126794716,-0.6666010559726182,-2.5948763928255834,-0.05557353615985575,2.507930541437516,0.8763161384181842,-0.6090851748156966,-0.05753196718556838,-0.666603097082616,-2.5945565370258534,-0.05562143941554,2.507976027223799,0.8763108487046415,0.0006185110563684906,0.00044794609382734976,-2.480197813664888e-05,-0.00020364989404684407,0.00011952594252494006,-0.00019311605466290968,-0.0005925636117864839,0.0,0.0,0.0,0.0,0.0,0.0,0.0,0.00015207280572815396,-1.6688058773667303e-05,-2.0411099977968306e-06,0.00031985579972992895,-4.7903255684246526e-05,4.54857862828284e-05,-5.289713542744323e-06,-0.0006185110563684906,-0.00044794609382734976,2.480197813664888e-05,0.00020364989404684407,-0.00011952594252494006,0.00019311605466290968,0.0005925636117864839,-0.05722695589065552,18.106531143188477,-1.0926239490509033,-18.269685745239258,-0.3619285225868225,-2.2753939628601074,0.17978231608867645,0
29,0.13999438285827637,0.05722695589065552,-18.106531143188477,1.0926239490509033,18.269685745239258,0.3619285225868225,2.2753939628601074,-0.17978231608867645,0.0,0.0,0.0,0.0,0.0,0.0,0.0,0.08139078401125782,0.5559594899447585,0.27937388311725075,0.6516831033354435,-0.05930637736316519,0.0903607933883085,-0.21057961878638976,-0.6092372476214247,-0.057515279126794716,-0.6666010559726182,-2.5948763928255834,-0.05557353615985575,2.507930541437516,0.8763161384181842,-0.6090851748156966,-0.05753196718556838,-0.666603097082616,-2.5945565370258534,-0.05562143941554,2.507976027223799,0.8763108487046415,0.0006185110563684906,0.00044794609382734976,-2.480197813664888e-05,-0.00020364989404684407,0.00011952594252494006,-0.00019311605466290968,-0.0005925636117864839,0.0,0.0,0.0,0.0,0.0,0.0,0.0,0.00015207280572815396,-1.6688058773667303e-05,-2.0411099977968306e-06,0.00031985579972992895,-4.7903255684246526e-05,4.54857862828284e-05,-5.289713542744323e-06,-0.0006185110563684906,-0.00044794609382734976,2.480197813664888e-05,0.00020364989404684407,-0.00011952594252494006,0.00019311605466290968,0.0005925636117864839,-0.05722695589065552,18.106531143188477,-1.0926239490509033,-18.269685745239258,-0.3619285225868225,-2.2753939628601074,0.17978231608867645,0
30,0.14499282836914062,0.05722695589065552,-18.154138565063477,1.0926239490509033,18.297456741333008,0.3674216866493225,2.2689852714538574,-0.19351522624492645,0.0,0.0,0.0,0.0,0.0,0.0,0.0,0.0841127739718348,0.5551604248366413,0.2823592212375814,0.6513977472583365,-0.05882389041056633,0.09017984352229663,-0.20930050192508076,-0.6092366250085468,-0.05751264853975816,-0.6666012305805652,-2.5948783447198527,-0.05557568437380828,2.5079311314704213,0.8763176642970906,-0.6090851748156966,-0.05753196718556838,-0.666603097082616,-2.5945565370258534,-0.05562143941554,2.507976027223799,0.8763108487046415,0.0009954732094451175,0.0010583522147080474,-0.0002494277644167373,-0.0005325181350712597,-0.00011390701636370835,-4.260241049807065e-05,-0.001236103080709225,0.0,0.0,0.0,0.0,0.0,0.0,0.0,0.0001514501928502332,-1.931864581022208e-05,-1.8665020508068508e-06,0.00032180769399925424,-4.5755041731716795e-05,4.48957533776273e-05,-6.815592449083141e-06,-0.0009954732094451175,-0.0010583522147080474,0.0002494277644167373,0.0005325181350712597,0.00011390701636370835,4.260241049807065e-05,0.001236103080709225,-0.05722695589065552,18.154138565063477,-1.0926239490509033,-18.297456741333008,-0.3674216866493225,-2.2689852714538574,0.19351522624492645,0
31,0.1499946117401123,0.05722695589065552,-18.154138565063477,1.0926239490509033,18.297456741333008,0.3674216866493225,2.2689852714538574,-0.19351522624492645,0.0,0.0,0.0,0.0,0.0,0.0,0.0,0.0841127739718348,0.5551604248366413,0.2823592212375814,0.6513977472583365,-0.05882389041056633,0.09017984352229663,-0.20930050192508076,-0.6092366250085468,-0.05751264853975816,-0.6666012305805652,-2.5948783447198527,-0.05557568437380828,2.5079311314704213,0.8763176642970906,-0.6090851748156966,-0.05753196718556838,-0.666603097082616,-2.5945565370258534,-0.05562143941554,2.507976027223799,0.8763108487046415,0.0009954732094451175,0.0010583522147080474,-0.0002494277644167373,-0.0005325181350712597,-0.00011390701636370835,-4.260241049807065e-05,-0.001236103080709225,0.0,0.0,0.0,0.0,0.0,0.0,0.0,0.0001514501928502332,-1.931864581022208e-05,-1.8665020508068508e-06,0.00032180769399925424,-4.5755041731716795e-05,4.48957533776273e-05,-6.815592449083141e-06,-0.0009954732094451175,-0.0010583522147080474,0.0002494277644167373,0.0005325181350712597,0.00011390701636370835,4.260241049807065e-05,0.001236103080709225,-0.05722695589065552,18.154138565063477,-1.0926239490509033,-18.297456741333008,-0.3674216866493225,-2.2689852714538574,0.19351522624492645,0
32,0.1549978256225586,0.08103066682815552,-18.154138565063477,1.0926239490509033,18.297456741333008,0.3619285225868225,2.2753939628601074,-0.24112264811992645,0.0,0.0,0.0,0.0,0.0,0.0,0.0,0.08677422184475585,0.5585618679333614,0.28204164074835364,0.649337164042685,-0.05868073652087035,0.08962420554379016,-0.20929144494727528,-0.6092390061179415,-0.05751264854376774,-0.6666012306885484,-2.5948783447198696,-0.05557179648785546,2.507930458584931,0.8763229540106322,-0.6090851748156966,-0.05753196718556838,-0.666603097082616,-2.5945565370258534,-0.05562143941554,2.507976027223799,0.8763108487046415,8.441252486316352e-05,0.0013257258781736113,0.00018731258863617452,-0.00046449290089909,0.00022386066260040885,3.544354157945069e-05,0.0014974717010130196,0.0,0.0,0.0,0.0,0.0,0.0,0.0,0.00015383130224488895,-1.9318641800644687e-05,-1.866394067628896e-06,0.00032180769401612963,-4.9642927684542815e-05,4.556863886806539e-05,-1.2105305990717241e-05,-8.441252486316352e-05,-0.0013257258781736113,-0.00018731258863617452,0.00046449290089909,-0.00022386066260040885,-3.544354157945069e-05,-0.0014974717010130196,-0.08103066682815552,18.154138565063477,-1.0926239490509033,-18.297456741333008,-0.3619285225868225,-2.2753939628601074,0.24112264811992645,0
33,0.1600019931793213,0.08103066682815552,-18.154138565063477,1.0926239490509033,18.297456741333008,0.3619285225868225,2.2753939628601074,-0.24112264811992645,0.0,0.0,0.0,0.0,0.0,0.0,0.0,0.08677422184475585,0.5585618679333614,0.28204164074835364,0.649337164042685,-0.05868073652087035,0.08962420554379016,-0.20929144494727528,-0.6092390061179415,-0.05751264854376774,-0.6666012306885484,-2.5948783447198696,-0.05557179648785546,2.507930458584931,0.8763229540106322,-0.6090851748156966,-0.05753196718556838,-0.666603097082616,-2.5945565370258534,-0.05562143941554,2.507976027223799,0.8763108487046415,8.441252486316352e-05,0.0013257258781736113,0.00018731258863617452,-0.00046449290089909,0.00022386066260040885,3.544354157945069e-05,0.0014974717010130196,0.0,0.0,0.0,0.0,0.0,0.0,0.0,0.00015383130224488895,-1.9318641800644687e-05,-1.866394067628896e-06,0.00032180769401612963,-4.9642927684542815e-05,4.556863886806539e-05,-1.2105305990717241e-05,-8.441252486316352e-05,-0.0013257258781736113,-0.00018731258863617452,0.00046449290089909,-0.00022386066260040885,-3.544354157945069e-05,-0.0014974717010130196,-0.08103066682815552,18.154138565063477,-1.0926239490509033,-18.297456741333008,-0.3619285225868225,-2.2753939628601074,0.24112264811992645,0
34,0.16499733924865723,0.10880166292190552,-18.154138565063477,1.1441986560821533,18.245882034301758,0.3619285225868225,2.2753939628601074,-0.22830526530742645,0.0,0.0,0.0,0.0,0.0,0.0,0.0,0.08332099038872227,0.5569535841156938,0.28053760594826355,0.6511384789235775,-0.05802375616769942,0.09048296614692333,-0.2092556588654509,-0.609240942445083,-0.05751193825508419,-0.6666077058708034,-2.594874725442183,-0.05557511344224688,2.5079304238614517,0.8763215298569863,-0.6090851748156966,-0.05753196718556838,-0.666603097082616,-2.5945565370258534,-0.05562143941554,2.507976027223799,0.8763108487046415,-0.0006715191171111158,0.001328906572192717,-0.0013713633632747508,0.0012511336610766782,0.00021992662294165424,0.00020928112948878928,0.00029529019966299954,0.0,0.0,0.0,0.0,0.0,0.0,0.0,0.0001557676293864052,-2.0028930484194962e-05,4.6087881874212755e-06,0.00031818841632968997,-4.632597329311955e-05,4.560336234726847e-05,-1.0681152344815814e-05,0.0006715191171111158,-0.001328906572192717,0.0013713633632747508,-0.0012511336610766782,-0.00021992662294165424,-0.00020928112948878928,-0.00029529019966299954,-0.10880166292190552,18.154138565063477,-1.1441986560821533,-18.245882034301758,-0.3619285225868225,-2.2753939628601074,0.22830526530742645,0
35,0.169999361038208,0.10880166292190552,-18.154138565063477,1.1441986560821533,18.245882034301758,0.3619285225868225,2.2753939628601074,-0.22830526530742645,0.0,0.0,0.0,0.0,0.0,0.0,0.0,0.08332099038872227,0.5569535841156938,0.28053760594826355,0.6511384789235775,-0.05802375616769942,0.09048296614692333,-0.2092556588654509,-0.609240942445083,-0.05751193825508419,-0.6666077058708034,-2.594874725442183,-0.05557511344224688,2.5079304238614517,0.8763215298569863,-0.6090851748156966,-0.05753196718556838,-0.666603097082616,-2.5945565370258534,-0.05562143941554,2.507976027223799,0.8763108487046415,-0.0006715191171111158,0.001328906572192717,-0.0013713633632747508,0.0012511336610766782,0.00021992662294165424,0.00020928112948878928,0.00029529019966299954,0.0,0.0,0.0,0.0,0.0,0.0,0.0,0.0001557676293864052,-2.0028930484194962e-05,4.6087881874212755e-06,0.00031818841632968997,-4.632597329311955e-05,4.560336234726847e-05,-1.0681152344815814e-05,0.0006715191171111158,-0.001328906572192717,0.0013713633632747508,-0.0012511336610766782,-0.00021992662294165424,-0.00020928112948878928,-0.00029529019966299954,-0.10880166292190552,18.154138565063477,-1.1441986560821533,-18.245882034301758,-0.3619285225868225,-2.2753939628601074,0.22830526530742645,0
36,0.17499661445617676,0.05722695589065552,-18.130334854125977,1.0926239490509033,18.321260452270508,0.3674216866493225,2.2689852714538574,-0.17978231608867645,0.0,0.0,0.0,0.0,0.0,0.0,0.0,0.08492360213050701,0.5558054071312889,0.2832746785797745,0.6512578423781683,-0.0582888680908001,0.09082128222822373,-0.20953294028548544,-0.6092373356860273,-0.057514318975613425,-0.6666040875722158,-2.5948777865240364,-0.05557559243388258,2.5079311315774278,0.8763161384181842,-0.6090851748156966,-0.05753196718556838,-0.666603097082616,-2.5945565370258534,-0.05562143941554,2.507976027223799,0.8763108487046415,0.0006246240818843846,0.0007824285804562737,0.0002883998844235726,-0.0008361380355644075,-5.5444388406749735e-05,-0.00026523932061563914,-0.0007579220262500129,0.0,0.0,0.0,0.0,0.0,0.0,0.0,0.0001521608703307642,-1.764820995495825e-05,9.904895997836505e-07,0.0003212494981830183,-4.584698165741724e-05,4.489564637122356e-05,-5.289713542744323e-06,-0.0006246240818843846,-0.0007824285804562737,-0.0002883998844235726,0.0008361380355644075,5.5444388406749735e-05,0.00026523932061563914,0.0007579220262500129,-0.05722695589065552,18.130334854125977,-1.0926239490509033,-18.321260452270508,-0.3674216866493225,-2.2689852714538574,0.17978231608867645,0
37,0.18001317977905273,0.05722695589065552,-18.130334854125977,1.0926239490509033,18.321260452270508,0.3674216866493225,2.2689852714538574,-0.17978231608867645,0.0,0.0,0.0,0.0,0.0,0.0,0.0,0.08492360213050701,0.5558054071312889,0.2832746785797745,0.6512578423781683,-0.0582888680908001,0.09082128222822373,-0.20953294028548544,-0.6092373356860273,-0.057514318975613425,-0.6666040875722158,-2.5948777865240364,-0.05557559243388258,2.5079311315774278,0.8763161384181842,-0.6090851748156966,-0.05753196718556838,-0.666603097082616,-2.5945565370258534,-0.05562143941554,2.507976027223799,0.8763108487046415,0.0006246240818843846,0.0007824285804562737,0.0002883998844235726,-0.0008361380355644075,-5.5444388406749735e-05,-0.00026523932061563914,-0.0007579220262500129,0.0,0.0,0.0,0.0,0.0,0.0,0.0,0.0001521608703307642,-1.764820995495825e-05,9.904895997836505e-07,0.0003212494981830183,-4.584698165741724e-05,4.489564637122356e-05,-5.289713542744323e-06,-0.0006246240818843846,-0.0007824285804562737,-0.0002883998844235726,0.0008361380355644075,5.5444388406749735e-05,0.00026523932061563914,0.0007579220262500129,-0.05722695589065552,18.130334854125977,-1.0926239490509033,-18.321260452270508,-0.3674216866493225,-2.2689852714538574,0.17978231608867645,0
38,0.18500590324401855,0.03342324495315552,-18.078760147094727,1.0688202381134033,18.245882034301758,0.3619285225868225,2.2689852714538574,-0.22830526530742645,0.0,0.0,0.0,0.0,0.0,0.0,0.0,0.07995020906614154,0.5559292472735635,0.28009780678616314,0.6519995869655717,-0.057846264067415734,0.08936553672507355,-0.2098269122915008,-0.6092354312111566,-0.05751722796862583,-0.6666014283729429,-2.5948747254296025,-0.05557511297344173,2.507934664996546,0.8763215298569863,-0.6090851748156966,-0.05753196718556838,-0.666603097082616,-2.5945565370258534,-0.05562143941554,2.507976027223799,0.8763108487046415,0.0014109816670179686,-0.00018029874301545045,0.0002011543043514009,0.0008652753305197793,0.0003743166842197162,0.0002100164202818611,0.00017729084958136726,0.0,0.0,0.0,0.0,0.0,0.0,0.0,0.00015025639546006886,-1.4739216942553923e-05,-1.6687096731082818e-06,0.00031818840374908675,-4.632644209826703e-05,4.136222725303895e-05,-1.0681152344815814e-05,-0.0014109816670179686,0.00018029874301545045,-0.0002011543043514009,-0.0008652753305197793,-0.0003743166842197162,-0.0002100164202818611,-0.00017729084958136726,-0.03342324495315552,18.078760147094727,-1.0688202381134033,-18.245882034301758,-0.3619285225868225,-2.2689852714538574,0.22830526530742645,0
39,0.1900010108947754,0.03342324495315552,-18.078760147094727,1.0688202381134033,18.245882034301758,0.3619285225868225,2.2689852714538574,-0.22830526530742645,0.0,0.0,0.0,0.0,0.0,0.0,0.0,0.07995020906614154,0.5559292472735635,0.28009780678616314,0.6519995869655717,-0.057846264067415734,0.08936553672507355,-0.2098269122915008,-0.6092354312111566,-0.05751722796862583,-0.6666014283729429,-2.5948747254296025,-0.05557511297344173,2.507934664996546,0.8763215298569863,-0.6090851748156966,-0.05753196718556838,-0.666603097082616,-2.5945565370258534,-0.05562143941554,2.507976027223799,0.8763108487046415,0.0014109816670179686,-0.00018029874301545045,0.0002011543043514009,0.0008652753305197793,0.0003743166842197162,0.0002100164202818611,0.00017729084958136726,0.0,0.0,0.0,0.0,0.0,0.0,0.0,0.00015025639546006886,-1.4739216942553923e-05,-1.6687096731082818e-06,0.00031818840374908675,-4.632644209826703e-05,4.136222725303895e-05,-1.0681152344815814e-05,-0.0014109816670179686,0.00018029874301545045,-0.0002011543043514009,-0.0008652753305197793,-0.0003743166842197162,-0.0002100164202818611,-0.00017729084958136726,-0.03342324495315552,18.078760147094727,-1.0688202381134033,-18.245882034301758,-0.3619285225868225,-2.2689852714538574,0.22830526530742645,0
40,0.19500994682312012,0.05722695589065552,-18.106531143188477,1.0926239490509033,18.269685745239258,0.3619285225868225,2.2818026542663574,-0.20083944499492645,0.0,0.0,0.0,0.0,0.0,0.0,0.0,0.07649022016293837,0.5562700129419361,0.276912952165372,0.6528336227985374,-0.057438878875775666,0.0892988282516982,-0.2110182406354691,-0.6092373353637845,-0.05751598941146869,-0.6666013145137627,-2.5948763958780385,-0.05557511302826817,2.507930195675081,0.8763184780991738,-0.6090851748156966,-0.05753196718556838,-0.666603097082616,-2.5945565370258534,-0.05562143941554,2.507976027223799,0.8763108487046415,-9.398633758946158e-05,0.00035357559390359846,-0.00038179162248772524,-1.2080796717538584e-05,0.0001883525426564914,-0.00012925201986298946,-0.00036498060304115997,0.0,0.0,0.0,0.0,0.0,0.0,0.0,0.0001521605480879762,-1.597777409969442e-05,-1.7825688533035233e-06,0.00031985885218510646,-4.632638727183197e-05,4.583154871795614e-05,-7.629394532360223e-06,9.398633758946158e-05,-0.00035357559390359846,0.00038179162248772524,1.2080796717538584e-05,-0.0001883525426564914,0.00012925201986298946,0.00036498060304115997,-0.05722695589065552,18.106531143188477,-1.0926239490509033,-18.269685745239258,-0.3619285225868225,-2.2818026542663574,0.20083944499492645,0
41,0.2009601593017578,0.05722695589065552,-18.106531143188477,1.0926239490509033,18.269685745239258,0.3619285225868225,2.2818026542663574,-0.20083944499492645,0.0,0.0,0.0,0.0,0.0,0.0,0.0,0.07649022016293837,0.5562700129419361,0.276912952165372,0.6528336227985374,-0.057438878875775666,0.0892988282516982,-0.2110182406354691,-0.6092373353637845,-0.05751598941146869,-0.6666013145137627,-2.5948763958780385,-0.05557511302826817,2.507930195675081,0.8763184780991738,-0.6090851748156966,-0.05753196718556838,-0.666603097082616,-2.5945565370258534,-0.05562143941554,2.507976027223799,0.8763108487046415,-9.398633758946158e-05,0.00035357559390359846,-0.00038179162248772524,-1.2080796717538584e-05,0.0001883525426564914,-0.00012925201986298946,-0.00036498060304115997,0.0,0.0,0.0,0.0,0.0,0.0,0.0,0.0001521605480879762,-1.597777409969442e-05,-1.7825688533035233e-06,0.00031985885218510646,-4.632638727183197e-05,4.583154871795614e-05,-7.629394532360223e-06,9.398633758946158e-05,-0.00035357559390359846,0.00038179162248772524,1.2080796717538584e-05,-0.0001883525426564914,0.00012925201986298946,0.00036498060304115997,-0.05722695589065552,18.106531143188477,-1.0926239490509033,-18.269685745239258,-0.3619285225868225,-2.2818026542663574,0.20083944499492645,0
42,0.20499825477600098,0.05722695589065552,-18.106531143188477,1.0926239490509033,18.269685745239258,0.3619285225868225,2.2818026542663574,-0.20083944499492645,0.0,0.0,0.0,0.0,0.0,0.0,0.0,0.07649022016293837,0.5562700129419361,0.276912952165372,0.6528336227985374,-0.057438878875775666,0.0892988282516982,-0.2110182406354691,-0.6092373353637845,-0.05751598941146869,-0.6666013145137627,-2.5948763958780385,-0.05557511302826817,2.507930195675081,0.8763184780991738,-0.6090851748156966,-0.05753196718556838,-0.666603097082616,-2.5945565370258534,-0.05562143941554,2.507976027223799,0.8763108487046415,-9.398633758946158e-05,0.00035357559390359846,-0.00038179162248772524,-1.2080796717538584e-05,0.0001883525426564914,-0.00012925201986298946,-0.00036498060304115997,0.0,0.0,0.0,0.0,0.0,0.0,0.0,0.0001521605480879762,-1.597777409969442e-05,-1.7825688533035233e-06,0.00031985885218510646,-4.632638727183197e-05,4.583154871795614e-05,-7.629394532360223e-06,9.398633758946158e-05,-0.00035357559390359846,0.00038179162248772524,1.2080796717538584e-05,-0.0001883525426564914,0.00012925201986298946,0.00036498060304115997,-0.05722695589065552,18.106531143188477,-1.0926239490509033,-18.269685745239258,-0.3619285225868225,-2.2818026542663574,0.20083944499492645,0
43,0.20995140075683594,0.05722695589065552,-18.106531143188477,1.0926239490509033,18.269685745239258,0.3619285225868225,2.2818026542663574,-0.20083944499492645,0.0,0.0,0.0,0.0,0.0,0.0,0.0,0.07649022016293837,0.5562700129419361,0.276912952165372,0.6528336227985374,-0.057438878875775666,0.0892988282516982,-0.2110182406354691,-0.6092373353637845,-0.05751598941146869,-0.6666013145137627,-2.5948763958780385,-0.05557511302826817,2.507930195675081,0.8763184780991738,-0.6090851748156966,-0.05753196718556838,-0.666603097082616,-2.5945565370258534,-0.05562143941554,2.507976027223799,0.8763108487046415,-9.398633758946158e-05,0.00035357559390359846,-0.00038179162248772524,-1.2080796717538584e-05,0.0001883525426564914,-0.00012925201986298946,-0.00036498060304115997,0.0,0.0,0.0,0.0,0.0,0.0,0.0,0.0001521605480879762,-1.597777409969442e-05,-1.7825688533035233e-06,0.00031985885218510646,-4.632638727183197e-05,4.583154871795614e-05,-7.629394532360223e-06,9.398633758946158e-05,-0.00035357559390359846,0.00038179162248772524,1.2080796717538584e-05,-0.0001883525426564914,0.00012925201986298946,0.00036498060304115997,-0.05722695589065552,18.106531143188477,-1.0926239490509033,-18.269685745239258,-0.3619285225868225,-2.2818026542663574,0.20083944499492645,0
44,0.21500086784362793,0.08103066682815552,-18.130334854125977,1.1164276599884033,18.269685745239258,0.3738303780555725,2.2818026542663574,-0.17978231608867645,0.0,0.0,0.0,0.0,0.0,0.0,0.0,0.078337604130608,0.5523136747205803,0.28189836644582367,0.6538502212153985,-0.0578792272193432,0.089793813568204,-0.212198081644347,-0.6092382261105523,-0.05751431897962302,-0.6666035757777103,-2.5948763958780385,-0.05557627184182736,2.5079297203445097,0.8763161383643491,-0.6090851748156966,-0.05753196718556838,-0.666603097082616,-2.5945565370258534,-0.05562143941554,2.507976027223799,0.8763108487046415,0.0001778371724606496,-0.0002607877331394231,-0.00039373369286353814,8.563292352127852e-05,-0.00020860643940460655,-0.00030730562898412245,-0.0012810092766565577,0.0,0.0,0.0,0.0,0.0,0.0,0.0,0.00015305129485576607,-1.764820594536004e-05,4.78695094341397e-07,0.00031985885218510646,-4.516757371263863e-05,4.630687928930399e-05,-5.28965970758577e-06,-0.0001778371724606496,0.0002607877331394231,0.00039373369286353814,-8.563292352127852e-05,0.00020860643940460655,0.00030730562898412245,0.0012810092766565577,-0.08103066682815552,18.130334854125977,-1.1164276599884033,-18.269685745239258,-0.3738303780555725,-2.2818026542663574,0.17978231608867645,0
45,0.21999788284301758,0.08103066682815552,-18.130334854125977,1.1164276599884033,18.269685745239258,0.3738303780555725,2.2818026542663574,-0.17978231608867645,0.0,0.0,0.0,0.0,0.0,0.0,0.0,0.078337604130608,0.5523136747205803,0.28189836644582367,0.6538502212153985,-0.0578792272193432,0.089793813568204,-0.212198081644347,-0.6092382261105523,-0.05751431897962302,-0.6666035757777103,-2.5948763958780385,-0.05557627184182736,2.5079297203445097,0.8763161383643491,-0.6090851748156966,-0.05753196718556838,-0.666603097082616,-2.5945565370258534,-0.05562143941554,2.507976027223799,0.8763108487046415,0.0001778371724606496,-0.0002607877331394231,-0.00039373369286353814,8.563292352127852e-05,-0.00020860643940460655,-0.00030730562898412245,-0.0012810092766565577,0.0,0.0,0.0,0.0,0.0,0.0,0.0,0.00015305129485576607,-1.764820594536004e-05,4.78695094341397e-07,0.00031985885218510646,-4.516757371263863e-05,4.630687928930399e-05,-5.28965970758577e-06,-0.0001778371724606496,0.0002607877331394231,0.00039373369286353814,-8.563292352127852e-05,0.00020860643940460655,0.00030730562898412245,0.0012810092766565577,-0.08103066682815552,18.130334854125977,-1.1164276599884033,-18.269685745239258,-0.3738303780555725,-2.2818026542663574,0.17978231608867645,0
46,0.22499680519104004,0.10880166292190552,-18.154138565063477,1.1164276599884033,18.297456741333008,0.3674216866493225,2.2882113456726074,-0.24844686686992645,0.0,0.0,0.0,0.0,0.0,0.0,0.0,0.08231366425614188,0.5532080060486604,0.2852905308527346,0.6531023359942362,-0.057570059442887456,0.08946413756097225,-0.211123147580509,-0.6092402516651512,-0.05751264854376776,-0.6666057598147145,-2.5948783447198696,-0.05557134710141067,2.5079290082674537,0.8763237547307631,-0.6090851748156966,-0.05753196718556838,-0.666603097082616,-2.5945565370258534,-0.05562143941554,2.507976027223799,0.8763108487046415,7.597822153668458e-05,0.0008325848566491102,6.989939902214388e-06,-0.00010540169867743087,-0.0001386827924624077,-0.0008317706228268585,0.0014219766233904674,0.0,0.0,0.0,0.0,0.0,0.0,0.0,0.000155076849454594,-1.931864180062387e-05,2.662732098479559e-06,0.00032180769401612963,-5.00923141293283e-05,4.701895634529052e-05,-1.2906026121584091e-05,-7.597822153668458e-05,-0.0008325848566491102,-6.989939902214388e-06,0.00010540169867743087,0.0001386827924624077,0.0008317706228268585,-0.0014219766233904674,-0.10880166292190552,18.154138565063477,-1.1164276599884033,-18.297456741333008,-0.3674216866493225,-2.2882113456726074,0.24844686686992645,0
47,0.2299964427947998,0.10880166292190552,-18.154138565063477,1.1164276599884033,18.297456741333008,0.3674216866493225,2.2882113456726074,-0.24844686686992645,0.0,0.0,0.0,0.0,0.0,0.0,0.0,0.08231366425614188,0.5532080060486604,0.2852905308527346,0.6531023359942362,-0.057570059442887456,0.08946413756097225,-0.211123147580509,-0.6092402516651512,-0.05751264854376776,-0.6666057598147145,-2.5948783447198696,-0.05557134710141067,2.5079290082674537,0.8763237547307631,-0.6090851748156966,-0.05753196718556838,-0.666603097082616,-2.5945565370258534,-0.05562143941554,2.507976027223799,0.8763108487046415,7.597822153668458e-05,0.0008325848566491102,6.989939902214388e-06,-0.00010540169867743087,-0.0001386827924624077,-0.0008317706228268585,0.0014219766233904674,0.0,0.0,0.0,0.0,0.0,0.0,0.0,0.000155076849454594,-1.931864180062387e-05,2.662732098479559e-06,0.00032180769401612963,-5.00923141293283e-05,4.701895634529052e-05,-1.2906026121584091e-05,-7.597822153668458e-05,-0.0008325848566491102,-6.989939902214388e-06,0.00010540169867743087,0.0001386827924624077,0.0008317706228268585,-0.0014219766233904674,-0.10880166292190552,18.154138565063477,-1.1164276599884033,-18.297456741333008,-0.3674216866493225,-2.2882113456726074,0.24844686686992645,0
48,0.23499631881713867,0.08103066682815552,-18.106531143188477,1.1164276599884033,18.245882034301758,0.3738303780555725,2.2689852714538574,-0.16604940593242645,0.0,0.0,0.0,0.0,0.0,0.0,0.0,0.07998106276078938,0.5536193579129868,0.280877685112203,0.6499655805218381,-0.05721279037311365,0.08905432607395329,-0.212031259266681,-0.6092389801176031,-0.05751598941547829,-0.6666028747478376,-2.594874725442183,-0.055572158513276404,2.507931170661827,0.8763146125392042,-0.6090851748156966,-0.05753196718556838,-0.666603097082616,-2.5945565370258534,-0.05562143941554,2.507976027223799,0.8763108487046415,0.00035635453864567784,0.0002243907354229168,-0.00037137232814333056,0.0007088882285650009,-0.0004139809028416048,0.00019480946711319185,-0.002205742947816553,0.0,0.0,0.0,0.0,0.0,0.0,0.0,0.00015380530190656216,-1.597777009009621e-05,-2.2233477836586246e-07,0.00031818841632968997,-4.928090226359594e-05,4.485656197195098e-05,-3.7638345626866965e-06,-0.00035635453864567784,-0.0002243907354229168,0.00037137232814333056,-0.0007088882285650009,0.0004139809028416048,-0.00019480946711319185,0.002205742947816553,-0.08103066682815552,18.106531143188477,-1.1164276599884033,-18.245882034301758,-0.3738303780555725,-2.2689852714538574,0.16604940593242645,0
49,0.23999977111816406,0.08103066682815552,-18.106531143188477,1.1164276599884033,18.245882034301758,0.3738303780555725,2.2689852714538574,-0.16604940593242645,0.0,0.0,0.0,0.0,0.0,0.0,0.0,0.07998106276078938,0.5536193579129868,0.280877685112203,0.6499655805218381,-0.05721279037311365,0.08905432607395329,-0.212031259266681,-0.6092389801176031,-0.05751598941547829,-0.6666028747478376,-2.594874725442183,-0.055572158513276404,2.507931170661827,0.8763146125392042,-0.6090851748156966,-0.05753196718556838,-0.666603097082616,-2.5945565370258534,-0.05562143941554,2.507976027223799,0.8763108487046415,0.00035635453864567784,0.0002243907354229168,-0.00037137232814333056,0.0007088882285650009,-0.0004139809028416048,0.00019480946711319185,-0.002205742947816553,0.0,0.0,0.0,0.0,0.0,0.0,0.0,0.00015380530190656216,-1.597777009009621e-05,-2.2233477836586246e-07,0.00031818841632968997,-4.928090226359594e-05,4.485656197195098e-05,-3.7638345626866965e-06,-0.00035635453864567784,-0.0002243907354229168,0.00037137232814333056,-0.0007088882285650009,0.0004139809028416048,-0.00019480946711319185,0.002205742947816553,-0.08103066682815552,18.106531143188477,-1.1164276599884033,-18.245882034301758,-0.3738303780555725,-2.2689852714538574,0.16604940593242645,0
50,0.24500465393066406,0.08103066682815552,-18.106531143188477,1.1164276599884033,18.269685745239258,0.3674216866493225,2.2689852714538574,-0.22098104655742645,0.0,0.0,0.0,0.0,0.0,0.0,0.0,0.08254061139525135,0.5490498856273516,0.28191058517640893,0.652238070339991,-0.057443146825290774,0.08975111855228274,-0.21166768410073744,-0.6092361977597714,-0.05751598941547829,-0.6666057916959968,-2.5948763928255834,-0.05557452634418994,2.5079311314699533,0.876320716054903,-0.6090851748156966,-0.05753196718556838,-0.666603097082616,-2.5945565370258534,-0.05562143941554,2.507976027223799,0.8763108487046415,-5.7389845657760156e-05,8.787602443815661e-05,-0.00044642816473135157,1.8811859645852385e-07,-9.863442338236292e-05,0.00014589368239108333,0.000665318891666166,0.0,0.0,0.0,0.0,0.0,0.0,0.0,0.0001510229440748745,-1.597777009009621e-05,2.69461338076038e-06,0.00031985579972992895,-4.69130713500604e-05,4.489575384569733e-05,-9.867350261538732e-06,5.7389845657760156e-05,-8.787602443815661e-05,0.00044642816473135157,-1.8811859645852385e-07,9.863442338236292e-05,-0.00014589368239108333,-0.000665318891666166,-0.08103066682815552,18.106531143188477,-1.1164276599884033,-18.269685745239258,-0.3674216866493225,-2.2689852714538574,0.22098104655742645,0
51,0.25000858306884766,0.08103066682815552,-18.106531143188477,1.1164276599884033,18.269685745239258,0.3674216866493225,2.2689852714538574,-0.22098104655742645,0.0,0.0,0.0,0.0,0.0,0.0,0.0,0.08254061139525135,0.5490498856273516,0.28191058517640893,0.652238070339991,-0.057443146825290774,0.08975111855228274,-0.21166768410073744,-0.6092361977597714,-0.05751598941547829,-0.6666057916959968,-2.5948763928255834,-0.05557452634418994,2.5079311314699533,0.876320716054903,-0.6090851748156966,-0.05753196718556838,-0.666603097082616,-2.5945565370258534,-0.05562143941554,2.507976027223799,0.8763108487046415,-5.7389845657760156e-05,8.787602443815661e-05,-0.00044642816473135157,1.8811859645852385e-07,-9.863442338236292e-05,0.00014589368239108333,0.000665318891666166,0.0,0.0,0.0,0.0,0.0,0.0,0.0,0.0001510229440748745,-1.597777009009621e-05,2.69461338076038e-06,0.00031985579972992895,-4.69130713500604e-05,4.489575384569733e-05,-9.867350261538732e-06,5.7389845657760156e-05,-8.787602443815661e-05,0.00044642816473135157,-1.8811859645852385e-07,9.863442338236292e-05,-0.00014589368239108333,-0.000665318891666166,-0.08103066682815552,18.106531143188477,-1.1164276599884033,-18.269685745239258,-0.3674216866493225,-2.2689852714538574,0.22098104655742645,0
52,0.25594234466552734,0.05722695589065552,-18.054956436157227,1.0926239490509033,18.269685745239258,0.3555198311805725,2.2625765800476074,-0.22830526530742645,0.0,0.0,0.0,0.0,0.0,0.0,0.0,0.0776546234411049,0.5547509277735287,0.2794621473672557,0.6538000646851388,-0.05754176305164717,0.08953300991428098,-0.2125516299036801,-0.609236387779847,-0.05751960869316469,-0.6666020103952747,-2.5948763948605365,-0.055573282792833884,2.507931844138742,0.8763215298569863,-0.6090851748156966,-0.05753196718556838,-0.666603097082616,-2.5945565370258534,-0.05562143941554,2.507976027223799,0.8763108487046415,-0.00012273042473363182,-0.0005808553348617063,-0.0001773278843376661,0.00040545395041159703,0.0005371082648572255,0.00022469760832061713,0.00039488711089709946,0.0,0.0,0.0,0.0,0.0,0.0,0.0,0.00015121296415043783,-1.2358492403691246e-05,-1.0866873413339917e-06,0.00031985783468302387,-4.8156622706116425e-05,4.418308505682589e-05,-1.0681152344815814e-05,0.00012273042473363182,0.0005808553348617063,0.0001773278843376661,-0.00040545395041159703,-0.0005371082648572255,-0.00022469760832061713,-0.00039488711089709946,-0.05722695589065552,18.054956436157227,-1.0926239490509033,-18.269685745239258,-0.3555198311805725,-2.2625765800476074,0.22830526530742645,0
53,0.25999879837036133,0.05722695589065552,-18.054956436157227,1.0926239490509033,18.269685745239258,0.3555198311805725,2.2625765800476074,-0.22830526530742645,0.0,0.0,0.0,0.0,0.0,0.0,0.0,0.0776546234411049,0.5547509277735287,0.2794621473672557,0.6538000646851388,-0.05754176305164717,0.08953300991428098,-0.2125516299036801,-0.609236387779847,-0.05751960869316469,-0.6666020103952747,-2.5948763948605365,-0.055573282792833884,2.507931844138742,0.8763215298569863,-0.6090851748156966,-0.05753196718556838,-0.666603097082616,-2.5945565370258534,-0.05562143941554,2.507976027223799,0.8763108487046415,-0.00012273042473363182,-0.0005808553348617063,-0.0001773278843376661,0.00040545395041159703,0.0005371082648572255,0.00022469760832061713,0.00039488711089709946,0.0,0.0,0.0,0.0,0.0,0.0,0.0,0.00015121296415043783,-1.2358492403691246e-05,-1.0866873413339917e-06,0.00031985783468302387,-4.8156622706116425e-05,4.418308505682589e-05,-1.0681152344815814e-05,0.00012273042473363182,0.0005808553348617063,0.0001773278843376661,-0.00040545395041159703,-0.0005371082648572255,-0.00022469760832061713,-0.00039488711089709946,-0.05722695589065552,18.054956436157227,-1.0926239490509033,-18.269685745239258,-0.3555198311805725,-2.2625765800476074,0.22830526530742645,0
54,0.2649984359741211,0.03342324495315552,-18.106531143188477,1.0688202381134033,18.245882034301758,0.3619285225868225,2.2753939628601074,-0.18710653483867645,0.0,0.0,0.0,0.0,0.0,0.0,0.0,0.07761355673939979,0.557114771185889,0.2832659531669062,0.652163726160912,-0.0580485711893412,0.0882231171615407,-0.21238029555852309,-0.6092356391375142,-0.05751598941547829,-0.6666002609833864,-2.594874725442178,-0.05557499516519202,2.5079305414911333,0.8763134200931698,-0.6090851748156966,-0.05753196718556838,-0.666603097082616,-2.5945565370258534,-0.05562143941554,2.507976027223799,0.8763108487046415,0.00036153812706441385,0.00014227019354213935,0.0005091600281927328,0.0005540311227991935,0.0001645257617812378,1.388446146607173e-05,-0.0011749330873232955,0.0,0.0,0.0,0.0,0.0,0.0,0.0,0.0001504643218176449,-1.597777009009621e-05,-2.836099229575062e-06,0.0003181884163243609,-4.644425034797811e-05,4.548573266571765e-05,-2.5713885283273896e-06,-0.00036153812706441385,-0.00014227019354213935,-0.0005091600281927328,-0.0005540311227991935,-0.0001645257617812378,-1.388446146607173e-05,0.0011749330873232955,-0.03342324495315552,18.106531143188477,-1.0688202381134033,-18.245882034301758,-0.3619285225868225,-2.2753939628601074,0.18710653483867645,0
55,0.26999640464782715,0.03342324495315552,-18.106531143188477,1.0688202381134033,18.245882034301758,0.3619285225868225,2.2753939628601074,-0.18710653483867645,0.0,0.0,0.0,0.0,0.0,0.0,0.0,0.07761355673939979,0.557114771185889,0.2832659531669062,0.652163726160912,-0.0580485711893412,0.0882231171615407,-0.21238029555852309,-0.6092356391375142,-0.05751598941547829,-0.6666002609833864,-2.594874725442178,-0.05557499516519202,2.5079305414911333,0.8763134200931698,-0.6090851748156966,-0.05753196718556838,-0.666603097082616,-2.5945565370258534,-0.05562143941554,2.507976027223799,0.8763108487046415,0.00036153812706441385,0.00014227019354213935,0.0005091600281927328,0.0005540311227991935,0.0001645257617812378,1.388446146607173e-05,-0.0011749330873232955,0.0,0.0,0.0,0.0,0.0,0.0,0.0,0.0001504643218176449,-1.597777009009621e-05,-2.836099229575062e-06,0.0003181884163243609,-4.644425034797811e-05,4.548573266571765e-05,-2.5713885283273896e-06,-0.00036153812706441385,-0.00014227019354213935,-0.0005091600281927328,-0.0005540311227991935,-0.0001645257617812378,-1.388446146607173e-05,0.0011749330873232955,-0.03342324495315552,18.106531143188477,-1.0688202381134033,-18.245882034301758,-0.3619285225868225,-2.2753939628601074,0.18710653483867645,0
56,0.27499866485595703,0.08103066682815552,-18.106531143188477,1.0926239490509033,18.297456741333008,0.3674216866493225,2.2753939628601074,-0.19351522624492645,0.0,0.0,0.0,0.0,0.0,0.0,0.0,0.07948899277885906,0.5543605367645901,0.2877788685098052,0.6536524596745361,-0.05836321082531678,0.08969088170154593,-0.21371257064251348,-0.6092366660873089,-0.05751598941547829,-0.6666040095341389,-2.5948783447198696,-0.05557532372494638,2.5079314920612243,0.876317663752757,-0.6090851748156966,-0.05753196718556838,-0.666603097082616,-2.5945565370258534,-0.05562143941554,2.507976027223799,0.8763108487046415,-7.124217516481392e-05,-0.0005374562491382662,-0.00012089420907069939,-0.0005365675487784621,-8.043723874343364e-05,-2.8966322487474984e-05,-0.0005686327667666869,0.0,0.0,0.0,0.0,0.0,0.0,0.0,0.0001514912716122918,-1.597777009009621e-05,9.124515228942087e-07,0.00032180769401612963,-4.6115690593623304e-05,4.4535162574632636e-05,-6.815048115504929e-06,7.124217516481392e-05,0.0005374562491382662,0.00012089420907069939,0.0005365675487784621,8.043723874343364e-05,2.8966322487474984e-05,0.0005686327667666869,-0.08103066682815552,18.106531143188477,-1.0926239490509033,-18.297456741333008,-0.3674216866493225,-2.2753939628601074,0.19351522624492645,0
57,0.2799971103668213,0.08103066682815552,-18.106531143188477,1.0926239490509033,18.297456741333008,0.3674216866493225,2.2753939628601074,-0.19351522624492645,0.0,0.0,0.0,0.0,0.0,0.0,0.0,0.07948899277885906,0.5543605367645901,0.2877788685098052,0.6536524596745361,-0.05836321082531678,0.08969088170154593,-0.21371257064251348,-0.6092366660873089,-0.05751598941547829,-0.6666040095341389,-2.5948783447198696,-0.05557532372494638,2.5079314920612243,0.876317663752757,-0.6090851748156966,-0.05753196718556838,-0.666603097082616,-2.5945565370258534,-0.05562143941554,2.507976027223799,0.8763108487046415,-7.124217516481392e-05,-0.0005374562491382662,-0.00012089420907069939,-0.0005365675487784621,-8.043723874343364e-05,-2.8966322487474984e-05,-0.0005686327667666869,0.0,0.0,0.0,0.0,0.0,0.0,0.0,0.0001514912716122918,-1.597777009009621e-05,9.124515228942087e-07,0.00032180769401612963,-4.6115690593623304e-05,4.4535162574632636e-05,-6.815048115504929e-06,7.124217516481392e-05,0.0005374562491382662,0.00012089420907069939,0.0005365675487784621,8.043723874343364e-05,2.8966322487474984e-05,0.0005686327667666869,-0.08103066682815552,18.106531143188477,-1.0926239490509033,-18.297456741333008,-0.3674216866493225,-2.2753939628601074,0.19351522624492645,0
58,0.28499412536621094,0.10880166292190552,-18.106531143188477,1.1441986560821533,18.297456741333008,0.3619285225868225,2.2818026542663574,-0.19351522624492645,0.0,0.0,0.0,0.0,0.0,0.0,0.0,0.07607674136324527,0.5557908016282354,0.2838013564478325,0.6502212156821741,-0.05841376202002456,0.08952134859674524,-0.21338052314348718,-0.6092381122511652,-0.05751385822464993,-0.6666046766821573,-2.5948783447198696,-0.055571918238393234,2.507929748448193,0.8763176642970896,-0.6090851748156966,-0.05753196718556838,-0.666603097082616,-2.5945565370258534,-0.05562143941554,2.507976027223799,0.8763108487046415,-0.0006363454377640378,-0.0003470896405370828,-0.001110370479966122,-0.00034490034875835605,0.0001420734549139404,-0.0002053187864449996,-0.001123290640853667,0.0,0.0,0.0,0.0,0.0,0.0,0.0,0.00015293743546862526,-1.8108960918451766e-05,1.5795995412792863e-06,0.00032180769401612963,-4.952117714676629e-05,4.627877560592353e-05,-6.81559244808394e-06,0.0006363454377640378,0.0003470896405370828,0.001110370479966122,0.00034490034875835605,-0.0001420734549139404,0.0002053187864449996,0.001123290640853667,-0.10880166292190552,18.106531143188477,-1.1441986560821533,-18.297456741333008,-0.3619285225868225,-2.2818026542663574,0.19351522624492645,0
59,0.28999900817871094,0.10880166292190552,-18.106531143188477,1.1441986560821533,18.297456741333008,0.3619285225868225,2.2818026542663574,-0.19351522624492645,0.0,0.0,0.0,0.0,0.0,0.0,0.0,0.07607674136324527,0.5557908016282354,0.2838013564478325,0.6502212156821741,-0.05841376202002456,0.08952134859674524,-0.21338052314348718,-0.6092381122511652,-0.05751385822464993,-0.6666046766821573,-2.5948783447198696,-0.055571918238393234,2.507929748448193,0.8763176642970896,-0.6090851748156966,-0.05753196718556838,-0.666603097082616,-2.5945565370258534,-0.05562143941554,2.507976027223799,0.8763108487046415,-0.0006363454377640378,-0.0003470896405370828,-0.001110370479966122,-0.00034490034875835605,0.0001420734549139404,-0.0002053187864449996,-0.001123290640853667,0.0,0.0,0.0,0.0,0.0,0.0,0.0,0.00015293743546862526,-1.8108960918451766e-05,1.5795995412792863e-06,0.00032180769401612963,-4.952117714676629e-05,4.627877560592353e-05,-6.81559244808394e-06,0.0006363454377640378,0.0003470896405370828,0.001110370479966122,0.00034490034875835605,-0.0001420734549139404,0.0002053187864449996,0.001123290640853667,-0.10880166292190552,18.106531143188477,-1.1441986560821533,-18.297456741333008,-0.3619285225868225,-2.2818026542663574,0.19351522624492645,0
60,0.2949986457824707,0.10880166292190552,-18.106531143188477,1.1441986560821533,18.297456741333008,0.3619285225868225,2.2818026542663574,-0.19351522624492645,0.0,0.0,0.0,0.0,0.0,0.0,0.0,0.07607674136324527,0.5557908016282354,0.2838013564478325,0.6502212156821741,-0.05841376202002456,0.08952134859674524,-0.21338052314348718,-0.6092381122511652,-0.05751385822464993,-0.6666046766821573,-2.5948783447198696,-0.055571918238393234,2.507929748448193,0.8763176642970896,-0.6090851748156966,-0.05753196718556838,-0.666603097082616,-2.5945565370258534,-0.05562143941554,2.507976027223799,0.8763108487046415,-0.0006363454377640378,-0.0003470896405370828,-0.001110370479966122,-0.00034490034875835605,0.0001420734549139404,-0.0002053187864449996,-0.001123290640853667,0.0,0.0,0.0,0.0,0.0,0.0,0.0,0.00015293743546862526,-1.8108960918451766e-05,1.5795995412792863e-06,0.00032180769401612963,-4.952117714676629e-05,4.627877560592353e-05,-6.81559244808394e-06,0.0006363454377640378,0.0003470896405370828,0.001110370479966122,0.00034490034875835605,-0.0001420734549139404,0.0002053187864449996,0.001123290640853667,-0.10880166292190552,18.106531143188477,-1.1441986560821533,-18.297456741333008,-0.3619285225868225,-2.2818026542663574,0.19351522624492645,0
61,0.300006628036499,0.08103066682815552,-18.106531143188477,1.0688202381134033,18.222078323364258,0.3738303780555725,2.2753939628601074,-0.21457235515117645,0.0,0.0,0.0,0.0,0.0,0.0,0.0,0.07524520424534699,0.5580157703964246,0.28059987952898513,0.646642129615597,-0.058511082738402276,0.089316647252139,-0.2136635193521288,-0.609236897186193,-0.057515989403447654,-0.666599637967529,-2.5948727253411326,-0.05557591846984719,2.507930772552016,0.8763200039780801,-0.6090851748156966,-0.05753196718556838,-0.666603097082616,-2.5945565370258534,-0.05562143941554,2.507976027223799,0.8763108487046415,-0.00014443575947942265,0.00018115750933395813,0.0008620719199532547,0.000971960334760495,-0.0005186931581378671,-0.00011787157686838583,0.0002453656971568835,0.0,0.0,0.0,0.0,0.0,0.0,0.0,0.0001517223704964321,-1.5977782120729644e-05,-3.459115087034448e-06,0.00031618831527913116,-4.552094569280907e-05,4.5254671782846145e-05,-9.155273438588019e-06,0.00014443575947942265,-0.00018115750933395813,-0.0008620719199532547,-0.000971960334760495,0.0005186931581378671,0.00011787157686838583,-0.0002453656971568835,-0.08103066682815552,18.106531143188477,-1.0688202381134033,-18.222078323364258,-0.3738303780555725,-2.2753939628601074,0.21457235515117645,0
62,0.30501437187194824,0.08103066682815552,-18.106531143188477,1.0688202381134033,18.222078323364258,0.3738303780555725,2.2753939628601074,-0.21457235515117645,0.0,0.0,0.0,0.0,0.0,0.0,0.0,0.07524520424534699,0.5580157703964246,0.28059987952898513,0.646642129615597,-0.058511082738402276,0.089316647252139,-0.2136635193521288,-0.609236897186193,-0.057515989403447654,-0.666599637967529,-2.5948727253411326,-0.05557591846984719,2.507930772552016,0.8763200039780801,-0.6090851748156966,-0.05753196718556838,-0.666603097082616,-2.5945565370258534,-0.05562143941554,2.507976027223799,0.8763108487046415,-0.00014443575947942265,0.00018115750933395813,0.0008620719199532547,0.000971960334760495,-0.0005186931581378671,-0.00011787157686838583,0.0002453656971568835,0.0,0.0,0.0,0.0,0.0,0.0,0.0,0.0001517223704964321,-1.5977782120729644e-05,-3.459115087034448e-06,0.00031618831527913116,-4.552094569280907e-05,4.5254671782846145e-05,-9.155273438588019e-06,0.00014443575947942265,-0.00018115750933395813,-0.0008620719199532547,-0.000971960334760495,0.0005186931581378671,0.00011787157686838583,-0.0002453656971568835,-0.08103066682815552,18.106531143188477,-1.0688202381134033,-18.222078323364258,-0.3738303780555725,-2.2753939628601074,0.21457235515117645,0
63,0.31000471115112305,0.05722695589065552,-18.106531143188477,1.1164276599884033,18.269685745239258,0.3738303780555725,2.2689852714538574,-0.24112264811992645,0.0,0.0,0.0,0.0,0.0,0.0,0.0,0.08218417332005781,0.5546549856677774,0.2863231994142765,0.6503317915566409,-0.059347080286976134,0.08981793771596312,-0.21240609970228813,-0.6092363996605121,-0.05751598941547822,-0.6666050552331453,-2.594876395876178,-0.05557608090986642,2.507931288401317,0.8763229540106322,-0.6090851748156966,-0.05753196718556838,-0.666603097082616,-2.5945565370258534,-0.05562143941554,2.507976027223799,0.8763108487046415,0.0008779900871964679,0.00024252238864197917,-0.000201672842574032,0.00014850440318297956,-0.00039339238313614364,-0.0001503526925707616,0.001194816788494138,0.0,0.0,0.0,0.0,0.0,0.0,0.0,0.0001512248448155562,-1.59777700901656e-05,1.958150529279834e-06,0.00031985885032437267,-4.5358505673581684e-05,4.4738822481793505e-05,-1.2105305990717241e-05,-0.0008779900871964679,-0.00024252238864197917,0.000201672842574032,-0.00014850440318297956,0.00039339238313614364,0.0001503526925707616,-0.001194816788494138,-0.05722695589065552,18.106531143188477,-1.1164276599884033,-18.269685745239258,-0.3738303780555725,-2.2689852714538574,0.24112264811992645,0
64,0.3150019645690918,0.05722695589065552,-18.106531143188477,1.1164276599884033,18.269685745239258,0.3738303780555725,2.2689852714538574,-0.24112264811992645,0.0,0.0,0.0,0.0,0.0,0.0,0.0,0.08218417332005781,0.5546549856677774,0.2863231994142765,0.6503317915566409,-0.059347080286976134,0.08981793771596312,-0.21240609970228813,-0.6092363996605121,-0.05751598941547822,-0.6666050552331453,-2.594876395876178,-0.05557608090986642,2.507931288401317,0.8763229540106322,-0.6090851748156966,-0.05753196718556838,-0.666603097082616,-2.5945565370258534,-0.05562143941554,2.507976027223799,0.8763108487046415,0.0008779900871964679,0.00024252238864197917,-0.000201672842574032,0.00014850440318297956,-0.00039339238313614364,-0.0001503526925707616,0.001194816788494138,0.0,0.0,0.0,0.0,0.0,0.0,0.0,0.0001512248448155562,-1.59777700901656e-05,1.958150529279834e-06,0.00031985885032437267,-4.5358505673581684e-05,4.4738822481793505e-05,-1.2105305990717241e-05,-0.0008779900871964679,-0.00024252238864197917,0.000201672842574032,-0.00014850440318297956,0.00039339238313614364,0.0001503526925707616,-0.001194816788494138,-0.05722695589065552,18.106531143188477,-1.1164276599884033,-18.269685745239258,-0.3738303780555725,-2.2689852714538574,0.24112264811992645,0
65,0.3199949264526367,0.05722695589065552,-18.106531143188477,1.1164276599884033,18.269685745239258,0.3738303780555725,2.2689852714538574,-0.24112264811992645,0.0,0.0,0.0,0.0,0.0,0.0,0.0,0.08218417332005781,0.5546549856677774,0.2863231994142765,0.6503317915566409,-0.059347080286976134,0.08981793771596312,-0.21240609970228813,-0.6092363996605121,-0.05751598941547822,-0.6666050552331453,-2.594876395876178,-0.05557608090986642,2.507931288401317,0.8763229540106322,-0.6090851748156966,-0.05753196718556838,-0.666603097082616,-2.5945565370258534,-0.05562143941554,2.507976027223799,0.8763108487046415,0.0008779900871964679,0.00024252238864197917,-0.000201672842574032,0.00014850440318297956,-0.00039339238313614364,-0.0001503526925707616,0.001194816788494138,0.0,0.0,0.0,0.0,0.0,0.0,0.0,0.0001512248448155562,-1.59777700901656e-05,1.958150529279834e-06,0.00031985885032437267,-4.5358505673581684e-05,4.4738822481793505e-05,-1.2105305990717241e-05,-0.0008779900871964679,-0.00024252238864197917,0.000201672842574032,-0.00014850440318297956,0.00039339238313614364,0.0001503526925707616,-0.001194816788494138,-0.05722695589065552,18.106531143188477,-1.1164276599884033,-18.269685745239258,-0.3738303780555725,-2.2689852714538574,0.24112264811992645,0
66,0.3249485492706299,0.05722695589065552,-18.106531143188477,1.1164276599884033,18.269685745239258,0.3738303780555725,2.2689852714538574,-0.24112264811992645,0.0,0.0,0.0,0.0,0.0,0.0,0.0,0.08218417332005781,0.5546549856677774,0.2863231994142765,0.6503317915566409,-0.059347080286976134,0.08981793771596312,-0.21240609970228813,-0.6092363996605121,-0.05751598941547822,-0.6666050552331453,-2.594876395876178,-0.05557608090986642,2.507931288401317,0.8763229540106322,-0.6090851748156966,-0.05753196718556838,-0.666603097082616,-2.5945565370258534,-0.05562143941554,2.507976027223799,0.8763108487046415,0.0008779900871964679,0.00024252238864197917,-0.000201672842574032,0.00014850440318297956,-0.00039339238313614364,-0.0001503526925707616,0.001194816788494138,0.0,0.0,0.0,0.0,0.0,0.0,0.0,0.0001512248448155562,-1.59777700901656e-05,1.958150529279834e-06,0.00031985885032437267,-4.5358505673581684e-05,4.4738822481793505e-05,-1.2105305990717241e-05,-0.0008779900871964679,-0.00024252238864197917,0.000201672842574032,-0.00014850440318297956,0.00039339238313614364,0.0001503526925707616,-0.001194816788494138,-0.05722695589065552,18.106531143188477,-1.1164276599884033,-18.269685745239258,-0.3738303780555725,-2.2689852714538574,0.24112264811992645,0
67,0.32999491691589355,0.08103066682815552,-18.106531143188477,1.1441986560821533,18.269685745239258,0.3674216866493225,2.2625765800476074,-0.23471395671367645,0.0,0.0,0.0,0.0,0.0,0.0,0.0,0.0806334393959779,0.5545226147015448,0.28551253467701115,0.653224709863041,-0.05951907982722233,0.08858061401016727,-0.21260043464436415,-0.6092387634499784,-0.05751575167825086,-0.6666067989278215,-2.5948763958780385,-0.055575719466833116,2.507931857059484,0.8763222419338093,-0.6090851748156966,-0.05753196718556838,-0.666603097082616,-2.5945565370258534,-0.05562143941554,2.507976027223799,0.8763108487046415,0.00038966929091193884,0.0005397699741513908,-0.0008563451196132042,0.0004669791737803505,-0.0002229272939356012,0.00013941449054489147,0.0011645444785448036,0.0,0.0,0.0,0.0,0.0,0.0,0.0,0.00015358863428183156,-1.6215507317521305e-05,3.701845205483778e-06,0.00031985885218510646,-4.5719948706883506e-05,4.417016431501608e-05,-1.1393229167766528e-05,-0.00038966929091193884,-0.0005397699741513908,0.0008563451196132042,-0.0004669791737803505,0.0002229272939356012,-0.00013941449054489147,-0.0011645444785448036,-0.08103066682815552,18.106531143188477,-1.1441986560821533,-18.269685745239258,-0.3674216866493225,-2.2625765800476074,0.23471395671367645,0
68,0.3350069522857666,0.08103066682815552,-18.106531143188477,1.1441986560821533,18.269685745239258,0.3674216866493225,2.2625765800476074,-0.23471395671367645,0.0,0.0,0.0,0.0,0.0,0.0,0.0,0.0806334393959779,0.5545226147015448,0.28551253467701115,0.653224709863041,-0.05951907982722233,0.08858061401016727,-0.21260043464436415,-0.6092387634499784,-0.05751575167825086,-0.6666067989278215,-2.5948763958780385,-0.055575719466833116,2.507931857059484,0.8763222419338093,-0.6090851748156966,-0.05753196718556838,-0.666603097082616,-2.5945565370258534,-0.05562143941554,2.507976027223799,0.8763108487046415,0.00038966929091193884,0.0005397699741513908,-0.0008563451196132042,0.0004669791737803505,-0.0002229272939356012,0.00013941449054489147,0.0011645444785448036,0.0,0.0,0.0,0.0,0.0,0.0,0.0,0.00015358863428183156,-1.6215507317521305e-05,3.701845205483778e-06,0.00031985885218510646,-4.5719948706883506e-05,4.417016431501608e-05,-1.1393229167766528e-05,-0.00038966929091193884,-0.0005397699741513908,0.0008563451196132042,-0.0004669791737803505,0.0002229272939356012,-0.00013941449054489147,-0.0011645444785448036,-0.08103066682815552,18.106531143188477,-1.1441986560821533,-18.269685745239258,-0.3674216866493225,-2.2625765800476074,0.23471395671367645,0
69,0.3400228023529053,0.08103066682815552,-18.106531143188477,1.1441986560821533,18.245882034301758,0.3619285225868225,2.2818026542663574,-0.23471395671367645,0.0,0.0,0.0,0.0,0.0,0.0,0.0,0.08178819643661991,0.5563581948722626,0.2850638637107497,0.6494953256432694,-0.060096403452262574,0.08750279752816857,-0.210980855539108,-0.6092389281194434,-0.05751597772214146,-0.6666074287584134,-2.5948747244246984,-0.05557511351503431,2.5079300604750374,0.8763222419338093,-0.6090851748156966,-0.05753196718556838,-0.666603097082616,-2.5945565370258534,-0.05562143941554,2.507976027223799,0.8763108487046415,0.0003582146378468754,0.0001781696977656936,-0.0008198120883082671,0.0004923935098701526,0.00012611899518648995,-8.013273379846903e-05,0.0007765615530000472,0.0,0.0,0.0,0.0,0.0,0.0,0.0,0.0001537533037467842,-1.5989463426922812e-05,4.3316757973865805e-06,0.00031818739884492686,-4.632590050569069e-05,4.596674876156115e-05,-1.1393229167766528e-05,-0.0003582146378468754,-0.0001781696977656936,0.0008198120883082671,-0.0004923935098701526,-0.00012611899518648995,8.013273379846903e-05,-0.0007765615530000472,-0.08103066682815552,18.106531143188477,-1.1441986560821533,-18.245882034301758,-0.3619285225868225,-2.2818026542663574,0.23471395671367645,0
70,0.34499478340148926,0.08103066682815552,-18.106531143188477,1.1441986560821533,18.245882034301758,0.3619285225868225,2.2818026542663574,-0.23471395671367645,0.0,0.0,0.0,0.0,0.0,0.0,0.0,0.08178819643661991,0.5563581948722626,0.2850638637107497,0.6494953256432694,-0.060096403452262574,0.08750279752816857,-0.210980855539108,-0.6092389281194434,-0.05751597772214146,-0.6666074287584134,-2.5948747244246984,-0.05557511351503431,2.5079300604750374,0.8763222419338093,-0.6090851748156966,-0.05753196718556838,-0.666603097082616,-2.5945565370258534,-0.05562143941554,2.507976027223799,0.8763108487046415,0.0003582146378468754,0.0001781696977656936,-0.0008198120883082671,0.0004923935098701526,0.00012611899518648995,-8.013273379846903e-05,0.0007765615530000472,0.0,0.0,0.0,0.0,0.0,0.0,0.0,0.0001537533037467842,-1.5989463426922812e-05,4.3316757973865805e-06,0.00031818739884492686,-4.632590050569069e-05,4.596674876156115e-05,-1.1393229167766528e-05,-0.0003582146378468754,-0.0001781696977656936,0.0008198120883082671,-0.0004923935098701526,-0.00012611899518648995,8.013273379846903e-05,-0.0007765615530000472,-0.08103066682815552,18.106531143188477,-1.1441986560821533,-18.245882034301758,-0.3619285225868225,-2.2818026542663574,0.23471395671367645,0
71,0.34999632835388184,0.05722695589065552,-18.130334854125977,1.0926239490509033,18.297456741333008,0.3674216866493225,2.2818026542663574,-0.16604940593242645,0.0,0.0,0.0,0.0,0.0,0.0,0.0,0.08260249977464643,0.5567829302045716,0.2843986644025908,0.6495119364030503,-0.06008886432840055,0.08873670899224713,-0.21272551093884,-0.6092352296192098,-0.05751431021056092,-0.6666012017424635,-2.5948783446821793,-0.05557572240625788,2.507932886178633,0.876314612539278,-0.6090851748156966,-0.05753196718556838,-0.666603097082616,-2.5945565370258534,-0.05562143941554,2.507976027223799,0.8763108487046415,0.0008979488706281418,0.0005777436666542005,0.00043326035613083314,-0.0009670537940523893,-0.00011489314178451696,-0.00021447670653801701,-0.0015619606895928221,0.0,0.0,0.0,0.0,0.0,0.0,0.0,0.0001500548035132665,-1.7656975007461495e-05,-1.895340152491265e-06,0.0003218076563258343,-4.5717009282117416e-05,4.3141045166006364e-05,-3.7638346365165276e-06,-0.0008979488706281418,-0.0005777436666542005,-0.00043326035613083314,0.0009670537940523893,0.00011489314178451696,0.00021447670653801701,0.0015619606895928221,-0.05722695589065552,18.130334854125977,-1.0926239490509033,-18.297456741333008,-0.3674216866493225,-2.2818026542663574,0.16604940593242645,0
72,0.3550131320953369,0.05722695589065552,-18.130334854125977,1.0926239490509033,18.297456741333008,0.3674216866493225,2.2818026542663574,-0.16604940593242645,0.0,0.0,0.0,0.0,0.0,0.0,0.0,0.08260249977464643,0.5567829302045716,0.2843986644025908,0.6495119364030503,-0.06008886432840055,0.08873670899224713,-0.21272551093884,-0.6092352296192098,-0.05751431021056092,-0.6666012017424635,-2.5948783446821793,-0.05557572240625788,2.507932886178633,0.876314612539278,-0.6090851748156966,-0.05753196718556838,-0.666603097082616,-2.5945565370258534,-0.05562143941554,2.507976027223799,0.8763108487046415,0.0008979488706281418,0.0005777436666542005,0.00043326035613083314,-0.0009670537940523893,-0.00011489314178451696,-0.00021447670653801701,-0.0015619606895928221,0.0,0.0,0.0,0.0,0.0,0.0,0.0,0.0001500548035132665,-1.7656975007461495e-05,-1.895340152491265e-06,0.0003218076563258343,-4.5717009282117416e-05,4.3141045166006364e-05,-3.7638346365165276e-06,-0.0008979488706281418,-0.0005777436666542005,-0.00043326035613083314,0.0009670537940523893,0.00011489314178451696,0.00021447670653801701,0.0015619606895928221,-0.05722695589065552,18.130334854125977,-1.0926239490509033,-18.297456741333008,-0.3674216866493225,-2.2818026542663574,0.16604940593242645,0
73,0.3600142002105713,0.05722695589065552,-18.154138565063477,1.0688202381134033,18.245882034301758,0.3674216866493225,2.2625765800476074,-0.24844686686992645,0.0,0.0,0.0,0.0,0.0,0.0,0.0,0.08325155242976622,0.5540697952624489,0.28428757708588764,0.6520806315256623,-0.059654103513226774,0.08968917836741976,-0.21236820947028898,-0.6092366336639485,-0.05751241178082373,-0.6666017429291513,-2.594874725442183,-0.05557146544588112,2.5079318435106646,0.8763227081745861,-0.6090851748156966,-0.05753196718556838,-0.666603097082616,-2.5945565370258534,-0.05562143941554,2.507976027223799,0.8763108487046415,0.000814434108461069,0.0010215180987792024,0.0004905326590966862,0.0005896934782237798,-0.0001566665049348123,0.0003748692524079563,0.0012547129435135165,0.0,0.0,0.0,0.0,0.0,0.0,0.0,0.00015145884825196188,-1.955540474465195e-05,-1.3541534646943632e-06,0.00031818841632968997,-4.997396965888273e-05,4.4183713134415825e-05,-1.185946994464171e-05,-0.000814434108461069,-0.0010215180987792024,-0.0004905326590966862,-0.0005896934782237798,0.0001566665049348123,-0.0003748692524079563,-0.0012547129435135165,-0.05722695589065552,18.154138565063477,-1.0688202381134033,-18.245882034301758,-0.3674216866493225,-2.2625765800476074,0.24844686686992645,0
74,0.3650023937225342,0.05722695589065552,-18.154138565063477,1.0688202381134033,18.245882034301758,0.3674216866493225,2.2625765800476074,-0.24844686686992645,0.0,0.0,0.0,0.0,0.0,0.0,0.0,0.08325155242976622,0.5540697952624489,0.28428757708588764,0.6520806315256623,-0.059654103513226774,0.08968917836741976,-0.21236820947028898,-0.6092366336639485,-0.05751241178082373,-0.6666017429291513,-2.594874725442183,-0.05557146544588112,2.5079318435106646,0.8763227081745861,-0.6090851748156966,-0.05753196718556838,-0.666603097082616,-2.5945565370258534,-0.05562143941554,2.507976027223799,0.8763108487046415,0.000814434108461069,0.0010215180987792024,0.0004905326590966862,0.0005896934782237798,-0.0001566665049348123,0.0003748692524079563,0.0012547129435135165,0.0,0.0,0.0,0.0,0.0,0.0,0.0,0.00015145884825196188,-1.955540474465195e-05,-1.3541534646943632e-06,0.00031818841632968997,-4.997396965888273e-05,4.4183713134415825e-05,-1.185946994464171e-05,-0.000814434108461069,-0.0010215180987792024,-0.0004905326590966862,-0.0005896934782237798,0.0001566665049348123,-0.0003748692524079563,-0.0012547129435135165,-0.05722695589065552,18.154138565063477,-1.0688202381134033,-18.245882034301758,-0.3674216866493225,-2.2625765800476074,0.24844686686992645,0
75,0.37000107765197754,0.08103066682815552,-18.130334854125977,1.1164276599884033,18.269685745239258,0.3674216866493225,2.2689852714538574,-0.17978231608867645,0.0,0.0,0.0,0.0,0.0,0.0,0.0,0.08428064435600795,0.5554333545473857,0.28319389275242124,0.6523120928443147,-0.05945770038913013,0.08954484592089898,-0.2143794305507534,-0.6092389974155312,-0.05751431897828649,-0.6666048324406739,-2.5948763958780385,-0.055572529972945976,2.5079353748135818,0.8763161384122026,-0.6090851748156966,-0.05753196718556838,-0.666603097082616,-2.5945565370258534,-0.05562143941554,2.507976027223799,0.8763108487046415,-0.0004850002072235468,0.0007348572065920858,-0.00037849326185366406,0.0004296229499552117,-7.436900741640556e-05,0.00031395486003663996,-0.0014076013126407356,0.0,0.0,0.0,0.0,0.0,0.0,0.0,0.00015382259983465207,-1.764820728189509e-05,1.7353580579193562e-06,0.00031985885218510646,-4.890944259402369e-05,4.0652410217223434e-05,-5.289707561084711e-06,0.0004850002072235468,-0.0007348572065920858,0.00037849326185366406,-0.0004296229499552117,7.436900741640556e-05,-0.00031395486003663996,0.0014076013126407356,-0.08103066682815552,18.130334854125977,-1.1164276599884033,-18.269685745239258,-0.3674216866493225,-2.2689852714538574,0.17978231608867645,0
76,0.3749995231628418,0.08103066682815552,-18.130334854125977,1.1164276599884033,18.269685745239258,0.3674216866493225,2.2689852714538574,-0.17978231608867645,0.0,0.0,0.0,0.0,0.0,0.0,0.0,0.08428064435600795,0.5554333545473857,0.28319389275242124,0.6523120928443147,-0.05945770038913013,0.08954484592089898,-0.2143794305507534,-0.6092389974155312,-0.05751431897828649,-0.6666048324406739,-2.5948763958780385,-0.055572529972945976,2.5079353748135818,0.8763161384122026,-0.6090851748156966,-0.05753196718556838,-0.666603097082616,-2.5945565370258534,-0.05562143941554,2.507976027223799,0.8763108487046415,-0.0004850002072235468,0.0007348572065920858,-0.00037849326185366406,0.0004296229499552117,-7.436900741640556e-05,0.00031395486003663996,-0.0014076013126407356,0.0,0.0,0.0,0.0,0.0,0.0,0.0,0.00015382259983465207,-1.764820728189509e-05,1.7353580579193562e-06,0.00031985885218510646,-4.890944259402369e-05,4.0652410217223434e-05,-5.289707561084711e-06,0.0004850002072235468,-0.0007348572065920858,0.00037849326185366406,-0.0004296229499552117,7.436900741640556e-05,-0.00031395486003663996,0.0014076013126407356,-0.08103066682815552,18.130334854125977,-1.1164276599884033,-18.269685745239258,-0.3674216866493225,-2.2689852714538574,0.17978231608867645,0
77,0.37999510765075684,0.10880166292190552,-18.078760147094727,1.0688202381134033,18.245882034301758,0.3674216866493225,2.2625765800476074,-0.17978231608867645,0.0,0.0,0.0,0.0,0.0,0.0,0.0,0.07571830472807048,0.551004509180284,0.27487041042216426,0.6529749179984887,-0.05889519655523763,0.08967303496014621,-0.2144491413221,-0.6092409548567378,-0.05751793825730942,-0.6666017491460691,-2.594874725442183,-0.0555745403048936,2.5079322374287902,0.8763161384181842,-0.6090851748156966,-0.05753196718556838,-0.666603097082616,-2.5945565370258534,-0.05562143941554,2.507976027223799,0.8763108487046415,-0.0011226398224126848,-0.0009266168961696041,-0.00021538168259989786,0.0006399129881717048,-6.597883259913403e-05,0.00022218042877008478,-0.0012985903092591457,0.0,0.0,0.0,0.0,0.0,0.0,0.0,0.00015578004104122023,-1.4028928258962015e-05,-1.3479365469359905e-06,0.00031818841632968997,-4.6899110646397846e-05,4.3789795008741805e-05,-5.289713542744323e-06,0.0011226398224126848,0.0009266168961696041,0.00021538168259989786,-0.0006399129881717048,6.597883259913403e-05,-0.00022218042877008478,0.0012985903092591457,-0.10880166292190552,18.078760147094727,-1.0688202381134033,-18.245882034301758,-0.3674216866493225,-2.2625765800476074,0.17978231608867645,0
78,0.3850061893463135,0.10880166292190552,-18.078760147094727,1.0688202381134033,18.245882034301758,0.3674216866493225,2.2625765800476074,-0.17978231608867645,0.0,0.0,0.0,0.0,0.0,0.0,0.0,0.07571830472807048,0.551004509180284,0.27487041042216426,0.6529749179984887,-0.05889519655523763,0.08967303496014621,-0.2144491413221,-0.6092409548567378,-0.05751793825730942,-0.6666017491460691,-2.594874725442183,-0.0555745403048936,2.5079322374287902,0.8763161384181842,-0.6090851748156966,-0.05753196718556838,-0.666603097082616,-2.5945565370258534,-0.05562143941554,2.507976027223799,0.8763108487046415,-0.0011226398224126848,-0.0009266168961696041,-0.00021538168259989786,0.0006399129881717048,-6.597883259913403e-05,0.00022218042877008478,-0.0012985903092591457,0.0,0.0,0.0,0.0,0.0,0.0,0.0,0.00015578004104122023,-1.4028928258962015e-05,-1.3479365469359905e-06,0.00031818841632968997,-4.6899110646397846e-05,4.3789795008741805e-05,-5.289713542744323e-06,0.0011226398224126848,0.0009266168961696041,0.00021538168259989786,-0.0006399129881717048,6.597883259913403e-05,-0.00022218042877008478,0.0012985903092591457,-0.10880166292190552,18.078760147094727,-1.0688202381134033,-18.245882034301758,-0.3674216866493225,-2.2625765800476074,0.17978231608867645,0
79,0.39000773429870605,0.05722695589065552,-18.078760147094727,1.0926239490509033,18.269685745239258,0.3619285225868225,2.2625765800476074,-0.23471395671367645,0.0,0.0,0.0,0.0,0.0,0.0,0.0,0.08200342277019922,0.5551484350074568,0.27727606003224364,0.652222284465872,-0.05892888227326886,0.08906157773981192,-0.21405927731998972,-0.6092373327971663,-0.057517938221223024,-0.6666020194147653,-2.5948763958780385,-0.05557509987831612,2.5079319612863484,0.8763222419338093,-0.6090851748156966,-0.05753196718556838,-0.666603097082616,-2.5945565370258534,-0.05562143941554,2.507976027223799,0.8763108487046415,0.0006679101190009512,-0.0006927457487891788,-0.00014600001675001316,0.0003494353636234796,0.00012267284785201634,0.0003360585674867736,0.0010880749837309772,0.0,0.0,0.0,0.0,0.0,0.0,0.0,0.00015215798146972492,-1.4028964345359773e-05,-1.0776678507351534e-06,0.00031985885218510646,-4.633953722388284e-05,4.406593745054366e-05,-1.1393229167766528e-05,-0.0006679101190009512,0.0006927457487891788,0.00014600001675001316,-0.0003494353636234796,-0.00012267284785201634,-0.0003360585674867736,-0.0010880749837309772,-0.05722695589065552,18.078760147094727,-1.0926239490509033,-18.269685745239258,-0.3619285225868225,-2.2625765800476074,0.23471395671367645,0
