rezayati/contactInterpretation/dataset/franka_main/labeled_data/link6/b6_8.csv
index,time,tau_J0,tau_J1,tau_J2,tau_J3,tau_J4,tau_J5,tau_J6,tau_J_d0,tau_J_d1,tau_J_d2,tau_J_d3,tau_J_d4,tau_J_d5,tau_J_d6,tau_ext0,tau_ext1,tau_ext2,tau_ext3,tau_ext4,tau_ext5,tau_ext6,q0,q1,q2,q3,q4,q5,q6,q_d0,q_d1,q_d2,q_d3,q_d4,q_d5,q_d6,dq0,dq1,dq2,dq3,dq4,dq5,dq6,dq_d0,dq_d1,dq_d2,dq_d3,dq_d4,dq_d5,dq_d6,e0,e1,e2,e3,e4,e5,e6,de0,de1,de2,de3,de4,de5,de6,etau_J0,etau_J1,etau_J2,etau_J3,etau_J4,etau_J5,etau_J6,label
1,0.0,-0.2720577120780945,-22.847436904907227,0.07303168624639511,14.131807327270508,-0.01893085241317749,2.1389803886413574,-0.43338340520858765,0.0,0.0,0.0,0.0,0.0,0.0,0.0,-0.28304934916838115,-0.019747201946851905,-0.05014844599804686,0.2626372881888208,-0.2562565113759788,-0.0489488347928747,-0.42561618584630945,1.67546822468858,0.052314182094837486,0.029881936535500645,-2.752493265988534,0.03446873888189471,2.766346175510816,0.7691994373467232,1.6754973547542302,0.052104326824870026,0.029969505109285054,-2.752394845125968,0.0342448039870148,2.7663679543071322,0.7691630533470046,-0.0003492894260275155,0.0008513158828105117,-0.0009109834657884835,8.931858001163997e-05,-0.0003092417388568129,-0.00016297282317523972,-1.470838416483344e-05,0.0,0.0,0.0,0.0,0.0,0.0,0.0,2.9130065650306847e-05,-0.00020985526996745996,8.756857378440855e-05,9.842086256606208e-05,-0.0002239348948799083,2.1778796316151983e-05,-3.638399971861439e-05,0.0003492894260275155,-0.0008513158828105117,0.0009109834657884835,-8.931858001163997e-05,0.0003092417388568129,0.00016297282317523972,1.470838416483344e-05,0.2720577120780945,22.847436904907227,-0.07303168624639511,-14.131807327270508,0.01893085241317749,-2.1389803886413574,0.43338340520858765,0
2,0.005182504653930664,-0.2720577120780945,-22.847436904907227,0.07303168624639511,14.131807327270508,-0.01893085241317749,2.1389803886413574,-0.43338340520858765,0.0,0.0,0.0,0.0,0.0,0.0,0.0,-0.28304934916838115,-0.019747201946851905,-0.05014844599804686,0.2626372881888208,-0.2562565113759788,-0.0489488347928747,-0.42561618584630945,1.67546822468858,0.052314182094837486,0.029881936535500645,-2.752493265988534,0.03446873888189471,2.766346175510816,0.7691994373467232,1.6754973547542302,0.052104326824870026,0.029969505109285054,-2.752394845125968,0.0342448039870148,2.7663679543071322,0.7691630533470046,-0.0003492894260275155,0.0008513158828105117,-0.0009109834657884835,8.931858001163997e-05,-0.0003092417388568129,-0.00016297282317523972,-1.470838416483344e-05,0.0,0.0,0.0,0.0,0.0,0.0,0.0,2.9130065650306847e-05,-0.00020985526996745996,8.756857378440855e-05,9.842086256606208e-05,-0.0002239348948799083,2.1778796316151983e-05,-3.638399971861439e-05,0.0003492894260275155,-0.0008513158828105117,0.0009109834657884835,-8.931858001163997e-05,0.0003092417388568129,0.00016297282317523972,1.470838416483344e-05,0.2720577120780945,22.847436904907227,-0.07303168624639511,-14.131807327270508,0.01893085241317749,-2.1389803886413574,0.43338340520858765,0
3,0.009998798370361328,-0.2720577120780945,-22.847436904907227,-0.02615044265985489,14.131807327270508,-0.02533954381942749,2.1389803886413574,-0.43979209661483765,0.0,0.0,0.0,0.0,0.0,0.0,0.0,-0.28819663518699523,-0.015570781615549924,-0.055725022818171634,0.25974907209424014,-0.2564549231929097,-0.049365474478206266,-0.4260253153861622,1.67546822468858,0.052314182094837486,0.029888897009485944,-2.752493265988534,0.03446945094068855,2.7663493020794583,0.7692012090556938,1.6754973547542302,0.052104326824870026,0.029969505109285054,-2.752394845125968,0.0342448039870148,2.7663679543071322,0.7691630533470046,-0.0007725443733544489,0.0009263090952431954,0.0012481362310564838,-0.00010846458985730465,-6.398132782523326e-06,3.507695893724344e-05,0.00021235005620368253,0.0,0.0,0.0,0.0,0.0,0.0,0.0,2.9130065650306847e-05,-0.00020985526996745996,8.060809979910932e-05,9.842086256606208e-05,-0.0002246469536737461,1.8652227673943145e-05,-3.815570868914708e-05,0.0007725443733544489,-0.0009263090952431954,-0.0012481362310564838,0.00010846458985730465,6.398132782523326e-06,-3.507695893724344e-05,-0.00021235005620368253,0.2720577120780945,22.847436904907227,0.02615044265985489,-14.131807327270508,0.02533954381942749,-2.1389803886413574,0.43979209661483765,0
4,0.014995336532592773,-0.2720577120780945,-22.847436904907227,-0.02615044265985489,14.131807327270508,-0.02533954381942749,2.1389803886413574,-0.43979209661483765,0.0,0.0,0.0,0.0,0.0,0.0,0.0,-0.28819663518699523,-0.015570781615549924,-0.055725022818171634,0.25974907209424014,-0.2564549231929097,-0.049365474478206266,-0.4260253153861622,1.67546822468858,0.052314182094837486,0.029888897009485944,-2.752493265988534,0.03446945094068855,2.7663493020794583,0.7692012090556938,1.6754973547542302,0.052104326824870026,0.029969505109285054,-2.752394845125968,0.0342448039870148,2.7663679543071322,0.7691630533470046,-0.0007725443733544489,0.0009263090952431954,0.0012481362310564838,-0.00010846458985730465,-6.398132782523326e-06,3.507695893724344e-05,0.00021235005620368253,0.0,0.0,0.0,0.0,0.0,0.0,0.0,2.9130065650306847e-05,-0.00020985526996745996,8.060809979910932e-05,9.842086256606208e-05,-0.0002246469536737461,1.8652227673943145e-05,-3.815570868914708e-05,0.0007725443733544489,-0.0009263090952431954,-0.0012481362310564838,0.00010846458985730465,6.398132782523326e-06,-3.507695893724344e-05,-0.00021235005620368253,0.2720577120780945,22.847436904907227,0.02615044265985489,-14.131807327270508,0.02533954381942749,-2.1389803886413574,0.43979209661483765,0
5,0.019999265670776367,-0.2720577120780945,-22.795862197875977,0.02542426437139511,14.155611038208008,-0.03724139928817749,2.1325716972351074,-0.39218467473983765,0.0,0.0,0.0,0.0,0.0,0.0,0.0,-0.2837990019718625,-0.01595049447217076,-0.051850758725272054,0.2596361360365533,-0.2567934452631718,-0.04969284999108064,-0.4269881775308685,1.67546822468858,0.05231056281715108,0.029885277407213,-2.752494936424389,0.034470773369073865,2.7663488441198183,0.7691959193481338,1.6754973547542302,0.052104326824870026,0.029969505109285054,-2.752394845125968,0.0342448039870148,2.7663679543071322,0.7691630533470046,-0.0002957847799041865,-0.0003046438746834886,0.0007211717719449716,-0.0008037934046287241,0.0005071342458883517,9.99371811215717e-05,-0.0012801634962638672,0.0,0.0,0.0,0.0,0.0,0.0,0.0,2.9130065650306847e-05,-0.000206235992281055,8.422770207205249e-05,0.00010009129842103448,-0.00022596938205906442,1.9110187313930993e-05,-3.2866001129172595e-05,0.0002957847799041865,0.0003046438746834886,-0.0007211717719449716,0.0008037934046287241,-0.0005071342458883517,-9.99371811215717e-05,0.0012801634962638672,0.2720577120780945,22.795862197875977,-0.02542426437139511,-14.155611038208008,0.03724139928817749,-2.1325716972351074,0.39218467473983765,0
6,0.024999141693115234,-0.2720577120780945,-22.795862197875977,0.02542426437139511,14.155611038208008,-0.03724139928817749,2.1325716972351074,-0.39218467473983765,0.0,0.0,0.0,0.0,0.0,0.0,0.0,-0.2837990019718625,-0.01595049447217076,-0.051850758725272054,0.2596361360365533,-0.2567934452631718,-0.04969284999108064,-0.4269881775308685,1.67546822468858,0.05231056281715108,0.029885277407213,-2.752494936424389,0.034470773369073865,2.7663488441198183,0.7691959193481338,1.6754973547542302,0.052104326824870026,0.029969505109285054,-2.752394845125968,0.0342448039870148,2.7663679543071322,0.7691630533470046,-0.0002957847799041865,-0.0003046438746834886,0.0007211717719449716,-0.0008037934046287241,0.0005071342458883517,9.99371811215717e-05,-0.0012801634962638672,0.0,0.0,0.0,0.0,0.0,0.0,0.0,2.9130065650306847e-05,-0.000206235992281055,8.422770207205249e-05,0.00010009129842103448,-0.00022596938205906442,1.9110187313930993e-05,-3.2866001129172595e-05,0.0002957847799041865,0.0003046438746834886,-0.0007211717719449716,0.0008037934046287241,-0.0005071342458883517,-9.99371811215717e-05,0.0012801634962638672,0.2720577120780945,22.795862197875977,-0.02542426437139511,-14.155611038208008,0.03724139928817749,-2.1325716972351074,0.39218467473983765,0
7,0.029993772506713867,-0.2720577120780945,-22.871240615844727,0.04922797530889511,14.131807327270508,-0.03083270788192749,2.1325716972351074,-0.43338340520858765,0.0,0.0,0.0,0.0,0.0,0.0,0.0,-0.2826029303084508,-0.017414783547141183,-0.0493772307011117,0.2622488379804689,-0.2569413578102461,-0.04979996526747532,-0.4255329469569998,1.67546822468858,0.05231585253069274,0.02988337020846138,-2.752493265988534,0.03447006129225095,2.7663499483268836,0.7692004969848526,1.6754973547542302,0.052104326824870026,0.029969505109285054,-2.752394845125968,0.0342448039870148,2.7663679543071322,0.7691630533470046,-0.00026446554685329927,0.0013113449834578925,0.0001090273866252625,7.93838444354977e-05,6.167473691736164e-05,-3.538766702342369e-05,0.0006651548741535723,0.0,0.0,0.0,0.0,0.0,0.0,0.0,2.9130065650306847e-05,-0.00021152570582271685,8.61349008236742e-05,9.842086256606208e-05,-0.0002252573052361484,1.8005980248592124e-05,-3.7443637847967004e-05,0.00026446554685329927,-0.0013113449834578925,-0.0001090273866252625,-7.93838444354977e-05,-6.167473691736164e-05,3.538766702342369e-05,-0.0006651548741535723,0.2720577120780945,22.871240615844727,-0.04922797530889511,-14.131807327270508,0.03083270788192749,-2.1325716972351074,0.43338340520858765,0
8,0.03499603271484375,-0.2720577120780945,-22.871240615844727,0.04922797530889511,14.131807327270508,-0.03083270788192749,2.1325716972351074,-0.43338340520858765,0.0,0.0,0.0,0.0,0.0,0.0,0.0,-0.2826029303084508,-0.017414783547141183,-0.0493772307011117,0.2622488379804689,-0.2569413578102461,-0.04979996526747532,-0.4255329469569998,1.67546822468858,0.05231585253069274,0.02988337020846138,-2.752493265988534,0.03447006129225095,2.7663499483268836,0.7692004969848526,1.6754973547542302,0.052104326824870026,0.029969505109285054,-2.752394845125968,0.0342448039870148,2.7663679543071322,0.7691630533470046,-0.00026446554685329927,0.0013113449834578925,0.0001090273866252625,7.93838444354977e-05,6.167473691736164e-05,-3.538766702342369e-05,0.0006651548741535723,0.0,0.0,0.0,0.0,0.0,0.0,0.0,2.9130065650306847e-05,-0.00021152570582271685,8.61349008236742e-05,9.842086256606208e-05,-0.0002252573052361484,1.8005980248592124e-05,-3.7443637847967004e-05,0.00026446554685329927,-0.0013113449834578925,-0.0001090273866252625,-7.93838444354977e-05,-6.167473691736164e-05,3.538766702342369e-05,-0.0006651548741535723,0.2720577120780945,22.871240615844727,-0.04922797530889511,-14.131807327270508,0.03083270788192749,-2.1325716972351074,0.43338340520858765,0
9,0.03999948501586914,-0.2998287081718445,-22.819665908813477,0.07303168624639511,14.131807327270508,-0.02533954381942749,2.1389803886413574,-0.44711631536483765,0.0,0.0,0.0,0.0,0.0,0.0,0.0,-0.288828648910482,-0.022770427113624887,-0.052425914692791266,0.26288294710496707,-0.2569432458666422,-0.05004045578215925,-0.4254665827683119,1.6754701735304112,0.052312233253006345,0.029881945298050067,-2.752493265988534,0.03446933246725871,2.7663490012656706,0.7692009632256295,1.6754973547542302,0.052104326824870026,0.029969505109285054,-2.752394845125968,0.0342448039870148,2.7663679543071322,0.7691630533470046,1.703396927782265e-05,-0.0007835458013313835,-0.0010700714136314205,-0.00013850918413812907,5.8200397259723115e-05,-9.646775716948948e-05,0.0007736104996102335,0.0,0.0,0.0,0.0,0.0,0.0,0.0,2.718122381906163e-05,-0.00020790642813631882,8.755981123498638e-05,9.842086256606208e-05,-0.00022452848024390876,1.895304146160015e-05,-3.7909878624842186e-05,-1.703396927782265e-05,0.0007835458013313835,0.0010700714136314205,0.00013850918413812907,-5.8200397259723115e-05,9.646775716948948e-05,-0.0007736104996102335,0.2998287081718445,22.819665908813477,-0.07303168624639511,-14.131807327270508,0.02533954381942749,-2.1389803886413574,0.44711631536483765,0
10,0.0449979305267334,-0.2998287081718445,-22.819665908813477,0.07303168624639511,14.131807327270508,-0.02533954381942749,2.1389803886413574,-0.44711631536483765,0.0,0.0,0.0,0.0,0.0,0.0,0.0,-0.288828648910482,-0.022770427113624887,-0.052425914692791266,0.26288294710496707,-0.2569432458666422,-0.05004045578215925,-0.4254665827683119,1.6754701735304112,0.052312233253006345,0.029881945298050067,-2.752493265988534,0.03446933246725871,2.7663490012656706,0.7692009632256295,1.6754973547542302,0.052104326824870026,0.029969505109285054,-2.752394845125968,0.0342448039870148,2.7663679543071322,0.7691630533470046,1.703396927782265e-05,-0.0007835458013313835,-0.0010700714136314205,-0.00013850918413812907,5.8200397259723115e-05,-9.646775716948948e-05,0.0007736104996102335,0.0,0.0,0.0,0.0,0.0,0.0,0.0,2.718122381906163e-05,-0.00020790642813631882,8.755981123498638e-05,9.842086256606208e-05,-0.00022452848024390876,1.895304146160015e-05,-3.7909878624842186e-05,-1.703396927782265e-05,0.0007835458013313835,0.0010700714136314205,0.00013850918413812907,-5.8200397259723115e-05,9.646775716948948e-05,-0.0007736104996102335,0.2998287081718445,22.819665908813477,-0.07303168624639511,-14.131807327270508,0.02533954381942749,-2.1389803886413574,0.44711631536483765,0
11,0.04999947547912598,-0.22445029020309448,-22.819665908813477,0.02542426437139511,14.108003616333008,-0.02533954381942749,2.1197543144226074,-0.41324180364608765,0.0,0.0,0.0,0.0,0.0,0.0,0.0,-0.2846487530975273,-0.02394044124025533,-0.047599050861850706,0.26271901546210424,-0.25733554413168397,-0.05030186119018459,-0.4268246657179739,1.6754648838168693,0.052312233253006345,0.029885277407227656,-2.7524915955526787,0.03446945094046552,2.7663513686106316,0.7691982590271296,1.6754973547542302,0.052104326824870026,0.029969505109285054,-2.752394845125968,0.0342448039870148,2.7663679543071322,0.7691630533470046,-0.0015884923206376258,0.005909448307209766,0.0001835455723377601,0.0006076955497409163,0.00018369553264941624,0.0004389574727485593,-0.0005985331489821671,0.0,0.0,0.0,0.0,0.0,0.0,0.0,3.247093736091777e-05,-0.00020790642813631882,8.422770205739755e-05,9.67504267106456e-05,-0.00022464695345071617,1.658569650064834e-05,-3.5205680124938965e-05,0.0015884923206376258,-0.005909448307209766,-0.0001835455723377601,-0.0006076955497409163,-0.00018369553264941624,-0.0004389574727485593,0.0005985331489821671,0.22445029020309448,22.819665908813477,-0.02542426437139511,-14.108003616333008,0.02533954381942749,-2.1197543144226074,0.41324180364608765,0
12,0.05502057075500488,-0.22445029020309448,-22.819665908813477,0.02542426437139511,14.108003616333008,-0.02533954381942749,2.1197543144226074,-0.41324180364608765,0.0,0.0,0.0,0.0,0.0,0.0,0.0,-0.2846487530975273,-0.02394044124025533,-0.047599050861850706,0.26271901546210424,-0.25733554413168397,-0.05030186119018459,-0.4268246657179739,1.6754648838168693,0.052312233253006345,0.029885277407227656,-2.7524915955526787,0.03446945094046552,2.7663513686106316,0.7691982590271296,1.6754973547542302,0.052104326824870026,0.029969505109285054,-2.752394845125968,0.0342448039870148,2.7663679543071322,0.7691630533470046,-0.0015884923206376258,0.005909448307209766,0.0001835455723377601,0.0006076955497409163,0.00018369553264941624,0.0004389574727485593,-0.0005985331489821671,0.0,0.0,0.0,0.0,0.0,0.0,0.0,3.247093736091777e-05,-0.00020790642813631882,8.422770205739755e-05,9.67504267106456e-05,-0.00022464695345071617,1.658569650064834e-05,-3.5205680124938965e-05,0.0015884923206376258,-0.005909448307209766,-0.0001835455723377601,-0.0006076955497409163,-0.00018369553264941624,-0.0004389574727485593,0.0005985331489821671,0.22445029020309448,22.819665908813477,-0.02542426437139511,-14.108003616333008,0.02533954381942749,-2.1197543144226074,0.41324180364608765,0
13,0.060015201568603516,-0.24825400114059448,-22.795862197875977,0.04922797530889511,14.131807327270508,-0.03083270788192749,2.1389803886413574,-0.40591758489608765,0.0,0.0,0.0,0.0,0.0,0.0,0.0,-0.2847339227687285,-0.05661018583398268,-0.04892394234828133,0.2773556205540929,-0.25660468278266113,-0.0477632722301655,-0.4257950421760569,1.6754665542527247,0.05231056281715108,0.029883633263013774,-2.752493265988534,0.03447006129225094,2.7663492367407887,0.76919744522704,1.6754973547542302,0.052104326824870026,0.029969505109285054,-2.752394845125968,0.0342448039870148,2.7663679543071322,0.7691630533470046,-0.0009316082348738176,4.4642604582701973e-05,-8.351819170134387e-05,-0.000174514220391296,0.0003421444979263887,-0.00016940808338924566,-0.0011574762383065621,0.0,0.0,0.0,0.0,0.0,0.0,0.0,3.080050150550129e-05,-0.000206235992281055,8.587184627128e-05,9.842086256606208e-05,-0.00022525730523614146,1.8717566343529057e-05,-3.439188003540039e-05,0.0009316082348738176,-4.4642604582701973e-05,8.351819170134387e-05,0.000174514220391296,-0.0003421444979263887,0.00016940808338924566,0.0011574762383065621,0.24825400114059448,22.795862197875977,-0.04922797530889511,-14.131807327270508,0.03083270788192749,-2.1389803886413574,0.40591758489608765,0
14,0.06500363349914551,-0.24825400114059448,-22.795862197875977,0.04922797530889511,14.131807327270508,-0.03083270788192749,2.1389803886413574,-0.40591758489608765,0.0,0.0,0.0,0.0,0.0,0.0,0.0,-0.2847339227687285,-0.05661018583398268,-0.04892394234828133,0.2773556205540929,-0.25660468278266113,-0.0477632722301655,-0.4257950421760569,1.6754665542527247,0.05231056281715108,0.029883633263013774,-2.752493265988534,0.03447006129225094,2.7663492367407887,0.76919744522704,1.6754973547542302,0.052104326824870026,0.029969505109285054,-2.752394845125968,0.0342448039870148,2.7663679543071322,0.7691630533470046,-0.0009316082348738176,4.4642604582701973e-05,-8.351819170134387e-05,-0.000174514220391296,0.0003421444979263887,-0.00016940808338924566,-0.0011574762383065621,0.0,0.0,0.0,0.0,0.0,0.0,0.0,3.080050150550129e-05,-0.000206235992281055,8.587184627128e-05,9.842086256606208e-05,-0.00022525730523614146,1.8717566343529057e-05,-3.439188003540039e-05,0.0009316082348738176,-4.4642604582701973e-05,8.351819170134387e-05,0.000174514220391296,-0.0003421444979263887,0.00016940808338924566,0.0011574762383065621,0.24825400114059448,22.795862197875977,-0.04922797530889511,-14.131807327270508,0.03083270788192749,-2.1389803886413574,0.40591758489608765,0
15,0.07068777084350586,-0.24825400114059448,-22.795862197875977,0.04922797530889511,14.131807327270508,-0.03083270788192749,2.1389803886413574,-0.40591758489608765,0.0,0.0,0.0,0.0,0.0,0.0,0.0,-0.2847339227687285,-0.05661018583398268,-0.04892394234828133,0.2773556205540929,-0.25660468278266113,-0.0477632722301655,-0.4257950421760569,1.6754665542527247,0.05231056281715108,0.029883633263013774,-2.752493265988534,0.03447006129225094,2.7663492367407887,0.76919744522704,1.6754973547542302,0.052104326824870026,0.029969505109285054,-2.752394845125968,0.0342448039870148,2.7663679543071322,0.7691630533470046,-0.0009316082348738176,4.4642604582701973e-05,-8.351819170134387e-05,-0.000174514220391296,0.0003421444979263887,-0.00016940808338924566,-0.0011574762383065621,0.0,0.0,0.0,0.0,0.0,0.0,0.0,3.080050150550129e-05,-0.000206235992281055,8.587184627128e-05,9.842086256606208e-05,-0.00022525730523614146,1.8717566343529057e-05,-3.439188003540039e-05,0.0009316082348738176,-4.4642604582701973e-05,8.351819170134387e-05,0.000174514220391296,-0.0003421444979263887,0.00016940808338924566,0.0011574762383065621,0.24825400114059448,22.795862197875977,-0.04922797530889511,-14.131807327270508,0.03083270788192749,-2.1389803886413574,0.40591758489608765,0
16,0.07499814033508301,-0.24825400114059448,-22.795862197875977,0.04922797530889511,14.131807327270508,-0.03083270788192749,2.1389803886413574,-0.40591758489608765,0.0,0.0,0.0,0.0,0.0,0.0,0.0,-0.2847339227687285,-0.05661018583398268,-0.04892394234828133,0.2773556205540929,-0.25660468278266113,-0.0477632722301655,-0.4257950421760569,1.6754665542527247,0.05231056281715108,0.029883633263013774,-2.752493265988534,0.03447006129225094,2.7663492367407887,0.76919744522704,1.6754973547542302,0.052104326824870026,0.029969505109285054,-2.752394845125968,0.0342448039870148,2.7663679543071322,0.7691630533470046,-0.0009316082348738176,4.4642604582701973e-05,-8.351819170134387e-05,-0.000174514220391296,0.0003421444979263887,-0.00016940808338924566,-0.0011574762383065621,0.0,0.0,0.0,0.0,0.0,0.0,0.0,3.080050150550129e-05,-0.000206235992281055,8.587184627128e-05,9.842086256606208e-05,-0.00022525730523614146,1.8717566343529057e-05,-3.439188003540039e-05,0.0009316082348738176,-4.4642604582701973e-05,8.351819170134387e-05,0.000174514220391296,-0.0003421444979263887,0.00016940808338924566,0.0011574762383065621,0.24825400114059448,22.795862197875977,-0.04922797530889511,-14.131807327270508,0.03083270788192749,-2.1389803886413574,0.40591758489608765,0
17,0.07999634742736816,-0.3236324191093445,-22.795862197875977,0.04922797530889511,14.108003616333008,-0.01893085241317749,2.1389803886413574,-0.38577598333358765,0.0,0.0,0.0,0.0,0.0,0.0,0.0,-0.28671757251952296,-0.011467791650345087,-0.05163254963908783,0.25839809072861275,-0.25643336616488005,-0.05158263148467334,-0.42659332215208706,1.6754718439662664,0.05231056281715108,0.029883606971801157,-2.7524915955526787,0.034468738863865526,2.766349315231197,0.7691952029106601,1.6754973547542302,0.052104326824870026,0.029969505109285054,-2.752394845125968,0.0342448039870148,2.7663679543071322,0.7691630533470046,0.0003909228797223669,-0.006365323407099852,-0.00025599255624920753,0.0004114920494079555,-0.00014863657809185895,-0.00015037215049145208,-0.0014246541620898691,0.0,0.0,0.0,0.0,0.0,0.0,0.0,2.5510787963867188e-05,-0.000206235992281055,8.589813748389671e-05,9.67504267106456e-05,-0.000223934876850726,1.863907593513403e-05,-3.2149563655492486e-05,-0.0003909228797223669,0.006365323407099852,0.00025599255624920753,-0.0004114920494079555,0.00014863657809185895,0.00015037215049145208,0.0014246541620898691,0.3236324191093445,22.795862197875977,-0.04922797530889511,-14.108003616333008,0.01893085241317749,-2.1389803886413574,0.38577598333358765,0
18,0.08501720428466797,-0.3236324191093445,-22.795862197875977,0.04922797530889511,14.108003616333008,-0.01893085241317749,2.1389803886413574,-0.38577598333358765,0.0,0.0,0.0,0.0,0.0,0.0,0.0,-0.28671757251952296,-0.011467791650345087,-0.05163254963908783,0.25839809072861275,-0.25643336616488005,-0.05158263148467334,-0.42659332215208706,1.6754718439662664,0.05231056281715108,0.029883606971801157,-2.7524915955526787,0.034468738863865526,2.766349315231197,0.7691952029106601,1.6754973547542302,0.052104326824870026,0.029969505109285054,-2.752394845125968,0.0342448039870148,2.7663679543071322,0.7691630533470046,0.0003909228797223669,-0.006365323407099852,-0.00025599255624920753,0.0004114920494079555,-0.00014863657809185895,-0.00015037215049145208,-0.0014246541620898691,0.0,0.0,0.0,0.0,0.0,0.0,0.0,2.5510787963867188e-05,-0.000206235992281055,8.589813748389671e-05,9.67504267106456e-05,-0.000223934876850726,1.863907593513403e-05,-3.2149563655492486e-05,-0.0003909228797223669,0.006365323407099852,0.00025599255624920753,-0.0004114920494079555,0.00014863657809185895,0.00015037215049145208,0.0014246541620898691,0.3236324191093445,22.795862197875977,-0.04922797530889511,-14.108003616333008,0.01893085241317749,-2.1389803886413574,0.38577598333358765,0
19,0.09004592895507812,-0.2998287081718445,-22.795862197875977,0.07303168624639511,14.155611038208008,-0.03724139928817749,2.1261630058288574,-0.39218467473983765,0.0,0.0,0.0,0.0,0.0,0.0,0.0,-0.28615240447476503,0.025685462769429335,-0.04596370997092344,0.24287251361341086,-0.25720537226199464,-0.054429184042972714,-0.4241985413548285,1.6754701735304112,0.05231056281715108,0.029881936535500645,-2.752494936424389,0.03447077336907386,2.766350778614675,0.7691959193481256,1.6754973547542302,0.052104326824870026,0.029969505109285054,-2.752394845125968,0.0342448039870148,2.7663679543071322,0.7691630533470046,0.00010803633241563773,-0.00039704323924653727,-0.0004603676210502284,-0.0006614843100400732,0.0003409520387421906,0.0002536253463749259,-0.0007948465733060233,0.0,0.0,0.0,0.0,0.0,0.0,0.0,2.718122381906163e-05,-0.000206235992281055,8.756857378440855e-05,0.00010009129842103448,-0.00022596938205905748,1.717569245718309e-05,-3.2866001120956945e-05,-0.00010803633241563773,0.00039704323924653727,0.0004603676210502284,0.0006614843100400732,-0.0003409520387421906,-0.0002536253463749259,0.0007948465733060233,0.2998287081718445,22.795862197875977,-0.07303168624639511,-14.155611038208008,0.03724139928817749,-2.1261630058288574,0.39218467473983765,0
20,0.09501957893371582,-0.2998287081718445,-22.795862197875977,0.07303168624639511,14.155611038208008,-0.03724139928817749,2.1261630058288574,-0.39218467473983765,0.0,0.0,0.0,0.0,0.0,0.0,0.0,-0.28615240447476503,0.025685462769429335,-0.04596370997092344,0.24287251361341086,-0.25720537226199464,-0.054429184042972714,-0.4241985413548285,1.6754701735304112,0.05231056281715108,0.029881936535500645,-2.752494936424389,0.03447077336907386,2.766350778614675,0.7691959193481256,1.6754973547542302,0.052104326824870026,0.029969505109285054,-2.752394845125968,0.0342448039870148,2.7663679543071322,0.7691630533470046,0.00010803633241563773,-0.00039704323924653727,-0.0004603676210502284,-0.0006614843100400732,0.0003409520387421906,0.0002536253463749259,-0.0007948465733060233,0.0,0.0,0.0,0.0,0.0,0.0,0.0,2.718122381906163e-05,-0.000206235992281055,8.756857378440855e-05,0.00010009129842103448,-0.00022596938205905748,1.717569245718309e-05,-3.2866001120956945e-05,-0.00010803633241563773,0.00039704323924653727,0.0004603676210502284,0.0006614843100400732,-0.0003409520387421906,-0.0002536253463749259,0.0007948465733060233,0.2998287081718445,22.795862197875977,-0.07303168624639511,-14.155611038208008,0.03724139928817749,-2.1261630058288574,0.39218467473983765,0
21,0.09999847412109375,-0.2998287081718445,-22.819665908813477,0.04922797530889511,14.155611038208008,-0.03083270788192749,2.1453890800476074,-0.39218467473983765,0.0,0.0,0.0,0.0,0.0,0.0,0.0,-0.2869441494449352,-0.012298930829196676,-0.04265025518066397,0.26280695570168355,-0.2575819163037607,-0.05082702921151115,-0.4231600001810339,1.6754701735304112,0.052312233253006345,0.029883606971355905,-2.752494936424389,0.03447006129225094,2.7663486409486744,0.7691959193481338,1.6754973547542302,0.052104326824870026,0.029969505109285054,-2.752394845125968,0.0342448039870148,2.7663679543071322,0.7691630533470046,0.0007187397891012787,0.0004281241337673596,-6.472039406343612e-07,-0.00037068459116348473,0.00034720019820077267,-0.0004737805873838111,-0.0014635354903285258,0.0,0.0,0.0,0.0,0.0,0.0,0.0,2.718122381906163e-05,-0.00020790642813631882,8.589813792914819e-05,0.00010009129842103448,-0.00022525730523614146,1.931335845783977e-05,-3.2866001129172595e-05,-0.0007187397891012787,-0.0004281241337673596,6.472039406343612e-07,0.00037068459116348473,-0.00034720019820077267,0.0004737805873838111,0.0014635354903285258,0.2998287081718445,22.819665908813477,-0.04922797530889511,-14.155611038208008,0.03083270788192749,-2.1453890800476074,0.39218467473983765,0
22,0.10503172874450684,-0.2998287081718445,-22.819665908813477,0.04922797530889511,14.155611038208008,-0.03083270788192749,2.1453890800476074,-0.39218467473983765,0.0,0.0,0.0,0.0,0.0,0.0,0.0,-0.2869441494449352,-0.012298930829196676,-0.04265025518066397,0.26280695570168355,-0.2575819163037607,-0.05082702921151115,-0.4231600001810339,1.6754701735304112,0.052312233253006345,0.029883606971355905,-2.752494936424389,0.03447006129225094,2.7663486409486744,0.7691959193481338,1.6754973547542302,0.052104326824870026,0.029969505109285054,-2.752394845125968,0.0342448039870148,2.7663679543071322,0.7691630533470046,0.0007187397891012787,0.0004281241337673596,-6.472039406343612e-07,-0.00037068459116348473,0.00034720019820077267,-0.0004737805873838111,-0.0014635354903285258,0.0,0.0,0.0,0.0,0.0,0.0,0.0,2.718122381906163e-05,-0.00020790642813631882,8.589813792914819e-05,0.00010009129842103448,-0.00022525730523614146,1.931335845783977e-05,-3.2866001129172595e-05,-0.0007187397891012787,-0.0004281241337673596,6.472039406343612e-07,0.00037068459116348473,-0.00034720019820077267,0.0004737805873838111,0.0014635354903285258,0.2998287081718445,22.819665908813477,-0.04922797530889511,-14.155611038208008,0.03083270788192749,-2.1453890800476074,0.39218467473983765,0
23,0.11000967025756836,-0.2998287081718445,-22.819665908813477,0.04922797530889511,14.108003616333008,-0.02533954381942749,2.1389803886413574,-0.41324180364608765,0.0,0.0,0.0,0.0,0.0,0.0,0.0,-0.2881703462916463,-0.017325010559456892,-0.04418739209178511,0.2657897789431185,-0.2575921448864321,-0.05049312226348666,-0.42387398032457485,1.6754701735304112,0.052312233253006345,0.029883606971355905,-2.7524915955526787,0.03446945094068844,2.766346175564657,0.7691982590291234,1.6754973547542302,0.052104326824870026,0.029969505109285054,-2.752394845125968,0.0342448039870148,2.7663679543071322,0.7691630533470046,0.000438128340102864,0.0002176443426753336,-0.00028943580742891057,0.0006109698204419972,-1.8793770329245644e-05,-0.0002342922827652339,-0.00021248138137757022,0.0,0.0,0.0,0.0,0.0,0.0,0.0,2.718122381906163e-05,-0.00020790642813631882,8.589813792914819e-05,9.67504267106456e-05,-0.00022464695367364201,2.177874247522027e-05,-3.5205682118788495e-05,-0.000438128340102864,-0.0002176443426753336,0.00028943580742891057,-0.0006109698204419972,1.8793770329245644e-05,0.0002342922827652339,0.00021248138137757022,0.2998287081718445,22.819665908813477,-0.04922797530889511,-14.108003616333008,0.02533954381942749,-2.1389803886413574,0.41324180364608765,0
24,0.11499786376953125,-0.2998287081718445,-22.819665908813477,0.04922797530889511,14.108003616333008,-0.02533954381942749,2.1389803886413574,-0.41324180364608765,0.0,0.0,0.0,0.0,0.0,0.0,0.0,-0.2881703462916463,-0.017325010559456892,-0.04418739209178511,0.2657897789431185,-0.2575921448864321,-0.05049312226348666,-0.42387398032457485,1.6754701735304112,0.052312233253006345,0.029883606971355905,-2.7524915955526787,0.03446945094068844,2.766346175564657,0.7691982590291234,1.6754973547542302,0.052104326824870026,0.029969505109285054,-2.752394845125968,0.0342448039870148,2.7663679543071322,0.7691630533470046,0.000438128340102864,0.0002176443426753336,-0.00028943580742891057,0.0006109698204419972,-1.8793770329245644e-05,-0.0002342922827652339,-0.00021248138137757022,0.0,0.0,0.0,0.0,0.0,0.0,0.0,2.718122381906163e-05,-0.00020790642813631882,8.589813792914819e-05,9.67504267106456e-05,-0.00022464695367364201,2.177874247522027e-05,-3.5205682118788495e-05,-0.000438128340102864,-0.0002176443426753336,0.00028943580742891057,-0.0006109698204419972,1.8793770329245644e-05,0.0002342922827652339,0.00021248138137757022,0.2998287081718445,22.819665908813477,-0.04922797530889511,-14.108003616333008,0.02533954381942749,-2.1389803886413574,0.41324180364608765,0
25,0.12000751495361328,-0.22445029020309448,-22.847436904907227,0.04922797530889511,14.131807327270508,-0.01893085241317749,2.1325716972351074,-0.43338340520858765,0.0,0.0,0.0,0.0,0.0,0.0,0.0,-0.2818958007236666,-0.020564394240600883,-0.04010726691055157,0.2679827982991035,-0.25773311795277537,-0.05008489109470978,-0.42303077521763066,1.6754648838168693,0.052314182094837486,0.029883607945121012,-2.752493265988534,0.034468738863865526,2.766350066537926,0.7692001437721429,1.6754973547542302,0.052104326824870026,0.029969505109285054,-2.752394845125968,0.0342448039870148,2.7663679543071322,0.7691630533470046,-0.0008573619990515361,0.00048230053122125775,0.0003311285569075256,3.252351437775259e-05,-0.00019356630368963187,-4.143841433332366e-05,0.00034247176147288215,0.0,0.0,0.0,0.0,0.0,0.0,0.0,3.247093736091777e-05,-0.00020985526996745996,8.589716416404145e-05,9.842086256606208e-05,-0.000223934876850726,1.7887769206303972e-05,-3.709042513821981e-05,0.0008573619990515361,-0.00048230053122125775,-0.0003311285569075256,-3.252351437775259e-05,0.00019356630368963187,4.143841433332366e-05,-0.00034247176147288215,0.22445029020309448,22.847436904907227,-0.04922797530889511,-14.131807327270508,0.01893085241317749,-2.1325716972351074,0.43338340520858765,0
26,0.12500596046447754,-0.22445029020309448,-22.847436904907227,0.04922797530889511,14.131807327270508,-0.01893085241317749,2.1325716972351074,-0.43338340520858765,0.0,0.0,0.0,0.0,0.0,0.0,0.0,-0.2818958007236666,-0.020564394240600883,-0.04010726691055157,0.2679827982991035,-0.25773311795277537,-0.05008489109470978,-0.42303077521763066,1.6754648838168693,0.052314182094837486,0.029883607945121012,-2.752493265988534,0.034468738863865526,2.766350066537926,0.7692001437721429,1.6754973547542302,0.052104326824870026,0.029969505109285054,-2.752394845125968,0.0342448039870148,2.7663679543071322,0.7691630533470046,-0.0008573619990515361,0.00048230053122125775,0.0003311285569075256,3.252351437775259e-05,-0.00019356630368963187,-4.143841433332366e-05,0.00034247176147288215,0.0,0.0,0.0,0.0,0.0,0.0,0.0,3.247093736091777e-05,-0.00020985526996745996,8.589716416404145e-05,9.842086256606208e-05,-0.000223934876850726,1.7887769206303972e-05,-3.709042513821981e-05,0.0008573619990515361,-0.00048230053122125775,-0.0003311285569075256,-3.252351437775259e-05,0.00019356630368963187,4.143841433332366e-05,-0.00034247176147288215,0.22445029020309448,22.847436904907227,-0.04922797530889511,-14.131807327270508,0.01893085241317749,-2.1325716972351074,0.43338340520858765,0
27,0.13002872467041016,-0.2720577120780945,-22.795862197875977,0.02542426437139511,14.108003616333008,-0.01893085241317749,2.1261630058288574,-0.43338340520858765,0.0,0.0,0.0,0.0,0.0,0.0,0.0,-0.28422507531918184,-0.016023050297695074,-0.04370483706909236,0.2658907568306653,-0.2571446760403225,-0.0510103204071469,-0.42428556190191197,1.67546822468858,0.05231056281715108,0.029885277407216665,-2.752491595867615,0.034468738863865526,2.766350778578859,0.7692004955293085,1.6754973547542302,0.052104326824870026,0.029969505109285054,-2.752394845125968,0.0342448039870148,2.7663679543071322,0.7691630533470046,-0.00010120365403202942,-0.00011879863587685465,0.0004459283302720593,0.0009516966127087931,-0.00022654481680385328,0.0002649051807438264,0.00043517721933324094,0.0,0.0,0.0,0.0,0.0,0.0,0.0,2.9130065650306847e-05,-0.000206235992281055,8.422770206838875e-05,9.675074164672282e-05,-0.000223934876850726,1.7175728273421953e-05,-3.7442182303837335e-05,0.00010120365403202942,0.00011879863587685465,-0.0004459283302720593,-0.0009516966127087931,0.00022654481680385328,-0.0002649051807438264,-0.00043517721933324094,0.2720577120780945,22.795862197875977,-0.02542426437139511,-14.108003616333008,0.01893085241317749,-2.1261630058288574,0.43338340520858765,0
28,0.13504695892333984,-0.2720577120780945,-22.795862197875977,0.02542426437139511,14.108003616333008,-0.01893085241317749,2.1261630058288574,-0.43338340520858765,0.0,0.0,0.0,0.0,0.0,0.0,0.0,-0.28422507531918184,-0.016023050297695074,-0.04370483706909236,0.2658907568306653,-0.2571446760403225,-0.0510103204071469,-0.42428556190191197,1.67546822468858,0.05231056281715108,0.029885277407216665,-2.752491595867615,0.034468738863865526,2.766350778578859,0.7692004955293085,1.6754973547542302,0.052104326824870026,0.029969505109285054,-2.752394845125968,0.0342448039870148,2.7663679543071322,0.7691630533470046,-0.00010120365403202942,-0.00011879863587685465,0.0004459283302720593,0.0009516966127087931,-0.00022654481680385328,0.0002649051807438264,0.00043517721933324094,0.0,0.0,0.0,0.0,0.0,0.0,0.0,2.9130065650306847e-05,-0.000206235992281055,8.422770206838875e-05,9.675074164672282e-05,-0.000223934876850726,1.7175728273421953e-05,-3.7442182303837335e-05,0.00010120365403202942,0.00011879863587685465,-0.0004459283302720593,-0.0009516966127087931,0.00022654481680385328,-0.0002649051807438264,-0.00043517721933324094,0.2720577120780945,22.795862197875977,-0.02542426437139511,-14.108003616333008,0.01893085241317749,-2.1261630058288574,0.43338340520858765,0
29,0.1400127410888672,-0.2998287081718445,-22.772058486938477,0.02542426437139511,14.080232620239258,-0.03083270788192749,2.1389803886413574,-0.42605918645858765,0.0,0.0,0.0,0.0,0.0,0.0,0.0,-0.283185804391176,-0.012289256621560952,-0.041964217170686303,0.2621156766003277,-0.2569519989404686,-0.05191276348227489,-0.4236492934229254,1.6754701735304112,0.05230889238129582,0.02988527740721117,-2.7524896467108495,0.03447006129225094,2.7663492234980196,0.769199683182761,1.6754973547542302,0.052104326824870026,0.029969505109285054,-2.752394845125968,0.0342448039870148,2.7663679543071322,0.7691630533470046,0.0005403863171610961,-0.0005807222902577698,1.3500634796553558e-05,0.0010852340853208587,0.00018351114229741802,-0.00024148760036828628,0.00042956538549867657,0.0,0.0,0.0,0.0,0.0,0.0,0.0,2.718122381906163e-05,-0.00020456555642579116,8.422770207388436e-05,9.480158488139878e-05,-0.00022525730523614146,1.8730809112632585e-05,-3.662983575636325e-05,-0.0005403863171610961,0.0005807222902577698,-1.3500634796553558e-05,-0.0010852340853208587,-0.00018351114229741802,0.00024148760036828628,-0.00042956538549867657,0.2998287081718445,22.772058486938477,-0.02542426437139511,-14.080232620239258,0.03083270788192749,-2.1389803886413574,0.42605918645858765,0
30,0.14501476287841797,-0.2998287081718445,-22.772058486938477,0.02542426437139511,14.080232620239258,-0.03083270788192749,2.1389803886413574,-0.42605918645858765,0.0,0.0,0.0,0.0,0.0,0.0,0.0,-0.283185804391176,-0.012289256621560952,-0.041964217170686303,0.2621156766003277,-0.2569519989404686,-0.05191276348227489,-0.4236492934229254,1.6754701735304112,0.05230889238129582,0.02988527740721117,-2.7524896467108495,0.03447006129225094,2.7663492234980196,0.769199683182761,1.6754973547542302,0.052104326824870026,0.029969505109285054,-2.752394845125968,0.0342448039870148,2.7663679543071322,0.7691630533470046,0.0005403863171610961,-0.0005807222902577698,1.3500634796553558e-05,0.0010852340853208587,0.00018351114229741802,-0.00024148760036828628,0.00042956538549867657,0.0,0.0,0.0,0.0,0.0,0.0,0.0,2.718122381906163e-05,-0.00020456555642579116,8.422770207388436e-05,9.480158488139878e-05,-0.00022525730523614146,1.8730809112632585e-05,-3.662983575636325e-05,-0.0005403863171610961,0.0005807222902577698,-1.3500634796553558e-05,-0.0010852340853208587,-0.00018351114229741802,0.00024148760036828628,-0.00042956538549867657,0.2998287081718445,22.772058486938477,-0.02542426437139511,-14.080232620239258,0.03083270788192749,-2.1389803886413574,0.42605918645858765,0
31,0.1499950885772705,-0.3236324191093445,-22.795862197875977,0.02542426437139511,14.080232620239258,-0.01893085241317749,2.1389803886413574,-0.44711631536483765,0.0,0.0,0.0,0.0,0.0,0.0,0.0,-0.2871032452200365,-0.013314732952551605,-0.046713422230418224,0.26488563775345997,-0.25676301656613415,-0.05118029433346723,-0.42197822649964234,1.6754718439662664,0.05231056281715108,0.02988527740721117,-2.7524896467108477,0.034468738863865526,2.7663461755639203,0.7692020228637588,1.6754973547542302,0.052104326824870026,0.029969505109285054,-2.752394845125968,0.0342448039870148,2.7663679543071322,0.7691630533470046,0.0003097315717643279,-0.00025606222355573815,0.00016725907348801714,0.0011794746088019117,-0.00030368702003786576,-0.00011930670795789233,0.0008114823139064428,0.0,0.0,0.0,0.0,0.0,0.0,0.0,2.5510787963867188e-05,-0.000206235992281055,8.422770207388436e-05,9.480158487962242e-05,-0.000223934876850726,2.177874321196427e-05,-3.89695167541948e-05,-0.0003097315717643279,0.00025606222355573815,-0.00016725907348801714,-0.0011794746088019117,0.00030368702003786576,0.00011930670795789233,-0.0008114823139064428,0.3236324191093445,22.795862197875977,-0.02542426437139511,-14.080232620239258,0.01893085241317749,-2.1389803886413574,0.44711631536483765,0
32,0.15500974655151367,-0.3236324191093445,-22.795862197875977,0.02542426437139511,14.080232620239258,-0.01893085241317749,2.1389803886413574,-0.44711631536483765,0.0,0.0,0.0,0.0,0.0,0.0,0.0,-0.2871032452200365,-0.013314732952551605,-0.046713422230418224,0.26488563775345997,-0.25676301656613415,-0.05118029433346723,-0.42197822649964234,1.6754718439662664,0.05231056281715108,0.02988527740721117,-2.7524896467108477,0.034468738863865526,2.7663461755639203,0.7692020228637588,1.6754973547542302,0.052104326824870026,0.029969505109285054,-2.752394845125968,0.0342448039870148,2.7663679543071322,0.7691630533470046,0.0003097315717643279,-0.00025606222355573815,0.00016725907348801714,0.0011794746088019117,-0.00030368702003786576,-0.00011930670795789233,0.0008114823139064428,0.0,0.0,0.0,0.0,0.0,0.0,0.0,2.5510787963867188e-05,-0.000206235992281055,8.422770207388436e-05,9.480158487962242e-05,-0.000223934876850726,2.177874321196427e-05,-3.89695167541948e-05,-0.0003097315717643279,0.00025606222355573815,-0.00016725907348801714,-0.0011794746088019117,0.00030368702003786576,0.00011930670795789233,-0.0008114823139064428,0.3236324191093445,22.795862197875977,-0.02542426437139511,-14.080232620239258,0.01893085241317749,-2.1389803886413574,0.44711631536483765,0
33,0.16000986099243164,-0.24825400114059448,-22.819665908813477,0.04922797530889511,14.155611038208008,-0.03083270788192749,2.1389803886413574,-0.41965049505233765,0.0,0.0,0.0,0.0,0.0,0.0,0.0,-0.28363154373755084,-0.012353538190842367,-0.042270611764744205,0.26423652469597153,-0.2578449243795299,-0.050685151894799496,-0.4231318180568368,1.6754665542527247,0.052312233253006345,0.029883606971355905,-2.752494936424389,0.03447007443552481,2.766349354299597,0.7691989711059464,1.6754973547542302,0.052104326824870026,0.029969505109285054,-2.752394845125968,0.0342448039870148,2.7663679543071322,0.7691630533470046,-0.0009408105668595179,0.00015930523665317378,6.630996949643538e-05,-0.0008637200023288245,0.00014247173949074284,-7.00155909453722e-05,-0.0005249139337508468,0.0,0.0,0.0,0.0,0.0,0.0,0.0,3.080050150550129e-05,-0.00020790642813631882,8.589813792914819e-05,0.00010009129842103448,-0.00022527044851000655,1.8600007535063412e-05,-3.591775894173921e-05,0.0009408105668595179,-0.00015930523665317378,-6.630996949643538e-05,0.0008637200023288245,-0.00014247173949074284,7.00155909453722e-05,0.0005249139337508468,0.24825400114059448,22.819665908813477,-0.04922797530889511,-14.155611038208008,0.03083270788192749,-2.1389803886413574,0.41965049505233765,0
34,0.16501450538635254,-0.24825400114059448,-22.819665908813477,0.04922797530889511,14.155611038208008,-0.03083270788192749,2.1389803886413574,-0.41965049505233765,0.0,0.0,0.0,0.0,0.0,0.0,0.0,-0.28363154373755084,-0.012353538190842367,-0.042270611764744205,0.26423652469597153,-0.2578449243795299,-0.050685151894799496,-0.4231318180568368,1.6754665542527247,0.052312233253006345,0.029883606971355905,-2.752494936424389,0.03447007443552481,2.766349354299597,0.7691989711059464,1.6754973547542302,0.052104326824870026,0.029969505109285054,-2.752394845125968,0.0342448039870148,2.7663679543071322,0.7691630533470046,-0.0009408105668595179,0.00015930523665317378,6.630996949643538e-05,-0.0008637200023288245,0.00014247173949074284,-7.00155909453722e-05,-0.0005249139337508468,0.0,0.0,0.0,0.0,0.0,0.0,0.0,3.080050150550129e-05,-0.00020790642813631882,8.589813792914819e-05,0.00010009129842103448,-0.00022527044851000655,1.8600007535063412e-05,-3.591775894173921e-05,0.0009408105668595179,-0.00015930523665317378,-6.630996949643538e-05,0.0008637200023288245,-0.00014247173949074284,7.00155909453722e-05,0.0005249139337508468,0.24825400114059448,22.819665908813477,-0.04922797530889511,-14.155611038208008,0.03083270788192749,-2.1389803886413574,0.41965049505233765,0
35,0.17001581192016602,-0.2720577120780945,-22.819665908813477,0.04922797530889511,14.108003616333008,-0.01893085241317749,2.1325716972351074,-0.40591758489608765,0.0,0.0,0.0,0.0,0.0,0.0,0.0,-0.2845154632582508,-0.011466366910744376,-0.04349419864444412,0.26255977407219155,-0.257988699004502,-0.05063430572400003,-0.42336415176954734,1.67546822468858,0.052312233253006345,0.029883606971355905,-2.7524915955526787,0.034468738863939724,2.7663500273100134,0.76919744522704,1.6754973547542302,0.052104326824870026,0.029969505109285054,-2.752394845125968,0.0342448039870148,2.7663679543071322,0.7691630533470046,-2.1343651545159708e-05,-0.00023870730600789348,0.00010775552524933804,0.00041180317612576905,-0.00038240885067481644,7.187466444096172e-05,-0.0006744455416565461,0.0,0.0,0.0,0.0,0.0,0.0,0.0,2.9130065650306847e-05,-0.00020790642813631882,8.589813792914819e-05,9.67504267106456e-05,-0.0002239348769249236,1.7926997118777876e-05,-3.439188003540039e-05,2.1343651545159708e-05,0.00023870730600789348,-0.00010775552524933804,-0.00041180317612576905,0.00038240885067481644,-7.187466444096172e-05,0.0006744455416565461,0.2720577120780945,22.819665908813477,-0.04922797530889511,-14.108003616333008,0.01893085241317749,-2.1325716972351074,0.40591758489608765,0
36,0.17504525184631348,-0.2720577120780945,-22.819665908813477,0.04922797530889511,14.108003616333008,-0.01893085241317749,2.1325716972351074,-0.40591758489608765,0.0,0.0,0.0,0.0,0.0,0.0,0.0,-0.2845154632582508,-0.011466366910744376,-0.04349419864444412,0.26255977407219155,-0.257988699004502,-0.05063430572400003,-0.42336415176954734,1.67546822468858,0.052312233253006345,0.029883606971355905,-2.7524915955526787,0.034468738863939724,2.7663500273100134,0.76919744522704,1.6754973547542302,0.052104326824870026,0.029969505109285054,-2.752394845125968,0.0342448039870148,2.7663679543071322,0.7691630533470046,-2.1343651545159708e-05,-0.00023870730600789348,0.00010775552524933804,0.00041180317612576905,-0.00038240885067481644,7.187466444096172e-05,-0.0006744455416565461,0.0,0.0,0.0,0.0,0.0,0.0,0.0,2.9130065650306847e-05,-0.00020790642813631882,8.589813792914819e-05,9.67504267106456e-05,-0.0002239348769249236,1.7926997118777876e-05,-3.439188003540039e-05,2.1343651545159708e-05,0.00023870730600789348,-0.00010775552524933804,-0.00041180317612576905,0.00038240885067481644,-7.187466444096172e-05,0.0006744455416565461,0.2720577120780945,22.819665908813477,-0.04922797530889511,-14.108003616333008,0.01893085241317749,-2.1325716972351074,0.40591758489608765,0
37,0.18004846572875977,-0.3236324191093445,-22.819665908813477,0.04922797530889511,14.131807327270508,-0.02533954381942749,2.1453890800476074,-0.43338340520858765,0.0,0.0,0.0,0.0,0.0,0.0,0.0,-0.28725135549721437,-0.013204230869259361,-0.04483769096671027,0.2628958730619158,-0.25771535665044104,-0.05023022715816921,-0.4236390757527525,1.6754718439662664,0.052312233253006345,0.029883607295944276,-2.752493265988534,0.03446945094068845,2.7663453457500453,0.7692004969848526,1.6754973547542302,0.052104326824870026,0.029969505109285054,-2.752394845125968,0.0342448039870148,2.7663679543071322,0.7691630533470046,0.000637811141865327,0.00015367520457105645,-0.00023248720118713414,-1.3834423399060522e-05,-0.0002692758362369056,-0.00046116862409371364,-0.00011396659817388067,0.0,0.0,0.0,0.0,0.0,0.0,0.0,2.5510787963867188e-05,-0.00020790642813631882,8.589781334077812e-05,9.842086256606208e-05,-0.00022464695367364895,2.2608557086911674e-05,-3.7443637847967004e-05,-0.000637811141865327,-0.00015367520457105645,0.00023248720118713414,1.3834423399060522e-05,0.0002692758362369056,0.00046116862409371364,0.00011396659817388067,0.3236324191093445,22.819665908813477,-0.04922797530889511,-14.131807327270508,0.02533954381942749,-2.1453890800476074,0.43338340520858765,0
38,0.18499517440795898,-0.3236324191093445,-22.819665908813477,0.04922797530889511,14.131807327270508,-0.02533954381942749,2.1453890800476074,-0.43338340520858765,0.0,0.0,0.0,0.0,0.0,0.0,0.0,-0.28725135549721437,-0.013204230869259361,-0.04483769096671027,0.2628958730619158,-0.25771535665044104,-0.05023022715816921,-0.4236390757527525,1.6754718439662664,0.052312233253006345,0.029883607295944276,-2.752493265988534,0.03446945094068845,2.7663453457500453,0.7692004969848526,1.6754973547542302,0.052104326824870026,0.029969505109285054,-2.752394845125968,0.0342448039870148,2.7663679543071322,0.7691630533470046,0.000637811141865327,0.00015367520457105645,-0.00023248720118713414,-1.3834423399060522e-05,-0.0002692758362369056,-0.00046116862409371364,-0.00011396659817388067,0.0,0.0,0.0,0.0,0.0,0.0,0.0,2.5510787963867188e-05,-0.00020790642813631882,8.589781334077812e-05,9.842086256606208e-05,-0.00022464695367364895,2.2608557086911674e-05,-3.7443637847967004e-05,-0.000637811141865327,-0.00015367520457105645,0.00023248720118713414,1.3834423399060522e-05,0.0002692758362369056,0.00046116862409371364,0.00011396659817388067,0.3236324191093445,22.819665908813477,-0.04922797530889511,-14.131807327270508,0.02533954381942749,-2.1453890800476074,0.43338340520858765,0
39,0.1904141902923584,-0.2998287081718445,-22.795862197875977,0.001620553433895111,14.155611038208008,-0.03724139928817749,2.1325716972351074,-0.42605918645858765,0.0,0.0,0.0,0.0,0.0,0.0,0.0,-0.2849667247345952,-0.012379977259446836,-0.042810302042978005,0.2610620704017976,-0.25830588366133034,-0.050417866701908176,-0.42490794874784055,1.6754701735304112,0.05231056281715108,0.029886947843068265,-2.752494936424389,0.034470773369073865,2.7663490067376264,0.7691996831827692,1.6754973547542302,0.052104326824870026,0.029969505109285054,-2.752394845125968,0.0342448039870148,2.7663679543071322,0.7691630533470046,0.00041617305195027995,-3.616830690114923e-05,0.0009840474756358524,-0.0007240088765640235,0.0004746247176905653,0.00021754038230661915,0.00042307086538599946,0.0,0.0,0.0,0.0,0.0,0.0,0.0,2.718122381906163e-05,-0.000206235992281055,8.255726621678866e-05,0.00010009129842103448,-0.00022596938205906442,1.894756950582277e-05,-3.66298357645789e-05,-0.00041617305195027995,3.616830690114923e-05,-0.0009840474756358524,0.0007240088765640235,-0.0004746247176905653,-0.00021754038230661915,-0.00042307086538599946,0.2998287081718445,22.795862197875977,-0.001620553433895111,-14.155611038208008,0.03724139928817749,-2.1325716972351074,0.42605918645858765,0
40,0.19499492645263672,-0.2998287081718445,-22.795862197875977,0.001620553433895111,14.155611038208008,-0.03724139928817749,2.1325716972351074,-0.42605918645858765,0.0,0.0,0.0,0.0,0.0,0.0,0.0,-0.2849667247345952,-0.012379977259446836,-0.042810302042978005,0.2610620704017976,-0.25830588366133034,-0.050417866701908176,-0.42490794874784055,1.6754701735304112,0.05231056281715108,0.029886947843068265,-2.752494936424389,0.034470773369073865,2.7663490067376264,0.7691996831827692,1.6754973547542302,0.052104326824870026,0.029969505109285054,-2.752394845125968,0.0342448039870148,2.7663679543071322,0.7691630533470046,0.00041617305195027995,-3.616830690114923e-05,0.0009840474756358524,-0.0007240088765640235,0.0004746247176905653,0.00021754038230661915,0.00042307086538599946,0.0,0.0,0.0,0.0,0.0,0.0,0.0,2.718122381906163e-05,-0.000206235992281055,8.255726621678866e-05,0.00010009129842103448,-0.00022596938205906442,1.894756950582277e-05,-3.66298357645789e-05,-0.00041617305195027995,3.616830690114923e-05,-0.0009840474756358524,0.0007240088765640235,-0.0004746247176905653,-0.00021754038230661915,-0.00042307086538599946,0.2998287081718445,22.795862197875977,-0.001620553433895111,-14.155611038208008,0.03724139928817749,-2.1325716972351074,0.42605918645858765,0
41,0.20000648498535156,-0.2998287081718445,-22.795862197875977,0.001620553433895111,14.155611038208008,-0.03724139928817749,2.1325716972351074,-0.42605918645858765,0.0,0.0,0.0,0.0,0.0,0.0,0.0,-0.2849667247345952,-0.012379977259446836,-0.042810302042978005,0.2610620704017976,-0.25830588366133034,-0.050417866701908176,-0.42490794874784055,1.6754701735304112,0.05231056281715108,0.029886947843068265,-2.752494936424389,0.034470773369073865,2.7663490067376264,0.7691996831827692,1.6754973547542302,0.052104326824870026,0.029969505109285054,-2.752394845125968,0.0342448039870148,2.7663679543071322,0.7691630533470046,0.00041617305195027995,-3.616830690114923e-05,0.0009840474756358524,-0.0007240088765640235,0.0004746247176905653,0.00021754038230661915,0.00042307086538599946,0.0,0.0,0.0,0.0,0.0,0.0,0.0,2.718122381906163e-05,-0.000206235992281055,8.255726621678866e-05,0.00010009129842103448,-0.00022596938205906442,1.894756950582277e-05,-3.66298357645789e-05,-0.00041617305195027995,3.616830690114923e-05,-0.0009840474756358524,0.0007240088765640235,-0.0004746247176905653,-0.00021754038230661915,-0.00042307086538599946,0.2998287081718445,22.795862197875977,-0.001620553433895111,-14.155611038208008,0.03724139928817749,-2.1325716972351074,0.42605918645858765,0
42,0.20501112937927246,-0.2998287081718445,-22.795862197875977,0.001620553433895111,14.155611038208008,-0.03724139928817749,2.1325716972351074,-0.42605918645858765,0.0,0.0,0.0,0.0,0.0,0.0,0.0,-0.2849667247345952,-0.012379977259446836,-0.042810302042978005,0.2610620704017976,-0.25830588366133034,-0.050417866701908176,-0.42490794874784055,1.6754701735304112,0.05231056281715108,0.029886947843068265,-2.752494936424389,0.034470773369073865,2.7663490067376264,0.7691996831827692,1.6754973547542302,0.052104326824870026,0.029969505109285054,-2.752394845125968,0.0342448039870148,2.7663679543071322,0.7691630533470046,0.00041617305195027995,-3.616830690114923e-05,0.0009840474756358524,-0.0007240088765640235,0.0004746247176905653,0.00021754038230661915,0.00042307086538599946,0.0,0.0,0.0,0.0,0.0,0.0,0.0,2.718122381906163e-05,-0.000206235992281055,8.255726621678866e-05,0.00010009129842103448,-0.00022596938205906442,1.894756950582277e-05,-3.66298357645789e-05,-0.00041617305195027995,3.616830690114923e-05,-0.0009840474756358524,0.0007240088765640235,-0.0004746247176905653,-0.00021754038230661915,-0.00042307086538599946,0.2998287081718445,22.795862197875977,-0.001620553433895111,-14.155611038208008,0.03724139928817749,-2.1325716972351074,0.42605918645858765,0
43,0.2100236415863037,-0.3236324191093445,-22.819665908813477,-0.02615044265985489,14.108003616333008,-0.03083270788192749,2.1325716972351074,-0.43979209661483765,0.0,0.0,0.0,0.0,0.0,0.0,0.0,-0.31937705411353934,-0.014997108687836084,-0.07731563912490454,0.26498718623113515,-0.2553297391024037,-0.04945080141430207,-0.42388484928180753,1.6754718439662664,0.052312233253006345,0.029888896684897574,-2.752491348303782,0.03447006123807928,2.766346764083729,0.7692012092251999,1.6754973547542302,0.052104326824870026,0.029969505109285054,-2.752394845125968,0.0342448039870148,2.7663679543071322,0.7691630533470046,0.0013549166639694604,0.00023013702726351916,0.0012431116935091718,0.0005417277532743073,0.0002155437474624245,-2.207348260381097e-05,0.0008162894367302655,0.0,0.0,0.0,0.0,0.0,0.0,0.0,2.5510787963867188e-05,-0.00020790642813631882,8.06084243874794e-05,9.650317781373374e-05,-0.00022525725106448125,2.119022340307808e-05,-3.8155878195222925e-05,-0.0013549166639694604,-0.00023013702726351916,-0.0012431116935091718,-0.0005417277532743073,-0.0002155437474624245,2.207348260381097e-05,-0.0008162894367302655,0.3236324191093445,22.819665908813477,0.02615044265985489,-14.108003616333008,0.03083270788192749,-2.1325716972351074,0.43979209661483765,0
44,0.2150285243988037,-0.3236324191093445,-22.819665908813477,-0.02615044265985489,14.108003616333008,-0.03083270788192749,2.1325716972351074,-0.43979209661483765,0.0,0.0,0.0,0.0,0.0,0.0,0.0,-0.31937705411353934,-0.014997108687836084,-0.07731563912490454,0.26498718623113515,-0.2553297391024037,-0.04945080141430207,-0.42388484928180753,1.6754718439662664,0.052312233253006345,0.029888896684897574,-2.752491348303782,0.03447006123807928,2.766346764083729,0.7692012092251999,1.6754973547542302,0.052104326824870026,0.029969505109285054,-2.752394845125968,0.0342448039870148,2.7663679543071322,0.7691630533470046,0.0013549166639694604,0.00023013702726351916,0.0012431116935091718,0.0005417277532743073,0.0002155437474624245,-2.207348260381097e-05,0.0008162894367302655,0.0,0.0,0.0,0.0,0.0,0.0,0.0,2.5510787963867188e-05,-0.00020790642813631882,8.06084243874794e-05,9.650317781373374e-05,-0.00022525725106448125,2.119022340307808e-05,-3.8155878195222925e-05,-0.0013549166639694604,-0.00023013702726351916,-0.0012431116935091718,-0.0005417277532743073,-0.0002155437474624245,2.207348260381097e-05,-0.0008162894367302655,0.3236324191093445,22.819665908813477,0.02615044265985489,-14.108003616333008,0.03083270788192749,-2.1325716972351074,0.43979209661483765,0
45,0.2200455665588379,-0.2998287081718445,-22.795862197875977,0.04922797530889511,14.108003616333008,-0.03724139928817749,2.1261630058288574,-0.44711631536483765,0.0,0.0,0.0,0.0,0.0,0.0,0.0,-0.2820982284865715,-0.013377075641033572,-0.04386872861452179,0.2632755779031202,-0.258868442796158,-0.0503036029169935,-0.4247240409263975,1.6754701735304112,0.05231056281715108,0.029883606971355905,-2.752491595551283,0.03447077336907355,2.7663507771605014,0.76920166965105,1.6754973547542302,0.052104326824870026,0.029969505109285054,-2.752394845125968,0.0342448039870148,2.7663679543071322,0.7691630533470046,0.0007458531258141106,-0.0002858618099296227,-0.00036934634342080384,0.0007320638013531759,0.0005265555572814699,0.0003650626842562386,0.0005210207872147182,0.0,0.0,0.0,0.0,0.0,0.0,0.0,2.718122381906163e-05,-0.000206235992281055,8.589813792914819e-05,9.675042531487321e-05,-0.00022596938205875217,1.7177146630853457e-05,-3.861630404533578e-05,-0.0007458531258141106,0.0002858618099296227,0.00036934634342080384,-0.0007320638013531759,-0.0005265555572814699,-0.0003650626842562386,-0.0005210207872147182,0.2998287081718445,22.795862197875977,-0.04922797530889511,-14.108003616333008,0.03724139928817749,-2.1261630058288574,0.44711631536483765,0
46,0.22501850128173828,-0.2998287081718445,-22.795862197875977,0.04922797530889511,14.108003616333008,-0.03724139928817749,2.1261630058288574,-0.44711631536483765,0.0,0.0,0.0,0.0,0.0,0.0,0.0,-0.2820982284865715,-0.013377075641033572,-0.04386872861452179,0.2632755779031202,-0.258868442796158,-0.0503036029169935,-0.4247240409263975,1.6754701735304112,0.05231056281715108,0.029883606971355905,-2.752491595551283,0.03447077336907355,2.7663507771605014,0.76920166965105,1.6754973547542302,0.052104326824870026,0.029969505109285054,-2.752394845125968,0.0342448039870148,2.7663679543071322,0.7691630533470046,0.0007458531258141106,-0.0002858618099296227,-0.00036934634342080384,0.0007320638013531759,0.0005265555572814699,0.0003650626842562386,0.0005210207872147182,0.0,0.0,0.0,0.0,0.0,0.0,0.0,2.718122381906163e-05,-0.000206235992281055,8.589813792914819e-05,9.675042531487321e-05,-0.00022596938205875217,1.7177146630853457e-05,-3.861630404533578e-05,-0.0007458531258141106,0.0002858618099296227,0.00036934634342080384,-0.0007320638013531759,-0.0005265555572814699,-0.0003650626842562386,-0.0005210207872147182,0.2998287081718445,22.795862197875977,-0.04922797530889511,-14.108003616333008,0.03724139928817749,-2.1261630058288574,0.44711631536483765,0
47,0.23003768920898438,-0.2998287081718445,-22.819665908813477,0.02542426437139511,14.131807327270508,-0.03083270788192749,2.1389803886413574,-0.46084922552108765,0.0,0.0,0.0,0.0,0.0,0.0,0.0,-0.2796053116673125,-0.016220560568557217,-0.04296296403462512,0.26256147520022177,-0.2588621277731306,-0.050512678696543384,-0.425728045734188,1.6754701735304112,0.052312233253006345,0.02988527740721117,-2.752493183572235,0.03447006129225094,2.7663493397820313,0.7692035487406712,1.6754973547542302,0.052104326824870026,0.029969505109285054,-2.752394845125968,0.0342448039870148,2.7663679543071322,0.7691630533470046,0.00020973322636962653,-0.00013525407661113786,0.0006153151732436634,-0.0001291719028730362,0.00021710884761643316,-5.750593188341635e-05,0.0016512155845752816,0.0,0.0,0.0,0.0,0.0,0.0,0.0,2.718122381906163e-05,-0.00020790642813631882,8.422770207388436e-05,9.833844626694344e-05,-0.00022525730523614146,1.8614525100879575e-05,-4.0495393666573065e-05,-0.00020973322636962653,0.00013525407661113786,-0.0006153151732436634,0.0001291719028730362,-0.00021710884761643316,5.750593188341635e-05,-0.0016512155845752816,0.2998287081718445,22.819665908813477,-0.02542426437139511,-14.131807327270508,0.03083270788192749,-2.1389803886413574,0.46084922552108765,0
48,0.23499369621276855,-0.2998287081718445,-22.819665908813477,0.02542426437139511,14.131807327270508,-0.03083270788192749,2.1389803886413574,-0.46084922552108765,0.0,0.0,0.0,0.0,0.0,0.0,0.0,-0.2796053116673125,-0.016220560568557217,-0.04296296403462512,0.26256147520022177,-0.2588621277731306,-0.050512678696543384,-0.425728045734188,1.6754701735304112,0.052312233253006345,0.02988527740721117,-2.752493183572235,0.03447006129225094,2.7663493397820313,0.7692035487406712,1.6754973547542302,0.052104326824870026,0.029969505109285054,-2.752394845125968,0.0342448039870148,2.7663679543071322,0.7691630533470046,0.00020973322636962653,-0.00013525407661113786,0.0006153151732436634,-0.0001291719028730362,0.00021710884761643316,-5.750593188341635e-05,0.0016512155845752816,0.0,0.0,0.0,0.0,0.0,0.0,0.0,2.718122381906163e-05,-0.00020790642813631882,8.422770207388436e-05,9.833844626694344e-05,-0.00022525730523614146,1.8614525100879575e-05,-4.0495393666573065e-05,-0.00020973322636962653,0.00013525407661113786,-0.0006153151732436634,0.0001291719028730362,-0.00021710884761643316,5.750593188341635e-05,-0.0016512155845752816,0.2998287081718445,22.819665908813477,-0.02542426437139511,-14.131807327270508,0.03083270788192749,-2.1389803886413574,0.46084922552108765,0
49,0.24000978469848633,-0.3236324191093445,-22.819665908813477,0.04922797530889511,14.131807327270508,-0.01343768835067749,2.1325716972351074,-0.44711631536483765,0.0,0.0,0.0,0.0,0.0,0.0,0.0,-0.27983360893320985,-0.014196852949210715,-0.0429709495393928,0.25931632683607814,-0.2588410262250176,-0.0506642945841003,-0.4245983968212325,1.6754718439662664,0.052312233253006345,0.029883606971355905,-2.7524932659880688,0.03446812851230303,2.7663500621951376,0.7692020223792421,1.6754973547542302,0.052104326824870026,0.029969505109285054,-2.752394845125968,0.0342448039870148,2.7663679543071322,0.7691630533470046,0.0010681405651103888,0.00036526893084583853,-0.00030424424929652316,-0.00035760444224907647,-0.0005219653835669688,-3.7637977305202686e-05,0.0009608214685492004,0.0,0.0,0.0,0.0,0.0,0.0,0.0,2.5510787963867188e-05,-0.00020790642813631882,8.589813792914819e-05,9.842086210065659e-05,-0.00022332452528822655,1.7892111994655124e-05,-3.896903223743475e-05,-0.0010681405651103888,-0.00036526893084583853,0.00030424424929652316,0.00035760444224907647,0.0005219653835669688,3.7637977305202686e-05,-0.0009608214685492004,0.3236324191093445,22.819665908813477,-0.04922797530889511,-14.131807327270508,0.01343768835067749,-2.1325716972351074,0.44711631536483765,0
50,0.2450103759765625,-0.3236324191093445,-22.819665908813477,0.04922797530889511,14.131807327270508,-0.01343768835067749,2.1325716972351074,-0.44711631536483765,0.0,0.0,0.0,0.0,0.0,0.0,0.0,-0.27983360893320985,-0.014196852949210715,-0.0429709495393928,0.25931632683607814,-0.2588410262250176,-0.0506642945841003,-0.4245983968212325,1.6754718439662664,0.052312233253006345,0.029883606971355905,-2.7524932659880688,0.03446812851230303,2.7663500621951376,0.7692020223792421,1.6754973547542302,0.052104326824870026,0.029969505109285054,-2.752394845125968,0.0342448039870148,2.7663679543071322,0.7691630533470046,0.0010681405651103888,0.00036526893084583853,-0.00030424424929652316,-0.00035760444224907647,-0.0005219653835669688,-3.7637977305202686e-05,0.0009608214685492004,0.0,0.0,0.0,0.0,0.0,0.0,0.0,2.5510787963867188e-05,-0.00020790642813631882,8.589813792914819e-05,9.842086210065659e-05,-0.00022332452528822655,1.7892111994655124e-05,-3.896903223743475e-05,-0.0010681405651103888,-0.00036526893084583853,0.00030424424929652316,0.00035760444224907647,0.0005219653835669688,3.7637977305202686e-05,-0.0009608214685492004,0.3236324191093445,22.819665908813477,-0.04922797530889511,-14.131807327270508,0.01343768835067749,-2.1325716972351074,0.44711631536483765,0
51,0.2500190734863281,-0.2720577120780945,-22.819665908813477,0.02542426437139511,14.131807327270508,-0.01893085241317749,2.1389803886413574,-0.41324180364608765,0.0,0.0,0.0,0.0,0.0,0.0,0.0,-0.28186813711695025,-0.02086458684337608,-0.04495294673691377,0.26590568068097054,-0.25847652118534525,-0.049232110216447654,-0.4237251312843173,1.67546822468858,0.052312233253006345,0.02988527740721117,-2.752493265988534,0.034468738863865526,2.766349001050989,0.7691982590291225,1.6754973547542302,0.052104326824870026,0.029969505109285054,-2.752394845125968,0.0342448039870148,2.7663679543071322,0.7691630533470046,-0.0004904177367414833,0.00016074633136781307,7.229712387605705e-05,0.0001041667253618644,-0.0004323583608183472,-0.0001337131289279808,-0.0007847550468261638,0.0,0.0,0.0,0.0,0.0,0.0,0.0,2.9130065650306847e-05,-0.00020790642813631882,8.422770207388436e-05,9.842086256606208e-05,-0.000223934876850726,1.8953256143205977e-05,-3.5205682117900317e-05,0.0004904177367414833,-0.00016074633136781307,-7.229712387605705e-05,-0.0001041667253618644,0.0004323583608183472,0.0001337131289279808,0.0007847550468261638,0.2720577120780945,22.819665908813477,-0.02542426437139511,-14.131807327270508,0.01893085241317749,-2.1389803886413574,0.41324180364608765,0
52,0.2549920082092285,-0.2720577120780945,-22.819665908813477,0.02542426437139511,14.131807327270508,-0.01893085241317749,2.1389803886413574,-0.41324180364608765,0.0,0.0,0.0,0.0,0.0,0.0,0.0,-0.28186813711695025,-0.02086458684337608,-0.04495294673691377,0.26590568068097054,-0.25847652118534525,-0.049232110216447654,-0.4237251312843173,1.67546822468858,0.052312233253006345,0.02988527740721117,-2.752493265988534,0.034468738863865526,2.766349001050989,0.7691982590291225,1.6754973547542302,0.052104326824870026,0.029969505109285054,-2.752394845125968,0.0342448039870148,2.7663679543071322,0.7691630533470046,-0.0004904177367414833,0.00016074633136781307,7.229712387605705e-05,0.0001041667253618644,-0.0004323583608183472,-0.0001337131289279808,-0.0007847550468261638,0.0,0.0,0.0,0.0,0.0,0.0,0.0,2.9130065650306847e-05,-0.00020790642813631882,8.422770207388436e-05,9.842086256606208e-05,-0.000223934876850726,1.8953256143205977e-05,-3.5205682117900317e-05,0.0004904177367414833,-0.00016074633136781307,-7.229712387605705e-05,-0.0001041667253618644,0.0004323583608183472,0.0001337131289279808,0.0007847550468261638,0.2720577120780945,22.819665908813477,-0.02542426437139511,-14.131807327270508,0.01893085241317749,-2.1389803886413574,0.41324180364608765,0
53,0.2549920082092285,-0.2720577120780945,-22.819665908813477,0.02542426437139511,14.131807327270508,-0.01893085241317749,2.1389803886413574,-0.41324180364608765,0.0,0.0,0.0,0.0,0.0,0.0,0.0,-0.28186813711695025,-0.02086458684337608,-0.04495294673691377,0.26590568068097054,-0.25847652118534525,-0.049232110216447654,-0.4237251312843173,1.67546822468858,0.052312233253006345,0.02988527740721117,-2.752493265988534,0.034468738863865526,2.766349001050989,0.7691982590291225,1.6754973547542302,0.052104326824870026,0.029969505109285054,-2.752394845125968,0.0342448039870148,2.7663679543071322,0.7691630533470046,-0.0004904177367414833,0.00016074633136781307,7.229712387605705e-05,0.0001041667253618644,-0.0004323583608183472,-0.0001337131289279808,-0.0007847550468261638,0.0,0.0,0.0,0.0,0.0,0.0,0.0,2.9130065650306847e-05,-0.00020790642813631882,8.422770207388436e-05,9.842086256606208e-05,-0.000223934876850726,1.8953256143205977e-05,-3.5205682117900317e-05,0.0004904177367414833,-0.00016074633136781307,-7.229712387605705e-05,-0.0001041667253618644,0.0004323583608183472,0.0001337131289279808,0.0007847550468261638,0.2720577120780945,22.819665908813477,-0.02542426437139511,-14.131807327270508,0.01893085241317749,-2.1389803886413574,0.41324180364608765,0
54,0.26503467559814453,-0.2720577120780945,-22.819665908813477,0.02542426437139511,14.108003616333008,-0.03083270788192749,2.1261630058288574,-0.39950889348983765,0.0,0.0,0.0,0.0,0.0,0.0,0.0,-0.28437514567808864,-0.01382397468645486,-0.047875432879439246,0.2609292753935916,-0.25871107176897945,-0.050580576621031395,-0.4245180987864744,1.67546822468858,0.052312233253006345,0.02988527740721117,-2.7524915955526787,0.03447006129225094,2.7663507786306987,0.7691967331502172,1.6754973547542302,0.052104326824870026,0.029969505109285054,-2.752394845125968,0.0342448039870148,2.7663679543071322,0.7691630533470046,-0.0006712999039212535,0.0002455082148658135,0.00020247023321191026,0.00022589419528838545,0.00017797799034818931,0.00027659690129482436,-0.0007586870217011625,0.0,0.0,0.0,0.0,0.0,0.0,0.0,2.9130065650306847e-05,-0.00020790642813631882,8.422770207388436e-05,9.67504267106456e-05,-0.00022525730523614146,1.717567643355622e-05,-3.36798032125607e-05,0.0006712999039212535,-0.0002455082148658135,-0.00020247023321191026,-0.00022589419528838545,-0.00017797799034818931,-0.00027659690129482436,0.0007586870217011625,0.2720577120780945,22.819665908813477,-0.02542426437139511,-14.108003616333008,0.03083270788192749,-2.1261630058288574,0.39950889348983765,0
55,0.2700018882751465,-0.2720577120780945,-22.819665908813477,0.02542426437139511,14.108003616333008,-0.03083270788192749,2.1261630058288574,-0.39950889348983765,0.0,0.0,0.0,0.0,0.0,0.0,0.0,-0.28437514567808864,-0.01382397468645486,-0.047875432879439246,0.2609292753935916,-0.25871107176897945,-0.050580576621031395,-0.4245180987864744,1.67546822468858,0.052312233253006345,0.02988527740721117,-2.7524915955526787,0.03447006129225094,2.7663507786306987,0.7691967331502172,1.6754973547542302,0.052104326824870026,0.029969505109285054,-2.752394845125968,0.0342448039870148,2.7663679543071322,0.7691630533470046,-0.0006712999039212535,0.0002455082148658135,0.00020247023321191026,0.00022589419528838545,0.00017797799034818931,0.00027659690129482436,-0.0007586870217011625,0.0,0.0,0.0,0.0,0.0,0.0,0.0,2.9130065650306847e-05,-0.00020790642813631882,8.422770207388436e-05,9.67504267106456e-05,-0.00022525730523614146,1.717567643355622e-05,-3.36798032125607e-05,0.0006712999039212535,-0.0002455082148658135,-0.00020247023321191026,-0.00022589419528838545,-0.00017797799034818931,-0.00027659690129482436,0.0007586870217011625,0.2720577120780945,22.819665908813477,-0.02542426437139511,-14.108003616333008,0.03083270788192749,-2.1261630058288574,0.39950889348983765,0
56,0.27503538131713867,-0.2998287081718445,-22.795862197875977,0.04922797530889511,14.131807327270508,-0.01893085241317749,2.1325716972351074,-0.42605918645858765,0.0,0.0,0.0,0.0,0.0,0.0,0.0,-0.2836712573704899,-0.01734563973182278,-0.04534009687608875,0.26456587308090007,-0.2591333771469341,-0.05057110084376763,-0.4236547315967846,1.6754701735304112,0.05231056281715108,0.029883606971355905,-2.752493265988534,0.034468738863865526,2.7663500529894023,0.7691996831827692,1.6754973547542302,0.052104326824870026,0.029969505109285054,-2.752394845125968,0.0342448039870148,2.7663679543071322,0.7691630533470046,0.0003932180641802366,-0.00042444782629959455,-0.0001720702159298739,-4.8006843802615997e-05,-0.00017424160006553074,-7.870353329763015e-05,0.0002766420445359515,0.0,0.0,0.0,0.0,0.0,0.0,0.0,2.718122381906163e-05,-0.000206235992281055,8.589813792914819e-05,9.842086256606208e-05,-0.000223934876850726,1.7901317729940303e-05,-3.66298357645789e-05,-0.0003932180641802366,0.00042444782629959455,0.0001720702159298739,4.8006843802615997e-05,0.00017424160006553074,7.870353329763015e-05,-0.0002766420445359515,0.2998287081718445,22.795862197875977,-0.04922797530889511,-14.131807327270508,0.01893085241317749,-2.1325716972351074,0.42605918645858765,0
57,0.28002023696899414,-0.2998287081718445,-22.795862197875977,0.04922797530889511,14.131807327270508,-0.01893085241317749,2.1325716972351074,-0.42605918645858765,0.0,0.0,0.0,0.0,0.0,0.0,0.0,-0.2836712573704899,-0.01734563973182278,-0.04534009687608875,0.26456587308090007,-0.2591333771469341,-0.05057110084376763,-0.4236547315967846,1.6754701735304112,0.05231056281715108,0.029883606971355905,-2.752493265988534,0.034468738863865526,2.7663500529894023,0.7691996831827692,1.6754973547542302,0.052104326824870026,0.029969505109285054,-2.752394845125968,0.0342448039870148,2.7663679543071322,0.7691630533470046,0.0003932180641802366,-0.00042444782629959455,-0.0001720702159298739,-4.8006843802615997e-05,-0.00017424160006553074,-7.870353329763015e-05,0.0002766420445359515,0.0,0.0,0.0,0.0,0.0,0.0,0.0,2.718122381906163e-05,-0.000206235992281055,8.589813792914819e-05,9.842086256606208e-05,-0.000223934876850726,1.7901317729940303e-05,-3.66298357645789e-05,-0.0003932180641802366,0.00042444782629959455,0.0001720702159298739,4.8006843802615997e-05,0.00017424160006553074,7.870353329763015e-05,-0.0002766420445359515,0.2998287081718445,22.795862197875977,-0.04922797530889511,-14.131807327270508,0.01893085241317749,-2.1325716972351074,0.42605918645858765,0
58,0.2850170135498047,-0.2720577120780945,-22.871240615844727,0.04922797530889511,14.108003616333008,-0.02533954381942749,2.1389803886413574,-0.44711631536483765,0.0,0.0,0.0,0.0,0.0,0.0,0.0,-0.2853826627390546,-0.0190113528964584,-0.04502467237431403,0.2642578520946632,-0.2590310535257284,-0.05097245204350366,-0.42348992026415266,1.67546822468858,0.05231585253069274,0.029883606971355905,-2.7524915955526787,0.03446945094068844,2.7663482947870066,0.7692020228637588,1.6754973547542302,0.052104326824870026,0.029969505109285054,-2.752394845125968,0.0342448039870148,2.7663679543071322,0.7691630533470046,-3.4631089190885845e-05,0.0009383134805903928,-0.0002883020523947888,0.000722247236258722,-8.346260920812963e-05,-0.00017302115284490544,0.0010323836186273575,0.0,0.0,0.0,0.0,0.0,0.0,0.0,2.9130065650306847e-05,-0.00021152570582271685,8.589813792914819e-05,9.67504267106456e-05,-0.00022464695367364201,1.965952012561445e-05,-3.89695167541948e-05,3.4631089190885845e-05,-0.0009383134805903928,0.0002883020523947888,-0.000722247236258722,8.346260920812963e-05,0.00017302115284490544,-0.0010323836186273575,0.2720577120780945,22.871240615844727,-0.04922797530889511,-14.108003616333008,0.02533954381942749,-2.1389803886413574,0.44711631536483765,0
59,0.2900080680847168,-0.2720577120780945,-22.871240615844727,0.04922797530889511,14.108003616333008,-0.02533954381942749,2.1389803886413574,-0.44711631536483765,0.0,0.0,0.0,0.0,0.0,0.0,0.0,-0.2853826627390546,-0.0190113528964584,-0.04502467237431403,0.2642578520946632,-0.2590310535257284,-0.05097245204350366,-0.42348992026415266,1.67546822468858,0.05231585253069274,0.029883606971355905,-2.7524915955526787,0.03446945094068844,2.7663482947870066,0.7692020228637588,1.6754973547542302,0.052104326824870026,0.029969505109285054,-2.752394845125968,0.0342448039870148,2.7663679543071322,0.7691630533470046,-3.4631089190885845e-05,0.0009383134805903928,-0.0002883020523947888,0.000722247236258722,-8.346260920812963e-05,-0.00017302115284490544,0.0010323836186273575,0.0,0.0,0.0,0.0,0.0,0.0,0.0,2.9130065650306847e-05,-0.00021152570582271685,8.589813792914819e-05,9.67504267106456e-05,-0.00022464695367364201,1.965952012561445e-05,-3.89695167541948e-05,3.4631089190885845e-05,-0.0009383134805903928,0.0002883020523947888,-0.000722247236258722,8.346260920812963e-05,0.00017302115284490544,-0.0010323836186273575,0.2720577120780945,22.871240615844727,-0.04922797530889511,-14.108003616333008,0.02533954381942749,-2.1389803886413574,0.44711631536483765,0
60,0.29500746726989746,-0.24825400114059448,-22.795862197875977,0.02542426437139511,14.108003616333008,-0.01893085241317749,2.1389803886413574,-0.42605918645858765,0.0,0.0,0.0,0.0,0.0,0.0,0.0,-0.2873614275454181,-0.014895893400435224,-0.04621582875270942,0.26062236999989735,-0.25897788640392333,-0.05162280797888483,-0.4248182620874411,1.6754665542527247,0.05231056281715108,0.02988527740721117,-2.7524915945351935,0.034468738863865526,2.7663461608616697,0.7691996831827692,1.6754973547542302,0.052104326824870026,0.029969505109285054,-2.752394845125968,0.0342448039870148,2.7663679543071322,0.7691630533470046,-0.0008596544998858285,-0.0003849023669005887,-5.7501743602001315e-05,0.0004417653449130856,-0.0002451228800002136,-0.00021947783293697768,0.00026209994679360506,0.0,0.0,0.0,0.0,0.0,0.0,0.0,3.080050150550129e-05,-0.000206235992281055,8.422770207388436e-05,9.67494092254384e-05,-0.000223934876850726,2.17934454624924e-05,-3.66298357645789e-05,0.0008596544998858285,0.0003849023669005887,5.7501743602001315e-05,-0.0004417653449130856,0.0002451228800002136,0.00021947783293697768,-0.00026209994679360506,0.24825400114059448,22.795862197875977,-0.02542426437139511,-14.108003616333008,0.01893085241317749,-2.1389803886413574,0.42605918645858765,0
61,0.30001354217529297,-0.24825400114059448,-22.795862197875977,0.02542426437139511,14.108003616333008,-0.01893085241317749,2.1389803886413574,-0.42605918645858765,0.0,0.0,0.0,0.0,0.0,0.0,0.0,-0.2873614275454181,-0.014895893400435224,-0.04621582875270942,0.26062236999989735,-0.25897788640392333,-0.05162280797888483,-0.4248182620874411,1.6754665542527247,0.05231056281715108,0.02988527740721117,-2.7524915945351935,0.034468738863865526,2.7663461608616697,0.7691996831827692,1.6754973547542302,0.052104326824870026,0.029969505109285054,-2.752394845125968,0.0342448039870148,2.7663679543071322,0.7691630533470046,-0.0008596544998858285,-0.0003849023669005887,-5.7501743602001315e-05,0.0004417653449130856,-0.0002451228800002136,-0.00021947783293697768,0.00026209994679360506,0.0,0.0,0.0,0.0,0.0,0.0,0.0,3.080050150550129e-05,-0.000206235992281055,8.422770207388436e-05,9.67494092254384e-05,-0.000223934876850726,2.17934454624924e-05,-3.66298357645789e-05,0.0008596544998858285,0.0003849023669005887,5.7501743602001315e-05,-0.0004417653449130856,0.0002451228800002136,0.00021947783293697768,-0.00026209994679360506,0.24825400114059448,22.795862197875977,-0.02542426437139511,-14.108003616333008,0.01893085241317749,-2.1389803886413574,0.42605918645858765,0
62,0.3049948215484619,-0.24825400114059448,-22.795862197875977,0.02542426437139511,14.108003616333008,-0.01893085241317749,2.1389803886413574,-0.42605918645858765,0.0,0.0,0.0,0.0,0.0,0.0,0.0,-0.2873614275454181,-0.014895893400435224,-0.04621582875270942,0.26062236999989735,-0.25897788640392333,-0.05162280797888483,-0.4248182620874411,1.6754665542527247,0.05231056281715108,0.02988527740721117,-2.7524915945351935,0.034468738863865526,2.7663461608616697,0.7691996831827692,1.6754973547542302,0.052104326824870026,0.029969505109285054,-2.752394845125968,0.0342448039870148,2.7663679543071322,0.7691630533470046,-0.0008596544998858285,-0.0003849023669005887,-5.7501743602001315e-05,0.0004417653449130856,-0.0002451228800002136,-0.00021947783293697768,0.00026209994679360506,0.0,0.0,0.0,0.0,0.0,0.0,0.0,3.080050150550129e-05,-0.000206235992281055,8.422770207388436e-05,9.67494092254384e-05,-0.000223934876850726,2.17934454624924e-05,-3.66298357645789e-05,0.0008596544998858285,0.0003849023669005887,5.7501743602001315e-05,-0.0004417653449130856,0.0002451228800002136,0.00021947783293697768,-0.00026209994679360506,0.24825400114059448,22.795862197875977,-0.02542426437139511,-14.108003616333008,0.01893085241317749,-2.1389803886413574,0.42605918645858765,0
63,0.31000185012817383,-0.24825400114059448,-22.795862197875977,0.02542426437139511,14.108003616333008,-0.01893085241317749,2.1389803886413574,-0.42605918645858765,0.0,0.0,0.0,0.0,0.0,0.0,0.0,-0.2873614275454181,-0.014895893400435224,-0.04621582875270942,0.26062236999989735,-0.25897788640392333,-0.05162280797888483,-0.4248182620874411,1.6754665542527247,0.05231056281715108,0.02988527740721117,-2.7524915945351935,0.034468738863865526,2.7663461608616697,0.7691996831827692,1.6754973547542302,0.052104326824870026,0.029969505109285054,-2.752394845125968,0.0342448039870148,2.7663679543071322,0.7691630533470046,-0.0008596544998858285,-0.0003849023669005887,-5.7501743602001315e-05,0.0004417653449130856,-0.0002451228800002136,-0.00021947783293697768,0.00026209994679360506,0.0,0.0,0.0,0.0,0.0,0.0,0.0,3.080050150550129e-05,-0.000206235992281055,8.422770207388436e-05,9.67494092254384e-05,-0.000223934876850726,2.17934454624924e-05,-3.66298357645789e-05,0.0008596544998858285,0.0003849023669005887,5.7501743602001315e-05,-0.0004417653449130856,0.0002451228800002136,0.00021947783293697768,-0.00026209994679360506,0.24825400114059448,22.795862197875977,-0.02542426437139511,-14.108003616333008,0.01893085241317749,-2.1389803886413574,0.42605918645858765,0
64,0.3150618076324463,-0.2720577120780945,-22.819665908813477,0.04922797530889511,14.155611038208008,-0.02533954381942749,2.1325716972351074,-0.45352500677108765,0.0,0.0,0.0,0.0,0.0,0.0,0.0,-0.28601173951695297,-0.01944347083755941,-0.04710051980906643,0.26387099177683104,-0.25863977201043864,-0.05094785812947687,-0.4238758208881937,1.67546822468858,0.052312233253006345,0.029883606971355905,-2.7524949364243834,0.03446945094068844,2.7663500267536345,0.7692026172030119,1.6754973547542302,0.052104326824870026,0.029969505109285054,-2.752394845125968,0.0342448039870148,2.7663679543071322,0.7691630533470046,-0.0005989008579411143,0.0001444161673617226,-0.00022596762835780184,-0.0005781265991380016,0.00016291306433292445,-1.492206638137356e-05,0.0013977642186873284,0.0,0.0,0.0,0.0,0.0,0.0,0.0,2.9130065650306847e-05,-0.00020790642813631882,8.589813792914819e-05,0.00010009129841526132,-0.00022464695367364201,1.7927553497720794e-05,-3.956385600722978e-05,0.0005989008579411143,-0.0001444161673617226,0.00022596762835780184,0.0005781265991380016,-0.00016291306433292445,1.492206638137356e-05,-0.0013977642186873284,0.2720577120780945,22.819665908813477,-0.04922797530889511,-14.155611038208008,0.02533954381942749,-2.1325716972351074,0.45352500677108765,0
65,0.32001352310180664,-0.2720577120780945,-22.819665908813477,0.04922797530889511,14.155611038208008,-0.02533954381942749,2.1325716972351074,-0.45352500677108765,0.0,0.0,0.0,0.0,0.0,0.0,0.0,-0.28601173951695297,-0.01944347083755941,-0.04710051980906643,0.26387099177683104,-0.25863977201043864,-0.05094785812947687,-0.4238758208881937,1.67546822468858,0.052312233253006345,0.029883606971355905,-2.7524949364243834,0.03446945094068844,2.7663500267536345,0.7692026172030119,1.6754973547542302,0.052104326824870026,0.029969505109285054,-2.752394845125968,0.0342448039870148,2.7663679543071322,0.7691630533470046,-0.0005989008579411143,0.0001444161673617226,-0.00022596762835780184,-0.0005781265991380016,0.00016291306433292445,-1.492206638137356e-05,0.0013977642186873284,0.0,0.0,0.0,0.0,0.0,0.0,0.0,2.9130065650306847e-05,-0.00020790642813631882,8.589813792914819e-05,0.00010009129841526132,-0.00022464695367364201,1.7927553497720794e-05,-3.956385600722978e-05,0.0005989008579411143,-0.0001444161673617226,0.00022596762835780184,0.0005781265991380016,-0.00016291306433292445,1.492206638137356e-05,-0.0013977642186873284,0.2720577120780945,22.819665908813477,-0.04922797530889511,-14.155611038208008,0.02533954381942749,-2.1325716972351074,0.45352500677108765,0
66,0.3250133991241455,-0.3236324191093445,-22.795862197875977,0.02542426437139511,14.056428909301758,-0.01893085241317749,2.1197543144226074,-0.40591758489608765,0.0,0.0,0.0,0.0,0.0,0.0,0.0,-0.2877438110483945,-0.014655649947334197,-0.04756405287412547,0.2589994407630256,-0.25905987413955517,-0.05205737946513733,-0.42407319201497656,1.6754718439662664,0.05231056281715108,0.02988527740721117,-2.7524879762749923,0.034468738863865526,2.7663503918254557,0.7691974452268185,1.6754973547542302,0.052104326824870026,0.029969505109285054,-2.752394845125968,0.0342448039870148,2.7663679543071322,0.7691630533470046,0.0007471882727326414,2.914130386213002e-06,4.695943620400721e-05,0.0013890953756571934,-0.00021778690554255365,0.0006408279594760947,-0.0010133289188539911,0.0,0.0,0.0,0.0,0.0,0.0,0.0,2.5510787963867188e-05,-0.000206235992281055,8.422770207388436e-05,9.313114902420594e-05,-0.000223934876850726,1.7562481676502983e-05,-3.43918798139109e-05,-0.0007471882727326414,-2.914130386213002e-06,-4.695943620400721e-05,-0.0013890953756571934,0.00021778690554255365,-0.0006408279594760947,0.0010133289188539911,0.3236324191093445,22.795862197875977,-0.02542426437139511,-14.056428909301758,0.01893085241317749,-2.1197543144226074,0.40591758489608765,0
67,0.33004283905029297,-0.3236324191093445,-22.795862197875977,0.02542426437139511,14.056428909301758,-0.01893085241317749,2.1197543144226074,-0.40591758489608765,0.0,0.0,0.0,0.0,0.0,0.0,0.0,-0.2877438110483945,-0.014655649947334197,-0.04756405287412547,0.2589994407630256,-0.25905987413955517,-0.05205737946513733,-0.42407319201497656,1.6754718439662664,0.05231056281715108,0.02988527740721117,-2.7524879762749923,0.034468738863865526,2.7663503918254557,0.7691974452268185,1.6754973547542302,0.052104326824870026,0.029969505109285054,-2.752394845125968,0.0342448039870148,2.7663679543071322,0.7691630533470046,0.0007471882727326414,2.914130386213002e-06,4.695943620400721e-05,0.0013890953756571934,-0.00021778690554255365,0.0006408279594760947,-0.0010133289188539911,0.0,0.0,0.0,0.0,0.0,0.0,0.0,2.5510787963867188e-05,-0.000206235992281055,8.422770207388436e-05,9.313114902420594e-05,-0.000223934876850726,1.7562481676502983e-05,-3.43918798139109e-05,-0.0007471882727326414,-2.914130386213002e-06,-4.695943620400721e-05,-0.0013890953756571934,0.00021778690554255365,-0.0006408279594760947,0.0010133289188539911,0.3236324191093445,22.795862197875977,-0.02542426437139511,-14.056428909301758,0.01893085241317749,-2.1197543144226074,0.40591758489608765,0
68,0.33499670028686523,-0.2998287081718445,-22.795862197875977,0.04922797530889511,14.131807327270508,-0.02533954381942749,2.1389803886413574,-0.39218467473983765,0.0,0.0,0.0,0.0,0.0,0.0,0.0,-0.28493521218918016,-0.01840436862475643,-0.04548118897951266,0.2623161832346019,-0.25877903754337883,-0.05073699777009809,-0.42513720832019275,1.6754701735304112,0.05231056281715108,0.029883606971355905,-2.752493265988534,0.03446945094068844,2.766349236735275,0.7691955661354241,1.6754973547542302,0.052104326824870026,0.029969505109285054,-2.752394845125968,0.0342448039870148,2.7663679543071322,0.7691630533470046,0.0005873160185742353,-0.00048420288866517827,-0.00036456407929340263,-0.0003834627321396752,-8.030926383554986e-05,-0.00017353792343413496,-0.0015691417330694428,0.0,0.0,0.0,0.0,0.0,0.0,0.0,2.718122381906163e-05,-0.000206235992281055,8.589813792914819e-05,9.842086256606208e-05,-0.00022464695367364201,1.8717571857340687e-05,-3.25127884194254e-05,-0.0005873160185742353,0.00048420288866517827,0.00036456407929340263,0.0003834627321396752,8.030926383554986e-05,0.00017353792343413496,0.0015691417330694428,0.2998287081718445,22.795862197875977,-0.04922797530889511,-14.131807327270508,0.02533954381942749,-2.1389803886413574,0.39218467473983765,0
69,0.3400125503540039,-0.2998287081718445,-22.795862197875977,0.04922797530889511,14.131807327270508,-0.02533954381942749,2.1389803886413574,-0.39218467473983765,0.0,0.0,0.0,0.0,0.0,0.0,0.0,-0.28493521218918016,-0.01840436862475643,-0.04548118897951266,0.2623161832346019,-0.25877903754337883,-0.05073699777009809,-0.42513720832019275,1.6754701735304112,0.05231056281715108,0.029883606971355905,-2.752493265988534,0.03446945094068844,2.766349236735275,0.7691955661354241,1.6754973547542302,0.052104326824870026,0.029969505109285054,-2.752394845125968,0.0342448039870148,2.7663679543071322,0.7691630533470046,0.0005873160185742353,-0.00048420288866517827,-0.00036456407929340263,-0.0003834627321396752,-8.030926383554986e-05,-0.00017353792343413496,-0.0015691417330694428,0.0,0.0,0.0,0.0,0.0,0.0,0.0,2.718122381906163e-05,-0.000206235992281055,8.589813792914819e-05,9.842086256606208e-05,-0.00022464695367364201,1.8717571857340687e-05,-3.25127884194254e-05,-0.0005873160185742353,0.00048420288866517827,0.00036456407929340263,0.0003834627321396752,8.030926383554986e-05,0.00017353792343413496,0.0015691417330694428,0.2998287081718445,22.795862197875977,-0.04922797530889511,-14.131807327270508,0.02533954381942749,-2.1389803886413574,0.39218467473983765,0
70,0.34501051902770996,-0.2998287081718445,-22.847436904907227,0.07303168624639511,14.131807327270508,-0.02533954381942749,2.1325716972351074,-0.41965049505233765,0.0,0.0,0.0,0.0,0.0,0.0,0.0,-0.2873658588455389,-0.018394344349883317,-0.04714106081181465,0.262051121360898,-0.2580699247610974,-0.05027339776480127,-0.42592401880935143,1.6754701735304112,0.052314182094837486,0.029881936535500645,-2.752493265988534,0.03446945094068844,2.76635006607069,0.7691989711039525,1.6754973547542302,0.052104326824870026,0.029969505109285054,-2.752394845125968,0.0342448039870148,2.7663679543071322,0.7691630533470046,0.00051480186549313,0.0008707993705233463,-0.0006608930627273814,0.00018614962373227675,0.00018713754446817831,0.00010240528943796571,-0.00016355103071062426,0.0,0.0,0.0,0.0,0.0,0.0,0.0,2.718122381906163e-05,-0.00020985526996745996,8.756857378440855e-05,9.842086256606208e-05,-0.00022464695367364201,1.7888236442331618e-05,-3.591775694788968e-05,-0.00051480186549313,-0.0008707993705233463,0.0006608930627273814,-0.00018614962373227675,-0.00018713754446817831,-0.00010240528943796571,0.00016355103071062426,0.2998287081718445,22.847436904907227,-0.07303168624639511,-14.131807327270508,0.02533954381942749,-2.1325716972351074,0.41965049505233765,0
71,0.35001277923583984,-0.2998287081718445,-22.847436904907227,0.07303168624639511,14.131807327270508,-0.02533954381942749,2.1325716972351074,-0.41965049505233765,0.0,0.0,0.0,0.0,0.0,0.0,0.0,-0.2873658588455389,-0.018394344349883317,-0.04714106081181465,0.262051121360898,-0.2580699247610974,-0.05027339776480127,-0.42592401880935143,1.6754701735304112,0.052314182094837486,0.029881936535500645,-2.752493265988534,0.03446945094068844,2.76635006607069,0.7691989711039525,1.6754973547542302,0.052104326824870026,0.029969505109285054,-2.752394845125968,0.0342448039870148,2.7663679543071322,0.7691630533470046,0.00051480186549313,0.0008707993705233463,-0.0006608930627273814,0.00018614962373227675,0.00018713754446817831,0.00010240528943796571,-0.00016355103071062426,0.0,0.0,0.0,0.0,0.0,0.0,0.0,2.718122381906163e-05,-0.00020985526996745996,8.756857378440855e-05,9.842086256606208e-05,-0.00022464695367364201,1.7888236442331618e-05,-3.591775694788968e-05,-0.00051480186549313,-0.0008707993705233463,0.0006608930627273814,-0.00018614962373227675,-0.00018713754446817831,-0.00010240528943796571,0.00016355103071062426,0.2998287081718445,22.847436904907227,-0.07303168624639511,-14.131807327270508,0.02533954381942749,-2.1325716972351074,0.41965049505233765,0
72,0.35500240325927734,-0.2720577120780945,-22.795862197875977,0.04922797530889511,14.108003616333008,-0.02533954381942749,2.1389803886413574,-0.40591758489608765,0.0,0.0,0.0,0.0,0.0,0.0,0.0,-0.2936498385637647,0.06641994349641786,-0.049887804171937486,0.19476692301874882,-0.25719162970627474,-0.06260351443067738,-0.4259080685162557,1.67546822468858,0.05231056281715108,0.029883606971355905,-2.7524915955526787,0.03446945094068844,2.7663493501183942,0.76919744522704,1.6754973547542302,0.052104326824870026,0.029969505109285054,-2.752394845125968,0.0342448039870148,2.7663679543071322,0.7691630533470046,-0.0009510927762688263,-0.0017299523685387146,-0.0002712467234914916,0.0011600772323832385,-0.0006210311172085589,-0.000136434351564554,-0.0014192224667399554,0.0,0.0,0.0,0.0,0.0,0.0,0.0,2.9130065650306847e-05,-0.000206235992281055,8.589813792914819e-05,9.67504267106456e-05,-0.00022464695367364201,1.8604188738002847e-05,-3.439188003540039e-05,0.0009510927762688263,0.0017299523685387146,0.0002712467234914916,-0.0011600772323832385,0.0006210311172085589,0.000136434351564554,0.0014192224667399554,0.2720577120780945,22.795862197875977,-0.04922797530889511,-14.108003616333008,0.02533954381942749,-2.1389803886413574,0.40591758489608765,0
73,0.3600482940673828,-0.2720577120780945,-22.795862197875977,0.04922797530889511,14.108003616333008,-0.02533954381942749,2.1389803886413574,-0.40591758489608765,0.0,0.0,0.0,0.0,0.0,0.0,0.0,-0.2936498385637647,0.06641994349641786,-0.049887804171937486,0.19476692301874882,-0.25719162970627474,-0.06260351443067738,-0.4259080685162557,1.67546822468858,0.05231056281715108,0.029883606971355905,-2.7524915955526787,0.03446945094068844,2.7663493501183942,0.76919744522704,1.6754973547542302,0.052104326824870026,0.029969505109285054,-2.752394845125968,0.0342448039870148,2.7663679543071322,0.7691630533470046,-0.0009510927762688263,-0.0017299523685387146,-0.0002712467234914916,0.0011600772323832385,-0.0006210311172085589,-0.000136434351564554,-0.0014192224667399554,0.0,0.0,0.0,0.0,0.0,0.0,0.0,2.9130065650306847e-05,-0.000206235992281055,8.589813792914819e-05,9.67504267106456e-05,-0.00022464695367364201,1.8604188738002847e-05,-3.439188003540039e-05,0.0009510927762688263,0.0017299523685387146,0.0002712467234914916,-0.0011600772323832385,0.0006210311172085589,0.000136434351564554,0.0014192224667399554,0.2720577120780945,22.795862197875977,-0.04922797530889511,-14.108003616333008,0.02533954381942749,-2.1389803886413574,0.40591758489608765,0
74,0.36501145362854004,-0.24825400114059448,-22.795862197875977,0.04922797530889511,14.108003616333008,-0.03083270788192749,2.1389803886413574,-0.41965049505233765,0.0,0.0,0.0,0.0,0.0,0.0,0.0,-0.28887647031362834,-0.009556834116460775,-0.042543165604211126,0.2595627218404507,-0.25741093641783236,-0.051263480393210756,-0.4266707151020038,1.6754665627559937,0.05231056281715108,0.029883606971355905,-2.7524915955526787,0.03447006129225094,2.7663493544790234,0.7691989711059464,1.6754973547542302,0.052104326824870026,0.029969505109285054,-2.752394845125968,0.0342448039870148,2.7663679543071322,0.7691630533470046,-0.0012890994815494834,-0.0003903538421830204,-9.062426772591208e-05,0.00011143463462315504,0.0001768455287401655,-0.0002841658638298633,-0.0008356076180576024,0.0,0.0,0.0,0.0,0.0,0.0,0.0,3.0791998236523455e-05,-0.000206235992281055,8.589813792914819e-05,9.67504267106456e-05,-0.00022525730523614146,1.8599828108811778e-05,-3.591775894173921e-05,0.0012890994815494834,0.0003903538421830204,9.062426772591208e-05,-0.00011143463462315504,-0.0001768455287401655,0.0002841658638298633,0.0008356076180576024,0.24825400114059448,22.795862197875977,-0.04922797530889511,-14.108003616333008,0.03083270788192749,-2.1389803886413574,0.41965049505233765,0
75,0.37004542350769043,-0.24825400114059448,-22.795862197875977,0.04922797530889511,14.108003616333008,-0.03083270788192749,2.1389803886413574,-0.41965049505233765,0.0,0.0,0.0,0.0,0.0,0.0,0.0,-0.28887647031362834,-0.009556834116460775,-0.042543165604211126,0.2595627218404507,-0.25741093641783236,-0.051263480393210756,-0.4266707151020038,1.6754665627559937,0.05231056281715108,0.029883606971355905,-2.7524915955526787,0.03447006129225094,2.7663493544790234,0.7691989711059464,1.6754973547542302,0.052104326824870026,0.029969505109285054,-2.752394845125968,0.0342448039870148,2.7663679543071322,0.7691630533470046,-0.0012890994815494834,-0.0003903538421830204,-9.062426772591208e-05,0.00011143463462315504,0.0001768455287401655,-0.0002841658638298633,-0.0008356076180576024,0.0,0.0,0.0,0.0,0.0,0.0,0.0,3.0791998236523455e-05,-0.000206235992281055,8.589813792914819e-05,9.67504267106456e-05,-0.00022525730523614146,1.8599828108811778e-05,-3.591775894173921e-05,0.0012890994815494834,0.0003903538421830204,9.062426772591208e-05,-0.00011143463462315504,-0.0001768455287401655,0.0002841658638298633,0.0008356076180576024,0.24825400114059448,22.795862197875977,-0.04922797530889511,-14.108003616333008,0.03083270788192749,-2.1389803886413574,0.41965049505233765,0
76,0.3750154972076416,-0.2720577120780945,-22.819665908813477,0.02542426437139511,14.131807327270508,-0.03724139928817749,2.1389803886413574,-0.37845176458358765,0.0,0.0,0.0,0.0,0.0,0.0,0.0,-0.29074665962239776,-0.030366948674243905,-0.044323680022924306,0.27228913981109026,-0.25750418055590535,-0.04877660484390583,-0.42867554466186963,1.675468224688628,0.052312233253006345,0.02988527740721117,-2.752493265988534,0.034470891658538644,2.7663493530254977,0.7691943934692276,1.6754973547542302,0.052104326824870026,0.029969505109285054,-2.752394845125968,0.0342448039870148,2.7663679543071322,0.7691630533470046,-0.0007331840275209077,0.00043806087500895314,0.00046275951315388357,-0.0006154052364913004,0.0004439024793361294,-0.00022601250018410216,-0.0012414148900228381,0.0,0.0,0.0,0.0,0.0,0.0,0.0,2.9130065602123167e-05,-0.00020790642813631882,8.422770207388436e-05,9.842086256606208e-05,-0.0002260876715238433,1.860128163455599e-05,-3.13401222229448e-05,0.0007331840275209077,-0.00043806087500895314,-0.00046275951315388357,0.0006154052364913004,-0.0004439024793361294,0.00022601250018410216,0.0012414148900228381,0.2720577120780945,22.819665908813477,-0.02542426437139511,-14.131807327270508,0.03724139928817749,-2.1389803886413574,0.37845176458358765,0
77,0.38001370429992676,-0.2720577120780945,-22.819665908813477,0.02542426437139511,14.131807327270508,-0.03724139928817749,2.1389803886413574,-0.37845176458358765,0.0,0.0,0.0,0.0,0.0,0.0,0.0,-0.29074665962239776,-0.030366948674243905,-0.044323680022924306,0.27228913981109026,-0.25750418055590535,-0.04877660484390583,-0.42867554466186963,1.675468224688628,0.052312233253006345,0.02988527740721117,-2.752493265988534,0.034470891658538644,2.7663493530254977,0.7691943934692276,1.6754973547542302,0.052104326824870026,0.029969505109285054,-2.752394845125968,0.0342448039870148,2.7663679543071322,0.7691630533470046,-0.0007331840275209077,0.00043806087500895314,0.00046275951315388357,-0.0006154052364913004,0.0004439024793361294,-0.00022601250018410216,-0.0012414148900228381,0.0,0.0,0.0,0.0,0.0,0.0,0.0,2.9130065602123167e-05,-0.00020790642813631882,8.422770207388436e-05,9.842086256606208e-05,-0.0002260876715238433,1.860128163455599e-05,-3.13401222229448e-05,0.0007331840275209077,-0.00043806087500895314,-0.00046275951315388357,0.0006154052364913004,-0.0004439024793361294,0.00022601250018410216,0.0012414148900228381,0.2720577120780945,22.819665908813477,-0.02542426437139511,-14.131807327270508,0.03724139928817749,-2.1389803886413574,0.37845176458358765,0
78,0.3849942684173584,-0.3236324191093445,-22.795862197875977,0.02542426437139511,14.155611038208008,-0.03083270788192749,2.1325716972351074,-0.39218467473983765,0.0,0.0,0.0,0.0,0.0,0.0,0.0,-0.292455047459643,-0.02649982463898337,-0.04547539188606507,0.27181571087168327,-0.2577588187213535,-0.0485013169736062,-0.4248960203288148,1.6754718439662666,0.05231056281715108,0.02988527740721117,-2.752494936424389,0.03447006129291869,2.766346533890413,0.7691959193481338,1.6754973547542302,0.052104326824870026,0.029969505109285054,-2.752394845125968,0.0342448039870148,2.7663679543071322,0.7691630533470046,0.0005894740568772419,-8.375964688570225e-05,0.00010719029235483104,-0.0006862982899029175,0.00020341740716123697,5.2525214536914956e-05,-0.0010306634437120378,0.0,0.0,0.0,0.0,0.0,0.0,0.0,2.5510787963645143e-05,-0.000206235992281055,8.422770207388436e-05,0.00010009129842103448,-0.00022525730590389204,2.142041671904238e-05,-3.2866001129172595e-05,-0.0005894740568772419,8.375964688570225e-05,-0.00010719029235483104,0.0006862982899029175,-0.00020341740716123697,-5.2525214536914956e-05,0.0010306634437120378,0.3236324191093445,22.795862197875977,-0.02542426437139511,-14.155611038208008,0.03083270788192749,-2.1325716972351074,0.39218467473983765,0
79,0.390002965927124,-0.3236324191093445,-22.795862197875977,0.02542426437139511,14.155611038208008,-0.03083270788192749,2.1325716972351074,-0.39218467473983765,0.0,0.0,0.0,0.0,0.0,0.0,0.0,-0.292455047459643,-0.02649982463898337,-0.04547539188606507,0.27181571087168327,-0.2577588187213535,-0.0485013169736062,-0.4248960203288148,1.6754718439662666,0.05231056281715108,0.02988527740721117,-2.752494936424389,0.03447006129291869,2.766346533890413,0.7691959193481338,1.6754973547542302,0.052104326824870026,0.029969505109285054,-2.752394845125968,0.0342448039870148,2.7663679543071322,0.7691630533470046,0.0005894740568772419,-8.375964688570225e-05,0.00010719029235483104,-0.0006862982899029175,0.00020341740716123697,5.2525214536914956e-05,-0.0010306634437120378,0.0,0.0,0.0,0.0,0.0,0.0,0.0,2.5510787963645143e-05,-0.000206235992281055,8.422770207388436e-05,0.00010009129842103448,-0.00022525730590389204,2.142041671904238e-05,-3.2866001129172595e-05,-0.0005894740568772419,8.375964688570225e-05,-0.00010719029235483104,0.0006862982899029175,-0.00020341740716123697,-5.2525214536914956e-05,0.0010306634437120378,0.3236324191093445,22.795862197875977,-0.02542426437139511,-14.155611038208008,0.03083270788192749,-2.1325716972351074,0.39218467473983765,0
