rezayati/contactInterpretation/dataset/franka_main/labeled_data/link6/b7_4.csv
index,time,tau_J0,tau_J1,tau_J2,tau_J3,tau_J4,tau_J5,tau_J6,tau_J_d0,tau_J_d1,tau_J_d2,tau_J_d3,tau_J_d4,tau_J_d5,tau_J_d6,tau_ext0,tau_ext1,tau_ext2,tau_ext3,tau_ext4,tau_ext5,tau_ext6,q0,q1,q2,q3,q4,q5,q6,q_d0,q_d1,q_d2,q_d3,q_d4,q_d5,q_d6,dq0,dq1,dq2,dq3,dq4,dq5,dq6,dq_d0,dq_d1,dq_d2,dq_d3,dq_d4,dq_d5,dq_d6,e0,e1,e2,e3,e4,e5,e6,de0,de1,de2,de3,de4,de5,de6,etau_J0,etau_J1,etau_J2,etau_J3,etau_J4,etau_J5,etau_J6,label
1,0.0,-0.24825400114059448,-19.693445205688477,-0.2998931109905243,19.955781936645508,0.4031272530555725,2.4758944511413574,-0.24112264811992645,0.0,0.0,0.0,0.0,0.0,0.0,0.0,-0.2629021381813523,0.03504256247678318,-0.10232356381608075,0.1833063737863642,-0.1834239965991441,0.09351843746821381,-0.24285717328889822,1.2133069206162503,-0.22036133420467355,-0.00752815572508199,-2.6037606543156135,-0.10872301438247019,2.468182837859134,0.8264770196138749,1.2134413937687574,-0.2202432315892585,-0.0075118285948192216,-2.6038483821997875,-0.10888392708698907,2.4681821257803174,0.826474908251239,-0.00020784221417662182,-4.1111265808969074e-05,-3.654424764401019e-06,7.44841960185677e-05,-6.02219448405782e-07,-0.00028242493843379457,0.0003281270795077896,0.0,0.0,0.0,0.0,0.0,0.0,0.0,0.00013447315250703085,0.00011810261541506106,1.6327130262768462e-05,-8.772788417399369e-05,-0.00016091270451888684,-7.120788168002434e-07,-2.1113626358371107e-06,0.00020784221417662182,4.1111265808969074e-05,3.654424764401019e-06,-7.44841960185677e-05,6.02219448405782e-07,0.00028242493843379457,-0.0003281270795077896,0.24825400114059448,19.693445205688477,0.2998931109905243,-19.955781936645508,-0.4031272530555725,-2.4758944511413574,0.24112264811992645,0
2,0.0048062801361083984,-0.24825400114059448,-19.693445205688477,-0.2998931109905243,19.955781936645508,0.4031272530555725,2.4758944511413574,-0.24112264811992645,0.0,0.0,0.0,0.0,0.0,0.0,0.0,-0.2629021381813523,0.03504256247678318,-0.10232356381608075,0.1833063737863642,-0.1834239965991441,0.09351843746821381,-0.24285717328889822,1.2133069206162503,-0.22036133420467355,-0.00752815572508199,-2.6037606543156135,-0.10872301438247019,2.468182837859134,0.8264770196138749,1.2134413937687574,-0.2202432315892585,-0.0075118285948192216,-2.6038483821997875,-0.10888392708698907,2.4681821257803174,0.826474908251239,-0.00020784221417662182,-4.1111265808969074e-05,-3.654424764401019e-06,7.44841960185677e-05,-6.02219448405782e-07,-0.00028242493843379457,0.0003281270795077896,0.0,0.0,0.0,0.0,0.0,0.0,0.0,0.00013447315250703085,0.00011810261541506106,1.6327130262768462e-05,-8.772788417399369e-05,-0.00016091270451888684,-7.120788168002434e-07,-2.1113626358371107e-06,0.00020784221417662182,4.1111265808969074e-05,3.654424764401019e-06,-7.44841960185677e-05,6.02219448405782e-07,0.00028242493843379457,-0.0003281270795077896,0.24825400114059448,19.693445205688477,0.2998931109905243,-19.955781936645508,-0.4031272530555725,-2.4758944511413574,0.24112264811992645,0
3,0.00980377197265625,-0.24825400114059448,-19.693445205688477,-0.2998931109905243,19.955781936645508,0.3976340889930725,2.4630770683288574,-0.23471395671367645,0.0,0.0,0.0,0.0,0.0,0.0,0.0,-0.2629173552602141,0.03592588867944222,-0.10404298505961142,0.1823870170600151,-0.18294712491925053,0.09372771087162331,-0.24223231825803843,1.2133069206162503,-0.22036133420467374,-0.007527422257869208,-2.6037599655508297,-0.10872351844640883,2.468184301310478,0.8264772442634484,1.2134413937687574,-0.2202432315892585,-0.0075118285948192216,-2.6038483821997875,-0.10888392708698907,2.4681821257803174,0.826474908251239,-0.0004408160176203024,-0.00027219092077079864,-0.00023156553034622127,-0.00017891534119768377,4.800828862080218e-05,0.00020122477863866877,0.00011268338793108648,0.0,0.0,0.0,0.0,0.0,0.0,0.0,0.00013447315250703085,0.00011810261541525535,1.559366304998682e-05,-8.84166489578675e-05,-0.0001604086405802424,-2.175530160464234e-06,-2.3360122093363245e-06,0.0004408160176203024,0.00027219092077079864,0.00023156553034622127,0.00017891534119768377,-4.800828862080218e-05,-0.00020122477863866877,-0.00011268338793108648,0.24825400114059448,19.693445205688477,0.2998931109905243,-19.955781936645508,-0.3976340889930725,-2.4630770683288574,0.23471395671367645,0
4,0.014805316925048828,-0.24825400114059448,-19.693445205688477,-0.2998931109905243,19.955781936645508,0.3976340889930725,2.4630770683288574,-0.23471395671367645,0.0,0.0,0.0,0.0,0.0,0.0,0.0,-0.2629173552602141,0.03592588867944222,-0.10404298505961142,0.1823870170600151,-0.18294712491925053,0.09372771087162331,-0.24223231825803843,1.2133069206162503,-0.22036133420467374,-0.007527422257869208,-2.6037599655508297,-0.10872351844640883,2.468184301310478,0.8264772442634484,1.2134413937687574,-0.2202432315892585,-0.0075118285948192216,-2.6038483821997875,-0.10888392708698907,2.4681821257803174,0.826474908251239,-0.0004408160176203024,-0.00027219092077079864,-0.00023156553034622127,-0.00017891534119768377,4.800828862080218e-05,0.00020122477863866877,0.00011268338793108648,0.0,0.0,0.0,0.0,0.0,0.0,0.0,0.00013447315250703085,0.00011810261541525535,1.559366304998682e-05,-8.84166489578675e-05,-0.0001604086405802424,-2.175530160464234e-06,-2.3360122093363245e-06,0.0004408160176203024,0.00027219092077079864,0.00023156553034622127,0.00017891534119768377,-4.800828862080218e-05,-0.00020122477863866877,-0.00011268338793108648,0.24825400114059448,19.693445205688477,0.2998931109905243,-19.955781936645508,-0.3976340889930725,-2.4630770683288574,0.23471395671367645,0
5,0.019804000854492188,-0.2720577120780945,-19.669641494750977,-0.2998931109905243,19.955781936645508,0.4031272530555725,2.4694857597351074,-0.26217979192733765,0.0,0.0,0.0,0.0,0.0,0.0,0.0,-0.2619784742387354,0.03316340956664247,-0.10300627567417187,0.18726594226475954,-0.1835893143408789,0.09431263057764905,-0.24139690587497997,1.2133085910521055,-0.2203622917195568,-0.0075274193315817564,-2.6037606543117255,-0.1087225808186737,2.4681835513877353,0.8264758272763963,1.2134413937687574,-0.2202432315892585,-0.0075118285948192216,-2.6038483821997875,-0.10888392708698907,2.4681821257803174,0.826474908251239,-0.0003933483597846083,-0.0010176461296554878,0.00045590134232632314,0.0005812644246958118,-0.00012825665995207144,-0.00018069894087763323,0.0010509394528635408,0.0,0.0,0.0,0.0,0.0,0.0,0.0,0.0001328027166518364,0.00011906013029830409,1.5590736762534883e-05,-8.772788806199472e-05,-0.00016134626831537657,-1.4256074178931044e-06,-9.190251573087949e-07,0.0003933483597846083,0.0010176461296554878,-0.00045590134232632314,-0.0005812644246958118,0.00012825665995207144,0.00018069894087763323,-0.0010509394528635408,0.2720577120780945,19.669641494750977,0.2998931109905243,-19.955781936645508,-0.4031272530555725,-2.4694857597351074,0.26217979192733765,0
6,0.024817943572998047,-0.2720577120780945,-19.669641494750977,-0.2998931109905243,19.955781936645508,0.4031272530555725,2.4694857597351074,-0.26217979192733765,0.0,0.0,0.0,0.0,0.0,0.0,0.0,-0.2619784742387354,0.03316340956664247,-0.10300627567417187,0.18726594226475954,-0.1835893143408789,0.09431263057764905,-0.24139690587497997,1.2133085910521055,-0.2203622917195568,-0.0075274193315817564,-2.6037606543117255,-0.1087225808186737,2.4681835513877353,0.8264758272763963,1.2134413937687574,-0.2202432315892585,-0.0075118285948192216,-2.6038483821997875,-0.10888392708698907,2.4681821257803174,0.826474908251239,-0.0003933483597846083,-0.0010176461296554878,0.00045590134232632314,0.0005812644246958118,-0.00012825665995207144,-0.00018069894087763323,0.0010509394528635408,0.0,0.0,0.0,0.0,0.0,0.0,0.0,0.0001328027166518364,0.00011906013029830409,1.5590736762534883e-05,-8.772788806199472e-05,-0.00016134626831537657,-1.4256074178931044e-06,-9.190251573087949e-07,0.0003933483597846083,0.0010176461296554878,-0.00045590134232632314,-0.0005812644246958118,0.00012825665995207144,0.00018069894087763323,-0.0010509394528635408,0.2720577120780945,19.669641494750977,0.2998931109905243,-19.955781936645508,-0.4031272530555725,-2.4694857597351074,0.26217979192733765,0
7,0.029838085174560547,-0.2720577120780945,-19.693445205688477,-0.2998931109905243,19.983552932739258,0.4095359444618225,2.4566683769226074,-0.27591270208358765,0.0,0.0,0.0,0.0,0.0,0.0,0.0,-0.26650943562274615,0.03463931939550744,-0.10466195198632561,0.18475685622433438,-0.18428814298970367,0.0936545208359965,-0.24124623999645942,1.2133085910521055,-0.2203613342006493,-0.0075274193315652375,-2.6037626031574446,-0.10872798676632955,2.468185091825187,0.8264786427521558,1.2134413937687574,-0.2202432315892585,-0.0075118285948192216,-2.6038483821997875,-0.10888392708698907,2.4681821257803174,0.826474908251239,-0.0003608518995516996,-0.0006827607233673176,2.4785364423622383e-05,-0.000531913130635493,-0.0002466801230654518,0.0002991669408038081,0.0012789276462581932,0.0,0.0,0.0,0.0,0.0,0.0,0.0,0.0001328027166518364,0.00011810261139080791,1.559073674601598e-05,-8.577904234297051e-05,-0.00015594032065952002,-2.966044869712192e-06,-3.734500916729999e-06,0.0003608518995516996,0.0006827607233673176,-2.4785364423622383e-05,0.000531913130635493,0.0002466801230654518,-0.0002991669408038081,-0.0012789276462581932,0.2720577120780945,19.693445205688477,0.2998931109905243,-19.983552932739258,-0.4095359444618225,-2.4566683769226074,0.27591270208358765,0
8,0.03481698036193848,-0.2720577120780945,-19.693445205688477,-0.2998931109905243,19.983552932739258,0.4095359444618225,2.4566683769226074,-0.27591270208358765,0.0,0.0,0.0,0.0,0.0,0.0,0.0,-0.26650943562274615,0.03463931939550744,-0.10466195198632561,0.18475685622433438,-0.18428814298970367,0.0936545208359965,-0.24124623999645942,1.2133085910521055,-0.2203613342006493,-0.0075274193315652375,-2.6037626031574446,-0.10872798676632955,2.468185091825187,0.8264786427521558,1.2134413937687574,-0.2202432315892585,-0.0075118285948192216,-2.6038483821997875,-0.10888392708698907,2.4681821257803174,0.826474908251239,-0.0003608518995516996,-0.0006827607233673176,2.4785364423622383e-05,-0.000531913130635493,-0.0002466801230654518,0.0002991669408038081,0.0012789276462581932,0.0,0.0,0.0,0.0,0.0,0.0,0.0,0.0001328027166518364,0.00011810261139080791,1.559073674601598e-05,-8.577904234297051e-05,-0.00015594032065952002,-2.966044869712192e-06,-3.734500916729999e-06,0.0003608518995516996,0.0006827607233673176,-2.4785364423622383e-05,0.000531913130635493,0.0002466801230654518,-0.0002991669408038081,-0.0012789276462581932,0.2720577120780945,19.693445205688477,0.2998931109905243,-19.983552932739258,-0.4095359444618225,-2.4566683769226074,0.27591270208358765,0
9,0.03975987434387207,-0.2720577120780945,-19.745019912719727,-0.2998931109905243,19.955781936645508,0.4031272530555725,2.4566683769226074,-0.20724813640117645,0.0,0.0,0.0,0.0,0.0,0.0,0.0,-0.26756739621392045,0.03378933085011012,-0.10193583641527612,0.18440216063974282,-0.18432165576014709,0.09358372558084407,-0.24144550527081504,1.2133085910521055,-0.22035763582205753,-0.007527419439792904,-2.6037606543156135,-0.10872695489633961,2.468184974249779,0.8264697179808035,1.2134413937687574,-0.2202432315892585,-0.0075118285948192216,-2.6038483821997875,-0.10888392708698907,2.4681821257803174,0.826474908251239,0.000378075139644301,0.0005947388275425352,-0.0004107020130928179,1.6827478172269748e-05,-0.00021238476668774455,0.00038452973397285373,-0.0016757448403976573,0.0,0.0,0.0,0.0,0.0,0.0,0.0,0.0001328027166518364,0.00011440423279904244,1.559084497368239e-05,-8.772788417399369e-05,-0.00015697219064945978,-2.848469461635972e-06,5.190270435551092e-06,-0.000378075139644301,-0.0005947388275425352,0.0004107020130928179,-1.6827478172269748e-05,0.00021238476668774455,-0.00038452973397285373,0.0016757448403976573,0.2720577120780945,19.745019912719727,0.2998931109905243,-19.955781936645508,-0.4031272530555725,-2.4566683769226074,0.20724813640117645,0
10,0.04481649398803711,-0.2720577120780945,-19.745019912719727,-0.2998931109905243,19.955781936645508,0.4031272530555725,2.4566683769226074,-0.20724813640117645,0.0,0.0,0.0,0.0,0.0,0.0,0.0,-0.26756739621392045,0.03378933085011012,-0.10193583641527612,0.18440216063974282,-0.18432165576014709,0.09358372558084407,-0.24144550527081504,1.2133085910521055,-0.22035763582205753,-0.007527419439792904,-2.6037606543156135,-0.10872695489633961,2.468184974249779,0.8264697179808035,1.2134413937687574,-0.2202432315892585,-0.0075118285948192216,-2.6038483821997875,-0.10888392708698907,2.4681821257803174,0.826474908251239,0.000378075139644301,0.0005947388275425352,-0.0004107020130928179,1.6827478172269748e-05,-0.00021238476668774455,0.00038452973397285373,-0.0016757448403976573,0.0,0.0,0.0,0.0,0.0,0.0,0.0,0.0001328027166518364,0.00011440423279904244,1.559084497368239e-05,-8.772788417399369e-05,-0.00015697219064945978,-2.848469461635972e-06,5.190270435551092e-06,-0.000378075139644301,-0.0005947388275425352,0.0004107020130928179,-1.6827478172269748e-05,0.00021238476668774455,-0.00038452973397285373,0.0016757448403976573,0.2720577120780945,19.745019912719727,0.2998931109905243,-19.955781936645508,-0.4031272530555725,-2.4566683769226074,0.20724813640117645,0
11,0.04983019828796387,-0.24825400114059448,-19.717248916625977,-0.2998931109905243,19.983552932739258,0.4031272530555725,2.4630770683288574,-0.25485557317733765,0.0,0.0,0.0,0.0,0.0,0.0,0.0,-0.26419780802537063,0.037108417772022624,-0.09905895006465937,0.18276316566504333,-0.1846148177643719,0.0936169607158386,-0.24165657915557212,1.213306946126057,-0.22035966376837193,-0.007527419331565848,-2.6037626031574446,-0.10872364300587056,2.468184379748357,0.826474852158812,1.2134413937687574,-0.2202432315892585,-0.0075118285948192216,-2.6038483821997875,-0.10888392708698907,2.4681821257803174,0.826474908251239,-0.00029691610992859963,0.0005199372632885232,0.00043548336810685936,-0.0003209985121208761,2.835959357089121e-05,-7.858123412853364e-05,0.0005378703614005692,0.0,0.0,0.0,0.0,0.0,0.0,0.0,0.0001344476427003194,0.00011643217911344594,1.5590736746626602e-05,-8.577904234297051e-05,-0.00016028408111851133,-2.2539680397670736e-06,5.609242703652484e-08,0.00029691610992859963,-0.0005199372632885232,-0.00043548336810685936,0.0003209985121208761,-2.835959357089121e-05,7.858123412853364e-05,-0.0005378703614005692,0.24825400114059448,19.717248916625977,0.2998931109905243,-19.983552932739258,-0.4031272530555725,-2.4630770683288574,0.25485557317733765,0
12,0.054828643798828125,-0.24825400114059448,-19.717248916625977,-0.2998931109905243,19.983552932739258,0.4031272530555725,2.4630770683288574,-0.25485557317733765,0.0,0.0,0.0,0.0,0.0,0.0,0.0,-0.26419780802537063,0.037108417772022624,-0.09905895006465937,0.18276316566504333,-0.1846148177643719,0.0936169607158386,-0.24165657915557212,1.213306946126057,-0.22035966376837193,-0.007527419331565848,-2.6037626031574446,-0.10872364300587056,2.468184379748357,0.826474852158812,1.2134413937687574,-0.2202432315892585,-0.0075118285948192216,-2.6038483821997875,-0.10888392708698907,2.4681821257803174,0.826474908251239,-0.00029691610992859963,0.0005199372632885232,0.00043548336810685936,-0.0003209985121208761,2.835959357089121e-05,-7.858123412853364e-05,0.0005378703614005692,0.0,0.0,0.0,0.0,0.0,0.0,0.0,0.0001344476427003194,0.00011643217911344594,1.5590736746626602e-05,-8.577904234297051e-05,-0.00016028408111851133,-2.2539680397670736e-06,5.609242703652484e-08,0.00029691610992859963,-0.0005199372632885232,-0.00043548336810685936,0.0003209985121208761,-2.835959357089121e-05,7.858123412853364e-05,-0.0005378703614005692,0.24825400114059448,19.717248916625977,0.2998931109905243,-19.983552932739258,-0.4031272530555725,-2.4630770683288574,0.25485557317733765,0
13,0.0598452091217041,-0.2720577120780945,-19.693445205688477,-0.2721221148967743,19.955781936645508,0.4095359444618225,2.4630770683288574,-0.25485557317733765,0.0,0.0,0.0,0.0,0.0,0.0,0.0,-0.2696442520013869,0.03423768201001716,-0.10374596781476199,0.18695906854087627,-0.18412631712671715,0.09345324505421596,-0.24241523357361855,1.2133085910522494,-0.22036133420467374,-0.007529368498079378,-2.6037606543156135,-0.1087248408242553,2.4681842620114507,0.8264791289872744,1.2134413937687574,-0.2202432315892585,-0.0075118285948192216,-2.6038483821997875,-0.10888392708698907,2.4681821257803174,0.826474908251239,4.24332097459524e-05,-7.502748691717433e-05,-0.0009058846005538964,0.0004290395690293424,-0.0004960716740488488,3.845753758092721e-05,0.000300578486495751,0.0,0.0,0.0,0.0,0.0,0.0,0.0,0.0001328027165079515,0.00011810261541525535,1.753990326015635e-05,-8.772788417399369e-05,-0.00015908626273376802,-2.1362311333206208e-06,-4.220736035343009e-06,-4.24332097459524e-05,7.502748691717433e-05,0.0009058846005538964,-0.0004290395690293424,0.0004960716740488488,-3.845753758092721e-05,-0.000300578486495751,0.2720577120780945,19.693445205688477,0.2721221148967743,-19.955781936645508,-0.4095359444618225,-2.4630770683288574,0.25485557317733765,0
14,0.06484222412109375,-0.2720577120780945,-19.693445205688477,-0.2721221148967743,19.955781936645508,0.4095359444618225,2.4630770683288574,-0.25485557317733765,0.0,0.0,0.0,0.0,0.0,0.0,0.0,-0.2696442520013869,0.03423768201001716,-0.10374596781476199,0.18695906854087627,-0.18412631712671715,0.09345324505421596,-0.24241523357361855,1.2133085910522494,-0.22036133420467374,-0.007529368498079378,-2.6037606543156135,-0.1087248408242553,2.4681842620114507,0.8264791289872744,1.2134413937687574,-0.2202432315892585,-0.0075118285948192216,-2.6038483821997875,-0.10888392708698907,2.4681821257803174,0.826474908251239,4.24332097459524e-05,-7.502748691717433e-05,-0.0009058846005538964,0.0004290395690293424,-0.0004960716740488488,3.845753758092721e-05,0.000300578486495751,0.0,0.0,0.0,0.0,0.0,0.0,0.0,0.0001328027165079515,0.00011810261541525535,1.753990326015635e-05,-8.772788417399369e-05,-0.00015908626273376802,-2.1362311333206208e-06,-4.220736035343009e-06,-4.24332097459524e-05,7.502748691717433e-05,0.0009058846005538964,-0.0004290395690293424,0.0004960716740488488,-3.845753758092721e-05,-0.000300578486495751,0.2720577120780945,19.693445205688477,0.2721221148967743,-19.955781936645508,-0.4095359444618225,-2.4630770683288574,0.25485557317733765,0
15,0.06983590126037598,-0.2998287081718445,-19.745019912719727,-0.2998931109905243,19.983552932739258,0.4214377999305725,2.4694857597351074,-0.22098104655742645,0.0,0.0,0.0,0.0,0.0,0.0,0.0,-0.2672900799078646,0.032133489297220895,-0.10487007252366246,0.19127123293428291,-0.1843682086050123,0.09347928735248255,-0.2432722253750006,1.2133105398939368,-0.22035763582205756,-0.00752741933156707,-2.6037626031574446,-0.10872825795789406,2.4681867288483517,0.8264714929172708,1.2134413937687574,-0.2202432315892585,-0.0075118285948192216,-2.6038483821997875,-0.10888392708698907,2.4681821257803174,0.826474908251239,0.0006301937892946429,0.0008122191229918784,-0.000434518442023941,-0.0001236981364168652,-0.0007219252133992412,-4.6376793264168137e-05,-0.0010238534866331395,0.0,0.0,0.0,0.0,0.0,0.0,0.0,0.0001308538748205912,0.0001144042327990702,1.5590736747848714e-05,-8.577904234297051e-05,-0.00015566912909500963,-4.603068034292335e-06,3.415333968193046e-06,-0.0006301937892946429,-0.0008122191229918784,0.000434518442023941,0.0001236981364168652,0.0007219252133992412,4.6376793264168137e-05,0.0010238534866331395,0.2998287081718445,19.745019912719727,0.2998931109905243,-19.983552932739258,-0.4214377999305725,-2.4694857597351074,0.22098104655742645,0
16,0.07481789588928223,-0.2998287081718445,-19.745019912719727,-0.2998931109905243,19.983552932739258,0.4214377999305725,2.4694857597351074,-0.22098104655742645,0.0,0.0,0.0,0.0,0.0,0.0,0.0,-0.2672900799078646,0.032133489297220895,-0.10487007252366246,0.19127123293428291,-0.1843682086050123,0.09347928735248255,-0.2432722253750006,1.2133105398939368,-0.22035763582205756,-0.00752741933156707,-2.6037626031574446,-0.10872825795789406,2.4681867288483517,0.8264714929172708,1.2134413937687574,-0.2202432315892585,-0.0075118285948192216,-2.6038483821997875,-0.10888392708698907,2.4681821257803174,0.826474908251239,0.0006301937892946429,0.0008122191229918784,-0.000434518442023941,-0.0001236981364168652,-0.0007219252133992412,-4.6376793264168137e-05,-0.0010238534866331395,0.0,0.0,0.0,0.0,0.0,0.0,0.0,0.0001308538748205912,0.0001144042327990702,1.5590736747848714e-05,-8.577904234297051e-05,-0.00015566912909500963,-4.603068034292335e-06,3.415333968193046e-06,-0.0006301937892946429,-0.0008122191229918784,0.000434518442023941,0.0001236981364168652,0.0007219252133992412,4.6376793264168137e-05,0.0010238534866331395,0.2998287081718445,19.745019912719727,0.2998931109905243,-19.983552932739258,-0.4214377999305725,-2.4694857597351074,0.22098104655742645,0
17,0.07982921600341797,-0.2720577120780945,-19.669641494750977,-0.2998931109905243,19.983552932739258,0.4031272530555725,2.4694857597351074,-0.21457235515117645,0.0,0.0,0.0,0.0,0.0,0.0,0.0,-0.2663272679351151,0.03624346511185598,-0.10621632482295561,0.18820347622230543,-0.1837378249091687,0.09321760535487918,-0.2438047881347426,1.2133085910521055,-0.22036300431454778,-0.0075274193315652375,-2.603762603122452,-0.10872720872326234,2.4681867288662964,0.8264746544761594,1.2134413937687574,-0.2202432315892585,-0.0075118285948192216,-2.6038483821997875,-0.10888392708698907,2.4681821257803174,0.826474908251239,-0.00013649933358483683,-0.001009057127537346,-0.0005617757069530723,-0.0005088573310348293,9.872583656358384e-05,-0.00017870912207593843,-0.0011015595166238201,0.0,0.0,0.0,0.0,0.0,0.0,0.0,0.0001328027166518364,0.00011977272528929106,1.559073674601598e-05,-8.577907733542389e-05,-0.00015671836372672943,-4.603085979049126e-06,2.5377507961721335e-07,0.00013649933358483683,0.001009057127537346,0.0005617757069530723,0.0005088573310348293,-9.872583656358384e-05,0.00017870912207593843,0.0011015595166238201,0.2720577120780945,19.669641494750977,0.2998931109905243,-19.983552932739258,-0.4031272530555725,-2.4694857597351074,0.21457235515117645,0
18,0.08484101295471191,-0.2720577120780945,-19.669641494750977,-0.2998931109905243,19.983552932739258,0.4031272530555725,2.4694857597351074,-0.21457235515117645,0.0,0.0,0.0,0.0,0.0,0.0,0.0,-0.2663272679351151,0.03624346511185598,-0.10621632482295561,0.18820347622230543,-0.1837378249091687,0.09321760535487918,-0.2438047881347426,1.2133085910521055,-0.22036300431454778,-0.0075274193315652375,-2.603762603122452,-0.10872720872326234,2.4681867288662964,0.8264746544761594,1.2134413937687574,-0.2202432315892585,-0.0075118285948192216,-2.6038483821997875,-0.10888392708698907,2.4681821257803174,0.826474908251239,-0.00013649933358483683,-0.001009057127537346,-0.0005617757069530723,-0.0005088573310348293,9.872583656358384e-05,-0.00017870912207593843,-0.0011015595166238201,0.0,0.0,0.0,0.0,0.0,0.0,0.0,0.0001328027166518364,0.00011977272528929106,1.559073674601598e-05,-8.577907733542389e-05,-0.00015671836372672943,-4.603085979049126e-06,2.5377507961721335e-07,0.00013649933358483683,0.001009057127537346,0.0005617757069530723,0.0005088573310348293,-9.872583656358384e-05,0.00017870912207593843,0.0011015595166238201,0.2720577120780945,19.669641494750977,0.2998931109905243,-19.983552932739258,-0.4031272530555725,-2.4694857597351074,0.21457235515117645,0
19,0.0898280143737793,-0.22445029020309448,-19.693445205688477,-0.2998931109905243,19.955781936645508,0.3857322335243225,2.4566683769226074,-0.25485557317733765,0.0,0.0,0.0,0.0,0.0,0.0,0.0,-0.2653064548751351,0.03738677395083489,-0.10627186996644244,0.18389347416914162,-0.18303400909745815,0.0933031857084299,-0.2437400770783251,1.2133073164747472,-0.2203613342046719,-0.0075274193315652375,-2.6037606543156135,-0.10872397508928895,2.4681849871875063,0.826474850567029,1.2134413937687574,-0.2202432315892585,-0.0075118285948192216,-2.6038483821997875,-0.10888392708698907,2.4681821257803174,0.826474908251239,-0.0009332472692559979,-0.00048366103918491614,-0.00023563542103865505,-7.116758427688842e-05,0.0008360950871971849,0.0004818167256970255,0.0008872944022593251,0.0,0.0,0.0,0.0,0.0,0.0,0.0,0.00013407729401015978,0.00011810261541342348,1.559073674601598e-05,-8.772788417399369e-05,-0.00015995199770012236,-2.8614071889698778e-06,5.7684210075237274e-08,0.0009332472692559979,0.00048366103918491614,0.00023563542103865505,7.116758427688842e-05,-0.0008360950871971849,-0.0004818167256970255,-0.0008872944022593251,0.22445029020309448,19.693445205688477,0.2998931109905243,-19.955781936645508,-0.3857322335243225,-2.4566683769226074,0.25485557317733765,0
20,0.09483146667480469,-0.22445029020309448,-19.693445205688477,-0.2998931109905243,19.955781936645508,0.3857322335243225,2.4566683769226074,-0.25485557317733765,0.0,0.0,0.0,0.0,0.0,0.0,0.0,-0.2653064548751351,0.03738677395083489,-0.10627186996644244,0.18389347416914162,-0.18303400909745815,0.0933031857084299,-0.2437400770783251,1.2133073164747472,-0.2203613342046719,-0.0075274193315652375,-2.6037606543156135,-0.10872397508928895,2.4681849871875063,0.826474850567029,1.2134413937687574,-0.2202432315892585,-0.0075118285948192216,-2.6038483821997875,-0.10888392708698907,2.4681821257803174,0.826474908251239,-0.0009332472692559979,-0.00048366103918491614,-0.00023563542103865505,-7.116758427688842e-05,0.0008360950871971849,0.0004818167256970255,0.0008872944022593251,0.0,0.0,0.0,0.0,0.0,0.0,0.0,0.00013407729401015978,0.00011810261541342348,1.559073674601598e-05,-8.772788417399369e-05,-0.00015995199770012236,-2.8614071889698778e-06,5.7684210075237274e-08,0.0009332472692559979,0.00048366103918491614,0.00023563542103865505,7.116758427688842e-05,-0.0008360950871971849,-0.0004818167256970255,-0.0008872944022593251,0.22445029020309448,19.693445205688477,0.2998931109905243,-19.955781936645508,-0.3857322335243225,-2.4566683769226074,0.25485557317733765,0
21,0.09982895851135254,-0.22445029020309448,-19.693445205688477,-0.2998931109905243,19.955781936645508,0.3857322335243225,2.4566683769226074,-0.25485557317733765,0.0,0.0,0.0,0.0,0.0,0.0,0.0,-0.2653064548751351,0.03738677395083489,-0.10627186996644244,0.18389347416914162,-0.18303400909745815,0.0933031857084299,-0.2437400770783251,1.2133073164747472,-0.2203613342046719,-0.0075274193315652375,-2.6037606543156135,-0.10872397508928895,2.4681849871875063,0.826474850567029,1.2134413937687574,-0.2202432315892585,-0.0075118285948192216,-2.6038483821997875,-0.10888392708698907,2.4681821257803174,0.826474908251239,-0.0009332472692559979,-0.00048366103918491614,-0.00023563542103865505,-7.116758427688842e-05,0.0008360950871971849,0.0004818167256970255,0.0008872944022593251,0.0,0.0,0.0,0.0,0.0,0.0,0.0,0.00013407729401015978,0.00011810261541342348,1.559073674601598e-05,-8.772788417399369e-05,-0.00015995199770012236,-2.8614071889698778e-06,5.7684210075237274e-08,0.0009332472692559979,0.00048366103918491614,0.00023563542103865505,7.116758427688842e-05,-0.0008360950871971849,-0.0004818167256970255,-0.0008872944022593251,0.22445029020309448,19.693445205688477,0.2998931109905243,-19.955781936645508,-0.3857322335243225,-2.4566683769226074,0.25485557317733765,0
22,0.1048421859741211,-0.22445029020309448,-19.693445205688477,-0.2998931109905243,19.955781936645508,0.3857322335243225,2.4566683769226074,-0.25485557317733765,0.0,0.0,0.0,0.0,0.0,0.0,0.0,-0.2653064548751351,0.03738677395083489,-0.10627186996644244,0.18389347416914162,-0.18303400909745815,0.0933031857084299,-0.2437400770783251,1.2133073164747472,-0.2203613342046719,-0.0075274193315652375,-2.6037606543156135,-0.10872397508928895,2.4681849871875063,0.826474850567029,1.2134413937687574,-0.2202432315892585,-0.0075118285948192216,-2.6038483821997875,-0.10888392708698907,2.4681821257803174,0.826474908251239,-0.0009332472692559979,-0.00048366103918491614,-0.00023563542103865505,-7.116758427688842e-05,0.0008360950871971849,0.0004818167256970255,0.0008872944022593251,0.0,0.0,0.0,0.0,0.0,0.0,0.0,0.00013407729401015978,0.00011810261541342348,1.559073674601598e-05,-8.772788417399369e-05,-0.00015995199770012236,-2.8614071889698778e-06,5.7684210075237274e-08,0.0009332472692559979,0.00048366103918491614,0.00023563542103865505,7.116758427688842e-05,-0.0008360950871971849,-0.0004818167256970255,-0.0008872944022593251,0.22445029020309448,19.693445205688477,0.2998931109905243,-19.955781936645508,-0.3857322335243225,-2.4566683769226074,0.25485557317733765,0
23,0.10982942581176758,-0.24825400114059448,-19.768823623657227,-0.3236968219280243,19.931978225708008,0.4095359444618225,2.4694857597351074,-0.27591270208358765,0.0,0.0,0.0,0.0,0.0,0.0,0.0,-0.26573397684208505,0.033232021929548945,-0.10805415015617578,0.18211046050706073,-0.18252075648482208,0.09401740448771724,-0.24328881454038215,1.2133069206279146,-0.22035595659676566,-0.007525748895709975,-2.603758983879758,-0.1087275663626098,2.4681846095721665,0.826478773786099,1.2134413937687574,-0.2202432315892585,-0.0075118285948192216,-2.6038483821997875,-0.10888392708698907,2.4681821257803174,0.826474908251239,-0.00045220107158551914,0.001511041782399827,0.0004625163445313017,0.0004147706042801406,-0.00043994360958850184,-0.0002154928066638136,0.0014119109814160335,0.0,0.0,0.0,0.0,0.0,0.0,0.0,0.0001344731408428057,0.00011272500750716952,1.3920300890753017e-05,-8.939832002941017e-05,-0.00015636072437927306,-2.4837918490838717e-06,-3.865534859981423e-06,0.00045220107158551914,-0.001511041782399827,-0.0004625163445313017,-0.0004147706042801406,0.00043994360958850184,0.0002154928066638136,-0.0014119109814160335,0.24825400114059448,19.768823623657227,0.3236968219280243,-19.931978225708008,-0.4095359444618225,-2.4694857597351074,0.27591270208358765,0
24,0.11484742164611816,-0.24825400114059448,-19.768823623657227,-0.3236968219280243,19.931978225708008,0.4095359444618225,2.4694857597351074,-0.27591270208358765,0.0,0.0,0.0,0.0,0.0,0.0,0.0,-0.26573397684208505,0.033232021929548945,-0.10805415015617578,0.18211046050706073,-0.18252075648482208,0.09401740448771724,-0.24328881454038215,1.2133069206279146,-0.22035595659676566,-0.007525748895709975,-2.603758983879758,-0.1087275663626098,2.4681846095721665,0.826478773786099,1.2134413937687574,-0.2202432315892585,-0.0075118285948192216,-2.6038483821997875,-0.10888392708698907,2.4681821257803174,0.826474908251239,-0.00045220107158551914,0.001511041782399827,0.0004625163445313017,0.0004147706042801406,-0.00043994360958850184,-0.0002154928066638136,0.0014119109814160335,0.0,0.0,0.0,0.0,0.0,0.0,0.0,0.0001344731408428057,0.00011272500750716952,1.3920300890753017e-05,-8.939832002941017e-05,-0.00015636072437927306,-2.4837918490838717e-06,-3.865534859981423e-06,0.00045220107158551914,-0.001511041782399827,-0.0004625163445313017,-0.0004147706042801406,0.00043994360958850184,0.0002154928066638136,-0.0014119109814160335,0.24825400114059448,19.768823623657227,0.3236968219280243,-19.931978225708008,-0.4095359444618225,-2.4694857597351074,0.27591270208358765,0
25,0.11982917785644531,-0.24825400114059448,-19.669641494750977,-0.2998931109905243,19.955781936645508,0.4031272530555725,2.4758944511413574,-0.25485557317733765,0.0,0.0,0.0,0.0,0.0,0.0,0.0,-0.26369917603620285,0.034488282397097586,-0.10604728566238568,0.1797130118985502,-0.18264905607479703,0.09411751640876667,-0.2436687773669617,1.2133076093810344,-0.22036300464003283,-0.0075274193315652375,-2.6037606543156135,-0.10872620816129572,2.4681828393166723,0.8264784351143852,1.2134413937687574,-0.2202432315892585,-0.0075118285948192216,-2.6038483821997875,-0.10888392708698907,2.4681821257803174,0.826474908251239,-0.0001274174307614983,-0.0007387329133805192,-0.00026281034714910117,3.319101858747169e-05,2.436438208545397e-05,-0.00037497630817129513,0.00048154845168523966,0.0,0.0,0.0,0.0,0.0,0.0,0.0,0.000133784387722935,0.00011977305077434663,1.559073674601598e-05,-8.772788417399369e-05,-0.00015771892569335644,-7.13536354890465e-07,-3.526863146197101e-06,0.0001274174307614983,0.0007387329133805192,0.00026281034714910117,-3.319101858747169e-05,-2.436438208545397e-05,0.00037497630817129513,-0.00048154845168523966,0.24825400114059448,19.669641494750977,0.2998931109905243,-19.955781936645508,-0.4031272530555725,-2.4758944511413574,0.25485557317733765,0
26,0.12484097480773926,-0.24825400114059448,-19.669641494750977,-0.2998931109905243,19.955781936645508,0.4031272530555725,2.4758944511413574,-0.25485557317733765,0.0,0.0,0.0,0.0,0.0,0.0,0.0,-0.26369917603620285,0.034488282397097586,-0.10604728566238568,0.1797130118985502,-0.18264905607479703,0.09411751640876667,-0.2436687773669617,1.2133076093810344,-0.22036300464003283,-0.0075274193315652375,-2.6037606543156135,-0.10872620816129572,2.4681828393166723,0.8264784351143852,1.2134413937687574,-0.2202432315892585,-0.0075118285948192216,-2.6038483821997875,-0.10888392708698907,2.4681821257803174,0.826474908251239,-0.0001274174307614983,-0.0007387329133805192,-0.00026281034714910117,3.319101858747169e-05,2.436438208545397e-05,-0.00037497630817129513,0.00048154845168523966,0.0,0.0,0.0,0.0,0.0,0.0,0.0,0.000133784387722935,0.00011977305077434663,1.559073674601598e-05,-8.772788417399369e-05,-0.00015771892569335644,-7.13536354890465e-07,-3.526863146197101e-06,0.0001274174307614983,0.0007387329133805192,0.00026281034714910117,-3.319101858747169e-05,-2.436438208545397e-05,0.00037497630817129513,-0.00048154845168523966,0.24825400114059448,19.669641494750977,0.2998931109905243,-19.955781936645508,-0.4031272530555725,-2.4758944511413574,0.25485557317733765,0
27,0.12982773780822754,-0.24825400114059448,-19.693445205688477,-0.2998931109905243,20.007356643676758,0.4031272530555725,2.4630770683288574,-0.20724813640117645,0.0,0.0,0.0,0.0,0.0,0.0,0.0,-0.26129999453923913,0.02852492736557213,-0.10484402638425198,0.18155437427451385,-0.18288715272454267,0.0947504575632542,-0.2443149166392273,1.2133069206201383,-0.22036062222413508,-0.0075297862706419074,-2.6037642735933,-0.10872731381527939,2.4681842663714453,0.8264696843996777,1.2134413937687574,-0.2202432315892585,-0.0075118285948192216,-2.6038483821997875,-0.10888392708698907,2.4681821257803174,0.826474908251239,-0.00011076282669590534,-0.00043387786135839194,3.36713079734803e-05,-0.0012312287934189204,-0.00020755145922342173,3.480867653659213e-05,-0.0017341230636696168,0.0,0.0,0.0,0.0,0.0,0.0,0.0,0.00013447314861902981,0.00011739063487659074,1.7957675822685877e-05,-8.410860648755403e-05,-0.00015661327170968242,-2.140591127908209e-06,5.223851561320103e-06,0.00011076282669590534,0.00043387786135839194,-3.36713079734803e-05,0.0012312287934189204,0.00020755145922342173,-3.480867653659213e-05,0.0017341230636696168,0.24825400114059448,19.693445205688477,0.2998931109905243,-20.007356643676758,-0.4031272530555725,-2.4630770683288574,0.20724813640117645,0
28,0.1348404884338379,-0.24825400114059448,-19.693445205688477,-0.2998931109905243,20.007356643676758,0.4031272530555725,2.4630770683288574,-0.20724813640117645,0.0,0.0,0.0,0.0,0.0,0.0,0.0,-0.26129999453923913,0.02852492736557213,-0.10484402638425198,0.18155437427451385,-0.18288715272454267,0.0947504575632542,-0.2443149166392273,1.2133069206201383,-0.22036062222413508,-0.0075297862706419074,-2.6037642735933,-0.10872731381527939,2.4681842663714453,0.8264696843996777,1.2134413937687574,-0.2202432315892585,-0.0075118285948192216,-2.6038483821997875,-0.10888392708698907,2.4681821257803174,0.826474908251239,-0.00011076282669590534,-0.00043387786135839194,3.36713079734803e-05,-0.0012312287934189204,-0.00020755145922342173,3.480867653659213e-05,-0.0017341230636696168,0.0,0.0,0.0,0.0,0.0,0.0,0.0,0.00013447314861902981,0.00011739063487659074,1.7957675822685877e-05,-8.410860648755403e-05,-0.00015661327170968242,-2.140591127908209e-06,5.223851561320103e-06,0.00011076282669590534,0.00043387786135839194,-3.36713079734803e-05,0.0012312287934189204,0.00020755145922342173,-3.480867653659213e-05,0.0017341230636696168,0.24825400114059448,19.693445205688477,0.2998931109905243,-20.007356643676758,-0.4031272530555725,-2.4630770683288574,0.20724813640117645,0
29,0.1398296356201172,-0.22445029020309448,-19.693445205688477,-0.2998931109905243,19.955781936645508,0.4031272530555725,2.4694857597351074,-0.21457235515117645,0.0,0.0,0.0,0.0,0.0,0.0,0.0,-0.264566874770905,0.031216622502386035,-0.10866856134116538,0.17818024376796854,-0.18334092485983491,0.09339392773902626,-0.2444772556701424,1.213305250180395,-0.2203613341926163,-0.007527419371649558,-2.6037606514811906,-0.10872376519151027,2.4681835513875874,0.8264714516587455,1.2134413937687574,-0.2202432315892585,-0.0075118285948192216,-2.6038483821997875,-0.10888392708698907,2.4681821257803174,0.826474908251239,-0.0009845950217414845,-0.0003159871207949407,-4.0703851231887596e-05,2.824861694130447e-05,-0.00016518753358748303,-8.412348512318634e-05,-0.0013789070315038932,0.0,0.0,0.0,0.0,0.0,0.0,0.0,0.00013614358836244733,0.00011810260335781697,1.559077683033639e-05,-8.773071859691228e-05,-0.0001601618954788081,-1.4256072700113975e-06,3.456592493567001e-06,0.0009845950217414845,0.0003159871207949407,4.0703851231887596e-05,-2.824861694130447e-05,0.00016518753358748303,8.412348512318634e-05,0.0013789070315038932,0.22445029020309448,19.693445205688477,0.2998931109905243,-19.955781936645508,-0.4031272530555725,-2.4694857597351074,0.21457235515117645,0
30,0.14484119415283203,-0.22445029020309448,-19.693445205688477,-0.2998931109905243,19.955781936645508,0.4031272530555725,2.4694857597351074,-0.21457235515117645,0.0,0.0,0.0,0.0,0.0,0.0,0.0,-0.264566874770905,0.031216622502386035,-0.10866856134116538,0.17818024376796854,-0.18334092485983491,0.09339392773902626,-0.2444772556701424,1.213305250180395,-0.2203613341926163,-0.007527419371649558,-2.6037606514811906,-0.10872376519151027,2.4681835513875874,0.8264714516587455,1.2134413937687574,-0.2202432315892585,-0.0075118285948192216,-2.6038483821997875,-0.10888392708698907,2.4681821257803174,0.826474908251239,-0.0009845950217414845,-0.0003159871207949407,-4.0703851231887596e-05,2.824861694130447e-05,-0.00016518753358748303,-8.412348512318634e-05,-0.0013789070315038932,0.0,0.0,0.0,0.0,0.0,0.0,0.0,0.00013614358836244733,0.00011810260335781697,1.559077683033639e-05,-8.773071859691228e-05,-0.0001601618954788081,-1.4256072700113975e-06,3.456592493567001e-06,0.0009845950217414845,0.0003159871207949407,4.0703851231887596e-05,-2.824861694130447e-05,0.00016518753358748303,8.412348512318634e-05,0.0013789070315038932,0.22445029020309448,19.693445205688477,0.2998931109905243,-19.955781936645508,-0.4031272530555725,-2.4694857597351074,0.21457235515117645,0
31,0.14982986450195312,-0.2720577120780945,-19.717248916625977,-0.2721221148967743,19.983552932739258,0.4031272530555725,2.4758944511413574,-0.22098104655742645,0.0,0.0,0.0,0.0,0.0,0.0,0.0,-0.26113619235765195,0.03573402827441018,-0.10517086420455489,0.1762840389949938,-0.18399126500272528,0.09266678330391039,-0.24509039649170913,1.213308667581526,-0.22035965497938184,-0.007529368173396386,-2.60376260314578,-0.10872573500536313,2.468182837875086,0.8264757967200372,1.2134413937687574,-0.2202432315892585,-0.0075118285948192216,-2.6038483821997875,-0.10888392708698907,2.4681821257803174,0.826474908251239,0.00046547238707887257,0.0004583236060579023,-0.00047923696161320987,-0.0006692552015715058,3.3221538454363273e-06,-0.00027932210654274444,-0.0010319710164455563,0.0,0.0,0.0,0.0,0.0,0.0,0.0,0.00013272618723148,0.00011642339012335468,1.7539578577164053e-05,-8.57790540074177e-05,-0.00015819208162594356,-7.120947684846612e-07,-8.88468798199149e-07,-0.00046547238707887257,-0.0004583236060579023,0.00047923696161320987,0.0006692552015715058,-3.3221538454363273e-06,0.00027932210654274444,0.0010319710164455563,0.2720577120780945,19.717248916625977,0.2721221148967743,-19.983552932739258,-0.4031272530555725,-2.4758944511413574,0.22098104655742645,0
32,0.1548316478729248,-0.2720577120780945,-19.717248916625977,-0.2721221148967743,19.983552932739258,0.4031272530555725,2.4758944511413574,-0.22098104655742645,0.0,0.0,0.0,0.0,0.0,0.0,0.0,-0.26113619235765195,0.03573402827441018,-0.10517086420455489,0.1762840389949938,-0.18399126500272528,0.09266678330391039,-0.24509039649170913,1.213308667581526,-0.22035965497938184,-0.007529368173396386,-2.60376260314578,-0.10872573500536313,2.468182837875086,0.8264757967200372,1.2134413937687574,-0.2202432315892585,-0.0075118285948192216,-2.6038483821997875,-0.10888392708698907,2.4681821257803174,0.826474908251239,0.00046547238707887257,0.0004583236060579023,-0.00047923696161320987,-0.0006692552015715058,3.3221538454363273e-06,-0.00027932210654274444,-0.0010319710164455563,0.0,0.0,0.0,0.0,0.0,0.0,0.0,0.00013272618723148,0.00011642339012335468,1.7539578577164053e-05,-8.57790540074177e-05,-0.00015819208162594356,-7.120947684846612e-07,-8.88468798199149e-07,-0.00046547238707887257,-0.0004583236060579023,0.00047923696161320987,0.0006692552015715058,-3.3221538454363273e-06,0.00027932210654274444,0.0010319710164455563,0.2720577120780945,19.717248916625977,0.2721221148967743,-19.983552932739258,-0.4031272530555725,-2.4758944511413574,0.22098104655742645,0
33,0.1598193645477295,-0.24825400114059448,-19.693445205688477,-0.2998931109905243,19.983552932739258,0.4095359444618225,2.4758944511413574,-0.26217979192733765,0.0,0.0,0.0,0.0,0.0,0.0,0.0,-0.25968724997526416,0.0291405588662273,-0.10048226998749848,0.18313924280917077,-0.18404214011344014,0.09394561117506557,-0.24566108814666815,1.2133069206166822,-0.22036133322802007,-0.0075274193315652375,-2.6037626031574446,-0.10872684191303256,2.4681828423792966,0.8264771168989179,1.2134413937687574,-0.2202432315892585,-0.0075118285948192216,-2.6038483821997875,-0.10888392708698907,2.4681821257803174,0.826474908251239,-0.00042206826354549136,-0.0002119135135270721,0.0006160768171933276,-0.0005274230842300785,-0.00048543215726509135,-0.00045805768196594,0.000589284613962123,0.0,0.0,0.0,0.0,0.0,0.0,0.0,0.0001344731520751541,0.00011810163876158075,1.559073674601598e-05,-8.577904234297051e-05,-0.0001570851739565171,-7.165989792667915e-07,-2.208647678858533e-06,0.00042206826354549136,0.0002119135135270721,-0.0006160768171933276,0.0005274230842300785,0.00048543215726509135,0.00045805768196594,-0.000589284613962123,0.24825400114059448,19.693445205688477,0.2998931109905243,-19.983552932739258,-0.4095359444618225,-2.4758944511413574,0.26217979192733765,0
34,0.16484451293945312,-0.24825400114059448,-19.693445205688477,-0.2998931109905243,19.983552932739258,0.4095359444618225,2.4758944511413574,-0.26217979192733765,0.0,0.0,0.0,0.0,0.0,0.0,0.0,-0.25968724997526416,0.0291405588662273,-0.10048226998749848,0.18313924280917077,-0.18404214011344014,0.09394561117506557,-0.24566108814666815,1.2133069206166822,-0.22036133322802007,-0.0075274193315652375,-2.6037626031574446,-0.10872684191303256,2.4681828423792966,0.8264771168989179,1.2134413937687574,-0.2202432315892585,-0.0075118285948192216,-2.6038483821997875,-0.10888392708698907,2.4681821257803174,0.826474908251239,-0.00042206826354549136,-0.0002119135135270721,0.0006160768171933276,-0.0005274230842300785,-0.00048543215726509135,-0.00045805768196594,0.000589284613962123,0.0,0.0,0.0,0.0,0.0,0.0,0.0,0.0001344731520751541,0.00011810163876158075,1.559073674601598e-05,-8.577904234297051e-05,-0.0001570851739565171,-7.165989792667915e-07,-2.208647678858533e-06,0.00042206826354549136,0.0002119135135270721,-0.0006160768171933276,0.0005274230842300785,0.00048543215726509135,0.00045805768196594,-0.000589284613962123,0.24825400114059448,19.693445205688477,0.2998931109905243,-19.983552932739258,-0.4095359444618225,-2.4758944511413574,0.26217979192733765,0
35,0.16981863975524902,-0.24825400114059448,-19.717248916625977,-0.2998931109905243,19.955781936645508,0.4095359444618225,2.4630770683288574,-0.21457235515117645,0.0,0.0,0.0,0.0,0.0,0.0,0.0,-0.2627773138623122,0.031079579545255427,-0.09983075785295908,0.1839061588494471,-0.18366372359262614,0.09412503395941667,-0.24601792144204504,1.2133069206162503,-0.22035966376881297,-0.0075274193315652375,-2.6037606543156135,-0.10872447336750078,2.4681843012566684,0.8264715652032766,1.2134413937687574,-0.2202432315892585,-0.0075118285948192216,-2.6038483821997875,-0.10888392708698907,2.4681821257803174,0.826474908251239,-0.0001657306678793325,9.647190448573612e-05,-6.646658477344668e-05,6.932715269123973e-05,-0.0003121155197731601,0.0002943444736744672,-0.0009437699252441526,0.0,0.0,0.0,0.0,0.0,0.0,0.0,0.00013447315250703085,0.00011643217955448204,1.559073674601598e-05,-8.772788417399369e-05,-0.00015945371948829223,-2.175476351062855e-06,3.3430479624563247e-06,0.0001657306678793325,-9.647190448573612e-05,6.646658477344668e-05,-6.932715269123973e-05,0.0003121155197731601,-0.0002943444736744672,0.0009437699252441526,0.24825400114059448,19.717248916625977,0.2998931109905243,-19.955781936645508,-0.4095359444618225,-2.4630770683288574,0.21457235515117645,0
36,0.17484307289123535,-0.24825400114059448,-19.717248916625977,-0.2998931109905243,19.955781936645508,0.4095359444618225,2.4630770683288574,-0.21457235515117645,0.0,0.0,0.0,0.0,0.0,0.0,0.0,-0.2627773138623122,0.031079579545255427,-0.09983075785295908,0.1839061588494471,-0.18366372359262614,0.09412503395941667,-0.24601792144204504,1.2133069206162503,-0.22035966376881297,-0.0075274193315652375,-2.6037606543156135,-0.10872447336750078,2.4681843012566684,0.8264715652032766,1.2134413937687574,-0.2202432315892585,-0.0075118285948192216,-2.6038483821997875,-0.10888392708698907,2.4681821257803174,0.826474908251239,-0.0001657306678793325,9.647190448573612e-05,-6.646658477344668e-05,6.932715269123973e-05,-0.0003121155197731601,0.0002943444736744672,-0.0009437699252441526,0.0,0.0,0.0,0.0,0.0,0.0,0.0,0.00013447315250703085,0.00011643217955448204,1.559073674601598e-05,-8.772788417399369e-05,-0.00015945371948829223,-2.175476351062855e-06,3.3430479624563247e-06,0.0001657306678793325,-9.647190448573612e-05,6.646658477344668e-05,-6.932715269123973e-05,0.0003121155197731601,-0.0002943444736744672,0.0009437699252441526,0.24825400114059448,19.717248916625977,0.2998931109905243,-19.955781936645508,-0.4095359444618225,-2.4630770683288574,0.21457235515117645,0
37,0.17981886863708496,-0.2720577120780945,-19.717248916625977,-0.3236968219280243,19.983552932739258,0.3912253975868225,2.4566683769226074,-0.21457235515117645,0.0,0.0,0.0,0.0,0.0,0.0,0.0,-0.26508023225746935,0.0282639289635651,-0.10313194569433265,0.1855620612597618,-0.18284343375003284,0.09439167446335231,-0.2458577018844396,1.2133085910521055,-0.2203595846638887,-0.007525748895709975,-2.6037626031574446,-0.10872269127550271,2.4681849740878303,0.826475136574752,1.2134413937687574,-0.2202432315892585,-0.0075118285948192216,-2.6038483821997875,-0.10888392708698907,2.4681821257803174,0.826474908251239,-0.00010477473915464204,-1.2966310936526504e-05,0.0005218468708062024,-0.0003660452578170592,0.000420403358951972,0.00028721345303119196,-0.0013053413347677244,0.0,0.0,0.0,0.0,0.0,0.0,0.0,0.0001328027166518364,0.00011635307463020439,1.3920300890753017e-05,-8.577904234297051e-05,-0.0001612358114863599,-2.8483075129592805e-06,-2.283235129851846e-07,0.00010477473915464204,1.2966310936526504e-05,-0.0005218468708062024,0.0003660452578170592,-0.000420403358951972,-0.00028721345303119196,0.0013053413347677244,0.2720577120780945,19.717248916625977,0.3236968219280243,-19.983552932739258,-0.3912253975868225,-2.4566683769226074,0.21457235515117645,0
38,0.1848456859588623,-0.2720577120780945,-19.717248916625977,-0.3236968219280243,19.983552932739258,0.3912253975868225,2.4566683769226074,-0.21457235515117645,0.0,0.0,0.0,0.0,0.0,0.0,0.0,-0.26508023225746935,0.0282639289635651,-0.10313194569433265,0.1855620612597618,-0.18284343375003284,0.09439167446335231,-0.2458577018844396,1.2133085910521055,-0.2203595846638887,-0.007525748895709975,-2.6037626031574446,-0.10872269127550271,2.4681849740878303,0.826475136574752,1.2134413937687574,-0.2202432315892585,-0.0075118285948192216,-2.6038483821997875,-0.10888392708698907,2.4681821257803174,0.826474908251239,-0.00010477473915464204,-1.2966310936526504e-05,0.0005218468708062024,-0.0003660452578170592,0.000420403358951972,0.00028721345303119196,-0.0013053413347677244,0.0,0.0,0.0,0.0,0.0,0.0,0.0,0.0001328027166518364,0.00011635307463020439,1.3920300890753017e-05,-8.577904234297051e-05,-0.0001612358114863599,-2.8483075129592805e-06,-2.283235129851846e-07,0.00010477473915464204,1.2966310936526504e-05,-0.0005218468708062024,0.0003660452578170592,-0.000420403358951972,-0.00028721345303119196,0.0013053413347677244,0.2720577120780945,19.717248916625977,0.3236968219280243,-19.983552932739258,-0.3912253975868225,-2.4566683769226074,0.21457235515117645,0
39,0.18982982635498047,-0.24825400114059448,-19.717248916625977,-0.2998931109905243,20.007356643676758,0.4095359444618225,2.4694857597351074,-0.26217979192733765,0.0,0.0,0.0,0.0,0.0,0.0,0.0,-0.26408587762316815,0.029036658391582853,-0.10204611662756712,0.1864740025445304,-0.1833222718646307,0.09391038647521854,-0.24650863316307792,1.2133069206162503,-0.22035966376837193,-0.007527419656248238,-2.6037640440050387,-0.10872480610214288,2.46818355041848,0.8264757168611482,1.2134413937687574,-0.2202432315892585,-0.0075118285948192216,-2.6038483821997875,-0.10888392708698907,2.4681821257803174,0.826474908251239,-0.0005669059936599591,0.0001809749919733144,-0.00047251269751866465,-0.000866908952026774,-0.00044854000186980844,-0.0001228577301311695,0.0004679747866870226,0.0,0.0,0.0,0.0,0.0,0.0,0.0,0.00013447315250703085,0.00011643217911344594,1.5591061429016083e-05,-8.43381947488453e-05,-0.00015912098484618942,-1.4246381625504512e-06,-8.086099091419996e-07,0.0005669059936599591,-0.0001809749919733144,0.00047251269751866465,0.000866908952026774,0.00044854000186980844,0.0001228577301311695,-0.0004679747866870226,0.24825400114059448,19.717248916625977,0.2998931109905243,-20.007356643676758,-0.4095359444618225,-2.4694857597351074,0.26217979192733765,0
40,0.19485020637512207,-0.24825400114059448,-19.717248916625977,-0.2998931109905243,20.007356643676758,0.4095359444618225,2.4694857597351074,-0.26217979192733765,0.0,0.0,0.0,0.0,0.0,0.0,0.0,-0.26408587762316815,0.029036658391582853,-0.10204611662756712,0.1864740025445304,-0.1833222718646307,0.09391038647521854,-0.24650863316307792,1.2133069206162503,-0.22035966376837193,-0.007527419656248238,-2.6037640440050387,-0.10872480610214288,2.46818355041848,0.8264757168611482,1.2134413937687574,-0.2202432315892585,-0.0075118285948192216,-2.6038483821997875,-0.10888392708698907,2.4681821257803174,0.826474908251239,-0.0005669059936599591,0.0001809749919733144,-0.00047251269751866465,-0.000866908952026774,-0.00044854000186980844,-0.0001228577301311695,0.0004679747866870226,0.0,0.0,0.0,0.0,0.0,0.0,0.0,0.00013447315250703085,0.00011643217911344594,1.5591061429016083e-05,-8.43381947488453e-05,-0.00015912098484618942,-1.4246381625504512e-06,-8.086099091419996e-07,0.0005669059936599591,-0.0001809749919733144,0.00047251269751866465,0.000866908952026774,0.00044854000186980844,0.0001228577301311695,-0.0004679747866870226,0.24825400114059448,19.717248916625977,0.2998931109905243,-20.007356643676758,-0.4095359444618225,-2.4694857597351074,0.26217979192733765,0
41,0.19983315467834473,-0.24825400114059448,-19.717248916625977,-0.2998931109905243,20.007356643676758,0.4095359444618225,2.4694857597351074,-0.26217979192733765,0.0,0.0,0.0,0.0,0.0,0.0,0.0,-0.26408587762316815,0.029036658391582853,-0.10204611662756712,0.1864740025445304,-0.1833222718646307,0.09391038647521854,-0.24650863316307792,1.2133069206162503,-0.22035966376837193,-0.007527419656248238,-2.6037640440050387,-0.10872480610214288,2.46818355041848,0.8264757168611482,1.2134413937687574,-0.2202432315892585,-0.0075118285948192216,-2.6038483821997875,-0.10888392708698907,2.4681821257803174,0.826474908251239,-0.0005669059936599591,0.0001809749919733144,-0.00047251269751866465,-0.000866908952026774,-0.00044854000186980844,-0.0001228577301311695,0.0004679747866870226,0.0,0.0,0.0,0.0,0.0,0.0,0.0,0.00013447315250703085,0.00011643217911344594,1.5591061429016083e-05,-8.43381947488453e-05,-0.00015912098484618942,-1.4246381625504512e-06,-8.086099091419996e-07,0.0005669059936599591,-0.0001809749919733144,0.00047251269751866465,0.000866908952026774,0.00044854000186980844,0.0001228577301311695,-0.0004679747866870226,0.24825400114059448,19.717248916625977,0.2998931109905243,-20.007356643676758,-0.4095359444618225,-2.4694857597351074,0.26217979192733765,0
42,0.20484280586242676,-0.24825400114059448,-19.717248916625977,-0.2998931109905243,20.007356643676758,0.4095359444618225,2.4694857597351074,-0.26217979192733765,0.0,0.0,0.0,0.0,0.0,0.0,0.0,-0.26408587762316815,0.029036658391582853,-0.10204611662756712,0.1864740025445304,-0.1833222718646307,0.09391038647521854,-0.24650863316307792,1.2133069206162503,-0.22035966376837193,-0.007527419656248238,-2.6037640440050387,-0.10872480610214288,2.46818355041848,0.8264757168611482,1.2134413937687574,-0.2202432315892585,-0.0075118285948192216,-2.6038483821997875,-0.10888392708698907,2.4681821257803174,0.826474908251239,-0.0005669059936599591,0.0001809749919733144,-0.00047251269751866465,-0.000866908952026774,-0.00044854000186980844,-0.0001228577301311695,0.0004679747866870226,0.0,0.0,0.0,0.0,0.0,0.0,0.0,0.00013447315250703085,0.00011643217911344594,1.5591061429016083e-05,-8.43381947488453e-05,-0.00015912098484618942,-1.4246381625504512e-06,-8.086099091419996e-07,0.0005669059936599591,-0.0001809749919733144,0.00047251269751866465,0.000866908952026774,0.00044854000186980844,0.0001228577301311695,-0.0004679747866870226,0.24825400114059448,19.717248916625977,0.2998931109905243,-20.007356643676758,-0.4095359444618225,-2.4694857597351074,0.26217979192733765,0
43,0.20983052253723145,-0.2998287081718445,-19.693445205688477,-0.3236968219280243,19.931978225708008,0.4031272530555725,2.4630770683288574,-0.26858848333358765,0.0,0.0,0.0,0.0,0.0,0.0,0.0,-0.26898086944840705,0.030455748800892992,-0.10775358052679765,0.18559194999856737,-0.18401446177175232,0.09341937728402247,-0.24725342970937314,1.2133105398939368,-0.22036133409616218,-0.007525748895711807,-2.6037589838784623,-0.10872411858151962,2.468184379748359,0.8264767877767913,1.2134413937687574,-0.2202432315892585,-0.0075118285948192216,-2.6038483821997875,-0.10888392708698907,2.4681821257803174,0.826474908251239,-2.7368412784484955e-05,-0.0003918694802253389,0.00028653610103225406,0.000884108944007705,-0.00013576018780410356,-7.9930162578056e-05,0.0006212403587583631,0.0,0.0,0.0,0.0,0.0,0.0,0.0,0.0001308538748205912,0.0001181025069036945,1.3920300892585752e-05,-8.939832132526249e-05,-0.00015980850546945535,-2.2539680415434304e-06,-1.8795255523063048e-06,2.7368412784484955e-05,0.0003918694802253389,-0.00028653610103225406,-0.000884108944007705,0.00013576018780410356,7.9930162578056e-05,-0.0006212403587583631,0.2998287081718445,19.693445205688477,0.3236968219280243,-19.931978225708008,-0.4031272530555725,-2.4630770683288574,0.26858848333358765,0
44,0.21484136581420898,-0.2998287081718445,-19.693445205688477,-0.3236968219280243,19.931978225708008,0.4031272530555725,2.4630770683288574,-0.26858848333358765,0.0,0.0,0.0,0.0,0.0,0.0,0.0,-0.26898086944840705,0.030455748800892992,-0.10775358052679765,0.18559194999856737,-0.18401446177175232,0.09341937728402247,-0.24725342970937314,1.2133105398939368,-0.22036133409616218,-0.007525748895711807,-2.6037589838784623,-0.10872411858151962,2.468184379748359,0.8264767877767913,1.2134413937687574,-0.2202432315892585,-0.0075118285948192216,-2.6038483821997875,-0.10888392708698907,2.4681821257803174,0.826474908251239,-2.7368412784484955e-05,-0.0003918694802253389,0.00028653610103225406,0.000884108944007705,-0.00013576018780410356,-7.9930162578056e-05,0.0006212403587583631,0.0,0.0,0.0,0.0,0.0,0.0,0.0,0.0001308538748205912,0.0001181025069036945,1.3920300892585752e-05,-8.939832132526249e-05,-0.00015980850546945535,-2.2539680415434304e-06,-1.8795255523063048e-06,2.7368412784484955e-05,0.0003918694802253389,-0.00028653610103225406,-0.000884108944007705,0.00013576018780410356,7.9930162578056e-05,-0.0006212403587583631,0.2998287081718445,19.693445205688477,0.3236968219280243,-19.931978225708008,-0.4031272530555725,-2.4630770683288574,0.26858848333358765,0
45,0.21982812881469727,-0.22445029020309448,-19.693445205688477,-0.2721221148967743,19.983552932739258,0.3976340889930725,2.4566683769226074,-0.20724813640117645,0.0,0.0,0.0,0.0,0.0,0.0,0.0,-0.2664463878750808,0.030510364111280944,-0.10205160558586282,0.1875881050056746,-0.18422734158893564,0.09344025633668052,-0.2468292622518654,1.2133052756902016,-0.22035895226734264,-0.007529368173396378,-2.6037626031574446,-0.10872671708198295,2.4681850133341303,0.8264696145575178,1.2134413937687574,-0.2202432315892585,-0.0075118285948192216,-2.6038483821997875,-0.10888392708698907,2.4681821257803174,0.826474908251239,-0.000977688019890836,-0.00011864186123384939,-0.000741078799716295,9.900592718188041e-06,-2.3012299467908343e-05,0.00045859132311346974,-0.0017196226773118753,0.0,0.0,0.0,0.0,0.0,0.0,0.0,0.00013611807855573588,0.00011572067808415798,1.7539578577156247e-05,-8.577904234297051e-05,-0.00015721000500612536,-2.887553812946919e-06,5.293693721264425e-06,0.000977688019890836,0.00011864186123384939,0.000741078799716295,-9.900592718188041e-06,2.3012299467908343e-05,-0.00045859132311346974,0.0017196226773118753,0.22445029020309448,19.693445205688477,0.2721221148967743,-19.983552932739258,-0.3976340889930725,-2.4566683769226074,0.20724813640117645,0
46,0.22484087944030762,-0.22445029020309448,-19.693445205688477,-0.2721221148967743,19.983552932739258,0.3976340889930725,2.4566683769226074,-0.20724813640117645,0.0,0.0,0.0,0.0,0.0,0.0,0.0,-0.2664463878750808,0.030510364111280944,-0.10205160558586282,0.1875881050056746,-0.18422734158893564,0.09344025633668052,-0.2468292622518654,1.2133052756902016,-0.22035895226734264,-0.007529368173396378,-2.6037626031574446,-0.10872671708198295,2.4681850133341303,0.8264696145575178,1.2134413937687574,-0.2202432315892585,-0.0075118285948192216,-2.6038483821997875,-0.10888392708698907,2.4681821257803174,0.826474908251239,-0.000977688019890836,-0.00011864186123384939,-0.000741078799716295,9.900592718188041e-06,-2.3012299467908343e-05,0.00045859132311346974,-0.0017196226773118753,0.0,0.0,0.0,0.0,0.0,0.0,0.0,0.00013611807855573588,0.00011572067808415798,1.7539578577156247e-05,-8.577904234297051e-05,-0.00015721000500612536,-2.887553812946919e-06,5.293693721264425e-06,0.000977688019890836,0.00011864186123384939,0.000741078799716295,-9.900592718188041e-06,2.3012299467908343e-05,-0.00045859132311346974,0.0017196226773118753,0.22445029020309448,19.693445205688477,0.2721221148967743,-19.983552932739258,-0.3976340889930725,-2.4566683769226074,0.20724813640117645,0
47,0.2298297882080078,-0.24825400114059448,-19.693445205688477,-0.2998931109905243,19.931978225708008,0.4031272530555725,2.4630770683288574,-0.20724813640117645,0.0,0.0,0.0,0.0,0.0,0.0,0.0,-0.26820853420647733,0.032135804381467195,-0.10588470475471184,0.18474669293704696,-0.18457573480922068,0.09302466607476427,-0.24659251672422855,1.2133069206513871,-0.22036133126141544,-0.007529549576734241,-2.603758983879758,-0.1087240942062887,2.4681843797485774,0.8264732253358156,1.2134413937687574,-0.2202432315892585,-0.0075118285948192216,-2.6038483821997875,-0.10888392708698907,2.4681821257803174,0.826474908251239,-0.0002167847764104157,-0.00028134763507383894,-0.0001226476449434236,0.0007269824600535864,-4.8407629800908425e-05,0.00018296022157972928,-0.0015138823728699197,0.0,0.0,0.0,0.0,0.0,0.0,0.0,0.00013447311737024847,0.00011809967215695161,1.7720981915019494e-05,-8.939832002941017e-05,-0.00015983288070037238,-2.2539682600353217e-06,1.6829154234621058e-06,0.0002167847764104157,0.00028134763507383894,0.0001226476449434236,-0.0007269824600535864,4.8407629800908425e-05,-0.00018296022157972928,0.0015138823728699197,0.24825400114059448,19.693445205688477,0.2998931109905243,-19.931978225708008,-0.4031272530555725,-2.4630770683288574,0.20724813640117645,0
48,0.23484444618225098,-0.24825400114059448,-19.693445205688477,-0.2998931109905243,19.931978225708008,0.4031272530555725,2.4630770683288574,-0.20724813640117645,0.0,0.0,0.0,0.0,0.0,0.0,0.0,-0.26820853420647733,0.032135804381467195,-0.10588470475471184,0.18474669293704696,-0.18457573480922068,0.09302466607476427,-0.24659251672422855,1.2133069206513871,-0.22036133126141544,-0.007529549576734241,-2.603758983879758,-0.1087240942062887,2.4681843797485774,0.8264732253358156,1.2134413937687574,-0.2202432315892585,-0.0075118285948192216,-2.6038483821997875,-0.10888392708698907,2.4681821257803174,0.826474908251239,-0.0002167847764104157,-0.00028134763507383894,-0.0001226476449434236,0.0007269824600535864,-4.8407629800908425e-05,0.00018296022157972928,-0.0015138823728699197,0.0,0.0,0.0,0.0,0.0,0.0,0.0,0.00013447311737024847,0.00011809967215695161,1.7720981915019494e-05,-8.939832002941017e-05,-0.00015983288070037238,-2.2539682600353217e-06,1.6829154234621058e-06,0.0002167847764104157,0.00028134763507383894,0.0001226476449434236,-0.0007269824600535864,4.8407629800908425e-05,-0.00018296022157972928,0.0015138823728699197,0.24825400114059448,19.693445205688477,0.2998931109905243,-19.931978225708008,-0.4031272530555725,-2.4630770683288574,0.20724813640117645,0
49,0.23983192443847656,-0.24825400114059448,-19.693445205688477,-0.3236968219280243,19.955781936645508,0.4031272530555725,2.4694857597351074,-0.25485557317733765,0.0,0.0,0.0,0.0,0.0,0.0,0.0,-0.26325832385679115,0.032431886715075936,-0.10316063885068463,0.18577352081886106,-0.18423764089958244,0.09336293109675273,-0.24662399418753586,1.2133069206162503,-0.22036133420465714,-0.00752574890773527,-2.6037606543156135,-0.10872685368058568,2.468184727471833,0.8264762684210675,1.2134413937687574,-0.2202432315892585,-0.0075118285948192216,-2.6038483821997875,-0.10888392708698907,2.4681821257803174,0.826474908251239,9.178091017453186e-05,-0.00016087885040791074,0.000436910350834101,4.4513967382705475e-05,-4.6227965115124316e-05,-0.00018502167102513807,0.000330379246613838,0.0,0.0,0.0,0.0,0.0,0.0,0.0,0.00013447315250703085,0.00011810261539865752,1.3920312916048706e-05,-8.772788417399369e-05,-0.00015707340640339074,-2.6016915155580023e-06,-1.3601698284348984e-06,-9.178091017453186e-05,0.00016087885040791074,-0.000436910350834101,-4.4513967382705475e-05,4.6227965115124316e-05,0.00018502167102513807,-0.000330379246613838,0.24825400114059448,19.693445205688477,0.3236968219280243,-19.955781936645508,-0.4031272530555725,-2.4694857597351074,0.25485557317733765,0
50,0.2448427677154541,-0.24825400114059448,-19.693445205688477,-0.3236968219280243,19.955781936645508,0.4031272530555725,2.4694857597351074,-0.25485557317733765,0.0,0.0,0.0,0.0,0.0,0.0,0.0,-0.26325832385679115,0.032431886715075936,-0.10316063885068463,0.18577352081886106,-0.18423764089958244,0.09336293109675273,-0.24662399418753586,1.2133069206162503,-0.22036133420465714,-0.00752574890773527,-2.6037606543156135,-0.10872685368058568,2.468184727471833,0.8264762684210675,1.2134413937687574,-0.2202432315892585,-0.0075118285948192216,-2.6038483821997875,-0.10888392708698907,2.4681821257803174,0.826474908251239,9.178091017453186e-05,-0.00016087885040791074,0.000436910350834101,4.4513967382705475e-05,-4.6227965115124316e-05,-0.00018502167102513807,0.000330379246613838,0.0,0.0,0.0,0.0,0.0,0.0,0.0,0.00013447315250703085,0.00011810261539865752,1.3920312916048706e-05,-8.772788417399369e-05,-0.00015707340640339074,-2.6016915155580023e-06,-1.3601698284348984e-06,-9.178091017453186e-05,0.00016087885040791074,-0.000436910350834101,-4.4513967382705475e-05,4.6227965115124316e-05,0.00018502167102513807,-0.000330379246613838,0.24825400114059448,19.693445205688477,0.3236968219280243,-19.955781936645508,-0.4031272530555725,-2.4694857597351074,0.25485557317733765,0
51,0.24982881546020508,-0.2720577120780945,-19.693445205688477,-0.3236968219280243,19.931978225708008,0.4150291085243225,2.4758944511413574,-0.26217979192733765,0.0,0.0,0.0,0.0,0.0,0.0,0.0,-0.262681277579575,0.034097658058018405,-0.10539009145102651,0.1854647207702871,-0.18346314270384825,0.09350013523502115,-0.24735343858391157,1.2133085910521055,-0.22036133420467374,-0.007525748895710042,-2.603758983879758,-0.1087282936027,2.4681828509457397,0.8264770791418625,1.2134413937687574,-0.2202432315892585,-0.0075118285948192216,-2.6038483821997875,-0.10888392708698907,2.4681821257803174,0.826474908251239,0.00043932335602128866,6.227118927223912e-05,0.0005372218096844085,0.000753340906399709,-0.00044790634263671526,-0.00023323931585284807,0.0005371046477253385,0.0,0.0,0.0,0.0,0.0,0.0,0.0,0.0001328027166518364,0.00011810261541525535,1.392030089082067e-05,-8.939832002941017e-05,-0.00015563348428906942,-7.251654223772164e-07,-2.1708906234874092e-06,-0.00043932335602128866,-6.227118927223912e-05,-0.0005372218096844085,-0.000753340906399709,0.00044790634263671526,0.00023323931585284807,-0.0005371046477253385,0.2720577120780945,19.693445205688477,0.3236968219280243,-19.931978225708008,-0.4150291085243225,-2.4758944511413574,0.26217979192733765,0
52,0.25486016273498535,-0.2720577120780945,-19.693445205688477,-0.3236968219280243,19.931978225708008,0.4150291085243225,2.4758944511413574,-0.26217979192733765,0.0,0.0,0.0,0.0,0.0,0.0,0.0,-0.262681277579575,0.034097658058018405,-0.10539009145102651,0.1854647207702871,-0.18346314270384825,0.09350013523502115,-0.24735343858391157,1.2133085910521055,-0.22036133420467374,-0.007525748895710042,-2.603758983879758,-0.1087282936027,2.4681828509457397,0.8264770791418625,1.2134413937687574,-0.2202432315892585,-0.0075118285948192216,-2.6038483821997875,-0.10888392708698907,2.4681821257803174,0.826474908251239,0.00043932335602128866,6.227118927223912e-05,0.0005372218096844085,0.000753340906399709,-0.00044790634263671526,-0.00023323931585284807,0.0005371046477253385,0.0,0.0,0.0,0.0,0.0,0.0,0.0,0.0001328027166518364,0.00011810261541525535,1.392030089082067e-05,-8.939832002941017e-05,-0.00015563348428906942,-7.251654223772164e-07,-2.1708906234874092e-06,-0.00043932335602128866,-6.227118927223912e-05,-0.0005372218096844085,-0.000753340906399709,0.00044790634263671526,0.00023323931585284807,-0.0005371046477253385,0.2720577120780945,19.693445205688477,0.3236968219280243,-19.931978225708008,-0.4150291085243225,-2.4758944511413574,0.26217979192733765,0
53,0.25983142852783203,-0.2720577120780945,-19.717248916625977,-0.2721221148967743,19.931978225708008,0.4095359444618225,2.4630770683288574,-0.21457235515117645,0.0,0.0,0.0,0.0,0.0,0.0,0.0,-0.2614144238661461,0.02764672223085244,-0.10616772024491401,0.18688953506193862,-0.18307137142014313,0.09488979282877381,-0.24699889996196242,1.2133085910521055,-0.22035966376881846,-0.007529368173396378,-2.603758983879758,-0.10872802205619374,2.4681843799099354,0.8264716087019004,1.2134413937687574,-0.2202432315892585,-0.0075118285948192216,-2.6038483821997875,-0.10888392708698907,2.4681821257803174,0.826474908251239,0.0001352649023178195,-0.00026639875523908144,-0.000862196353076779,0.0008109266525596741,-0.00014956797783721048,0.00015631861063915157,-0.0011162129704375158,0.0,0.0,0.0,0.0,0.0,0.0,0.0,0.0001328027166518364,0.00011643217955997764,1.7539578577156247e-05,-8.939832002941017e-05,-0.00015590503079533635,-2.254129618073364e-06,3.2995493386422936e-06,-0.0001352649023178195,0.00026639875523908144,0.000862196353076779,-0.0008109266525596741,0.00014956797783721048,-0.00015631861063915157,0.0011162129704375158,0.2720577120780945,19.717248916625977,0.2721221148967743,-19.931978225708008,-0.4095359444618225,-2.4630770683288574,0.21457235515117645,0
54,0.26484107971191406,-0.2720577120780945,-19.717248916625977,-0.2721221148967743,19.931978225708008,0.4095359444618225,2.4630770683288574,-0.21457235515117645,0.0,0.0,0.0,0.0,0.0,0.0,0.0,-0.2614144238661461,0.02764672223085244,-0.10616772024491401,0.18688953506193862,-0.18307137142014313,0.09488979282877381,-0.24699889996196242,1.2133085910521055,-0.22035966376881846,-0.007529368173396378,-2.603758983879758,-0.10872802205619374,2.4681843799099354,0.8264716087019004,1.2134413937687574,-0.2202432315892585,-0.0075118285948192216,-2.6038483821997875,-0.10888392708698907,2.4681821257803174,0.826474908251239,0.0001352649023178195,-0.00026639875523908144,-0.000862196353076779,0.0008109266525596741,-0.00014956797783721048,0.00015631861063915157,-0.0011162129704375158,0.0,0.0,0.0,0.0,0.0,0.0,0.0,0.0001328027166518364,0.00011643217955997764,1.7539578577156247e-05,-8.939832002941017e-05,-0.00015590503079533635,-2.254129618073364e-06,3.2995493386422936e-06,-0.0001352649023178195,0.00026639875523908144,0.000862196353076779,-0.0008109266525596741,0.00014956797783721048,-0.00015631861063915157,0.0011162129704375158,0.2720577120780945,19.717248916625977,0.2721221148967743,-19.931978225708008,-0.4095359444618225,-2.4630770683288574,0.21457235515117645,0
55,0.26983213424682617,-0.24825400114059448,-19.717248916625977,-0.3236968219280243,19.983552932739258,0.4095359444618225,2.4694857597351074,-0.21457235515117645,0.0,0.0,0.0,0.0,0.0,0.0,0.0,-0.26208899577692807,0.029047632040246678,-0.10352871876041085,0.18338279861325824,-0.18283554548174322,0.09515820938690951,-0.2453980820480419,1.2133069206162503,-0.22035966279221442,-0.007525748895709975,-2.6037626031574446,-0.10872342120911542,2.4681835891804855,0.8264703921869948,1.2134413937687574,-0.2202432315892585,-0.0075118285948192216,-2.6038483821997875,-0.10888392708698907,2.4681821257803174,0.826474908251239,-0.0004291578906380582,-6.68526271394625e-05,0.00043706084578010076,-0.00043335679439120226,-0.00022512655183834016,6.022542285241581e-05,-0.001028682014531995,0.0,0.0,0.0,0.0,0.0,0.0,0.0,0.00013447315250703085,0.00011643120295593001,1.3920300890753017e-05,-8.577904234297051e-05,-0.000160505877873654,-1.4634001681557152e-06,4.516064244231011e-06,0.0004291578906380582,6.68526271394625e-05,-0.00043706084578010076,0.00043335679439120226,0.00022512655183834016,-6.022542285241581e-05,0.001028682014531995,0.24825400114059448,19.717248916625977,0.3236968219280243,-19.983552932739258,-0.4095359444618225,-2.4694857597351074,0.21457235515117645,0
56,0.2748279571533203,-0.24825400114059448,-19.717248916625977,-0.3236968219280243,19.983552932739258,0.4095359444618225,2.4694857597351074,-0.21457235515117645,0.0,0.0,0.0,0.0,0.0,0.0,0.0,-0.26208899577692807,0.029047632040246678,-0.10352871876041085,0.18338279861325824,-0.18283554548174322,0.09515820938690951,-0.2453980820480419,1.2133069206162503,-0.22035966279221442,-0.007525748895709975,-2.6037626031574446,-0.10872342120911542,2.4681835891804855,0.8264703921869948,1.2134413937687574,-0.2202432315892585,-0.0075118285948192216,-2.6038483821997875,-0.10888392708698907,2.4681821257803174,0.826474908251239,-0.0004291578906380582,-6.68526271394625e-05,0.00043706084578010076,-0.00043335679439120226,-0.00022512655183834016,6.022542285241581e-05,-0.001028682014531995,0.0,0.0,0.0,0.0,0.0,0.0,0.0,0.00013447315250703085,0.00011643120295593001,1.3920300890753017e-05,-8.577904234297051e-05,-0.000160505877873654,-1.4634001681557152e-06,4.516064244231011e-06,0.0004291578906380582,6.68526271394625e-05,-0.00043706084578010076,0.00043335679439120226,0.00022512655183834016,-6.022542285241581e-05,0.001028682014531995,0.24825400114059448,19.717248916625977,0.3236968219280243,-19.983552932739258,-0.4095359444618225,-2.4694857597351074,0.21457235515117645,0
57,0.2798347473144531,-0.2720577120780945,-19.693445205688477,-0.2998931109905243,19.931978225708008,0.3976340889930725,2.4758944511413574,-0.25485557317733765,0.0,0.0,0.0,0.0,0.0,0.0,0.0,-0.26399007053591994,0.02772478604477904,-0.1036798206874384,0.17941426851241452,-0.1829033792403795,0.09523865468940876,-0.2450064452544341,1.2133085938865285,-0.2203606222603001,-0.007528129413288238,-2.603758983879758,-0.10872527866980777,2.4681828771032186,0.8264780707489502,1.2134413937687574,-0.2202432315892585,-0.0075118285948192216,-2.6038483821997875,-0.10888392708698907,2.4681821257803174,0.826474908251239,0.0002659526086339807,-0.0006091084947019915,1.651933485838115e-05,0.0002705308845183931,0.0002690413713549674,-0.00025647172819036074,0.0005339770393530088,0.0,0.0,0.0,0.0,0.0,0.0,0.0,0.0001327998822289178,0.00011739067104160616,1.6300818469016862e-05,-8.939832002941017e-05,-0.00015864841718130074,-7.513229012268141e-07,-3.162497711151069e-06,-0.0002659526086339807,0.0006091084947019915,-1.651933485838115e-05,-0.0002705308845183931,-0.0002690413713549674,0.00025647172819036074,-0.0005339770393530088,0.2720577120780945,19.693445205688477,0.2998931109905243,-19.931978225708008,-0.3976340889930725,-2.4758944511413574,0.25485557317733765,0
58,0.28484129905700684,-0.2720577120780945,-19.693445205688477,-0.2998931109905243,19.931978225708008,0.3976340889930725,2.4758944511413574,-0.25485557317733765,0.0,0.0,0.0,0.0,0.0,0.0,0.0,-0.26399007053591994,0.02772478604477904,-0.1036798206874384,0.17941426851241452,-0.1829033792403795,0.09523865468940876,-0.2450064452544341,1.2133085938865285,-0.2203606222603001,-0.007528129413288238,-2.603758983879758,-0.10872527866980777,2.4681828771032186,0.8264780707489502,1.2134413937687574,-0.2202432315892585,-0.0075118285948192216,-2.6038483821997875,-0.10888392708698907,2.4681821257803174,0.826474908251239,0.0002659526086339807,-0.0006091084947019915,1.651933485838115e-05,0.0002705308845183931,0.0002690413713549674,-0.00025647172819036074,0.0005339770393530088,0.0,0.0,0.0,0.0,0.0,0.0,0.0,0.0001327998822289178,0.00011739067104160616,1.6300818469016862e-05,-8.939832002941017e-05,-0.00015864841718130074,-7.513229012268141e-07,-3.162497711151069e-06,-0.0002659526086339807,0.0006091084947019915,-1.651933485838115e-05,-0.0002705308845183931,-0.0002690413713549674,0.00025647172819036074,-0.0005339770393530088,0.2720577120780945,19.693445205688477,0.2998931109905243,-19.931978225708008,-0.3976340889930725,-2.4758944511413574,0.25485557317733765,0
59,0.28983211517333984,-0.2998287081718445,-19.693445205688477,-0.2998931109905243,19.955781936645508,0.3976340889930725,2.4630770683288574,-0.26217979192733765,0.0,0.0,0.0,0.0,0.0,0.0,0.0,-0.266931401535157,0.02789774846012822,-0.10748941379840908,0.17984410576757803,-0.18277621078331632,0.09554237845286224,-0.24509415749478317,1.2133105398939528,-0.22036133420065482,-0.007527419335573669,-2.6037606542106353,-0.10872636033051863,2.4681874409253957,0.8264803796262934,1.2134413937687574,-0.2202432315892585,-0.0075118285948192216,-2.6038483821997875,-0.10888392708698907,2.4681821257803174,0.826474908251239,0.000633381399717961,-0.00029479111208463414,-0.0003435672492665891,0.00035402880949422745,9.19502352118672e-05,-6.649411901794476e-06,0.001201149618659228,0.0,0.0,0.0,0.0,0.0,0.0,0.0,0.00013085387480460398,0.00011810261139633127,1.5590740754447587e-05,-8.7727989152242e-05,-0.00015756675647043972,-5.315145078288452e-06,-5.471375054355576e-06,-0.000633381399717961,0.00029479111208463414,0.0003435672492665891,-0.00035402880949422745,-9.19502352118672e-05,6.649411901794476e-06,-0.001201149618659228,0.2998287081718445,19.693445205688477,0.2998931109905243,-19.955781936645508,-0.3976340889930725,-2.4630770683288574,0.26217979192733765,0
60,0.2948312759399414,-0.2998287081718445,-19.693445205688477,-0.2998931109905243,19.955781936645508,0.3976340889930725,2.4630770683288574,-0.26217979192733765,0.0,0.0,0.0,0.0,0.0,0.0,0.0,-0.266931401535157,0.02789774846012822,-0.10748941379840908,0.17984410576757803,-0.18277621078331632,0.09554237845286224,-0.24509415749478317,1.2133105398939528,-0.22036133420065482,-0.007527419335573669,-2.6037606542106353,-0.10872636033051863,2.4681874409253957,0.8264803796262934,1.2134413937687574,-0.2202432315892585,-0.0075118285948192216,-2.6038483821997875,-0.10888392708698907,2.4681821257803174,0.826474908251239,0.000633381399717961,-0.00029479111208463414,-0.0003435672492665891,0.00035402880949422745,9.19502352118672e-05,-6.649411901794476e-06,0.001201149618659228,0.0,0.0,0.0,0.0,0.0,0.0,0.0,0.00013085387480460398,0.00011810261139633127,1.5590740754447587e-05,-8.7727989152242e-05,-0.00015756675647043972,-5.315145078288452e-06,-5.471375054355576e-06,-0.000633381399717961,0.00029479111208463414,0.0003435672492665891,-0.00035402880949422745,-9.19502352118672e-05,6.649411901794476e-06,-0.001201149618659228,0.2998287081718445,19.693445205688477,0.2998931109905243,-19.955781936645508,-0.3976340889930725,-2.4630770683288574,0.26217979192733765,0
61,0.2998318672180176,-0.24825400114059448,-19.693445205688477,-0.3475005328655243,19.983552932739258,0.4095359444618225,2.4630770683288574,-0.20724813640117645,0.0,0.0,0.0,0.0,0.0,0.0,0.0,-0.2625241940545372,0.028860332130234267,-0.10419831972412345,0.17994799026908784,-0.18334550522424878,0.09399486747316112,-0.2441305980739404,1.213306946126057,-0.22036133420467374,-0.007524078459854734,-2.603762603157444,-0.10872791642321211,2.468185334910318,0.8264729161327741,1.2134413937687574,-0.2202432315892585,-0.0075118285948192216,-2.6038483821997875,-0.10888392708698907,2.4681821257803174,0.826474908251239,-0.0006297939669325968,-0.00010792642956011771,0.0010983174652144498,-0.0005350336916179442,-0.00041825024556056467,0.00016579926532001038,-0.001289815999400154,0.0,0.0,0.0,0.0,0.0,0.0,0.0,0.0001344476427003194,0.00011810261541525535,1.2249865035512605e-05,-8.57790423434146e-05,-0.00015601066377696204,-3.2091300008474377e-06,1.992118464966275e-06,0.0006297939669325968,0.00010792642956011771,-0.0010983174652144498,0.0005350336916179442,0.00041825024556056467,-0.00016579926532001038,0.001289815999400154,0.24825400114059448,19.693445205688477,0.3475005328655243,-19.983552932739258,-0.4095359444618225,-2.4630770683288574,0.20724813640117645,0
62,0.304840087890625,-0.24825400114059448,-19.693445205688477,-0.3475005328655243,19.983552932739258,0.4095359444618225,2.4630770683288574,-0.20724813640117645,0.0,0.0,0.0,0.0,0.0,0.0,0.0,-0.2625241940545372,0.028860332130234267,-0.10419831972412345,0.17994799026908784,-0.18334550522424878,0.09399486747316112,-0.2441305980739404,1.213306946126057,-0.22036133420467374,-0.007524078459854734,-2.603762603157444,-0.10872791642321211,2.468185334910318,0.8264729161327741,1.2134413937687574,-0.2202432315892585,-0.0075118285948192216,-2.6038483821997875,-0.10888392708698907,2.4681821257803174,0.826474908251239,-0.0006297939669325968,-0.00010792642956011771,0.0010983174652144498,-0.0005350336916179442,-0.00041825024556056467,0.00016579926532001038,-0.001289815999400154,0.0,0.0,0.0,0.0,0.0,0.0,0.0,0.0001344476427003194,0.00011810261541525535,1.2249865035512605e-05,-8.57790423434146e-05,-0.00015601066377696204,-3.2091300008474377e-06,1.992118464966275e-06,0.0006297939669325968,0.00010792642956011771,-0.0010983174652144498,0.0005350336916179442,0.00041825024556056467,-0.00016579926532001038,0.001289815999400154,0.24825400114059448,19.693445205688477,0.3475005328655243,-19.983552932739258,-0.4095359444618225,-2.4630770683288574,0.20724813640117645,0
63,0.3098282814025879,-0.2720577120780945,-19.717248916625977,-0.3236968219280243,19.983552932739258,0.4031272530555725,2.4823031425476074,-0.22830526530742645,0.0,0.0,0.0,0.0,0.0,0.0,0.0,-0.2651233958637608,0.029806396403252625,-0.10671229218580208,0.18102650817807395,-0.1836294546452941,0.09364262450632482,-0.24262463042745194,1.2133085910872423,-0.22035966344328378,-0.007525748895709975,-2.6037626031574446,-0.10872697258257032,2.4681821259478793,0.8264766104610806,1.2134413937687574,-0.2202432315892585,-0.0075118285948192216,-2.6038483821997875,-0.10888392708698907,2.4681821257803174,0.826474908251239,0.00028787670500383396,0.0002809819631169999,0.00048250687038226936,-0.0005541131762673597,-0.00015282562090201287,-0.0005588150706445403,-0.0004996703084438863,0.0,0.0,0.0,0.0,0.0,0.0,0.0,0.00013280268151505403,0.0001164318540252951,1.3920300890753017e-05,-8.577904234297051e-05,-0.00015695450441875758,-1.6756196430378623e-10,-1.7022098415253595e-06,-0.00028787670500383396,-0.0002809819631169999,-0.00048250687038226936,0.0005541131762673597,0.00015282562090201287,0.0005588150706445403,0.0004996703084438863,0.2720577120780945,19.717248916625977,0.3236968219280243,-19.983552932739258,-0.4031272530555725,-2.4823031425476074,0.22830526530742645,0
64,0.31484174728393555,-0.2720577120780945,-19.717248916625977,-0.3236968219280243,19.983552932739258,0.4031272530555725,2.4823031425476074,-0.22830526530742645,0.0,0.0,0.0,0.0,0.0,0.0,0.0,-0.2651233958637608,0.029806396403252625,-0.10671229218580208,0.18102650817807395,-0.1836294546452941,0.09364262450632482,-0.24262463042745194,1.2133085910872423,-0.22035966344328378,-0.007525748895709975,-2.6037626031574446,-0.10872697258257032,2.4681821259478793,0.8264766104610806,1.2134413937687574,-0.2202432315892585,-0.0075118285948192216,-2.6038483821997875,-0.10888392708698907,2.4681821257803174,0.826474908251239,0.00028787670500383396,0.0002809819631169999,0.00048250687038226936,-0.0005541131762673597,-0.00015282562090201287,-0.0005588150706445403,-0.0004996703084438863,0.0,0.0,0.0,0.0,0.0,0.0,0.0,0.00013280268151505403,0.0001164318540252951,1.3920300890753017e-05,-8.577904234297051e-05,-0.00015695450441875758,-1.6756196430378623e-10,-1.7022098415253595e-06,-0.00028787670500383396,-0.0002809819631169999,-0.00048250687038226936,0.0005541131762673597,0.00015282562090201287,0.0005588150706445403,0.0004996703084438863,0.2720577120780945,19.717248916625977,0.3236968219280243,-19.983552932739258,-0.4031272530555725,-2.4823031425476074,0.22830526530742645,0
65,0.31983304023742676,-0.2720577120780945,-19.717248916625977,-0.3236968219280243,19.983552932739258,0.4031272530555725,2.4823031425476074,-0.22830526530742645,0.0,0.0,0.0,0.0,0.0,0.0,0.0,-0.2651233958637608,0.029806396403252625,-0.10671229218580208,0.18102650817807395,-0.1836294546452941,0.09364262450632482,-0.24262463042745194,1.2133085910872423,-0.22035966344328378,-0.007525748895709975,-2.6037626031574446,-0.10872697258257032,2.4681821259478793,0.8264766104610806,1.2134413937687574,-0.2202432315892585,-0.0075118285948192216,-2.6038483821997875,-0.10888392708698907,2.4681821257803174,0.826474908251239,0.00028787670500383396,0.0002809819631169999,0.00048250687038226936,-0.0005541131762673597,-0.00015282562090201287,-0.0005588150706445403,-0.0004996703084438863,0.0,0.0,0.0,0.0,0.0,0.0,0.0,0.00013280268151505403,0.0001164318540252951,1.3920300890753017e-05,-8.577904234297051e-05,-0.00015695450441875758,-1.6756196430378623e-10,-1.7022098415253595e-06,-0.00028787670500383396,-0.0002809819631169999,-0.00048250687038226936,0.0005541131762673597,0.00015282562090201287,0.0005588150706445403,0.0004996703084438863,0.2720577120780945,19.717248916625977,0.3236968219280243,-19.983552932739258,-0.4031272530555725,-2.4823031425476074,0.22830526530742645,0
66,0.3248312473297119,-0.2720577120780945,-19.717248916625977,-0.3236968219280243,19.955781936645508,0.4031272530555725,2.4630770683288574,-0.22098104655742645,0.0,0.0,0.0,0.0,0.0,0.0,0.0,-0.26420980990854265,0.03144144230904909,-0.10362517367087053,0.17983904662055117,-0.18386882121452078,0.09434103209941311,-0.2416427942130616,1.213308820640367,-0.22035966376881663,-0.007525757662150999,-2.6037606543156135,-0.10872695895120023,2.4681842620646224,0.8264712586827764,1.2134413937687574,-0.2202432315892585,-0.0075118285948192216,-2.6038483821997875,-0.10888392708698907,2.4681821257803174,0.826474908251239,0.0004976466047096556,0.0001654825830429784,0.0009600908189335884,0.00014303198381718693,-0.00022661360050576541,0.00022534325098621708,-0.0007616000385796534,0.0,0.0,0.0,0.0,0.0,0.0,0.0,0.0001325731283903231,0.00011643217955814578,1.3929067331777505e-05,-8.772788417399369e-05,-0.00015696813578884583,-2.1362843050098945e-06,3.649568462660291e-06,-0.0004976466047096556,-0.0001654825830429784,-0.0009600908189335884,-0.00014303198381718693,0.00022661360050576541,-0.00022534325098621708,0.0007616000385796534,0.2720577120780945,19.717248916625977,0.3236968219280243,-19.955781936645508,-0.4031272530555725,-2.4630770683288574,0.22098104655742645,0
67,0.32982826232910156,-0.2720577120780945,-19.717248916625977,-0.3236968219280243,19.955781936645508,0.4031272530555725,2.4630770683288574,-0.22098104655742645,0.0,0.0,0.0,0.0,0.0,0.0,0.0,-0.26420980990854265,0.03144144230904909,-0.10362517367087053,0.17983904662055117,-0.18386882121452078,0.09434103209941311,-0.2416427942130616,1.213308820640367,-0.22035966376881663,-0.007525757662150999,-2.6037606543156135,-0.10872695895120023,2.4681842620646224,0.8264712586827764,1.2134413937687574,-0.2202432315892585,-0.0075118285948192216,-2.6038483821997875,-0.10888392708698907,2.4681821257803174,0.826474908251239,0.0004976466047096556,0.0001654825830429784,0.0009600908189335884,0.00014303198381718693,-0.00022661360050576541,0.00022534325098621708,-0.0007616000385796534,0.0,0.0,0.0,0.0,0.0,0.0,0.0,0.0001325731283903231,0.00011643217955814578,1.3929067331777505e-05,-8.772788417399369e-05,-0.00015696813578884583,-2.1362843050098945e-06,3.649568462660291e-06,-0.0004976466047096556,-0.0001654825830429784,-0.0009600908189335884,-0.00014303198381718693,0.00022661360050576541,-0.00022534325098621708,0.0007616000385796534,0.2720577120780945,19.717248916625977,0.3236968219280243,-19.955781936645508,-0.4031272530555725,-2.4630770683288574,0.22098104655742645,0
68,0.3348429203033447,-0.24825400114059448,-19.745019912719727,-0.2721221148967743,19.931978225708008,0.4031272530555725,2.4694857597351074,-0.27591270208358765,0.0,0.0,0.0,0.0,0.0,0.0,0.0,-0.26630493653662785,0.023956030620705532,-0.10688021920135159,0.186811649971443,-0.1837416464416877,0.0949904922374477,-0.24148770848002535,1.2133069206175462,-0.22035771492698733,-0.007529368173445864,-2.603758983879758,-0.10872720266960902,2.4681835499339635,0.8264803748995833,1.2134413937687574,-0.2202432315892585,-0.0075118285948192216,-2.6038483821997875,-0.10888392708698907,2.4681821257803174,0.826474908251239,-1.9716207435747845e-05,0.0006044542319520224,-0.0008191394384177907,0.0012900358032444366,6.369301593490406e-05,-0.00022080540321239224,0.0015329740768630386,0.0,0.0,0.0,0.0,0.0,0.0,0.0,0.00013447315121117853,0.00011448333772884345,1.7539578626642703e-05,-8.939832002941017e-05,-0.00015672441738005805,-1.4241536461234716e-06,-5.46664834422117e-06,1.9716207435747845e-05,-0.0006044542319520224,0.0008191394384177907,-0.0012900358032444366,-6.369301593490406e-05,0.00022080540321239224,-0.0015329740768630386,0.24825400114059448,19.745019912719727,0.2721221148967743,-19.931978225708008,-0.4031272530555725,-2.4694857597351074,0.27591270208358765,0
69,0.3398280143737793,-0.24825400114059448,-19.745019912719727,-0.2721221148967743,19.931978225708008,0.4031272530555725,2.4694857597351074,-0.27591270208358765,0.0,0.0,0.0,0.0,0.0,0.0,0.0,-0.26630493653662785,0.023956030620705532,-0.10688021920135159,0.186811649971443,-0.1837416464416877,0.0949904922374477,-0.24148770848002535,1.2133069206175462,-0.22035771492698733,-0.007529368173445864,-2.603758983879758,-0.10872720266960902,2.4681835499339635,0.8264803748995833,1.2134413937687574,-0.2202432315892585,-0.0075118285948192216,-2.6038483821997875,-0.10888392708698907,2.4681821257803174,0.826474908251239,-1.9716207435747845e-05,0.0006044542319520224,-0.0008191394384177907,0.0012900358032444366,6.369301593490406e-05,-0.00022080540321239224,0.0015329740768630386,0.0,0.0,0.0,0.0,0.0,0.0,0.0,0.00013447315121117853,0.00011448333772884345,1.7539578626642703e-05,-8.939832002941017e-05,-0.00015672441738005805,-1.4241536461234716e-06,-5.46664834422117e-06,1.9716207435747845e-05,-0.0006044542319520224,0.0008191394384177907,-0.0012900358032444366,-6.369301593490406e-05,0.00022080540321239224,-0.0015329740768630386,0.24825400114059448,19.745019912719727,0.2721221148967743,-19.931978225708008,-0.4031272530555725,-2.4694857597351074,0.27591270208358765,0
70,0.34484314918518066,-0.24825400114059448,-19.745019912719727,-0.2721221148967743,19.931978225708008,0.4031272530555725,2.4694857597351074,-0.27591270208358765,0.0,0.0,0.0,0.0,0.0,0.0,0.0,-0.26630493653662785,0.023956030620705532,-0.10688021920135159,0.186811649971443,-0.1837416464416877,0.0949904922374477,-0.24148770848002535,1.2133069206175462,-0.22035771492698733,-0.007529368173445864,-2.603758983879758,-0.10872720266960902,2.4681835499339635,0.8264803748995833,1.2134413937687574,-0.2202432315892585,-0.0075118285948192216,-2.6038483821997875,-0.10888392708698907,2.4681821257803174,0.826474908251239,-1.9716207435747845e-05,0.0006044542319520224,-0.0008191394384177907,0.0012900358032444366,6.369301593490406e-05,-0.00022080540321239224,0.0015329740768630386,0.0,0.0,0.0,0.0,0.0,0.0,0.0,0.00013447315121117853,0.00011448333772884345,1.7539578626642703e-05,-8.939832002941017e-05,-0.00015672441738005805,-1.4241536461234716e-06,-5.46664834422117e-06,1.9716207435747845e-05,-0.0006044542319520224,0.0008191394384177907,-0.0012900358032444366,-6.369301593490406e-05,0.00022080540321239224,-0.0015329740768630386,0.24825400114059448,19.745019912719727,0.2721221148967743,-19.931978225708008,-0.4031272530555725,-2.4694857597351074,0.27591270208358765,0
71,0.34982919692993164,-0.24825400114059448,-19.745019912719727,-0.2721221148967743,19.931978225708008,0.4031272530555725,2.4694857597351074,-0.27591270208358765,0.0,0.0,0.0,0.0,0.0,0.0,0.0,-0.26630493653662785,0.023956030620705532,-0.10688021920135159,0.186811649971443,-0.1837416464416877,0.0949904922374477,-0.24148770848002535,1.2133069206175462,-0.22035771492698733,-0.007529368173445864,-2.603758983879758,-0.10872720266960902,2.4681835499339635,0.8264803748995833,1.2134413937687574,-0.2202432315892585,-0.0075118285948192216,-2.6038483821997875,-0.10888392708698907,2.4681821257803174,0.826474908251239,-1.9716207435747845e-05,0.0006044542319520224,-0.0008191394384177907,0.0012900358032444366,6.369301593490406e-05,-0.00022080540321239224,0.0015329740768630386,0.0,0.0,0.0,0.0,0.0,0.0,0.0,0.00013447315121117853,0.00011448333772884345,1.7539578626642703e-05,-8.939832002941017e-05,-0.00015672441738005805,-1.4241536461234716e-06,-5.46664834422117e-06,1.9716207435747845e-05,-0.0006044542319520224,0.0008191394384177907,-0.0012900358032444366,-6.369301593490406e-05,0.00022080540321239224,-0.0015329740768630386,0.24825400114059448,19.745019912719727,0.2721221148967743,-19.931978225708008,-0.4031272530555725,-2.4694857597351074,0.27591270208358765,0
72,0.3548271656036377,-0.2720577120780945,-19.693445205688477,-0.2998931109905243,19.983552932739258,0.3976340889930725,2.4630770683288574,-0.22830526530742645,0.0,0.0,0.0,0.0,0.0,0.0,0.0,-0.2660371462837716,0.03242981338454407,-0.10781763373067889,0.18040932723551098,-0.18351292854644982,0.093239975227011,-0.2419473030496351,1.2133085910521055,-0.2203613332280697,-0.007527422253712245,-2.6037626031574446,-0.10872339866613574,2.4681843012566427,0.8264756028267858,1.2134413937687574,-0.2202432315892585,-0.0075118285948192216,-2.6038483821997875,-0.10888392708698907,2.4681821257803174,0.826474908251239,0.0003269152304798632,-5.986503375629436e-05,-0.0004395977097202046,-0.0007446087795952377,0.00012347026286648762,0.0001535078838881702,0.00012159667490398077,0.0,0.0,0.0,0.0,0.0,0.0,0.0,0.0001328027166518364,0.00011810163881120772,1.5593658893023853e-05,-8.577904234297051e-05,-0.0001605284208533314,-2.175476325305681e-06,-6.945755467446801e-07,-0.0003269152304798632,5.986503375629436e-05,0.0004395977097202046,0.0007446087795952377,-0.00012347026286648762,-0.0001535078838881702,-0.00012159667490398077,0.2720577120780945,19.693445205688477,0.2998931109905243,-19.983552932739258,-0.3976340889930725,-2.4630770683288574,0.22830526530742645,0
73,0.35982823371887207,-0.2720577120780945,-19.693445205688477,-0.2998931109905243,19.983552932739258,0.3976340889930725,2.4630770683288574,-0.22830526530742645,0.0,0.0,0.0,0.0,0.0,0.0,0.0,-0.2660371462837716,0.03242981338454407,-0.10781763373067889,0.18040932723551098,-0.18351292854644982,0.093239975227011,-0.2419473030496351,1.2133085910521055,-0.2203613332280697,-0.007527422253712245,-2.6037626031574446,-0.10872339866613574,2.4681843012566427,0.8264756028267858,1.2134413937687574,-0.2202432315892585,-0.0075118285948192216,-2.6038483821997875,-0.10888392708698907,2.4681821257803174,0.826474908251239,0.0003269152304798632,-5.986503375629436e-05,-0.0004395977097202046,-0.0007446087795952377,0.00012347026286648762,0.0001535078838881702,0.00012159667490398077,0.0,0.0,0.0,0.0,0.0,0.0,0.0,0.0001328027166518364,0.00011810163881120772,1.5593658893023853e-05,-8.577904234297051e-05,-0.0001605284208533314,-2.175476325305681e-06,-6.945755467446801e-07,-0.0003269152304798632,5.986503375629436e-05,0.0004395977097202046,0.0007446087795952377,-0.00012347026286648762,-0.0001535078838881702,-0.00012159667490398077,0.2720577120780945,19.693445205688477,0.2998931109905243,-19.983552932739258,-0.3976340889930725,-2.4630770683288574,0.22830526530742645,0
74,0.3648412227630615,-0.2720577120780945,-19.693445205688477,-0.2721221148967743,19.955781936645508,0.4095359444618225,2.4694857597351074,-0.22830526530742645,0.0,0.0,0.0,0.0,0.0,0.0,0.0,-0.2626168241427126,0.029272672215182732,-0.10729714376902141,0.18607951774744616,-0.1834107259372637,0.09365346515627491,-0.2402912513177311,1.2133085910521055,-0.22036133420467355,-0.007529368173396988,-2.6037606543156135,-0.10872443760166701,2.4681835499359654,0.8264734329880575,1.2134413937687574,-0.2202432315892585,-0.0075118285948192216,-2.6038483821997875,-0.10888392708698907,2.4681821257803174,0.826474908251239,9.980018078990221e-05,-0.00021833648595375813,-0.0008610461150022777,0.0003815572101828131,-0.000334319347445477,-0.00034511071933413667,-0.0005587518088813502,0.0,0.0,0.0,0.0,0.0,0.0,0.0,0.0001328027166518364,0.00011810261541506106,1.753957857776687e-05,-8.772788417399369e-05,-0.0001594894853220591,-1.4241556480776296e-06,1.4752631815051487e-06,-9.980018078990221e-05,0.00021833648595375813,0.0008610461150022777,-0.0003815572101828131,0.000334319347445477,0.00034511071933413667,0.0005587518088813502,0.2720577120780945,19.693445205688477,0.2721221148967743,-19.955781936645508,-0.4095359444618225,-2.4694857597351074,0.22830526530742645,0
75,0.36986279487609863,-0.2720577120780945,-19.693445205688477,-0.2721221148967743,19.955781936645508,0.4095359444618225,2.4694857597351074,-0.22830526530742645,0.0,0.0,0.0,0.0,0.0,0.0,0.0,-0.2626168241427126,0.029272672215182732,-0.10729714376902141,0.18607951774744616,-0.1834107259372637,0.09365346515627491,-0.2402912513177311,1.2133085910521055,-0.22036133420467355,-0.007529368173396988,-2.6037606543156135,-0.10872443760166701,2.4681835499359654,0.8264734329880575,1.2134413937687574,-0.2202432315892585,-0.0075118285948192216,-2.6038483821997875,-0.10888392708698907,2.4681821257803174,0.826474908251239,9.980018078990221e-05,-0.00021833648595375813,-0.0008610461150022777,0.0003815572101828131,-0.000334319347445477,-0.00034511071933413667,-0.0005587518088813502,0.0,0.0,0.0,0.0,0.0,0.0,0.0,0.0001328027166518364,0.00011810261541506106,1.753957857776687e-05,-8.772788417399369e-05,-0.0001594894853220591,-1.4241556480776296e-06,1.4752631815051487e-06,-9.980018078990221e-05,0.00021833648595375813,0.0008610461150022777,-0.0003815572101828131,0.000334319347445477,0.00034511071933413667,0.0005587518088813502,0.2720577120780945,19.693445205688477,0.2721221148967743,-19.955781936645508,-0.4095359444618225,-2.4694857597351074,0.22830526530742645,0
76,0.37483668327331543,-0.2720577120780945,-19.717248916625977,-0.3475005328655243,19.955781936645508,0.3976340889930725,2.4694857597351074,-0.22098104655742645,0.0,0.0,0.0,0.0,0.0,0.0,0.0,-0.25932786741013875,0.02289321165949133,-0.1040672187519227,0.1887456465905041,-0.183550987972844,0.09413673549214159,-0.24022273866483831,1.2133085910521055,-0.2203589518244503,-0.007524078459854712,-2.6037606543156135,-0.10872352311537326,2.4681846226540447,0.8264725563795003,1.2134413937687574,-0.2202432315892585,-0.0075118285948192216,-2.6038483821997875,-0.10888392708698907,2.4681821257803174,0.826474908251239,0.00038086899912475155,-0.0004223924389891993,0.0013351831868541593,0.00010274273263580096,8.102090149154373e-05,-0.0002029698772026945,-0.0010137740406305276,0.0,0.0,0.0,0.0,0.0,0.0,0.0,0.0001328027166518364,0.00011572023519182406,1.2249865035490054e-05,-8.772788417399369e-05,-0.00016040397161581899,-2.496873727331206e-06,2.351871738692779e-06,-0.00038086899912475155,0.0004223924389891993,-0.0013351831868541593,-0.00010274273263580096,-8.102090149154373e-05,0.0002029698772026945,0.0010137740406305276,0.2720577120780945,19.717248916625977,0.3475005328655243,-19.955781936645508,-0.3976340889930725,-2.4694857597351074,0.22098104655742645,0
77,0.37984251976013184,-0.2720577120780945,-19.717248916625977,-0.3475005328655243,19.955781936645508,0.3976340889930725,2.4694857597351074,-0.22098104655742645,0.0,0.0,0.0,0.0,0.0,0.0,0.0,-0.25932786741013875,0.02289321165949133,-0.1040672187519227,0.1887456465905041,-0.183550987972844,0.09413673549214159,-0.24022273866483831,1.2133085910521055,-0.2203589518244503,-0.007524078459854712,-2.6037606543156135,-0.10872352311537326,2.4681846226540447,0.8264725563795003,1.2134413937687574,-0.2202432315892585,-0.0075118285948192216,-2.6038483821997875,-0.10888392708698907,2.4681821257803174,0.826474908251239,0.00038086899912475155,-0.0004223924389891993,0.0013351831868541593,0.00010274273263580096,8.102090149154373e-05,-0.0002029698772026945,-0.0010137740406305276,0.0,0.0,0.0,0.0,0.0,0.0,0.0,0.0001328027166518364,0.00011572023519182406,1.2249865035490054e-05,-8.772788417399369e-05,-0.00016040397161581899,-2.496873727331206e-06,2.351871738692779e-06,-0.00038086899912475155,0.0004223924389891993,-0.0013351831868541593,-0.00010274273263580096,-8.102090149154373e-05,0.0002029698772026945,0.0010137740406305276,0.2720577120780945,19.717248916625977,0.3475005328655243,-19.955781936645508,-0.3976340889930725,-2.4694857597351074,0.22098104655742645,0
78,0.38483595848083496,-0.22445029020309448,-19.693445205688477,-0.3236968219280243,19.983552932739258,0.3976340889930725,2.4758944511413574,-0.22098104655742645,0.0,0.0,0.0,0.0,0.0,0.0,0.0,-0.2615830725573214,0.026044422949619266,-0.10695806932896183,0.18623649594626832,-0.1836429612745603,0.09401966733923185,-0.241176123755469,1.213305250180395,-0.22036062225628666,-0.007525748895709975,-2.6037626031574446,-0.1087234823763324,2.4681828383477127,0.8264747932680016,1.2134413937687574,-0.2202432315892585,-0.0075118285948192216,-2.6038483821997875,-0.10888392708698907,2.4681821257803174,0.826474908251239,-0.0010603844639212239,-0.0009403007747194562,0.000293856199818102,-0.00018457647734506405,0.00027360462178394745,-0.00038129117940756055,-0.0008402415113399027,0.0,0.0,0.0,0.0,0.0,0.0,0.0,0.00013614358836244733,0.00011739066702817769,1.3920300890753017e-05,-8.577904234297051e-05,-0.0001604447106566681,-7.125673953112255e-07,1.1498323748693196e-07,0.0010603844639212239,0.0009403007747194562,-0.000293856199818102,0.00018457647734506405,-0.00027360462178394745,0.00038129117940756055,0.0008402415113399027,0.22445029020309448,19.693445205688477,0.3236968219280243,-19.983552932739258,-0.3976340889930725,-2.4758944511413574,0.22098104655742645,0
79,0.38983654975891113,-0.22445029020309448,-19.693445205688477,-0.3236968219280243,19.983552932739258,0.3976340889930725,2.4758944511413574,-0.22098104655742645,0.0,0.0,0.0,0.0,0.0,0.0,0.0,-0.2615830725573214,0.026044422949619266,-0.10695806932896183,0.18623649594626832,-0.1836429612745603,0.09401966733923185,-0.241176123755469,1.213305250180395,-0.22036062225628666,-0.007525748895709975,-2.6037626031574446,-0.1087234823763324,2.4681828383477127,0.8264747932680016,1.2134413937687574,-0.2202432315892585,-0.0075118285948192216,-2.6038483821997875,-0.10888392708698907,2.4681821257803174,0.826474908251239,-0.0010603844639212239,-0.0009403007747194562,0.000293856199818102,-0.00018457647734506405,0.00027360462178394745,-0.00038129117940756055,-0.0008402415113399027,0.0,0.0,0.0,0.0,0.0,0.0,0.0,0.00013614358836244733,0.00011739066702817769,1.3920300890753017e-05,-8.577904234297051e-05,-0.0001604447106566681,-7.125673953112255e-07,1.1498323748693196e-07,0.0010603844639212239,0.0009403007747194562,-0.000293856199818102,0.00018457647734506405,-0.00027360462178394745,0.00038129117940756055,0.0008402415113399027,0.22445029020309448,19.693445205688477,0.3236968219280243,-19.983552932739258,-0.3976340889930725,-2.4758944511413574,0.22098104655742645,0
