rezayati/contactInterpretation/dataset/franka_main/labeled_data/link6/b7_5.csv
index,time,tau_J0,tau_J1,tau_J2,tau_J3,tau_J4,tau_J5,tau_J6,tau_J_d0,tau_J_d1,tau_J_d2,tau_J_d3,tau_J_d4,tau_J_d5,tau_J_d6,tau_ext0,tau_ext1,tau_ext2,tau_ext3,tau_ext4,tau_ext5,tau_ext6,q0,q1,q2,q3,q4,q5,q6,q_d0,q_d1,q_d2,q_d3,q_d4,q_d5,q_d6,dq0,dq1,dq2,dq3,dq4,dq5,dq6,dq_d0,dq_d1,dq_d2,dq_d3,dq_d4,dq_d5,dq_d6,e0,e1,e2,e3,e4,e5,e6,de0,de1,de2,de3,de4,de5,de6,etau_J0,etau_J1,etau_J2,etau_J3,etau_J4,etau_J5,etau_J6,label
1,0.0,-0.5815059542655945,-46.50039291381836,-5.536709308624268,19.610628128051758,0.5047507882118225,2.4108920097351074,-0.43338340520858765,0.0,0.0,0.0,0.0,0.0,0.0,0.0,-0.7570626454475672,-0.1721782927741096,-0.5623569621985268,0.4162170901756133,-0.07589869631377216,0.1435269569613984,-0.41276875332182605,0.8781042477582629,0.755687187161362,-0.2825094710394188,-1.6692927122579462,0.14139132656653722,2.403412924501631,1.027369492365254,0.878092876070424,0.7554597494309409,-0.2825552651693207,-1.6690993614607135,0.1414185955172306,2.4034451173676383,1.0273381002308042,0.0008915179788751469,0.0023619482719798926,9.657965288843023e-05,0.0003313326941486385,-0.00011572914214639158,-0.00019057050228945258,0.0005236460522903245,0.0,0.0,0.0,0.0,0.0,0.0,0.0,-1.1371687838934719e-05,-0.00022743773042110949,-4.579412990191045e-05,0.00019335079723270532,2.7268950693382088e-05,3.219286600719684e-05,-3.139213444991462e-05,-0.0008915179788751469,-0.0023619482719798926,-9.657965288843023e-05,-0.0003313326941486385,0.00011572914214639158,0.00019057050228945258,-0.0005236460522903245,0.5815059542655945,46.50039291381836,5.536709308624268,-19.610628128051758,-0.5047507882118225,-2.4108920097351074,0.43338340520858765,0
2,0.004293918609619141,-0.5815059542655945,-46.50039291381836,-5.536709308624268,19.610628128051758,0.5047507882118225,2.4108920097351074,-0.43338340520858765,0.0,0.0,0.0,0.0,0.0,0.0,0.0,-0.7570626454475672,-0.1721782927741096,-0.5623569621985268,0.4162170901756133,-0.07589869631377216,0.1435269569613984,-0.41276875332182605,0.8781042477582629,0.755687187161362,-0.2825094710394188,-1.6692927122579462,0.14139132656653722,2.403412924501631,1.027369492365254,0.878092876070424,0.7554597494309409,-0.2825552651693207,-1.6690993614607135,0.1414185955172306,2.4034451173676383,1.0273381002308042,0.0008915179788751469,0.0023619482719798926,9.657965288843023e-05,0.0003313326941486385,-0.00011572914214639158,-0.00019057050228945258,0.0005236460522903245,0.0,0.0,0.0,0.0,0.0,0.0,0.0,-1.1371687838934719e-05,-0.00022743773042110949,-4.579412990191045e-05,0.00019335079723270532,2.7268950693382088e-05,3.219286600719684e-05,-3.139213444991462e-05,-0.0008915179788751469,-0.0023619482719798926,-9.657965288843023e-05,-0.0003313326941486385,0.00011572914214639158,0.00019057050228945258,-0.0005236460522903245,0.5815059542655945,46.50039291381836,5.536709308624268,-19.610628128051758,-0.5047507882118225,-2.4108920097351074,0.43338340520858765,0
3,0.009288549423217773,-0.6053096652030945,-46.44881820678711,-5.612087726593018,19.658235549926758,0.5102439522743225,2.4044833183288574,-0.39218467473983765,0.0,0.0,0.0,0.0,0.0,0.0,0.0,-0.7177363353469065,-0.17011145022252586,-0.5238126834273611,0.4232046215855254,-0.07646791726042897,0.14411013856958876,-0.41355854805678455,0.8781059181941182,0.7556835678836755,-0.2825042079079115,-1.6692960616328778,0.14139071621497473,2.403413754316024,1.0273649147285353,0.878092876070424,0.7554597494309409,-0.2825552651693207,-1.6690993614607135,0.1414185955172306,2.4034451173676383,1.0273381002308042,-0.00020281915904852942,-0.0003817630904397596,0.0006915252717513222,-0.0013038746072486596,-0.0002737230120403683,4.622251896016868e-06,-0.0012562605458452999,0.0,0.0,0.0,0.0,0.0,0.0,0.0,-1.3042123694240182e-05,-0.00022381845273466983,-5.10572614092486e-05,0.00019670017216433244,2.7879302255867655e-05,3.136305161444142e-05,-2.6814497731120213e-05,0.00020281915904852942,0.0003817630904397596,-0.0006915252717513222,0.0013038746072486596,0.0002737230120403683,-4.622251896016868e-06,0.0012562605458452999,0.6053096652030945,46.44881820678711,5.612087726593018,-19.658235549926758,-0.5102439522743225,-2.4044833183288574,0.39218467473983765,0
4,0.014290809631347656,-0.6053096652030945,-46.44881820678711,-5.612087726593018,19.658235549926758,0.5102439522743225,2.4044833183288574,-0.39218467473983765,0.0,0.0,0.0,0.0,0.0,0.0,0.0,-0.7177363353469065,-0.17011145022252586,-0.5238126834273611,0.4232046215855254,-0.07646791726042897,0.14411013856958876,-0.41355854805678455,0.8781059181941182,0.7556835678836755,-0.2825042079079115,-1.6692960616328778,0.14139071621497473,2.403413754316024,1.0273649147285353,0.878092876070424,0.7554597494309409,-0.2825552651693207,-1.6690993614607135,0.1414185955172306,2.4034451173676383,1.0273381002308042,-0.00020281915904852942,-0.0003817630904397596,0.0006915252717513222,-0.0013038746072486596,-0.0002737230120403683,4.622251896016868e-06,-0.0012562605458452999,0.0,0.0,0.0,0.0,0.0,0.0,0.0,-1.3042123694240182e-05,-0.00022381845273466983,-5.10572614092486e-05,0.00019670017216433244,2.7879302255867655e-05,3.136305161444142e-05,-2.6814497731120213e-05,0.00020281915904852942,0.0003817630904397596,-0.0006915252717513222,0.0013038746072486596,0.0002737230120403683,-4.622251896016868e-06,0.0012562605458452999,0.6053096652030945,46.44881820678711,5.612087726593018,-19.658235549926758,-0.5102439522743225,-2.4044833183288574,0.39218467473983765,0
5,0.019294023513793945,-0.7322627902030945,-46.50039291381836,-5.663662433624268,19.610628128051758,0.5102439522743225,2.4108920097351074,-0.45352500677108765,0.0,0.0,0.0,0.0,0.0,0.0,0.0,-0.708402370017076,-0.1491592914218736,-0.5062550667122835,0.4189700314730463,-0.07751506516968845,0.14311107769735892,-0.4139065291376965,0.8781148271853463,0.755687187161362,-0.2825005886303751,-1.6692927207612152,0.14139071621497473,2.4034129245022955,1.0273717303209833,0.878092876070424,0.7554597494309409,-0.2825552651693207,-1.6690993614607135,0.1414185955172306,2.4034451173676383,1.0273381002308042,0.00043255737681647974,0.0009126836602039919,0.00010335278727088827,0.00036843955287847176,-0.00013213223567609515,-0.00020817477693015478,0.001067196811452403,0.0,0.0,0.0,0.0,0.0,0.0,0.0,-2.195111492231394e-05,-0.00022743773042110949,-5.467653894564162e-05,0.00019335930050168315,2.7879302255867655e-05,3.219286534283938e-05,-3.363009017909313e-05,-0.00043255737681647974,-0.0009126836602039919,-0.00010335278727088827,-0.00036843955287847176,0.00013213223567609515,0.00020817477693015478,-0.001067196811452403,0.7322627902030945,46.50039291381836,5.663662433624268,-19.610628128051758,-0.5102439522743225,-2.4108920097351074,0.45352500677108765,0
6,0.024311542510986328,-0.7322627902030945,-46.50039291381836,-5.663662433624268,19.610628128051758,0.5102439522743225,2.4108920097351074,-0.45352500677108765,0.0,0.0,0.0,0.0,0.0,0.0,0.0,-0.708402370017076,-0.1491592914218736,-0.5062550667122835,0.4189700314730463,-0.07751506516968845,0.14311107769735892,-0.4139065291376965,0.8781148271853463,0.755687187161362,-0.2825005886303751,-1.6692927207612152,0.14139071621497473,2.4034129245022955,1.0273717303209833,0.878092876070424,0.7554597494309409,-0.2825552651693207,-1.6690993614607135,0.1414185955172306,2.4034451173676383,1.0273381002308042,0.00043255737681647974,0.0009126836602039919,0.00010335278727088827,0.00036843955287847176,-0.00013213223567609515,-0.00020817477693015478,0.001067196811452403,0.0,0.0,0.0,0.0,0.0,0.0,0.0,-2.195111492231394e-05,-0.00022743773042110949,-5.467653894564162e-05,0.00019335930050168315,2.7879302255867655e-05,3.219286534283938e-05,-3.363009017909313e-05,-0.00043255737681647974,-0.0009126836602039919,-0.00010335278727088827,-0.00036843955287847176,0.00013213223567609515,0.00020817477693015478,-0.001067196811452403,0.7322627902030945,46.50039291381836,5.663662433624268,-19.610628128051758,-0.5102439522743225,-2.4108920097351074,0.45352500677108765,0
7,0.03006434440612793,-0.7838374972343445,-46.44881820678711,-5.762844562530518,19.610628128051758,0.5102439522743225,2.4108920097351074,-0.39950889348983765,0.0,0.0,0.0,0.0,0.0,0.0,0.0,-0.7014906782951268,-0.14270249717059194,-0.4937266093631899,0.4182966002038288,-0.07791046490517754,0.14249202114330664,-0.41542880703048224,0.8781205922302445,0.7556828658734148,-0.28249361973242265,-1.6692928002340748,0.14139071621497473,2.403412924501631,1.027365728046102,0.878092876070424,0.7554597494309409,-0.2825552651693207,-1.6690993614607135,0.1414185955172306,2.4034451173676383,1.0273381002308042,-0.00016581747368215078,-0.0005891417734037021,0.0008955460117721794,0.00029730505895278085,-0.000148665622885866,-0.00019128813795991017,-0.0003119383374441475,0.0,0.0,0.0,0.0,0.0,0.0,0.0,-2.771615982055664e-05,-0.00022311644247396956,-6.164543689807234e-05,0.00019343877336130966,2.7879302255867655e-05,3.219286600719684e-05,-2.762781529774827e-05,0.00016581747368215078,0.0005891417734037021,-0.0008955460117721794,-0.00029730505895278085,0.000148665622885866,0.00019128813795991017,0.0003119383374441475,0.7838374972343445,46.44881820678711,5.762844562530518,-19.610628128051758,-0.5102439522743225,-2.4108920097351074,0.39950889348983765,0
8,0.03429603576660156,-0.7838374972343445,-46.44881820678711,-5.762844562530518,19.610628128051758,0.5102439522743225,2.4108920097351074,-0.39950889348983765,0.0,0.0,0.0,0.0,0.0,0.0,0.0,-0.7014906782951268,-0.14270249717059194,-0.4937266093631899,0.4182966002038288,-0.07791046490517754,0.14249202114330664,-0.41542880703048224,0.8781205922302445,0.7556828658734148,-0.28249361973242265,-1.6692928002340748,0.14139071621497473,2.403412924501631,1.027365728046102,0.878092876070424,0.7554597494309409,-0.2825552651693207,-1.6690993614607135,0.1414185955172306,2.4034451173676383,1.0273381002308042,-0.00016581747368215078,-0.0005891417734037021,0.0008955460117721794,0.00029730505895278085,-0.000148665622885866,-0.00019128813795991017,-0.0003119383374441475,0.0,0.0,0.0,0.0,0.0,0.0,0.0,-2.771615982055664e-05,-0.00022311644247396956,-6.164543689807234e-05,0.00019343877336130966,2.7879302255867655e-05,3.219286600719684e-05,-2.762781529774827e-05,0.00016581747368215078,0.0005891417734037021,-0.0008955460117721794,-0.00029730505895278085,0.000148665622885866,0.00019128813795991017,0.0003119383374441475,0.7838374972343445,46.44881820678711,5.762844562530518,-19.610628128051758,-0.5102439522743225,-2.4108920097351074,0.39950889348983765,0
9,0.039252281188964844,-0.8076412081718445,-46.50039291381836,-5.762844562530518,19.658235549926758,0.5047507882118225,2.4108920097351074,-0.41324180364608765,0.0,0.0,0.0,0.0,0.0,0.0,0.0,-0.7098933819737934,-0.14504270611572762,-0.4973704664317996,0.4190470655289406,-0.0782445827689104,0.14219841145325965,-0.4148826440766302,0.8781201169110008,0.7556871871573991,-0.2824915025819318,-1.6692960616333743,0.14139132656653722,2.4034129377450886,1.0273672544095223,0.878092876070424,0.7554597494309409,-0.2825552651693207,-1.6690993614607135,0.1414185955172306,2.4034451173676383,1.0273381002308042,-0.0007812736450838762,0.00043321139836473353,0.0004129322907020268,-0.0010218402758509744,4.3970270310608655e-05,-0.0001914788018627081,-6.296572837449381e-05,0.0,0.0,0.0,0.0,0.0,0.0,0.0,-2.7240840576814307e-05,-0.00022743772645827942,-6.376258738893803e-05,0.00019670017266082418,2.7268950693382088e-05,3.217962254975504e-05,-2.9154178718071577e-05,0.0007812736450838762,-0.00043321139836473353,-0.0004129322907020268,0.0010218402758509744,-4.3970270310608655e-05,0.0001914788018627081,6.296572837449381e-05,0.8076412081718445,46.50039291381836,5.762844562530518,-19.658235549926758,-0.5047507882118225,-2.4108920097351074,0.41324180364608765,0
10,0.04428887367248535,-0.8076412081718445,-46.50039291381836,-5.762844562530518,19.658235549926758,0.5047507882118225,2.4108920097351074,-0.41324180364608765,0.0,0.0,0.0,0.0,0.0,0.0,0.0,-0.7098933819737934,-0.14504270611572762,-0.4973704664317996,0.4190470655289406,-0.0782445827689104,0.14219841145325965,-0.4148826440766302,0.8781201169110008,0.7556871871573991,-0.2824915025819318,-1.6692960616333743,0.14139132656653722,2.4034129377450886,1.0273672544095223,0.878092876070424,0.7554597494309409,-0.2825552651693207,-1.6690993614607135,0.1414185955172306,2.4034451173676383,1.0273381002308042,-0.0007812736450838762,0.00043321139836473353,0.0004129322907020268,-0.0010218402758509744,4.3970270310608655e-05,-0.0001914788018627081,-6.296572837449381e-05,0.0,0.0,0.0,0.0,0.0,0.0,0.0,-2.7240840576814307e-05,-0.00022743772645827942,-6.376258738893803e-05,0.00019670017266082418,2.7268950693382088e-05,3.217962254975504e-05,-2.9154178718071577e-05,0.0007812736450838762,-0.00043321139836473353,-0.0004129322907020268,0.0010218402758509744,-4.3970270310608655e-05,0.0001914788018627081,6.296572837449381e-05,0.8076412081718445,46.50039291381836,5.762844562530518,-19.658235549926758,-0.5047507882118225,-2.4108920097351074,0.41324180364608765,0
11,0.049302101135253906,-0.7838374972343445,-46.47658920288086,-5.735073566436768,19.634431838989258,0.5047507882118225,2.4173007011413574,-0.42605918645858765,0.0,0.0,0.0,0.0,0.0,0.0,0.0,-0.6881636576857549,-0.1379113455388899,-0.4785689079333479,0.41738026749548623,-0.07994213974107868,0.14105431287452583,-0.41485033209674055,0.8781184464630327,0.7556855167255067,-0.2824955772748063,-1.6692943911970706,0.14139132656653722,2.4034122269603855,1.0273686785631708,0.878092876070424,0.7554597494309409,-0.2825552651693207,-1.6690993614607135,0.1414185955172306,2.4034451173676383,1.0273381002308042,9.140769579616785e-05,-9.975514915930121e-05,0.00019519017151851714,-0.0007322394860034212,-0.00020287843877922498,-0.00033489968646429144,0.0005078438010449271,0.0,0.0,0.0,0.0,0.0,0.0,0.0,-2.55703926087536e-05,-0.00022576729456580402,-5.9687894514437456e-05,0.00019502973635709964,2.7268950693382088e-05,3.2890407252850196e-05,-3.057833236663754e-05,-9.140769579616785e-05,9.975514915930121e-05,-0.00019519017151851714,0.0007322394860034212,0.00020287843877922498,0.00033489968646429144,-0.0005078438010449271,0.7838374972343445,46.47658920288086,5.735073566436768,-19.634431838989258,-0.5047507882118225,-2.4173007011413574,0.42605918645858765,0
12,0.05506300926208496,-0.7838374972343445,-46.47658920288086,-5.735073566436768,19.634431838989258,0.5047507882118225,2.4173007011413574,-0.42605918645858765,0.0,0.0,0.0,0.0,0.0,0.0,0.0,-0.6881636576857549,-0.1379113455388899,-0.4785689079333479,0.41738026749548623,-0.07994213974107868,0.14105431287452583,-0.41485033209674055,0.8781184464630327,0.7556855167255067,-0.2824955772748063,-1.6692943911970706,0.14139132656653722,2.4034122269603855,1.0273686785631708,0.878092876070424,0.7554597494309409,-0.2825552651693207,-1.6690993614607135,0.1414185955172306,2.4034451173676383,1.0273381002308042,9.140769579616785e-05,-9.975514915930121e-05,0.00019519017151851714,-0.0007322394860034212,-0.00020287843877922498,-0.00033489968646429144,0.0005078438010449271,0.0,0.0,0.0,0.0,0.0,0.0,0.0,-2.55703926087536e-05,-0.00022576729456580402,-5.9687894514437456e-05,0.00019502973635709964,2.7268950693382088e-05,3.2890407252850196e-05,-3.057833236663754e-05,-9.140769579616785e-05,9.975514915930121e-05,-0.00019519017151851714,0.0007322394860034212,0.00020287843877922498,0.00033489968646429144,-0.0005078438010449271,0.7838374972343445,46.47658920288086,5.735073566436768,-19.634431838989258,-0.5047507882118225,-2.4173007011413574,0.42605918645858765,0
13,0.05929112434387207,-0.7322627902030945,-46.42501449584961,-5.663662433624268,19.586824417114258,0.5102439522743225,2.4044833183288574,-0.43338340520858765,0.0,0.0,0.0,0.0,0.0,0.0,0.0,-0.6950304207260485,-0.14168409630495427,-0.48546916080007924,0.4206745261469159,-0.08066452299356418,0.14182937774313997,-0.4159247336476489,0.8781148271853463,0.7556818945588892,-0.28250034917916955,-1.66929105032536,0.14139071621497473,2.403413636578481,1.027369492365254,0.878092876070424,0.7554597494309409,-0.2825552651693207,-1.6690993614607135,0.1414185955172306,2.4034451173676383,1.0273381002308042,0.0008350863419701057,-0.0009338414928759034,-0.0007826849280523236,0.001109360153451457,-0.0002822962476429592,6.976125408151802e-05,0.0004805214579851582,0.0,0.0,0.0,0.0,0.0,0.0,0.0,-2.195111492231394e-05,-0.00022214512794838104,-5.491599015117199e-05,0.0001916888646464887,2.7879302255867655e-05,3.148078915726771e-05,-3.139213444991462e-05,-0.0008350863419701057,0.0009338414928759034,0.0007826849280523236,-0.001109360153451457,0.0002822962476429592,-6.976125408151802e-05,-0.0004805214579851582,0.7322627902030945,46.42501449584961,5.663662433624268,-19.586824417114258,-0.5102439522743225,-2.4044833183288574,0.43338340520858765,0
14,0.06429457664489746,-0.7322627902030945,-46.42501449584961,-5.663662433624268,19.586824417114258,0.5102439522743225,2.4044833183288574,-0.43338340520858765,0.0,0.0,0.0,0.0,0.0,0.0,0.0,-0.6950304207260485,-0.14168409630495427,-0.48546916080007924,0.4206745261469159,-0.08066452299356418,0.14182937774313997,-0.4159247336476489,0.8781148271853463,0.7556818945588892,-0.28250034917916955,-1.66929105032536,0.14139071621497473,2.403413636578481,1.027369492365254,0.878092876070424,0.7554597494309409,-0.2825552651693207,-1.6690993614607135,0.1414185955172306,2.4034451173676383,1.0273381002308042,0.0008350863419701057,-0.0009338414928759034,-0.0007826849280523236,0.001109360153451457,-0.0002822962476429592,6.976125408151802e-05,0.0004805214579851582,0.0,0.0,0.0,0.0,0.0,0.0,0.0,-2.195111492231394e-05,-0.00022214512794838104,-5.491599015117199e-05,0.0001916888646464887,2.7879302255867655e-05,3.148078915726771e-05,-3.139213444991462e-05,-0.0008350863419701057,0.0009338414928759034,0.0007826849280523236,-0.001109360153451457,0.0002822962476429592,-6.976125408151802e-05,-0.0004805214579851582,0.7322627902030945,46.42501449584961,5.663662433624268,-19.586824417114258,-0.5102439522743225,-2.4044833183288574,0.43338340520858765,0
15,0.0692903995513916,-0.6053096652030945,-46.42501449584961,-5.612087726593018,19.634431838989258,0.4983420968055725,2.4044833183288574,-0.39218467473983765,0.0,0.0,0.0,0.0,0.0,0.0,0.0,-0.6845560763090196,-0.13053891640903983,-0.47942566119354857,0.41791858966405326,-0.08090784018710671,0.1414493442396338,-0.41598399931761065,0.8781059181941182,0.755681897447804,-0.28250420499052464,-1.6692943911970706,0.14139203864336014,2.403413636578454,1.0273649147285353,0.878092876070424,0.7554597494309409,-0.2825552651693207,-1.6690993614607135,0.1414185955172306,2.4034451173676383,1.0273381002308042,-0.0003805920000999792,-0.00016651755373348482,-0.0003107222962528476,-0.0005587440336932178,0.0001998836884699858,0.00014708721407147377,-0.0010361364543708435,0.0,0.0,0.0,0.0,0.0,0.0,0.0,-1.3042123694240182e-05,-0.0002221480168631551,-5.106017879608071e-05,0.00019502973635709964,2.655687387045913e-05,3.148078918435715e-05,-2.6814497731120213e-05,0.0003805920000999792,0.00016651755373348482,0.0003107222962528476,0.0005587440336932178,-0.0001998836884699858,-0.00014708721407147377,0.0010361364543708435,0.6053096652030945,46.42501449584961,5.612087726593018,-19.634431838989258,-0.4983420968055725,-2.4044833183288574,0.39218467473983765,0
16,0.07429337501525879,-0.6053096652030945,-46.42501449584961,-5.612087726593018,19.634431838989258,0.4983420968055725,2.4044833183288574,-0.39218467473983765,0.0,0.0,0.0,0.0,0.0,0.0,0.0,-0.6845560763090196,-0.13053891640903983,-0.47942566119354857,0.41791858966405326,-0.08090784018710671,0.1414493442396338,-0.41598399931761065,0.8781059181941182,0.755681897447804,-0.28250420499052464,-1.6692943911970706,0.14139203864336014,2.403413636578454,1.0273649147285353,0.878092876070424,0.7554597494309409,-0.2825552651693207,-1.6690993614607135,0.1414185955172306,2.4034451173676383,1.0273381002308042,-0.0003805920000999792,-0.00016651755373348482,-0.0003107222962528476,-0.0005587440336932178,0.0001998836884699858,0.00014708721407147377,-0.0010361364543708435,0.0,0.0,0.0,0.0,0.0,0.0,0.0,-1.3042123694240182e-05,-0.0002221480168631551,-5.106017879608071e-05,0.00019502973635709964,2.655687387045913e-05,3.148078918435715e-05,-2.6814497731120213e-05,0.0003805920000999792,0.00016651755373348482,0.0003107222962528476,0.0005587440336932178,-0.0001998836884699858,-0.00014708721407147377,0.0010361364543708435,0.6053096652030945,46.42501449584961,5.612087726593018,-19.634431838989258,-0.4983420968055725,-2.4044833183288574,0.39218467473983765,0
17,0.0793008804321289,-0.6053096652030945,-46.42501449584961,-5.612087726593018,19.634431838989258,0.4983420968055725,2.4044833183288574,-0.39218467473983765,0.0,0.0,0.0,0.0,0.0,0.0,0.0,-0.6845560763090196,-0.13053891640903983,-0.47942566119354857,0.41791858966405326,-0.08090784018710671,0.1414493442396338,-0.41598399931761065,0.8781059181941182,0.755681897447804,-0.28250420499052464,-1.6692943911970706,0.14139203864336014,2.403413636578454,1.0273649147285353,0.878092876070424,0.7554597494309409,-0.2825552651693207,-1.6690993614607135,0.1414185955172306,2.4034451173676383,1.0273381002308042,-0.0003805920000999792,-0.00016651755373348482,-0.0003107222962528476,-0.0005587440336932178,0.0001998836884699858,0.00014708721407147377,-0.0010361364543708435,0.0,0.0,0.0,0.0,0.0,0.0,0.0,-1.3042123694240182e-05,-0.0002221480168631551,-5.106017879608071e-05,0.00019502973635709964,2.655687387045913e-05,3.148078918435715e-05,-2.6814497731120213e-05,0.0003805920000999792,0.00016651755373348482,0.0003107222962528476,0.0005587440336932178,-0.0001998836884699858,-0.00014708721407147377,0.0010361364543708435,0.6053096652030945,46.42501449584961,5.612087726593018,-19.634431838989258,-0.4983420968055725,-2.4044833183288574,0.39218467473983765,0
18,0.08431124687194824,-0.5537349581718445,-46.42501449584961,-5.536709308624268,19.610628128051758,0.4983420968055725,2.4044833183288574,-0.46084922552108765,0.0,0.0,0.0,0.0,0.0,0.0,0.0,-0.6869545203126595,-0.1300857954779837,-0.4836927443825964,0.4186988348693804,-0.0804681733891739,0.14209477650456023,-0.4152087806688111,0.8781022989164318,0.7556818974478203,-0.28250918252957796,-1.6692927207612152,0.14139203864336014,2.403413636578454,1.02737250487721,0.878092876070424,0.7554597494309409,-0.2825552651693207,-1.6690993614607135,0.1414185955172306,2.4034451173676383,1.0273381002308042,-0.0008366193276791726,-0.00020331434633892438,-0.0008444019822579623,0.0001174272129104284,0.00024607604484186147,0.000186839567840913,0.0015109950213916654,0.0,0.0,0.0,0.0,0.0,0.0,0.0,-9.422846007800523e-06,-0.00022214801687947539,-4.608263974276161e-05,0.00019335930050168315,2.655687387045913e-05,3.148078918435715e-05,-3.440464640580565e-05,0.0008366193276791726,0.00020331434633892438,0.0008444019822579623,-0.0001174272129104284,-0.00024607604484186147,-0.000186839567840913,-0.0015109950213916654,0.5537349581718445,46.42501449584961,5.536709308624268,-19.610628128051758,-0.4983420968055725,-2.4044833183288574,0.46084922552108765,0
19,0.08925724029541016,-0.5537349581718445,-46.42501449584961,-5.536709308624268,19.610628128051758,0.4983420968055725,2.4044833183288574,-0.46084922552108765,0.0,0.0,0.0,0.0,0.0,0.0,0.0,-0.6869545203126595,-0.1300857954779837,-0.4836927443825964,0.4186988348693804,-0.0804681733891739,0.14209477650456023,-0.4152087806688111,0.8781022989164318,0.7556818974478203,-0.28250918252957796,-1.6692927207612152,0.14139203864336014,2.403413636578454,1.02737250487721,0.878092876070424,0.7554597494309409,-0.2825552651693207,-1.6690993614607135,0.1414185955172306,2.4034451173676383,1.0273381002308042,-0.0008366193276791726,-0.00020331434633892438,-0.0008444019822579623,0.0001174272129104284,0.00024607604484186147,0.000186839567840913,0.0015109950213916654,0.0,0.0,0.0,0.0,0.0,0.0,0.0,-9.422846007800523e-06,-0.00022214801687947539,-4.608263974276161e-05,0.00019335930050168315,2.655687387045913e-05,3.148078918435715e-05,-3.440464640580565e-05,0.0008366193276791726,0.00020331434633892438,0.0008444019822579623,-0.0001174272129104284,-0.00024607604484186147,-0.000186839567840913,-0.0015109950213916654,0.5537349581718445,46.42501449584961,5.536709308624268,-19.610628128051758,-0.4983420968055725,-2.4044833183288574,0.46084922552108765,0
20,0.09424185752868652,-0.5021602511405945,-46.40121078491211,-5.512905597686768,19.586824417114258,0.5047507882118225,2.4108920097351074,-0.39950889348983765,0.0,0.0,0.0,0.0,0.0,0.0,0.0,-0.6586576325922804,-0.13823960338126295,-0.4647886744084027,0.42532528453731394,-0.08044245987984208,0.1431460880619555,-0.4161938758111984,0.8780986796387453,0.7556802183451716,-0.28251022321168107,-1.66929105032536,0.14139132656653722,2.403412937583583,1.0273657285303972,0.878092876070424,0.7554597494309409,-0.2825552651693207,-1.6690993614607135,0.1414185955172306,2.4034451173676383,1.0273381002308042,-0.00028193944040840504,-0.0012217704871902743,-0.001129315735753456,0.0005697963000164509,4.618179078935087e-05,-0.000171768105674062,-0.0006954879181943073,0.0,0.0,0.0,0.0,0.0,0.0,0.0,-5.8035683213608635e-06,-0.00022046891423077586,-4.504195763965768e-05,0.0001916888646464887,2.7268950693382088e-05,3.21797840552307e-05,-2.7628299593018824e-05,0.00028193944040840504,0.0012217704871902743,0.001129315735753456,-0.0005697963000164509,-4.618179078935087e-05,0.000171768105674062,0.0006954879181943073,0.5021602511405945,46.40121078491211,5.512905597686768,-19.586824417114258,-0.5047507882118225,-2.4108920097351074,0.39950889348983765,0
21,0.09930062294006348,-0.5021602511405945,-46.40121078491211,-5.512905597686768,19.586824417114258,0.5047507882118225,2.4108920097351074,-0.39950889348983765,0.0,0.0,0.0,0.0,0.0,0.0,0.0,-0.6586576325922804,-0.13823960338126295,-0.4647886744084027,0.42532528453731394,-0.08044245987984208,0.1431460880619555,-0.4161938758111984,0.8780986796387453,0.7556802183451716,-0.28251022321168107,-1.66929105032536,0.14139132656653722,2.403412937583583,1.0273657285303972,0.878092876070424,0.7554597494309409,-0.2825552651693207,-1.6690993614607135,0.1414185955172306,2.4034451173676383,1.0273381002308042,-0.00028193944040840504,-0.0012217704871902743,-0.001129315735753456,0.0005697963000164509,4.618179078935087e-05,-0.000171768105674062,-0.0006954879181943073,0.0,0.0,0.0,0.0,0.0,0.0,0.0,-5.8035683213608635e-06,-0.00022046891423077586,-4.504195763965768e-05,0.0001916888646464887,2.7268950693382088e-05,3.21797840552307e-05,-2.7628299593018824e-05,0.00028193944040840504,0.0012217704871902743,0.001129315735753456,-0.0005697963000164509,-4.618179078935087e-05,0.000171768105674062,0.0006954879181943073,0.5021602511405945,46.40121078491211,5.512905597686768,-19.586824417114258,-0.5047507882118225,-2.4108920097351074,0.39950889348983765,0
22,0.10429072380065918,-0.5021602511405945,-46.40121078491211,-5.512905597686768,19.586824417114258,0.5047507882118225,2.4108920097351074,-0.39950889348983765,0.0,0.0,0.0,0.0,0.0,0.0,0.0,-0.6586576325922804,-0.13823960338126295,-0.4647886744084027,0.42532528453731394,-0.08044245987984208,0.1431460880619555,-0.4161938758111984,0.8780986796387453,0.7556802183451716,-0.28251022321168107,-1.66929105032536,0.14139132656653722,2.403412937583583,1.0273657285303972,0.878092876070424,0.7554597494309409,-0.2825552651693207,-1.6690993614607135,0.1414185955172306,2.4034451173676383,1.0273381002308042,-0.00028193944040840504,-0.0012217704871902743,-0.001129315735753456,0.0005697963000164509,4.618179078935087e-05,-0.000171768105674062,-0.0006954879181943073,0.0,0.0,0.0,0.0,0.0,0.0,0.0,-5.8035683213608635e-06,-0.00022046891423077586,-4.504195763965768e-05,0.0001916888646464887,2.7268950693382088e-05,3.21797840552307e-05,-2.7628299593018824e-05,0.00028193944040840504,0.0012217704871902743,0.001129315735753456,-0.0005697963000164509,-4.618179078935087e-05,0.000171768105674062,0.0006954879181943073,0.5021602511405945,46.40121078491211,5.512905597686768,-19.586824417114258,-0.5047507882118225,-2.4108920097351074,0.39950889348983765,0
23,0.1100618839263916,-0.5021602511405945,-46.47658920288086,-5.536709308624268,19.610628128051758,0.4983420968055725,2.4044833183288574,-0.40591758489608765,0.0,0.0,0.0,0.0,0.0,0.0,0.0,-0.6069361652217354,-0.12999606681763265,-0.4308473753275551,0.4200125815371217,-0.08054017566411723,0.14249567004657576,-0.41650205923052075,0.8780986796387453,0.7556855167255012,-0.2825094976210105,-1.6692927207612152,0.14139203864336014,2.4034136496604144,1.0273664406074416,0.878092876070424,0.7554597494309409,-0.2825552651693207,-1.6690993614607135,0.1414185955172306,2.4034451173676383,1.0273381002308042,-0.0003302814858497583,0.00029704244437902096,0.0003332742424364182,-0.00017880588758565602,0.0001999944799501043,0.00018645974462817668,9.565017172738459e-06,0.0,0.0,0.0,0.0,0.0,0.0,0.0,-5.8035683213608635e-06,-0.00022576729456036393,-4.576754831020491e-05,0.00019335930050168315,2.655687387045913e-05,3.146770722395331e-05,-2.834037663745903e-05,0.0003302814858497583,-0.00029704244437902096,-0.0003332742424364182,0.00017880588758565602,-0.0001999944799501043,-0.00018645974462817668,-9.565017172738459e-06,0.5021602511405945,46.47658920288086,5.536709308624268,-19.610628128051758,-0.4983420968055725,-2.4044833183288574,0.40591758489608765,0
24,0.1144554615020752,-0.5021602511405945,-46.47658920288086,-5.536709308624268,19.610628128051758,0.4983420968055725,2.4044833183288574,-0.40591758489608765,0.0,0.0,0.0,0.0,0.0,0.0,0.0,-0.6069361652217354,-0.12999606681763265,-0.4308473753275551,0.4200125815371217,-0.08054017566411723,0.14249567004657576,-0.41650205923052075,0.8780986796387453,0.7556855167255012,-0.2825094976210105,-1.6692927207612152,0.14139203864336014,2.4034136496604144,1.0273664406074416,0.878092876070424,0.7554597494309409,-0.2825552651693207,-1.6690993614607135,0.1414185955172306,2.4034451173676383,1.0273381002308042,-0.0003302814858497583,0.00029704244437902096,0.0003332742424364182,-0.00017880588758565602,0.0001999944799501043,0.00018645974462817668,9.565017172738459e-06,0.0,0.0,0.0,0.0,0.0,0.0,0.0,-5.8035683213608635e-06,-0.00022576729456036393,-4.576754831020491e-05,0.00019335930050168315,2.655687387045913e-05,3.146770722395331e-05,-2.834037663745903e-05,0.0003302814858497583,-0.00029704244437902096,-0.0003332742424364182,0.00017880588758565602,-0.0001999944799501043,-0.00018645974462817668,-9.565017172738459e-06,0.5021602511405945,46.47658920288086,5.536709308624268,-19.610628128051758,-0.4983420968055725,-2.4044833183288574,0.40591758489608765,0
25,0.11928725242614746,-0.5021602511405945,-46.47658920288086,-5.536709308624268,19.610628128051758,0.4983420968055725,2.4044833183288574,-0.40591758489608765,0.0,0.0,0.0,0.0,0.0,0.0,0.0,-0.6069361652217354,-0.12999606681763265,-0.4308473753275551,0.4200125815371217,-0.08054017566411723,0.14249567004657576,-0.41650205923052075,0.8780986796387453,0.7556855167255012,-0.2825094976210105,-1.6692927207612152,0.14139203864336014,2.4034136496604144,1.0273664406074416,0.878092876070424,0.7554597494309409,-0.2825552651693207,-1.6690993614607135,0.1414185955172306,2.4034451173676383,1.0273381002308042,-0.0003302814858497583,0.00029704244437902096,0.0003332742424364182,-0.00017880588758565602,0.0001999944799501043,0.00018645974462817668,9.565017172738459e-06,0.0,0.0,0.0,0.0,0.0,0.0,0.0,-5.8035683213608635e-06,-0.00022576729456036393,-4.576754831020491e-05,0.00019335930050168315,2.655687387045913e-05,3.146770722395331e-05,-2.834037663745903e-05,0.0003302814858497583,-0.00029704244437902096,-0.0003332742424364182,0.00017880588758565602,-0.0001999944799501043,-0.00018645974462817668,-9.565017172738459e-06,0.5021602511405945,46.47658920288086,5.536709308624268,-19.610628128051758,-0.4983420968055725,-2.4044833183288574,0.40591758489608765,0
26,0.1242678165435791,-0.6291133761405945,-46.50039291381836,-5.536709308624268,19.586824417114258,0.5166526436805725,2.4108920097351074,-0.41324180364608765,0.0,0.0,0.0,0.0,0.0,0.0,0.0,-0.6430436674608293,-0.12781895606973645,-0.4555068939532292,0.40964331772857787,-0.07944478732310702,0.14226313356194842,-0.415671425785708,0.8781075886299734,0.7556869531579418,-0.28250949762160316,-1.66929105032536,0.1413900041381518,2.403412924501705,1.027367254409525,0.878092876070424,0.7554597494309409,-0.2825552651693207,-1.6690993614607135,0.1414185955172306,2.4034451173676383,1.0273381002308042,0.0012732992197921678,0.0010518189192948145,-0.00024809650494950897,0.0008783801100111524,-0.0005196744779706831,-0.00019883308024215904,-0.00018551661403286667,0.0,0.0,0.0,0.0,0.0,0.0,0.0,-1.4712559549434623e-05,-0.00022720372700091307,-4.576754771756786e-05,0.0001916888646464887,2.8591379078790613e-05,3.219286593347803e-05,-2.9154178720736112e-05,-0.0012732992197921678,-0.0010518189192948145,0.00024809650494950897,-0.0008783801100111524,0.0005196744779706831,0.00019883308024215904,0.00018551661403286667,0.6291133761405945,46.50039291381836,5.536709308624268,-19.586824417114258,-0.5166526436805725,-2.4108920097351074,0.41324180364608765,0
27,0.12924504280090332,-0.6291133761405945,-46.50039291381836,-5.536709308624268,19.586824417114258,0.5166526436805725,2.4108920097351074,-0.41324180364608765,0.0,0.0,0.0,0.0,0.0,0.0,0.0,-0.6430436674608293,-0.12781895606973645,-0.4555068939532292,0.40964331772857787,-0.07944478732310702,0.14226313356194842,-0.415671425785708,0.8781075886299734,0.7556869531579418,-0.28250949762160316,-1.66929105032536,0.1413900041381518,2.403412924501705,1.027367254409525,0.878092876070424,0.7554597494309409,-0.2825552651693207,-1.6690993614607135,0.1414185955172306,2.4034451173676383,1.0273381002308042,0.0012732992197921678,0.0010518189192948145,-0.00024809650494950897,0.0008783801100111524,-0.0005196744779706831,-0.00019883308024215904,-0.00018551661403286667,0.0,0.0,0.0,0.0,0.0,0.0,0.0,-1.4712559549434623e-05,-0.00022720372700091307,-4.576754771756786e-05,0.0001916888646464887,2.8591379078790613e-05,3.219286593347803e-05,-2.9154178720736112e-05,-0.0012732992197921678,-0.0010518189192948145,0.00024809650494950897,-0.0008783801100111524,0.0005196744779706831,0.00019883308024215904,0.00018551661403286667,0.6291133761405945,46.50039291381836,5.536709308624268,-19.586824417114258,-0.5166526436805725,-2.4108920097351074,0.41324180364608765,0
28,0.13490605354309082,-0.6806880831718445,-46.52419662475586,-5.635891437530518,19.634431838989258,0.5102439522743225,2.4173007011413574,-0.38577598333358765,0.0,0.0,0.0,0.0,0.0,0.0,0.0,-0.6454597136569667,-0.14207517975999143,-0.45431786099621635,0.4104291771719468,-0.07950581340425938,0.14299970685146685,-0.4150131551386522,0.8781112079076598,0.7556888575958963,-0.28250253747220627,-1.6692943911970706,0.14139071621497473,2.4034122124248083,1.0273642026517125,0.878092876070424,0.7554597494309409,-0.2825552651693207,-1.6690993614607135,0.1414185955172306,2.4034451173676383,1.0273381002308042,0.0010594003360807132,0.0007120482717520359,0.0004746276955563878,-0.0007744681207101108,0.0005479713360722533,-0.00044920030915886303,-0.0011774523277176333,0.0,0.0,0.0,0.0,0.0,0.0,0.0,-1.8331837235874282e-05,-0.0002291081649554716,-5.272769711445191e-05,0.00019502973635709964,2.7879302255867655e-05,3.290494283003653e-05,-2.610242090828052e-05,-0.0010594003360807132,-0.0007120482717520359,-0.0004746276955563878,0.0007744681207101108,-0.0005479713360722533,0.00044920030915886303,0.0011774523277176333,0.6806880831718445,46.52419662475586,5.635891437530518,-19.634431838989258,-0.5102439522743225,-2.4173007011413574,0.38577598333358765,0
29,0.13930130004882812,-0.6806880831718445,-46.52419662475586,-5.635891437530518,19.634431838989258,0.5102439522743225,2.4173007011413574,-0.38577598333358765,0.0,0.0,0.0,0.0,0.0,0.0,0.0,-0.6454597136569667,-0.14207517975999143,-0.45431786099621635,0.4104291771719468,-0.07950581340425938,0.14299970685146685,-0.4150131551386522,0.8781112079076598,0.7556888575958963,-0.28250253747220627,-1.6692943911970706,0.14139071621497473,2.4034122124248083,1.0273642026517125,0.878092876070424,0.7554597494309409,-0.2825552651693207,-1.6690993614607135,0.1414185955172306,2.4034451173676383,1.0273381002308042,0.0010594003360807132,0.0007120482717520359,0.0004746276955563878,-0.0007744681207101108,0.0005479713360722533,-0.00044920030915886303,-0.0011774523277176333,0.0,0.0,0.0,0.0,0.0,0.0,0.0,-1.8331837235874282e-05,-0.0002291081649554716,-5.272769711445191e-05,0.00019502973635709964,2.7879302255867655e-05,3.290494283003653e-05,-2.610242090828052e-05,-0.0010594003360807132,-0.0007120482717520359,-0.0004746276955563878,0.0007744681207101108,-0.0005479713360722533,0.00044920030915886303,0.0011774523277176333,0.6806880831718445,46.52419662475586,5.635891437530518,-19.634431838989258,-0.5102439522743225,-2.4173007011413574,0.38577598333358765,0
30,0.14429998397827148,-0.7560665011405945,-46.50039291381836,-5.635891437530518,19.610628128051758,0.5221458077430725,2.3980746269226074,-0.43979209661483765,0.0,0.0,0.0,0.0,0.0,0.0,0.0,-0.6587858939283179,-0.1353434391494186,-0.457705914826686,0.4031729688474748,-0.07856988924736232,0.1418403570250773,-0.4134561840137603,0.8781164976212015,0.7556871861983849,-0.28250253747220627,-1.6692927207612152,0.1413893937865893,2.403414348709112,1.027370204442077,0.878092876070424,0.7554597494309409,-0.2825552651693207,-1.6690993614607135,0.1414185955172306,2.4034451173676383,1.0273381002308042,0.0004632252889697948,0.00048281732696623503,-0.0007237413768931675,-0.00040517378050765356,-0.00038381212790838536,0.0002818451316571886,0.0007888735192089816,0.0,0.0,0.0,0.0,0.0,0.0,0.0,-2.3621550777508382e-05,-0.00022743676744407804,-5.272769711445191e-05,0.00019335930050168315,2.9201730641303936e-05,3.0768658526358905e-05,-3.210421127275431e-05,-0.0004632252889697948,-0.00048281732696623503,0.0007237413768931675,0.00040517378050765356,0.00038381212790838536,-0.0002818451316571886,-0.0007888735192089816,0.7560665011405945,46.50039291381836,5.635891437530518,-19.610628128051758,-0.5221458077430725,-2.3980746269226074,0.43979209661483765,0
31,0.14928770065307617,-0.7560665011405945,-46.50039291381836,-5.635891437530518,19.610628128051758,0.5221458077430725,2.3980746269226074,-0.43979209661483765,0.0,0.0,0.0,0.0,0.0,0.0,0.0,-0.6587858939283179,-0.1353434391494186,-0.457705914826686,0.4031729688474748,-0.07856988924736232,0.1418403570250773,-0.4134561840137603,0.8781164976212015,0.7556871861983849,-0.28250253747220627,-1.6692927207612152,0.1413893937865893,2.403414348709112,1.027370204442077,0.878092876070424,0.7554597494309409,-0.2825552651693207,-1.6690993614607135,0.1414185955172306,2.4034451173676383,1.0273381002308042,0.0004632252889697948,0.00048281732696623503,-0.0007237413768931675,-0.00040517378050765356,-0.00038381212790838536,0.0002818451316571886,0.0007888735192089816,0.0,0.0,0.0,0.0,0.0,0.0,0.0,-2.3621550777508382e-05,-0.00022743676744407804,-5.272769711445191e-05,0.00019335930050168315,2.9201730641303936e-05,3.0768658526358905e-05,-3.210421127275431e-05,-0.0004632252889697948,-0.00048281732696623503,0.0007237413768931675,0.00040517378050765356,0.00038381212790838536,-0.0002818451316571886,-0.0007888735192089816,0.7560665011405945,46.50039291381836,5.635891437530518,-19.610628128051758,-0.5221458077430725,-2.3980746269226074,0.43979209661483765,0
32,0.15429019927978516,-0.7838374972343445,-46.42501449584961,-5.711269855499268,19.634431838989258,0.5166526436805725,2.4108920097351074,-0.40591758489608765,0.0,0.0,0.0,0.0,0.0,0.0,0.0,-0.6664024171188595,-0.13687004592047702,-0.4570021030691208,0.40529924234205467,-0.0778389452834492,0.14165660199617602,-0.41280731388839975,0.8781184464630326,0.7556818974121491,-0.2824972477586646,-1.6692943911970706,0.1413900041381518,2.403413984139761,1.0273632616930537,0.878092876070424,0.7554597494309409,-0.2825552651693207,-1.6690993614607135,0.1414185955172306,2.4034451173676383,1.0273381002308042,0.00046901619346214566,-0.0010236418772359038,-0.0002124485898006181,-0.0002348150572698213,-0.00028146770545132326,-8.237909103217925e-06,6.845374462955667e-05,0.0,0.0,0.0,0.0,0.0,0.0,0.0,-2.5570392608642578e-05,-0.00022214798120823165,-5.801741065614152e-05,0.00019502973635709964,2.8591379078790613e-05,3.113322787751116e-05,-2.5161462249512212e-05,-0.00046901619346214566,0.0010236418772359038,0.0002124485898006181,0.0002348150572698213,0.00028146770545132326,8.237909103217925e-06,-6.845374462955667e-05,0.7838374972343445,46.42501449584961,5.711269855499268,-19.634431838989258,-0.5166526436805725,-2.4108920097351074,0.40591758489608765,0
33,0.1593000888824463,-0.7838374972343445,-46.42501449584961,-5.711269855499268,19.634431838989258,0.5166526436805725,2.4108920097351074,-0.40591758489608765,0.0,0.0,0.0,0.0,0.0,0.0,0.0,-0.6664024171188595,-0.13687004592047702,-0.4570021030691208,0.40529924234205467,-0.0778389452834492,0.14165660199617602,-0.41280731388839975,0.8781184464630326,0.7556818974121491,-0.2824972477586646,-1.6692943911970706,0.1413900041381518,2.403413984139761,1.0273632616930537,0.878092876070424,0.7554597494309409,-0.2825552651693207,-1.6690993614607135,0.1414185955172306,2.4034451173676383,1.0273381002308042,0.00046901619346214566,-0.0010236418772359038,-0.0002124485898006181,-0.0002348150572698213,-0.00028146770545132326,-8.237909103217925e-06,6.845374462955667e-05,0.0,0.0,0.0,0.0,0.0,0.0,0.0,-2.5570392608642578e-05,-0.00022214798120823165,-5.801741065614152e-05,0.00019502973635709964,2.8591379078790613e-05,3.113322787751116e-05,-2.5161462249512212e-05,-0.00046901619346214566,0.0010236418772359038,0.0002124485898006181,0.0002348150572698213,0.00028146770545132326,8.237909103217925e-06,-6.845374462955667e-05,0.7838374972343445,46.42501449584961,5.711269855499268,-19.634431838989258,-0.5166526436805725,-2.4108920097351074,0.40591758489608765,0
34,0.16443324089050293,-0.7322627902030945,-46.42501449584961,-5.735073566436768,19.586824417114258,0.5102439522743225,2.4237093925476074,-0.41324180364608765,0.0,0.0,0.0,0.0,0.0,0.0,0.0,-0.666524296916381,-0.14298556424129374,-0.4574734945813285,0.41393445644027754,-0.0778176106435608,0.14244240181969153,-0.41261032062586084,0.8781148271853463,0.7556818974478201,-0.28249557732280933,-1.66929105032536,0.14139071621497473,2.403411500515472,1.02736725439158,0.878092876070424,0.7554597494309409,-0.2825552651693207,-1.6690993614607135,0.1414185955172306,2.4034451173676383,1.0273381002308042,-0.0009564831042375851,-0.0006811185571624957,0.00020803273241586112,0.0007479144673588858,4.224462539041915e-05,-0.0007097723039271391,0.0002487784083568972,0.0,0.0,0.0,0.0,0.0,0.0,0.0,-2.195111492231394e-05,-0.00022214801687925334,-5.9687846511391474e-05,0.0001916888646464887,2.7879302255867655e-05,3.3616852166407085e-05,-2.9154160775757276e-05,0.0009564831042375851,0.0006811185571624957,-0.00020803273241586112,-0.0007479144673588858,-4.224462539041915e-05,0.0007097723039271391,-0.0002487784083568972,0.7322627902030945,46.42501449584961,5.735073566436768,-19.586824417114258,-0.5102439522743225,-2.4237093925476074,0.41324180364608765,0
35,0.1693108081817627,-0.7322627902030945,-46.42501449584961,-5.735073566436768,19.586824417114258,0.5102439522743225,2.4237093925476074,-0.41324180364608765,0.0,0.0,0.0,0.0,0.0,0.0,0.0,-0.666524296916381,-0.14298556424129374,-0.4574734945813285,0.41393445644027754,-0.0778176106435608,0.14244240181969153,-0.41261032062586084,0.8781148271853463,0.7556818974478201,-0.28249557732280933,-1.66929105032536,0.14139071621497473,2.403411500515472,1.02736725439158,0.878092876070424,0.7554597494309409,-0.2825552651693207,-1.6690993614607135,0.1414185955172306,2.4034451173676383,1.0273381002308042,-0.0009564831042375851,-0.0006811185571624957,0.00020803273241586112,0.0007479144673588858,4.224462539041915e-05,-0.0007097723039271391,0.0002487784083568972,0.0,0.0,0.0,0.0,0.0,0.0,0.0,-2.195111492231394e-05,-0.00022214801687925334,-5.9687846511391474e-05,0.0001916888646464887,2.7879302255867655e-05,3.3616852166407085e-05,-2.9154160775757276e-05,0.0009564831042375851,0.0006811185571624957,-0.00020803273241586112,-0.0007479144673588858,-4.224462539041915e-05,0.0007097723039271391,-0.0002487784083568972,0.7322627902030945,46.42501449584961,5.735073566436768,-19.586824417114258,-0.5102439522743225,-2.4237093925476074,0.41324180364608765,0
36,0.17431139945983887,-0.7322627902030945,-46.40121078491211,-5.711269855499268,19.634431838989258,0.5047507882118225,2.4108920097351074,-0.40591758489608765,0.0,0.0,0.0,0.0,0.0,0.0,0.0,-0.6671303537433686,-0.13622509775006175,-0.45898157367562775,0.4161621411748434,-0.07722057233352604,0.1424052251574958,-0.4131414951061655,0.8781148271853463,0.7556802266909727,-0.2824951218596676,-1.6692943911970706,0.14139132656653722,2.403412924501634,1.0273664275254892,0.878092876070424,0.7554597494309409,-0.2825552651693207,-1.6690993614607135,0.1414185955172306,2.4034451173676383,1.0273381002308042,-0.00038252366916767625,-0.0007557268893358,0.0009786579511808283,-0.0002764262626761944,0.0003507771316129888,-4.6423684926969815e-05,-0.0012638638158907016,0.0,0.0,0.0,0.0,0.0,0.0,0.0,-2.195111492231394e-05,-0.0002204772600318261,-6.014330965314896e-05,0.00019502973635709964,2.7268950693382088e-05,3.2192866004532306e-05,-2.83272946850488e-05,0.00038252366916767625,0.0007557268893358,-0.0009786579511808283,0.0002764262626761944,-0.0003507771316129888,4.6423684926969815e-05,0.0012638638158907016,0.7322627902030945,46.40121078491211,5.711269855499268,-19.634431838989258,-0.5047507882118225,-2.4108920097351074,0.40591758489608765,0
37,0.17931079864501953,-0.7322627902030945,-46.40121078491211,-5.711269855499268,19.634431838989258,0.5047507882118225,2.4108920097351074,-0.40591758489608765,0.0,0.0,0.0,0.0,0.0,0.0,0.0,-0.6671303537433686,-0.13622509775006175,-0.45898157367562775,0.4161621411748434,-0.07722057233352604,0.1424052251574958,-0.4131414951061655,0.8781148271853463,0.7556802266909727,-0.2824951218596676,-1.6692943911970706,0.14139132656653722,2.403412924501634,1.0273664275254892,0.878092876070424,0.7554597494309409,-0.2825552651693207,-1.6690993614607135,0.1414185955172306,2.4034451173676383,1.0273381002308042,-0.00038252366916767625,-0.0007557268893358,0.0009786579511808283,-0.0002764262626761944,0.0003507771316129888,-4.6423684926969815e-05,-0.0012638638158907016,0.0,0.0,0.0,0.0,0.0,0.0,0.0,-2.195111492231394e-05,-0.0002204772600318261,-6.014330965314896e-05,0.00019502973635709964,2.7268950693382088e-05,3.2192866004532306e-05,-2.83272946850488e-05,0.00038252366916767625,0.0007557268893358,-0.0009786579511808283,0.0002764262626761944,-0.0003507771316129888,4.6423684926969815e-05,0.0012638638158907016,0.7322627902030945,46.40121078491211,5.711269855499268,-19.634431838989258,-0.5047507882118225,-2.4108920097351074,0.40591758489608765,0
38,0.1842968463897705,-0.6291133761405945,-46.44881820678711,-5.635891437530518,19.610628128051758,0.5221458077430725,2.3980746269226074,-0.41324180364608765,0.0,0.0,0.0,0.0,0.0,0.0,0.0,-0.6677390802359786,-0.1409596382114234,-0.46212396198630223,0.424833829190962,-0.0757379027367496,0.14365718758622392,-0.4147206081583572,0.8781075886299734,0.755683567848009,-0.28250040865302384,-1.6692927207612152,0.1413893937865893,2.4034143491397932,1.0273672544095005,0.878092876070424,0.7554597494309409,-0.2825552651693207,-1.6690993614607135,0.1414185955172306,2.4034451173676383,1.0273381002308042,-0.0011729945124347467,0.00033810960084003784,-0.00021413271788288344,0.0005985230680161889,-0.0003790708724792204,0.0003063087102386631,-0.0005386122428704706,0.0,0.0,0.0,0.0,0.0,0.0,0.0,-1.4712559549434623e-05,-0.00022381841706820005,-5.485651629688615e-05,0.00019335930050168315,2.9201730641303936e-05,3.076822784509048e-05,-2.9154178696311206e-05,0.0011729945124347467,-0.00033810960084003784,0.00021413271788288344,-0.0005985230680161889,0.0003790708724792204,-0.0003063087102386631,0.0005386122428704706,0.6291133761405945,46.44881820678711,5.635891437530518,-19.610628128051758,-0.5221458077430725,-2.3980746269226074,0.41324180364608765,0
39,0.18929815292358398,-0.6291133761405945,-46.44881820678711,-5.635891437530518,19.610628128051758,0.5221458077430725,2.3980746269226074,-0.41324180364608765,0.0,0.0,0.0,0.0,0.0,0.0,0.0,-0.6677390802359786,-0.1409596382114234,-0.46212396198630223,0.424833829190962,-0.0757379027367496,0.14365718758622392,-0.4147206081583572,0.8781075886299734,0.755683567848009,-0.28250040865302384,-1.6692927207612152,0.1413893937865893,2.4034143491397932,1.0273672544095005,0.878092876070424,0.7554597494309409,-0.2825552651693207,-1.6690993614607135,0.1414185955172306,2.4034451173676383,1.0273381002308042,-0.0011729945124347467,0.00033810960084003784,-0.00021413271788288344,0.0005985230680161889,-0.0003790708724792204,0.0003063087102386631,-0.0005386122428704706,0.0,0.0,0.0,0.0,0.0,0.0,0.0,-1.4712559549434623e-05,-0.00022381841706820005,-5.485651629688615e-05,0.00019335930050168315,2.9201730641303936e-05,3.076822784509048e-05,-2.9154178696311206e-05,0.0011729945124347467,-0.00033810960084003784,0.00021413271788288344,-0.0005985230680161889,0.0003790708724792204,-0.0003063087102386631,0.0005386122428704706,0.6291133761405945,46.44881820678711,5.635891437530518,-19.610628128051758,-0.5221458077430725,-2.3980746269226074,0.41324180364608765,0
40,0.19428801536560059,-0.6053096652030945,-46.40121078491211,-5.588284015655518,19.634431838989258,0.5047507882118225,2.4108920097351074,-0.39218467473983765,0.0,0.0,0.0,0.0,0.0,0.0,0.0,-0.6746685027638379,-0.12992921752760508,-0.47125631741004337,0.41904222740381813,-0.07429321674904392,0.14242930339848367,-0.415517665579652,0.8781059181941182,0.7556802270119648,-0.28250587833189955,-1.6692943911970706,0.14139132656653722,2.4034129288622843,1.0273638549289006,0.878092876070424,0.7554597494309409,-0.2825552651693207,-1.6690993614607135,0.1414185955172306,2.4034451173676383,1.0273381002308042,-0.0005395316923708206,-0.0012698824896380993,-0.0010754388052476068,-0.0006806346407636636,0.0003153922944657959,8.498025182961297e-05,-0.0006380884289334492,0.0,0.0,0.0,0.0,0.0,0.0,0.0,-1.3042123694240182e-05,-0.00022047758102394788,-4.938683742117256e-05,0.00019502973635709964,2.7268950693382088e-05,3.2188505354024954e-05,-2.575469809640296e-05,0.0005395316923708206,0.0012698824896380993,0.0010754388052476068,0.0006806346407636636,-0.0003153922944657959,-8.498025182961297e-05,0.0006380884289334492,0.6053096652030945,46.40121078491211,5.588284015655518,-19.634431838989258,-0.5047507882118225,-2.4108920097351074,0.39218467473983765,0
41,0.19929051399230957,-0.6053096652030945,-46.40121078491211,-5.588284015655518,19.634431838989258,0.5047507882118225,2.4108920097351074,-0.39218467473983765,0.0,0.0,0.0,0.0,0.0,0.0,0.0,-0.6746685027638379,-0.12992921752760508,-0.47125631741004337,0.41904222740381813,-0.07429321674904392,0.14242930339848367,-0.415517665579652,0.8781059181941182,0.7556802270119648,-0.28250587833189955,-1.6692943911970706,0.14139132656653722,2.4034129288622843,1.0273638549289006,0.878092876070424,0.7554597494309409,-0.2825552651693207,-1.6690993614607135,0.1414185955172306,2.4034451173676383,1.0273381002308042,-0.0005395316923708206,-0.0012698824896380993,-0.0010754388052476068,-0.0006806346407636636,0.0003153922944657959,8.498025182961297e-05,-0.0006380884289334492,0.0,0.0,0.0,0.0,0.0,0.0,0.0,-1.3042123694240182e-05,-0.00022047758102394788,-4.938683742117256e-05,0.00019502973635709964,2.7268950693382088e-05,3.2188505354024954e-05,-2.575469809640296e-05,0.0005395316923708206,0.0012698824896380993,0.0010754388052476068,0.0006806346407636636,-0.0003153922944657959,-8.498025182961297e-05,0.0006380884289334492,0.6053096652030945,46.40121078491211,5.588284015655518,-19.634431838989258,-0.5047507882118225,-2.4108920097351074,0.39218467473983765,0
42,0.204498291015625,-0.5537349581718445,-46.47658920288086,-5.564480304718018,19.610628128051758,0.5221458077430725,2.3916659355163574,-0.38577598333358765,0.0,0.0,0.0,0.0,0.0,0.0,0.0,-0.6647275669203486,-0.13398686199173906,-0.4701671887364836,0.42028560498317075,-0.07331214289829717,0.14329910537590293,-0.4157915830780585,0.8781022989164318,0.7556855167255067,-0.28250754877977197,-1.6692927207612152,0.1413893937865893,2.403415060732124,1.0273641982850792,0.878092876070424,0.7554597494309409,-0.2825552651693207,-1.6690993614607135,0.1414185955172306,2.4034451173676383,1.0273381002308042,-0.0005477545810325783,0.0001615214768111711,-0.0008651006816342522,4.0411024937839096e-05,-0.00018110119980215304,0.0007229236116242629,-0.001084235884344743,0.0,0.0,0.0,0.0,0.0,0.0,0.0,-9.422846007800523e-06,-0.00022576729456580402,-4.7716389548757565e-05,0.00019335930050168315,2.9201730641303936e-05,3.005663551425286e-05,-2.6098054275003335e-05,0.0005477545810325783,-0.0001615214768111711,0.0008651006816342522,-4.0411024937839096e-05,0.00018110119980215304,-0.0007229236116242629,0.001084235884344743,0.5537349581718445,46.47658920288086,5.564480304718018,-19.610628128051758,-0.5221458077430725,-2.3916659355163574,0.38577598333358765,0
43,0.20929336547851562,-0.5537349581718445,-46.47658920288086,-5.564480304718018,19.610628128051758,0.5221458077430725,2.3916659355163574,-0.38577598333358765,0.0,0.0,0.0,0.0,0.0,0.0,0.0,-0.6647275669203486,-0.13398686199173906,-0.4701671887364836,0.42028560498317075,-0.07331214289829717,0.14329910537590293,-0.4157915830780585,0.8781022989164318,0.7556855167255067,-0.28250754877977197,-1.6692927207612152,0.1413893937865893,2.403415060732124,1.0273641982850792,0.878092876070424,0.7554597494309409,-0.2825552651693207,-1.6690993614607135,0.1414185955172306,2.4034451173676383,1.0273381002308042,-0.0005477545810325783,0.0001615214768111711,-0.0008651006816342522,4.0411024937839096e-05,-0.00018110119980215304,0.0007229236116242629,-0.001084235884344743,0.0,0.0,0.0,0.0,0.0,0.0,0.0,-9.422846007800523e-06,-0.00022576729456580402,-4.7716389548757565e-05,0.00019335930050168315,2.9201730641303936e-05,3.005663551425286e-05,-2.6098054275003335e-05,0.0005477545810325783,-0.0001615214768111711,0.0008651006816342522,-4.0411024937839096e-05,0.00018110119980215304,-0.0007229236116242629,0.001084235884344743,0.5537349581718445,46.47658920288086,5.564480304718018,-19.610628128051758,-0.5221458077430725,-2.3916659355163574,0.38577598333358765,0
44,0.21430039405822754,-0.5299312472343445,-46.50039291381836,-5.564480304718018,19.610628128051758,0.5166526436805725,2.4108920097351074,-0.41965049505233765,0.0,0.0,0.0,0.0,0.0,0.0,0.0,-0.6580161838682365,-0.1411239954956787,-0.4711155816954976,0.4180716136987474,-0.07220166847783685,0.1432184332699003,-0.4145169073050545,0.8781006284805766,0.755687187161362,-0.282507548779772,-1.6692927207612152,0.1413900041381518,2.403412924501631,1.0273679660018065,0.878092876070424,0.7554597494309409,-0.2825552651693207,-1.6690993614607135,0.1414185955172306,2.4034451173676383,1.0273381002308042,-0.0008154775213145218,3.5458323694226834e-06,-0.0007590464323912676,-9.02272704412062e-05,-0.0001006227436187068,-0.00014632011035595774,-0.00016591033631021903,0.0,0.0,0.0,0.0,0.0,0.0,0.0,-7.752410152606082e-06,-0.00022743773042110949,-4.7716389548702054e-05,0.00019335930050168315,2.8591379078790613e-05,3.219286600719684e-05,-2.986577100227983e-05,0.0008154775213145218,-3.5458323694226834e-06,0.0007590464323912676,9.02272704412062e-05,0.0001006227436187068,0.00014632011035595774,0.00016591033631021903,0.5299312472343445,46.50039291381836,5.564480304718018,-19.610628128051758,-0.5166526436805725,-2.4108920097351074,0.41965049505233765,0
45,0.21932530403137207,-0.5299312472343445,-46.50039291381836,-5.564480304718018,19.610628128051758,0.5166526436805725,2.4108920097351074,-0.41965049505233765,0.0,0.0,0.0,0.0,0.0,0.0,0.0,-0.6580161838682365,-0.1411239954956787,-0.4711155816954976,0.4180716136987474,-0.07220166847783685,0.1432184332699003,-0.4145169073050545,0.8781006284805766,0.755687187161362,-0.282507548779772,-1.6692927207612152,0.1413900041381518,2.403412924501631,1.0273679660018065,0.878092876070424,0.7554597494309409,-0.2825552651693207,-1.6690993614607135,0.1414185955172306,2.4034451173676383,1.0273381002308042,-0.0008154775213145218,3.5458323694226834e-06,-0.0007590464323912676,-9.02272704412062e-05,-0.0001006227436187068,-0.00014632011035595774,-0.00016591033631021903,0.0,0.0,0.0,0.0,0.0,0.0,0.0,-7.752410152606082e-06,-0.00022743773042110949,-4.7716389548702054e-05,0.00019335930050168315,2.8591379078790613e-05,3.219286600719684e-05,-2.986577100227983e-05,0.0008154775213145218,-3.5458323694226834e-06,0.0007590464323912676,9.02272704412062e-05,0.0001006227436187068,0.00014632011035595774,0.00016591033631021903,0.5299312472343445,46.50039291381836,5.564480304718018,-19.610628128051758,-0.5166526436805725,-2.4108920097351074,0.41965049505233765,0
46,0.22431230545043945,-0.5299312472343445,-46.50039291381836,-5.564480304718018,19.610628128051758,0.5166526436805725,2.4108920097351074,-0.41965049505233765,0.0,0.0,0.0,0.0,0.0,0.0,0.0,-0.6580161838682365,-0.1411239954956787,-0.4711155816954976,0.4180716136987474,-0.07220166847783685,0.1432184332699003,-0.4145169073050545,0.8781006284805766,0.755687187161362,-0.282507548779772,-1.6692927207612152,0.1413900041381518,2.403412924501631,1.0273679660018065,0.878092876070424,0.7554597494309409,-0.2825552651693207,-1.6690993614607135,0.1414185955172306,2.4034451173676383,1.0273381002308042,-0.0008154775213145218,3.5458323694226834e-06,-0.0007590464323912676,-9.02272704412062e-05,-0.0001006227436187068,-0.00014632011035595774,-0.00016591033631021903,0.0,0.0,0.0,0.0,0.0,0.0,0.0,-7.752410152606082e-06,-0.00022743773042110949,-4.7716389548702054e-05,0.00019335930050168315,2.8591379078790613e-05,3.219286600719684e-05,-2.986577100227983e-05,0.0008154775213145218,-3.5458323694226834e-06,0.0007590464323912676,9.02272704412062e-05,0.0001006227436187068,0.00014632011035595774,0.00016591033631021903,0.5299312472343445,46.50039291381836,5.564480304718018,-19.610628128051758,-0.5166526436805725,-2.4108920097351074,0.41965049505233765,0
47,0.2293097972869873,-0.5299312472343445,-46.50039291381836,-5.564480304718018,19.610628128051758,0.5166526436805725,2.4108920097351074,-0.41965049505233765,0.0,0.0,0.0,0.0,0.0,0.0,0.0,-0.6580161838682365,-0.1411239954956787,-0.4711155816954976,0.4180716136987474,-0.07220166847783685,0.1432184332699003,-0.4145169073050545,0.8781006284805766,0.755687187161362,-0.282507548779772,-1.6692927207612152,0.1413900041381518,2.403412924501631,1.0273679660018065,0.878092876070424,0.7554597494309409,-0.2825552651693207,-1.6690993614607135,0.1414185955172306,2.4034451173676383,1.0273381002308042,-0.0008154775213145218,3.5458323694226834e-06,-0.0007590464323912676,-9.02272704412062e-05,-0.0001006227436187068,-0.00014632011035595774,-0.00016591033631021903,0.0,0.0,0.0,0.0,0.0,0.0,0.0,-7.752410152606082e-06,-0.00022743773042110949,-4.7716389548702054e-05,0.00019335930050168315,2.8591379078790613e-05,3.219286600719684e-05,-2.986577100227983e-05,0.0008154775213145218,-3.5458323694226834e-06,0.0007590464323912676,9.02272704412062e-05,0.0001006227436187068,0.00014632011035595774,0.00016591033631021903,0.5299312472343445,46.50039291381836,5.564480304718018,-19.610628128051758,-0.5166526436805725,-2.4108920097351074,0.41965049505233765,0
48,0.2342977523803711,-0.5299312472343445,-46.52419662475586,-5.612087726593018,19.634431838989258,0.5102439522743225,2.3980746269226074,-0.41324180364608765,0.0,0.0,0.0,0.0,0.0,0.0,0.0,-0.6443834604009275,-0.1496121365181729,-0.4640357049955097,0.4174246179369622,-0.07142157232765885,0.14312081813180755,-0.4166306818001905,0.8781006284805766,0.7556888575972173,-0.2825042079080615,-1.6692943911970706,0.14139071621497473,2.403414348655277,1.0273672544095223,0.878092876070424,0.7554597494309409,-0.2825552651693207,-1.6690993614607135,0.1414185955172306,2.4034451173676383,1.0273381002308042,-0.000956273986262306,0.0001634569890339836,0.007177582250091653,-8.766396956375749e-05,-4.202292197203224e-05,0.00041189475816066223,-3.5825938603796014e-05,0.0,0.0,0.0,0.0,0.0,0.0,0.0,-7.752410152606082e-06,-0.00022910816627641495,-5.105726125920196e-05,0.00019502973635709964,2.7879302255867655e-05,3.076871236151746e-05,-2.9154178718071577e-05,0.000956273986262306,-0.0001634569890339836,-0.007177582250091653,8.766396956375749e-05,4.202292197203224e-05,-0.00041189475816066223,3.5825938603796014e-05,0.5299312472343445,46.52419662475586,5.612087726593018,-19.634431838989258,-0.5102439522743225,-2.3980746269226074,0.41324180364608765,0
49,0.23923897743225098,-0.5299312472343445,-46.52419662475586,-5.612087726593018,19.634431838989258,0.5102439522743225,2.3980746269226074,-0.41324180364608765,0.0,0.0,0.0,0.0,0.0,0.0,0.0,-0.6443834604009275,-0.1496121365181729,-0.4640357049955097,0.4174246179369622,-0.07142157232765885,0.14312081813180755,-0.4166306818001905,0.8781006284805766,0.7556888575972173,-0.2825042079080615,-1.6692943911970706,0.14139071621497473,2.403414348655277,1.0273672544095223,0.878092876070424,0.7554597494309409,-0.2825552651693207,-1.6690993614607135,0.1414185955172306,2.4034451173676383,1.0273381002308042,-0.000956273986262306,0.0001634569890339836,0.007177582250091653,-8.766396956375749e-05,-4.202292197203224e-05,0.00041189475816066223,-3.5825938603796014e-05,0.0,0.0,0.0,0.0,0.0,0.0,0.0,-7.752410152606082e-06,-0.00022910816627641495,-5.105726125920196e-05,0.00019502973635709964,2.7879302255867655e-05,3.076871236151746e-05,-2.9154178718071577e-05,0.000956273986262306,-0.0001634569890339836,-0.007177582250091653,8.766396956375749e-05,4.202292197203224e-05,-0.00041189475816066223,3.5825938603796014e-05,0.5299312472343445,46.52419662475586,5.612087726593018,-19.634431838989258,-0.5102439522743225,-2.3980746269226074,0.41324180364608765,0
50,0.24423599243164062,-0.5815059542655945,-46.47658920288086,-5.635891437530518,19.634431838989258,0.4928489327430725,2.4044833183288574,-0.38577598333358765,0.0,0.0,0.0,0.0,0.0,0.0,0.0,-0.6825484695218154,-0.15370064332301778,-0.4960411477981276,0.4113068574210293,-0.07171105196529064,0.1426416540973122,-0.41674833788793547,0.8781042477582629,0.7556854387243666,-0.28250253747220627,-1.6692943911970706,0.14139264899492263,2.403413649660406,1.0273642011981623,0.878092876070424,0.7554597494309409,-0.2825552651693207,-1.6690993614607135,0.1414185955172306,2.4034451173676383,1.0273381002308042,0.0001443075639296775,-0.00039704143665555475,0.0011689191999315488,-0.00032892045725068796,0.0007260831422612695,0.0002984166860633666,-0.0017915578993680048,0.0,0.0,0.0,0.0,0.0,0.0,0.0,-1.1371687838934719e-05,-0.00022568929342570154,-5.272769711445191e-05,0.00019502973635709964,2.5946522307973563e-05,3.146770723239101e-05,-2.6100967358111404e-05,-0.0001443075639296775,0.00039704143665555475,-0.0011689191999315488,0.00032892045725068796,-0.0007260831422612695,-0.0002984166860633666,0.0017915578993680048,0.5815059542655945,46.47658920288086,5.635891437530518,-19.634431838989258,-0.4928489327430725,-2.4044833183288574,0.38577598333358765,0
51,0.24929380416870117,-0.5815059542655945,-46.47658920288086,-5.635891437530518,19.634431838989258,0.4928489327430725,2.4044833183288574,-0.38577598333358765,0.0,0.0,0.0,0.0,0.0,0.0,0.0,-0.6825484695218154,-0.15370064332301778,-0.4960411477981276,0.4113068574210293,-0.07171105196529064,0.1426416540973122,-0.41674833788793547,0.8781042477582629,0.7556854387243666,-0.28250253747220627,-1.6692943911970706,0.14139264899492263,2.403413649660406,1.0273642011981623,0.878092876070424,0.7554597494309409,-0.2825552651693207,-1.6690993614607135,0.1414185955172306,2.4034451173676383,1.0273381002308042,0.0001443075639296775,-0.00039704143665555475,0.0011689191999315488,-0.00032892045725068796,0.0007260831422612695,0.0002984166860633666,-0.0017915578993680048,0.0,0.0,0.0,0.0,0.0,0.0,0.0,-1.1371687838934719e-05,-0.00022568929342570154,-5.272769711445191e-05,0.00019502973635709964,2.5946522307973563e-05,3.146770723239101e-05,-2.6100967358111404e-05,-0.0001443075639296775,0.00039704143665555475,-0.0011689191999315488,0.00032892045725068796,-0.0007260831422612695,-0.0002984166860633666,0.0017915578993680048,0.5815059542655945,46.47658920288086,5.635891437530518,-19.634431838989258,-0.4928489327430725,-2.4044833183288574,0.38577598333358765,0
52,0.2542886734008789,-0.6568843722343445,-46.42501449584961,-5.663662433624268,19.559053421020508,0.5047507882118225,2.4173007011413574,-0.44711631536483765,0.0,0.0,0.0,0.0,0.0,0.0,0.0,-0.6130390950830058,-0.13789064378303492,-0.4413203029720763,0.4079310716245078,-0.0743160995147512,0.14134388035315545,-0.4162002245547624,0.8781095374718046,0.75568189744738,-0.2825005886303751,-1.669289101483529,0.14139132656653722,2.403412212424882,1.0273710182441522,0.878092876070424,0.7554597494309409,-0.2825552651693207,-1.6690993614607135,0.1414185955172306,2.4034451173676383,1.0273381002308042,0.0007918596471190463,-0.0007819430273309709,0.0011816461736556987,0.001565325654653104,-0.00012031291098848988,-0.00023265077533221314,0.0011071847558481358,0.0,0.0,0.0,0.0,0.0,0.0,0.0,-1.666140138067984e-05,-0.00022214801643916093,-5.467653894564162e-05,0.00018974002281546554,2.7268950693382088e-05,3.290494275631772e-05,-3.291801334803779e-05,-0.0007918596471190463,0.0007819430273309709,-0.0011816461736556987,-0.001565325654653104,0.00012031291098848988,0.00023265077533221314,-0.0011071847558481358,0.6568843722343445,46.42501449584961,5.663662433624268,-19.559053421020508,-0.5047507882118225,-2.4173007011413574,0.44711631536483765,0
53,0.2592885494232178,-0.6568843722343445,-46.42501449584961,-5.663662433624268,19.559053421020508,0.5047507882118225,2.4173007011413574,-0.44711631536483765,0.0,0.0,0.0,0.0,0.0,0.0,0.0,-0.6130390950830058,-0.13789064378303492,-0.4413203029720763,0.4079310716245078,-0.0743160995147512,0.14134388035315545,-0.4162002245547624,0.8781095374718046,0.75568189744738,-0.2825005886303751,-1.669289101483529,0.14139132656653722,2.403412212424882,1.0273710182441522,0.878092876070424,0.7554597494309409,-0.2825552651693207,-1.6690993614607135,0.1414185955172306,2.4034451173676383,1.0273381002308042,0.0007918596471190463,-0.0007819430273309709,0.0011816461736556987,0.001565325654653104,-0.00012031291098848988,-0.00023265077533221314,0.0011071847558481358,0.0,0.0,0.0,0.0,0.0,0.0,0.0,-1.666140138067984e-05,-0.00022214801643916093,-5.467653894564162e-05,0.00018974002281546554,2.7268950693382088e-05,3.290494275631772e-05,-3.291801334803779e-05,-0.0007918596471190463,0.0007819430273309709,-0.0011816461736556987,-0.001565325654653104,0.00012031291098848988,0.00023265077533221314,-0.0011071847558481358,0.6568843722343445,46.42501449584961,5.663662433624268,-19.559053421020508,-0.5047507882118225,-2.4173007011413574,0.44711631536483765,0
54,0.26429200172424316,-0.7084590792655945,-46.42501449584961,-5.612087726593018,19.658235549926758,0.5047507882118225,2.4237093925476074,-0.40591758489608765,0.0,0.0,0.0,0.0,0.0,0.0,0.0,-0.6139403541688164,-0.15024357263030624,-0.44166559518399245,0.41890290315475015,-0.07569944323011138,0.1431821784971935,-0.41580726419551595,0.878113156749491,0.7556818887810269,-0.2825042079080615,-1.6692960616329258,0.14139132656653722,2.403411513429937,1.027366440122925,0.878092876070424,0.7554597494309409,-0.2825552651693207,-1.6690993614607135,0.1414185955172306,2.4034451173676383,1.0273381002308042,0.0006375189116635948,-0.00033866322927598427,-0.0009414594438664253,-0.0005751891127981989,-4.1690674369228275e-05,-0.0007597870816540263,-1.2621511505522818e-05,0.0,0.0,0.0,0.0,0.0,0.0,0.0,-2.0280679067008478e-05,-0.00022213935008608132,-5.105726125920196e-05,0.00019670017221229408,2.7268950693382088e-05,3.360393770135417e-05,-2.8339892120810006e-05,-0.0006375189116635948,0.00033866322927598427,0.0009414594438664253,0.0005751891127981989,4.1690674369228275e-05,0.0007597870816540263,1.2621511505522818e-05,0.7084590792655945,46.42501449584961,5.612087726593018,-19.658235549926758,-0.5047507882118225,-2.4237093925476074,0.40591758489608765,0
55,0.2692892551422119,-0.7084590792655945,-46.42501449584961,-5.612087726593018,19.658235549926758,0.5047507882118225,2.4237093925476074,-0.40591758489608765,0.0,0.0,0.0,0.0,0.0,0.0,0.0,-0.6139403541688164,-0.15024357263030624,-0.44166559518399245,0.41890290315475015,-0.07569944323011138,0.1431821784971935,-0.41580726419551595,0.878113156749491,0.7556818887810269,-0.2825042079080615,-1.6692960616329258,0.14139132656653722,2.403411513429937,1.027366440122925,0.878092876070424,0.7554597494309409,-0.2825552651693207,-1.6690993614607135,0.1414185955172306,2.4034451173676383,1.0273381002308042,0.0006375189116635948,-0.00033866322927598427,-0.0009414594438664253,-0.0005751891127981989,-4.1690674369228275e-05,-0.0007597870816540263,-1.2621511505522818e-05,0.0,0.0,0.0,0.0,0.0,0.0,0.0,-2.0280679067008478e-05,-0.00022213935008608132,-5.105726125920196e-05,0.00019670017221229408,2.7268950693382088e-05,3.360393770135417e-05,-2.8339892120810006e-05,-0.0006375189116635948,0.00033866322927598427,0.0009414594438664253,0.0005751891127981989,4.1690674369228275e-05,0.0007597870816540263,1.2621511505522818e-05,0.7084590792655945,46.42501449584961,5.612087726593018,-19.658235549926758,-0.5047507882118225,-2.4237093925476074,0.40591758489608765,0
56,0.2742424011230469,-0.6806880831718445,-46.44881820678711,-5.687466144561768,19.610628128051758,0.5102439522743225,2.4108920097351074,-0.39218467473983765,0.0,0.0,0.0,0.0,0.0,0.0,0.0,-0.6287537112693913,-0.13137278424787802,-0.44352373276791235,0.41692364020753164,-0.07707126953905827,0.1421585724517868,-0.41534385081504677,0.8781112079076598,0.7556835678836266,-0.28249891819451983,-1.6692926952514084,0.14139071621497473,2.403412924501705,1.0273617358141447,0.878092876070424,0.7554597494309409,-0.2825552651693207,-1.6690993614607135,0.1414185955172306,2.4034451173676383,1.0273381002308042,-0.0011596018321220944,0.0007025830710671045,0.0005670079949490067,0.00037955135331192274,-0.00035313610252192773,-4.338131478837405e-06,-0.001325720001036044,0.0,0.0,0.0,0.0,0.0,0.0,0.0,-1.8331837235874282e-05,-0.000223818452685709,-5.634697480089157e-05,0.0001933337906949717,2.7879302255867655e-05,3.219286593347803e-05,-2.363558334050886e-05,0.0011596018321220944,-0.0007025830710671045,-0.0005670079949490067,-0.00037955135331192274,0.00035313610252192773,4.338131478837405e-06,0.001325720001036044,0.6806880831718445,46.44881820678711,5.687466144561768,-19.610628128051758,-0.5102439522743225,-2.4108920097351074,0.39218467473983765,0
57,0.2792370319366455,-0.6806880831718445,-46.44881820678711,-5.687466144561768,19.610628128051758,0.5102439522743225,2.4108920097351074,-0.39218467473983765,0.0,0.0,0.0,0.0,0.0,0.0,0.0,-0.6287537112693913,-0.13137278424787802,-0.44352373276791235,0.41692364020753164,-0.07707126953905827,0.1421585724517868,-0.41534385081504677,0.8781112079076598,0.7556835678836266,-0.28249891819451983,-1.6692926952514084,0.14139071621497473,2.403412924501705,1.0273617358141447,0.878092876070424,0.7554597494309409,-0.2825552651693207,-1.6690993614607135,0.1414185955172306,2.4034451173676383,1.0273381002308042,-0.0011596018321220944,0.0007025830710671045,0.0005670079949490067,0.00037955135331192274,-0.00035313610252192773,-4.338131478837405e-06,-0.001325720001036044,0.0,0.0,0.0,0.0,0.0,0.0,0.0,-1.8331837235874282e-05,-0.000223818452685709,-5.634697480089157e-05,0.0001933337906949717,2.7879302255867655e-05,3.219286593347803e-05,-2.363558334050886e-05,0.0011596018321220944,-0.0007025830710671045,-0.0005670079949490067,-0.00037955135331192274,0.00035313610252192773,4.338131478837405e-06,0.001325720001036044,0.6806880831718445,46.44881820678711,5.687466144561768,-19.610628128051758,-0.5102439522743225,-2.4108920097351074,0.39218467473983765,0
58,0.2843129634857178,-0.7322627902030945,-46.42501449584961,-5.663662433624268,19.586824417114258,0.4983420968055725,2.4108920097351074,-0.43979209661483765,0.0,0.0,0.0,0.0,0.0,0.0,0.0,-0.6526386722962854,-0.13057224601654643,-0.4571993401571021,0.4220621139182591,-0.07765205459836218,0.14331182909735515,-0.415880889214301,0.8781148271853463,0.755681897126828,-0.2825005886303751,-1.6692910503252159,0.14139203864336014,2.4034129259551813,1.027370204424132,0.878092876070424,0.7554597494309409,-0.2825552651693207,-1.6690993614607135,0.1414185955172306,2.4034451173676383,1.0273381002308042,-4.381054469737688e-05,-0.00010083713626547644,-0.0007635456157763476,0.0005697432238416989,0.0004285456214745245,-0.00010676098331463367,0.0014133198404365623,0.0,0.0,0.0,0.0,0.0,0.0,0.0,-2.195111492231394e-05,-0.00022214769588713157,-5.467653894564162e-05,0.00019168886450238176,2.655687387045913e-05,3.2191412457027724e-05,-3.2104193327775477e-05,4.381054469737688e-05,0.00010083713626547644,0.0007635456157763476,-0.0005697432238416989,-0.0004285456214745245,0.00010676098331463367,-0.0014133198404365623,0.7322627902030945,46.42501449584961,5.663662433624268,-19.586824417114258,-0.4983420968055725,-2.4108920097351074,0.43979209661483765,0
59,0.28930163383483887,-0.7322627902030945,-46.42501449584961,-5.663662433624268,19.586824417114258,0.4983420968055725,2.4108920097351074,-0.43979209661483765,0.0,0.0,0.0,0.0,0.0,0.0,0.0,-0.6526386722962854,-0.13057224601654643,-0.4571993401571021,0.4220621139182591,-0.07765205459836218,0.14331182909735515,-0.415880889214301,0.8781148271853463,0.755681897126828,-0.2825005886303751,-1.6692910503252159,0.14139203864336014,2.4034129259551813,1.027370204424132,0.878092876070424,0.7554597494309409,-0.2825552651693207,-1.6690993614607135,0.1414185955172306,2.4034451173676383,1.0273381002308042,-4.381054469737688e-05,-0.00010083713626547644,-0.0007635456157763476,0.0005697432238416989,0.0004285456214745245,-0.00010676098331463367,0.0014133198404365623,0.0,0.0,0.0,0.0,0.0,0.0,0.0,-2.195111492231394e-05,-0.00022214769588713157,-5.467653894564162e-05,0.00019168886450238176,2.655687387045913e-05,3.2191412457027724e-05,-3.2104193327775477e-05,4.381054469737688e-05,0.00010083713626547644,0.0007635456157763476,-0.0005697432238416989,-0.0004285456214745245,0.00010676098331463367,-0.0014133198404365623,0.7322627902030945,46.42501449584961,5.663662433624268,-19.586824417114258,-0.4983420968055725,-2.4108920097351074,0.43979209661483765,0
60,0.29433679580688477,-0.7084590792655945,-46.42501449584961,-5.663662433624268,19.610628128051758,0.5166526436805725,2.4108920097351074,-0.43979209661483765,0.0,0.0,0.0,0.0,0.0,0.0,0.0,-0.6421174172303814,-0.12646298288464403,-0.4457728242733225,0.42345386246101224,-0.07896467829353501,0.1437440608808086,-0.4152109228810126,0.878113156749491,0.7556818974478198,-0.28250058570218917,-1.6692927207612152,0.1413900041381518,2.403413282074994,1.027370204442077,0.878092876070424,0.7554597494309409,-0.2825552651693207,-1.6690993614607135,0.1414185955172306,2.4034451173676383,1.0273381002308042,-1.6305219461459107e-05,-0.00026195360349628587,0.0004273864753368218,0.00011733338112071026,-0.0005739875825949375,-6.996962882256778e-05,0.0013104932948029139,0.0,0.0,0.0,0.0,0.0,0.0,0.0,-2.0280679067008478e-05,-0.00022214801687892027,-5.467946713155758e-05,0.00019335930050168315,2.8591379078790613e-05,3.183529264427776e-05,-3.210421127275431e-05,1.6305219461459107e-05,0.00026195360349628587,-0.0004273864753368218,-0.00011733338112071026,0.0005739875825949375,6.996962882256778e-05,-0.0013104932948029139,0.7084590792655945,46.42501449584961,5.663662433624268,-19.610628128051758,-0.5166526436805725,-2.4108920097351074,0.43979209661483765,0
61,0.2993338108062744,-0.7084590792655945,-46.42501449584961,-5.663662433624268,19.610628128051758,0.5166526436805725,2.4108920097351074,-0.43979209661483765,0.0,0.0,0.0,0.0,0.0,0.0,0.0,-0.6421174172303814,-0.12646298288464403,-0.4457728242733225,0.42345386246101224,-0.07896467829353501,0.1437440608808086,-0.4152109228810126,0.878113156749491,0.7556818974478198,-0.28250058570218917,-1.6692927207612152,0.1413900041381518,2.403413282074994,1.027370204442077,0.878092876070424,0.7554597494309409,-0.2825552651693207,-1.6690993614607135,0.1414185955172306,2.4034451173676383,1.0273381002308042,-1.6305219461459107e-05,-0.00026195360349628587,0.0004273864753368218,0.00011733338112071026,-0.0005739875825949375,-6.996962882256778e-05,0.0013104932948029139,0.0,0.0,0.0,0.0,0.0,0.0,0.0,-2.0280679067008478e-05,-0.00022214801687892027,-5.467946713155758e-05,0.00019335930050168315,2.8591379078790613e-05,3.183529264427776e-05,-3.210421127275431e-05,1.6305219461459107e-05,0.00026195360349628587,-0.0004273864753368218,-0.00011733338112071026,0.0005739875825949375,6.996962882256778e-05,-0.0013104932948029139,0.7084590792655945,46.42501449584961,5.663662433624268,-19.610628128051758,-0.5166526436805725,-2.4108920097351074,0.43979209661483765,0
62,0.30429816246032715,-0.7084590792655945,-46.47658920288086,-5.663662433624268,19.610628128051758,0.5047507882118225,2.4108920097351074,-0.42605918645858765,0.0,0.0,0.0,0.0,0.0,0.0,0.0,-0.6648736187860359,-0.13771752095711753,-0.46031302428965176,0.4273262693707799,-0.07918455710746586,0.14493766962864832,-0.41501056383361457,0.878113156749491,0.7556855167255067,-0.28250058863035854,-1.6692927207612152,0.14139132656653722,2.403412924665155,1.0273686785631708,0.878092876070424,0.7554597494309409,-0.2825552651693207,-1.6690993614607135,0.1414185955172306,2.4034451173676383,1.0273381002308042,0.000681203390572724,5.769421288535047e-06,0.006760731457281368,5.312532309285479e-05,6.152665211549674e-05,6.386332894106096e-06,0.00021195488220379887,0.0,0.0,0.0,0.0,0.0,0.0,0.0,-2.0280679067008478e-05,-0.00022576729456580402,-5.467653896218394e-05,0.00019335930050168315,2.7268950693382088e-05,3.219270248333572e-05,-3.057833236663754e-05,-0.000681203390572724,-5.769421288535047e-06,-0.006760731457281368,-5.312532309285479e-05,-6.152665211549674e-05,-6.386332894106096e-06,-0.00021195488220379887,0.7084590792655945,46.47658920288086,5.663662433624268,-19.610628128051758,-0.5047507882118225,-2.4108920097351074,0.42605918645858765,0
63,0.30928802490234375,-0.7084590792655945,-46.47658920288086,-5.663662433624268,19.610628128051758,0.5047507882118225,2.4108920097351074,-0.42605918645858765,0.0,0.0,0.0,0.0,0.0,0.0,0.0,-0.6648736187860359,-0.13771752095711753,-0.46031302428965176,0.4273262693707799,-0.07918455710746586,0.14493766962864832,-0.41501056383361457,0.878113156749491,0.7556855167255067,-0.28250058863035854,-1.6692927207612152,0.14139132656653722,2.403412924665155,1.0273686785631708,0.878092876070424,0.7554597494309409,-0.2825552651693207,-1.6690993614607135,0.1414185955172306,2.4034451173676383,1.0273381002308042,0.000681203390572724,5.769421288535047e-06,0.006760731457281368,5.312532309285479e-05,6.152665211549674e-05,6.386332894106096e-06,0.00021195488220379887,0.0,0.0,0.0,0.0,0.0,0.0,0.0,-2.0280679067008478e-05,-0.00022576729456580402,-5.467653896218394e-05,0.00019335930050168315,2.7268950693382088e-05,3.219270248333572e-05,-3.057833236663754e-05,-0.000681203390572724,-5.769421288535047e-06,-0.006760731457281368,-5.312532309285479e-05,-6.152665211549674e-05,-6.386332894106096e-06,-0.00021195488220379887,0.7084590792655945,46.47658920288086,5.663662433624268,-19.610628128051758,-0.5047507882118225,-2.4108920097351074,0.42605918645858765,0
64,0.31429100036621094,-0.6291133761405945,-46.44881820678711,-5.564480304718018,19.634431838989258,0.5047507882118225,2.4108920097351074,-0.43338340520858765,0.0,0.0,0.0,0.0,0.0,0.0,0.0,-0.7237862904434671,-0.1312053233423004,-0.5054840443878749,0.4161761623002467,-0.07813712199783536,0.14404968419979763,-0.41520631297737315,0.8781075886299734,0.7556835678836755,-0.282507548779772,-1.6692943911970706,0.1413913270540822,2.403412924501632,1.0273680795144151,0.878092876070424,0.7554597494309409,-0.2825552651693207,-1.6690993614607135,0.1414185955172306,2.4034451173676383,1.0273381002308042,-0.0007327284634935934,-0.000705395972107795,-0.0013848519171471298,-0.0007521366593408479,9.524925226367804e-07,-9.33800450824595e-05,0.0006281061025944863,0.0,0.0,0.0,0.0,0.0,0.0,0.0,-1.4712559549434623e-05,-0.00022381845273466983,-4.7716389548702054e-05,0.00019502973635709964,2.7268463148405475e-05,3.219286600630866e-05,-2.9979283610925833e-05,0.0007327284634935934,0.000705395972107795,0.0013848519171471298,0.0007521366593408479,-9.524925226367804e-07,9.33800450824595e-05,-0.0006281061025944863,0.6291133761405945,46.44881820678711,5.564480304718018,-19.634431838989258,-0.5047507882118225,-2.4108920097351074,0.43338340520858765,0
65,0.3192930221557617,-0.6291133761405945,-46.44881820678711,-5.564480304718018,19.634431838989258,0.5047507882118225,2.4108920097351074,-0.43338340520858765,0.0,0.0,0.0,0.0,0.0,0.0,0.0,-0.7237862904434671,-0.1312053233423004,-0.5054840443878749,0.4161761623002467,-0.07813712199783536,0.14404968419979763,-0.41520631297737315,0.8781075886299734,0.7556835678836755,-0.282507548779772,-1.6692943911970706,0.1413913270540822,2.403412924501632,1.0273680795144151,0.878092876070424,0.7554597494309409,-0.2825552651693207,-1.6690993614607135,0.1414185955172306,2.4034451173676383,1.0273381002308042,-0.0007327284634935934,-0.000705395972107795,-0.0013848519171471298,-0.0007521366593408479,9.524925226367804e-07,-9.33800450824595e-05,0.0006281061025944863,0.0,0.0,0.0,0.0,0.0,0.0,0.0,-1.4712559549434623e-05,-0.00022381845273466983,-4.7716389548702054e-05,0.00019502973635709964,2.7268463148405475e-05,3.219286600630866e-05,-2.9979283610925833e-05,0.0007327284634935934,0.000705395972107795,0.0013848519171471298,0.0007521366593408479,-9.524925226367804e-07,9.33800450824595e-05,-0.0006281061025944863,0.6291133761405945,46.44881820678711,5.564480304718018,-19.634431838989258,-0.5047507882118225,-2.4108920097351074,0.43338340520858765,0
66,0.32428812980651855,-0.5537349581718445,-46.54800033569336,-5.564480304718018,19.586824417114258,0.4928489327430725,2.4108920097351074,-0.43979209661483765,0.0,0.0,0.0,0.0,0.0,0.0,0.0,-0.641554760312109,-0.1408385419248102,-0.44708713279124807,0.42304359532771235,-0.07929663574183421,0.14397801122659093,-0.41569532736203874,0.8781022989164318,0.7556905280330725,-0.282507548779772,-1.6692903615605759,0.14139264899492537,2.4034132820749914,1.0273702000734508,0.878092876070424,0.7554597494309409,-0.2825552651693207,-1.6690993614607135,0.1414185955172306,2.4034451173676383,1.0273381002308042,-0.001218848011092657,0.0007387462133756467,-0.0009762510455232526,0.0004820428621499387,0.00036512388359402143,-0.0001720813926062919,0.0007054842058545714,0.0,0.0,0.0,0.0,0.0,0.0,0.0,-9.422846007800523e-06,-0.0002307786021316094,-4.7716389548702054e-05,0.00019100009986239286,2.594652230522576e-05,3.183529264694229e-05,-3.20998426466268e-05,0.001218848011092657,-0.0007387462133756467,0.0009762510455232526,-0.0004820428621499387,-0.00036512388359402143,0.0001720813926062919,-0.0007054842058545714,0.5537349581718445,46.54800033569336,5.564480304718018,-19.586824417114258,-0.4928489327430725,-2.4108920097351074,0.43979209661483765,0
67,0.32930636405944824,-0.5537349581718445,-46.54800033569336,-5.564480304718018,19.586824417114258,0.4928489327430725,2.4108920097351074,-0.43979209661483765,0.0,0.0,0.0,0.0,0.0,0.0,0.0,-0.641554760312109,-0.1408385419248102,-0.44708713279124807,0.42304359532771235,-0.07929663574183421,0.14397801122659093,-0.41569532736203874,0.8781022989164318,0.7556905280330725,-0.282507548779772,-1.6692903615605759,0.14139264899492537,2.4034132820749914,1.0273702000734508,0.878092876070424,0.7554597494309409,-0.2825552651693207,-1.6690993614607135,0.1414185955172306,2.4034451173676383,1.0273381002308042,-0.001218848011092657,0.0007387462133756467,-0.0009762510455232526,0.0004820428621499387,0.00036512388359402143,-0.0001720813926062919,0.0007054842058545714,0.0,0.0,0.0,0.0,0.0,0.0,0.0,-9.422846007800523e-06,-0.0002307786021316094,-4.7716389548702054e-05,0.00019100009986239286,2.594652230522576e-05,3.183529264694229e-05,-3.20998426466268e-05,0.001218848011092657,-0.0007387462133756467,0.0009762510455232526,-0.0004820428621499387,-0.00036512388359402143,0.0001720813926062919,-0.0007054842058545714,0.5537349581718445,46.54800033569336,5.564480304718018,-19.586824417114258,-0.4928489327430725,-2.4108920097351074,0.43979209661483765,0
68,0.3342907428741455,-0.5537349581718445,-46.54800033569336,-5.564480304718018,19.586824417114258,0.4928489327430725,2.4108920097351074,-0.43979209661483765,0.0,0.0,0.0,0.0,0.0,0.0,0.0,-0.641554760312109,-0.1408385419248102,-0.44708713279124807,0.42304359532771235,-0.07929663574183421,0.14397801122659093,-0.41569532736203874,0.8781022989164318,0.7556905280330725,-0.282507548779772,-1.6692903615605759,0.14139264899492537,2.4034132820749914,1.0273702000734508,0.878092876070424,0.7554597494309409,-0.2825552651693207,-1.6690993614607135,0.1414185955172306,2.4034451173676383,1.0273381002308042,-0.001218848011092657,0.0007387462133756467,-0.0009762510455232526,0.0004820428621499387,0.00036512388359402143,-0.0001720813926062919,0.0007054842058545714,0.0,0.0,0.0,0.0,0.0,0.0,0.0,-9.422846007800523e-06,-0.0002307786021316094,-4.7716389548702054e-05,0.00019100009986239286,2.594652230522576e-05,3.183529264694229e-05,-3.20998426466268e-05,0.001218848011092657,-0.0007387462133756467,0.0009762510455232526,-0.0004820428621499387,-0.00036512388359402143,0.0001720813926062919,-0.0007054842058545714,0.5537349581718445,46.54800033569336,5.564480304718018,-19.586824417114258,-0.4928489327430725,-2.4108920097351074,0.43979209661483765,0
69,0.33929896354675293,-0.5537349581718445,-46.54800033569336,-5.564480304718018,19.586824417114258,0.4928489327430725,2.4108920097351074,-0.43979209661483765,0.0,0.0,0.0,0.0,0.0,0.0,0.0,-0.641554760312109,-0.1408385419248102,-0.44708713279124807,0.42304359532771235,-0.07929663574183421,0.14397801122659093,-0.41569532736203874,0.8781022989164318,0.7556905280330725,-0.282507548779772,-1.6692903615605759,0.14139264899492537,2.4034132820749914,1.0273702000734508,0.878092876070424,0.7554597494309409,-0.2825552651693207,-1.6690993614607135,0.1414185955172306,2.4034451173676383,1.0273381002308042,-0.001218848011092657,0.0007387462133756467,-0.0009762510455232526,0.0004820428621499387,0.00036512388359402143,-0.0001720813926062919,0.0007054842058545714,0.0,0.0,0.0,0.0,0.0,0.0,0.0,-9.422846007800523e-06,-0.0002307786021316094,-4.7716389548702054e-05,0.00019100009986239286,2.594652230522576e-05,3.183529264694229e-05,-3.20998426466268e-05,0.001218848011092657,-0.0007387462133756467,0.0009762510455232526,-0.0004820428621499387,-0.00036512388359402143,0.0001720813926062919,-0.0007054842058545714,0.5537349581718445,46.54800033569336,5.564480304718018,-19.586824417114258,-0.4928489327430725,-2.4108920097351074,0.43979209661483765,0
70,0.3443169593811035,-0.5815059542655945,-46.47658920288086,-5.612087726593018,19.634431838989258,0.5047507882118225,2.4173007011413574,-0.38577598333358765,0.0,0.0,0.0,0.0,0.0,0.0,0.0,-0.630005516002114,-0.1328848502327375,-0.43923828137913,0.4158992355326835,-0.07966213310155382,0.14263471623494275,-0.41655880437512105,0.8781042477582629,0.7556855138365756,-0.2825042079080615,-1.6692943911931826,0.14139132656653722,2.4034122124268267,1.0273642026516878,0.878092876070424,0.7554597494309409,-0.2825552651693207,-1.6690993614607135,0.1414185955172306,2.4034451173676383,1.0273381002308042,-1.563759028931294e-05,-0.00024472112965878375,0.0008511902881802013,-0.00018143609601007008,0.00015381700680647365,-0.00043553760721072154,-0.000537192965645548,0.0,0.0,0.0,0.0,0.0,0.0,0.0,-1.1371687838934719e-05,-0.00022576440563470968,-5.105726125920196e-05,0.0001950297324690986,2.7268950693382088e-05,3.290494081165107e-05,-2.610242088363357e-05,1.563759028931294e-05,0.00024472112965878375,-0.0008511902881802013,0.00018143609601007008,-0.00015381700680647365,0.00043553760721072154,0.000537192965645548,0.5815059542655945,46.47658920288086,5.612087726593018,-19.634431838989258,-0.5047507882118225,-2.4173007011413574,0.38577598333358765,0
71,0.3493373394012451,-0.5815059542655945,-46.47658920288086,-5.612087726593018,19.634431838989258,0.5047507882118225,2.4173007011413574,-0.38577598333358765,0.0,0.0,0.0,0.0,0.0,0.0,0.0,-0.630005516002114,-0.1328848502327375,-0.43923828137913,0.4158992355326835,-0.07966213310155382,0.14263471623494275,-0.41655880437512105,0.8781042477582629,0.7556855138365756,-0.2825042079080615,-1.6692943911931826,0.14139132656653722,2.4034122124268267,1.0273642026516878,0.878092876070424,0.7554597494309409,-0.2825552651693207,-1.6690993614607135,0.1414185955172306,2.4034451173676383,1.0273381002308042,-1.563759028931294e-05,-0.00024472112965878375,0.0008511902881802013,-0.00018143609601007008,0.00015381700680647365,-0.00043553760721072154,-0.000537192965645548,0.0,0.0,0.0,0.0,0.0,0.0,0.0,-1.1371687838934719e-05,-0.00022576440563470968,-5.105726125920196e-05,0.0001950297324690986,2.7268950693382088e-05,3.290494081165107e-05,-2.610242088363357e-05,1.563759028931294e-05,0.00024472112965878375,-0.0008511902881802013,0.00018143609601007008,-0.00015381700680647365,0.00043553760721072154,0.000537192965645548,0.5815059542655945,46.47658920288086,5.612087726593018,-19.634431838989258,-0.5047507882118225,-2.4173007011413574,0.38577598333358765,0
72,0.3542916774749756,-0.5537349581718445,-46.44881820678711,-5.588284015655518,19.610628128051758,0.4983420968055725,2.4173007011413574,-0.43338340520858765,0.0,0.0,0.0,0.0,0.0,0.0,0.0,-0.6265639290794639,-0.12402421162886648,-0.43455060452085936,0.4105281586001183,-0.07918139824980071,0.14119012193762495,-0.415428366913708,0.8781022989164318,0.7556835678836592,-0.28250587834391677,-1.6692927207612152,0.14139203864336014,2.4034122138783585,1.027369492365254,0.878092876070424,0.7554597494309409,-0.2825552651693207,-1.6690993614607135,0.1414185955172306,2.4034451173676383,1.0273381002308042,-0.0005377986667511081,5.3824167188153714e-05,-7.67626408429532e-05,0.0003231596517635832,0.00039676322590367555,-0.0003127026765658421,0.0006612833183025821,0.0,0.0,0.0,0.0,0.0,0.0,0.0,-9.422846007800523e-06,-0.00022381845271834955,-4.9386825403952006e-05,0.00019335930050168315,2.655687387045913e-05,3.2903489279867415e-05,-3.139213444991462e-05,0.0005377986667511081,-5.3824167188153714e-05,7.67626408429532e-05,-0.0003231596517635832,-0.00039676322590367555,0.0003127026765658421,-0.0006612833183025821,0.5537349581718445,46.44881820678711,5.588284015655518,-19.610628128051758,-0.4983420968055725,-2.4173007011413574,0.43338340520858765,0
73,0.3593170642852783,-0.5537349581718445,-46.44881820678711,-5.588284015655518,19.610628128051758,0.4983420968055725,2.4173007011413574,-0.43338340520858765,0.0,0.0,0.0,0.0,0.0,0.0,0.0,-0.6265639290794639,-0.12402421162886648,-0.43455060452085936,0.4105281586001183,-0.07918139824980071,0.14119012193762495,-0.415428366913708,0.8781022989164318,0.7556835678836592,-0.28250587834391677,-1.6692927207612152,0.14139203864336014,2.4034122138783585,1.027369492365254,0.878092876070424,0.7554597494309409,-0.2825552651693207,-1.6690993614607135,0.1414185955172306,2.4034451173676383,1.0273381002308042,-0.0005377986667511081,5.3824167188153714e-05,-7.67626408429532e-05,0.0003231596517635832,0.00039676322590367555,-0.0003127026765658421,0.0006612833183025821,0.0,0.0,0.0,0.0,0.0,0.0,0.0,-9.422846007800523e-06,-0.00022381845271834955,-4.9386825403952006e-05,0.00019335930050168315,2.655687387045913e-05,3.2903489279867415e-05,-3.139213444991462e-05,0.0005377986667511081,-5.3824167188153714e-05,7.67626408429532e-05,-0.0003231596517635832,-0.00039676322590367555,0.0003127026765658421,-0.0006612833183025821,0.5537349581718445,46.44881820678711,5.588284015655518,-19.610628128051758,-0.4983420968055725,-2.4173007011413574,0.43338340520858765,0
74,0.3642916679382324,-0.6053096652030945,-46.47658920288086,-5.635891437530518,19.610628128051758,0.5166526436805725,2.4108920097351074,-0.41324180364608765,0.0,0.0,0.0,0.0,0.0,0.0,0.0,-0.6346368983344688,-0.1364930758487302,-0.44273914748188076,0.41791875247185045,-0.07742640696714853,0.14231985893459728,-0.41604585421802937,0.8781059181941182,0.7556848060484526,-0.28250253747220627,-1.6692927207612152,0.1413900041381518,2.403412924501639,1.027367254409525,0.878092876070424,0.7554597494309409,-0.2825552651693207,-1.6690993614607135,0.1414185955172306,2.4034451173676383,1.0273381002308042,-6.862298633133977e-05,0.0006002920155238677,0.0011337746287806896,0.00031107694060528217,-3.917485229319494e-05,-0.0001870900979797297,-0.0002249797796950982,0.0,0.0,0.0,0.0,0.0,0.0,0.0,-1.3042123694240182e-05,-0.0002250566175117097,-5.272769711445191e-05,0.00019335930050168315,2.8591379078790613e-05,3.2192865999203235e-05,-2.9154178720736112e-05,6.862298633133977e-05,-0.0006002920155238677,-0.0011337746287806896,-0.00031107694060528217,3.917485229319494e-05,0.0001870900979797297,0.0002249797796950982,0.6053096652030945,46.47658920288086,5.635891437530518,-19.610628128051758,-0.5166526436805725,-2.4108920097351074,0.41324180364608765,0
75,0.36928796768188477,-0.6053096652030945,-46.47658920288086,-5.635891437530518,19.610628128051758,0.5166526436805725,2.4108920097351074,-0.41324180364608765,0.0,0.0,0.0,0.0,0.0,0.0,0.0,-0.6346368983344688,-0.1364930758487302,-0.44273914748188076,0.41791875247185045,-0.07742640696714853,0.14231985893459728,-0.41604585421802937,0.8781059181941182,0.7556848060484526,-0.28250253747220627,-1.6692927207612152,0.1413900041381518,2.403412924501639,1.027367254409525,0.878092876070424,0.7554597494309409,-0.2825552651693207,-1.6690993614607135,0.1414185955172306,2.4034451173676383,1.0273381002308042,-6.862298633133977e-05,0.0006002920155238677,0.0011337746287806896,0.00031107694060528217,-3.917485229319494e-05,-0.0001870900979797297,-0.0002249797796950982,0.0,0.0,0.0,0.0,0.0,0.0,0.0,-1.3042123694240182e-05,-0.0002250566175117097,-5.272769711445191e-05,0.00019335930050168315,2.8591379078790613e-05,3.2192865999203235e-05,-2.9154178720736112e-05,6.862298633133977e-05,-0.0006002920155238677,-0.0011337746287806896,-0.00031107694060528217,3.917485229319494e-05,0.0001870900979797297,0.0002249797796950982,0.6053096652030945,46.47658920288086,5.635891437530518,-19.610628128051758,-0.5166526436805725,-2.4108920097351074,0.41324180364608765,0
76,0.3742861747741699,-0.7322627902030945,-46.44881820678711,-5.663662433624268,19.658235549926758,0.4983420968055725,2.4173007011413574,-0.44711631536483765,0.0,0.0,0.0,0.0,0.0,0.0,0.0,-0.6393701617656203,-0.12944237052386426,-0.44489376002268893,0.416738619967042,-0.07558560753117595,0.1417629146196689,-0.4166000538121398,0.8781148271853463,0.7556835418792837,-0.28250059154656026,-1.6692960587985028,0.14139203864336014,2.4034153913391965,1.0273710182441602,0.878092876070424,0.7554597494309409,-0.2825552651693207,-1.6690993614607135,0.1414185955172306,2.4034451173676383,1.0273381002308042,0.002100235322410659,0.00047080693125963125,0.0007339390623949553,-0.0009610012012844126,0.0005944756676682089,-0.0004609869622159139,0.001416798499995102,0.0,0.0,0.0,0.0,0.0,0.0,0.0,-2.195111492231394e-05,-0.00022379244834280776,-5.4673622760459395e-05,0.00019669733778937548,2.655687387045913e-05,2.972602844186767e-05,-3.2918013356031395e-05,-0.002100235322410659,-0.00047080693125963125,-0.0007339390623949553,0.0009610012012844126,-0.0005944756676682089,0.0004609869622159139,-0.001416798499995102,0.7322627902030945,46.44881820678711,5.663662433624268,-19.658235549926758,-0.4983420968055725,-2.4173007011413574,0.44711631536483765,0
77,0.3792390823364258,-0.7322627902030945,-46.44881820678711,-5.663662433624268,19.658235549926758,0.4983420968055725,2.4173007011413574,-0.44711631536483765,0.0,0.0,0.0,0.0,0.0,0.0,0.0,-0.6393701617656203,-0.12944237052386426,-0.44489376002268893,0.416738619967042,-0.07558560753117595,0.1417629146196689,-0.4166000538121398,0.8781148271853463,0.7556835418792837,-0.28250059154656026,-1.6692960587985028,0.14139203864336014,2.4034153913391965,1.0273710182441602,0.878092876070424,0.7554597494309409,-0.2825552651693207,-1.6690993614607135,0.1414185955172306,2.4034451173676383,1.0273381002308042,0.002100235322410659,0.00047080693125963125,0.0007339390623949553,-0.0009610012012844126,0.0005944756676682089,-0.0004609869622159139,0.001416798499995102,0.0,0.0,0.0,0.0,0.0,0.0,0.0,-2.195111492231394e-05,-0.00022379244834280776,-5.4673622760459395e-05,0.00019669733778937548,2.655687387045913e-05,2.972602844186767e-05,-3.2918013356031395e-05,-0.002100235322410659,-0.00047080693125963125,-0.0007339390623949553,0.0009610012012844126,-0.0005944756676682089,0.0004609869622159139,-0.001416798499995102,0.7322627902030945,46.44881820678711,5.663662433624268,-19.658235549926758,-0.4983420968055725,-2.4173007011413574,0.44711631536483765,0
78,0.38432765007019043,-0.7322627902030945,-46.44881820678711,-5.612087726593018,19.658235549926758,0.5102439522743225,2.4044833183288574,-0.36471885442733765,0.0,0.0,0.0,0.0,0.0,0.0,0.0,-0.6365595454425429,-0.12830684354352856,-0.43991957182753716,0.42192864804907215,-0.07492296093358172,0.1421235999440872,-0.41560044129796725,0.8781148271853463,0.7556835678835288,-0.282504207908078,-1.6692960616329098,0.14139075570611798,2.4034136365963987,1.0273618629707229,0.878092876070424,0.7554597494309409,-0.2825552651693207,-1.6690993614607135,0.1414185955172306,2.4034451173676383,1.0273381002308042,0.0009009358562460915,0.0003616200992408549,-0.0008997435511130383,-0.0007385140721278401,9.096130869412782e-05,0.00014351980814795607,-0.002113475597546221,0.0,0.0,0.0,0.0,0.0,0.0,0.0,-2.195111492231394e-05,-0.00022381845258789834,-5.1057261242715146e-05,0.00019670017219630687,2.7839811112623236e-05,3.148077123960036e-05,-2.376273991866462e-05,-0.0009009358562460915,-0.0003616200992408549,0.0008997435511130383,0.0007385140721278401,-9.096130869412782e-05,-0.00014351980814795607,0.002113475597546221,0.7322627902030945,46.44881820678711,5.612087726593018,-19.658235549926758,-0.5102439522743225,-2.4044833183288574,0.36471885442733765,0
79,0.3892974853515625,-0.7322627902030945,-46.44881820678711,-5.612087726593018,19.658235549926758,0.5102439522743225,2.4044833183288574,-0.36471885442733765,0.0,0.0,0.0,0.0,0.0,0.0,0.0,-0.6365595454425429,-0.12830684354352856,-0.43991957182753716,0.42192864804907215,-0.07492296093358172,0.1421235999440872,-0.41560044129796725,0.8781148271853463,0.7556835678835288,-0.282504207908078,-1.6692960616329098,0.14139075570611798,2.4034136365963987,1.0273618629707229,0.878092876070424,0.7554597494309409,-0.2825552651693207,-1.6690993614607135,0.1414185955172306,2.4034451173676383,1.0273381002308042,0.0009009358562460915,0.0003616200992408549,-0.0008997435511130383,-0.0007385140721278401,9.096130869412782e-05,0.00014351980814795607,-0.002113475597546221,0.0,0.0,0.0,0.0,0.0,0.0,0.0,-2.195111492231394e-05,-0.00022381845258789834,-5.1057261242715146e-05,0.00019670017219630687,2.7839811112623236e-05,3.148077123960036e-05,-2.376273991866462e-05,-0.0009009358562460915,-0.0003616200992408549,0.0008997435511130383,0.0007385140721278401,-9.096130869412782e-05,-0.00014351980814795607,0.002113475597546221,0.7322627902030945,46.44881820678711,5.612087726593018,-19.658235549926758,-0.5102439522743225,-2.4044833183288574,0.36471885442733765,0
80,0.39432263374328613,-0.7084590792655945,-46.42501449584961,-5.687466144561768,19.586824417114258,0.5102439522743225,2.4044833183288574,-0.41965049505233765,0.0,0.0,0.0,0.0,0.0,0.0,0.0,-0.6404408402194666,-0.1328441130866081,-0.4386707293600418,0.4268932241553069,-0.07479167730977669,0.14231604428070493,-0.4144562536787677,0.878113156749491,0.7556818974478203,-0.28249891819451983,-1.66929105032536,0.14139071621519766,2.403413636578454,1.0273679663248423,0.878092876070424,0.7554597494309409,-0.2825552651693207,-1.6690993614607135,0.1414185955172306,2.4034451173676383,1.0273381002308042,0.0002679633069172325,-0.001020227628122421,-0.005526653190541798,0.0008520504500500658,-6.164758942374748e-05,6.438254845906891e-05,8.885888480425881e-06,0.0,0.0,0.0,0.0,0.0,0.0,0.0,-2.0280679067008478e-05,-0.00022214801687947539,-5.634697480089157e-05,0.0001916888646464887,2.7879302032934872e-05,3.148078918435715e-05,-2.9866094038100144e-05,-0.0002679633069172325,0.001020227628122421,0.005526653190541798,-0.0008520504500500658,6.164758942374748e-05,-6.438254845906891e-05,-8.885888480425881e-06,0.7084590792655945,46.42501449584961,5.687466144561768,-19.586824417114258,-0.5102439522743225,-2.4044833183288574,0.41965049505233765,0
