rezayati/contactInterpretation/dataset/franka_main/labeled_data/link6/b7_6.csv
index,time,tau_J0,tau_J1,tau_J2,tau_J3,tau_J4,tau_J5,tau_J6,tau_J_d0,tau_J_d1,tau_J_d2,tau_J_d3,tau_J_d4,tau_J_d5,tau_J_d6,tau_ext0,tau_ext1,tau_ext2,tau_ext3,tau_ext4,tau_ext5,tau_ext6,q0,q1,q2,q3,q4,q5,q6,q_d0,q_d1,q_d2,q_d3,q_d4,q_d5,q_d6,dq0,dq1,dq2,dq3,dq4,dq5,dq6,dq_d0,dq_d1,dq_d2,dq_d3,dq_d4,dq_d5,dq_d6,e0,e1,e2,e3,e4,e5,e6,de0,de1,de2,de3,de4,de5,de6,etau_J0,etau_J1,etau_J2,etau_J3,etau_J4,etau_J5,etau_J6,label
1,0.0,0.10880166292190552,-18.154138565063477,1.1164276599884033,18.269685745239258,0.3500266671180725,2.2818026542663574,-0.17337362468242645,0.0,0.0,0.0,0.0,0.0,0.0,0.0,0.09337913884162169,0.4975392262030772,0.2944163319583467,0.656762262274248,-0.07237261213133021,0.09153686021261313,-0.2134546131674679,-0.6092217622681668,-0.05774274482478806,-0.6666015838242655,-2.5948730580179316,-0.05554022921641963,2.5079392440054153,0.8763154263413614,-0.6090851748156966,-0.05753196718556838,-0.666603097082616,-2.5945565370258534,-0.05562143941554,2.507976027223799,0.8763108487046415,4.986401613517144e-05,-0.0015546986556498096,0.00011894617397609291,0.0009168481536558691,0.00012278139365441885,-1.0904190698394919e-05,-0.0014838673020189292,0.0,0.0,0.0,0.0,0.0,0.0,0.0,0.00013658745247024928,0.00021077763921967946,-1.513258350516189e-06,0.00031652099207812867,-8.12101991203712e-05,3.678321838362919e-05,-4.577636719904632e-06,-4.986401613517144e-05,0.0015546986556498096,-0.00011894617397609291,-0.0009168481536558691,-0.00012278139365441885,1.0904190698394919e-05,0.0014838673020189292,-0.10880166292190552,18.154138565063477,-1.1164276599884033,-18.269685745239258,-0.3500266671180725,-2.2818026542663574,0.17337362468242645,0
2,0.004872798919677734,0.10880166292190552,-18.154138565063477,1.1164276599884033,18.269685745239258,0.3500266671180725,2.2818026542663574,-0.17337362468242645,0.0,0.0,0.0,0.0,0.0,0.0,0.0,0.09337913884162169,0.4975392262030772,0.2944163319583467,0.656762262274248,-0.07237261213133021,0.09153686021261313,-0.2134546131674679,-0.6092217622681668,-0.05774274482478806,-0.6666015838242655,-2.5948730580179316,-0.05554022921641963,2.5079392440054153,0.8763154263413614,-0.6090851748156966,-0.05753196718556838,-0.666603097082616,-2.5945565370258534,-0.05562143941554,2.507976027223799,0.8763108487046415,4.986401613517144e-05,-0.0015546986556498096,0.00011894617397609291,0.0009168481536558691,0.00012278139365441885,-1.0904190698394919e-05,-0.0014838673020189292,0.0,0.0,0.0,0.0,0.0,0.0,0.0,0.00013658745247024928,0.00021077763921967946,-1.513258350516189e-06,0.00031652099207812867,-8.12101991203712e-05,3.678321838362919e-05,-4.577636719904632e-06,-4.986401613517144e-05,0.0015546986556498096,-0.00011894617397609291,-0.0009168481536558691,-0.00012278139365441885,1.0904190698394919e-05,0.0014838673020189292,-0.10880166292190552,18.154138565063477,-1.1164276599884033,-18.269685745239258,-0.3500266671180725,-2.2818026542663574,0.17337362468242645,0
3,0.0098114013671875,0.10880166292190552,-18.078760147094727,1.0688202381134033,18.222078323364258,0.3619285225868225,2.2689852714538574,-0.22830526530742645,0.0,0.0,0.0,0.0,0.0,0.0,0.0,0.09333613856410079,0.5020385766805607,0.2907176984202334,0.6489120658711098,-0.0724027841439466,0.09098561310683723,-0.21258438687563808,-0.6092217651570979,-0.05774803453788422,-0.6665963824923637,-2.5948697171839057,-0.055541161639546865,2.507940668159061,0.8763215298569863,-0.6090851748156966,-0.05753196718556838,-0.666603097082616,-2.5945565370258534,-0.05562143941554,2.507976027223799,0.8763108487046415,0.00020209772769436566,-0.0011415319517415418,0.0006264515377056286,0.001011916361086394,-0.0005302982461618148,0.000201919861157869,0.00039232896303603444,0.0,0.0,0.0,0.0,0.0,0.0,0.0,0.00013659034140134363,0.00021606735231583657,-6.714590252254737e-06,0.00031318015805226196,-8.027777599313446e-05,3.535906473794981e-05,-1.0681152344815814e-05,-0.00020209772769436566,0.0011415319517415418,-0.0006264515377056286,-0.001011916361086394,0.0005302982461618148,-0.000201919861157869,-0.00039232896303603444,-0.10880166292190552,18.078760147094727,-1.0688202381134033,-18.222078323364258,-0.3619285225868225,-2.2689852714538574,0.22830526530742645,0
4,0.014821052551269531,0.10880166292190552,-18.078760147094727,1.0688202381134033,18.222078323364258,0.3619285225868225,2.2689852714538574,-0.22830526530742645,0.0,0.0,0.0,0.0,0.0,0.0,0.0,0.09333613856410079,0.5020385766805607,0.2907176984202334,0.6489120658711098,-0.0724027841439466,0.09098561310683723,-0.21258438687563808,-0.6092217651570979,-0.05774803453788422,-0.6665963824923637,-2.5948697171839057,-0.055541161639546865,2.507940668159061,0.8763215298569863,-0.6090851748156966,-0.05753196718556838,-0.666603097082616,-2.5945565370258534,-0.05562143941554,2.507976027223799,0.8763108487046415,0.00020209772769436566,-0.0011415319517415418,0.0006264515377056286,0.001011916361086394,-0.0005302982461618148,0.000201919861157869,0.00039232896303603444,0.0,0.0,0.0,0.0,0.0,0.0,0.0,0.00013659034140134363,0.00021606735231583657,-6.714590252254737e-06,0.00031318015805226196,-8.027777599313446e-05,3.535906473794981e-05,-1.0681152344815814e-05,-0.00020209772769436566,0.0011415319517415418,-0.0006264515377056286,-0.001011916361086394,0.0005302982461618148,-0.000201919861157869,-0.00039232896303603444,-0.10880166292190552,18.078760147094727,-1.0688202381134033,-18.222078323364258,-0.3619285225868225,-2.2689852714538574,0.22830526530742645,0
5,0.019863128662109375,0.08103066682815552,-18.078760147094727,1.0688202381134033,18.269685745239258,0.3436179757118225,2.2625765800476074,-0.22098104655742645,0.0,0.0,0.0,0.0,0.0,0.0,0.0,0.09482429410120423,0.5024764746121388,0.28818502847295824,0.6554243220953933,-0.07259675817985248,0.09094156197306263,-0.21363720565831584,-0.6092198134263519,-0.057748034646143434,-0.6665970819241833,-2.5948730671752984,-0.055535210598787785,2.507941380235884,0.8763207155703864,-0.6090851748156966,-0.05753196718556838,-0.666603097082616,-2.5945565370258534,-0.05562143941554,2.507976027223799,0.8763108487046415,0.00012239487801390134,-1.77235101226269e-05,0.0007173617713058857,-0.0001820335649989931,0.0005096454015279106,-6.0891375366249155e-05,0.0005188596548928755,0.0,0.0,0.0,0.0,0.0,0.0,0.0,0.00013463861065532434,0.00021606746057505066,-6.015158432681744e-06,0.00031653014944499347,-8.622881675221516e-05,3.464698791511012e-05,-9.866865744889708e-06,-0.00012239487801390134,1.77235101226269e-05,-0.0007173617713058857,0.0001820335649989931,-0.0005096454015279106,6.0891375366249155e-05,-0.0005188596548928755,-0.08103066682815552,18.078760147094727,-1.0688202381134033,-18.269685745239258,-0.3436179757118225,-2.2625765800476074,0.22098104655742645,0
6,0.02486133575439453,0.08103066682815552,-18.078760147094727,1.0688202381134033,18.269685745239258,0.3436179757118225,2.2625765800476074,-0.22098104655742645,0.0,0.0,0.0,0.0,0.0,0.0,0.0,0.09482429410120423,0.5024764746121388,0.28818502847295824,0.6554243220953933,-0.07259675817985248,0.09094156197306263,-0.21363720565831584,-0.6092198134263519,-0.057748034646143434,-0.6665970819241833,-2.5948730671752984,-0.055535210598787785,2.507941380235884,0.8763207155703864,-0.6090851748156966,-0.05753196718556838,-0.666603097082616,-2.5945565370258534,-0.05562143941554,2.507976027223799,0.8763108487046415,0.00012239487801390134,-1.77235101226269e-05,0.0007173617713058857,-0.0001820335649989931,0.0005096454015279106,-6.0891375366249155e-05,0.0005188596548928755,0.0,0.0,0.0,0.0,0.0,0.0,0.0,0.00013463861065532434,0.00021606746057505066,-6.015158432681744e-06,0.00031653014944499347,-8.622881675221516e-05,3.464698791511012e-05,-9.866865744889708e-06,-0.00012239487801390134,1.77235101226269e-05,-0.0007173617713058857,0.0001820335649989931,-0.0005096454015279106,6.0891375366249155e-05,-0.0005188596548928755,-0.08103066682815552,18.078760147094727,-1.0688202381134033,-18.269685745239258,-0.3436179757118225,-2.2625765800476074,0.22098104655742645,0
7,0.029860734939575195,0.03342324495315552,-18.106531143188477,1.1164276599884033,18.321260452270508,0.3555198311805725,2.2753939628601074,-0.17337362468242645,0.0,0.0,0.0,0.0,0.0,0.0,0.0,0.09081666585745928,0.50973634448939,0.28553933700243767,0.6559222170228571,-0.07265054101996282,0.08889801206191984,-0.21305657075553786,-0.6092164725546251,-0.05774608569605369,-0.6666016618302978,-2.5948766772956695,-0.055536111771249994,2.507939956082238,0.8763154263413587,-0.6090851748156966,-0.05753196718556838,-0.666603097082616,-2.5945565370258534,-0.05562143941554,2.507976027223799,0.8763108487046415,0.0005199268285405877,-9.603852927664944e-05,-0.000492921246801629,-0.001296854864546715,4.429101379719245e-05,-0.0004513651252063381,-0.0020723569709938275,0.0,0.0,0.0,0.0,0.0,0.0,0.0,0.00013129773892850416,0.00021411851048530606,-1.4352523182159516e-06,0.0003201402698160827,-8.532764429000639e-05,3.60711415607895e-05,-4.577636717240097e-06,-0.0005199268285405877,9.603852927664944e-05,0.000492921246801629,0.001296854864546715,-4.429101379719245e-05,0.0004513651252063381,0.0020723569709938275,-0.03342324495315552,18.106531143188477,-1.1164276599884033,-18.321260452270508,-0.3555198311805725,-2.2753939628601074,0.17337362468242645,0
8,0.03486275672912598,0.03342324495315552,-18.106531143188477,1.1164276599884033,18.321260452270508,0.3555198311805725,2.2753939628601074,-0.17337362468242645,0.0,0.0,0.0,0.0,0.0,0.0,0.0,0.09081666585745928,0.50973634448939,0.28553933700243767,0.6559222170228571,-0.07265054101996282,0.08889801206191984,-0.21305657075553786,-0.6092164725546251,-0.05774608569605369,-0.6666016618302978,-2.5948766772956695,-0.055536111771249994,2.507939956082238,0.8763154263413587,-0.6090851748156966,-0.05753196718556838,-0.666603097082616,-2.5945565370258534,-0.05562143941554,2.507976027223799,0.8763108487046415,0.0005199268285405877,-9.603852927664944e-05,-0.000492921246801629,-0.001296854864546715,4.429101379719245e-05,-0.0004513651252063381,-0.0020723569709938275,0.0,0.0,0.0,0.0,0.0,0.0,0.0,0.00013129773892850416,0.00021411851048530606,-1.4352523182159516e-06,0.0003201402698160827,-8.532764429000639e-05,3.60711415607895e-05,-4.577636717240097e-06,-0.0005199268285405877,9.603852927664944e-05,0.000492921246801629,0.001296854864546715,-4.429101379719245e-05,0.0004513651252063381,0.0020723569709938275,-0.03342324495315552,18.106531143188477,-1.1164276599884033,-18.321260452270508,-0.3555198311805725,-2.2753939628601074,0.17337362468242645,0
9,0.03986024856567383,0.08103066682815552,-18.154138565063477,1.0688202381134033,18.345064163208008,0.3436179757118225,2.2818026542663574,-0.21457235515117645,0.0,0.0,0.0,0.0,0.0,0.0,0.0,0.08702169426012407,0.5115222978326321,0.2869603626765298,0.6588715453063471,-0.07219485783409049,0.0890552776945082,-0.21322440861615197,-0.6092198134263357,-0.05774275456767154,-0.6665982429644415,-2.594878347731473,-0.05553616565220169,2.5079392440054153,0.8763231828924681,-0.6090851748156966,-0.05753196718556838,-0.666603097082616,-2.5945565370258534,-0.05562143941554,2.507976027223799,0.8763108487046415,2.3149290204135182e-05,-0.0002939012244851995,0.0003879801735729753,-0.0012946480229020544,0.0003543020159173148,-0.00017851531082099,0.0005994782563334785,0.0,0.0,0.0,0.0,0.0,0.0,0.0,0.00013463861063911509,0.00021078738210315862,-4.854118174524302e-06,0.0003218107056195407,-8.527376333831299e-05,3.678321838362919e-05,-1.233418782664586e-05,-2.3149290204135182e-05,0.0002939012244851995,-0.0003879801735729753,0.0012946480229020544,-0.0003543020159173148,0.00017851531082099,-0.0005994782563334785,-0.08103066682815552,18.154138565063477,-1.0688202381134033,-18.345064163208008,-0.3436179757118225,-2.2818026542663574,0.21457235515117645,0
10,0.0448613166809082,0.08103066682815552,-18.154138565063477,1.0688202381134033,18.345064163208008,0.3436179757118225,2.2818026542663574,-0.21457235515117645,0.0,0.0,0.0,0.0,0.0,0.0,0.0,0.08702169426012407,0.5115222978326321,0.2869603626765298,0.6588715453063471,-0.07219485783409049,0.0890552776945082,-0.21322440861615197,-0.6092198134263357,-0.05774275456767154,-0.6665982429644415,-2.594878347731473,-0.05553616565220169,2.5079392440054153,0.8763231828924681,-0.6090851748156966,-0.05753196718556838,-0.666603097082616,-2.5945565370258534,-0.05562143941554,2.507976027223799,0.8763108487046415,2.3149290204135182e-05,-0.0002939012244851995,0.0003879801735729753,-0.0012946480229020544,0.0003543020159173148,-0.00017851531082099,0.0005994782563334785,0.0,0.0,0.0,0.0,0.0,0.0,0.0,0.00013463861063911509,0.00021078738210315862,-4.854118174524302e-06,0.0003218107056195407,-8.527376333831299e-05,3.678321838362919e-05,-1.233418782664586e-05,-2.3149290204135182e-05,0.0002939012244851995,-0.0003879801735729753,0.0012946480229020544,-0.0003543020159173148,0.00017851531082099,-0.0005994782563334785,-0.08103066682815552,18.154138565063477,-1.0688202381134033,-18.345064163208008,-0.3436179757118225,-2.2818026542663574,0.21457235515117645,0
11,0.04996132850646973,0.08103066682815552,-18.154138565063477,1.0688202381134033,18.345064163208008,0.3436179757118225,2.2818026542663574,-0.21457235515117645,0.0,0.0,0.0,0.0,0.0,0.0,0.0,0.08702169426012407,0.5115222978326321,0.2869603626765298,0.6588715453063471,-0.07219485783409049,0.0890552776945082,-0.21322440861615197,-0.6092198134263357,-0.05774275456767154,-0.6665982429644415,-2.594878347731473,-0.05553616565220169,2.5079392440054153,0.8763231828924681,-0.6090851748156966,-0.05753196718556838,-0.666603097082616,-2.5945565370258534,-0.05562143941554,2.507976027223799,0.8763108487046415,2.3149290204135182e-05,-0.0002939012244851995,0.0003879801735729753,-0.0012946480229020544,0.0003543020159173148,-0.00017851531082099,0.0005994782563334785,0.0,0.0,0.0,0.0,0.0,0.0,0.0,0.00013463861063911509,0.00021078738210315862,-4.854118174524302e-06,0.0003218107056195407,-8.527376333831299e-05,3.678321838362919e-05,-1.233418782664586e-05,-2.3149290204135182e-05,0.0002939012244851995,-0.0003879801735729753,0.0012946480229020544,-0.0003543020159173148,0.00017851531082099,-0.0005994782563334785,-0.08103066682815552,18.154138565063477,-1.0688202381134033,-18.345064163208008,-0.3436179757118225,-2.2818026542663574,0.21457235515117645,0
12,0.05495882034301758,0.08103066682815552,-18.154138565063477,1.0688202381134033,18.345064163208008,0.3436179757118225,2.2818026542663574,-0.21457235515117645,0.0,0.0,0.0,0.0,0.0,0.0,0.0,0.08702169426012407,0.5115222978326321,0.2869603626765298,0.6588715453063471,-0.07219485783409049,0.0890552776945082,-0.21322440861615197,-0.6092198134263357,-0.05774275456767154,-0.6665982429644415,-2.594878347731473,-0.05553616565220169,2.5079392440054153,0.8763231828924681,-0.6090851748156966,-0.05753196718556838,-0.666603097082616,-2.5945565370258534,-0.05562143941554,2.507976027223799,0.8763108487046415,2.3149290204135182e-05,-0.0002939012244851995,0.0003879801735729753,-0.0012946480229020544,0.0003543020159173148,-0.00017851531082099,0.0005994782563334785,0.0,0.0,0.0,0.0,0.0,0.0,0.0,0.00013463861063911509,0.00021078738210315862,-4.854118174524302e-06,0.0003218107056195407,-8.527376333831299e-05,3.678321838362919e-05,-1.233418782664586e-05,-2.3149290204135182e-05,0.0002939012244851995,-0.0003879801735729753,0.0012946480229020544,-0.0003543020159173148,0.00017851531082099,-0.0005994782563334785,-0.08103066682815552,18.154138565063477,-1.0688202381134033,-18.345064163208008,-0.3436179757118225,-2.2818026542663574,0.21457235515117645,0
13,0.0598602294921875,0.13260537385940552,-18.253320693969727,1.1164276599884033,18.297456741333008,0.3500266671180725,2.2753939628601074,-0.22830526530742645,0.0,0.0,0.0,0.0,0.0,0.0,0.0,0.08762700502532984,0.5132467461558844,0.28494022497321897,0.6559035043796836,-0.07225597151501444,0.08927676532315329,-0.2122260580707457,-0.609223432704022,-0.05773578467511063,-0.6665995938139414,-2.594875007198924,-0.055539163168193885,2.507939956082238,0.8763215299108216,-0.6090851748156966,-0.05753196718556838,-0.666603097082616,-2.5945565370258534,-0.05562143941554,2.507976027223799,0.8763108487046415,-0.001384386456938228,0.0016193082765342736,-0.0002074759707753544,0.00014736755683742383,7.477410606070378e-05,-4.253400621190768e-06,0.0006809841957747113,0.0,0.0,0.0,0.0,0.0,0.0,0.0,0.00013825788832544372,0.00020381748954224899,-3.503268674598381e-06,0.00031847017307073955,-8.2276247346115e-05,3.60711415607895e-05,-1.068120618008539e-05,0.001384386456938228,-0.0016193082765342736,0.0002074759707753544,-0.00014736755683742383,-7.477410606070378e-05,4.253400621190768e-06,-0.0006809841957747113,-0.13260537385940552,18.253320693969727,-1.1164276599884033,-18.297456741333008,-0.3500266671180725,-2.2753939628601074,0.22830526530742645,0
14,0.06486701965332031,0.13260537385940552,-18.253320693969727,1.1164276599884033,18.297456741333008,0.3500266671180725,2.2753939628601074,-0.22830526530742645,0.0,0.0,0.0,0.0,0.0,0.0,0.0,0.08762700502532984,0.5132467461558844,0.28494022497321897,0.6559035043796836,-0.07225597151501444,0.08927676532315329,-0.2122260580707457,-0.609223432704022,-0.05773578467511063,-0.6665995938139414,-2.594875007198924,-0.055539163168193885,2.507939956082238,0.8763215299108216,-0.6090851748156966,-0.05753196718556838,-0.666603097082616,-2.5945565370258534,-0.05562143941554,2.507976027223799,0.8763108487046415,-0.001384386456938228,0.0016193082765342736,-0.0002074759707753544,0.00014736755683742383,7.477410606070378e-05,-4.253400621190768e-06,0.0006809841957747113,0.0,0.0,0.0,0.0,0.0,0.0,0.0,0.00013825788832544372,0.00020381748954224899,-3.503268674598381e-06,0.00031847017307073955,-8.2276247346115e-05,3.60711415607895e-05,-1.068120618008539e-05,0.001384386456938228,-0.0016193082765342736,0.0002074759707753544,-0.00014736755683742383,-7.477410606070378e-05,4.253400621190768e-06,-0.0006809841957747113,-0.13260537385940552,18.253320693969727,-1.1164276599884033,-18.297456741333008,-0.3500266671180725,-2.2753939628601074,0.22830526530742645,0
15,0.06986403465270996,0.13260537385940552,-18.154138565063477,1.1441986560821533,18.245882034301758,0.3555198311805725,2.2625765800476074,-0.23471395671367645,0.0,0.0,0.0,0.0,0.0,0.0,0.0,0.0938172668821713,0.5105291725841828,0.2887391419814962,0.6521867599381095,-0.07256253136476229,0.08996362769829033,-0.21098180872155797,-0.609223432704022,-0.05774274482434255,-0.6666015306403794,-2.594874354568838,-0.055536460924466555,2.507941380235884,0.8763222419338094,-0.6090851748156966,-0.05753196718556838,-0.666603097082616,-2.5945565370258534,-0.05562143941554,2.507976027223799,0.8763108487046415,-0.0005126271404873873,-3.412482072960675e-05,-2.7959278466715904e-05,0.001175039360606293,-7.26350883009437e-05,0.00045351237579625695,0.0005206611224292707,0.0,0.0,0.0,0.0,0.0,0.0,0.0,0.00013825788832544372,0.00021077763877416777,-1.5664422365890829e-06,0.0003178175429847663,-8.497849107344524e-05,3.464698791511012e-05,-1.139322916787755e-05,0.0005126271404873873,3.412482072960675e-05,2.7959278466715904e-05,-0.001175039360606293,7.26350883009437e-05,-0.00045351237579625695,-0.0005206611224292707,-0.13260537385940552,18.154138565063477,-1.1441986560821533,-18.245882034301758,-0.3555198311805725,-2.2625765800476074,0.23471395671367645,0
16,0.07486319541931152,0.13260537385940552,-18.154138565063477,1.1441986560821533,18.245882034301758,0.3555198311805725,2.2625765800476074,-0.23471395671367645,0.0,0.0,0.0,0.0,0.0,0.0,0.0,0.0938172668821713,0.5105291725841828,0.2887391419814962,0.6521867599381095,-0.07256253136476229,0.08996362769829033,-0.21098180872155797,-0.609223432704022,-0.05774274482434255,-0.6666015306403794,-2.594874354568838,-0.055536460924466555,2.507941380235884,0.8763222419338094,-0.6090851748156966,-0.05753196718556838,-0.666603097082616,-2.5945565370258534,-0.05562143941554,2.507976027223799,0.8763108487046415,-0.0005126271404873873,-3.412482072960675e-05,-2.7959278466715904e-05,0.001175039360606293,-7.26350883009437e-05,0.00045351237579625695,0.0005206611224292707,0.0,0.0,0.0,0.0,0.0,0.0,0.0,0.00013825788832544372,0.00021077763877416777,-1.5664422365890829e-06,0.0003178175429847663,-8.497849107344524e-05,3.464698791511012e-05,-1.139322916787755e-05,0.0005126271404873873,3.412482072960675e-05,2.7959278466715904e-05,-0.001175039360606293,7.26350883009437e-05,-0.00045351237579625695,-0.0005206611224292707,-0.13260537385940552,18.154138565063477,-1.1441986560821533,-18.245882034301758,-0.3555198311805725,-2.2625765800476074,0.23471395671367645,0
17,0.0798649787902832,0.10880166292190552,-18.106531143188477,1.1164276599884033,18.245882034301758,0.3436179757118225,2.2625765800476074,-0.17337362468242645,0.0,0.0,0.0,0.0,0.0,0.0,0.0,0.09750617674577969,0.5097963192553382,0.29008091420760757,0.6508112484716572,-0.07246953577299808,0.08917706615470646,-0.21234094151688435,-0.6092217709349601,-0.05774608569605308,-0.6666002069099092,-2.5948713876365095,-0.055539516648132795,2.507941380235884,0.8763154263413615,-0.6090851748156966,-0.05753196718556838,-0.666603097082616,-2.5945565370258534,-0.05562143941554,2.507976027223799,0.8763108487046415,0.0006703985326835744,-0.00026389691709330625,0.00013863379321599545,0.0007135482630058985,0.00033311131579836286,0.0001554027736428262,-0.0017231831459648993,0.0,0.0,0.0,0.0,0.0,0.0,0.0,0.00013659611926353232,0.00021411851048469543,-2.890172706826455e-06,0.0003148506106560589,-8.192276740720539e-05,3.464698791511012e-05,-4.577636720015654e-06,-0.0006703985326835744,0.00026389691709330625,-0.00013863379321599545,-0.0007135482630058985,-0.00033311131579836286,-0.0001554027736428262,0.0017231831459648993,-0.10880166292190552,18.106531143188477,-1.1164276599884033,-18.245882034301758,-0.3436179757118225,-2.2625765800476074,0.17337362468242645,0
18,0.08486533164978027,0.10880166292190552,-18.106531143188477,1.1164276599884033,18.245882034301758,0.3436179757118225,2.2625765800476074,-0.17337362468242645,0.0,0.0,0.0,0.0,0.0,0.0,0.0,0.09750617674577969,0.5097963192553382,0.29008091420760757,0.6508112484716572,-0.07246953577299808,0.08917706615470646,-0.21234094151688435,-0.6092217709349601,-0.05774608569605308,-0.6666002069099092,-2.5948713876365095,-0.055539516648132795,2.507941380235884,0.8763154263413615,-0.6090851748156966,-0.05753196718556838,-0.666603097082616,-2.5945565370258534,-0.05562143941554,2.507976027223799,0.8763108487046415,0.0006703985326835744,-0.00026389691709330625,0.00013863379321599545,0.0007135482630058985,0.00033311131579836286,0.0001554027736428262,-0.0017231831459648993,0.0,0.0,0.0,0.0,0.0,0.0,0.0,0.00013659611926353232,0.00021411851048469543,-2.890172706826455e-06,0.0003148506106560589,-8.192276740720539e-05,3.464698791511012e-05,-4.577636720015654e-06,-0.0006703985326835744,0.00026389691709330625,-0.00013863379321599545,-0.0007135482630058985,-0.00033311131579836286,-0.0001554027736428262,0.0017231831459648993,-0.10880166292190552,18.106531143188477,-1.1164276599884033,-18.245882034301758,-0.3436179757118225,-2.2625765800476074,0.17337362468242645,0
19,0.08986115455627441,0.10880166292190552,-18.078760147094727,1.0926239490509033,18.245882034301758,0.3555198311805725,2.2753939628601074,-0.21457235515117645,0.0,0.0,0.0,0.0,0.0,0.0,0.0,0.09284585739936149,0.5088953230257752,0.2809535400864705,0.6534765953616436,-0.07211110245088577,0.08753717698822747,-0.2130228816339536,-0.6092220049384293,-0.05774803453788422,-0.666597833682674,-2.5948713875820766,-0.05554084402319977,2.507939956082238,0.8763200039780802,-0.6090851748156966,-0.05753196718556838,-0.666603097082616,-2.5945565370258534,-0.05562143941554,2.507976027223799,0.8763108487046415,-0.00032405093083263486,-0.0007900832861519734,-0.00015624974856248705,0.0007253985092891066,-0.0002381201467330402,-0.0006921605739956689,-0.0001137787502567821,0.0,0.0,0.0,0.0,0.0,0.0,0.0,0.00013683012273268957,0.00021606735231583657,-5.263399942001534e-06,0.0003148505562231563,-8.05953923402325e-05,3.60711415607895e-05,-9.155273438699041e-06,0.00032405093083263486,0.0007900832861519734,0.00015624974856248705,-0.0007253985092891066,0.0002381201467330402,0.0006921605739956689,0.0001137787502567821,-0.10880166292190552,18.078760147094727,-1.0926239490509033,-18.245882034301758,-0.3555198311805725,-2.2753939628601074,0.21457235515117645,0
20,0.09486794471740723,0.10880166292190552,-18.078760147094727,1.0926239490509033,18.245882034301758,0.3555198311805725,2.2753939628601074,-0.21457235515117645,0.0,0.0,0.0,0.0,0.0,0.0,0.0,0.09284585739936149,0.5088953230257752,0.2809535400864705,0.6534765953616436,-0.07211110245088577,0.08753717698822747,-0.2130228816339536,-0.6092220049384293,-0.05774803453788422,-0.666597833682674,-2.5948713875820766,-0.05554084402319977,2.507939956082238,0.8763200039780802,-0.6090851748156966,-0.05753196718556838,-0.666603097082616,-2.5945565370258534,-0.05562143941554,2.507976027223799,0.8763108487046415,-0.00032405093083263486,-0.0007900832861519734,-0.00015624974856248705,0.0007253985092891066,-0.0002381201467330402,-0.0006921605739956689,-0.0001137787502567821,0.0,0.0,0.0,0.0,0.0,0.0,0.0,0.00013683012273268957,0.00021606735231583657,-5.263399942001534e-06,0.0003148505562231563,-8.05953923402325e-05,3.60711415607895e-05,-9.155273438699041e-06,0.00032405093083263486,0.0007900832861519734,0.00015624974856248705,-0.0007253985092891066,0.0002381201467330402,0.0006921605739956689,0.0001137787502567821,-0.10880166292190552,18.078760147094727,-1.0926239490509033,-18.245882034301758,-0.3555198311805725,-2.2753939628601074,0.21457235515117645,0
21,0.09986042976379395,0.05722695589065552,-18.130334854125977,1.1164276599884033,18.269685745239258,0.3500266671180725,2.2882113456726074,-0.23471395671367645,0.0,0.0,0.0,0.0,0.0,0.0,0.0,0.09583911289157061,0.507717959274379,0.2829502919170165,0.6616146757493315,-0.07272952821756552,0.08742489888969648,-0.2135832919321861,-0.6092181429918502,-0.057744415260197815,-0.6666016618251118,-2.594873058055616,-0.055540062268229475,2.507938531928592,0.8763222419338094,-0.6090851748156966,-0.05753196718556838,-0.666603097082616,-2.5945565370258534,-0.05562143941554,2.507976027223799,0.8763108487046415,-7.1960429665513435e-06,-0.00046517920953871914,-0.0006780544228536376,0.00064623207554552,-6.078811258028229e-05,-0.0004673618599158432,0.0007127195899829727,0.0,0.0,0.0,0.0,0.0,0.0,0.0,0.0001329681761536028,0.0002124480746294316,-1.4352575041787219e-06,0.00031652102976265084,-8.137714731052542e-05,3.749529520691297e-05,-1.139322916787755e-05,7.1960429665513435e-06,0.00046517920953871914,0.0006780544228536376,-0.00064623207554552,6.078811258028229e-05,0.0004673618599158432,-0.0007127195899829727,-0.05722695589065552,18.130334854125977,-1.1164276599884033,-18.269685745239258,-0.3500266671180725,-2.2882113456726074,0.23471395671367645,0
22,0.10487127304077148,0.05722695589065552,-18.130334854125977,1.1164276599884033,18.269685745239258,0.3500266671180725,2.2882113456726074,-0.23471395671367645,0.0,0.0,0.0,0.0,0.0,0.0,0.0,0.09583911289157061,0.507717959274379,0.2829502919170165,0.6616146757493315,-0.07272952821756552,0.08742489888969648,-0.2135832919321861,-0.6092181429918502,-0.057744415260197815,-0.6666016618251118,-2.594873058055616,-0.055540062268229475,2.507938531928592,0.8763222419338094,-0.6090851748156966,-0.05753196718556838,-0.666603097082616,-2.5945565370258534,-0.05562143941554,2.507976027223799,0.8763108487046415,-7.1960429665513435e-06,-0.00046517920953871914,-0.0006780544228536376,0.00064623207554552,-6.078811258028229e-05,-0.0004673618599158432,0.0007127195899829727,0.0,0.0,0.0,0.0,0.0,0.0,0.0,0.0001329681761536028,0.0002124480746294316,-1.4352575041787219e-06,0.00031652102976265084,-8.137714731052542e-05,3.749529520691297e-05,-1.139322916787755e-05,7.1960429665513435e-06,0.00046517920953871914,0.0006780544228536376,-0.00064623207554552,6.078811258028229e-05,0.0004673618599158432,-0.0007127195899829727,-0.05722695589065552,18.130334854125977,-1.1164276599884033,-18.269685745239258,-0.3500266671180725,-2.2882113456726074,0.23471395671367645,0
23,0.10986018180847168,0.10880166292190552,-18.205713272094727,1.0926239490509033,18.321260452270508,0.3500266671180725,2.2753939628601074,-0.21457235515117645,0.0,0.0,0.0,0.0,0.0,0.0,0.0,0.0958360769894429,0.514299333623385,0.28617119074410485,0.6603865873614381,-0.07315586601001885,0.08839955588599621,-0.21392746114633399,-0.6092217622681668,-0.05773912554665615,-0.6665979145809582,-2.594876677295618,-0.055539864955891284,2.507939956082238,0.8763200039780802,-0.6090851748156966,-0.05753196718556838,-0.666603097082616,-2.5945565370258534,-0.05562143941554,2.507976027223799,0.8763108487046415,-0.00025421251161655346,0.0013883492719402393,-8.662066090182831e-05,-0.0002806584243072254,0.00017864508574251517,0.00013572025498512924,0.0004190789591940459,0.0,0.0,0.0,0.0,0.0,0.0,0.0,0.00013658745247024928,0.00020715836108776975,-5.182501657818861e-06,0.00032014026976456833,-8.157445964871585e-05,3.60711415607895e-05,-9.155273438699041e-06,0.00025421251161655346,-0.0013883492719402393,8.662066090182831e-05,0.0002806584243072254,-0.00017864508574251517,-0.00013572025498512924,-0.0004190789591940459,-0.10880166292190552,18.205713272094727,-1.0926239490509033,-18.321260452270508,-0.3500266671180725,-2.2753939628601074,0.21457235515117645,0
24,0.11486101150512695,0.10880166292190552,-18.205713272094727,1.0926239490509033,18.321260452270508,0.3500266671180725,2.2753939628601074,-0.21457235515117645,0.0,0.0,0.0,0.0,0.0,0.0,0.0,0.0958360769894429,0.514299333623385,0.28617119074410485,0.6603865873614381,-0.07315586601001885,0.08839955588599621,-0.21392746114633399,-0.6092217622681668,-0.05773912554665615,-0.6665979145809582,-2.594876677295618,-0.055539864955891284,2.507939956082238,0.8763200039780802,-0.6090851748156966,-0.05753196718556838,-0.666603097082616,-2.5945565370258534,-0.05562143941554,2.507976027223799,0.8763108487046415,-0.00025421251161655346,0.0013883492719402393,-8.662066090182831e-05,-0.0002806584243072254,0.00017864508574251517,0.00013572025498512924,0.0004190789591940459,0.0,0.0,0.0,0.0,0.0,0.0,0.0,0.00013658745247024928,0.00020715836108776975,-5.182501657818861e-06,0.00032014026976456833,-8.157445964871585e-05,3.60711415607895e-05,-9.155273438699041e-06,0.00025421251161655346,-0.0013883492719402393,8.662066090182831e-05,0.0002806584243072254,-0.00017864508574251517,-0.00013572025498512924,-0.0004190789591940459,-0.10880166292190552,18.205713272094727,-1.0926239490509033,-18.321260452270508,-0.3500266671180725,-2.2753939628601074,0.21457235515117645,0
25,0.11986327171325684,0.13260537385940552,-18.154138565063477,1.0926239490509033,18.297456741333008,0.3436179757118225,2.2818026542663574,-0.22830526530742645,0.0,0.0,0.0,0.0,0.0,0.0,0.0,0.09490128890005532,0.5189287260693805,0.28623228578117393,0.655652355244975,-0.07316891638211606,0.08873180239895065,-0.21330960194478069,-0.609223433666999,-0.05774274482434255,-0.6665987434784694,-2.5948750068597626,-0.05553904627139985,2.5079392440054153,0.8763215298569864,-0.6090851748156966,-0.05753196718556838,-0.666603097082616,-2.5945565370258534,-0.05562143941554,2.507976027223799,0.8763108487046415,-0.0009398824764209671,0.00018929557742315768,0.0004800149271469569,-0.0003593557809446073,0.0002884829091089524,-0.0003813671326804671,0.0005597109766923342,0.0,0.0,0.0,0.0,0.0,0.0,0.0,0.00013825885130247517,0.00021077763877416777,-4.353604146634105e-06,0.00031846983390915184,-8.239314414015125e-05,3.678321838362919e-05,-1.0681152344926836e-05,0.0009398824764209671,-0.00018929557742315768,-0.0004800149271469569,0.0003593557809446073,-0.0002884829091089524,0.0003813671326804671,-0.0005597109766923342,-0.13260537385940552,18.154138565063477,-1.0926239490509033,-18.297456741333008,-0.3436179757118225,-2.2818026542663574,0.22830526530742645,0
26,0.1248631477355957,0.13260537385940552,-18.154138565063477,1.0926239490509033,18.297456741333008,0.3436179757118225,2.2818026542663574,-0.22830526530742645,0.0,0.0,0.0,0.0,0.0,0.0,0.0,0.09490128890005532,0.5189287260693805,0.28623228578117393,0.655652355244975,-0.07316891638211606,0.08873180239895065,-0.21330960194478069,-0.609223433666999,-0.05774274482434255,-0.6665987434784694,-2.5948750068597626,-0.05553904627139985,2.5079392440054153,0.8763215298569864,-0.6090851748156966,-0.05753196718556838,-0.666603097082616,-2.5945565370258534,-0.05562143941554,2.507976027223799,0.8763108487046415,-0.0009398824764209671,0.00018929557742315768,0.0004800149271469569,-0.0003593557809446073,0.0002884829091089524,-0.0003813671326804671,0.0005597109766923342,0.0,0.0,0.0,0.0,0.0,0.0,0.0,0.00013825885130247517,0.00021077763877416777,-4.353604146634105e-06,0.00031846983390915184,-8.239314414015125e-05,3.678321838362919e-05,-1.0681152344926836e-05,0.0009398824764209671,-0.00018929557742315768,-0.0004800149271469569,0.0003593557809446073,-0.0002884829091089524,0.0003813671326804671,-0.0005597109766923342,-0.13260537385940552,18.154138565063477,-1.0926239490509033,-18.297456741333008,-0.3436179757118225,-2.2818026542663574,0.22830526530742645,0
27,0.12985920906066895,0.08103066682815552,-18.106531143188477,1.0688202381134033,18.321260452270508,0.3500266671180725,2.2625765800476074,-0.18710653483867645,0.0,0.0,0.0,0.0,0.0,0.0,0.0,0.09193461384670966,0.5139696444059755,0.28436945104319306,0.6550793575262625,-0.07270986977971125,0.08936261247848529,-0.21312302420536713,-0.609219813426341,-0.057746322458947605,-0.6665961378895918,-2.594876678313103,-0.05553703985343276,2.507941380235884,0.8763169522202677,-0.6090851748156966,-0.05753196718556838,-0.666603097082616,-2.5945565370258534,-0.05562143941554,2.507976027223799,0.8763108487046415,0.0006936379904191618,-0.0011585837500416127,0.0007097847073301573,-0.0012872372584531563,-5.412272824670767e-06,0.0003598115066014477,-0.0011140104005647779,0.0,0.0,0.0,0.0,0.0,0.0,0.0,0.00013463861064444416,0.00021435527337922144,-6.959193024180799e-06,0.00032014128724977553,-8.439956210724159e-05,3.464698791511012e-05,-6.10351562624345e-06,-0.0006936379904191618,0.0011585837500416127,-0.0007097847073301573,0.0012872372584531563,5.412272824670767e-06,-0.0003598115066014477,0.0011140104005647779,-0.08103066682815552,18.106531143188477,-1.0688202381134033,-18.321260452270508,-0.3500266671180725,-2.2625765800476074,0.18710653483867645,0
28,0.13486313819885254,0.08103066682815552,-18.106531143188477,1.0688202381134033,18.321260452270508,0.3500266671180725,2.2625765800476074,-0.18710653483867645,0.0,0.0,0.0,0.0,0.0,0.0,0.0,0.09193461384670966,0.5139696444059755,0.28436945104319306,0.6550793575262625,-0.07270986977971125,0.08936261247848529,-0.21312302420536713,-0.609219813426341,-0.057746322458947605,-0.6665961378895918,-2.594876678313103,-0.05553703985343276,2.507941380235884,0.8763169522202677,-0.6090851748156966,-0.05753196718556838,-0.666603097082616,-2.5945565370258534,-0.05562143941554,2.507976027223799,0.8763108487046415,0.0006936379904191618,-0.0011585837500416127,0.0007097847073301573,-0.0012872372584531563,-5.412272824670767e-06,0.0003598115066014477,-0.0011140104005647779,0.0,0.0,0.0,0.0,0.0,0.0,0.0,0.00013463861064444416,0.00021435527337922144,-6.959193024180799e-06,0.00032014128724977553,-8.439956210724159e-05,3.464698791511012e-05,-6.10351562624345e-06,-0.0006936379904191618,0.0011585837500416127,-0.0007097847073301573,0.0012872372584531563,5.412272824670767e-06,-0.0003598115066014477,0.0011140104005647779,-0.08103066682815552,18.106531143188477,-1.0688202381134033,-18.321260452270508,-0.3500266671180725,-2.2625765800476074,0.18710653483867645,0
29,0.13986825942993164,0.08103066682815552,-18.106531143188477,1.0926239490509033,18.245882034301758,0.3555198311805725,2.2753939628601074,-0.20083944499492645,0.0,0.0,0.0,0.0,0.0,0.0,0.0,0.09617554156907261,0.5135282682711382,0.28537702021140676,0.6548525207557091,-0.07284822332614417,0.08913401578308378,-0.21418547052918496,-0.6092198134263357,-0.05774608570006268,-0.6665980702499334,-2.5948713875820935,-0.05553761072376928,2.507939956082238,0.876318478099174,-0.6090851748156966,-0.05753196718556838,-0.666603097082616,-2.5945565370258534,-0.05562143941554,2.507976027223799,0.8763108487046415,0.00041335032875882755,-0.0008173315895793141,0.0002610820242762839,0.0008349465224684363,-0.00011479641410413323,3.116580764667709e-05,-0.00077664805065272,0.0,0.0,0.0,0.0,0.0,0.0,0.0,0.00013463861063911509,0.00021411851449429364,-5.026832682553106e-06,0.00031485055624003166,-8.382869177071817e-05,3.60711415607895e-05,-7.629394532471245e-06,-0.00041335032875882755,0.0008173315895793141,-0.0002610820242762839,-0.0008349465224684363,0.00011479641410413323,-3.116580764667709e-05,0.00077664805065272,-0.08103066682815552,18.106531143188477,-1.0926239490509033,-18.245882034301758,-0.3555198311805725,-2.2753939628601074,0.20083944499492645,0
30,0.14486312866210938,0.08103066682815552,-18.106531143188477,1.0926239490509033,18.245882034301758,0.3555198311805725,2.2753939628601074,-0.20083944499492645,0.0,0.0,0.0,0.0,0.0,0.0,0.0,0.09617554156907261,0.5135282682711382,0.28537702021140676,0.6548525207557091,-0.07284822332614417,0.08913401578308378,-0.21418547052918496,-0.6092198134263357,-0.05774608570006268,-0.6665980702499334,-2.5948713875820935,-0.05553761072376928,2.507939956082238,0.876318478099174,-0.6090851748156966,-0.05753196718556838,-0.666603097082616,-2.5945565370258534,-0.05562143941554,2.507976027223799,0.8763108487046415,0.00041335032875882755,-0.0008173315895793141,0.0002610820242762839,0.0008349465224684363,-0.00011479641410413323,3.116580764667709e-05,-0.00077664805065272,0.0,0.0,0.0,0.0,0.0,0.0,0.0,0.00013463861063911509,0.00021411851449429364,-5.026832682553106e-06,0.00031485055624003166,-8.382869177071817e-05,3.60711415607895e-05,-7.629394532471245e-06,-0.00041335032875882755,0.0008173315895793141,-0.0002610820242762839,-0.0008349465224684363,0.00011479641410413323,-3.116580764667709e-05,0.00077664805065272,-0.08103066682815552,18.106531143188477,-1.0926239490509033,-18.245882034301758,-0.3555198311805725,-2.2753939628601074,0.20083944499492645,0
31,0.14986443519592285,0.08103066682815552,-18.154138565063477,1.1680023670196533,18.297456741333008,0.3436179757118225,2.2689852714538574,-0.23471395671367645,0.0,0.0,0.0,0.0,0.0,0.0,0.0,0.08947942682051088,0.5048095843154969,0.2791862610864137,0.6595047641905516,-0.07203134650440893,0.09016800338531294,-0.21466898874252346,-0.6092198134620015,-0.05774274482434257,-0.6666038251185179,-2.5948750068597626,-0.05553951573513515,2.507940668159061,0.8763222419338094,-0.6090851748156966,-0.05753196718556838,-0.666603097082616,-2.5945565370258534,-0.05562143941554,2.507976027223799,0.8763108487046415,3.404369901893519e-05,-0.00029563148838431295,-0.0021037042422393432,-0.0003084944415807681,0.00017345030203645692,0.00016976631384703326,0.0002395364723537202,0.0,0.0,0.0,0.0,0.0,0.0,0.0,0.00013463864630491873,0.0002107776387741886,7.28035901897961e-07,0.00031846983390915184,-8.192368040484815e-05,3.535906473794981e-05,-1.139322916787755e-05,-3.404369901893519e-05,0.00029563148838431295,0.0021037042422393432,0.0003084944415807681,-0.00017345030203645692,-0.00016976631384703326,-0.0002395364723537202,-0.08103066682815552,18.154138565063477,-1.1680023670196533,-18.297456741333008,-0.3436179757118225,-2.2689852714538574,0.23471395671367645,0
32,0.15697193145751953,0.08103066682815552,-18.154138565063477,1.1680023670196533,18.297456741333008,0.3436179757118225,2.2689852714538574,-0.23471395671367645,0.0,0.0,0.0,0.0,0.0,0.0,0.0,0.08947942682051088,0.5048095843154969,0.2791862610864137,0.6595047641905516,-0.07203134650440893,0.09016800338531294,-0.21466898874252346,-0.6092198134620015,-0.05774274482434257,-0.6666038251185179,-2.5948750068597626,-0.05553951573513515,2.507940668159061,0.8763222419338094,-0.6090851748156966,-0.05753196718556838,-0.666603097082616,-2.5945565370258534,-0.05562143941554,2.507976027223799,0.8763108487046415,3.404369901893519e-05,-0.00029563148838431295,-0.0021037042422393432,-0.0003084944415807681,0.00017345030203645692,0.00016976631384703326,0.0002395364723537202,0.0,0.0,0.0,0.0,0.0,0.0,0.0,0.00013463864630491873,0.0002107776387741886,7.28035901897961e-07,0.00031846983390915184,-8.192368040484815e-05,3.535906473794981e-05,-1.139322916787755e-05,-3.404369901893519e-05,0.00029563148838431295,0.0021037042422393432,0.0003084944415807681,-0.00017345030203645692,-0.00016976631384703326,-0.0002395364723537202,-0.08103066682815552,18.154138565063477,-1.1680023670196533,-18.297456741333008,-0.3436179757118225,-2.2689852714538574,0.23471395671367645,0
33,0.15985965728759766,0.10880166292190552,-18.177942276000977,1.1164276599884033,18.269685745239258,0.3436179757118225,2.2818026542663574,-0.19351522624492645,0.0,0.0,0.0,0.0,0.0,0.0,0.0,0.09669979782527391,0.5123889349969457,0.28705396710429026,0.6529545162332163,-0.0727920065968417,0.08877930997562042,-0.21481875464471567,-0.6092217622681669,-0.05774107438848729,-0.6665997939746117,-2.5948730580179316,-0.05553840392974274,2.5079392440054153,0.8763176642970907,-0.6090851748156966,-0.05753196718556838,-0.666603097082616,-2.5945565370258534,-0.05562143941554,2.507976027223799,0.8763108487046415,-0.0006984714743317993,0.0007806395095892676,-0.00015668823745469508,0.00026297381087168783,0.00023891399758850136,-0.00023852761125336361,-0.0009449753350512146,0.0,0.0,0.0,0.0,0.0,0.0,0.0,0.0001365874524703603,0.00020910720291890394,-3.3031080043377514e-06,0.00031652099207812867,-8.303548579725872e-05,3.678321838362919e-05,-6.815592449194163e-06,0.0006984714743317993,-0.0007806395095892676,0.00015668823745469508,-0.00026297381087168783,-0.00023891399758850136,0.00023852761125336361,0.0009449753350512146,-0.10880166292190552,18.177942276000977,-1.1164276599884033,-18.269685745239258,-0.3436179757118225,-2.2818026542663574,0.19351522624492645,0
34,0.16486287117004395,0.10880166292190552,-18.177942276000977,1.1164276599884033,18.269685745239258,0.3436179757118225,2.2818026542663574,-0.19351522624492645,0.0,0.0,0.0,0.0,0.0,0.0,0.0,0.09669979782527391,0.5123889349969457,0.28705396710429026,0.6529545162332163,-0.0727920065968417,0.08877930997562042,-0.21481875464471567,-0.6092217622681669,-0.05774107438848729,-0.6665997939746117,-2.5948730580179316,-0.05553840392974274,2.5079392440054153,0.8763176642970907,-0.6090851748156966,-0.05753196718556838,-0.666603097082616,-2.5945565370258534,-0.05562143941554,2.507976027223799,0.8763108487046415,-0.0006984714743317993,0.0007806395095892676,-0.00015668823745469508,0.00026297381087168783,0.00023891399758850136,-0.00023852761125336361,-0.0009449753350512146,0.0,0.0,0.0,0.0,0.0,0.0,0.0,0.0001365874524703603,0.00020910720291890394,-3.3031080043377514e-06,0.00031652099207812867,-8.303548579725872e-05,3.678321838362919e-05,-6.815592449194163e-06,0.0006984714743317993,-0.0007806395095892676,0.00015668823745469508,-0.00026297381087168783,-0.00023891399758850136,0.00023852761125336361,0.0009449753350512146,-0.10880166292190552,18.177942276000977,-1.1164276599884033,-18.269685745239258,-0.3436179757118225,-2.2818026542663574,0.19351522624492645,0
35,0.1698603630065918,0.10880166292190552,-18.177942276000977,1.1164276599884033,18.269685745239258,0.3436179757118225,2.2818026542663574,-0.19351522624492645,0.0,0.0,0.0,0.0,0.0,0.0,0.0,0.09669979782527391,0.5123889349969457,0.28705396710429026,0.6529545162332163,-0.0727920065968417,0.08877930997562042,-0.21481875464471567,-0.6092217622681669,-0.05774107438848729,-0.6665997939746117,-2.5948730580179316,-0.05553840392974274,2.5079392440054153,0.8763176642970907,-0.6090851748156966,-0.05753196718556838,-0.666603097082616,-2.5945565370258534,-0.05562143941554,2.507976027223799,0.8763108487046415,-0.0006984714743317993,0.0007806395095892676,-0.00015668823745469508,0.00026297381087168783,0.00023891399758850136,-0.00023852761125336361,-0.0009449753350512146,0.0,0.0,0.0,0.0,0.0,0.0,0.0,0.0001365874524703603,0.00020910720291890394,-3.3031080043377514e-06,0.00031652099207812867,-8.303548579725872e-05,3.678321838362919e-05,-6.815592449194163e-06,0.0006984714743317993,-0.0007806395095892676,0.00015668823745469508,-0.00026297381087168783,-0.00023891399758850136,0.00023852761125336361,0.0009449753350512146,-0.10880166292190552,18.177942276000977,-1.1164276599884033,-18.269685745239258,-0.3436179757118225,-2.2818026542663574,0.19351522624492645,0
36,0.17486310005187988,0.10880166292190552,-18.177942276000977,1.1164276599884033,18.269685745239258,0.3436179757118225,2.2818026542663574,-0.19351522624492645,0.0,0.0,0.0,0.0,0.0,0.0,0.0,0.09669979782527391,0.5123889349969457,0.28705396710429026,0.6529545162332163,-0.0727920065968417,0.08877930997562042,-0.21481875464471567,-0.6092217622681669,-0.05774107438848729,-0.6665997939746117,-2.5948730580179316,-0.05553840392974274,2.5079392440054153,0.8763176642970907,-0.6090851748156966,-0.05753196718556838,-0.666603097082616,-2.5945565370258534,-0.05562143941554,2.507976027223799,0.8763108487046415,-0.0006984714743317993,0.0007806395095892676,-0.00015668823745469508,0.00026297381087168783,0.00023891399758850136,-0.00023852761125336361,-0.0009449753350512146,0.0,0.0,0.0,0.0,0.0,0.0,0.0,0.0001365874524703603,0.00020910720291890394,-3.3031080043377514e-06,0.00031652099207812867,-8.303548579725872e-05,3.678321838362919e-05,-6.815592449194163e-06,0.0006984714743317993,-0.0007806395095892676,0.00015668823745469508,-0.00026297381087168783,-0.00023891399758850136,0.00023852761125336361,0.0009449753350512146,-0.10880166292190552,18.177942276000977,-1.1164276599884033,-18.269685745239258,-0.3436179757118225,-2.2818026542663574,0.19351522624492645,0
37,0.17986226081848145,0.10880166292190552,-18.154138565063477,1.1680023670196533,18.297456741333008,0.3619285225868225,2.2818026542663574,-0.19351522624492645,0.0,0.0,0.0,0.0,0.0,0.0,0.0,0.09183123402786367,0.5107888845197182,0.2841557656399394,0.6576780538351982,-0.07266062196659206,0.09003930478820482,-0.21443778201764013,-0.6092217622681668,-0.05774274482434255,-0.66660520356695,-2.5948750068597626,-0.05554143780427657,2.5079392440054153,0.8763176642970907,-0.6090851748156966,-0.05753196718556838,-0.666603097082616,-2.5945565370258534,-0.05562143941554,2.507976027223799,0.8763108487046415,-0.00045582355498479814,0.0003452929258651093,-0.0017457279511634291,-7.316240290658182e-05,-0.00031757942489365706,-0.00021295950735055144,-0.0005163400191089385,0.0,0.0,0.0,0.0,0.0,0.0,0.0,0.00013658745247024928,0.00021077763877416777,2.106484333963543e-06,0.00031846983390915184,-8.000161126343192e-05,3.678321838362919e-05,-6.815592449194163e-06,0.00045582355498479814,-0.0003452929258651093,0.0017457279511634291,7.316240290658182e-05,0.00031757942489365706,0.00021295950735055144,0.0005163400191089385,-0.10880166292190552,18.154138565063477,-1.1680023670196533,-18.297456741333008,-0.3619285225868225,-2.2818026542663574,0.19351522624492645,0
38,0.18490910530090332,0.10880166292190552,-18.154138565063477,1.1680023670196533,18.297456741333008,0.3619285225868225,2.2818026542663574,-0.19351522624492645,0.0,0.0,0.0,0.0,0.0,0.0,0.0,0.09183123402786367,0.5107888845197182,0.2841557656399394,0.6576780538351982,-0.07266062196659206,0.09003930478820482,-0.21443778201764013,-0.6092217622681668,-0.05774274482434255,-0.66660520356695,-2.5948750068597626,-0.05554143780427657,2.5079392440054153,0.8763176642970907,-0.6090851748156966,-0.05753196718556838,-0.666603097082616,-2.5945565370258534,-0.05562143941554,2.507976027223799,0.8763108487046415,-0.00045582355498479814,0.0003452929258651093,-0.0017457279511634291,-7.316240290658182e-05,-0.00031757942489365706,-0.00021295950735055144,-0.0005163400191089385,0.0,0.0,0.0,0.0,0.0,0.0,0.0,0.00013658745247024928,0.00021077763877416777,2.106484333963543e-06,0.00031846983390915184,-8.000161126343192e-05,3.678321838362919e-05,-6.815592449194163e-06,0.00045582355498479814,-0.0003452929258651093,0.0017457279511634291,7.316240290658182e-05,0.00031757942489365706,0.00021295950735055144,0.0005163400191089385,-0.10880166292190552,18.154138565063477,-1.1680023670196533,-18.297456741333008,-0.3619285225868225,-2.2818026542663574,0.19351522624492645,0
39,0.18986296653747559,0.10880166292190552,-18.106531143188477,1.1441986560821533,18.269685745239258,0.3555198311805725,2.2753939628601074,-0.21457235515117645,0.0,0.0,0.0,0.0,0.0,0.0,0.0,0.09766302763730371,0.5178355949236376,0.29289093456220766,0.6519902290889987,-0.07270194943895973,0.08931639272441341,-0.21297271188285444,-0.6092217623751642,-0.057746322458947605,-0.6666035588205887,-2.594873058357093,-0.055537637009649275,2.50793996916419,0.8763200039780802,-0.6090851748156966,-0.05753196718556838,-0.666603097082616,-2.5945565370258534,-0.05562143941554,2.507976027223799,0.8763108487046415,0.00039153970761412885,-0.00010545340221364217,-0.0005167011058774027,8.60154746035998e-05,8.78781488270516e-05,-0.00032085399166024417,-5.8878359092423454e-05,0.0,0.0,0.0,0.0,0.0,0.0,0.0,0.0001365875594676602,0.00021435527337922144,4.617379727456239e-07,0.0003165213312397164,-8.380240589072468e-05,3.6058059608823356e-05,-9.155273438699041e-06,-0.00039153970761412885,0.00010545340221364217,0.0005167011058774027,-8.60154746035998e-05,-8.78781488270516e-05,0.00032085399166024417,5.8878359092423454e-05,-0.10880166292190552,18.106531143188477,-1.1441986560821533,-18.269685745239258,-0.3555198311805725,-2.2753939628601074,0.21457235515117645,0
40,0.19486260414123535,0.10880166292190552,-18.106531143188477,1.1441986560821533,18.269685745239258,0.3555198311805725,2.2753939628601074,-0.21457235515117645,0.0,0.0,0.0,0.0,0.0,0.0,0.0,0.09766302763730371,0.5178355949236376,0.29289093456220766,0.6519902290889987,-0.07270194943895973,0.08931639272441341,-0.21297271188285444,-0.6092217623751642,-0.057746322458947605,-0.6666035588205887,-2.594873058357093,-0.055537637009649275,2.50793996916419,0.8763200039780802,-0.6090851748156966,-0.05753196718556838,-0.666603097082616,-2.5945565370258534,-0.05562143941554,2.507976027223799,0.8763108487046415,0.00039153970761412885,-0.00010545340221364217,-0.0005167011058774027,8.60154746035998e-05,8.78781488270516e-05,-0.00032085399166024417,-5.8878359092423454e-05,0.0,0.0,0.0,0.0,0.0,0.0,0.0,0.0001365875594676602,0.00021435527337922144,4.617379727456239e-07,0.0003165213312397164,-8.380240589072468e-05,3.6058059608823356e-05,-9.155273438699041e-06,-0.00039153970761412885,0.00010545340221364217,0.0005167011058774027,-8.60154746035998e-05,-8.78781488270516e-05,0.00032085399166024417,5.8878359092423454e-05,-0.10880166292190552,18.106531143188477,-1.1441986560821533,-18.269685745239258,-0.3555198311805725,-2.2753939628601074,0.21457235515117645,0
41,0.1998608112335205,0.13260537385940552,-18.106531143188477,1.0926239490509033,18.297456741333008,0.3555198311805725,2.2689852714538574,-0.17337362468242645,0.0,0.0,0.0,0.0,0.0,0.0,0.0,0.09244967117361867,0.5150770538284035,0.28730025401055076,0.6582951786268418,-0.07177644538985495,0.08938738247226477,-0.21232878822050696,-0.6092234327040226,-0.057746085697389614,-0.6665978346892372,-2.5948750078772496,-0.05554048892037946,2.5079406681591347,0.8763154263413615,-0.6090851748156966,-0.05753196718556838,-0.666603097082616,-2.5945565370258534,-0.05562143941554,2.507976027223799,0.8763108487046415,-0.0007921947451881528,-0.0005501761944471741,0.00047065010892318387,-0.000634537892547764,-0.00017268422651017535,-7.17048289589847e-05,-0.0014074003503960486,0.0,0.0,0.0,0.0,0.0,0.0,0.0,0.00013825788832599883,0.00021411851182123048,-5.262393378835384e-06,0.0003184708513961354,-8.095049516054081e-05,3.5359064664231e-05,-4.577636720015654e-06,0.0007921947451881528,0.0005501761944471741,-0.00047065010892318387,0.000634537892547764,0.00017268422651017535,7.17048289589847e-05,0.0014074003503960486,-0.13260537385940552,18.106531143188477,-1.0926239490509033,-18.297456741333008,-0.3555198311805725,-2.2689852714538574,0.17337362468242645,0
42,0.2048633098602295,0.13260537385940552,-18.106531143188477,1.0926239490509033,18.297456741333008,0.3555198311805725,2.2689852714538574,-0.17337362468242645,0.0,0.0,0.0,0.0,0.0,0.0,0.0,0.09244967117361867,0.5150770538284035,0.28730025401055076,0.6582951786268418,-0.07177644538985495,0.08938738247226477,-0.21232878822050696,-0.6092234327040226,-0.057746085697389614,-0.6665978346892372,-2.5948750078772496,-0.05554048892037946,2.5079406681591347,0.8763154263413615,-0.6090851748156966,-0.05753196718556838,-0.666603097082616,-2.5945565370258534,-0.05562143941554,2.507976027223799,0.8763108487046415,-0.0007921947451881528,-0.0005501761944471741,0.00047065010892318387,-0.000634537892547764,-0.00017268422651017535,-7.17048289589847e-05,-0.0014074003503960486,0.0,0.0,0.0,0.0,0.0,0.0,0.0,0.00013825788832599883,0.00021411851182123048,-5.262393378835384e-06,0.0003184708513961354,-8.095049516054081e-05,3.5359064664231e-05,-4.577636720015654e-06,0.0007921947451881528,0.0005501761944471741,-0.00047065010892318387,0.000634537892547764,0.00017268422651017535,7.17048289589847e-05,0.0014074003503960486,-0.13260537385940552,18.106531143188477,-1.0926239490509033,-18.297456741333008,-0.3555198311805725,-2.2689852714538574,0.17337362468242645,0
43,0.20986127853393555,0.05722695589065552,-18.106531143188477,1.0926239490509033,18.297456741333008,0.3619285225868225,2.2689852714538574,-0.23471395671367645,0.0,0.0,0.0,0.0,0.0,0.0,0.0,0.09181944644098286,0.523528171832428,0.2869992784341462,0.657453584155951,-0.07193519540244708,0.08783490628770886,-0.21218736189208437,-0.6092181430261462,-0.05774608861905178,-0.6665978423455057,-2.5948750068597684,-0.055538362282496825,2.507940668159061,0.8763221241962393,-0.6090851748156966,-0.05753196718556838,-0.666603097082616,-2.5945565370258534,-0.05562143941554,2.507976027223799,0.8763108487046415,0.000373616437323806,-9.159528833088614e-05,0.00013641916291373798,-0.00023875388883739843,-0.00034632630850783017,0.0001744434813782264,0.0011438943119510317,0.0,0.0,0.0,0.0,0.0,0.0,0.0,0.00013296821044961327,0.00021412143348339963,-5.254737110327312e-06,0.000318469833914925,-8.307713304317454e-05,3.535906473794981e-05,-1.1275491597850795e-05,-0.000373616437323806,9.159528833088614e-05,-0.00013641916291373798,0.00023875388883739843,0.00034632630850783017,-0.0001744434813782264,-0.0011438943119510317,-0.05722695589065552,18.106531143188477,-1.0926239490509033,-18.297456741333008,-0.3619285225868225,-2.2689852714538574,0.23471395671367645,0
44,0.2149639129638672,0.05722695589065552,-18.106531143188477,1.0926239490509033,18.297456741333008,0.3619285225868225,2.2689852714538574,-0.23471395671367645,0.0,0.0,0.0,0.0,0.0,0.0,0.0,0.09181944644098286,0.523528171832428,0.2869992784341462,0.657453584155951,-0.07193519540244708,0.08783490628770886,-0.21218736189208437,-0.6092181430261462,-0.05774608861905178,-0.6665978423455057,-2.5948750068597684,-0.055538362282496825,2.507940668159061,0.8763221241962393,-0.6090851748156966,-0.05753196718556838,-0.666603097082616,-2.5945565370258534,-0.05562143941554,2.507976027223799,0.8763108487046415,0.000373616437323806,-9.159528833088614e-05,0.00013641916291373798,-0.00023875388883739843,-0.00034632630850783017,0.0001744434813782264,0.0011438943119510317,0.0,0.0,0.0,0.0,0.0,0.0,0.0,0.00013296821044961327,0.00021412143348339963,-5.254737110327312e-06,0.000318469833914925,-8.307713304317454e-05,3.535906473794981e-05,-1.1275491597850795e-05,-0.000373616437323806,9.159528833088614e-05,-0.00013641916291373798,0.00023875388883739843,0.00034632630850783017,-0.0001744434813782264,-0.0011438943119510317,-0.05722695589065552,18.106531143188477,-1.0926239490509033,-18.297456741333008,-0.3619285225868225,-2.2689852714538574,0.23471395671367645,0
45,0.21985960006713867,0.10880166292190552,-18.177942276000977,1.1164276599884033,18.321260452270508,0.3381248116493225,2.2818026542663574,-0.21457235515117645,0.0,0.0,0.0,0.0,0.0,0.0,0.0,0.09292775528577456,0.5105408945563794,0.2906308355406994,0.6615270794902923,-0.07215550587962259,0.0884923737789207,-0.21142756890058698,-0.6092217622681669,-0.05774107438850379,-0.6665995037936185,-2.5948774190423083,-0.05553878790564395,2.5079392440054153,0.8763200039774155,-0.6090851748156966,-0.05753196718556838,-0.666603097082616,-2.5945565370258534,-0.05562143941554,2.507976027223799,0.8763108487046415,-0.000783043019622413,-0.00034890335027632863,-3.2732670684390076e-05,-0.0007028181445865627,0.0006461237027759134,-0.0002866455574039022,-2.6532490693106816e-05,0.0,0.0,0.0,0.0,0.0,0.0,0.0,0.0001365874524703603,0.00020910720293540463,-3.5932889974610305e-06,0.0003208820164548598,-8.265150989605202e-05,3.678321838362919e-05,-9.155272774008516e-06,0.000783043019622413,0.00034890335027632863,3.2732670684390076e-05,0.0007028181445865627,-0.0006461237027759134,0.0002866455574039022,2.6532490693106816e-05,-0.10880166292190552,18.177942276000977,-1.1164276599884033,-18.321260452270508,-0.3381248116493225,-2.2818026542663574,0.21457235515117645,0
46,0.2248680591583252,0.10880166292190552,-18.177942276000977,1.1164276599884033,18.321260452270508,0.3381248116493225,2.2818026542663574,-0.21457235515117645,0.0,0.0,0.0,0.0,0.0,0.0,0.0,0.09292775528577456,0.5105408945563794,0.2906308355406994,0.6615270794902923,-0.07215550587962259,0.0884923737789207,-0.21142756890058698,-0.6092217622681669,-0.05774107438850379,-0.6665995037936185,-2.5948774190423083,-0.05553878790564395,2.5079392440054153,0.8763200039774155,-0.6090851748156966,-0.05753196718556838,-0.666603097082616,-2.5945565370258534,-0.05562143941554,2.507976027223799,0.8763108487046415,-0.000783043019622413,-0.00034890335027632863,-3.2732670684390076e-05,-0.0007028181445865627,0.0006461237027759134,-0.0002866455574039022,-2.6532490693106816e-05,0.0,0.0,0.0,0.0,0.0,0.0,0.0,0.0001365874524703603,0.00020910720293540463,-3.5932889974610305e-06,0.0003208820164548598,-8.265150989605202e-05,3.678321838362919e-05,-9.155272774008516e-06,0.000783043019622413,0.00034890335027632863,3.2732670684390076e-05,0.0007028181445865627,-0.0006461237027759134,0.0002866455574039022,2.6532490693106816e-05,-0.10880166292190552,18.177942276000977,-1.1164276599884033,-18.321260452270508,-0.3381248116493225,-2.2818026542663574,0.21457235515117645,0
47,0.22986936569213867,0.13260537385940552,-18.229516983032227,1.0688202381134033,18.269685745239258,0.3555198311805725,2.2882113456726074,-0.21457235515117645,0.0,0.0,0.0,0.0,0.0,0.0,0.0,0.08643509490210152,0.5055114246247003,0.2832736448143955,0.6596834918739636,-0.07195486844281365,0.08878661293866251,-0.21152353718667039,-0.609223432704022,-0.0577374552551465,-0.6665989549132827,-2.594873058022119,-0.05553938447008186,2.507938531928592,0.8763200039780801,-0.6090851748156966,-0.05753196718556838,-0.666603097082616,-2.5945565370258534,-0.05562143941554,2.507976027223799,0.8763108487046415,-0.001076598649326896,0.000747420585516451,0.0006307486736055452,0.0005540065566205762,-0.00020181095158138635,-0.0005649617103691936,0.00024310987794093155,0.0,0.0,0.0,0.0,0.0,0.0,0.0,0.00013825788832544372,0.00020548806957811777,-4.1421693333099086e-06,0.00031652099626544583,-8.20549454581404e-05,3.749529520691297e-05,-9.155273438588019e-06,0.001076598649326896,-0.000747420585516451,-0.0006307486736055452,-0.0005540065566205762,0.00020181095158138635,0.0005649617103691936,-0.00024310987794093155,-0.13260537385940552,18.229516983032227,-1.0688202381134033,-18.269685745239258,-0.3555198311805725,-2.2882113456726074,0.21457235515117645,0
48,0.2349567413330078,0.13260537385940552,-18.229516983032227,1.0688202381134033,18.269685745239258,0.3555198311805725,2.2882113456726074,-0.21457235515117645,0.0,0.0,0.0,0.0,0.0,0.0,0.0,0.08643509490210152,0.5055114246247003,0.2832736448143955,0.6596834918739636,-0.07195486844281365,0.08878661293866251,-0.21152353718667039,-0.609223432704022,-0.0577374552551465,-0.6665989549132827,-2.594873058022119,-0.05553938447008186,2.507938531928592,0.8763200039780801,-0.6090851748156966,-0.05753196718556838,-0.666603097082616,-2.5945565370258534,-0.05562143941554,2.507976027223799,0.8763108487046415,-0.001076598649326896,0.000747420585516451,0.0006307486736055452,0.0005540065566205762,-0.00020181095158138635,-0.0005649617103691936,0.00024310987794093155,0.0,0.0,0.0,0.0,0.0,0.0,0.0,0.00013825788832544372,0.00020548806957811777,-4.1421693333099086e-06,0.00031652099626544583,-8.20549454581404e-05,3.749529520691297e-05,-9.155273438588019e-06,0.001076598649326896,-0.000747420585516451,-0.0006307486736055452,-0.0005540065566205762,0.00020181095158138635,0.0005649617103691936,-0.00024310987794093155,-0.13260537385940552,18.229516983032227,-1.0688202381134033,-18.269685745239258,-0.3555198311805725,-2.2882113456726074,0.21457235515117645,0
49,0.2398662567138672,0.08103066682815552,-18.130334854125977,1.1164276599884033,18.297456741333008,0.3555198311805725,2.2753939628601074,-0.24844686686992645,0.0,0.0,0.0,0.0,0.0,0.0,0.0,0.09667137657904125,0.5059633225129306,0.2891913736118316,0.653665207173654,-0.07239310059774522,0.0891888493637168,-0.21180598836875011,-0.6092198135333331,-0.05774441526019863,-0.66660228884592,-2.5948750068597626,-0.05554083963389718,2.507939956082238,0.8763237678127155,-0.6090851748156966,-0.05753196718556838,-0.666603097082616,-2.5945565370258534,-0.05562143941554,2.507976027223799,0.8763108487046415,0.00099112848624136,-0.0007701514737201011,-0.00024280132584658684,-0.00037558747400068764,-0.00013026164086291523,-8.594863798540589e-05,0.0012116493076875664,0.0,0.0,0.0,0.0,0.0,0.0,0.0,0.00013463871763652602,0.00021244807463024346,-8.082366960149301e-07,0.00031846983390915184,-8.059978164282056e-05,3.60711415607895e-05,-1.2919108073994323e-05,-0.00099112848624136,0.0007701514737201011,0.00024280132584658684,0.00037558747400068764,0.00013026164086291523,8.594863798540589e-05,-0.0012116493076875664,-0.08103066682815552,18.130334854125977,-1.1164276599884033,-18.297456741333008,-0.3555198311805725,-2.2753939628601074,0.24844686686992645,0
50,0.24486470222473145,0.08103066682815552,-18.130334854125977,1.1164276599884033,18.297456741333008,0.3555198311805725,2.2753939628601074,-0.24844686686992645,0.0,0.0,0.0,0.0,0.0,0.0,0.0,0.09667137657904125,0.5059633225129306,0.2891913736118316,0.653665207173654,-0.07239310059774522,0.0891888493637168,-0.21180598836875011,-0.6092198135333331,-0.05774441526019863,-0.66660228884592,-2.5948750068597626,-0.05554083963389718,2.507939956082238,0.8763237678127155,-0.6090851748156966,-0.05753196718556838,-0.666603097082616,-2.5945565370258534,-0.05562143941554,2.507976027223799,0.8763108487046415,0.00099112848624136,-0.0007701514737201011,-0.00024280132584658684,-0.00037558747400068764,-0.00013026164086291523,-8.594863798540589e-05,0.0012116493076875664,0.0,0.0,0.0,0.0,0.0,0.0,0.0,0.00013463871763652602,0.00021244807463024346,-8.082366960149301e-07,0.00031846983390915184,-8.059978164282056e-05,3.60711415607895e-05,-1.2919108073994323e-05,-0.00099112848624136,0.0007701514737201011,0.00024280132584658684,0.00037558747400068764,0.00013026164086291523,8.594863798540589e-05,-0.0012116493076875664,-0.08103066682815552,18.130334854125977,-1.1164276599884033,-18.297456741333008,-0.3555198311805725,-2.2753939628601074,0.24844686686992645,0
51,0.2498624324798584,0.08103066682815552,-18.106531143188477,1.0926239490509033,18.269685745239258,0.3436179757118225,2.2625765800476074,-0.17978231608867645,0.0,0.0,0.0,0.0,0.0,0.0,0.0,0.09186088694405123,0.5059968032317451,0.28185594954949816,0.6528530070843845,-0.07143935628585765,0.0891179429439799,-0.21305194360751548,-0.6092198220931295,-0.05774608569605308,-0.6665978343720771,-2.5948730580179316,-0.055536152319266556,2.507941380235884,0.8763161384181842,-0.6090851748156966,-0.05753196718556838,-0.666603097082616,-2.5945565370258534,-0.05562143941554,2.507976027223799,0.8763108487046415,0.000342195897945199,-0.00040972083457238643,0.00010107009583140066,1.2470908246714834e-05,0.00033520604995946306,8.027078721361855e-05,-0.0014671645363686986,0.0,0.0,0.0,0.0,0.0,0.0,0.0,0.00013464727743295324,0.00021411851048469543,-5.262710538911364e-06,0.00031652099207812867,-8.528709627344394e-05,3.464698791511012e-05,-5.289713542744323e-06,-0.000342195897945199,0.00040972083457238643,-0.00010107009583140066,-1.2470908246714834e-05,-0.00033520604995946306,-8.027078721361855e-05,0.0014671645363686986,-0.08103066682815552,18.106531143188477,-1.0926239490509033,-18.269685745239258,-0.3436179757118225,-2.2625765800476074,0.17978231608867645,0
52,0.25485897064208984,0.08103066682815552,-18.106531143188477,1.0926239490509033,18.269685745239258,0.3436179757118225,2.2625765800476074,-0.17978231608867645,0.0,0.0,0.0,0.0,0.0,0.0,0.0,0.09186088694405123,0.5059968032317451,0.28185594954949816,0.6528530070843845,-0.07143935628585765,0.0891179429439799,-0.21305194360751548,-0.6092198220931295,-0.05774608569605308,-0.6665978343720771,-2.5948730580179316,-0.055536152319266556,2.507941380235884,0.8763161384181842,-0.6090851748156966,-0.05753196718556838,-0.666603097082616,-2.5945565370258534,-0.05562143941554,2.507976027223799,0.8763108487046415,0.000342195897945199,-0.00040972083457238643,0.00010107009583140066,1.2470908246714834e-05,0.00033520604995946306,8.027078721361855e-05,-0.0014671645363686986,0.0,0.0,0.0,0.0,0.0,0.0,0.0,0.00013464727743295324,0.00021411851048469543,-5.262710538911364e-06,0.00031652099207812867,-8.528709627344394e-05,3.464698791511012e-05,-5.289713542744323e-06,-0.000342195897945199,0.00040972083457238643,-0.00010107009583140066,-1.2470908246714834e-05,-0.00033520604995946306,-8.027078721361855e-05,0.0014671645363686986,-0.08103066682815552,18.106531143188477,-1.0926239490509033,-18.269685745239258,-0.3436179757118225,-2.2625765800476074,0.17978231608867645,0
53,0.25986313819885254,0.08103066682815552,-18.106531143188477,1.0926239490509033,18.269685745239258,0.3436179757118225,2.2625765800476074,-0.17978231608867645,0.0,0.0,0.0,0.0,0.0,0.0,0.0,0.09186088694405123,0.5059968032317451,0.28185594954949816,0.6528530070843845,-0.07143935628585765,0.0891179429439799,-0.21305194360751548,-0.6092198220931295,-0.05774608569605308,-0.6665978343720771,-2.5948730580179316,-0.055536152319266556,2.507941380235884,0.8763161384181842,-0.6090851748156966,-0.05753196718556838,-0.666603097082616,-2.5945565370258534,-0.05562143941554,2.507976027223799,0.8763108487046415,0.000342195897945199,-0.00040972083457238643,0.00010107009583140066,1.2470908246714834e-05,0.00033520604995946306,8.027078721361855e-05,-0.0014671645363686986,0.0,0.0,0.0,0.0,0.0,0.0,0.0,0.00013464727743295324,0.00021411851048469543,-5.262710538911364e-06,0.00031652099207812867,-8.528709627344394e-05,3.464698791511012e-05,-5.289713542744323e-06,-0.000342195897945199,0.00040972083457238643,-0.00010107009583140066,-1.2470908246714834e-05,-0.00033520604995946306,-8.027078721361855e-05,0.0014671645363686986,-0.08103066682815552,18.106531143188477,-1.0926239490509033,-18.269685745239258,-0.3436179757118225,-2.2625765800476074,0.17978231608867645,0
54,0.2648584842681885,0.05722695589065552,-18.106531143188477,1.0926239490509033,18.269685745239258,0.3436179757118225,2.2552523612976074,-0.19351522624492645,0.0,0.0,0.0,0.0,0.0,0.0,0.0,0.09178481001173736,0.5100544833658363,0.28157366563533187,0.6549920813573755,-0.07132120890252922,0.08798435853430436,-0.21317486598994265,-0.6092181429906272,-0.05774608569605308,-0.6665980673614434,-2.5948730580179316,-0.055538456932600226,2.5079421940379674,0.8763176642970906,-0.6090851748156966,-0.05753196718556838,-0.666603097082616,-2.5945565370258534,-0.05562143941554,2.507976027223799,0.8763108487046415,0.00018919019915478023,-8.324025526371381e-05,0.00035522348879141923,3.5260750412441174e-06,0.00033289839902739943,0.00013563545875587213,-0.0007933515345982413,0.0,0.0,0.0,0.0,0.0,0.0,0.0,0.0001329681749305811,0.00021411851048469543,-5.0297211725558455e-06,0.00031652099207812867,-8.298248293977378e-05,3.383318583161099e-05,-6.815592449083141e-06,-0.00018919019915478023,8.324025526371381e-05,-0.00035522348879141923,-3.5260750412441174e-06,-0.00033289839902739943,-0.00013563545875587213,0.0007933515345982413,-0.05722695589065552,18.106531143188477,-1.0926239490509033,-18.269685745239258,-0.3436179757118225,-2.2552523612976074,0.19351522624492645,0
55,0.2698636054992676,0.05722695589065552,-18.106531143188477,1.0926239490509033,18.269685745239258,0.3436179757118225,2.2552523612976074,-0.19351522624492645,0.0,0.0,0.0,0.0,0.0,0.0,0.0,0.09178481001173736,0.5100544833658363,0.28157366563533187,0.6549920813573755,-0.07132120890252922,0.08798435853430436,-0.21317486598994265,-0.6092181429906272,-0.05774608569605308,-0.6665980673614434,-2.5948730580179316,-0.055538456932600226,2.5079421940379674,0.8763176642970906,-0.6090851748156966,-0.05753196718556838,-0.666603097082616,-2.5945565370258534,-0.05562143941554,2.507976027223799,0.8763108487046415,0.00018919019915478023,-8.324025526371381e-05,0.00035522348879141923,3.5260750412441174e-06,0.00033289839902739943,0.00013563545875587213,-0.0007933515345982413,0.0,0.0,0.0,0.0,0.0,0.0,0.0,0.0001329681749305811,0.00021411851048469543,-5.0297211725558455e-06,0.00031652099207812867,-8.298248293977378e-05,3.383318583161099e-05,-6.815592449083141e-06,-0.00018919019915478023,8.324025526371381e-05,-0.00035522348879141923,-3.5260750412441174e-06,-0.00033289839902739943,-0.00013563545875587213,0.0007933515345982413,-0.05722695589065552,18.106531143188477,-1.0926239490509033,-18.269685745239258,-0.3436179757118225,-2.2552523612976074,0.19351522624492645,0
56,0.27486300468444824,0.08103066682815552,-18.154138565063477,1.0926239490509033,18.245882034301758,0.3436179757118225,2.2689852714538574,-0.24112264811992645,0.0,0.0,0.0,0.0,0.0,0.0,0.0,0.09005152055587264,0.5106504637476573,0.2863128601294716,0.6598409189484494,-0.07201275864738987,0.08707015216129302,-0.2130714218110273,-0.6092205154365964,-0.05774274482434255,-0.6666006154353621,-2.594871387582076,-0.05553804954215934,2.507940668159061,0.8763218943725029,-0.6090851748156966,-0.05753196718556838,-0.666603097082616,-2.5945565370258534,-0.05562143941554,2.507976027223799,0.8763108487046415,8.508808136414979e-05,0.00029474548682376236,0.0003976850087439824,0.0009227895050681978,0.00040011529775653475,-1.9793720853121835e-05,0.0013287104351577075,0.0,0.0,0.0,0.0,0.0,0.0,0.0,0.00013534062089981536,0.00021077763877416777,-2.481647253915753e-06,0.0003148505562227122,-8.338987338066262e-05,3.535906473794981e-05,-1.1045667861364628e-05,-8.508808136414979e-05,-0.00029474548682376236,-0.0003976850087439824,-0.0009227895050681978,-0.00040011529775653475,1.9793720853121835e-05,-0.0013287104351577075,-0.08103066682815552,18.154138565063477,-1.0926239490509033,-18.245882034301758,-0.3436179757118225,-2.2689852714538574,0.24112264811992645,0
57,0.2798597812652588,0.08103066682815552,-18.154138565063477,1.0926239490509033,18.245882034301758,0.3436179757118225,2.2689852714538574,-0.24112264811992645,0.0,0.0,0.0,0.0,0.0,0.0,0.0,0.09005152055587264,0.5106504637476573,0.2863128601294716,0.6598409189484494,-0.07201275864738987,0.08707015216129302,-0.2130714218110273,-0.6092205154365964,-0.05774274482434255,-0.6666006154353621,-2.594871387582076,-0.05553804954215934,2.507940668159061,0.8763218943725029,-0.6090851748156966,-0.05753196718556838,-0.666603097082616,-2.5945565370258534,-0.05562143941554,2.507976027223799,0.8763108487046415,8.508808136414979e-05,0.00029474548682376236,0.0003976850087439824,0.0009227895050681978,0.00040011529775653475,-1.9793720853121835e-05,0.0013287104351577075,0.0,0.0,0.0,0.0,0.0,0.0,0.0,0.00013534062089981536,0.00021077763877416777,-2.481647253915753e-06,0.0003148505562227122,-8.338987338066262e-05,3.535906473794981e-05,-1.1045667861364628e-05,-8.508808136414979e-05,-0.00029474548682376236,-0.0003976850087439824,-0.0009227895050681978,-0.00040011529775653475,1.9793720853121835e-05,-0.0013287104351577075,-0.08103066682815552,18.154138565063477,-1.0926239490509033,-18.245882034301758,-0.3436179757118225,-2.2689852714538574,0.24112264811992645,0
58,0.2848653793334961,0.08103066682815552,-18.177942276000977,1.1164276599884033,18.269685745239258,0.3500266671180725,2.2882113456726074,-0.17337362468242645,0.0,0.0,0.0,0.0,0.0,0.0,0.0,0.0937791420961089,0.5169822751451301,0.29089977473429424,0.6541404381476081,-0.07231722130029365,0.0852351104616347,-0.21292020366821574,-0.6092198134276566,-0.05774320525453801,-0.666600180129578,-2.5948730580179316,-0.05554022874692851,2.507938531928592,0.8763154263393675,-0.6090851748156966,-0.05753196718556838,-0.666603097082616,-2.5945565370258534,-0.05562143941554,2.507976027223799,0.8763108487046415,0.00047913871854149794,0.0006786297347204233,-5.7233462519835925e-06,3.555211101736665e-05,-0.00010093074485421021,-0.0005629639582838214,-0.0014930004947883645,0.0,0.0,0.0,0.0,0.0,0.0,0.0,0.00013463861196005844,0.00021123806896962416,-2.9169530380013242e-06,0.00031652099207812867,-8.121066861149079e-05,3.749529520691297e-05,-4.577634726055102e-06,-0.00047913871854149794,-0.0006786297347204233,5.7233462519835925e-06,-3.555211101736665e-05,0.00010093074485421021,0.0005629639582838214,0.0014930004947883645,-0.08103066682815552,18.177942276000977,-1.1164276599884033,-18.269685745239258,-0.3500266671180725,-2.2882113456726074,0.17337362468242645,0
59,0.28986692428588867,0.08103066682815552,-18.177942276000977,1.1164276599884033,18.269685745239258,0.3500266671180725,2.2882113456726074,-0.17337362468242645,0.0,0.0,0.0,0.0,0.0,0.0,0.0,0.0937791420961089,0.5169822751451301,0.29089977473429424,0.6541404381476081,-0.07231722130029365,0.0852351104616347,-0.21292020366821574,-0.6092198134276566,-0.05774320525453801,-0.666600180129578,-2.5948730580179316,-0.05554022874692851,2.507938531928592,0.8763154263393675,-0.6090851748156966,-0.05753196718556838,-0.666603097082616,-2.5945565370258534,-0.05562143941554,2.507976027223799,0.8763108487046415,0.00047913871854149794,0.0006786297347204233,-5.7233462519835925e-06,3.555211101736665e-05,-0.00010093074485421021,-0.0005629639582838214,-0.0014930004947883645,0.0,0.0,0.0,0.0,0.0,0.0,0.0,0.00013463861196005844,0.00021123806896962416,-2.9169530380013242e-06,0.00031652099207812867,-8.121066861149079e-05,3.749529520691297e-05,-4.577634726055102e-06,-0.00047913871854149794,-0.0006786297347204233,5.7233462519835925e-06,-3.555211101736665e-05,0.00010093074485421021,0.0005629639582838214,0.0014930004947883645,-0.08103066682815552,18.177942276000977,-1.1164276599884033,-18.269685745239258,-0.3500266671180725,-2.2882113456726074,0.17337362468242645,0
60,0.29486823081970215,0.05722695589065552,-18.177942276000977,1.0926239490509033,18.269685745239258,0.3500266671180725,2.2689852714538574,-0.24844686686992645,0.0,0.0,0.0,0.0,0.0,0.0,0.0,0.09499493995795634,0.5068173785625493,0.2912613686834924,0.6569355455988722,-0.07247531147186852,0.08635988800470636,-0.21265445091118995,-0.6092181429904804,-0.05774178468919966,-0.6665978160636096,-2.594873058055616,-0.05553916452310039,2.507940668159061,0.8763237678127155,-0.6090851748156966,-0.05753196718556838,-0.666603097082616,-2.5945565370258534,-0.05562143941554,2.507976027223799,0.8763108487046415,0.0014865003284850735,-0.0001606937919149787,0.0008078041763438737,0.0004215993239879846,-6.453734626464277e-05,3.569031539012176e-05,0.0013596580996593165,0.0,0.0,0.0,0.0,0.0,0.0,0.0,0.00013296817478380962,0.0002098175036312766,-5.281019006431187e-06,0.00031652102976265084,-8.227489243960856e-05,3.535906473794981e-05,-1.2919108073994323e-05,-0.0014865003284850735,0.0001606937919149787,-0.0008078041763438737,-0.0004215993239879846,6.453734626464277e-05,-3.569031539012176e-05,-0.0013596580996593165,-0.05722695589065552,18.177942276000977,-1.0926239490509033,-18.269685745239258,-0.3500266671180725,-2.2689852714538574,0.24844686686992645,0
61,0.2998647689819336,0.05722695589065552,-18.177942276000977,1.0926239490509033,18.269685745239258,0.3500266671180725,2.2689852714538574,-0.24844686686992645,0.0,0.0,0.0,0.0,0.0,0.0,0.0,0.09499493995795634,0.5068173785625493,0.2912613686834924,0.6569355455988722,-0.07247531147186852,0.08635988800470636,-0.21265445091118995,-0.6092181429904804,-0.05774178468919966,-0.6665978160636096,-2.594873058055616,-0.05553916452310039,2.507940668159061,0.8763237678127155,-0.6090851748156966,-0.05753196718556838,-0.666603097082616,-2.5945565370258534,-0.05562143941554,2.507976027223799,0.8763108487046415,0.0014865003284850735,-0.0001606937919149787,0.0008078041763438737,0.0004215993239879846,-6.453734626464277e-05,3.569031539012176e-05,0.0013596580996593165,0.0,0.0,0.0,0.0,0.0,0.0,0.0,0.00013296817478380962,0.0002098175036312766,-5.281019006431187e-06,0.00031652102976265084,-8.227489243960856e-05,3.535906473794981e-05,-1.2919108073994323e-05,-0.0014865003284850735,0.0001606937919149787,-0.0008078041763438737,-0.0004215993239879846,6.453734626464277e-05,-3.569031539012176e-05,-0.0013596580996593165,-0.05722695589065552,18.177942276000977,-1.0926239490509033,-18.269685745239258,-0.3500266671180725,-2.2689852714538574,0.24844686686992645,0
62,0.30486536026000977,0.05722695589065552,-18.177942276000977,1.0926239490509033,18.269685745239258,0.3500266671180725,2.2689852714538574,-0.24844686686992645,0.0,0.0,0.0,0.0,0.0,0.0,0.0,0.09499493995795634,0.5068173785625493,0.2912613686834924,0.6569355455988722,-0.07247531147186852,0.08635988800470636,-0.21265445091118995,-0.6092181429904804,-0.05774178468919966,-0.6665978160636096,-2.594873058055616,-0.05553916452310039,2.507940668159061,0.8763237678127155,-0.6090851748156966,-0.05753196718556838,-0.666603097082616,-2.5945565370258534,-0.05562143941554,2.507976027223799,0.8763108487046415,0.0014865003284850735,-0.0001606937919149787,0.0008078041763438737,0.0004215993239879846,-6.453734626464277e-05,3.569031539012176e-05,0.0013596580996593165,0.0,0.0,0.0,0.0,0.0,0.0,0.0,0.00013296817478380962,0.0002098175036312766,-5.281019006431187e-06,0.00031652102976265084,-8.227489243960856e-05,3.535906473794981e-05,-1.2919108073994323e-05,-0.0014865003284850735,0.0001606937919149787,-0.0008078041763438737,-0.0004215993239879846,6.453734626464277e-05,-3.569031539012176e-05,-0.0013596580996593165,-0.05722695589065552,18.177942276000977,-1.0926239490509033,-18.269685745239258,-0.3500266671180725,-2.2689852714538574,0.24844686686992645,0
63,0.3098640441894531,0.05722695589065552,-18.177942276000977,1.0926239490509033,18.269685745239258,0.3500266671180725,2.2689852714538574,-0.24844686686992645,0.0,0.0,0.0,0.0,0.0,0.0,0.0,0.09499493995795634,0.5068173785625493,0.2912613686834924,0.6569355455988722,-0.07247531147186852,0.08635988800470636,-0.21265445091118995,-0.6092181429904804,-0.05774178468919966,-0.6665978160636096,-2.594873058055616,-0.05553916452310039,2.507940668159061,0.8763237678127155,-0.6090851748156966,-0.05753196718556838,-0.666603097082616,-2.5945565370258534,-0.05562143941554,2.507976027223799,0.8763108487046415,0.0014865003284850735,-0.0001606937919149787,0.0008078041763438737,0.0004215993239879846,-6.453734626464277e-05,3.569031539012176e-05,0.0013596580996593165,0.0,0.0,0.0,0.0,0.0,0.0,0.0,0.00013296817478380962,0.0002098175036312766,-5.281019006431187e-06,0.00031652102976265084,-8.227489243960856e-05,3.535906473794981e-05,-1.2919108073994323e-05,-0.0014865003284850735,0.0001606937919149787,-0.0008078041763438737,-0.0004215993239879846,6.453734626464277e-05,-3.569031539012176e-05,-0.0013596580996593165,-0.05722695589065552,18.177942276000977,-1.0926239490509033,-18.269685745239258,-0.3500266671180725,-2.2689852714538574,0.24844686686992645,0
64,0.31496453285217285,0.08103066682815552,-18.154138565063477,1.0926239490509033,18.297456741333008,0.3555198311805725,2.2818026542663574,-0.22098104655742645,0.0,0.0,0.0,0.0,0.0,0.0,0.0,0.09395985709530498,0.5046424370082526,0.28963840565278814,0.6512265394407758,-0.07260485920619941,0.08578737269990554,-0.21324634071639312,-0.6092198134263357,-0.05774274482835222,-0.6665981222507262,-2.5948750068974475,-0.055537649714855176,2.5079392440054153,0.876320716054903,-0.6090851748156966,-0.05753196718556838,-0.666603097082616,-2.5945565370258534,-0.05562143941554,2.507976027223799,0.8763108487046415,0.0006049408386775825,-0.00039820836687166406,0.0003486590435112843,-0.0005581441209879132,-0.0001997192729413636,-0.0003766668859097117,0.00024356680393248134,0.0,0.0,0.0,0.0,0.0,0.0,0.0,0.00013463861063911509,0.00021077764278383537,-4.974831889770215e-06,0.0003184698715941181,-8.378970068482344e-05,3.678321838362919e-05,-9.867350261538732e-06,-0.0006049408386775825,0.00039820836687166406,-0.0003486590435112843,0.0005581441209879132,0.0001997192729413636,0.0003766668859097117,-0.00024356680393248134,-0.08103066682815552,18.154138565063477,-1.0926239490509033,-18.297456741333008,-0.3555198311805725,-2.2818026542663574,0.22098104655742645,0
65,0.3216726779937744,0.10880166292190552,-18.130334854125977,1.1164276599884033,18.269685745239258,0.3555198311805725,2.2625765800476074,-0.22830526530742645,0.0,0.0,0.0,0.0,0.0,0.0,0.0,0.09134376371234369,0.5031741561817602,0.2884764132080052,0.6490385617814787,-0.07265965129117924,0.08642075752410817,-0.213766549313053,-0.6092217622681668,-0.057744415260197836,-0.6665994806837497,-2.5948730580179316,-0.05553725540464263,2.507941380235884,0.876320470218857,-0.6090851748156966,-0.05753196718556838,-0.666603097082616,-2.5945565370258534,-0.05562143941554,2.507976027223799,0.8763108487046415,-0.0007963425164518444,-0.00010312477519315957,-0.0005096184037823496,-3.2016521665067195e-05,-0.00010418179912695245,0.00039865589824529345,0.00041209026483023033,0.0,0.0,0.0,0.0,0.0,0.0,0.0,0.00013658745247024928,0.00021244807462945242,-3.61639886625742e-06,0.00031652099207812867,-8.418401089736738e-05,3.464698791511012e-05,-9.6215142154632e-06,0.0007963425164518444,0.00010312477519315957,0.0005096184037823496,3.2016521665067195e-05,0.00010418179912695245,-0.00039865589824529345,-0.00041209026483023033,-0.10880166292190552,18.130334854125977,-1.1164276599884033,-18.269685745239258,-0.3555198311805725,-2.2625765800476074,0.22830526530742645,0
66,0.3248617649078369,0.10880166292190552,-18.130334854125977,1.1164276599884033,18.269685745239258,0.3555198311805725,2.2625765800476074,-0.22830526530742645,0.0,0.0,0.0,0.0,0.0,0.0,0.0,0.09134376371234369,0.5031741561817602,0.2884764132080052,0.6490385617814787,-0.07265965129117924,0.08642075752410817,-0.213766549313053,-0.6092217622681668,-0.057744415260197836,-0.6665994806837497,-2.5948730580179316,-0.05553725540464263,2.507941380235884,0.876320470218857,-0.6090851748156966,-0.05753196718556838,-0.666603097082616,-2.5945565370258534,-0.05562143941554,2.507976027223799,0.8763108487046415,-0.0007963425164518444,-0.00010312477519315957,-0.0005096184037823496,-3.2016521665067195e-05,-0.00010418179912695245,0.00039865589824529345,0.00041209026483023033,0.0,0.0,0.0,0.0,0.0,0.0,0.0,0.00013658745247024928,0.00021244807462945242,-3.61639886625742e-06,0.00031652099207812867,-8.418401089736738e-05,3.464698791511012e-05,-9.6215142154632e-06,0.0007963425164518444,0.00010312477519315957,0.0005096184037823496,3.2016521665067195e-05,0.00010418179912695245,-0.00039865589824529345,-0.00041209026483023033,-0.10880166292190552,18.130334854125977,-1.1164276599884033,-18.269685745239258,-0.3555198311805725,-2.2625765800476074,0.22830526530742645,0
67,0.32985854148864746,0.10880166292190552,-18.130334854125977,1.1164276599884033,18.269685745239258,0.3555198311805725,2.2625765800476074,-0.22830526530742645,0.0,0.0,0.0,0.0,0.0,0.0,0.0,0.09134376371234369,0.5031741561817602,0.2884764132080052,0.6490385617814787,-0.07265965129117924,0.08642075752410817,-0.213766549313053,-0.6092217622681668,-0.057744415260197836,-0.6665994806837497,-2.5948730580179316,-0.05553725540464263,2.507941380235884,0.876320470218857,-0.6090851748156966,-0.05753196718556838,-0.666603097082616,-2.5945565370258534,-0.05562143941554,2.507976027223799,0.8763108487046415,-0.0007963425164518444,-0.00010312477519315957,-0.0005096184037823496,-3.2016521665067195e-05,-0.00010418179912695245,0.00039865589824529345,0.00041209026483023033,0.0,0.0,0.0,0.0,0.0,0.0,0.0,0.00013658745247024928,0.00021244807462945242,-3.61639886625742e-06,0.00031652099207812867,-8.418401089736738e-05,3.464698791511012e-05,-9.6215142154632e-06,0.0007963425164518444,0.00010312477519315957,0.0005096184037823496,3.2016521665067195e-05,0.00010418179912695245,-0.00039865589824529345,-0.00041209026483023033,-0.10880166292190552,18.130334854125977,-1.1164276599884033,-18.269685745239258,-0.3555198311805725,-2.2625765800476074,0.22830526530742645,0
68,0.3348574638366699,0.08103066682815552,-18.078760147094727,1.1164276599884033,18.245882034301758,0.3500266671180725,2.2753939628601074,-0.24112264811992645,0.0,0.0,0.0,0.0,0.0,0.0,0.0,0.08720299950234124,0.5047446800865221,0.2877469247246816,0.6498639794293428,-0.07225084450202833,0.08628522097486316,-0.2138057313440614,-0.609219822093129,-0.05775016540393494,-0.6665994787917002,-2.594871387582076,-0.05554019422158574,2.507939956082238,0.8763229540046505,-0.6090851748156966,-0.05753196718556838,-0.666603097082616,-2.5945565370258534,-0.05562143941554,2.507976027223799,0.8763108487046415,-0.00031667000271189404,-0.0010847936675037226,-0.0005174412956647151,0.00042429456273832607,0.00022537194971944486,-0.00034789536983278655,0.0008105492735295842,0.0,0.0,0.0,0.0,0.0,0.0,0.0,0.00013464727743239813,0.00021819821836655678,-3.6182909157744803e-06,0.0003148505562227122,-8.1245193954263e-05,3.60711415607895e-05,-1.2105300009057629e-05,0.00031667000271189404,0.0010847936675037226,0.0005174412956647151,-0.00042429456273832607,-0.00022537194971944486,0.00034789536983278655,-0.0008105492735295842,-0.08103066682815552,18.078760147094727,-1.1164276599884033,-18.245882034301758,-0.3500266671180725,-2.2753939628601074,0.24112264811992645,0
69,0.3398628234863281,0.08103066682815552,-18.078760147094727,1.1164276599884033,18.245882034301758,0.3500266671180725,2.2753939628601074,-0.24112264811992645,0.0,0.0,0.0,0.0,0.0,0.0,0.0,0.08720299950234124,0.5047446800865221,0.2877469247246816,0.6498639794293428,-0.07225084450202833,0.08628522097486316,-0.2138057313440614,-0.609219822093129,-0.05775016540393494,-0.6665994787917002,-2.594871387582076,-0.05554019422158574,2.507939956082238,0.8763229540046505,-0.6090851748156966,-0.05753196718556838,-0.666603097082616,-2.5945565370258534,-0.05562143941554,2.507976027223799,0.8763108487046415,-0.00031667000271189404,-0.0010847936675037226,-0.0005174412956647151,0.00042429456273832607,0.00022537194971944486,-0.00034789536983278655,0.0008105492735295842,0.0,0.0,0.0,0.0,0.0,0.0,0.0,0.00013464727743239813,0.00021819821836655678,-3.6182909157744803e-06,0.0003148505562227122,-8.1245193954263e-05,3.60711415607895e-05,-1.2105300009057629e-05,0.00031667000271189404,0.0010847936675037226,0.0005174412956647151,-0.00042429456273832607,-0.00022537194971944486,0.00034789536983278655,-0.0008105492735295842,-0.08103066682815552,18.078760147094727,-1.1164276599884033,-18.245882034301758,-0.3500266671180725,-2.2753939628601074,0.24112264811992645,0
70,0.3448605537414551,0.10880166292190552,-18.154138565063477,1.0926239490509033,18.297456741333008,0.3500266671180725,2.2753939628601074,-0.17337362468242645,0.0,0.0,0.0,0.0,0.0,0.0,0.0,0.08320091776950016,0.5058657501602954,0.28783553827654595,0.6543747099648516,-0.07136162261773035,0.08678006151618384,-0.2135710596827236,-0.6092217622682157,-0.05774487570242207,-0.6665978073571913,-2.594875007877248,-0.055539050776794635,2.507939956082238,0.8763154263413614,-0.6090851748156966,-0.05753196718556838,-0.666603097082616,-2.5945565370258534,-0.05562143941554,2.507976027223799,0.8763108487046415,-0.0010506942493890938,0.0005015605603591819,-3.370534746845854e-05,-0.00047384795420231607,4.605040501934867e-06,-0.00016156131820413064,-0.001560051183564468,0.0,0.0,0.0,0.0,0.0,0.0,0.0,0.0001365874525190991,0.00021290851685368956,-5.2897254246842e-06,0.00031847085139435904,-8.238863874536484e-05,3.60711415607895e-05,-4.577636719904632e-06,0.0010506942493890938,-0.0005015605603591819,3.370534746845854e-05,0.00047384795420231607,-4.605040501934867e-06,0.00016156131820413064,0.001560051183564468,-0.10880166292190552,18.154138565063477,-1.0926239490509033,-18.297456741333008,-0.3500266671180725,-2.2753939628601074,0.17337362468242645,0
71,0.34986090660095215,0.10880166292190552,-18.154138565063477,1.0926239490509033,18.297456741333008,0.3500266671180725,2.2753939628601074,-0.17337362468242645,0.0,0.0,0.0,0.0,0.0,0.0,0.0,0.08320091776950016,0.5058657501602954,0.28783553827654595,0.6543747099648516,-0.07136162261773035,0.08678006151618384,-0.2135710596827236,-0.6092217622682157,-0.05774487570242207,-0.6665978073571913,-2.594875007877248,-0.055539050776794635,2.507939956082238,0.8763154263413614,-0.6090851748156966,-0.05753196718556838,-0.666603097082616,-2.5945565370258534,-0.05562143941554,2.507976027223799,0.8763108487046415,-0.0010506942493890938,0.0005015605603591819,-3.370534746845854e-05,-0.00047384795420231607,4.605040501934867e-06,-0.00016156131820413064,-0.001560051183564468,0.0,0.0,0.0,0.0,0.0,0.0,0.0,0.0001365874525190991,0.00021290851685368956,-5.2897254246842e-06,0.00031847085139435904,-8.238863874536484e-05,3.60711415607895e-05,-4.577636719904632e-06,0.0010506942493890938,-0.0005015605603591819,3.370534746845854e-05,0.00047384795420231607,-4.605040501934867e-06,0.00016156131820413064,0.001560051183564468,-0.10880166292190552,18.154138565063477,-1.0926239490509033,-18.297456741333008,-0.3500266671180725,-2.2753939628601074,0.17337362468242645,0
72,0.3548586368560791,0.13260537385940552,-18.154138565063477,1.0926239490509033,18.269685745239258,0.3555198311805725,2.2689852714538574,-0.24112264811992645,0.0,0.0,0.0,0.0,0.0,0.0,0.0,0.0876420675478793,0.5077391633633584,0.289267353223036,0.6536419875650405,-0.07176935708918462,0.08766421002971321,-0.2128807375273108,-0.609223432704022,-0.05774274483637142,-0.6665978429873362,-2.5948730580179373,-0.05553717704314185,2.507940668159061,0.8763226007979225,-0.6090851748156966,-0.05753196718556838,-0.666603097082616,-2.5945565370258534,-0.05562143941554,2.507976027223799,0.8763108487046415,-0.0007988950044136884,-0.00010066230180756911,0.0002501438064145579,0.0004214323712571959,3.0467970334901034e-05,0.0003357141705053173,0.0008669894629762879,0.0,0.0,0.0,0.0,0.0,0.0,0.0,0.00013825788832544372,0.00021077765080303873,-5.254095279849658e-06,0.00031652099208390183,-8.426237239814865e-05,3.535906473794981e-05,-1.1752093280970044e-05,0.0007988950044136884,0.00010066230180756911,-0.0002501438064145579,-0.0004214323712571959,-3.0467970334901034e-05,-0.0003357141705053173,-0.0008669894629762879,-0.13260537385940552,18.154138565063477,-1.0926239490509033,-18.269685745239258,-0.3555198311805725,-2.2689852714538574,0.24112264811992645,0
73,0.35985875129699707,0.13260537385940552,-18.154138565063477,1.0926239490509033,18.269685745239258,0.3555198311805725,2.2689852714538574,-0.24112264811992645,0.0,0.0,0.0,0.0,0.0,0.0,0.0,0.0876420675478793,0.5077391633633584,0.289267353223036,0.6536419875650405,-0.07176935708918462,0.08766421002971321,-0.2128807375273108,-0.609223432704022,-0.05774274483637142,-0.6665978429873362,-2.5948730580179373,-0.05553717704314185,2.507940668159061,0.8763226007979225,-0.6090851748156966,-0.05753196718556838,-0.666603097082616,-2.5945565370258534,-0.05562143941554,2.507976027223799,0.8763108487046415,-0.0007988950044136884,-0.00010066230180756911,0.0002501438064145579,0.0004214323712571959,3.0467970334901034e-05,0.0003357141705053173,0.0008669894629762879,0.0,0.0,0.0,0.0,0.0,0.0,0.0,0.00013825788832544372,0.00021077765080303873,-5.254095279849658e-06,0.00031652099208390183,-8.426237239814865e-05,3.535906473794981e-05,-1.1752093280970044e-05,0.0007988950044136884,0.00010066230180756911,-0.0002501438064145579,-0.0004214323712571959,-3.0467970334901034e-05,-0.0003357141705053173,-0.0008669894629762879,-0.13260537385940552,18.154138565063477,-1.0926239490509033,-18.269685745239258,-0.3555198311805725,-2.2689852714538574,0.24112264811992645,0
74,0.3648669719696045,0.08103066682815552,-18.154138565063477,1.0926239490509033,18.297456741333008,0.3555198311805725,2.2689852714538574,-0.20724813640117645,0.0,0.0,0.0,0.0,0.0,0.0,0.0,0.09246356463634309,0.5040364786355914,0.28922600654359054,0.654521642181317,-0.07149745603231866,0.08839483637135064,-0.2132128204282643,-0.6092198134263357,-0.05774274482434262,-0.666600615505427,-2.5948750068597626,-0.05553713759929752,2.507940668159061,0.876319190174003,-0.6090851748156966,-0.05753196718556838,-0.666603097082616,-2.5945565370258534,-0.05562143941554,2.507976027223799,0.8763108487046415,0.0007157303100666409,-0.0006458365611212755,0.0006923728891407719,-0.00014276798754435884,-0.0002423505968861899,0.00016527997208501917,-0.00038338249624829943,0.0,0.0,0.0,0.0,0.0,0.0,0.0,0.00013463861063911509,0.00021077763877423716,-2.4815771889619143e-06,0.00031846983390915184,-8.430181624247829e-05,3.535906473794981e-05,-8.341469361461407e-06,-0.0007157303100666409,0.0006458365611212755,-0.0006923728891407719,0.00014276798754435884,0.0002423505968861899,-0.00016527997208501917,0.00038338249624829943,-0.08103066682815552,18.154138565063477,-1.0926239490509033,-18.297456741333008,-0.3555198311805725,-2.2689852714538574,0.20724813640117645,0
75,0.3698689937591553,0.08103066682815552,-18.154138565063477,1.0926239490509033,18.297456741333008,0.3555198311805725,2.2689852714538574,-0.20724813640117645,0.0,0.0,0.0,0.0,0.0,0.0,0.0,0.09246356463634309,0.5040364786355914,0.28922600654359054,0.654521642181317,-0.07149745603231866,0.08839483637135064,-0.2132128204282643,-0.6092198134263357,-0.05774274482434262,-0.666600615505427,-2.5948750068597626,-0.05553713759929752,2.507940668159061,0.876319190174003,-0.6090851748156966,-0.05753196718556838,-0.666603097082616,-2.5945565370258534,-0.05562143941554,2.507976027223799,0.8763108487046415,0.0007157303100666409,-0.0006458365611212755,0.0006923728891407719,-0.00014276798754435884,-0.0002423505968861899,0.00016527997208501917,-0.00038338249624829943,0.0,0.0,0.0,0.0,0.0,0.0,0.0,0.00013463861063911509,0.00021077763877423716,-2.4815771889619143e-06,0.00031846983390915184,-8.430181624247829e-05,3.535906473794981e-05,-8.341469361461407e-06,-0.0007157303100666409,0.0006458365611212755,-0.0006923728891407719,0.00014276798754435884,0.0002423505968861899,-0.00016527997208501917,0.00038338249624829943,-0.08103066682815552,18.154138565063477,-1.0926239490509033,-18.297456741333008,-0.3555198311805725,-2.2689852714538574,0.20724813640117645,0
76,0.3748657703399658,0.08103066682815552,-18.154138565063477,1.1164276599884033,18.321260452270508,0.3500266671180725,2.2689852714538574,-0.20083944499492645,0.0,0.0,0.0,0.0,0.0,0.0,0.0,0.09045307312047136,0.507951846098511,0.28483080959009516,0.6489736428802435,-0.07178714373113149,0.0874632248765561,-0.21479598411751338,-0.6092198914274757,-0.05774277113133083,-0.6666018293988198,-2.5948767047677177,-0.055540220453380904,2.507940668159061,0.8763184780991738,-0.6090851748156966,-0.05753196718556838,-0.666603097082616,-2.5945565370258534,-0.05562143941554,2.507976027223799,0.8763108487046415,0.00038492188202914475,0.0001448790462184243,-0.00010971532986810367,-0.0009647990872384038,6.624849216548735e-05,7.006874512244136e-05,-0.0004880411646381833,0.0,0.0,0.0,0.0,0.0,0.0,0.0,0.00013471661177910654,0.00021080394576244998,-1.2676837961578258e-06,0.00032016774186427455,-8.121896215909641e-05,3.535906473794981e-05,-7.629394532360223e-06,-0.00038492188202914475,-0.0001448790462184243,0.00010971532986810367,0.0009647990872384038,-6.624849216548735e-05,-7.006874512244136e-05,0.0004880411646381833,-0.08103066682815552,18.154138565063477,-1.1164276599884033,-18.321260452270508,-0.3500266671180725,-2.2689852714538574,0.20083944499492645,0
77,0.3798658847808838,0.08103066682815552,-18.154138565063477,1.1164276599884033,18.321260452270508,0.3500266671180725,2.2689852714538574,-0.20083944499492645,0.0,0.0,0.0,0.0,0.0,0.0,0.0,0.09045307312047136,0.507951846098511,0.28483080959009516,0.6489736428802435,-0.07178714373113149,0.0874632248765561,-0.21479598411751338,-0.6092198914274757,-0.05774277113133083,-0.6666018293988198,-2.5948767047677177,-0.055540220453380904,2.507940668159061,0.8763184780991738,-0.6090851748156966,-0.05753196718556838,-0.666603097082616,-2.5945565370258534,-0.05562143941554,2.507976027223799,0.8763108487046415,0.00038492188202914475,0.0001448790462184243,-0.00010971532986810367,-0.0009647990872384038,6.624849216548735e-05,7.006874512244136e-05,-0.0004880411646381833,0.0,0.0,0.0,0.0,0.0,0.0,0.0,0.00013471661177910654,0.00021080394576244998,-1.2676837961578258e-06,0.00032016774186427455,-8.121896215909641e-05,3.535906473794981e-05,-7.629394532360223e-06,-0.00038492188202914475,-0.0001448790462184243,0.00010971532986810367,0.0009647990872384038,-6.624849216548735e-05,-7.006874512244136e-05,0.0004880411646381833,-0.08103066682815552,18.154138565063477,-1.1164276599884033,-18.321260452270508,-0.3500266671180725,-2.2689852714538574,0.20083944499492645,0
78,0.3848605155944824,0.08103066682815552,-18.177942276000977,1.1164276599884033,18.269685745239258,0.3381248116493225,2.2689852714538574,-0.24112264811992645,0.0,0.0,0.0,0.0,0.0,0.0,0.0,0.09509729286734075,0.5054780728221727,0.29204329699627585,0.6518560518948187,-0.07219899901907068,0.0871987197242275,-0.2151963439468702,-0.609219813426776,-0.057741074388635794,-0.666599478162974,-2.5948730580180865,-0.05553737326381276,2.507940668159061,0.8763229540106322,-0.6090851748156966,-0.05753196718556838,-0.666603097082616,-2.5945565370258534,-0.05562143941554,2.507976027223799,0.8763108487046415,0.00045830430628878343,0.0008295613170719206,-0.00011238752625780242,0.00010992276386794392,0.00042200346938781025,-9.644299699625447e-05,0.001035638881302286,0.0,0.0,0.0,0.0,0.0,0.0,0.0,0.00013463861107942954,0.00020910720306741015,-3.6189196419567082e-06,0.0003165209922331158,-8.406615172724258e-05,3.535906473794981e-05,-1.2105305990717241e-05,-0.00045830430628878343,-0.0008295613170719206,0.00011238752625780242,-0.00010992276386794392,-0.00042200346938781025,9.644299699625447e-05,-0.001035638881302286,-0.08103066682815552,18.177942276000977,-1.1164276599884033,-18.269685745239258,-0.3381248116493225,-2.2689852714538574,0.24112264811992645,0
79,0.3898611068725586,0.08103066682815552,-18.177942276000977,1.1164276599884033,18.269685745239258,0.3381248116493225,2.2689852714538574,-0.24112264811992645,0.0,0.0,0.0,0.0,0.0,0.0,0.0,0.09509729286734075,0.5054780728221727,0.29204329699627585,0.6518560518948187,-0.07219899901907068,0.0871987197242275,-0.2151963439468702,-0.609219813426776,-0.057741074388635794,-0.666599478162974,-2.5948730580180865,-0.05553737326381276,2.507940668159061,0.8763229540106322,-0.6090851748156966,-0.05753196718556838,-0.666603097082616,-2.5945565370258534,-0.05562143941554,2.507976027223799,0.8763108487046415,0.00045830430628878343,0.0008295613170719206,-0.00011238752625780242,0.00010992276386794392,0.00042200346938781025,-9.644299699625447e-05,0.001035638881302286,0.0,0.0,0.0,0.0,0.0,0.0,0.0,0.00013463861107942954,0.00020910720306741015,-3.6189196419567082e-06,0.0003165209922331158,-8.406615172724258e-05,3.535906473794981e-05,-1.2105305990717241e-05,-0.00045830430628878343,-0.0008295613170719206,0.00011238752625780242,-0.00010992276386794392,-0.00042200346938781025,9.644299699625447e-05,-0.001035638881302286,-0.08103066682815552,18.177942276000977,-1.1164276599884033,-18.269685745239258,-0.3381248116493225,-2.2689852714538574,0.24112264811992645,0
