rezayati/contactInterpretation/dataset/franka_main/labeled_data/link6/b7_7.csv
index,time,tau_J0,tau_J1,tau_J2,tau_J3,tau_J4,tau_J5,tau_J6,tau_J_d0,tau_J_d1,tau_J_d2,tau_J_d3,tau_J_d4,tau_J_d5,tau_J_d6,tau_ext0,tau_ext1,tau_ext2,tau_ext3,tau_ext4,tau_ext5,tau_ext6,q0,q1,q2,q3,q4,q5,q6,q_d0,q_d1,q_d2,q_d3,q_d4,q_d5,q_d6,dq0,dq1,dq2,dq3,dq4,dq5,dq6,dq_d0,dq_d1,dq_d2,dq_d3,dq_d4,dq_d5,dq_d6,e0,e1,e2,e3,e4,e5,e6,de0,de1,de2,de3,de4,de5,de6,etau_J0,etau_J1,etau_J2,etau_J3,etau_J4,etau_J5,etau_J6,label
1,0.0,-0.22445029020309448,-11.802515029907227,1.1918060779571533,21.792634963989258,0.4333396553993225,2.5463900566101074,-0.20724813640117645,0.0,0.0,0.0,0.0,0.0,0.0,0.0,-0.18435390648328576,0.5532600181302643,-0.0066846421868318835,0.4892229455577182,-0.10427194537248019,0.12564184612069068,-0.22770730813075943,0.17264293171230113,-0.48743124980746866,-0.11142582459025109,-1.9466360523739346,0.13356171118109314,2.5955434551768835,0.9452476107196676,0.1728802376190821,-0.48752024683155326,-0.11147110072896137,-1.9463801863486305,0.1336059019074957,2.595550359778934,0.9452445589611904,0.0013808630349703174,4.150071539412228e-05,-0.00041485814221216684,6.069504346970335e-05,-3.849953134521624e-05,-0.0006597285379563468,-0.0004636262875148958,0.0,0.0,0.0,0.0,0.0,0.0,0.0,0.00023730590678097685,-8.899702408460275e-05,-4.527613871027625e-05,0.00025586602530403013,4.419072640254873e-05,6.904602050550324e-06,-3.051758477146116e-06,-0.0013808630349703174,-4.150071539412228e-05,0.00041485814221216684,-6.069504346970335e-05,3.849953134521624e-05,0.0006597285379563468,0.0004636262875148958,0.22445029020309448,11.802515029907227,-1.1918060779571533,-21.792634963989258,-0.4333396553993225,-2.5463900566101074,0.20724813640117645,0
2,0.004994630813598633,-0.22445029020309448,-11.727136611938477,1.2156097888946533,21.816438674926758,0.4333396553993225,2.5271639823913574,-0.20083944499492645,0.0,0.0,0.0,0.0,0.0,0.0,0.0,-0.1859516558432571,0.5555715129288089,-0.014745095624825183,0.4858098121512003,-0.103284314655265,0.12624056716355947,-0.2274730049683984,0.17264293171230113,-0.48743677576667865,-0.11142770600300432,-1.9466379613360942,0.13356159307626,2.595545591407352,0.9452468986428446,0.1728802376190821,-0.48752024683155326,-0.11147110072896137,-1.9463801863486305,0.1336059019074957,2.595550359778934,0.9452445589611904,0.0009814182804719343,-0.0008968843066218224,-0.0015185865382982581,-0.000857699048402117,5.031331142246267e-05,-8.19512862281821e-05,-0.0009473891823942903,0.0,0.0,0.0,0.0,0.0,0.0,0.0,0.00023730590678097685,-8.347106487460731e-05,-4.339472595704663e-05,0.0002577749874637103,4.43088312356843e-05,4.76837158203125e-06,-2.3396816541954024e-06,-0.0009814182804719343,0.0008968843066218224,0.0015185865382982581,0.000857699048402117,-5.031331142246267e-05,8.19512862281821e-05,0.0009473891823942903,0.22445029020309448,11.727136611938477,-1.2156097888946533,-21.816438674926758,-0.4333396553993225,-2.5271639823913574,0.20083944499492645,0
3,0.009995460510253906,-0.22445029020309448,-11.727136611938477,1.2156097888946533,21.816438674926758,0.4333396553993225,2.5271639823913574,-0.20083944499492645,0.0,0.0,0.0,0.0,0.0,0.0,0.0,-0.1859516558432571,0.5555715129288089,-0.014745095624825183,0.4858098121512003,-0.103284314655265,0.12624056716355947,-0.2274730049683984,0.17264293171230113,-0.48743677576667865,-0.11142770600300432,-1.9466379613360942,0.13356159307626,2.595545591407352,0.9452468986428446,0.1728802376190821,-0.48752024683155326,-0.11147110072896137,-1.9463801863486305,0.1336059019074957,2.595550359778934,0.9452445589611904,0.0009814182804719343,-0.0008968843066218224,-0.0015185865382982581,-0.000857699048402117,5.031331142246267e-05,-8.19512862281821e-05,-0.0009473891823942903,0.0,0.0,0.0,0.0,0.0,0.0,0.0,0.00023730590678097685,-8.347106487460731e-05,-4.339472595704663e-05,0.0002577749874637103,4.43088312356843e-05,4.76837158203125e-06,-2.3396816541954024e-06,-0.0009814182804719343,0.0008968843066218224,0.0015185865382982581,0.000857699048402117,-5.031331142246267e-05,8.19512862281821e-05,0.0009473891823942903,0.22445029020309448,11.727136611938477,-1.2156097888946533,-21.816438674926758,-0.4333396553993225,-2.5271639823913574,0.20083944499492645,0
4,0.014995336532592773,-0.17287558317184448,-11.750940322875977,1.2156097888946533,21.768831253051758,0.4214377999305725,2.5271639823913574,-0.25485557317733765,0.0,0.0,0.0,0.0,0.0,0.0,0.0,-0.17965748462441025,0.5384698754874708,-0.004304523559326009,0.4967030379715928,-0.10322906988059552,0.12778263368885606,-0.22722102442634554,0.17263931243461472,-0.487435105332157,-0.1114269962911277,-1.9466346201386815,0.133562915665989,2.595545591407352,0.9452529004348649,0.1728802376190821,-0.48752024683155326,-0.11147110072896137,-1.9463801863486305,0.1336059019074957,2.595550359778934,0.9452445589611904,0.00017296584181323663,-0.0003971640920083375,-0.00041273457102182504,5.828511999696223e-06,0.00032866856465529263,-6.964923132209775e-06,0.0012577104410733978,0.0,0.0,0.0,0.0,0.0,0.0,0.0,0.00024092518446738875,-8.514149939625737e-05,-4.410443783366136e-05,0.00025443379005096745,4.2986241506698386e-05,4.76837158203125e-06,-8.341473674455813e-06,-0.00017296584181323663,0.0003971640920083375,0.00041273457102182504,-5.828511999696223e-06,-0.00032866856465529263,6.964923132209775e-06,-0.0012577104410733978,0.17287558317184448,11.750940322875977,-1.2156097888946533,-21.768831253051758,-0.4214377999305725,-2.5271639823913574,0.25485557317733765,0
5,0.01999378204345703,-0.17287558317184448,-11.750940322875977,1.2156097888946533,21.768831253051758,0.4214377999305725,2.5271639823913574,-0.25485557317733765,0.0,0.0,0.0,0.0,0.0,0.0,0.0,-0.17965748462441025,0.5384698754874708,-0.004304523559326009,0.4967030379715928,-0.10322906988059552,0.12778263368885606,-0.22722102442634554,0.17263931243461472,-0.487435105332157,-0.1114269962911277,-1.9466346201386815,0.133562915665989,2.595545591407352,0.9452529004348649,0.1728802376190821,-0.48752024683155326,-0.11147110072896137,-1.9463801863486305,0.1336059019074957,2.595550359778934,0.9452445589611904,0.00017296584181323663,-0.0003971640920083375,-0.00041273457102182504,5.828511999696223e-06,0.00032866856465529263,-6.964923132209775e-06,0.0012577104410733978,0.0,0.0,0.0,0.0,0.0,0.0,0.0,0.00024092518446738875,-8.514149939625737e-05,-4.410443783366136e-05,0.00025443379005096745,4.2986241506698386e-05,4.76837158203125e-06,-8.341473674455813e-06,-0.00017296584181323663,0.0003971640920083375,0.00041273457102182504,-5.828511999696223e-06,-0.00032866856465529263,6.964923132209775e-06,-0.0012577104410733978,0.17287558317184448,11.750940322875977,-1.2156097888946533,-21.768831253051758,-0.4214377999305725,-2.5271639823913574,0.25485557317733765,0
6,0.0249936580657959,-0.19667929410934448,-11.802515029907227,1.1918060779571533,21.768831253051758,0.4269309639930725,2.5271639823913574,-0.20724813640117645,0.0,0.0,0.0,0.0,0.0,0.0,0.0,-0.1865794700943062,0.5341109330497013,-0.017438930276475285,0.5031243111788298,-0.10241550735509351,0.12845539383280272,-0.22719532622934563,0.17264098287046997,-0.4874314860544706,-0.11142509252044933,-1.946634619484582,0.1335624233119204,2.595545591407352,0.9452476107196676,0.1728802376190821,-0.48752024683155326,-0.11147110072896137,-1.9463801863486305,0.1336059019074957,2.595550359778934,0.9452445589611904,0.00040361828061184584,0.0005683450471614033,-0.00017345880774867944,0.0005521550759906899,0.0002608551878897862,-9.823342209890054e-05,-0.0005895323937571305,0.0,0.0,0.0,0.0,0.0,0.0,0.0,0.0002392547486121388,-8.876077708264152e-05,-4.6008208512041127e-05,0.00025443313595152617,4.3478595575296985e-05,4.76837158203125e-06,-3.051758477146116e-06,-0.00040361828061184584,-0.0005683450471614033,0.00017345880774867944,-0.0005521550759906899,-0.0002608551878897862,9.823342209890054e-05,0.0005895323937571305,0.19667929410934448,11.802515029907227,-1.1918060779571533,-21.768831253051758,-0.4269309639930725,-2.5271639823913574,0.20724813640117645,0
7,0.02999401092529297,-0.19667929410934448,-11.802515029907227,1.1918060779571533,21.768831253051758,0.4269309639930725,2.5271639823913574,-0.20724813640117645,0.0,0.0,0.0,0.0,0.0,0.0,0.0,-0.1865794700943062,0.5341109330497013,-0.017438930276475285,0.5031243111788298,-0.10241550735509351,0.12845539383280272,-0.22719532622934563,0.17264098287046997,-0.4874314860544706,-0.11142509252044933,-1.946634619484582,0.1335624233119204,2.595545591407352,0.9452476107196676,0.1728802376190821,-0.48752024683155326,-0.11147110072896137,-1.9463801863486305,0.1336059019074957,2.595550359778934,0.9452445589611904,0.00040361828061184584,0.0005683450471614033,-0.00017345880774867944,0.0005521550759906899,0.0002608551878897862,-9.823342209890054e-05,-0.0005895323937571305,0.0,0.0,0.0,0.0,0.0,0.0,0.0,0.0002392547486121388,-8.876077708264152e-05,-4.6008208512041127e-05,0.00025443313595152617,4.3478595575296985e-05,4.76837158203125e-06,-3.051758477146116e-06,-0.00040361828061184584,-0.0005683450471614033,0.00017345880774867944,-0.0005521550759906899,-0.0002608551878897862,9.823342209890054e-05,0.0005895323937571305,0.19667929410934448,11.802515029907227,-1.1918060779571533,-21.768831253051758,-0.4269309639930725,-2.5271639823913574,0.20724813640117645,0
8,0.03499484062194824,-0.19667929410934448,-11.802515029907227,1.1918060779571533,21.768831253051758,0.4269309639930725,2.5271639823913574,-0.20724813640117645,0.0,0.0,0.0,0.0,0.0,0.0,0.0,-0.1865794700943062,0.5341109330497013,-0.017438930276475285,0.5031243111788298,-0.10241550735509351,0.12845539383280272,-0.22719532622934563,0.17264098287046997,-0.4874314860544706,-0.11142509252044933,-1.946634619484582,0.1335624233119204,2.595545591407352,0.9452476107196676,0.1728802376190821,-0.48752024683155326,-0.11147110072896137,-1.9463801863486305,0.1336059019074957,2.595550359778934,0.9452445589611904,0.00040361828061184584,0.0005683450471614033,-0.00017345880774867944,0.0005521550759906899,0.0002608551878897862,-9.823342209890054e-05,-0.0005895323937571305,0.0,0.0,0.0,0.0,0.0,0.0,0.0,0.0002392547486121388,-8.876077708264152e-05,-4.6008208512041127e-05,0.00025443313595152617,4.3478595575296985e-05,4.76837158203125e-06,-3.051758477146116e-06,-0.00040361828061184584,-0.0005683450471614033,0.00017345880774867944,-0.0005521550759906899,-0.0002608551878897862,9.823342209890054e-05,0.0005895323937571305,0.19667929410934448,11.802515029907227,-1.1918060779571533,-21.768831253051758,-0.4269309639930725,-2.5271639823913574,0.20724813640117645,0
9,0.03999757766723633,-0.22445029020309448,-11.802515029907227,1.1680023670196533,21.816438674926758,0.4333396553993225,2.5399813652038574,-0.22098104655742645,0.0,0.0,0.0,0.0,0.0,0.0,0.0,-0.18776995763029908,0.5446437755208975,-0.01756829149423382,0.49771656390138785,-0.10225203801932972,0.127584404287029,-0.2276470730409705,0.17264293171230113,-0.4874307741812659,-0.11142416283031516,-1.946637934846482,0.1335615930762603,2.5955441672537063,0.9452491365985738,0.1728802376190821,-0.48752024683155326,-0.11147110072896137,-1.9463801863486305,0.1336059019074957,2.595550359778934,0.9452445589611904,0.0003213849205876722,0.00021880399019455282,0.0005351928996834129,-0.00048387394059937747,9.927329614237244e-06,-0.00030398348244013804,-1.7955877145819717e-06,0.0,0.0,0.0,0.0,0.0,0.0,0.0,0.00023730590678097685,-8.947265028735885e-05,-4.69378986462099e-05,0.00025774849785142884,4.430883123537899e-05,6.192525227710632e-06,-4.5776373833739115e-06,-0.0003213849205876722,-0.00021880399019455282,-0.0005351928996834129,0.00048387394059937747,-9.927329614237244e-06,0.00030398348244013804,1.7955877145819717e-06,0.22445029020309448,11.802515029907227,-1.1680023670196533,-21.816438674926758,-0.4333396553993225,-2.5399813652038574,0.22098104655742645,0
10,0.04501676559448242,-0.22445029020309448,-11.802515029907227,1.1680023670196533,21.816438674926758,0.4333396553993225,2.5399813652038574,-0.22098104655742645,0.0,0.0,0.0,0.0,0.0,0.0,0.0,-0.18776995763029908,0.5446437755208975,-0.01756829149423382,0.49771656390138785,-0.10225203801932972,0.127584404287029,-0.2276470730409705,0.17264293171230113,-0.4874307741812659,-0.11142416283031516,-1.946637934846482,0.1335615930762603,2.5955441672537063,0.9452491365985738,0.1728802376190821,-0.48752024683155326,-0.11147110072896137,-1.9463801863486305,0.1336059019074957,2.595550359778934,0.9452445589611904,0.0003213849205876722,0.00021880399019455282,0.0005351928996834129,-0.00048387394059937747,9.927329614237244e-06,-0.00030398348244013804,-1.7955877145819717e-06,0.0,0.0,0.0,0.0,0.0,0.0,0.0,0.00023730590678097685,-8.947265028735885e-05,-4.69378986462099e-05,0.00025774849785142884,4.430883123537899e-05,6.192525227710632e-06,-4.5776373833739115e-06,-0.0003213849205876722,-0.00021880399019455282,-0.0005351928996834129,0.00048387394059937747,-9.927329614237244e-06,0.00030398348244013804,1.7955877145819717e-06,0.22445029020309448,11.802515029907227,-1.1680023670196533,-21.816438674926758,-0.4333396553993225,-2.5399813652038574,0.22098104655742645,0
11,0.050004005432128906,-0.19667929410934448,-11.826318740844727,1.1918060779571533,21.792634963989258,0.4333396553993225,2.5271639823913574,-0.23471395671367645,0.0,0.0,0.0,0.0,0.0,0.0,0.0,-0.18109462051365302,0.5376705043397421,-0.000421723655455895,0.5002303537268373,-0.10253589053913403,0.12814077523251682,-0.22895090868730608,0.17264098287046997,-0.4874274531805796,-0.11142516974821755,-1.9466362644104827,0.1335647833821814,2.5955455783253996,0.94525066247748,0.1728802376190821,-0.48752024683155326,-0.11147110072896137,-1.9463801863486305,0.1336059019074957,2.595550359778934,0.9452445589611904,0.0007790111235034702,0.00012123957816856256,0.0005083827409005043,0.0003239065084935844,7.145286272199056e-05,0.0002666533284391758,0.0008576758142875699,0.0,0.0,0.0,0.0,0.0,0.0,0.0,0.0002392547486121388,-9.279365097364378e-05,-4.593098074381907e-05,0.00025607806185212745,4.1118525314298715e-05,4.781453534441482e-06,-6.103516289601707e-06,-0.0007790111235034702,-0.00012123957816856256,-0.0005083827409005043,-0.0003239065084935844,-7.145286272199056e-05,-0.0002666533284391758,-0.0008576758142875699,0.19667929410934448,11.826318740844727,-1.1918060779571533,-21.792634963989258,-0.4333396553993225,-2.5271639823913574,0.23471395671367645,0
12,0.05500030517578125,-0.19667929410934448,-11.826318740844727,1.1918060779571533,21.792634963989258,0.4333396553993225,2.5271639823913574,-0.23471395671367645,0.0,0.0,0.0,0.0,0.0,0.0,0.0,-0.18109462051365302,0.5376705043397421,-0.000421723655455895,0.5002303537268373,-0.10253589053913403,0.12814077523251682,-0.22895090868730608,0.17264098287046997,-0.4874274531805796,-0.11142516974821755,-1.9466362644104827,0.1335647833821814,2.5955455783253996,0.94525066247748,0.1728802376190821,-0.48752024683155326,-0.11147110072896137,-1.9463801863486305,0.1336059019074957,2.595550359778934,0.9452445589611904,0.0007790111235034702,0.00012123957816856256,0.0005083827409005043,0.0003239065084935844,7.145286272199056e-05,0.0002666533284391758,0.0008576758142875699,0.0,0.0,0.0,0.0,0.0,0.0,0.0,0.0002392547486121388,-9.279365097364378e-05,-4.593098074381907e-05,0.00025607806185212745,4.1118525314298715e-05,4.781453534441482e-06,-6.103516289601707e-06,-0.0007790111235034702,-0.00012123957816856256,-0.0005083827409005043,-0.0003239065084935844,-7.145286272199056e-05,-0.0002666533284391758,-0.0008576758142875699,0.19667929410934448,11.826318740844727,-1.1918060779571533,-21.792634963989258,-0.4333396553993225,-2.5271639823913574,0.23471395671367645,0
13,0.06000161170959473,-0.14510458707809448,-11.802515029907227,1.2156097888946533,21.840242385864258,0.4333396553993225,2.5335726737976074,-0.20083944499492645,0.0,0.0,0.0,0.0,0.0,0.0,0.0,-0.1815189577380624,0.5442060719703578,-0.001998480656003702,0.49465859397137635,-0.10202618652756217,0.12720711395190717,-0.2300386059841364,0.1726373635927836,-0.487431459795468,-0.1114289734237906,-1.9466396317731465,0.13356619920809615,2.595544879330455,0.9452468986428446,0.1728802376190821,-0.48752024683155326,-0.11147110072896137,-1.9463801863486305,0.1336059019074957,2.595550359778934,0.9452445589611904,-0.0003859786906151411,-0.00023442469614606587,-0.00043966454905792763,-0.0013650740834248414,-0.00010962307801106773,-0.00013718847508485362,-0.0007480879481964807,0.0,0.0,0.0,0.0,0.0,0.0,0.0,0.00024287402629852295,-8.878703608528049e-05,-4.212730517076657e-05,0.0002594454245159472,3.970269939954085e-05,5.480448479033839e-06,-2.3396816541954024e-06,0.0003859786906151411,0.00023442469614606587,0.00043966454905792763,0.0013650740834248414,0.00010962307801106773,0.00013718847508485362,0.0007480879481964807,0.14510458707809448,11.802515029907227,-1.2156097888946533,-21.840242385864258,-0.4333396553993225,-2.5335726737976074,0.20083944499492645,0
14,0.06499481201171875,-0.14510458707809448,-11.802515029907227,1.2156097888946533,21.840242385864258,0.4333396553993225,2.5335726737976074,-0.20083944499492645,0.0,0.0,0.0,0.0,0.0,0.0,0.0,-0.1815189577380624,0.5442060719703578,-0.001998480656003702,0.49465859397137635,-0.10202618652756217,0.12720711395190717,-0.2300386059841364,0.1726373635927836,-0.487431459795468,-0.1114289734237906,-1.9466396317731465,0.13356619920809615,2.595544879330455,0.9452468986428446,0.1728802376190821,-0.48752024683155326,-0.11147110072896137,-1.9463801863486305,0.1336059019074957,2.595550359778934,0.9452445589611904,-0.0003859786906151411,-0.00023442469614606587,-0.00043966454905792763,-0.0013650740834248414,-0.00010962307801106773,-0.00013718847508485362,-0.0007480879481964807,0.0,0.0,0.0,0.0,0.0,0.0,0.0,0.00024287402629852295,-8.878703608528049e-05,-4.212730517076657e-05,0.0002594454245159472,3.970269939954085e-05,5.480448479033839e-06,-2.3396816541954024e-06,0.0003859786906151411,0.00023442469614606587,0.00043966454905792763,0.0013650740834248414,0.00010962307801106773,0.00013718847508485362,0.0007480879481964807,0.14510458707809448,11.802515029907227,-1.2156097888946533,-21.840242385864258,-0.4333396553993225,-2.5335726737976074,0.20083944499492645,0
15,0.06999707221984863,-0.19667929410934448,-11.750940322875977,1.2156097888946533,21.768831253051758,0.4333396553993225,2.5271639823913574,-0.22830526530742645,0.0,0.0,0.0,0.0,0.0,0.0,0.0,-0.1842853342691916,0.5615332069501224,-0.007827369494577397,0.48747506508340954,-0.10160480646559045,0.12653010056428374,-0.23152321580383267,0.17264098287046997,-0.4874351053320088,-0.1114269964062892,-1.94663462046573,0.13356266042537132,2.5955455914073515,0.9452499504006571,0.1728802376190821,-0.48752024683155326,-0.11147110072896137,-1.9463801863486305,0.1336059019074957,2.595550359778934,0.9452445589611904,-0.00025621692282777283,0.0006272429154943394,-0.000620141927844476,0.0005285454341434611,8.064138614566342e-05,0.00011680200393779113,0.0001992235008768425,0.0,0.0,0.0,0.0,0.0,0.0,0.0,0.0002392547486121388,-8.514149954447214e-05,-4.4104322672169904e-05,0.00025443411709957786,4.3241482124367625e-05,4.768371582475339e-06,-5.3914394666509935e-06,0.00025621692282777283,-0.0006272429154943394,0.000620141927844476,-0.0005285454341434611,-8.064138614566342e-05,-0.00011680200393779113,-0.0001992235008768425,0.19667929410934448,11.750940322875977,-1.2156097888946533,-21.768831253051758,-0.4333396553993225,-2.5271639823913574,0.22830526530742645,0
16,0.07499909400939941,-0.19667929410934448,-11.750940322875977,1.2156097888946533,21.768831253051758,0.4333396553993225,2.5271639823913574,-0.22830526530742645,0.0,0.0,0.0,0.0,0.0,0.0,0.0,-0.1842853342691916,0.5615332069501224,-0.007827369494577397,0.48747506508340954,-0.10160480646559045,0.12653010056428374,-0.23152321580383267,0.17264098287046997,-0.4874351053320088,-0.1114269964062892,-1.94663462046573,0.13356266042537132,2.5955455914073515,0.9452499504006571,0.1728802376190821,-0.48752024683155326,-0.11147110072896137,-1.9463801863486305,0.1336059019074957,2.595550359778934,0.9452445589611904,-0.00025621692282777283,0.0006272429154943394,-0.000620141927844476,0.0005285454341434611,8.064138614566342e-05,0.00011680200393779113,0.0001992235008768425,0.0,0.0,0.0,0.0,0.0,0.0,0.0,0.0002392547486121388,-8.514149954447214e-05,-4.4104322672169904e-05,0.00025443411709957786,4.3241482124367625e-05,4.768371582475339e-06,-5.3914394666509935e-06,0.00025621692282777283,-0.0006272429154943394,0.000620141927844476,-0.0005285454341434611,-8.064138614566342e-05,-0.00011680200393779113,-0.0001992235008768425,0.19667929410934448,11.750940322875977,-1.2156097888946533,-21.768831253051758,-0.4333396553993225,-2.5271639823913574,0.22830526530742645,0
17,0.07999444007873535,-0.19667929410934448,-11.774744033813477,1.1918060779571533,21.792634963989258,0.4269309639930725,2.5271639823913574,-0.21457235515117645,0.0,0.0,0.0,0.0,0.0,0.0,0.0,-0.1827677995027625,0.5400602550985292,-0.0031744614829998844,0.5014708424199475,-0.10132831631950896,0.12886615628286094,-0.2328972710624086,0.17264098287046997,-0.48743343486029944,-0.1114272446651136,-1.946636264410632,0.13356230515844145,2.5955455914073515,0.9452484245217508,0.1728802376190821,-0.48752024683155326,-0.11147110072896137,-1.9463801863486305,0.1336059019074957,2.595550359778934,0.9452445589611904,0.0004762421551857567,0.0003114900953735763,-0.0002409024381594573,-0.0004433541860262528,0.0002808804751945846,2.0045949451303218e-05,-0.00030840024491168605,0.0,0.0,0.0,0.0,0.0,0.0,0.0,0.0002392547486121388,-8.681197125381956e-05,-4.385606384776919e-05,0.00025607806200156347,4.3596749054242157e-05,4.768371582475339e-06,-3.865560560423198e-06,-0.0004762421551857567,-0.0003114900953735763,0.0002409024381594573,0.0004433541860262528,-0.0002808804751945846,-2.0045949451303218e-05,0.00030840024491168605,0.19667929410934448,11.774744033813477,-1.1918060779571533,-21.792634963989258,-0.4269309639930725,-2.5271639823913574,0.21457235515117645,0
18,0.08499765396118164,-0.19667929410934448,-11.774744033813477,1.1918060779571533,21.792634963989258,0.4269309639930725,2.5271639823913574,-0.21457235515117645,0.0,0.0,0.0,0.0,0.0,0.0,0.0,-0.1827677995027625,0.5400602550985292,-0.0031744614829998844,0.5014708424199475,-0.10132831631950896,0.12886615628286094,-0.2328972710624086,0.17264098287046997,-0.48743343486029944,-0.1114272446651136,-1.946636264410632,0.13356230515844145,2.5955455914073515,0.9452484245217508,0.1728802376190821,-0.48752024683155326,-0.11147110072896137,-1.9463801863486305,0.1336059019074957,2.595550359778934,0.9452445589611904,0.0004762421551857567,0.0003114900953735763,-0.0002409024381594573,-0.0004433541860262528,0.0002808804751945846,2.0045949451303218e-05,-0.00030840024491168605,0.0,0.0,0.0,0.0,0.0,0.0,0.0,0.0002392547486121388,-8.681197125381956e-05,-4.385606384776919e-05,0.00025607806200156347,4.3596749054242157e-05,4.768371582475339e-06,-3.865560560423198e-06,-0.0004762421551857567,-0.0003114900953735763,0.0002409024381594573,0.0004433541860262528,-0.0002808804751945846,-2.0045949451303218e-05,0.00030840024491168605,0.19667929410934448,11.774744033813477,-1.1918060779571533,-21.792634963989258,-0.4269309639930725,-2.5271639823913574,0.21457235515117645,0
19,0.08999419212341309,-0.22445029020309448,-11.826318740844727,1.2156097888946533,21.816438674926758,0.4269309639930725,2.5463900566101074,-0.20724813640117645,0.0,0.0,0.0,0.0,0.0,0.0,0.0,-0.1904798082783873,0.5233613989235696,-0.011760759076950946,0.511527752802634,-0.10109712098391885,0.130922497950215,-0.2332721034079114,0.17264293171230113,-0.4874298068700596,-0.11142699626195081,-1.9466377229187122,0.13356230515241627,2.595543455176883,0.9452476106658324,0.1728802376190821,-0.48752024683155326,-0.11147110072896137,-1.9463801863486305,0.1336059019074957,2.595550359778934,0.9452445589611904,0.0001803317283973162,-2.39900398944093e-05,-0.0009902212807052187,-0.0003811930121801866,8.349529743877124e-05,-0.0004734691476126512,-0.0007997331049111401,0.0,0.0,0.0,0.0,0.0,0.0,0.0,0.00023730590678097685,-9.043996149366018e-05,-4.410446701055837e-05,0.0002575365700816512,4.359675507942251e-05,6.904602050994413e-06,-3.0517046419875626e-06,-0.0001803317283973162,2.39900398944093e-05,0.0009902212807052187,0.0003811930121801866,-8.349529743877124e-05,0.0004734691476126512,0.0007997331049111401,0.22445029020309448,11.826318740844727,-1.2156097888946533,-21.816438674926758,-0.4269309639930725,-2.5463900566101074,0.20724813640117645,0
20,0.09499406814575195,-0.22445029020309448,-11.826318740844727,1.2156097888946533,21.816438674926758,0.4269309639930725,2.5463900566101074,-0.20724813640117645,0.0,0.0,0.0,0.0,0.0,0.0,0.0,-0.1904798082783873,0.5233613989235696,-0.011760759076950946,0.511527752802634,-0.10109712098391885,0.130922497950215,-0.2332721034079114,0.17264293171230113,-0.4874298068700596,-0.11142699626195081,-1.9466377229187122,0.13356230515241627,2.595543455176883,0.9452476106658324,0.1728802376190821,-0.48752024683155326,-0.11147110072896137,-1.9463801863486305,0.1336059019074957,2.595550359778934,0.9452445589611904,0.0001803317283973162,-2.39900398944093e-05,-0.0009902212807052187,-0.0003811930121801866,8.349529743877124e-05,-0.0004734691476126512,-0.0007997331049111401,0.0,0.0,0.0,0.0,0.0,0.0,0.0,0.00023730590678097685,-9.043996149366018e-05,-4.410446701055837e-05,0.0002575365700816512,4.359675507942251e-05,6.904602050994413e-06,-3.0517046419875626e-06,-0.0001803317283973162,2.39900398944093e-05,0.0009902212807052187,0.0003811930121801866,-8.349529743877124e-05,0.0004734691476126512,0.0007997331049111401,0.22445029020309448,11.826318740844727,-1.2156097888946533,-21.816438674926758,-0.4269309639930725,-2.5463900566101074,0.20724813640117645,0
21,0.09999585151672363,-0.19667929410934448,-11.873926162719727,1.1918060779571533,21.792634963989258,0.4388328194618225,2.5271639823913574,-0.24844686686992645,0.0,0.0,0.0,0.0,0.0,0.0,0.0,-0.18834679574278784,0.5430561753630834,-0.0064806000964799885,0.49987109884877157,-0.10194566068740417,0.12943523332512835,-0.2322136249263056,0.17264098287046997,-0.4874264747468554,-0.11142729434826772,-1.9466362909002395,0.1335609827240308,2.5955455914073515,0.9452521883563859,0.1728802376190821,-0.48752024683155326,-0.11147110072896137,-1.9463801863486305,0.1336059019074957,2.595550359778934,0.9452445589611904,0.0002633130985686299,0.0015153423596159594,-0.0005134075916061389,0.00034508448246187287,-0.0002951512475153732,9.081527553221556e-06,0.0013243872663595672,0.0,0.0,0.0,0.0,0.0,0.0,0.0,0.0002392547486121388,-9.377208469785181e-05,-4.3806380693650615e-05,0.00025610455160895995,4.491918346488655e-05,4.768371582475339e-06,-7.629395195496436e-06,-0.0002633130985686299,-0.0015153423596159594,0.0005134075916061389,-0.00034508448246187287,0.0002951512475153732,-9.081527553221556e-06,-0.0013243872663595672,0.19667929410934448,11.873926162719727,-1.1918060779571533,-21.792634963989258,-0.4388328194618225,-2.5271639823913574,0.24844686686992645,0
22,0.10500979423522949,-0.19667929410934448,-11.873926162719727,1.1918060779571533,21.792634963989258,0.4388328194618225,2.5271639823913574,-0.24844686686992645,0.0,0.0,0.0,0.0,0.0,0.0,0.0,-0.18834679574278784,0.5430561753630834,-0.0064806000964799885,0.49987109884877157,-0.10194566068740417,0.12943523332512835,-0.2322136249263056,0.17264098287046997,-0.4874264747468554,-0.11142729434826772,-1.9466362909002395,0.1335609827240308,2.5955455914073515,0.9452521883563859,0.1728802376190821,-0.48752024683155326,-0.11147110072896137,-1.9463801863486305,0.1336059019074957,2.595550359778934,0.9452445589611904,0.0002633130985686299,0.0015153423596159594,-0.0005134075916061389,0.00034508448246187287,-0.0002951512475153732,9.081527553221556e-06,0.0013243872663595672,0.0,0.0,0.0,0.0,0.0,0.0,0.0,0.0002392547486121388,-9.377208469785181e-05,-4.3806380693650615e-05,0.00025610455160895995,4.491918346488655e-05,4.768371582475339e-06,-7.629395195496436e-06,-0.0002633130985686299,-0.0015153423596159594,0.0005134075916061389,-0.00034508448246187287,0.0002951512475153732,-9.081527553221556e-06,-0.0013243872663595672,0.19667929410934448,11.873926162719727,-1.1918060779571533,-21.792634963989258,-0.4388328194618225,-2.5271639823913574,0.24844686686992645,0
23,0.11001873016357422,-0.19667929410934448,-11.873926162719727,1.1918060779571533,21.792634963989258,0.4388328194618225,2.5271639823913574,-0.24844686686992645,0.0,0.0,0.0,0.0,0.0,0.0,0.0,-0.18834679574278784,0.5430561753630834,-0.0064806000964799885,0.49987109884877157,-0.10194566068740417,0.12943523332512835,-0.2322136249263056,0.17264098287046997,-0.4874264747468554,-0.11142729434826772,-1.9466362909002395,0.1335609827240308,2.5955455914073515,0.9452521883563859,0.1728802376190821,-0.48752024683155326,-0.11147110072896137,-1.9463801863486305,0.1336059019074957,2.595550359778934,0.9452445589611904,0.0002633130985686299,0.0015153423596159594,-0.0005134075916061389,0.00034508448246187287,-0.0002951512475153732,9.081527553221556e-06,0.0013243872663595672,0.0,0.0,0.0,0.0,0.0,0.0,0.0,0.0002392547486121388,-9.377208469785181e-05,-4.3806380693650615e-05,0.00025610455160895995,4.491918346488655e-05,4.768371582475339e-06,-7.629395195496436e-06,-0.0002633130985686299,-0.0015153423596159594,0.0005134075916061389,-0.00034508448246187287,0.0002951512475153732,-9.081527553221556e-06,-0.0013243872663595672,0.19667929410934448,11.873926162719727,-1.1918060779571533,-21.792634963989258,-0.4388328194618225,-2.5271639823913574,0.24844686686992645,0
24,0.11500358581542969,-0.19667929410934448,-11.873926162719727,1.1918060779571533,21.792634963989258,0.4388328194618225,2.5271639823913574,-0.24844686686992645,0.0,0.0,0.0,0.0,0.0,0.0,0.0,-0.18834679574278784,0.5430561753630834,-0.0064806000964799885,0.49987109884877157,-0.10194566068740417,0.12943523332512835,-0.2322136249263056,0.17264098287046997,-0.4874264747468554,-0.11142729434826772,-1.9466362909002395,0.1335609827240308,2.5955455914073515,0.9452521883563859,0.1728802376190821,-0.48752024683155326,-0.11147110072896137,-1.9463801863486305,0.1336059019074957,2.595550359778934,0.9452445589611904,0.0002633130985686299,0.0015153423596159594,-0.0005134075916061389,0.00034508448246187287,-0.0002951512475153732,9.081527553221556e-06,0.0013243872663595672,0.0,0.0,0.0,0.0,0.0,0.0,0.0,0.0002392547486121388,-9.377208469785181e-05,-4.3806380693650615e-05,0.00025610455160895995,4.491918346488655e-05,4.768371582475339e-06,-7.629395195496436e-06,-0.0002633130985686299,-0.0015153423596159594,0.0005134075916061389,-0.00034508448246187287,0.0002951512475153732,-9.081527553221556e-06,-0.0013243872663595672,0.19667929410934448,11.873926162719727,-1.1918060779571533,-21.792634963989258,-0.4388328194618225,-2.5271639823913574,0.24844686686992645,0
25,0.11999702453613281,-0.17287558317184448,-11.802515029907227,1.2156097888946533,21.768831253051758,0.4333396553993225,2.5271639823913574,-0.20724813640117645,0.0,0.0,0.0,0.0,0.0,0.0,0.0,-0.1824269319016693,0.5466429840471794,-0.00025367404596854533,0.49882627930095885,-0.10272578411924682,0.12999518962437778,-0.2302617540155498,0.17263931243461472,-0.4874314743897299,-0.11142888605823546,-1.946634382047151,0.13356161057270438,2.5955455914073515,0.9452476241286686,0.1728802376190821,-0.48752024683155326,-0.11147110072896137,-1.9463801863486305,0.1336059019074957,2.595550359778934,0.9452445589611904,0.0003048844188210383,0.0003541058769732723,-0.00035615777647948126,0.0003591670756175606,1.162255648313368e-05,-0.0016993869931729035,-0.0006874645564686143,0.0,0.0,0.0,0.0,0.0,0.0,0.0,0.00024092518446738875,-8.877244182337041e-05,-4.2214670725904124e-05,0.0002541956985204763,4.4291334791307646e-05,4.768371582475339e-06,-3.0651674781667637e-06,-0.0003048844188210383,-0.0003541058769732723,0.00035615777647948126,-0.0003591670756175606,-1.162255648313368e-05,0.0016993869931729035,0.0006874645564686143,0.17287558317184448,11.802515029907227,-1.2156097888946533,-21.768831253051758,-0.4333396553993225,-2.5271639823913574,0.20724813640117645,0
26,0.12499690055847168,-0.17287558317184448,-11.802515029907227,1.2156097888946533,21.768831253051758,0.4333396553993225,2.5271639823913574,-0.20724813640117645,0.0,0.0,0.0,0.0,0.0,0.0,0.0,-0.1824269319016693,0.5466429840471794,-0.00025367404596854533,0.49882627930095885,-0.10272578411924682,0.12999518962437778,-0.2302617540155498,0.17263931243461472,-0.4874314743897299,-0.11142888605823546,-1.946634382047151,0.13356161057270438,2.5955455914073515,0.9452476241286686,0.1728802376190821,-0.48752024683155326,-0.11147110072896137,-1.9463801863486305,0.1336059019074957,2.595550359778934,0.9452445589611904,0.0003048844188210383,0.0003541058769732723,-0.00035615777647948126,0.0003591670756175606,1.162255648313368e-05,-0.0016993869931729035,-0.0006874645564686143,0.0,0.0,0.0,0.0,0.0,0.0,0.0,0.00024092518446738875,-8.877244182337041e-05,-4.2214670725904124e-05,0.0002541956985204763,4.4291334791307646e-05,4.768371582475339e-06,-3.0651674781667637e-06,-0.0003048844188210383,-0.0003541058769732723,0.00035615777647948126,-0.0003591670756175606,-1.162255648313368e-05,0.0016993869931729035,0.0006874645564686143,0.17287558317184448,11.802515029907227,-1.2156097888946533,-21.768831253051758,-0.4333396553993225,-2.5271639823913574,0.20724813640117645,0
27,0.12999486923217773,-0.14510458707809448,-11.750940322875977,1.1680023670196533,21.792634963989258,0.4214377999305725,2.5271639823913574,-0.24112264811992645,0.0,0.0,0.0,0.0,0.0,0.0,0.0,-0.19063262704130465,0.5437033889322781,-0.013783258036946614,0.49484022116062004,-0.10203930244623527,0.12812371088105765,-0.229613981523509,0.1726373635927836,-0.4874350965835356,-0.11142341928708353,-1.9466362909002395,0.13356291550407748,2.5955455957680025,0.9452513745543787,0.1728802376190821,-0.48752024683155326,-0.11147110072896137,-1.9463801863486305,0.1336059019074957,2.595550359778934,0.9452445589611904,-0.0014530181186112262,-0.0008632100898892941,0.00044966594713203705,-0.00037762627818238364,0.00032389204908123836,1.285126747055718e-05,0.0008506750341278369,0.0,0.0,0.0,0.0,0.0,0.0,0.0,0.00024287402629852295,-8.515024801764026e-05,-4.768144187783374e-05,0.00025610455160895995,4.298640341821036e-05,4.764010931523899e-06,-6.815593188269631e-06,0.0014530181186112262,0.0008632100898892941,-0.00044966594713203705,0.00037762627818238364,-0.00032389204908123836,-1.285126747055718e-05,-0.0008506750341278369,0.14510458707809448,11.750940322875977,-1.1680023670196533,-21.792634963989258,-0.4214377999305725,-2.5271639823913574,0.24112264811992645,0
28,0.1349945068359375,-0.14510458707809448,-11.750940322875977,1.1680023670196533,21.792634963989258,0.4214377999305725,2.5271639823913574,-0.24112264811992645,0.0,0.0,0.0,0.0,0.0,0.0,0.0,-0.19063262704130465,0.5437033889322781,-0.013783258036946614,0.49484022116062004,-0.10203930244623527,0.12812371088105765,-0.229613981523509,0.1726373635927836,-0.4874350965835356,-0.11142341928708353,-1.9466362909002395,0.13356291550407748,2.5955455957680025,0.9452513745543787,0.1728802376190821,-0.48752024683155326,-0.11147110072896137,-1.9463801863486305,0.1336059019074957,2.595550359778934,0.9452445589611904,-0.0014530181186112262,-0.0008632100898892941,0.00044966594713203705,-0.00037762627818238364,0.00032389204908123836,1.285126747055718e-05,0.0008506750341278369,0.0,0.0,0.0,0.0,0.0,0.0,0.0,0.00024287402629852295,-8.515024801764026e-05,-4.768144187783374e-05,0.00025610455160895995,4.298640341821036e-05,4.764010931523899e-06,-6.815593188269631e-06,0.0014530181186112262,0.0008632100898892941,-0.00044966594713203705,0.00037762627818238364,-0.00032389204908123836,-1.285126747055718e-05,-0.0008506750341278369,0.14510458707809448,11.750940322875977,-1.1680023670196533,-21.792634963989258,-0.4214377999305725,-2.5271639823913574,0.24112264811992645,0
29,0.13999152183532715,-0.19667929410934448,-11.750940322875977,1.1918060779571533,21.741060256958008,0.4333396553993225,2.5463900566101074,-0.22098104655742645,0.0,0.0,0.0,0.0,0.0,0.0,0.0,-0.1855790070951786,0.5612615460397593,-0.005745830344542664,0.4879643017339901,-0.10284565833710393,0.12656159990874546,-0.22897433767010053,0.1726409828344677,-0.4874351053321076,-0.11142581033269833,-1.9466326706427528,0.133561711667124,2.595543455176908,0.9452491365985738,0.1728802376190821,-0.48752024683155326,-0.11147110072896137,-1.9463801863486305,0.1336059019074957,2.595550359778934,0.9452445589611904,0.0003490504066884139,0.000514080012735526,-0.00021862379606089798,0.0011483959594823542,-9.057416372650236e-05,0.008753439024489213,0.0008520123521390314,0.0,0.0,0.0,0.0,0.0,0.0,0.0,0.0002392547846144233,-8.51414994456623e-05,-4.5290396263039656e-05,0.00025248429412227935,4.419024037169428e-05,6.904602026125417e-06,-4.5776373833739115e-06,-0.0003490504066884139,-0.000514080012735526,0.00021862379606089798,-0.0011483959594823542,9.057416372650236e-05,-0.008753439024489213,-0.0008520123521390314,0.19667929410934448,11.750940322875977,-1.1918060779571533,-21.741060256958008,-0.4333396553993225,-2.5463900566101074,0.22098104655742645,0
30,0.14499545097351074,-0.19667929410934448,-11.750940322875977,1.1918060779571533,21.741060256958008,0.4333396553993225,2.5463900566101074,-0.22098104655742645,0.0,0.0,0.0,0.0,0.0,0.0,0.0,-0.1855790070951786,0.5612615460397593,-0.005745830344542664,0.4879643017339901,-0.10284565833710393,0.12656159990874546,-0.22897433767010053,0.1726409828344677,-0.4874351053321076,-0.11142581033269833,-1.9466326706427528,0.133561711667124,2.595543455176908,0.9452491365985738,0.1728802376190821,-0.48752024683155326,-0.11147110072896137,-1.9463801863486305,0.1336059019074957,2.595550359778934,0.9452445589611904,0.0003490504066884139,0.000514080012735526,-0.00021862379606089798,0.0011483959594823542,-9.057416372650236e-05,0.008753439024489213,0.0008520123521390314,0.0,0.0,0.0,0.0,0.0,0.0,0.0,0.0002392547846144233,-8.51414994456623e-05,-4.5290396263039656e-05,0.00025248429412227935,4.419024037169428e-05,6.904602026125417e-06,-4.5776373833739115e-06,-0.0003490504066884139,-0.000514080012735526,0.00021862379606089798,-0.0011483959594823542,9.057416372650236e-05,-0.008753439024489213,-0.0008520123521390314,0.19667929410934448,11.750940322875977,-1.1918060779571533,-21.741060256958008,-0.4333396553993225,-2.5463900566101074,0.22098104655742645,0
31,0.1499948501586914,-0.19667929410934448,-11.774744033813477,1.1918060779571533,21.768831253051758,0.4214377999305725,2.5271639823913574,-0.17337362468242645,0.0,0.0,0.0,0.0,0.0,0.0,0.0,-0.18313559819564687,0.5447999319255123,-0.0025685618619460783,0.4928405561806697,-0.10281788176925877,0.12733006791973495,-0.22790739960429957,0.17264098287046978,-0.48743343489630175,-0.11142753142605731,-1.9466343820471457,0.13356326982114766,2.595545591407352,0.9452438468850322,0.1728802376190821,-0.48752024683155326,-0.11147110072896137,-1.9463801863486305,0.1336059019074957,2.595550359778934,0.9452445589611904,0.000689312293883101,-0.0006747413818129367,0.00027713732132670624,0.00011719461724992022,0.0004475593909526799,0.00044126971426672665,-0.0020273237491978064,0.0,0.0,0.0,0.0,0.0,0.0,0.0,0.0002392547486123331,-8.681193525150732e-05,-4.356930290405625e-05,0.00025419569851514723,4.263208634802673e-05,4.76837158203125e-06,7.120761582601887e-07,-0.000689312293883101,0.0006747413818129367,-0.00027713732132670624,-0.00011719461724992022,-0.0004475593909526799,-0.00044126971426672665,0.0020273237491978064,0.19667929410934448,11.774744033813477,-1.1918060779571533,-21.768831253051758,-0.4214377999305725,-2.5271639823913574,0.17337362468242645,0
32,0.1549980640411377,-0.19667929410934448,-11.774744033813477,1.1918060779571533,21.768831253051758,0.4214377999305725,2.5271639823913574,-0.17337362468242645,0.0,0.0,0.0,0.0,0.0,0.0,0.0,-0.18313559819564687,0.5447999319255123,-0.0025685618619460783,0.4928405561806697,-0.10281788176925877,0.12733006791973495,-0.22790739960429957,0.17264098287046978,-0.48743343489630175,-0.11142753142605731,-1.9466343820471457,0.13356326982114766,2.595545591407352,0.9452438468850322,0.1728802376190821,-0.48752024683155326,-0.11147110072896137,-1.9463801863486305,0.1336059019074957,2.595550359778934,0.9452445589611904,0.000689312293883101,-0.0006747413818129367,0.00027713732132670624,0.00011719461724992022,0.0004475593909526799,0.00044126971426672665,-0.0020273237491978064,0.0,0.0,0.0,0.0,0.0,0.0,0.0,0.0002392547486123331,-8.681193525150732e-05,-4.356930290405625e-05,0.00025419569851514723,4.263208634802673e-05,4.76837158203125e-06,7.120761582601887e-07,-0.000689312293883101,0.0006747413818129367,-0.00027713732132670624,-0.00011719461724992022,-0.0004475593909526799,-0.00044126971426672665,0.0020273237491978064,0.19667929410934448,11.774744033813477,-1.1918060779571533,-21.768831253051758,-0.4214377999305725,-2.5271639823913574,0.17337362468242645,0
33,0.15999794006347656,-0.19667929410934448,-11.802515029907227,1.1680023670196533,21.816438674926758,0.4269309639930725,2.5335726737976074,-0.24112264811992645,0.0,0.0,0.0,0.0,0.0,0.0,0.0,-0.18984311921284885,0.5380834360193081,-0.012190612128966933,0.49803909620049414,-0.10238276135539778,0.12997741863468595,-0.22848705688184281,0.17264098287046997,-0.48742936015547367,-0.11142365636392079,-1.946637961336095,0.13356265952491927,2.595544879330529,0.945251374554303,0.1728802376190821,-0.48752024683155326,-0.11147110072896137,-1.9463801863486305,0.1336059019074957,2.595550359778934,0.9452445589611904,-0.00011024734219382695,-0.0003346452626416534,0.0005401476497173072,-0.0007121874296016038,0.00024054802917247782,-3.1704148320436065e-05,0.0010819820789544795,0.0,0.0,0.0,0.0,0.0,0.0,0.0,0.0002392547486121388,-9.088667607959344e-05,-4.744436504057481e-05,0.00025777498746437644,4.3242382576413885e-05,5.480448404870941e-06,-6.8155931125524205e-06,0.00011024734219382695,0.0003346452626416534,-0.0005401476497173072,0.0007121874296016038,-0.00024054802917247782,3.1704148320436065e-05,-0.0010819820789544795,0.19667929410934448,11.802515029907227,-1.1680023670196533,-21.816438674926758,-0.4269309639930725,-2.5335726737976074,0.24112264811992645,0
34,0.1664118766784668,-0.19667929410934448,-11.802515029907227,1.1680023670196533,21.816438674926758,0.4269309639930725,2.5335726737976074,-0.24112264811992645,0.0,0.0,0.0,0.0,0.0,0.0,0.0,-0.18984311921284885,0.5380834360193081,-0.012190612128966933,0.49803909620049414,-0.10238276135539778,0.12997741863468595,-0.22848705688184281,0.17264098287046997,-0.48742936015547367,-0.11142365636392079,-1.946637961336095,0.13356265952491927,2.595544879330529,0.945251374554303,0.1728802376190821,-0.48752024683155326,-0.11147110072896137,-1.9463801863486305,0.1336059019074957,2.595550359778934,0.9452445589611904,-0.00011024734219382695,-0.0003346452626416534,0.0005401476497173072,-0.0007121874296016038,0.00024054802917247782,-3.1704148320436065e-05,0.0010819820789544795,0.0,0.0,0.0,0.0,0.0,0.0,0.0,0.0002392547486121388,-9.088667607959344e-05,-4.744436504057481e-05,0.00025777498746437644,4.3242382576413885e-05,5.480448404870941e-06,-6.8155931125524205e-06,0.00011024734219382695,0.0003346452626416534,-0.0005401476497173072,0.0007121874296016038,-0.00024054802917247782,3.1704148320436065e-05,-0.0010819820789544795,0.19667929410934448,11.802515029907227,-1.1680023670196533,-21.816438674926758,-0.4269309639930725,-2.5335726737976074,0.24112264811992645,0
35,0.17000699043273926,-0.19667929410934448,-11.802515029907227,1.2156097888946533,21.792634963989258,0.4269309639930725,2.5335726737976074,-0.18710653483867645,0.0,0.0,0.0,0.0,0.0,0.0,0.0,-0.18144082082896332,0.5426803255044895,0.003480323174697675,0.4928455760739057,-0.10303174870148825,0.12951339972366824,-0.22796687434477747,0.17264098287046997,-0.48743148604246983,-0.11142702264080018,-1.9466362909015853,0.1335624232599165,2.595544879330529,0.9452453727639384,0.1728802376190821,-0.48752024683155326,-0.11147110072896137,-1.9463801863486305,0.1336059019074957,2.595550359778934,0.9452445589611904,0.0005894040013931869,-0.0002109630180086571,-0.00013432327337062908,-2.4339471154541463e-05,0.00031379795217416795,-3.6644952391787535e-05,-0.0009561519978403011,0.0,0.0,0.0,0.0,0.0,0.0,0.0,0.0002392547486121388,-8.876078908343077e-05,-4.407808816118963e-05,0.0002561045529547723,4.347864757919817e-05,5.480448404870941e-06,-8.138027479676069e-07,-0.0005894040013931869,0.0002109630180086571,0.00013432327337062908,2.4339471154541463e-05,-0.00031379795217416795,3.6644952391787535e-05,0.0009561519978403011,0.19667929410934448,11.802515029907227,-1.2156097888946533,-21.792634963989258,-0.4269309639930725,-2.5335726737976074,0.18710653483867645,0
36,0.1750173568725586,-0.19667929410934448,-11.802515029907227,1.2156097888946533,21.792634963989258,0.4269309639930725,2.5335726737976074,-0.18710653483867645,0.0,0.0,0.0,0.0,0.0,0.0,0.0,-0.18144082082896332,0.5426803255044895,0.003480323174697675,0.4928455760739057,-0.10303174870148825,0.12951339972366824,-0.22796687434477747,0.17264098287046997,-0.48743148604246983,-0.11142702264080018,-1.9466362909015853,0.1335624232599165,2.595544879330529,0.9452453727639384,0.1728802376190821,-0.48752024683155326,-0.11147110072896137,-1.9463801863486305,0.1336059019074957,2.595550359778934,0.9452445589611904,0.0005894040013931869,-0.0002109630180086571,-0.00013432327337062908,-2.4339471154541463e-05,0.00031379795217416795,-3.6644952391787535e-05,-0.0009561519978403011,0.0,0.0,0.0,0.0,0.0,0.0,0.0,0.0002392547486121388,-8.876078908343077e-05,-4.407808816118963e-05,0.0002561045529547723,4.347864757919817e-05,5.480448404870941e-06,-8.138027479676069e-07,-0.0005894040013931869,0.0002109630180086571,0.00013432327337062908,2.4339471154541463e-05,-0.00031379795217416795,3.6644952391787535e-05,0.0009561519978403011,0.19667929410934448,11.802515029907227,-1.2156097888946533,-21.792634963989258,-0.4269309639930725,-2.5335726737976074,0.18710653483867645,0
37,0.18000507354736328,-0.22445029020309448,-11.802515029907227,1.1918060779571533,21.768831253051758,0.4333396553993225,2.5207552909851074,-0.20724813640117645,0.0,0.0,0.0,0.0,0.0,0.0,0.0,-0.1815665131082185,0.5511346162729717,5.724581777376854e-06,0.4852645764597227,-0.10269288434619797,0.12846918179306377,-0.22739212895690175,0.17264293171230113,-0.48743148605447056,-0.11142519753926687,-1.9466346194845838,0.1335615974505378,2.595546303484175,0.9452476107196676,0.1728802376190821,-0.48752024683155326,-0.11147110072896137,-1.9463801863486305,0.1336059019074957,2.595550359778934,0.9452445589611904,0.002123404866597102,0.0002429113575573415,0.00020470516695320694,-6.957524044621605e-05,0.00011500724252292704,0.00017790767789156394,-0.0008152362668865092,0.0,0.0,0.0,0.0,0.0,0.0,0.0,0.00023730590678097685,-8.876077708269703e-05,-4.590318969449614e-05,0.0002544331359533025,4.430445695788321e-05,4.056294759191559e-06,-3.051758477146116e-06,-0.002123404866597102,-0.0002429113575573415,-0.00020470516695320694,6.957524044621605e-05,-0.00011500724252292704,-0.00017790767789156394,0.0008152362668865092,0.22445029020309448,11.802515029907227,-1.1918060779571533,-21.768831253051758,-0.4333396553993225,-2.5207552909851074,0.20724813640117645,0
38,0.1849980354309082,-0.22445029020309448,-11.802515029907227,1.1918060779571533,21.768831253051758,0.4333396553993225,2.5207552909851074,-0.20724813640117645,0.0,0.0,0.0,0.0,0.0,0.0,0.0,-0.1815665131082185,0.5511346162729717,5.724581777376854e-06,0.4852645764597227,-0.10269288434619797,0.12846918179306377,-0.22739212895690175,0.17264293171230113,-0.48743148605447056,-0.11142519753926687,-1.9466346194845838,0.1335615974505378,2.595546303484175,0.9452476107196676,0.1728802376190821,-0.48752024683155326,-0.11147110072896137,-1.9463801863486305,0.1336059019074957,2.595550359778934,0.9452445589611904,0.002123404866597102,0.0002429113575573415,0.00020470516695320694,-6.957524044621605e-05,0.00011500724252292704,0.00017790767789156394,-0.0008152362668865092,0.0,0.0,0.0,0.0,0.0,0.0,0.0,0.00023730590678097685,-8.876077708269703e-05,-4.590318969449614e-05,0.0002544331359533025,4.430445695788321e-05,4.056294759191559e-06,-3.051758477146116e-06,-0.002123404866597102,-0.0002429113575573415,-0.00020470516695320694,6.957524044621605e-05,-0.00011500724252292704,-0.00017790767789156394,0.0008152362668865092,0.22445029020309448,11.802515029907227,-1.1918060779571533,-21.768831253051758,-0.4333396553993225,-2.5207552909851074,0.20724813640117645,0
39,0.19000744819641113,-0.22445029020309448,-11.774744033813477,1.2156097888946533,21.792634963989258,0.4214377999305725,2.5207552909851074,-0.20724813640117645,0.0,0.0,0.0,0.0,0.0,0.0,0.0,-0.18574075136132936,0.5413705661515459,-0.008722249661937125,0.4891726295098892,-0.1020462825097021,0.12868329532234535,-0.2279130904895207,0.17264293171230113,-0.48743343489630175,-0.11142686826226733,-1.94663629090158,0.1335629155040034,2.595546303484175,0.9452476107196676,0.1728802376190821,-0.48752024683155326,-0.11147110072896137,-1.9463801863486305,0.1336059019074957,2.595550359778934,0.9452445589611904,0.0010937809367758532,-9.169731402251142e-05,-0.0008868785600487811,-0.00034595817994451615,0.00036613812453504646,0.00031755147361879507,-0.000585397094276504,0.0,0.0,0.0,0.0,0.0,0.0,0.0,0.00023730590678097685,-8.681193525150732e-05,-4.42324666940358e-05,0.00025610455294944323,4.298640349228999e-05,4.056294759191559e-06,-3.051758477146116e-06,-0.0010937809367758532,9.169731402251142e-05,0.0008868785600487811,0.00034595817994451615,-0.00036613812453504646,-0.00031755147361879507,0.000585397094276504,0.22445029020309448,11.774744033813477,-1.2156097888946533,-21.792634963989258,-0.4214377999305725,-2.5207552909851074,0.20724813640117645,0
40,0.1949601173400879,-0.22445029020309448,-11.774744033813477,1.2156097888946533,21.792634963989258,0.4214377999305725,2.5207552909851074,-0.20724813640117645,0.0,0.0,0.0,0.0,0.0,0.0,0.0,-0.18574075136132936,0.5413705661515459,-0.008722249661937125,0.4891726295098892,-0.1020462825097021,0.12868329532234535,-0.2279130904895207,0.17264293171230113,-0.48743343489630175,-0.11142686826226733,-1.94663629090158,0.1335629155040034,2.595546303484175,0.9452476107196676,0.1728802376190821,-0.48752024683155326,-0.11147110072896137,-1.9463801863486305,0.1336059019074957,2.595550359778934,0.9452445589611904,0.0010937809367758532,-9.169731402251142e-05,-0.0008868785600487811,-0.00034595817994451615,0.00036613812453504646,0.00031755147361879507,-0.000585397094276504,0.0,0.0,0.0,0.0,0.0,0.0,0.0,0.00023730590678097685,-8.681193525150732e-05,-4.42324666940358e-05,0.00025610455294944323,4.298640349228999e-05,4.056294759191559e-06,-3.051758477146116e-06,-0.0010937809367758532,9.169731402251142e-05,0.0008868785600487811,0.00034595817994451615,-0.00036613812453504646,-0.00031755147361879507,0.000585397094276504,0.22445029020309448,11.774744033813477,-1.2156097888946533,-21.792634963989258,-0.4214377999305725,-2.5207552909851074,0.20724813640117645,0
41,0.1999969482421875,-0.19667929410934448,-11.850122451782227,1.1680023670196533,21.792634963989258,0.4388328194618225,2.5207552909851074,-0.24112264811992645,0.0,0.0,0.0,0.0,0.0,0.0,0.0,-0.18689982521827092,0.5390705995403496,-0.00822673718034242,0.49158531306974124,-0.1022907175442366,0.12853058882652854,-0.22771732443122117,0.17264098287046997,-0.48742814518276006,-0.11142444310870757,-1.946635575645848,0.13356204567352928,2.595546303484175,0.945251374554303,0.1728802376190821,-0.48752024683155326,-0.11147110072896137,-1.9463801863486305,0.1336059019074957,2.595550359778934,0.9452445589611904,-0.00041866424974325344,0.0020191548078736213,0.00015958437285511372,-0.00014589085606091467,-0.00014994647236895851,0.00021161407419883376,0.0009538184520824464,0.0,0.0,0.0,0.0,0.0,0.0,0.0,0.0002392547486121388,-9.210164879319693e-05,-4.665762025379827e-05,0.0002553892972174676,4.3856233966410585e-05,4.056294759191559e-06,-6.8155931125524205e-06,0.00041866424974325344,-0.0020191548078736213,-0.00015958437285511372,0.00014589085606091467,0.00014994647236895851,-0.00021161407419883376,-0.0009538184520824464,0.19667929410934448,11.850122451782227,-1.1680023670196533,-21.792634963989258,-0.4388328194618225,-2.5207552909851074,0.24112264811992645,0
42,0.20499634742736816,-0.19667929410934448,-11.850122451782227,1.1680023670196533,21.792634963989258,0.4388328194618225,2.5207552909851074,-0.24112264811992645,0.0,0.0,0.0,0.0,0.0,0.0,0.0,-0.18689982521827092,0.5390705995403496,-0.00822673718034242,0.49158531306974124,-0.1022907175442366,0.12853058882652854,-0.22771732443122117,0.17264098287046997,-0.48742814518276006,-0.11142444310870757,-1.946635575645848,0.13356204567352928,2.595546303484175,0.945251374554303,0.1728802376190821,-0.48752024683155326,-0.11147110072896137,-1.9463801863486305,0.1336059019074957,2.595550359778934,0.9452445589611904,-0.00041866424974325344,0.0020191548078736213,0.00015958437285511372,-0.00014589085606091467,-0.00014994647236895851,0.00021161407419883376,0.0009538184520824464,0.0,0.0,0.0,0.0,0.0,0.0,0.0,0.0002392547486121388,-9.210164879319693e-05,-4.665762025379827e-05,0.0002553892972174676,4.3856233966410585e-05,4.056294759191559e-06,-6.8155931125524205e-06,0.00041866424974325344,-0.0020191548078736213,-0.00015958437285511372,0.00014589085606091467,0.00014994647236895851,-0.00021161407419883376,-0.0009538184520824464,0.19667929410934448,11.850122451782227,-1.1680023670196533,-21.792634963989258,-0.4388328194618225,-2.5207552909851074,0.24112264811992645,0
43,0.21000027656555176,-0.17287558317184448,-11.774744033813477,1.1680023670196533,21.816438674926758,0.4388328194618225,2.5271639823913574,-0.17337362468242645,0.0,0.0,0.0,0.0,0.0,0.0,0.0,-0.18391081955935304,0.5333004299702244,-0.0016732389691259547,0.49400538260709675,-0.1024426772150486,0.1283044555773413,-0.2272792717443927,0.17263931243461472,-0.4874331986853021,-0.11142344545452433,-1.9466379613334033,0.1335609958528645,2.595545591407352,0.9452438468850322,0.1728802376190821,-0.48752024683155326,-0.11147110072896137,-1.9463801863486305,0.1336059019074957,2.595550359778934,0.9452445589611904,-0.0001387916392568832,-0.0009394765882179611,-0.0001742539292307078,-0.0008990130256795477,-0.0003560001217012164,0.00014350961551827055,-0.0016666035519829067,0.0,0.0,0.0,0.0,0.0,0.0,0.0,0.00024092518446738875,-8.704814625115631e-05,-4.765527443703621e-05,0.00025777498477275174,4.490605463119968e-05,4.76837158203125e-06,7.120761582601887e-07,0.0001387916392568832,0.0009394765882179611,0.0001742539292307078,0.0008990130256795477,0.0003560001217012164,-0.00014350961551827055,0.0016666035519829067,0.17287558317184448,11.774744033813477,-1.1680023670196533,-21.816438674926758,-0.4388328194618225,-2.5271639823913574,0.17337362468242645,0
44,0.2149951457977295,-0.17287558317184448,-11.774744033813477,1.1680023670196533,21.816438674926758,0.4388328194618225,2.5271639823913574,-0.17337362468242645,0.0,0.0,0.0,0.0,0.0,0.0,0.0,-0.18391081955935304,0.5333004299702244,-0.0016732389691259547,0.49400538260709675,-0.1024426772150486,0.1283044555773413,-0.2272792717443927,0.17263931243461472,-0.4874331986853021,-0.11142344545452433,-1.9466379613334033,0.1335609958528645,2.595545591407352,0.9452438468850322,0.1728802376190821,-0.48752024683155326,-0.11147110072896137,-1.9463801863486305,0.1336059019074957,2.595550359778934,0.9452445589611904,-0.0001387916392568832,-0.0009394765882179611,-0.0001742539292307078,-0.0008990130256795477,-0.0003560001217012164,0.00014350961551827055,-0.0016666035519829067,0.0,0.0,0.0,0.0,0.0,0.0,0.0,0.00024092518446738875,-8.704814625115631e-05,-4.765527443703621e-05,0.00025777498477275174,4.490605463119968e-05,4.76837158203125e-06,7.120761582601887e-07,0.0001387916392568832,0.0009394765882179611,0.0001742539292307078,0.0008990130256795477,0.0003560001217012164,-0.00014350961551827055,0.0016666035519829067,0.17287558317184448,11.774744033813477,-1.1680023670196533,-21.816438674926758,-0.4388328194618225,-2.5271639823913574,0.17337362468242645,0
45,0.21999621391296387,-0.17287558317184448,-11.774744033813477,1.1918060779571533,21.741060256958008,0.4388328194618225,2.5335726737976074,-0.22830526530742645,0.0,0.0,0.0,0.0,0.0,0.0,0.0,-0.18386861349928568,0.5380282196691155,-0.005122798745260384,0.49074295851199723,-0.10265503477826053,0.1281833916842743,-0.22635523856072376,0.17263931243461472,-0.4874334348949683,-0.11142816423432145,-1.946632671623899,0.1335609827241049,2.595544879330529,0.9452499504006571,0.1728802376190821,-0.48752024683155326,-0.11147110072896137,-1.9463801863486305,0.1336059019074957,2.595550359778934,0.9452445589611904,-0.0008040827234662495,-0.0007664017573755116,0.00022941286011465934,0.001244142509675025,-0.0005103922280296892,-1.5705962676113863e-05,0.00010928825129011423,0.0,0.0,0.0,0.0,0.0,0.0,0.0,0.00024092518446738875,-8.681193658494069e-05,-4.2936494639919665e-05,0.0002524852752685547,4.491918339077916e-05,5.480448404870941e-06,-5.3914394666509935e-06,0.0008040827234662495,0.0007664017573755116,-0.00022941286011465934,-0.001244142509675025,0.0005103922280296892,1.5705962676113863e-05,-0.00010928825129011423,0.17287558317184448,11.774744033813477,-1.1918060779571533,-21.741060256958008,-0.4388328194618225,-2.5335726737976074,0.22830526530742645,0
46,0.22499632835388184,-0.17287558317184448,-11.774744033813477,1.1918060779571533,21.741060256958008,0.4388328194618225,2.5335726737976074,-0.22830526530742645,0.0,0.0,0.0,0.0,0.0,0.0,0.0,-0.18386861349928568,0.5380282196691155,-0.005122798745260384,0.49074295851199723,-0.10265503477826053,0.1281833916842743,-0.22635523856072376,0.17263931243461472,-0.4874334348949683,-0.11142816423432145,-1.946632671623899,0.1335609827241049,2.595544879330529,0.9452499504006571,0.1728802376190821,-0.48752024683155326,-0.11147110072896137,-1.9463801863486305,0.1336059019074957,2.595550359778934,0.9452445589611904,-0.0008040827234662495,-0.0007664017573755116,0.00022941286011465934,0.001244142509675025,-0.0005103922280296892,-1.5705962676113863e-05,0.00010928825129011423,0.0,0.0,0.0,0.0,0.0,0.0,0.0,0.00024092518446738875,-8.681193658494069e-05,-4.2936494639919665e-05,0.0002524852752685547,4.491918339077916e-05,5.480448404870941e-06,-5.3914394666509935e-06,0.0008040827234662495,0.0007664017573755116,-0.00022941286011465934,-0.001244142509675025,0.0005103922280296892,1.5705962676113863e-05,-0.00010928825129011423,0.17287558317184448,11.774744033813477,-1.1918060779571533,-21.741060256958008,-0.4388328194618225,-2.5335726737976074,0.22830526530742645,0
47,0.2299938201904297,-0.17287558317184448,-11.774744033813477,1.1918060779571533,21.768831253051758,0.4388328194618225,2.5335726737976074,-0.24112264811992645,0.0,0.0,0.0,0.0,0.0,0.0,0.0,-0.1916203516289428,0.5429078158120668,-0.012362352720302266,0.4884144108367908,-0.10226051553613094,0.12825115832825906,-0.22584433010852017,0.17263931243461472,-0.48743343489630175,-0.11142611320128543,-1.9466324746985182,0.13356432904652604,2.595544879330529,0.945251374554303,0.1728802376190821,-0.48752024683155326,-0.11147110072896137,-1.9463801863486305,0.1336059019074957,2.595550359778934,0.9452445589611904,-0.0006901959980493756,-0.0003715015083681233,-0.00013172039831318156,0.0005541969756313171,-0.00018957944676263814,-0.00025194308333734513,0.0014656398637863497,0.0,0.0,0.0,0.0,0.0,0.0,0.0,0.00024092518446738875,-8.681193525150732e-05,-4.498752767594094e-05,0.0002522883498876638,4.157286096964641e-05,5.480448404870941e-06,-6.8155931125524205e-06,0.0006901959980493756,0.0003715015083681233,0.00013172039831318156,-0.0005541969756313171,0.00018957944676263814,0.00025194308333734513,-0.0014656398637863497,0.17287558317184448,11.774744033813477,-1.1918060779571533,-21.768831253051758,-0.4388328194618225,-2.5335726737976074,0.24112264811992645,0
48,0.23499703407287598,-0.17287558317184448,-11.774744033813477,1.1918060779571533,21.768831253051758,0.4388328194618225,2.5335726737976074,-0.24112264811992645,0.0,0.0,0.0,0.0,0.0,0.0,0.0,-0.1916203516289428,0.5429078158120668,-0.012362352720302266,0.4884144108367908,-0.10226051553613094,0.12825115832825906,-0.22584433010852017,0.17263931243461472,-0.48743343489630175,-0.11142611320128543,-1.9466324746985182,0.13356432904652604,2.595544879330529,0.945251374554303,0.1728802376190821,-0.48752024683155326,-0.11147110072896137,-1.9463801863486305,0.1336059019074957,2.595550359778934,0.9452445589611904,-0.0006901959980493756,-0.0003715015083681233,-0.00013172039831318156,0.0005541969756313171,-0.00018957944676263814,-0.00025194308333734513,0.0014656398637863497,0.0,0.0,0.0,0.0,0.0,0.0,0.0,0.00024092518446738875,-8.681193525150732e-05,-4.498752767594094e-05,0.0002522883498876638,4.157286096964641e-05,5.480448404870941e-06,-6.8155931125524205e-06,0.0006901959980493756,0.0003715015083681233,0.00013172039831318156,-0.0005541969756313171,0.00018957944676263814,0.00025194308333734513,-0.0014656398637863497,0.17287558317184448,11.774744033813477,-1.1918060779571533,-21.768831253051758,-0.4388328194618225,-2.5335726737976074,0.24112264811992645,0
49,0.2400038242340088,-0.17287558317184448,-11.774744033813477,1.1918060779571533,21.768831253051758,0.4388328194618225,2.5335726737976074,-0.24112264811992645,0.0,0.0,0.0,0.0,0.0,0.0,0.0,-0.1916203516289428,0.5429078158120668,-0.012362352720302266,0.4884144108367908,-0.10226051553613094,0.12825115832825906,-0.22584433010852017,0.17263931243461472,-0.48743343489630175,-0.11142611320128543,-1.9466324746985182,0.13356432904652604,2.595544879330529,0.945251374554303,0.1728802376190821,-0.48752024683155326,-0.11147110072896137,-1.9463801863486305,0.1336059019074957,2.595550359778934,0.9452445589611904,-0.0006901959980493756,-0.0003715015083681233,-0.00013172039831318156,0.0005541969756313171,-0.00018957944676263814,-0.00025194308333734513,0.0014656398637863497,0.0,0.0,0.0,0.0,0.0,0.0,0.0,0.00024092518446738875,-8.681193525150732e-05,-4.498752767594094e-05,0.0002522883498876638,4.157286096964641e-05,5.480448404870941e-06,-6.8155931125524205e-06,0.0006901959980493756,0.0003715015083681233,0.00013172039831318156,-0.0005541969756313171,0.00018957944676263814,0.00025194308333734513,-0.0014656398637863497,0.17287558317184448,11.774744033813477,-1.1918060779571533,-21.768831253051758,-0.4388328194618225,-2.5335726737976074,0.24112264811992645,0
50,0.2450251579284668,-0.17287558317184448,-11.774744033813477,1.1918060779571533,21.768831253051758,0.4388328194618225,2.5335726737976074,-0.24112264811992645,0.0,0.0,0.0,0.0,0.0,0.0,0.0,-0.1916203516289428,0.5429078158120668,-0.012362352720302266,0.4884144108367908,-0.10226051553613094,0.12825115832825906,-0.22584433010852017,0.17263931243461472,-0.48743343489630175,-0.11142611320128543,-1.9466324746985182,0.13356432904652604,2.595544879330529,0.945251374554303,0.1728802376190821,-0.48752024683155326,-0.11147110072896137,-1.9463801863486305,0.1336059019074957,2.595550359778934,0.9452445589611904,-0.0006901959980493756,-0.0003715015083681233,-0.00013172039831318156,0.0005541969756313171,-0.00018957944676263814,-0.00025194308333734513,0.0014656398637863497,0.0,0.0,0.0,0.0,0.0,0.0,0.0,0.00024092518446738875,-8.681193525150732e-05,-4.498752767594094e-05,0.0002522883498876638,4.157286096964641e-05,5.480448404870941e-06,-6.8155931125524205e-06,0.0006901959980493756,0.0003715015083681233,0.00013172039831318156,-0.0005541969756313171,0.00018957944676263814,0.00025194308333734513,-0.0014656398637863497,0.17287558317184448,11.774744033813477,-1.1918060779571533,-21.768831253051758,-0.4388328194618225,-2.5335726737976074,0.24112264811992645,0
51,0.2499985694885254,-0.14510458707809448,-11.774744033813477,1.2156097888946533,21.816438674926758,0.4388328194618225,2.5271639823913574,-0.18710653483867645,0.0,0.0,0.0,0.0,0.0,0.0,0.0,-0.18520855625513563,0.5400023626439715,-0.00296130158906182,0.4891302076638863,-0.10180539266130545,0.1274775676319173,-0.22683102181668505,0.1726373635927836,-0.48743343489630175,-0.1114268661072991,-1.946637878909029,0.13356098711719866,2.595545591407352,0.9452453727639384,0.1728802376190821,-0.48752024683155326,-0.11147110072896137,-1.9463801863486305,0.1336059019074957,2.595550359778934,0.9452445589611904,-0.0003795126607806012,-0.0004134321370909332,-0.0005178249575717855,-0.001068083735143318,-0.00018474902903256837,-3.256198569824154e-05,-0.001322023452413895,0.0,0.0,0.0,0.0,0.0,0.0,0.0,0.00024287402629852295,-8.681193525150732e-05,-4.423462166226744e-05,0.00025769256039853694,4.491479029702927e-05,4.76837158203125e-06,-8.138027479676069e-07,0.0003795126607806012,0.0004134321370909332,0.0005178249575717855,0.001068083735143318,0.00018474902903256837,3.256198569824154e-05,0.001322023452413895,0.14510458707809448,11.774744033813477,-1.2156097888946533,-21.816438674926758,-0.4388328194618225,-2.5271639823913574,0.18710653483867645,0
52,0.25499987602233887,-0.14510458707809448,-11.774744033813477,1.2156097888946533,21.816438674926758,0.4388328194618225,2.5271639823913574,-0.18710653483867645,0.0,0.0,0.0,0.0,0.0,0.0,0.0,-0.18520855625513563,0.5400023626439715,-0.00296130158906182,0.4891302076638863,-0.10180539266130545,0.1274775676319173,-0.22683102181668505,0.1726373635927836,-0.48743343489630175,-0.1114268661072991,-1.946637878909029,0.13356098711719866,2.595545591407352,0.9452453727639384,0.1728802376190821,-0.48752024683155326,-0.11147110072896137,-1.9463801863486305,0.1336059019074957,2.595550359778934,0.9452445589611904,-0.0003795126607806012,-0.0004134321370909332,-0.0005178249575717855,-0.001068083735143318,-0.00018474902903256837,-3.256198569824154e-05,-0.001322023452413895,0.0,0.0,0.0,0.0,0.0,0.0,0.0,0.00024287402629852295,-8.681193525150732e-05,-4.423462166226744e-05,0.00025769256039853694,4.491479029702927e-05,4.76837158203125e-06,-8.138027479676069e-07,0.0003795126607806012,0.0004134321370909332,0.0005178249575717855,0.001068083735143318,0.00018474902903256837,3.256198569824154e-05,0.001322023452413895,0.14510458707809448,11.774744033813477,-1.2156097888946533,-21.816438674926758,-0.4388328194618225,-2.5271639823913574,0.18710653483867645,0
53,0.26000380516052246,-0.19667929410934448,-11.750940322875977,1.1680023670196533,21.768831253051758,0.4333396553993225,2.5271639823913574,-0.24844686686992645,0.0,0.0,0.0,0.0,0.0,0.0,0.0,-0.18920826573899827,0.5411492272451661,-0.014044896090336942,0.49095616730981734,-0.10126189687574694,0.12770980185200567,-0.22926123416120744,0.17264098287046997,-0.487435105332157,-0.11142373411567355,-1.946634620465265,0.1335615932376284,2.595545591407352,0.9452521883563862,0.1728802376190821,-0.48752024683155326,-0.11147110072896137,-1.9463801863486305,0.1336059019074957,2.595550359778934,0.9452445589611904,0.00013519654989489006,-0.0005770704346707023,0.0003079644919305693,0.00047219490554806936,-8.245110619493951e-05,7.130274269132939e-05,0.0016886784944012121,0.0,0.0,0.0,0.0,0.0,0.0,0.0,0.0002392547486121388,-8.514149939625737e-05,-4.736661328781644e-05,0.0002544341166343944,4.4308669867293426e-05,4.76837158203125e-06,-7.629395195829503e-06,-0.00013519654989489006,0.0005770704346707023,-0.0003079644919305693,-0.00047219490554806936,8.245110619493951e-05,-7.130274269132939e-05,-0.0016886784944012121,0.19667929410934448,11.750940322875977,-1.1680023670196533,-21.768831253051758,-0.4333396553993225,-2.5271639823913574,0.24844686686992645,0
54,0.2650008201599121,-0.19667929410934448,-11.750940322875977,1.1680023670196533,21.768831253051758,0.4333396553993225,2.5271639823913574,-0.24844686686992645,0.0,0.0,0.0,0.0,0.0,0.0,0.0,-0.18920826573899827,0.5411492272451661,-0.014044896090336942,0.49095616730981734,-0.10126189687574694,0.12770980185200567,-0.22926123416120744,0.17264098287046997,-0.487435105332157,-0.11142373411567355,-1.946634620465265,0.1335615932376284,2.595545591407352,0.9452521883563862,0.1728802376190821,-0.48752024683155326,-0.11147110072896137,-1.9463801863486305,0.1336059019074957,2.595550359778934,0.9452445589611904,0.00013519654989489006,-0.0005770704346707023,0.0003079644919305693,0.00047219490554806936,-8.245110619493951e-05,7.130274269132939e-05,0.0016886784944012121,0.0,0.0,0.0,0.0,0.0,0.0,0.0,0.0002392547486121388,-8.514149939625737e-05,-4.736661328781644e-05,0.0002544341166343944,4.4308669867293426e-05,4.76837158203125e-06,-7.629395195829503e-06,-0.00013519654989489006,0.0005770704346707023,-0.0003079644919305693,-0.00047219490554806936,8.245110619493951e-05,-7.130274269132939e-05,-0.0016886784944012121,0.19667929410934448,11.750940322875977,-1.1680023670196533,-21.768831253051758,-0.4333396553993225,-2.5271639823913574,0.24844686686992645,0
55,0.26999688148498535,-0.19667929410934448,-11.826318740844727,1.1918060779571533,21.792634963989258,0.4333396553993225,2.5207552909851074,-0.22098104655742645,0.0,0.0,0.0,0.0,0.0,0.0,0.0,-0.18482500855125564,0.5345796324956777,-0.004945546670211673,0.4962886731149272,-0.10168853166606784,0.1281924166015993,-0.23069134375127065,0.17264098287046997,-0.48742981561861537,-0.11142543091719694,-1.9466362909015853,0.13356159309359475,2.595546303484175,0.9452491365985738,0.1728802376190821,-0.48752024683155326,-0.11147110072896137,-1.9463801863486305,0.1336059019074957,2.595550359778934,0.9452445589611904,-0.00010322645098956923,0.0007874875857246489,0.0002499068604317397,-0.0002038665694287475,-0.00012154348751787104,0.00038330754575218064,0.00033736752104550333,0.0,0.0,0.0,0.0,0.0,0.0,0.0,0.0002392547486121388,-9.043121293789147e-05,-4.5669811764431634e-05,0.0002561045529547723,4.430881390093955e-05,4.056294759191559e-06,-4.5776373833739115e-06,0.00010322645098956923,-0.0007874875857246489,-0.0002499068604317397,0.0002038665694287475,0.00012154348751787104,-0.00038330754575218064,-0.00033736752104550333,0.19667929410934448,11.826318740844727,-1.1918060779571533,-21.792634963989258,-0.4333396553993225,-2.5207552909851074,0.22098104655742645,0
56,0.27499914169311523,-0.19667929410934448,-11.826318740844727,1.1918060779571533,21.792634963989258,0.4333396553993225,2.5207552909851074,-0.22098104655742645,0.0,0.0,0.0,0.0,0.0,0.0,0.0,-0.18482500855125564,0.5345796324956777,-0.004945546670211673,0.4962886731149272,-0.10168853166606784,0.1281924166015993,-0.23069134375127065,0.17264098287046997,-0.48742981561861537,-0.11142543091719694,-1.9466362909015853,0.13356159309359475,2.595546303484175,0.9452491365985738,0.1728802376190821,-0.48752024683155326,-0.11147110072896137,-1.9463801863486305,0.1336059019074957,2.595550359778934,0.9452445589611904,-0.00010322645098956923,0.0007874875857246489,0.0002499068604317397,-0.0002038665694287475,-0.00012154348751787104,0.00038330754575218064,0.00033736752104550333,0.0,0.0,0.0,0.0,0.0,0.0,0.0,0.0002392547486121388,-9.043121293789147e-05,-4.5669811764431634e-05,0.0002561045529547723,4.430881390093955e-05,4.056294759191559e-06,-4.5776373833739115e-06,0.00010322645098956923,-0.0007874875857246489,-0.0002499068604317397,0.0002038665694287475,0.00012154348751787104,-0.00038330754575218064,-0.00033736752104550333,0.19667929410934448,11.826318740844727,-1.1918060779571533,-21.792634963989258,-0.4333396553993225,-2.5207552909851074,0.22098104655742645,0
57,0.28000307083129883,-0.14510458707809448,-11.850122451782227,1.2156097888946533,21.816438674926758,0.4214377999305725,2.5207552909851074,-0.17337362468242645,0.0,0.0,0.0,0.0,0.0,0.0,0.0,-0.18695804653108425,0.534836332992868,-0.0057519983165532996,0.49596858251168896,-0.10177968888821265,0.12774201802106788,-0.23150382501356495,0.1726373635927836,-0.48742814421069836,-0.11142676331692053,-1.9466379613374407,0.1335629155039788,2.595546303484175,0.9452438468850322,0.1728802376190821,-0.48752024683155326,-0.11147110072896137,-1.9463801863486305,0.1336059019074957,2.595550359778934,0.9452445589611904,-0.001130478399047747,0.0007720233178853544,-0.000739771928616638,-0.0006685340457414824,0.0004805108396399534,0.00046809514822995665,-0.0020361089533326503,0.0,0.0,0.0,0.0,0.0,0.0,0.0,0.00024287402629852295,-9.210262085490584e-05,-4.433741204083741e-05,0.0002577749888101888,4.298640351688143e-05,4.056294759191559e-06,7.120761582601887e-07,0.001130478399047747,-0.0007720233178853544,0.000739771928616638,0.0006685340457414824,-0.0004805108396399534,-0.00046809514822995665,0.0020361089533326503,0.14510458707809448,11.850122451782227,-1.2156097888946533,-21.816438674926758,-0.4214377999305725,-2.5207552909851074,0.17337362468242645,0
58,0.28499531745910645,-0.14510458707809448,-11.850122451782227,1.2156097888946533,21.816438674926758,0.4214377999305725,2.5207552909851074,-0.17337362468242645,0.0,0.0,0.0,0.0,0.0,0.0,0.0,-0.18695804653108425,0.534836332992868,-0.0057519983165532996,0.49596858251168896,-0.10177968888821265,0.12774201802106788,-0.23150382501356495,0.1726373635927836,-0.48742814421069836,-0.11142676331692053,-1.9466379613374407,0.1335629155039788,2.595546303484175,0.9452438468850322,0.1728802376190821,-0.48752024683155326,-0.11147110072896137,-1.9463801863486305,0.1336059019074957,2.595550359778934,0.9452445589611904,-0.001130478399047747,0.0007720233178853544,-0.000739771928616638,-0.0006685340457414824,0.0004805108396399534,0.00046809514822995665,-0.0020361089533326503,0.0,0.0,0.0,0.0,0.0,0.0,0.0,0.00024287402629852295,-9.210262085490584e-05,-4.433741204083741e-05,0.0002577749888101888,4.298640351688143e-05,4.056294759191559e-06,7.120761582601887e-07,0.001130478399047747,-0.0007720233178853544,0.000739771928616638,0.0006685340457414824,-0.0004805108396399534,-0.00046809514822995665,0.0020361089533326503,0.14510458707809448,11.850122451782227,-1.2156097888946533,-21.816438674926758,-0.4214377999305725,-2.5207552909851074,0.17337362468242645,0
59,0.28999853134155273,-0.19667929410934448,-11.750940322875977,1.1918060779571533,21.792634963989258,0.4214377999305725,2.5463900566101074,-0.23471395671367645,0.0,0.0,0.0,0.0,0.0,0.0,0.0,-0.18157635081442539,0.5401857903926262,0.00025888230283428656,0.49229631810691976,-0.10198922857289024,0.12737602864281825,-0.23070160478243296,0.17264098287046997,-0.4874351053321515,-0.11142582491364206,-1.946636264410632,0.13356291550397872,2.5955434551768835,0.94525066247748,0.1728802376190821,-0.48752024683155326,-0.11147110072896137,-1.9463801863486305,0.1336059019074957,2.595550359778934,0.9452445589611904,0.00014436025023480212,-0.0014029162165911033,0.0003359978029865233,0.00013695032713861413,0.00047941860514090067,-0.0006387886041190253,0.0006958297342222094,0.0,0.0,0.0,0.0,0.0,0.0,0.0,0.0002392547486121388,-8.514149940175297e-05,-4.5275815319309465e-05,0.00025607806200156347,4.29864035169647e-05,6.904602050550324e-06,-6.103516289601707e-06,-0.00014436025023480212,0.0014029162165911033,-0.0003359978029865233,-0.00013695032713861413,-0.00047941860514090067,0.0006387886041190253,-0.0006958297342222094,0.19667929410934448,11.750940322875977,-1.1918060779571533,-21.792634963989258,-0.4214377999305725,-2.5463900566101074,0.23471395671367645,0
60,0.2949979305267334,-0.19667929410934448,-11.750940322875977,1.1918060779571533,21.792634963989258,0.4214377999305725,2.5463900566101074,-0.23471395671367645,0.0,0.0,0.0,0.0,0.0,0.0,0.0,-0.18157635081442539,0.5401857903926262,0.00025888230283428656,0.49229631810691976,-0.10198922857289024,0.12737602864281825,-0.23070160478243296,0.17264098287046997,-0.4874351053321515,-0.11142582491364206,-1.946636264410632,0.13356291550397872,2.5955434551768835,0.94525066247748,0.1728802376190821,-0.48752024683155326,-0.11147110072896137,-1.9463801863486305,0.1336059019074957,2.595550359778934,0.9452445589611904,0.00014436025023480212,-0.0014029162165911033,0.0003359978029865233,0.00013695032713861413,0.00047941860514090067,-0.0006387886041190253,0.0006958297342222094,0.0,0.0,0.0,0.0,0.0,0.0,0.0,0.0002392547486121388,-8.514149940175297e-05,-4.5275815319309465e-05,0.00025607806200156347,4.29864035169647e-05,6.904602050550324e-06,-6.103516289601707e-06,-0.00014436025023480212,0.0014029162165911033,-0.0003359978029865233,-0.00013695032713861413,-0.00047941860514090067,0.0006387886041190253,-0.0006958297342222094,0.19667929410934448,11.750940322875977,-1.1918060779571533,-21.792634963989258,-0.4214377999305725,-2.5463900566101074,0.23471395671367645,0
61,0.29999518394470215,-0.17287558317184448,-11.774744033813477,1.1918060779571533,21.792634963989258,0.4269309639930725,2.5271639823913574,-0.24844686686992645,0.0,0.0,0.0,0.0,0.0,0.0,0.0,-0.18207930987764986,0.5496186826997146,-0.000826279899154878,0.4866522611205298,-0.10173810799210646,0.12777891777714062,-0.22819130841058416,0.17263931243461472,-0.48743343489630175,-0.11142580731265646,-1.946636208485137,0.13356231973334212,2.595545591407352,0.9452521883563862,0.1728802376190821,-0.48752024683155326,-0.11147110072896137,-1.9463801863486305,0.1336059019074957,2.595550359778934,0.9452445589611904,0.0003794116734602771,-8.53794068543658e-05,-0.00010872137078857944,-0.0003760085617161044,0.00013152036816201977,0.00033715100783302893,1.7576090637727408e-06,0.0,0.0,0.0,0.0,0.0,0.0,0.0,0.00024092518446738875,-8.681193525150732e-05,-4.529341630490902e-05,0.0002560221365064397,4.358217415356691e-05,4.76837158203125e-06,-7.629395195829503e-06,-0.0003794116734602771,8.53794068543658e-05,0.00010872137078857944,0.0003760085617161044,-0.00013152036816201977,-0.00033715100783302893,-1.7576090637727408e-06,0.17287558317184448,11.774744033813477,-1.1918060779571533,-21.792634963989258,-0.4269309639930725,-2.5271639823913574,0.24844686686992645,0
62,0.3049931526184082,-0.17287558317184448,-11.774744033813477,1.1918060779571533,21.792634963989258,0.4269309639930725,2.5271639823913574,-0.24844686686992645,0.0,0.0,0.0,0.0,0.0,0.0,0.0,-0.18207930987764986,0.5496186826997146,-0.000826279899154878,0.4866522611205298,-0.10173810799210646,0.12777891777714062,-0.22819130841058416,0.17263931243461472,-0.48743343489630175,-0.11142580731265646,-1.946636208485137,0.13356231973334212,2.595545591407352,0.9452521883563862,0.1728802376190821,-0.48752024683155326,-0.11147110072896137,-1.9463801863486305,0.1336059019074957,2.595550359778934,0.9452445589611904,0.0003794116734602771,-8.53794068543658e-05,-0.00010872137078857944,-0.0003760085617161044,0.00013152036816201977,0.00033715100783302893,1.7576090637727408e-06,0.0,0.0,0.0,0.0,0.0,0.0,0.0,0.00024092518446738875,-8.681193525150732e-05,-4.529341630490902e-05,0.0002560221365064397,4.358217415356691e-05,4.76837158203125e-06,-7.629395195829503e-06,-0.0003794116734602771,8.53794068543658e-05,0.00010872137078857944,0.0003760085617161044,-0.00013152036816201977,-0.00033715100783302893,-1.7576090637727408e-06,0.17287558317184448,11.774744033813477,-1.1918060779571533,-21.792634963989258,-0.4269309639930725,-2.5271639823913574,0.24844686686992645,0
63,0.30999326705932617,-0.19667929410934448,-11.727136611938477,1.1918060779571533,21.792634963989258,0.4388328194618225,2.5335726737976074,-0.18710653483867645,0.0,0.0,0.0,0.0,0.0,0.0,0.0,-0.1822382242598869,0.5344422330469075,-0.0008069759819906308,0.498004952430478,-0.1024729046119521,0.13032080362890236,-0.22629415723291327,0.17264098287046997,-0.48743677576801225,-0.11142590354666808,-1.9466362909011201,0.13356102355070562,2.595544879330529,0.9452453727639384,0.1728802376190821,-0.48752024683155326,-0.11147110072896137,-1.9463801863486305,0.1336059019074957,2.595550359778934,0.9452445589611904,0.0002785160113103914,-0.0011790061198648483,0.0002964657030085109,1.5511819995764196e-05,-0.0002529089254619987,-0.00033392937596653276,-0.0012682113099334034,0.0,0.0,0.0,0.0,0.0,0.0,0.0,0.0002392547486121388,-8.347106354100742e-05,-4.5197182293288396e-05,0.00025610455248958885,4.487835679006791e-05,5.480448404870941e-06,-8.138027479676069e-07,-0.0002785160113103914,0.0011790061198648483,-0.0002964657030085109,-1.5511819995764196e-05,0.0002529089254619987,0.00033392937596653276,0.0012682113099334034,0.19667929410934448,11.727136611938477,-1.1918060779571533,-21.792634963989258,-0.4388328194618225,-2.5335726737976074,0.18710653483867645,0
64,0.31499743461608887,-0.19667929410934448,-11.727136611938477,1.1918060779571533,21.792634963989258,0.4388328194618225,2.5335726737976074,-0.18710653483867645,0.0,0.0,0.0,0.0,0.0,0.0,0.0,-0.1822382242598869,0.5344422330469075,-0.0008069759819906308,0.498004952430478,-0.1024729046119521,0.13032080362890236,-0.22629415723291327,0.17264098287046997,-0.48743677576801225,-0.11142590354666808,-1.9466362909011201,0.13356102355070562,2.595544879330529,0.9452453727639384,0.1728802376190821,-0.48752024683155326,-0.11147110072896137,-1.9463801863486305,0.1336059019074957,2.595550359778934,0.9452445589611904,0.0002785160113103914,-0.0011790061198648483,0.0002964657030085109,1.5511819995764196e-05,-0.0002529089254619987,-0.00033392937596653276,-0.0012682113099334034,0.0,0.0,0.0,0.0,0.0,0.0,0.0,0.0002392547486121388,-8.347106354100742e-05,-4.5197182293288396e-05,0.00025610455248958885,4.487835679006791e-05,5.480448404870941e-06,-8.138027479676069e-07,-0.0002785160113103914,0.0011790061198648483,-0.0002964657030085109,-1.5511819995764196e-05,0.0002529089254619987,0.00033392937596653276,0.0012682113099334034,0.19667929410934448,11.727136611938477,-1.1918060779571533,-21.792634963989258,-0.4388328194618225,-2.5335726737976074,0.18710653483867645,0
65,0.32002782821655273,-0.17287558317184448,-11.750940322875977,1.1680023670196533,21.792634963989258,0.4388328194618225,2.5207552909851074,-0.24112264811992645,0.0,0.0,0.0,0.0,0.0,0.0,0.0,-0.1891193388578855,0.5427830138189945,-0.006714816173796787,0.49518152719252195,-0.10247880378949975,0.1294800691649072,-0.22554333281866232,0.17263931243461472,-0.487435105332157,-0.11142557131633359,-1.946635575645848,0.13356145514626058,2.595546303484175,0.945251374554303,0.1728802376190821,-0.48752024683155326,-0.11147110072896137,-1.9463801863486305,0.1336059019074957,2.595550359778934,0.9452445589611904,-0.0009633578672894887,-0.000566312274248574,0.0002717389715062593,-0.00016103955251899762,-0.00038374572307545856,0.0002675210711081388,0.001165265998330453,0.0,0.0,0.0,0.0,0.0,0.0,0.0,0.00024092518446738875,-8.514149939625737e-05,-4.552941262778165e-05,0.0002553892972174676,4.444676123510627e-05,4.056294759191559e-06,-6.8155931125524205e-06,0.0009633578672894887,0.000566312274248574,-0.0002717389715062593,0.00016103955251899762,0.00038374572307545856,-0.0002675210711081388,-0.001165265998330453,0.17287558317184448,11.750940322875977,-1.1680023670196533,-21.792634963989258,-0.4388328194618225,-2.5207552909851074,0.24112264811992645,0
66,0.32495808601379395,-0.17287558317184448,-11.750940322875977,1.1680023670196533,21.792634963989258,0.4388328194618225,2.5207552909851074,-0.24112264811992645,0.0,0.0,0.0,0.0,0.0,0.0,0.0,-0.1891193388578855,0.5427830138189945,-0.006714816173796787,0.49518152719252195,-0.10247880378949975,0.1294800691649072,-0.22554333281866232,0.17263931243461472,-0.487435105332157,-0.11142557131633359,-1.946635575645848,0.13356145514626058,2.595546303484175,0.945251374554303,0.1728802376190821,-0.48752024683155326,-0.11147110072896137,-1.9463801863486305,0.1336059019074957,2.595550359778934,0.9452445589611904,-0.0009633578672894887,-0.000566312274248574,0.0002717389715062593,-0.00016103955251899762,-0.00038374572307545856,0.0002675210711081388,0.001165265998330453,0.0,0.0,0.0,0.0,0.0,0.0,0.0,0.00024092518446738875,-8.514149939625737e-05,-4.552941262778165e-05,0.0002553892972174676,4.444676123510627e-05,4.056294759191559e-06,-6.8155931125524205e-06,0.0009633578672894887,0.000566312274248574,-0.0002717389715062593,0.00016103955251899762,0.00038374572307545856,-0.0002675210711081388,-0.001165265998330453,0.17287558317184448,11.750940322875977,-1.1680023670196533,-21.792634963989258,-0.4388328194618225,-2.5207552909851074,0.24112264811992645,0
67,0.331409215927124,-0.17287558317184448,-11.826318740844727,1.1918060779571533,21.816438674926758,0.4333396553993225,2.5335726737976074,-0.18710653483867645,0.0,0.0,0.0,0.0,0.0,0.0,0.0,-0.18530668262978328,0.5423290523180215,0.0033621163868707846,0.4966017524233256,-0.10315260871618769,0.12916795660388306,-0.22546145296483178,0.17263931243461472,-0.4874298068700598,-0.11142745273314011,-1.9466379613334033,0.13356171118375998,2.595544879330529,0.9452453727639384,0.1728802376190821,-0.48752024683155326,-0.11147110072896137,-1.9463801863486305,0.1336059019074957,2.595550359778934,0.9452445589611904,-0.0004164524450257988,0.0008614529906761763,0.00024935941354028643,-0.0004922229241757051,-8.980389269736786e-05,-0.0002577009435123426,-0.0011820315889508558,0.0,0.0,0.0,0.0,0.0,0.0,0.0,0.00024092518446738875,-9.043996149343814e-05,-4.364799582125267e-05,0.00025777498477275174,4.419072373570976e-05,5.480448404870941e-06,-8.138027479676069e-07,0.0004164524450257988,-0.0008614529906761763,-0.00024935941354028643,0.0004922229241757051,8.980389269736786e-05,0.0002577009435123426,0.0011820315889508558,0.17287558317184448,11.826318740844727,-1.1918060779571533,-21.816438674926758,-0.4333396553993225,-2.5335726737976074,0.18710653483867645,0
68,0.3349907398223877,-0.17287558317184448,-11.826318740844727,1.1918060779571533,21.816438674926758,0.4333396553993225,2.5335726737976074,-0.18710653483867645,0.0,0.0,0.0,0.0,0.0,0.0,0.0,-0.18530668262978328,0.5423290523180215,0.0033621163868707846,0.4966017524233256,-0.10315260871618769,0.12916795660388306,-0.22546145296483178,0.17263931243461472,-0.4874298068700598,-0.11142745273314011,-1.9466379613334033,0.13356171118375998,2.595544879330529,0.9452453727639384,0.1728802376190821,-0.48752024683155326,-0.11147110072896137,-1.9463801863486305,0.1336059019074957,2.595550359778934,0.9452445589611904,-0.0004164524450257988,0.0008614529906761763,0.00024935941354028643,-0.0004922229241757051,-8.980389269736786e-05,-0.0002577009435123426,-0.0011820315889508558,0.0,0.0,0.0,0.0,0.0,0.0,0.0,0.00024092518446738875,-9.043996149343814e-05,-4.364799582125267e-05,0.00025777498477275174,4.419072373570976e-05,5.480448404870941e-06,-8.138027479676069e-07,0.0004164524450257988,-0.0008614529906761763,-0.00024935941354028643,0.0004922229241757051,8.980389269736786e-05,0.0002577009435123426,0.0011820315889508558,0.17287558317184448,11.826318740844727,-1.1918060779571533,-21.816438674926758,-0.4333396553993225,-2.5335726737976074,0.18710653483867645,0
69,0.33994102478027344,-0.19667929410934448,-11.802515029907227,1.1441986560821533,21.741060256958008,0.4214377999305725,2.5271639823913574,-0.18710653483867645,0.0,0.0,0.0,0.0,0.0,0.0,0.0,-0.18903684077517163,0.5430619674342462,-0.0036876188903929726,0.4927974820189913,-0.10290261426606077,0.12848970880439087,-0.22538924735126376,0.17264098287046997,-0.4874314860544212,-0.11142399226302586,-1.946632671623899,0.13356303506823786,2.595545591407352,0.9452453727639384,0.1728802376190821,-0.48752024683155326,-0.11147110072896137,-1.9463801863486305,0.1336059019074957,2.595550359778934,0.9452445589611904,-0.0003864502144300919,-0.0002597824153883573,0.001455955627990099,0.0007943515561954542,0.00033948789863841636,1.2986940836207912e-05,-0.0012223610818869139,0.0,0.0,0.0,0.0,0.0,0.0,0.0,0.0002392547486121388,-8.876077713204644e-05,-4.710846593550255e-05,0.0002524852752685547,4.286683925783241e-05,4.76837158203125e-06,-8.138027479676069e-07,0.0003864502144300919,0.0002597824153883573,-0.001455955627990099,-0.0007943515561954542,-0.00033948789863841636,-1.2986940836207912e-05,0.0012223610818869139,0.19667929410934448,11.802515029907227,-1.1441986560821533,-21.741060256958008,-0.4214377999305725,-2.5271639823913574,0.18710653483867645,0
70,0.345001220703125,-0.19667929410934448,-11.802515029907227,1.1441986560821533,21.741060256958008,0.4214377999305725,2.5271639823913574,-0.18710653483867645,0.0,0.0,0.0,0.0,0.0,0.0,0.0,-0.18903684077517163,0.5430619674342462,-0.0036876188903929726,0.4927974820189913,-0.10290261426606077,0.12848970880439087,-0.22538924735126376,0.17264098287046997,-0.4874314860544212,-0.11142399226302586,-1.946632671623899,0.13356303506823786,2.595545591407352,0.9452453727639384,0.1728802376190821,-0.48752024683155326,-0.11147110072896137,-1.9463801863486305,0.1336059019074957,2.595550359778934,0.9452445589611904,-0.0003864502144300919,-0.0002597824153883573,0.001455955627990099,0.0007943515561954542,0.00033948789863841636,1.2986940836207912e-05,-0.0012223610818869139,0.0,0.0,0.0,0.0,0.0,0.0,0.0,0.0002392547486121388,-8.876077713204644e-05,-4.710846593550255e-05,0.0002524852752685547,4.286683925783241e-05,4.76837158203125e-06,-8.138027479676069e-07,0.0003864502144300919,0.0002597824153883573,-0.001455955627990099,-0.0007943515561954542,-0.00033948789863841636,-1.2986940836207912e-05,0.0012223610818869139,0.19667929410934448,11.802515029907227,-1.1441986560821533,-21.741060256958008,-0.4214377999305725,-2.5271639823913574,0.18710653483867645,0
71,0.35000133514404297,-0.19667929410934448,-11.802515029907227,1.1441986560821533,21.741060256958008,0.4214377999305725,2.5271639823913574,-0.18710653483867645,0.0,0.0,0.0,0.0,0.0,0.0,0.0,-0.18903684077517163,0.5430619674342462,-0.0036876188903929726,0.4927974820189913,-0.10290261426606077,0.12848970880439087,-0.22538924735126376,0.17264098287046997,-0.4874314860544212,-0.11142399226302586,-1.946632671623899,0.13356303506823786,2.595545591407352,0.9452453727639384,0.1728802376190821,-0.48752024683155326,-0.11147110072896137,-1.9463801863486305,0.1336059019074957,2.595550359778934,0.9452445589611904,-0.0003864502144300919,-0.0002597824153883573,0.001455955627990099,0.0007943515561954542,0.00033948789863841636,1.2986940836207912e-05,-0.0012223610818869139,0.0,0.0,0.0,0.0,0.0,0.0,0.0,0.0002392547486121388,-8.876077713204644e-05,-4.710846593550255e-05,0.0002524852752685547,4.286683925783241e-05,4.76837158203125e-06,-8.138027479676069e-07,0.0003864502144300919,0.0002597824153883573,-0.001455955627990099,-0.0007943515561954542,-0.00033948789863841636,-1.2986940836207912e-05,0.0012223610818869139,0.19667929410934448,11.802515029907227,-1.1441986560821533,-21.741060256958008,-0.4214377999305725,-2.5271639823913574,0.18710653483867645,0
72,0.35504150390625,-0.19667929410934448,-11.802515029907227,1.1441986560821533,21.741060256958008,0.4214377999305725,2.5271639823913574,-0.18710653483867645,0.0,0.0,0.0,0.0,0.0,0.0,0.0,-0.18903684077517163,0.5430619674342462,-0.0036876188903929726,0.4927974820189913,-0.10290261426606077,0.12848970880439087,-0.22538924735126376,0.17264098287046997,-0.4874314860544212,-0.11142399226302586,-1.946632671623899,0.13356303506823786,2.595545591407352,0.9452453727639384,0.1728802376190821,-0.48752024683155326,-0.11147110072896137,-1.9463801863486305,0.1336059019074957,2.595550359778934,0.9452445589611904,-0.0003864502144300919,-0.0002597824153883573,0.001455955627990099,0.0007943515561954542,0.00033948789863841636,1.2986940836207912e-05,-0.0012223610818869139,0.0,0.0,0.0,0.0,0.0,0.0,0.0,0.0002392547486121388,-8.876077713204644e-05,-4.710846593550255e-05,0.0002524852752685547,4.286683925783241e-05,4.76837158203125e-06,-8.138027479676069e-07,0.0003864502144300919,0.0002597824153883573,-0.001455955627990099,-0.0007943515561954542,-0.00033948789863841636,-1.2986940836207912e-05,0.0012223610818869139,0.19667929410934448,11.802515029907227,-1.1441986560821533,-21.741060256958008,-0.4214377999305725,-2.5271639823913574,0.18710653483867645,0
73,0.3600442409515381,-0.19667929410934448,-11.802515029907227,1.1441986560821533,21.741060256958008,0.4214377999305725,2.5271639823913574,-0.18710653483867645,0.0,0.0,0.0,0.0,0.0,0.0,0.0,-0.18903684077517163,0.5430619674342462,-0.0036876188903929726,0.4927974820189913,-0.10290261426606077,0.12848970880439087,-0.22538924735126376,0.17264098287046997,-0.4874314860544212,-0.11142399226302586,-1.946632671623899,0.13356303506823786,2.595545591407352,0.9452453727639384,0.1728802376190821,-0.48752024683155326,-0.11147110072896137,-1.9463801863486305,0.1336059019074957,2.595550359778934,0.9452445589611904,-0.0003864502144300919,-0.0002597824153883573,0.001455955627990099,0.0007943515561954542,0.00033948789863841636,1.2986940836207912e-05,-0.0012223610818869139,0.0,0.0,0.0,0.0,0.0,0.0,0.0,0.0002392547486121388,-8.876077713204644e-05,-4.710846593550255e-05,0.0002524852752685547,4.286683925783241e-05,4.76837158203125e-06,-8.138027479676069e-07,0.0003864502144300919,0.0002597824153883573,-0.001455955627990099,-0.0007943515561954542,-0.00033948789863841636,-1.2986940836207912e-05,0.0012223610818869139,0.19667929410934448,11.802515029907227,-1.1441986560821533,-21.741060256958008,-0.4214377999305725,-2.5271639823913574,0.18710653483867645,0
74,0.3650338649749756,-0.19667929410934448,-11.802515029907227,1.1441986560821533,21.741060256958008,0.4214377999305725,2.5271639823913574,-0.18710653483867645,0.0,0.0,0.0,0.0,0.0,0.0,0.0,-0.18903684077517163,0.5430619674342462,-0.0036876188903929726,0.4927974820189913,-0.10290261426606077,0.12848970880439087,-0.22538924735126376,0.17264098287046997,-0.4874314860544212,-0.11142399226302586,-1.946632671623899,0.13356303506823786,2.595545591407352,0.9452453727639384,0.1728802376190821,-0.48752024683155326,-0.11147110072896137,-1.9463801863486305,0.1336059019074957,2.595550359778934,0.9452445589611904,-0.0003864502144300919,-0.0002597824153883573,0.001455955627990099,0.0007943515561954542,0.00033948789863841636,1.2986940836207912e-05,-0.0012223610818869139,0.0,0.0,0.0,0.0,0.0,0.0,0.0,0.0002392547486121388,-8.876077713204644e-05,-4.710846593550255e-05,0.0002524852752685547,4.286683925783241e-05,4.76837158203125e-06,-8.138027479676069e-07,0.0003864502144300919,0.0002597824153883573,-0.001455955627990099,-0.0007943515561954542,-0.00033948789863841636,-1.2986940836207912e-05,0.0012223610818869139,0.19667929410934448,11.802515029907227,-1.1441986560821533,-21.741060256958008,-0.4214377999305725,-2.5271639823913574,0.18710653483867645,0
75,0.3700234889984131,-0.19667929410934448,-11.802515029907227,1.1441986560821533,21.741060256958008,0.4214377999305725,2.5271639823913574,-0.18710653483867645,0.0,0.0,0.0,0.0,0.0,0.0,0.0,-0.18903684077517163,0.5430619674342462,-0.0036876188903929726,0.4927974820189913,-0.10290261426606077,0.12848970880439087,-0.22538924735126376,0.17264098287046997,-0.4874314860544212,-0.11142399226302586,-1.946632671623899,0.13356303506823786,2.595545591407352,0.9452453727639384,0.1728802376190821,-0.48752024683155326,-0.11147110072896137,-1.9463801863486305,0.1336059019074957,2.595550359778934,0.9452445589611904,-0.0003864502144300919,-0.0002597824153883573,0.001455955627990099,0.0007943515561954542,0.00033948789863841636,1.2986940836207912e-05,-0.0012223610818869139,0.0,0.0,0.0,0.0,0.0,0.0,0.0,0.0002392547486121388,-8.876077713204644e-05,-4.710846593550255e-05,0.0002524852752685547,4.286683925783241e-05,4.76837158203125e-06,-8.138027479676069e-07,0.0003864502144300919,0.0002597824153883573,-0.001455955627990099,-0.0007943515561954542,-0.00033948789863841636,-1.2986940836207912e-05,0.0012223610818869139,0.19667929410934448,11.802515029907227,-1.1441986560821533,-21.741060256958008,-0.4214377999305725,-2.5271639823913574,0.18710653483867645,0
76,0.3750040531158447,-0.19667929410934448,-11.802515029907227,1.1680023670196533,21.792634963989258,0.4214377999305725,2.5335726737976074,-0.23471395671367645,0.0,0.0,0.0,0.0,0.0,0.0,0.0,-0.18315306640050685,0.5421943345646962,0.0008194454242092208,0.4889968965509722,-0.10324858619365382,0.12830841369210372,-0.2245873138757123,0.1726409828704535,-0.4874314860544212,-0.11142368163752271,-1.9466362909015835,0.13356327419475597,2.595544879330529,0.94525066247748,0.1728802376190821,-0.48752024683155326,-0.11147110072896137,-1.9463801863486305,0.1336059019074957,2.595550359778934,0.9452445589611904,0.00048826229479203805,0.0007307183048029381,0.0008367812374990835,-8.263328227513479e-05,0.0004939275791692747,-0.0002528497679882039,0.0007529214069369771,0.0,0.0,0.0,0.0,0.0,0.0,0.0,0.00023925474862859786,-8.876077713204644e-05,-4.741909143865519e-05,0.00025610455295299595,4.262771273971788e-05,5.480448404870941e-06,-6.103516289601707e-06,-0.00048826229479203805,-0.0007307183048029381,-0.0008367812374990835,8.263328227513479e-05,-0.0004939275791692747,0.0002528497679882039,-0.0007529214069369771,0.19667929410934448,11.802515029907227,-1.1680023670196533,-21.792634963989258,-0.4214377999305725,-2.5335726737976074,0.23471395671367645,0
77,0.37999725341796875,-0.19667929410934448,-11.802515029907227,1.1680023670196533,21.792634963989258,0.4214377999305725,2.5335726737976074,-0.23471395671367645,0.0,0.0,0.0,0.0,0.0,0.0,0.0,-0.18315306640050685,0.5421943345646962,0.0008194454242092208,0.4889968965509722,-0.10324858619365382,0.12830841369210372,-0.2245873138757123,0.1726409828704535,-0.4874314860544212,-0.11142368163752271,-1.9466362909015835,0.13356327419475597,2.595544879330529,0.94525066247748,0.1728802376190821,-0.48752024683155326,-0.11147110072896137,-1.9463801863486305,0.1336059019074957,2.595550359778934,0.9452445589611904,0.00048826229479203805,0.0007307183048029381,0.0008367812374990835,-8.263328227513479e-05,0.0004939275791692747,-0.0002528497679882039,0.0007529214069369771,0.0,0.0,0.0,0.0,0.0,0.0,0.0,0.00023925474862859786,-8.876077713204644e-05,-4.741909143865519e-05,0.00025610455295299595,4.262771273971788e-05,5.480448404870941e-06,-6.103516289601707e-06,-0.00048826229479203805,-0.0007307183048029381,-0.0008367812374990835,8.263328227513479e-05,-0.0004939275791692747,0.0002528497679882039,-0.0007529214069369771,0.19667929410934448,11.802515029907227,-1.1680023670196533,-21.792634963989258,-0.4214377999305725,-2.5335726737976074,0.23471395671367645,0
78,0.385040283203125,-0.17287558317184448,-11.750940322875977,1.1680023670196533,21.816438674926758,0.4452415108680725,2.5271639823913574,-0.20083944499492645,0.0,0.0,0.0,0.0,0.0,0.0,0.0,-0.1876485204461505,0.5448148486442246,-0.00571515550711085,0.4878859498558183,-0.10277125862707434,0.12812910849062073,-0.22543707701219196,0.17263931243461472,-0.48743486912115735,-0.11142413655011142,-1.9466377229188616,0.1335606249657322,2.595545591407352,0.9452468986428446,0.1728802376190821,-0.48752024683155326,-0.11147110072896137,-1.9463801863486305,0.1336059019074957,2.595550359778934,0.9452445589611904,-0.0006937153012002081,-0.0005276282820678539,0.0004069833093422751,-0.0008704830680035552,-0.0006296058557661321,-0.00011051836409225255,-0.0008453519134332739,0.0,0.0,0.0,0.0,0.0,0.0,0.0,0.00024092518446738875,-8.537771039590636e-05,-4.6964178849945304e-05,0.0002575365702310872,4.5276941763483514e-05,4.76837158203125e-06,-2.3396816541954024e-06,0.0006937153012002081,0.0005276282820678539,-0.0004069833093422751,0.0008704830680035552,0.0006296058557661321,0.00011051836409225255,0.0008453519134332739,0.17287558317184448,11.750940322875977,-1.1680023670196533,-21.816438674926758,-0.4452415108680725,-2.5271639823913574,0.20083944499492645,0
79,0.3900022506713867,-0.17287558317184448,-11.750940322875977,1.1680023670196533,21.816438674926758,0.4452415108680725,2.5271639823913574,-0.20083944499492645,0.0,0.0,0.0,0.0,0.0,0.0,0.0,-0.1876485204461505,0.5448148486442246,-0.00571515550711085,0.4878859498558183,-0.10277125862707434,0.12812910849062073,-0.22543707701219196,0.17263931243461472,-0.48743486912115735,-0.11142413655011142,-1.9466377229188616,0.1335606249657322,2.595545591407352,0.9452468986428446,0.1728802376190821,-0.48752024683155326,-0.11147110072896137,-1.9463801863486305,0.1336059019074957,2.595550359778934,0.9452445589611904,-0.0006937153012002081,-0.0005276282820678539,0.0004069833093422751,-0.0008704830680035552,-0.0006296058557661321,-0.00011051836409225255,-0.0008453519134332739,0.0,0.0,0.0,0.0,0.0,0.0,0.0,0.00024092518446738875,-8.537771039590636e-05,-4.6964178849945304e-05,0.0002575365702310872,4.5276941763483514e-05,4.76837158203125e-06,-2.3396816541954024e-06,0.0006937153012002081,0.0005276282820678539,-0.0004069833093422751,0.0008704830680035552,0.0006296058557661321,0.00011051836409225255,0.0008453519134332739,0.17287558317184448,11.750940322875977,-1.1680023670196533,-21.816438674926758,-0.4452415108680725,-2.5271639823913574,0.20083944499492645,0
