rezayati/contactInterpretation/dataset/franka_main/labeled_data/link6/b7_8.csv
index,time,tau_J0,tau_J1,tau_J2,tau_J3,tau_J4,tau_J5,tau_J6,tau_J_d0,tau_J_d1,tau_J_d2,tau_J_d3,tau_J_d4,tau_J_d5,tau_J_d6,tau_ext0,tau_ext1,tau_ext2,tau_ext3,tau_ext4,tau_ext5,tau_ext6,q0,q1,q2,q3,q4,q5,q6,q_d0,q_d1,q_d2,q_d3,q_d4,q_d5,q_d6,dq0,dq1,dq2,dq3,dq4,dq5,dq6,dq_d0,dq_d1,dq_d2,dq_d3,dq_d4,dq_d5,dq_d6,e0,e1,e2,e3,e4,e5,e6,de0,de1,de2,de3,de4,de5,de6,etau_J0,etau_J1,etau_J2,etau_J3,etau_J4,etau_J5,etau_J6,label
1,0.0,-0.4783565402030945,-22.819665908813477,-0.1253325641155243,14.108003616333008,0.06987529993057251,2.1133456230163574,-0.46725791692733765,0.0,0.0,0.0,0.0,0.0,0.0,0.0,-0.44286235984179656,-0.019389514733212834,-0.21292120000600614,0.23423895246008297,-0.15833791668281866,-0.06129548732405458,-0.43204188197886034,1.6756264682025237,0.05229305918384016,0.02998214103389769,-2.752376531418985,0.03421438817995488,2.766355726064019,0.7692039076067783,1.6754973547542302,0.052104326824870026,0.029969505109285054,-2.752394845125968,0.0342448039870148,2.7663679543071322,0.7691630533470046,0.0008025909531406923,1.81465609054327e-05,-7.596784487635239e-05,-0.00040478882496654956,0.00015266673217942744,0.0005331592347777319,0.0017937715765236786,0.0,0.0,0.0,0.0,0.0,0.0,0.0,-0.00012911344829347193,-0.00018873235897013535,-1.2635924612636878e-05,-1.8313706982908684e-05,3.041580705991781e-05,1.2228243113199255e-05,-4.085425977362611e-05,-0.0008025909531406923,-1.81465609054327e-05,7.596784487635239e-05,0.00040478882496654956,-0.00015266673217942744,-0.0005331592347777319,-0.0017937715765236786,0.4783565402030945,22.819665908813477,0.1253325641155243,-14.108003616333008,-0.06987529993057251,-2.1133456230163574,0.46725791692733765,0
2,0.0049970149993896484,-0.4267818331718445,-22.819665908813477,-0.09756157547235489,14.080232620239258,0.07628399133682251,2.1261630058288574,-0.45352500677108765,0.0,0.0,0.0,0.0,0.0,0.0,0.0,-0.44420715255654786,-0.02413632601435962,-0.21128517567787788,0.23659791978631556,-0.15831354882302107,-0.06075089217088366,-0.4305713896789603,1.6756228489248375,0.05229308549082844,0.02998019024505552,-2.7523775494372504,0.03421367608507484,2.7663557854144805,0.7692027347770823,1.6754973547542302,0.052104326824870026,0.029969505109285054,-2.752394845125968,0.0342448039870148,2.7663679543071322,0.7691630533470046,-0.00031904310734316965,-0.0002632061680641846,-0.0008065874940869294,0.0007863476292734559,-0.00012469977424849768,-0.0002402554678455499,0.000888267723333362,0.0,0.0,0.0,0.0,0.0,0.0,0.0,-0.00012549417060725432,-0.00018875866595841756,-1.0685135770467646e-05,-1.7295688717666735e-05,3.112790193995907e-05,1.2168892651764907e-05,-3.96814300777093e-05,0.00031904310734316965,0.0002632061680641846,0.0008065874940869294,-0.0007863476292734559,0.00012469977424849768,0.0002402554678455499,-0.000888267723333362,0.4267818331718445,22.819665908813477,0.09756157547235489,-14.080232620239258,-0.07628399133682251,-2.1261630058288574,0.45352500677108765,0
3,0.010017871856689453,-0.4267818331718445,-22.819665908813477,-0.09756157547235489,14.080232620239258,0.07628399133682251,2.1261630058288574,-0.45352500677108765,0.0,0.0,0.0,0.0,0.0,0.0,0.0,-0.44420715255654786,-0.02413632601435962,-0.21128517567787788,0.23659791978631556,-0.15831354882302107,-0.06075089217088366,-0.4305713896789603,1.6756228489248375,0.05229308549082844,0.02998019024505552,-2.7523775494372504,0.03421367608507484,2.7663557854144805,0.7692027347770823,1.6754973547542302,0.052104326824870026,0.029969505109285054,-2.752394845125968,0.0342448039870148,2.7663679543071322,0.7691630533470046,-0.00031904310734316965,-0.0002632061680641846,-0.0008065874940869294,0.0007863476292734559,-0.00012469977424849768,-0.0002402554678455499,0.000888267723333362,0.0,0.0,0.0,0.0,0.0,0.0,0.0,-0.00012549417060725432,-0.00018875866595841756,-1.0685135770467646e-05,-1.7295688717666735e-05,3.112790193995907e-05,1.2168892651764907e-05,-3.96814300777093e-05,0.00031904310734316965,0.0002632061680641846,0.0008065874940869294,-0.0007863476292734559,0.00012469977424849768,0.0002402554678455499,-0.000888267723333362,0.4267818331718445,22.819665908813477,0.09756157547235489,-14.080232620239258,-0.07628399133682251,-2.1261630058288574,0.45352500677108765,0
4,0.01500248908996582,-0.4267818331718445,-22.795862197875977,-0.1729399859905243,14.080232620239258,0.06438213586807251,2.1261630058288574,-0.45352500677108765,0.0,0.0,0.0,0.0,0.0,0.0,0.0,-0.44493747986084065,-0.018115453296910135,-0.21237221764124603,0.2328931243733421,-0.15807235045095175,-0.061697808654325344,-0.4300131821040678,1.6756228224338843,0.052291388748133404,0.029985473141707603,-2.752374493719919,0.03421499851346016,2.766350826708868,0.7692027347790753,1.6754973547542302,0.052104326824870026,0.029969505109285054,-2.752394845125968,0.0342448039870148,2.7663679543071322,0.7691630533470046,-0.00041769765510659367,-0.00012296933868161637,0.0010604321292126385,0.0007041370228252046,0.0004099160778142324,-0.00016337243321825576,0.001205760881914051,0.0,0.0,0.0,0.0,0.0,0.0,0.0,-0.00012546767965404548,-0.00018706192326337773,-1.5968032422548906e-05,-2.035140604927932e-05,2.980547355464075e-05,1.712759826411059e-05,-3.968143207067065e-05,0.00041769765510659367,0.00012296933868161637,-0.0010604321292126385,-0.0007041370228252046,-0.0004099160778142324,0.00016337243321825576,-0.001205760881914051,0.4267818331718445,22.795862197875977,0.1729399859905243,-14.080232620239258,-0.06438213586807251,-2.1261630058288574,0.45352500677108765,0
5,0.020023584365844727,-0.4267818331718445,-22.795862197875977,-0.1729399859905243,14.080232620239258,0.06438213586807251,2.1261630058288574,-0.45352500677108765,0.0,0.0,0.0,0.0,0.0,0.0,0.0,-0.44493747986084065,-0.018115453296910135,-0.21237221764124603,0.2328931243733421,-0.15807235045095175,-0.061697808654325344,-0.4300131821040678,1.6756228224338843,0.052291388748133404,0.029985473141707603,-2.752374493719919,0.03421499851346016,2.766350826708868,0.7692027347790753,1.6754973547542302,0.052104326824870026,0.029969505109285054,-2.752394845125968,0.0342448039870148,2.7663679543071322,0.7691630533470046,-0.00041769765510659367,-0.00012296933868161637,0.0010604321292126385,0.0007041370228252046,0.0004099160778142324,-0.00016337243321825576,0.001205760881914051,0.0,0.0,0.0,0.0,0.0,0.0,0.0,-0.00012546767965404548,-0.00018706192326337773,-1.5968032422548906e-05,-2.035140604927932e-05,2.980547355464075e-05,1.712759826411059e-05,-3.968143207067065e-05,0.00041769765510659367,0.00012296933868161637,-0.0010604321292126385,-0.0007041370228252046,-0.0004099160778142324,0.00016337243321825576,-0.001205760881914051,0.4267818331718445,22.795862197875977,0.1729399859905243,-14.080232620239258,-0.06438213586807251,-2.1261630058288574,0.45352500677108765,0
6,0.02500009536743164,-0.4267818331718445,-22.819665908813477,-0.1253325641155243,14.056428909301758,0.06987529993057251,2.1261630058288574,-0.44711631536483765,0.0,0.0,0.0,0.0,0.0,0.0,0.0,-0.4441278874892305,-0.02102530586643429,-0.21344489985053233,0.23613954714261626,-0.1590267796388761,-0.0613214689719157,-0.43095235338691407,1.6756228489247877,0.05229305918384016,0.029982142007646304,-2.7523760358443363,0.03421438816189766,2.7663523193502852,0.7692020228637585,1.6754973547542302,0.052104326824870026,0.029969505109285054,-2.752394845125968,0.0342448039870148,2.7663679543071322,0.7691630533470046,-0.00035997687944962567,-0.0001754420409758496,-0.00026433774921082545,0.0011294696574000553,3.9688626258386834e-05,-0.00023786776596997108,0.0002790124215525712,0.0,0.0,0.0,0.0,0.0,0.0,0.0,-0.00012549417055751633,-0.00018873235897013535,-1.2636898361249871e-05,-1.880928163178197e-05,3.0415825117140194e-05,1.5634956846977133e-05,-3.896951675386173e-05,0.00035997687944962567,0.0001754420409758496,0.00026433774921082545,-0.0011294696574000553,-3.9688626258386834e-05,0.00023786776596997108,-0.0002790124215525712,0.4267818331718445,22.819665908813477,0.1253325641155243,-14.056428909301758,-0.06987529993057251,-2.1261630058288574,0.44711631536483765,0
7,0.0300142765045166,-0.4267818331718445,-22.819665908813477,-0.1253325641155243,14.056428909301758,0.06987529993057251,2.1261630058288574,-0.44711631536483765,0.0,0.0,0.0,0.0,0.0,0.0,0.0,-0.4441278874892305,-0.02102530586643429,-0.21344489985053233,0.23613954714261626,-0.1590267796388761,-0.0613214689719157,-0.43095235338691407,1.6756228489247877,0.05229305918384016,0.029982142007646304,-2.7523760358443363,0.03421438816189766,2.7663523193502852,0.7692020228637585,1.6754973547542302,0.052104326824870026,0.029969505109285054,-2.752394845125968,0.0342448039870148,2.7663679543071322,0.7691630533470046,-0.00035997687944962567,-0.0001754420409758496,-0.00026433774921082545,0.0011294696574000553,3.9688626258386834e-05,-0.00023786776596997108,0.0002790124215525712,0.0,0.0,0.0,0.0,0.0,0.0,0.0,-0.00012549417055751633,-0.00018873235897013535,-1.2636898361249871e-05,-1.880928163178197e-05,3.0415825117140194e-05,1.5634956846977133e-05,-3.896951675386173e-05,0.00035997687944962567,0.0001754420409758496,0.00026433774921082545,-0.0011294696574000553,-3.9688626258386834e-05,0.00023786776596997108,-0.0002790124215525712,0.4267818331718445,22.819665908813477,0.1253325641155243,-14.056428909301758,-0.06987529993057251,-2.1261630058288574,0.44711631536483765,0
8,0.035001277923583984,-0.4029781222343445,-22.819665908813477,-0.1253325641155243,14.080232620239258,0.08177715539932251,2.1261630058288574,-0.46725791692733765,0.0,0.0,0.0,0.0,0.0,0.0,0.0,-0.44222978479716335,-0.01722226190512464,-0.21495046815026775,0.2358271494386779,-0.15970597412400225,-0.06210430395309124,-0.43156959277216195,1.675621178488982,0.05229305918384016,0.029982133243778672,-2.7523767463199214,0.03421310522465549,2.7663546132603707,0.769204260819488,1.6754973547542302,0.052104326824870026,0.029969505109285054,-2.752394845125968,0.0342448039870148,2.7663679543071322,0.7691630533470046,-0.000629546134035692,0.00010886136116346563,-0.00026138153379757264,0.0007218900253259412,-0.0003545381824601409,-0.00017550038513987348,0.0014417347915738536,0.0,0.0,0.0,0.0,0.0,0.0,0.0,-0.00012382373475183783,-0.00018873235897013535,-1.262813449361827e-05,-1.8098806046751292e-05,3.169876235931124e-05,1.3341046761539133e-05,-4.120747248337331e-05,0.000629546134035692,-0.00010886136116346563,0.00026138153379757264,-0.0007218900253259412,0.0003545381824601409,0.00017550038513987348,-0.0014417347915738536,0.4029781222343445,22.819665908813477,0.1253325641155243,-14.080232620239258,-0.08177715539932251,-2.1261630058288574,0.46725791692733765,0
9,0.04001140594482422,-0.4029781222343445,-22.819665908813477,-0.1253325641155243,14.080232620239258,0.08177715539932251,2.1261630058288574,-0.46725791692733765,0.0,0.0,0.0,0.0,0.0,0.0,0.0,-0.44222978479716335,-0.01722226190512464,-0.21495046815026775,0.2358271494386779,-0.15970597412400225,-0.06210430395309124,-0.43156959277216195,1.675621178488982,0.05229305918384016,0.029982133243778672,-2.7523767463199214,0.03421310522465549,2.7663546132603707,0.769204260819488,1.6754973547542302,0.052104326824870026,0.029969505109285054,-2.752394845125968,0.0342448039870148,2.7663679543071322,0.7691630533470046,-0.000629546134035692,0.00010886136116346563,-0.00026138153379757264,0.0007218900253259412,-0.0003545381824601409,-0.00017550038513987348,0.0014417347915738536,0.0,0.0,0.0,0.0,0.0,0.0,0.0,-0.00012382373475183783,-0.00018873235897013535,-1.262813449361827e-05,-1.8098806046751292e-05,3.169876235931124e-05,1.3341046761539133e-05,-4.120747248337331e-05,0.000629546134035692,-0.00010886136116346563,0.00026138153379757264,-0.0007218900253259412,0.0003545381824601409,0.00017550038513987348,-0.0014417347915738536,0.4029781222343445,22.819665908813477,0.1253325641155243,-14.080232620239258,-0.08177715539932251,-2.1261630058288574,0.46725791692733765,0
10,0.04499650001525879,-0.4783565402030945,-22.847436904907227,-0.09756157547235489,14.080232620239258,0.07628399133682251,2.1261630058288574,-0.45352500677108765,0.0,0.0,0.0,0.0,0.0,0.0,0.0,-0.44302427533907685,-0.02006719248729613,-0.2184506930647275,0.23716322395184186,-0.1595061939766463,-0.06172179564896618,-0.4310002758584317,1.6756264682025237,0.0522950080256713,0.029980193166306863,-2.7523745856282122,0.03421367608529767,2.7663557304720388,0.7692027349405818,1.6754973547542302,0.052104326824870026,0.029969505109285054,-2.752394845125968,0.0342448039870148,2.7663679543071322,0.7691630533470046,0.0007502487692827597,0.00032210899234474884,-0.0009166472189936976,0.000746535661678226,-0.0001277141912185527,-0.00020162287452720411,0.00259235687675005,0.0,0.0,0.0,0.0,0.0,0.0,0.0,-0.00012911344829347193,-0.00019068120080127648,-1.0688057021809166e-05,-2.0259497755859002e-05,3.112790171713037e-05,1.2223835093472246e-05,-3.968159357714551e-05,-0.0007502487692827597,-0.00032210899234474884,0.0009166472189936976,-0.000746535661678226,0.0001277141912185527,0.00020162287452720411,-0.00259235687675005,0.4783565402030945,22.847436904907227,0.09756157547235489,-14.080232620239258,-0.07628399133682251,-2.1261630058288574,0.45352500677108765,0
11,0.04999589920043945,-0.4783565402030945,-22.847436904907227,-0.09756157547235489,14.080232620239258,0.07628399133682251,2.1261630058288574,-0.45352500677108765,0.0,0.0,0.0,0.0,0.0,0.0,0.0,-0.44302427533907685,-0.02006719248729613,-0.2184506930647275,0.23716322395184186,-0.1595061939766463,-0.06172179564896618,-0.4310002758584317,1.6756264682025237,0.0522950080256713,0.029980193166306863,-2.7523745856282122,0.03421367608529767,2.7663557304720388,0.7692027349405818,1.6754973547542302,0.052104326824870026,0.029969505109285054,-2.752394845125968,0.0342448039870148,2.7663679543071322,0.7691630533470046,0.0007502487692827597,0.00032210899234474884,-0.0009166472189936976,0.000746535661678226,-0.0001277141912185527,-0.00020162287452720411,0.00259235687675005,0.0,0.0,0.0,0.0,0.0,0.0,0.0,-0.00012911344829347193,-0.00019068120080127648,-1.0688057021809166e-05,-2.0259497755859002e-05,3.112790171713037e-05,1.2223835093472246e-05,-3.968159357714551e-05,-0.0007502487692827597,-0.00032210899234474884,0.0009166472189936976,-0.000746535661678226,0.0001277141912185527,0.00020162287452720411,-0.00259235687675005,0.4783565402030945,22.847436904907227,0.09756157547235489,-14.080232620239258,-0.07628399133682251,-2.1261630058288574,0.45352500677108765,0
12,0.05499625205993652,-0.4783565402030945,-22.772058486938477,-0.1253325641155243,14.108003616333008,0.07628399133682251,2.1197543144226074,-0.44711631536483765,0.0,0.0,0.0,0.0,0.0,0.0,0.0,-0.44441145937960436,-0.02158488613936698,-0.21812598257152027,0.23677094578768765,-0.15866870997365323,-0.0620261332432211,-0.42909314800562487,1.6756264682025237,0.05228971928646253,0.02998189651066174,-2.7523767174921234,0.0342140709965072,2.7663564832545755,0.7692020228637588,1.6754973547542302,0.052104326824870026,0.029969505109285054,-2.752394845125968,0.0342448039870148,2.7663679543071322,0.7691630533470046,0.0006952455626977917,-0.0013296833506696037,-0.00023176061610302777,4.1609375450467856e-05,-1.2814341791180556e-05,0.00022618866667671928,0.0004706084892580614,0.0,0.0,0.0,0.0,0.0,0.0,0.0,-0.00012911344829347193,-0.00018539246159250677,-1.2391401376685846e-05,-1.812763384467786e-05,3.0732990507598146e-05,1.1471052556721872e-05,-3.89695167541948e-05,-0.0006952455626977917,0.0013296833506696037,0.00023176061610302777,-4.1609375450467856e-05,1.2814341791180556e-05,-0.00022618866667671928,-0.0004706084892580614,0.4783565402030945,22.772058486938477,0.1253325641155243,-14.108003616333008,-0.07628399133682251,-2.1197543144226074,0.44711631536483765,0
13,0.06075096130371094,-0.4783565402030945,-22.772058486938477,-0.1253325641155243,14.108003616333008,0.07628399133682251,2.1197543144226074,-0.44711631536483765,0.0,0.0,0.0,0.0,0.0,0.0,0.0,-0.44441145937960436,-0.02158488613936698,-0.21812598257152027,0.23677094578768765,-0.15866870997365323,-0.0620261332432211,-0.42909314800562487,1.6756264682025237,0.05228971928646253,0.02998189651066174,-2.7523767174921234,0.0342140709965072,2.7663564832545755,0.7692020228637588,1.6754973547542302,0.052104326824870026,0.029969505109285054,-2.752394845125968,0.0342448039870148,2.7663679543071322,0.7691630533470046,0.0006952455626977917,-0.0013296833506696037,-0.00023176061610302777,4.1609375450467856e-05,-1.2814341791180556e-05,0.00022618866667671928,0.0004706084892580614,0.0,0.0,0.0,0.0,0.0,0.0,0.0,-0.00012911344829347193,-0.00018539246159250677,-1.2391401376685846e-05,-1.812763384467786e-05,3.0732990507598146e-05,1.1471052556721872e-05,-3.89695167541948e-05,-0.0006952455626977917,0.0013296833506696037,0.00023176061610302777,-4.1609375450467856e-05,1.2814341791180556e-05,-0.00022618866667671928,-0.0004706084892580614,0.4783565402030945,22.772058486938477,0.1253325641155243,-14.108003616333008,-0.07628399133682251,-2.1197543144226074,0.44711631536483765,0
14,0.06499671936035156,-0.4783565402030945,-22.772058486938477,-0.1253325641155243,14.108003616333008,0.07628399133682251,2.1197543144226074,-0.44711631536483765,0.0,0.0,0.0,0.0,0.0,0.0,0.0,-0.44441145937960436,-0.02158488613936698,-0.21812598257152027,0.23677094578768765,-0.15866870997365323,-0.0620261332432211,-0.42909314800562487,1.6756264682025237,0.05228971928646253,0.02998189651066174,-2.7523767174921234,0.0342140709965072,2.7663564832545755,0.7692020228637588,1.6754973547542302,0.052104326824870026,0.029969505109285054,-2.752394845125968,0.0342448039870148,2.7663679543071322,0.7691630533470046,0.0006952455626977917,-0.0013296833506696037,-0.00023176061610302777,4.1609375450467856e-05,-1.2814341791180556e-05,0.00022618866667671928,0.0004706084892580614,0.0,0.0,0.0,0.0,0.0,0.0,0.0,-0.00012911344829347193,-0.00018539246159250677,-1.2391401376685846e-05,-1.812763384467786e-05,3.0732990507598146e-05,1.1471052556721872e-05,-3.89695167541948e-05,-0.0006952455626977917,0.0013296833506696037,0.00023176061610302777,-4.1609375450467856e-05,1.2814341791180556e-05,-0.00022618866667671928,-0.0004706084892580614,0.4783565402030945,22.772058486938477,0.1253325641155243,-14.108003616333008,-0.07628399133682251,-2.1197543144226074,0.44711631536483765,0
15,0.06999492645263672,-0.4783565402030945,-22.772058486938477,-0.1253325641155243,14.108003616333008,0.07628399133682251,2.1197543144226074,-0.44711631536483765,0.0,0.0,0.0,0.0,0.0,0.0,0.0,-0.44441145937960436,-0.02158488613936698,-0.21812598257152027,0.23677094578768765,-0.15866870997365323,-0.0620261332432211,-0.42909314800562487,1.6756264682025237,0.05228971928646253,0.02998189651066174,-2.7523767174921234,0.0342140709965072,2.7663564832545755,0.7692020228637588,1.6754973547542302,0.052104326824870026,0.029969505109285054,-2.752394845125968,0.0342448039870148,2.7663679543071322,0.7691630533470046,0.0006952455626977917,-0.0013296833506696037,-0.00023176061610302777,4.1609375450467856e-05,-1.2814341791180556e-05,0.00022618866667671928,0.0004706084892580614,0.0,0.0,0.0,0.0,0.0,0.0,0.0,-0.00012911344829347193,-0.00018539246159250677,-1.2391401376685846e-05,-1.812763384467786e-05,3.0732990507598146e-05,1.1471052556721872e-05,-3.89695167541948e-05,-0.0006952455626977917,0.0013296833506696037,0.00023176061610302777,-4.1609375450467856e-05,1.2814341791180556e-05,-0.00022618866667671928,-0.0004706084892580614,0.4783565402030945,22.772058486938477,0.1253325641155243,-14.108003616333008,-0.07628399133682251,-2.1197543144226074,0.44711631536483765,0
16,0.07499551773071289,-0.4505855441093445,-22.819665908813477,-0.1253325641155243,14.155611038208008,0.08177715539932251,2.1261630058288574,-0.44711631536483765,0.0,0.0,0.0,0.0,0.0,0.0,0.0,-0.44651069726367637,-0.020911892287838837,-0.21730143449315367,0.23363980389192032,-0.15845330742059252,-0.06219111494144568,-0.42968875386091576,1.6756245193606927,0.052293059183845664,0.02998211571462092,-2.7523808927403923,0.0342131856718062,2.7663554082184105,0.7692020228637588,1.6754973547542302,0.052104326824870026,0.029969505109285054,-2.752394845125968,0.0342448039870148,2.7663679543071322,0.7691630533470046,1.9384771168794434e-05,0.00014226940515033496,-0.0004790374953983377,-0.0016257061321984434,-0.0002594729955904019,-0.00013662724605259708,0.0018490416637041648,0.0,0.0,0.0,0.0,0.0,0.0,0.0,-0.00012716460646244876,-0.0001887323589756379,-1.2610605335867942e-05,-1.395238557577727e-05,3.1618315208599423e-05,1.2546088721698823e-05,-3.89695167541948e-05,-1.9384771168794434e-05,-0.00014226940515033496,0.0004790374953983377,0.0016257061321984434,0.0002594729955904019,0.00013662724605259708,-0.0018490416637041648,0.4505855441093445,22.819665908813477,0.1253325641155243,-14.155611038208008,-0.08177715539932251,-2.1261630058288574,0.44711631536483765,0
17,0.07999897003173828,-0.4505855441093445,-22.819665908813477,-0.1253325641155243,14.155611038208008,0.08177715539932251,2.1261630058288574,-0.44711631536483765,0.0,0.0,0.0,0.0,0.0,0.0,0.0,-0.44651069726367637,-0.020911892287838837,-0.21730143449315367,0.23363980389192032,-0.15845330742059252,-0.06219111494144568,-0.42968875386091576,1.6756245193606927,0.052293059183845664,0.02998211571462092,-2.7523808927403923,0.0342131856718062,2.7663554082184105,0.7692020228637588,1.6754973547542302,0.052104326824870026,0.029969505109285054,-2.752394845125968,0.0342448039870148,2.7663679543071322,0.7691630533470046,1.9384771168794434e-05,0.00014226940515033496,-0.0004790374953983377,-0.0016257061321984434,-0.0002594729955904019,-0.00013662724605259708,0.0018490416637041648,0.0,0.0,0.0,0.0,0.0,0.0,0.0,-0.00012716460646244876,-0.0001887323589756379,-1.2610605335867942e-05,-1.395238557577727e-05,3.1618315208599423e-05,1.2546088721698823e-05,-3.89695167541948e-05,-1.9384771168794434e-05,-0.00014226940515033496,0.0004790374953983377,0.0016257061321984434,0.0002594729955904019,0.00013662724605259708,-0.0018490416637041648,0.4505855441093445,22.819665908813477,0.1253325641155243,-14.155611038208008,-0.08177715539932251,-2.1261630058288574,0.44711631536483765,0
18,0.08499622344970703,-0.4029781222343445,-22.819665908813477,-0.1253325641155243,14.131807327270508,0.06438213586807251,2.1197543144226074,-0.42605918645858765,0.0,0.0,0.0,0.0,0.0,0.0,0.0,-0.445907971886066,-0.02026432377643942,-0.21380237612081676,0.2375965220749008,-0.15814311791527758,-0.061749020751693036,-0.4316139338906008,1.675621178488982,0.05229329594673469,0.02998206313224575,-2.7523781404712775,0.03421819729809427,2.766355384873254,0.7691996831827692,1.6754973547542302,0.052104326824870026,0.029969505109285054,-2.752394845125968,0.0342448039870148,2.7663679543071322,0.7691630533470046,-0.0012702821395344781,0.0001001631542790776,-0.00016025681394508297,-0.0001853940816452196,0.0004595597161214418,0.00013371743207601697,7.063311139307906e-05,0.0,0.0,0.0,0.0,0.0,0.0,0.0,-0.00012382373475183783,-0.00018896912186466136,-1.2558022960695164e-05,-1.6704654690613552e-05,2.6606688920530197e-05,1.2569433878173442e-05,-3.66298357645789e-05,0.0012702821395344781,-0.0001001631542790776,0.00016025681394508297,0.0001853940816452196,-0.0004595597161214418,-0.00013371743207601697,-7.063311139307906e-05,0.4029781222343445,22.819665908813477,0.1253325641155243,-14.131807327270508,-0.06438213586807251,-2.1197543144226074,0.42605918645858765,0
19,0.0900111198425293,-0.4029781222343445,-22.819665908813477,-0.1253325641155243,14.131807327270508,0.06438213586807251,2.1197543144226074,-0.42605918645858765,0.0,0.0,0.0,0.0,0.0,0.0,0.0,-0.445907971886066,-0.02026432377643942,-0.21380237612081676,0.2375965220749008,-0.15814311791527758,-0.061749020751693036,-0.4316139338906008,1.675621178488982,0.05229329594673469,0.02998206313224575,-2.7523781404712775,0.03421819729809427,2.766355384873254,0.7691996831827692,1.6754973547542302,0.052104326824870026,0.029969505109285054,-2.752394845125968,0.0342448039870148,2.7663679543071322,0.7691630533470046,-0.0012702821395344781,0.0001001631542790776,-0.00016025681394508297,-0.0001853940816452196,0.0004595597161214418,0.00013371743207601697,7.063311139307906e-05,0.0,0.0,0.0,0.0,0.0,0.0,0.0,-0.00012382373475183783,-0.00018896912186466136,-1.2558022960695164e-05,-1.6704654690613552e-05,2.6606688920530197e-05,1.2569433878173442e-05,-3.66298357645789e-05,0.0012702821395344781,-0.0001001631542790776,0.00016025681394508297,0.0001853940816452196,-0.0004595597161214418,-0.00013371743207601697,-7.063311139307906e-05,0.4029781222343445,22.819665908813477,0.1253325641155243,-14.131807327270508,-0.06438213586807251,-2.1197543144226074,0.42605918645858765,0
20,0.0950021743774414,-0.4267818331718445,-22.772058486938477,-0.09756157547235489,14.108003616333008,0.06987529993057251,2.1261630058288574,-0.45352500677108765,0.0,0.0,0.0,0.0,0.0,0.0,0.0,-0.44936826894347626,-0.017760651077700786,-0.21250684055860752,0.23514578904226605,-0.15793852816054815,-0.06238379986836568,-0.4310253416390224,1.6756228489248375,0.052289718312575145,0.029977983693181918,-2.7523786688020966,0.034214388167916734,2.7663513282704377,0.7692027349405818,1.6754973547542302,0.052104326824870026,0.029969505109285054,-2.752394845125968,0.0342448039870148,2.7663679543071322,0.7691630533470046,-0.0003556599303350203,-0.001058080259209895,-0.0010279504441589216,-6.4266158769970366e-06,0.00016170681995507282,4.981897873484551e-05,0.0014528162373234083,0.0,0.0,0.0,0.0,0.0,0.0,0.0,-0.00012549417060725432,-0.00018539148770511937,-8.47858389686415e-06,-1.617632387151957e-05,3.0415819098066066e-05,1.6626036694500357e-05,-3.968159357714551e-05,0.0003556599303350203,0.001058080259209895,0.0010279504441589216,6.4266158769970366e-06,-0.00016170681995507282,-4.981897873484551e-05,-0.0014528162373234083,0.4267818331718445,22.772058486938477,0.09756157547235489,-14.108003616333008,-0.06987529993057251,-2.1261630058288574,0.45352500677108765,0
21,0.09999942779541016,-0.4267818331718445,-22.772058486938477,-0.09756157547235489,14.108003616333008,0.06987529993057251,2.1261630058288574,-0.45352500677108765,0.0,0.0,0.0,0.0,0.0,0.0,0.0,-0.44936826894347626,-0.017760651077700786,-0.21250684055860752,0.23514578904226605,-0.15793852816054815,-0.06238379986836568,-0.4310253416390224,1.6756228489248375,0.052289718312575145,0.029977983693181918,-2.7523786688020966,0.034214388167916734,2.7663513282704377,0.7692027349405818,1.6754973547542302,0.052104326824870026,0.029969505109285054,-2.752394845125968,0.0342448039870148,2.7663679543071322,0.7691630533470046,-0.0003556599303350203,-0.001058080259209895,-0.0010279504441589216,-6.4266158769970366e-06,0.00016170681995507282,4.981897873484551e-05,0.0014528162373234083,0.0,0.0,0.0,0.0,0.0,0.0,0.0,-0.00012549417060725432,-0.00018539148770511937,-8.47858389686415e-06,-1.617632387151957e-05,3.0415819098066066e-05,1.6626036694500357e-05,-3.968159357714551e-05,0.0003556599303350203,0.001058080259209895,0.0010279504441589216,6.4266158769970366e-06,-0.00016170681995507282,-4.981897873484551e-05,-0.0014528162373234083,0.4267818331718445,22.772058486938477,0.09756157547235489,-14.108003616333008,-0.06987529993057251,-2.1261630058288574,0.45352500677108765,0
22,0.10499691963195801,-0.4783565402030945,-22.795862197875977,-0.1729399859905243,14.080232620239258,0.08177715539932251,2.1261630058288574,-0.43979209661483765,0.0,0.0,0.0,0.0,0.0,0.0,0.0,-0.4521751841971367,-0.019801026964991208,-0.2172205880241792,0.23840542155374997,-0.1572946623435114,-0.06151353327018946,-0.4294486186886101,1.6756264682025237,0.0522913887479849,0.02998524620591643,-2.7523745770359667,0.03421306573351227,2.76635453541716,0.7692012090616754,1.6754973547542302,0.052104326824870026,0.029969505109285054,-2.752394845125968,0.0342448039870148,2.7663679543071322,0.7691630533470046,0.0004834723164868364,-0.0005902423128301785,0.0007090981341539057,0.0004896079089936589,-0.00020683246881575716,-0.00010795177380073117,0.0008844497616126999,0.0,0.0,0.0,0.0,0.0,0.0,0.0,-0.00012911344829347193,-0.00018706192311487152,-1.5741096631376184e-05,-2.0268090001440697e-05,3.17382535025279e-05,1.3418889972083292e-05,-3.8155714670806695e-05,-0.0004834723164868364,0.0005902423128301785,-0.0007090981341539057,-0.0004896079089936589,0.00020683246881575716,0.00010795177380073117,-0.0008844497616126999,0.4783565402030945,22.795862197875977,0.1729399859905243,-14.080232620239258,-0.08177715539932251,-2.1261630058288574,0.43979209661483765,0
23,0.10999035835266113,-0.4783565402030945,-22.795862197875977,-0.1729399859905243,14.080232620239258,0.08177715539932251,2.1261630058288574,-0.43979209661483765,0.0,0.0,0.0,0.0,0.0,0.0,0.0,-0.4521751841971367,-0.019801026964991208,-0.2172205880241792,0.23840542155374997,-0.1572946623435114,-0.06151353327018946,-0.4294486186886101,1.6756264682025237,0.0522913887479849,0.02998524620591643,-2.7523745770359667,0.03421306573351227,2.76635453541716,0.7692012090616754,1.6754973547542302,0.052104326824870026,0.029969505109285054,-2.752394845125968,0.0342448039870148,2.7663679543071322,0.7691630533470046,0.0004834723164868364,-0.0005902423128301785,0.0007090981341539057,0.0004896079089936589,-0.00020683246881575716,-0.00010795177380073117,0.0008844497616126999,0.0,0.0,0.0,0.0,0.0,0.0,0.0,-0.00012911344829347193,-0.00018706192311487152,-1.5741096631376184e-05,-2.0268090001440697e-05,3.17382535025279e-05,1.3418889972083292e-05,-3.8155714670806695e-05,-0.0004834723164868364,0.0005902423128301785,-0.0007090981341539057,-0.0004896079089936589,0.00020683246881575716,0.00010795177380073117,-0.0008844497616126999,0.4783565402030945,22.795862197875977,0.1729399859905243,-14.080232620239258,-0.08177715539932251,-2.1261630058288574,0.43979209661483765,0
24,0.11500978469848633,-0.4267818331718445,-22.819665908813477,-0.1491362750530243,14.108003616333008,0.07628399133682251,2.1325716972351074,-0.43979209661483765,0.0,0.0,0.0,0.0,0.0,0.0,0.0,-0.44771483697523656,-0.017935524045361043,-0.21718621789615142,0.23768905113887967,-0.15756457779870972,-0.06196860898836327,-0.42798939743896025,1.6756228489248375,0.05229306015817306,0.02998310245922531,-2.7523774416023556,0.034213676085074744,2.76635396071894,0.7692001101776895,1.6754973547542302,0.052104326824870026,0.029969505109285054,-2.752394845125968,0.0342448039870148,2.7663679543071322,0.7691630533470046,-0.0006766574182230325,0.00011055659576306447,0.00022488203862802814,-7.37436509091335e-05,1.2263463393106643e-05,-0.00031864311092055694,0.0009174746619548357,0.0,0.0,0.0,0.0,0.0,0.0,0.0,-0.00012549417060725432,-0.00018873333330303443,-1.3597349940257936e-05,-1.7403523612458116e-05,3.112790194005621e-05,1.3993588192207085e-05,-3.705683068488952e-05,0.0006766574182230325,-0.00011055659576306447,-0.00022488203862802814,7.37436509091335e-05,-1.2263463393106643e-05,0.00031864311092055694,-0.0009174746619548357,0.4267818331718445,22.819665908813477,0.1491362750530243,-14.108003616333008,-0.07628399133682251,-2.1325716972351074,0.43979209661483765,0
25,0.12000513076782227,-0.4267818331718445,-22.819665908813477,-0.1491362750530243,14.108003616333008,0.07628399133682251,2.1325716972351074,-0.43979209661483765,0.0,0.0,0.0,0.0,0.0,0.0,0.0,-0.44771483697523656,-0.017935524045361043,-0.21718621789615142,0.23768905113887967,-0.15756457779870972,-0.06196860898836327,-0.42798939743896025,1.6756228489248375,0.05229306015817306,0.02998310245922531,-2.7523774416023556,0.034213676085074744,2.76635396071894,0.7692001101776895,1.6754973547542302,0.052104326824870026,0.029969505109285054,-2.752394845125968,0.0342448039870148,2.7663679543071322,0.7691630533470046,-0.0006766574182230325,0.00011055659576306447,0.00022488203862802814,-7.37436509091335e-05,1.2263463393106643e-05,-0.00031864311092055694,0.0009174746619548357,0.0,0.0,0.0,0.0,0.0,0.0,0.0,-0.00012549417060725432,-0.00018873333330303443,-1.3597349940257936e-05,-1.7403523612458116e-05,3.112790194005621e-05,1.3993588192207085e-05,-3.705683068488952e-05,0.0006766574182230325,-0.00011055659576306447,-0.00022488203862802814,7.37436509091335e-05,-1.2263463393106643e-05,0.00031864311092055694,-0.0009174746619548357,0.4267818331718445,22.819665908813477,0.1491362750530243,-14.108003616333008,-0.07628399133682251,-2.1325716972351074,0.43979209661483765,0
26,0.125014066696167,-0.4505855441093445,-22.847436904907227,-0.09756157547235489,14.108003616333008,0.07628399133682251,2.1325716972351074,-0.43979209661483765,0.0,0.0,0.0,0.0,0.0,0.0,0.0,-0.45062907645585276,-0.01826715384745622,-0.22017101930730504,0.2393338906352253,-0.157503510799389,-0.061279419662802245,-0.42760070929751676,1.6756245193606927,0.052295008025676805,0.029980190241053136,-2.752376471077409,0.034213676085074744,2.7663550731701707,0.7692012085709554,1.6754973547542302,0.052104326824870026,0.029969505109285054,-2.752394845125968,0.0342448039870148,2.7663679543071322,0.7691630533470046,-1.4577629182774396e-05,0.0008521870277082419,-0.0012785747889148481,-0.0001805629986771843,-6.820221635546136e-05,-0.00031254912592612995,0.00043241949297789675,0.0,0.0,0.0,0.0,0.0,0.0,0.0,-0.00012716460646244876,-0.00019068120080677903,-1.0685131768082418e-05,-1.8374048559088862e-05,3.112790194005621e-05,1.2881136961517825e-05,-3.815522395078652e-05,1.4577629182774396e-05,-0.0008521870277082419,0.0012785747889148481,0.0001805629986771843,6.820221635546136e-05,0.00031254912592612995,-0.00043241949297789675,0.4505855441093445,22.847436904907227,0.09756157547235489,-14.108003616333008,-0.07628399133682251,-2.1325716972351074,0.43979209661483765,0
27,0.13006186485290527,-0.4505855441093445,-22.847436904907227,-0.09756157547235489,14.108003616333008,0.07628399133682251,2.1325716972351074,-0.43979209661483765,0.0,0.0,0.0,0.0,0.0,0.0,0.0,-0.45062907645585276,-0.01826715384745622,-0.22017101930730504,0.2393338906352253,-0.157503510799389,-0.061279419662802245,-0.42760070929751676,1.6756245193606927,0.052295008025676805,0.029980190241053136,-2.752376471077409,0.034213676085074744,2.7663550731701707,0.7692012085709554,1.6754973547542302,0.052104326824870026,0.029969505109285054,-2.752394845125968,0.0342448039870148,2.7663679543071322,0.7691630533470046,-1.4577629182774396e-05,0.0008521870277082419,-0.0012785747889148481,-0.0001805629986771843,-6.820221635546136e-05,-0.00031254912592612995,0.00043241949297789675,0.0,0.0,0.0,0.0,0.0,0.0,0.0,-0.00012716460646244876,-0.00019068120080677903,-1.0685131768082418e-05,-1.8374048559088862e-05,3.112790194005621e-05,1.2881136961517825e-05,-3.815522395078652e-05,1.4577629182774396e-05,-0.0008521870277082419,0.0012785747889148481,0.0001805629986771843,6.820221635546136e-05,0.00031254912592612995,-0.00043241949297789675,0.4505855441093445,22.847436904907227,0.09756157547235489,-14.108003616333008,-0.07628399133682251,-2.1325716972351074,0.43979209661483765,0
28,0.13501524925231934,-0.4267818331718445,-22.819665908813477,-0.1491362750530243,14.080232620239258,0.07628399133682251,2.1261630058288574,-0.40591758489608765,0.0,0.0,0.0,0.0,0.0,0.0,0.0,-0.44813514617082106,-0.019295830766255948,-0.21759451210933928,0.23915240391936865,-0.15845230945740382,-0.06112249012133606,-0.42918144503259825,1.6756228489248375,0.05229305918384016,0.02998168281921609,-2.752374750033724,0.03421403150536396,2.766352447054004,0.7691970920143275,1.6754973547542302,0.052104326824870026,0.029969505109285054,-2.752394845125968,0.0342448039870148,2.7663679543071322,0.7691630533470046,-0.0004741880753994705,-0.00035392995991760087,0.00044977204706378974,0.0004649352435114765,3.328761164055526e-05,0.00013962842709579448,-0.0009417841224237966,0.0,0.0,0.0,0.0,0.0,0.0,0.0,-0.00012549417060725432,-0.00018873235897013535,-1.2177709931036201e-05,-2.0095092243987978e-05,3.0772481650842565e-05,1.5507253128266285e-05,-3.4038667322877636e-05,0.0004741880753994705,0.00035392995991760087,-0.00044977204706378974,-0.0004649352435114765,-3.328761164055526e-05,-0.00013962842709579448,0.0009417841224237966,0.4267818331718445,22.819665908813477,0.1491362750530243,-14.080232620239258,-0.07628399133682251,-2.1261630058288574,0.40591758489608765,0
29,0.14004778861999512,-0.4267818331718445,-22.819665908813477,-0.1491362750530243,14.080232620239258,0.07628399133682251,2.1261630058288574,-0.40591758489608765,0.0,0.0,0.0,0.0,0.0,0.0,0.0,-0.44813514617082106,-0.019295830766255948,-0.21759451210933928,0.23915240391936865,-0.15845230945740382,-0.06112249012133606,-0.42918144503259825,1.6756228489248375,0.05229305918384016,0.02998168281921609,-2.752374750033724,0.03421403150536396,2.766352447054004,0.7691970920143275,1.6754973547542302,0.052104326824870026,0.029969505109285054,-2.752394845125968,0.0342448039870148,2.7663679543071322,0.7691630533470046,-0.0004741880753994705,-0.00035392995991760087,0.00044977204706378974,0.0004649352435114765,3.328761164055526e-05,0.00013962842709579448,-0.0009417841224237966,0.0,0.0,0.0,0.0,0.0,0.0,0.0,-0.00012549417060725432,-0.00018873235897013535,-1.2177709931036201e-05,-2.0095092243987978e-05,3.0772481650842565e-05,1.5507253128266285e-05,-3.4038667322877636e-05,0.0004741880753994705,0.00035392995991760087,-0.00044977204706378974,-0.0004649352435114765,-3.328761164055526e-05,-0.00013962842709579448,0.0009417841224237966,0.4267818331718445,22.819665908813477,0.1491362750530243,-14.080232620239258,-0.07628399133682251,-2.1261630058288574,0.40591758489608765,0
30,0.14500880241394043,-0.4505855441093445,-22.795862197875977,-0.09756157547235489,14.080232620239258,0.06987529993057251,2.1261630058288574,-0.39218467473983765,0.0,0.0,0.0,0.0,0.0,0.0,0.0,-0.4498905999385234,-0.018095201076512163,-0.21889284229655842,0.2359878384569417,-0.15801020441764105,-0.061139899542750106,-0.4302584678729663,1.6756245193606927,0.0522913887479849,0.02997805444157293,-2.7523774609546705,0.03421474797209804,2.766355785347483,0.76919591934614,1.6754973547542302,0.052104326824870026,0.029969505109285054,-2.752394845125968,0.0342448039870148,2.7663679543071322,0.7691630533470046,-9.563907032345548e-05,-0.0006069770583987379,-0.0005514800173427588,0.00026121435519544777,0.0005244381541030323,4.544604326341612e-06,-0.001029905809026177,0.0,0.0,0.0,0.0,0.0,0.0,0.0,-0.00012716460646244876,-0.00018706192311487152,-8.549332287877826e-06,-1.7384171297596396e-05,3.0056014916762797e-05,1.216895964928355e-05,-3.2865999135323065e-05,9.563907032345548e-05,0.0006069770583987379,0.0005514800173427588,-0.00026121435519544777,-0.0005244381541030323,-4.544604326341612e-06,0.001029905809026177,0.4505855441093445,22.795862197875977,0.09756157547235489,-14.080232620239258,-0.06987529993057251,-2.1261630058288574,0.39218467473983765,0
31,0.15001606941223145,-0.4505855441093445,-22.795862197875977,-0.09756157547235489,14.080232620239258,0.06987529993057251,2.1261630058288574,-0.39218467473983765,0.0,0.0,0.0,0.0,0.0,0.0,0.0,-0.4498905999385234,-0.018095201076512163,-0.21889284229655842,0.2359878384569417,-0.15801020441764105,-0.061139899542750106,-0.4302584678729663,1.6756245193606927,0.0522913887479849,0.02997805444157293,-2.7523774609546705,0.03421474797209804,2.766355785347483,0.76919591934614,1.6754973547542302,0.052104326824870026,0.029969505109285054,-2.752394845125968,0.0342448039870148,2.7663679543071322,0.7691630533470046,-9.563907032345548e-05,-0.0006069770583987379,-0.0005514800173427588,0.00026121435519544777,0.0005244381541030323,4.544604326341612e-06,-0.001029905809026177,0.0,0.0,0.0,0.0,0.0,0.0,0.0,-0.00012716460646244876,-0.00018706192311487152,-8.549332287877826e-06,-1.7384171297596396e-05,3.0056014916762797e-05,1.216895964928355e-05,-3.2865999135323065e-05,9.563907032345548e-05,0.0006069770583987379,0.0005514800173427588,-0.00026121435519544777,-0.0005244381541030323,-4.544604326341612e-06,0.001029905809026177,0.4505855441093445,22.795862197875977,0.09756157547235489,-14.080232620239258,-0.06987529993057251,-2.1261630058288574,0.39218467473983765,0
32,0.15499544143676758,-0.4505855441093445,-22.819665908813477,-0.1253325641155243,14.108003616333008,0.08177715539932251,2.1197543144226074,-0.43338340520858765,0.0,0.0,0.0,0.0,0.0,0.0,0.0,-0.4492483480428399,-0.026056003377147377,-0.21498262844211083,0.24066785916937472,-0.15744271168786872,-0.05978107002076933,-0.428479232583355,1.6756245193606927,0.05229305918384016,0.029982140697237987,-2.75237720974507,0.03421318859687793,2.7663561128902825,0.7692004926242019,1.6754973547542302,0.052104326824870026,0.029969505109285054,-2.752394845125968,0.0342448039870148,2.7663679543071322,0.7691630533470046,-3.1424916073051213e-06,-0.0005379432392553167,0.00015286922746906794,-0.00018686043003870393,-0.00022183641135305418,0.0002941977055406547,0.0006537104322131247,0.0,0.0,0.0,0.0,0.0,0.0,0.0,-0.00012716460646244876,-0.00018873235897013535,-1.2635587952933292e-05,-1.7635380898273212e-05,3.161539013687292e-05,1.1841416849733832e-05,-3.743927719723761e-05,3.1424916073051213e-06,0.0005379432392553167,-0.00015286922746906794,0.00018686043003870393,0.00022183641135305418,-0.0002941977055406547,-0.0006537104322131247,0.4505855441093445,22.819665908813477,0.1253325641155243,-14.108003616333008,-0.08177715539932251,-2.1197543144226074,0.43338340520858765,0
33,0.1600048542022705,-0.4505855441093445,-22.819665908813477,-0.1253325641155243,14.108003616333008,0.08177715539932251,2.1197543144226074,-0.43338340520858765,0.0,0.0,0.0,0.0,0.0,0.0,0.0,-0.4492483480428399,-0.026056003377147377,-0.21498262844211083,0.24066785916937472,-0.15744271168786872,-0.05978107002076933,-0.428479232583355,1.6756245193606927,0.05229305918384016,0.029982140697237987,-2.75237720974507,0.03421318859687793,2.7663561128902825,0.7692004926242019,1.6754973547542302,0.052104326824870026,0.029969505109285054,-2.752394845125968,0.0342448039870148,2.7663679543071322,0.7691630533470046,-3.1424916073051213e-06,-0.0005379432392553167,0.00015286922746906794,-0.00018686043003870393,-0.00022183641135305418,0.0002941977055406547,0.0006537104322131247,0.0,0.0,0.0,0.0,0.0,0.0,0.0,-0.00012716460646244876,-0.00018873235897013535,-1.2635587952933292e-05,-1.7635380898273212e-05,3.161539013687292e-05,1.1841416849733832e-05,-3.743927719723761e-05,3.1424916073051213e-06,0.0005379432392553167,-0.00015286922746906794,0.00018686043003870393,0.00022183641135305418,-0.0002941977055406547,-0.0006537104322131247,0.4505855441093445,22.819665908813477,0.1253325641155243,-14.108003616333008,-0.08177715539932251,-2.1197543144226074,0.43338340520858765,0
34,0.16500639915466309,-0.4505855441093445,-22.847436904907227,-0.1491362750530243,14.108003616333008,0.08177715539932251,2.1261630058288574,-0.44711631536483765,0.0,0.0,0.0,0.0,0.0,0.0,0.0,-0.4516040919640196,-0.020261963375106405,-0.2161971170170903,0.23488951267355362,-0.15692103863269818,-0.060680434070979825,-0.4268338927804687,1.6756245193606927,0.0522950080256713,0.029983786151854624,-2.7523765251912375,0.03421310522534905,2.7663524475605765,0.7692020228637342,1.6754973547542302,0.052104326824870026,0.029969505109285054,-2.752394845125968,0.0342448039870148,2.7663679543071322,0.7691630533470046,3.311835167569025e-05,0.0007020708261635064,-2.1652833614091996e-05,-0.0002648658903081803,-0.00031236078814124603,6.828713428095364e-05,0.0009145212310677163,0.0,0.0,0.0,0.0,0.0,0.0,0.0,-0.00012716460646244876,-0.00019068120080127648,-1.4281042569570801e-05,-1.8319934730559595e-05,3.1698761665747976e-05,1.550674655570461e-05,-3.896951672954785e-05,-3.311835167569025e-05,-0.0007020708261635064,2.1652833614091996e-05,0.0002648658903081803,0.00031236078814124603,-6.828713428095364e-05,-0.0009145212310677163,0.4505855441093445,22.847436904907227,0.1491362750530243,-14.108003616333008,-0.08177715539932251,-2.1261630058288574,0.44711631536483765,0
35,0.1700453758239746,-0.4505855441093445,-22.847436904907227,-0.1491362750530243,14.108003616333008,0.08177715539932251,2.1261630058288574,-0.44711631536483765,0.0,0.0,0.0,0.0,0.0,0.0,0.0,-0.4516040919640196,-0.020261963375106405,-0.2161971170170903,0.23488951267355362,-0.15692103863269818,-0.060680434070979825,-0.4268338927804687,1.6756245193606927,0.0522950080256713,0.029983786151854624,-2.7523765251912375,0.03421310522534905,2.7663524475605765,0.7692020228637342,1.6754973547542302,0.052104326824870026,0.029969505109285054,-2.752394845125968,0.0342448039870148,2.7663679543071322,0.7691630533470046,3.311835167569025e-05,0.0007020708261635064,-2.1652833614091996e-05,-0.0002648658903081803,-0.00031236078814124603,6.828713428095364e-05,0.0009145212310677163,0.0,0.0,0.0,0.0,0.0,0.0,0.0,-0.00012716460646244876,-0.00019068120080127648,-1.4281042569570801e-05,-1.8319934730559595e-05,3.1698761665747976e-05,1.550674655570461e-05,-3.896951672954785e-05,-3.311835167569025e-05,-0.0007020708261635064,2.1652833614091996e-05,0.0002648658903081803,0.00031236078814124603,-6.828713428095364e-05,-0.0009145212310677163,0.4505855441093445,22.847436904907227,0.1491362750530243,-14.108003616333008,-0.08177715539932251,-2.1261630058288574,0.44711631536483765,0
36,0.17502546310424805,-0.4505855441093445,-22.795862197875977,-0.1491362750530243,14.108003616333008,0.07628399133682251,2.1261630058288574,-0.46725791692733765,0.0,0.0,0.0,0.0,0.0,0.0,0.0,-0.4499652770911639,-0.02326762168389133,-0.21740173677167096,0.23579493741994828,-0.156520343500859,-0.06051709588876178,-0.4271351895845631,1.6756245193606927,0.05229351961403562,0.029983812443371474,-2.7523765309531227,0.03421367613946934,2.7663554099519843,0.769204260819488,1.6754973547542302,0.052104326824870026,0.029969505109285054,-2.752394845125968,0.0342448039870148,2.7663679543071322,0.7691630533470046,4.984555660554397e-06,-0.0008140411946836748,0.0004472293673639918,-0.00011223871516643235,8.647359006368568e-05,-3.27870392996524e-05,0.0013589781722417292,0.0,0.0,0.0,0.0,0.0,0.0,0.0,-0.00012716460646244876,-0.00018919278916559173,-1.4307334086419848e-05,-1.8314172845368404e-05,3.1127847545463216e-05,1.254435514796981e-05,-4.120747248337331e-05,-4.984555660554397e-06,0.0008140411946836748,-0.0004472293673639918,0.00011223871516643235,-8.647359006368568e-05,3.27870392996524e-05,-0.0013589781722417292,0.4505855441093445,22.795862197875977,0.1491362750530243,-14.108003616333008,-0.07628399133682251,-2.1261630058288574,0.46725791692733765,0
37,0.18001508712768555,-0.4505855441093445,-22.795862197875977,-0.1491362750530243,14.108003616333008,0.07628399133682251,2.1261630058288574,-0.46725791692733765,0.0,0.0,0.0,0.0,0.0,0.0,0.0,-0.4499652770911639,-0.02326762168389133,-0.21740173677167096,0.23579493741994828,-0.156520343500859,-0.06051709588876178,-0.4271351895845631,1.6756245193606927,0.05229351961403562,0.029983812443371474,-2.7523765309531227,0.03421367613946934,2.7663554099519843,0.769204260819488,1.6754973547542302,0.052104326824870026,0.029969505109285054,-2.752394845125968,0.0342448039870148,2.7663679543071322,0.7691630533470046,4.984555660554397e-06,-0.0008140411946836748,0.0004472293673639918,-0.00011223871516643235,8.647359006368568e-05,-3.27870392996524e-05,0.0013589781722417292,0.0,0.0,0.0,0.0,0.0,0.0,0.0,-0.00012716460646244876,-0.00018919278916559173,-1.4307334086419848e-05,-1.8314172845368404e-05,3.1127847545463216e-05,1.254435514796981e-05,-4.120747248337331e-05,-4.984555660554397e-06,0.0008140411946836748,-0.0004472293673639918,0.00011223871516643235,-8.647359006368568e-05,3.27870392996524e-05,-0.0013589781722417292,0.4505855441093445,22.795862197875977,0.1491362750530243,-14.108003616333008,-0.07628399133682251,-2.1261630058288574,0.46725791692733765,0
38,0.1850261688232422,-0.4505855441093445,-22.795862197875977,-0.1491362750530243,14.108003616333008,0.07628399133682251,2.1261630058288574,-0.46725791692733765,0.0,0.0,0.0,0.0,0.0,0.0,0.0,-0.4499652770911639,-0.02326762168389133,-0.21740173677167096,0.23579493741994828,-0.156520343500859,-0.06051709588876178,-0.4271351895845631,1.6756245193606927,0.05229351961403562,0.029983812443371474,-2.7523765309531227,0.03421367613946934,2.7663554099519843,0.769204260819488,1.6754973547542302,0.052104326824870026,0.029969505109285054,-2.752394845125968,0.0342448039870148,2.7663679543071322,0.7691630533470046,4.984555660554397e-06,-0.0008140411946836748,0.0004472293673639918,-0.00011223871516643235,8.647359006368568e-05,-3.27870392996524e-05,0.0013589781722417292,0.0,0.0,0.0,0.0,0.0,0.0,0.0,-0.00012716460646244876,-0.00018919278916559173,-1.4307334086419848e-05,-1.8314172845368404e-05,3.1127847545463216e-05,1.254435514796981e-05,-4.120747248337331e-05,-4.984555660554397e-06,0.0008140411946836748,-0.0004472293673639918,0.00011223871516643235,-8.647359006368568e-05,3.27870392996524e-05,-0.0013589781722417292,0.4505855441093445,22.795862197875977,0.1491362750530243,-14.108003616333008,-0.07628399133682251,-2.1261630058288574,0.46725791692733765,0
39,0.19022130966186523,-0.4505855441093445,-22.795862197875977,-0.1491362750530243,14.108003616333008,0.07628399133682251,2.1261630058288574,-0.46725791692733765,0.0,0.0,0.0,0.0,0.0,0.0,0.0,-0.4499652770911639,-0.02326762168389133,-0.21740173677167096,0.23579493741994828,-0.156520343500859,-0.06051709588876178,-0.4271351895845631,1.6756245193606927,0.05229351961403562,0.029983812443371474,-2.7523765309531227,0.03421367613946934,2.7663554099519843,0.769204260819488,1.6754973547542302,0.052104326824870026,0.029969505109285054,-2.752394845125968,0.0342448039870148,2.7663679543071322,0.7691630533470046,4.984555660554397e-06,-0.0008140411946836748,0.0004472293673639918,-0.00011223871516643235,8.647359006368568e-05,-3.27870392996524e-05,0.0013589781722417292,0.0,0.0,0.0,0.0,0.0,0.0,0.0,-0.00012716460646244876,-0.00018919278916559173,-1.4307334086419848e-05,-1.8314172845368404e-05,3.1127847545463216e-05,1.254435514796981e-05,-4.120747248337331e-05,-4.984555660554397e-06,0.0008140411946836748,-0.0004472293673639918,0.00011223871516643235,-8.647359006368568e-05,3.27870392996524e-05,-0.0013589781722417292,0.4505855441093445,22.795862197875977,0.1491362750530243,-14.108003616333008,-0.07628399133682251,-2.1261630058288574,0.46725791692733765,0
40,0.1950228214263916,-0.4505855441093445,-22.819665908813477,-0.1253325641155243,14.131807327270508,0.08177715539932251,2.1069369316101074,-0.41324180364608765,0.0,0.0,0.0,0.0,0.0,0.0,0.0,-0.4453953974687896,-0.02407367085802538,-0.2141613056795932,0.23806443910539254,-0.15644574515480514,-0.0601803839532899,-0.4294090545253732,1.6756245193606927,0.052293085502857245,0.029982142007664626,-2.752380363884163,0.03421342131631676,2.766353100071608,0.7691982590291234,1.6754973547542302,0.052104326824870026,0.029969505109285054,-2.752394845125968,0.0342448039870148,2.7663679543071322,0.7691630533470046,0.00030578604023401437,-0.00019517071978339312,-7.283175278827026e-05,-0.0004254625284656709,-0.0003378346831880067,0.0007734885152704142,-0.0005014121882774783,0.0,0.0,0.0,0.0,0.0,0.0,0.0,-0.00012716460646244876,-0.00018875867798721913,-1.263689837957202e-05,-1.448124180525312e-05,3.138267069804218e-05,1.4854235524275339e-05,-3.5205682118788495e-05,-0.00030578604023401437,0.00019517071978339312,7.283175278827026e-05,0.0004254625284656709,0.0003378346831880067,-0.0007734885152704142,0.0005014121882774783,0.4505855441093445,22.819665908813477,0.1253325641155243,-14.131807327270508,-0.08177715539932251,-2.1069369316101074,0.41324180364608765,0
41,0.1999952793121338,-0.4505855441093445,-22.819665908813477,-0.1253325641155243,14.131807327270508,0.08177715539932251,2.1069369316101074,-0.41324180364608765,0.0,0.0,0.0,0.0,0.0,0.0,0.0,-0.4453953974687896,-0.02407367085802538,-0.2141613056795932,0.23806443910539254,-0.15644574515480514,-0.0601803839532899,-0.4294090545253732,1.6756245193606927,0.052293085502857245,0.029982142007664626,-2.752380363884163,0.03421342131631676,2.766353100071608,0.7691982590291234,1.6754973547542302,0.052104326824870026,0.029969505109285054,-2.752394845125968,0.0342448039870148,2.7663679543071322,0.7691630533470046,0.00030578604023401437,-0.00019517071978339312,-7.283175278827026e-05,-0.0004254625284656709,-0.0003378346831880067,0.0007734885152704142,-0.0005014121882774783,0.0,0.0,0.0,0.0,0.0,0.0,0.0,-0.00012716460646244876,-0.00018875867798721913,-1.263689837957202e-05,-1.448124180525312e-05,3.138267069804218e-05,1.4854235524275339e-05,-3.5205682118788495e-05,-0.00030578604023401437,0.00019517071978339312,7.283175278827026e-05,0.0004254625284656709,0.0003378346831880067,-0.0007734885152704142,0.0005014121882774783,0.4505855441093445,22.819665908813477,0.1253325641155243,-14.131807327270508,-0.08177715539932251,-2.1069369316101074,0.41324180364608765,0
42,0.2050166130065918,-0.4783565402030945,-22.819665908813477,-0.09756157547235489,14.131807327270508,0.08177715539932251,2.1133456230163574,-0.39950889348983765,0.0,0.0,0.0,0.0,0.0,0.0,0.0,-0.4503458924259428,-0.020307761478760823,-0.21906935524409077,0.23615113966722187,-0.15637556699650756,-0.06124360817824454,-0.4298667433808571,1.6756264682025237,0.05229305918398873,0.029980193166356334,-2.7523789343297036,0.034213184208949254,2.766357030980635,0.7691967331502172,1.6754973547542302,0.052104326824870026,0.029969505109285054,-2.752394845125968,0.0342448039870148,2.7663679543071322,0.7691630533470046,0.0009461160836628624,5.649040482860623e-05,-0.0011165449818475474,-0.0008378830198368648,-0.00017806299774117843,0.000483531567871615,-0.0009792709475944803,0.0,0.0,0.0,0.0,0.0,0.0,0.0,-0.00012911344829347193,-0.000188732359118704,-1.068805707128001e-05,-1.5910796264506644e-05,3.161977806554611e-05,1.0923326497103147e-05,-3.36798032125607e-05,-0.0009461160836628624,-5.649040482860623e-05,0.0011165449818475474,0.0008378830198368648,0.00017806299774117843,-0.000483531567871615,0.0009792709475944803,0.4783565402030945,22.819665908813477,0.09756157547235489,-14.131807327270508,-0.08177715539932251,-2.1133456230163574,0.39950889348983765,0
43,0.21001553535461426,-0.4783565402030945,-22.819665908813477,-0.09756157547235489,14.131807327270508,0.08177715539932251,2.1133456230163574,-0.39950889348983765,0.0,0.0,0.0,0.0,0.0,0.0,0.0,-0.4503458924259428,-0.020307761478760823,-0.21906935524409077,0.23615113966722187,-0.15637556699650756,-0.06124360817824454,-0.4298667433808571,1.6756264682025237,0.05229305918398873,0.029980193166356334,-2.7523789343297036,0.034213184208949254,2.766357030980635,0.7691967331502172,1.6754973547542302,0.052104326824870026,0.029969505109285054,-2.752394845125968,0.0342448039870148,2.7663679543071322,0.7691630533470046,0.0009461160836628624,5.649040482860623e-05,-0.0011165449818475474,-0.0008378830198368648,-0.00017806299774117843,0.000483531567871615,-0.0009792709475944803,0.0,0.0,0.0,0.0,0.0,0.0,0.0,-0.00012911344829347193,-0.000188732359118704,-1.068805707128001e-05,-1.5910796264506644e-05,3.161977806554611e-05,1.0923326497103147e-05,-3.36798032125607e-05,-0.0009461160836628624,-5.649040482860623e-05,0.0011165449818475474,0.0008378830198368648,0.00017806299774117843,-0.000483531567871615,0.0009792709475944803,0.4783565402030945,22.819665908813477,0.09756157547235489,-14.131807327270508,-0.08177715539932251,-2.1133456230163574,0.39950889348983765,0
44,0.21508002281188965,-0.4267818331718445,-22.772058486938477,-0.1491362750530243,14.056428909301758,0.07628399133682251,2.1197543144226074,-0.39218467473983765,0.0,0.0,0.0,0.0,0.0,0.0,0.0,-0.44629101438066965,-0.016569568040466477,-0.21492725730143863,0.2353111379209499,-0.15754265929313663,-0.0621388369692909,-0.4291137581584719,1.6756228489248375,0.052289718312129634,0.029983803679633936,-2.752373561852631,0.03421371996479159,2.766355371142584,0.7691959193481338,1.6754973547542302,0.052104326824870026,0.029969505109285054,-2.752394845125968,0.0342448039870148,2.7663679543071322,0.7691630533470046,-5.853966277858165e-05,-0.0008872719215682779,0.0003878866913940769,0.0008792943478032837,-0.00021745736550393753,0.0001968190449040382,-0.0011539671967989895,0.0,0.0,0.0,0.0,0.0,0.0,0.0,-0.00012549417060725432,-0.0001853914872596077,-1.42985703488821e-05,-2.128327333705826e-05,3.108402222321005e-05,1.2583164548107817e-05,-3.2866001129172595e-05,5.853966277858165e-05,0.0008872719215682779,-0.0003878866913940769,-0.0008792943478032837,0.00021745736550393753,-0.0001968190449040382,0.0011539671967989895,0.4267818331718445,22.772058486938477,0.1491362750530243,-14.056428909301758,-0.07628399133682251,-2.1197543144226074,0.39218467473983765,0
45,0.2200155258178711,-0.4267818331718445,-22.772058486938477,-0.1491362750530243,14.056428909301758,0.07628399133682251,2.1197543144226074,-0.39218467473983765,0.0,0.0,0.0,0.0,0.0,0.0,0.0,-0.44629101438066965,-0.016569568040466477,-0.21492725730143863,0.2353111379209499,-0.15754265929313663,-0.0621388369692909,-0.4291137581584719,1.6756228489248375,0.052289718312129634,0.029983803679633936,-2.752373561852631,0.03421371996479159,2.766355371142584,0.7691959193481338,1.6754973547542302,0.052104326824870026,0.029969505109285054,-2.752394845125968,0.0342448039870148,2.7663679543071322,0.7691630533470046,-5.853966277858165e-05,-0.0008872719215682779,0.0003878866913940769,0.0008792943478032837,-0.00021745736550393753,0.0001968190449040382,-0.0011539671967989895,0.0,0.0,0.0,0.0,0.0,0.0,0.0,-0.00012549417060725432,-0.0001853914872596077,-1.42985703488821e-05,-2.128327333705826e-05,3.108402222321005e-05,1.2583164548107817e-05,-3.2866001129172595e-05,5.853966277858165e-05,0.0008872719215682779,-0.0003878866913940769,-0.0008792943478032837,0.00021745736550393753,-0.0001968190449040382,0.0011539671967989895,0.4267818331718445,22.772058486938477,0.1491362750530243,-14.056428909301758,-0.07628399133682251,-2.1197543144226074,0.39218467473983765,0
46,0.22501373291015625,-0.4783565402030945,-22.819665908813477,-0.1491362750530243,14.108003616333008,0.08177715539932251,2.1389803886413574,-0.41324180364608765,0.0,0.0,0.0,0.0,0.0,0.0,0.0,-0.44730706826324546,-0.023301979697057988,-0.2184019784288734,0.24329501485884084,-0.15817204928456932,-0.060467463190235056,-0.4281786693785858,1.6756264682025237,0.05229305918384016,0.02998381244347042,-2.75237671421721,0.03421306573375994,2.766350856535175,0.7691982590291234,1.6754973547542302,0.052104326824870026,0.029969505109285054,-2.752394845125968,0.0342448039870148,2.7663679543071322,0.7691630533470046,0.000767034218524456,-0.0001244415127930668,0.00045800694644922466,0.00023504719759616968,-0.00032350730807647265,-0.0003546332464157302,-0.0008924878492657969,0.0,0.0,0.0,0.0,0.0,0.0,0.0,-0.00012911344829347193,-0.00018873235897013535,-1.4307334185365006e-05,-1.813090875790735e-05,3.173825325485796e-05,1.7097771957352847e-05,-3.5205682118788495e-05,-0.000767034218524456,0.0001244415127930668,-0.00045800694644922466,-0.00023504719759616968,0.00032350730807647265,0.0003546332464157302,0.0008924878492657969,0.4783565402030945,22.819665908813477,0.1491362750530243,-14.108003616333008,-0.08177715539932251,-2.1389803886413574,0.41324180364608765,0
47,0.2300102710723877,-0.4783565402030945,-22.819665908813477,-0.1491362750530243,14.108003616333008,0.08177715539932251,2.1389803886413574,-0.41324180364608765,0.0,0.0,0.0,0.0,0.0,0.0,0.0,-0.44730706826324546,-0.023301979697057988,-0.2184019784288734,0.24329501485884084,-0.15817204928456932,-0.060467463190235056,-0.4281786693785858,1.6756264682025237,0.05229305918384016,0.02998381244347042,-2.75237671421721,0.03421306573375994,2.766350856535175,0.7691982590291234,1.6754973547542302,0.052104326824870026,0.029969505109285054,-2.752394845125968,0.0342448039870148,2.7663679543071322,0.7691630533470046,0.000767034218524456,-0.0001244415127930668,0.00045800694644922466,0.00023504719759616968,-0.00032350730807647265,-0.0003546332464157302,-0.0008924878492657969,0.0,0.0,0.0,0.0,0.0,0.0,0.0,-0.00012911344829347193,-0.00018873235897013535,-1.4307334185365006e-05,-1.813090875790735e-05,3.173825325485796e-05,1.7097771957352847e-05,-3.5205682118788495e-05,-0.000767034218524456,0.0001244415127930668,-0.00045800694644922466,-0.00023504719759616968,0.00032350730807647265,0.0003546332464157302,0.0008924878492657969,0.4783565402030945,22.819665908813477,0.1491362750530243,-14.108003616333008,-0.08177715539932251,-2.1389803886413574,0.41324180364608765,0
48,0.23502254486083984,-0.4505855441093445,-22.847436904907227,-0.09756157547235489,14.131807327270508,0.06438213586807251,2.1133456230163574,-0.41965049505233765,0.0,0.0,0.0,0.0,0.0,0.0,0.0,-0.4485903427860003,-0.019274205560442785,-0.21507038216638596,0.24019930808511314,-0.1586390640846211,-0.06080071949073296,-0.42939643777494424,1.6756245193606927,0.0522950080256713,0.029979483291593906,-2.7523782054599857,0.03421501167717457,2.76635591378935,0.7691989709444408,1.6754973547542302,0.052104326824870026,0.029969505109285054,-2.752394845125968,0.0342448039870148,2.7663679543071322,0.7691630533470046,-0.00025287764161348986,0.0005338595132598978,-0.0007158804595704891,-0.0007169966455788464,0.00020199822680949656,0.0002724188828295201,-0.0009013488210043806,0.0,0.0,0.0,0.0,0.0,0.0,0.0,-0.00012716460646244876,-0.00019068120080127648,-9.978182308852807e-06,-1.6639665982420837e-05,2.979230984023057e-05,1.204051778236348e-05,-3.5917597436152526e-05,0.00025287764161348986,-0.0005338595132598978,0.0007158804595704891,0.0007169966455788464,-0.00020199822680949656,-0.0002724188828295201,0.0009013488210043806,0.4505855441093445,22.847436904907227,0.09756157547235489,-14.131807327270508,-0.06438213586807251,-2.1133456230163574,0.41965049505233765,0
49,0.24002408981323242,-0.4505855441093445,-22.847436904907227,-0.09756157547235489,14.131807327270508,0.06438213586807251,2.1133456230163574,-0.41965049505233765,0.0,0.0,0.0,0.0,0.0,0.0,0.0,-0.4485903427860003,-0.019274205560442785,-0.21507038216638596,0.24019930808511314,-0.1586390640846211,-0.06080071949073296,-0.42939643777494424,1.6756245193606927,0.0522950080256713,0.029979483291593906,-2.7523782054599857,0.03421501167717457,2.76635591378935,0.7691989709444408,1.6754973547542302,0.052104326824870026,0.029969505109285054,-2.752394845125968,0.0342448039870148,2.7663679543071322,0.7691630533470046,-0.00025287764161348986,0.0005338595132598978,-0.0007158804595704891,-0.0007169966455788464,0.00020199822680949656,0.0002724188828295201,-0.0009013488210043806,0.0,0.0,0.0,0.0,0.0,0.0,0.0,-0.00012716460646244876,-0.00019068120080127648,-9.978182308852807e-06,-1.6639665982420837e-05,2.979230984023057e-05,1.204051778236348e-05,-3.5917597436152526e-05,0.00025287764161348986,-0.0005338595132598978,0.0007158804595704891,0.0007169966455788464,-0.00020199822680949656,-0.0002724188828295201,0.0009013488210043806,0.4505855441093445,22.847436904907227,0.09756157547235489,-14.131807327270508,-0.06438213586807251,-2.1133456230163574,0.41965049505233765,0
50,0.24503087997436523,-0.4267818331718445,-22.847436904907227,-0.09756157547235489,14.108003616333008,0.06987529993057251,2.1325716972351074,-0.41965049505233765,0.0,0.0,0.0,0.0,0.0,0.0,0.0,-0.4504803544488983,-0.0203710281888729,-0.21463177628937577,0.23972716016543602,-0.1592145088460943,-0.06135760672362988,-0.4315029550472535,1.6756228489248375,0.0522950080256713,0.029978059606935985,-2.752376442545022,0.0342145066354017,2.766355059093925,0.7691989711059455,1.6754973547542302,0.052104326824870026,0.029969505109285054,-2.752394845125968,0.0342448039870148,2.7663679543071322,0.7691630533470046,-0.0004776722935813483,0.00044531433710259436,-0.0012389205522447427,-0.00023031997029682573,0.00022739570403432376,-0.0003577507918276473,-0.0006036837786026595,0.0,0.0,0.0,0.0,0.0,0.0,0.0,-0.00012549417060725432,-0.00019068120080127648,-8.554497650931775e-06,-1.8402580946208502e-05,3.0297351613098322e-05,1.2895213207020362e-05,-3.591775894085103e-05,0.0004776722935813483,-0.00044531433710259436,0.0012389205522447427,0.00023031997029682573,-0.00022739570403432376,0.0003577507918276473,0.0006036837786026595,0.4267818331718445,22.847436904907227,0.09756157547235489,-14.108003616333008,-0.06987529993057251,-2.1325716972351074,0.41965049505233765,0
51,0.2500183582305908,-0.4267818331718445,-22.847436904907227,-0.09756157547235489,14.108003616333008,0.06987529993057251,2.1325716972351074,-0.41965049505233765,0.0,0.0,0.0,0.0,0.0,0.0,0.0,-0.4504803544488983,-0.0203710281888729,-0.21463177628937577,0.23972716016543602,-0.1592145088460943,-0.06135760672362988,-0.4315029550472535,1.6756228489248375,0.0522950080256713,0.029978059606935985,-2.752376442545022,0.0342145066354017,2.766355059093925,0.7691989711059455,1.6754973547542302,0.052104326824870026,0.029969505109285054,-2.752394845125968,0.0342448039870148,2.7663679543071322,0.7691630533470046,-0.0004776722935813483,0.00044531433710259436,-0.0012389205522447427,-0.00023031997029682573,0.00022739570403432376,-0.0003577507918276473,-0.0006036837786026595,0.0,0.0,0.0,0.0,0.0,0.0,0.0,-0.00012549417060725432,-0.00019068120080127648,-8.554497650931775e-06,-1.8402580946208502e-05,3.0297351613098322e-05,1.2895213207020362e-05,-3.591775894085103e-05,0.0004776722935813483,-0.00044531433710259436,0.0012389205522447427,0.00023031997029682573,-0.00022739570403432376,0.0003577507918276473,0.0006036837786026595,0.4267818331718445,22.847436904907227,0.09756157547235489,-14.108003616333008,-0.06987529993057251,-2.1325716972351074,0.41965049505233765,0
52,0.25499892234802246,-0.4783565402030945,-22.819665908813477,-0.09756157547235489,14.080232620239258,0.07628399133682251,2.1197543144226074,-0.40591758489608765,0.0,0.0,0.0,0.0,0.0,0.0,0.0,-0.45047236520424755,-0.01680273537278279,-0.2186040271855968,0.23846239957347634,-0.15866583220215122,-0.06205022415366544,-0.43139960038935504,1.6756264682025237,0.05229305918384016,0.029980192180547222,-2.752374747960908,0.03421367608574353,2.7663564959168427,0.76919744522704,1.6754973547542302,0.052104326824870026,0.029969505109285054,-2.752394845125968,0.0342448039870148,2.7663679543071322,0.7691630533470046,0.0007773955150448806,0.00037052243988449957,-0.0011913786639344932,0.0006925530422975907,-3.332322140541115e-05,1.2356842524931628e-05,-0.0010509271698371451,0.0,0.0,0.0,0.0,0.0,0.0,0.0,-0.00012911344829347193,-0.00018873235897013535,-1.0687071262168585e-05,-2.009716506012893e-05,3.112790127127174e-05,1.1458390289487141e-05,-3.439188003540039e-05,-0.0007773955150448806,-0.00037052243988449957,0.0011913786639344932,-0.0006925530422975907,3.332322140541115e-05,-1.2356842524931628e-05,0.0010509271698371451,0.4783565402030945,22.819665908813477,0.09756157547235489,-14.080232620239258,-0.07628399133682251,-2.1197543144226074,0.40591758489608765,0
53,0.26004505157470703,-0.4783565402030945,-22.819665908813477,-0.09756157547235489,14.080232620239258,0.07628399133682251,2.1197543144226074,-0.40591758489608765,0.0,0.0,0.0,0.0,0.0,0.0,0.0,-0.45047236520424755,-0.01680273537278279,-0.2186040271855968,0.23846239957347634,-0.15866583220215122,-0.06205022415366544,-0.43139960038935504,1.6756264682025237,0.05229305918384016,0.029980192180547222,-2.752374747960908,0.03421367608574353,2.7663564959168427,0.76919744522704,1.6754973547542302,0.052104326824870026,0.029969505109285054,-2.752394845125968,0.0342448039870148,2.7663679543071322,0.7691630533470046,0.0007773955150448806,0.00037052243988449957,-0.0011913786639344932,0.0006925530422975907,-3.332322140541115e-05,1.2356842524931628e-05,-0.0010509271698371451,0.0,0.0,0.0,0.0,0.0,0.0,0.0,-0.00012911344829347193,-0.00018873235897013535,-1.0687071262168585e-05,-2.009716506012893e-05,3.112790127127174e-05,1.1458390289487141e-05,-3.439188003540039e-05,-0.0007773955150448806,-0.00037052243988449957,0.0011913786639344932,-0.0006925530422975907,3.332322140541115e-05,-1.2356842524931628e-05,0.0010509271698371451,0.4783565402030945,22.819665908813477,0.09756157547235489,-14.080232620239258,-0.07628399133682251,-2.1197543144226074,0.40591758489608765,0
54,0.2650008201599121,-0.4267818331718445,-22.847436904907227,-0.1491362750530243,14.131807327270508,0.07628399133682251,2.1261630058288574,-0.39218467473983765,0.0,0.0,0.0,0.0,0.0,0.0,0.0,-0.4452790259825851,-0.019044255748697433,-0.21585500758153697,0.2388070346544122,-0.1589134311618644,-0.06230595819512435,-0.4310488792063742,1.6756228489248375,0.05229571831435487,0.029983812010729836,-2.7523806774212707,0.034213676085074744,2.7663546728028106,0.7691959193481338,1.6754973547542302,0.052104326824870026,0.029969505109285054,-2.752394845125968,0.0342448039870148,2.7663679543071322,0.7691630533470046,-0.00015843297252244576,0.0005613407402132382,0.0004375016478884595,-0.0008856626228519273,-9.283477864688152e-05,4.221298041816623e-05,-0.001283201660865463,0.0,0.0,0.0,0.0,0.0,0.0,0.0,-0.00012549417060725432,-0.00019139148948484758,-1.4306901444782055e-05,-1.4167704697420902e-05,3.112790194005621e-05,1.3281504321671633e-05,-3.2866001129172595e-05,0.00015843297252244576,-0.0005613407402132382,-0.0004375016478884595,0.0008856626228519273,9.283477864688152e-05,-4.221298041816623e-05,0.001283201660865463,0.4267818331718445,22.847436904907227,0.1491362750530243,-14.131807327270508,-0.07628399133682251,-2.1261630058288574,0.39218467473983765,0
55,0.27000904083251953,-0.4267818331718445,-22.847436904907227,-0.1491362750530243,14.131807327270508,0.07628399133682251,2.1261630058288574,-0.39218467473983765,0.0,0.0,0.0,0.0,0.0,0.0,0.0,-0.4452790259825851,-0.019044255748697433,-0.21585500758153697,0.2388070346544122,-0.1589134311618644,-0.06230595819512435,-0.4310488792063742,1.6756228489248375,0.05229571831435487,0.029983812010729836,-2.7523806774212707,0.034213676085074744,2.7663546728028106,0.7691959193481338,1.6754973547542302,0.052104326824870026,0.029969505109285054,-2.752394845125968,0.0342448039870148,2.7663679543071322,0.7691630533470046,-0.00015843297252244576,0.0005613407402132382,0.0004375016478884595,-0.0008856626228519273,-9.283477864688152e-05,4.221298041816623e-05,-0.001283201660865463,0.0,0.0,0.0,0.0,0.0,0.0,0.0,-0.00012549417060725432,-0.00019139148948484758,-1.4306901444782055e-05,-1.4167704697420902e-05,3.112790194005621e-05,1.3281504321671633e-05,-3.2866001129172595e-05,0.00015843297252244576,-0.0005613407402132382,-0.0004375016478884595,0.0008856626228519273,9.283477864688152e-05,-4.221298041816623e-05,0.001283201660865463,0.4267818331718445,22.847436904907227,0.1491362750530243,-14.131807327270508,-0.07628399133682251,-2.1261630058288574,0.39218467473983765,0
56,0.275012731552124,-0.4505855441093445,-22.795862197875977,-0.1253325641155243,14.155611038208008,0.07628399133682251,2.1197543144226074,-0.40591758489608765,0.0,0.0,0.0,0.0,0.0,0.0,0.0,-0.4494813100085703,-0.021124774763896206,-0.22218616764914007,0.239276620845763,-0.15804506114016473,-0.06135303736329847,-0.4311325880615991,1.6756245193606927,0.052291388751994496,0.029982142007662183,-2.752380040176112,0.034213796021139414,2.766356497493397,0.76919744522704,1.6754973547542302,0.052104326824870026,0.029969505109285054,-2.752394845125968,0.0342448039870148,2.7663679543071322,0.7691630533470046,-0.0002003542639083994,-0.0010527549584671766,-0.00045932446606078095,-0.0011319442847715722,2.265212073987247e-05,0.00028164153773972884,-0.0045075420025593,0.0,0.0,0.0,0.0,0.0,0.0,0.0,-0.00012716460646244876,-0.00018706192712446973,-1.263689837712953e-05,-1.4804949856284111e-05,3.100796587538618e-05,1.1456813735044591e-05,-3.439188003540039e-05,0.0002003542639083994,0.0010527549584671766,0.00045932446606078095,0.0011319442847715722,-2.265212073987247e-05,-0.00028164153773972884,0.0045075420025593,0.4505855441093445,22.795862197875977,0.1253325641155243,-14.155611038208008,-0.07628399133682251,-2.1197543144226074,0.40591758489608765,0
57,0.2799966335296631,-0.4505855441093445,-22.795862197875977,-0.1253325641155243,14.155611038208008,0.07628399133682251,2.1197543144226074,-0.40591758489608765,0.0,0.0,0.0,0.0,0.0,0.0,0.0,-0.4494813100085703,-0.021124774763896206,-0.22218616764914007,0.239276620845763,-0.15804506114016473,-0.06135303736329847,-0.4311325880615991,1.6756245193606927,0.052291388751994496,0.029982142007662183,-2.752380040176112,0.034213796021139414,2.766356497493397,0.76919744522704,1.6754973547542302,0.052104326824870026,0.029969505109285054,-2.752394845125968,0.0342448039870148,2.7663679543071322,0.7691630533470046,-0.0002003542639083994,-0.0010527549584671766,-0.00045932446606078095,-0.0011319442847715722,2.265212073987247e-05,0.00028164153773972884,-0.0045075420025593,0.0,0.0,0.0,0.0,0.0,0.0,0.0,-0.00012716460646244876,-0.00018706192712446973,-1.263689837712953e-05,-1.4804949856284111e-05,3.100796587538618e-05,1.1456813735044591e-05,-3.439188003540039e-05,0.0002003542639083994,0.0010527549584671766,0.00045932446606078095,0.0011319442847715722,-2.265212073987247e-05,-0.00028164153773972884,0.0045075420025593,0.4505855441093445,22.795862197875977,0.1253325641155243,-14.155611038208008,-0.07628399133682251,-2.1197543144226074,0.40591758489608765,0
58,0.2850065231323242,-0.4505855441093445,-22.847436904907227,-0.1253325641155243,14.108003616333008,0.06987529993057251,2.1325716972351074,-0.39218467473983765,0.0,0.0,0.0,0.0,0.0,0.0,0.0,-0.4444640206882271,-0.01576057138624031,-0.21750307530177143,0.23449635640266,-0.15864885899405765,-0.06185839400598905,-0.432369445687077,1.6756245193606927,0.05229500802567191,0.029979933508403736,-2.752378665676146,0.03421439256808261,2.7663550733460314,0.7691959193481338,1.6754973547542302,0.052104326824870026,0.029969505109285054,-2.752394845125968,0.0342448039870148,2.7663679543071322,0.7691630533470046,0.0004726990671045242,0.0011108644654428531,-0.00028907197822996845,-0.00013480458792489053,2.8171833751370304e-05,-0.0002807441344823395,-0.0022167635863677665,0.0,0.0,0.0,0.0,0.0,0.0,0.0,-0.00012716460646244876,-0.0001906812008018871,-1.0428399118682374e-05,-1.6179449822129044e-05,3.0411418932188572e-05,1.2880961100858457e-05,-3.2866001129172595e-05,-0.0004726990671045242,-0.0011108644654428531,0.00028907197822996845,0.00013480458792489053,-2.8171833751370304e-05,0.0002807441344823395,0.0022167635863677665,0.4505855441093445,22.847436904907227,0.1253325641155243,-14.108003616333008,-0.06987529993057251,-2.1325716972351074,0.39218467473983765,0
59,0.29001808166503906,-0.4505855441093445,-22.847436904907227,-0.1253325641155243,14.108003616333008,0.06987529993057251,2.1325716972351074,-0.39218467473983765,0.0,0.0,0.0,0.0,0.0,0.0,0.0,-0.4444640206882271,-0.01576057138624031,-0.21750307530177143,0.23449635640266,-0.15864885899405765,-0.06185839400598905,-0.432369445687077,1.6756245193606927,0.05229500802567191,0.029979933508403736,-2.752378665676146,0.03421439256808261,2.7663550733460314,0.7691959193481338,1.6754973547542302,0.052104326824870026,0.029969505109285054,-2.752394845125968,0.0342448039870148,2.7663679543071322,0.7691630533470046,0.0004726990671045242,0.0011108644654428531,-0.00028907197822996845,-0.00013480458792489053,2.8171833751370304e-05,-0.0002807441344823395,-0.0022167635863677665,0.0,0.0,0.0,0.0,0.0,0.0,0.0,-0.00012716460646244876,-0.0001906812008018871,-1.0428399118682374e-05,-1.6179449822129044e-05,3.0411418932188572e-05,1.2880961100858457e-05,-3.2866001129172595e-05,-0.0004726990671045242,-0.0011108644654428531,0.00028907197822996845,0.00013480458792489053,-2.8171833751370304e-05,0.0002807441344823395,0.0022167635863677665,0.4505855441093445,22.847436904907227,0.1253325641155243,-14.108003616333008,-0.06987529993057251,-2.1325716972351074,0.39218467473983765,0
60,0.2950444221496582,-0.4505855441093445,-22.819665908813477,-0.09756157547235489,14.131807327270508,0.06987529993057251,2.1197543144226074,-0.40591758489608765,0.0,0.0,0.0,0.0,0.0,0.0,0.0,-0.44359715621303136,-0.024629149014249105,-0.2188515932035841,0.24046209856201148,-0.15875363000983725,-0.06097996203553258,-0.4325397782098414,1.6756245193606927,0.05229305918384016,0.029979483291132165,-2.7523788515996688,0.03421442765304183,2.766353154985518,0.76919744522704,1.6754973547542302,0.052104326824870026,0.029969505109285054,-2.752394845125968,0.0342448039870148,2.7663679543071322,0.7691630533470046,0.0002091744077126997,-0.0003496850842935935,-0.0001389949729863775,-0.0006225525187096264,0.00019400492764883704,0.0002882075446191576,-0.0010141681352621394,0.0,0.0,0.0,0.0,0.0,0.0,0.0,-0.00012716460646244876,-0.00018873235897013535,-9.97818184711105e-06,-1.5993526299329375e-05,3.0376333972972902e-05,1.4799321614411554e-05,-3.439188003540039e-05,-0.0002091744077126997,0.0003496850842935935,0.0001389949729863775,0.0006225525187096264,-0.00019400492764883704,-0.0002882075446191576,0.0010141681352621394,0.4505855441093445,22.819665908813477,0.09756157547235489,-14.131807327270508,-0.06987529993057251,-2.1197543144226074,0.40591758489608765,0
61,0.3000197410583496,-0.4505855441093445,-22.819665908813477,-0.09756157547235489,14.131807327270508,0.06987529993057251,2.1197543144226074,-0.40591758489608765,0.0,0.0,0.0,0.0,0.0,0.0,0.0,-0.44359715621303136,-0.024629149014249105,-0.2188515932035841,0.24046209856201148,-0.15875363000983725,-0.06097996203553258,-0.4325397782098414,1.6756245193606927,0.05229305918384016,0.029979483291132165,-2.7523788515996688,0.03421442765304183,2.766353154985518,0.76919744522704,1.6754973547542302,0.052104326824870026,0.029969505109285054,-2.752394845125968,0.0342448039870148,2.7663679543071322,0.7691630533470046,0.0002091744077126997,-0.0003496850842935935,-0.0001389949729863775,-0.0006225525187096264,0.00019400492764883704,0.0002882075446191576,-0.0010141681352621394,0.0,0.0,0.0,0.0,0.0,0.0,0.0,-0.00012716460646244876,-0.00018873235897013535,-9.97818184711105e-06,-1.5993526299329375e-05,3.0376333972972902e-05,1.4799321614411554e-05,-3.439188003540039e-05,-0.0002091744077126997,0.0003496850842935935,0.0001389949729863775,0.0006225525187096264,-0.00019400492764883704,-0.0002882075446191576,0.0010141681352621394,0.4505855441093445,22.819665908813477,0.09756157547235489,-14.131807327270508,-0.06987529993057251,-2.1197543144226074,0.40591758489608765,0
62,0.30504465103149414,-0.4505855441093445,-22.819665908813477,-0.09756157547235489,14.131807327270508,0.06987529993057251,2.1197543144226074,-0.40591758489608765,0.0,0.0,0.0,0.0,0.0,0.0,0.0,-0.44359715621303136,-0.024629149014249105,-0.2188515932035841,0.24046209856201148,-0.15875363000983725,-0.06097996203553258,-0.4325397782098414,1.6756245193606927,0.05229305918384016,0.029979483291132165,-2.7523788515996688,0.03421442765304183,2.766353154985518,0.76919744522704,1.6754973547542302,0.052104326824870026,0.029969505109285054,-2.752394845125968,0.0342448039870148,2.7663679543071322,0.7691630533470046,0.0002091744077126997,-0.0003496850842935935,-0.0001389949729863775,-0.0006225525187096264,0.00019400492764883704,0.0002882075446191576,-0.0010141681352621394,0.0,0.0,0.0,0.0,0.0,0.0,0.0,-0.00012716460646244876,-0.00018873235897013535,-9.97818184711105e-06,-1.5993526299329375e-05,3.0376333972972902e-05,1.4799321614411554e-05,-3.439188003540039e-05,-0.0002091744077126997,0.0003496850842935935,0.0001389949729863775,0.0006225525187096264,-0.00019400492764883704,-0.0002882075446191576,0.0010141681352621394,0.4505855441093445,22.819665908813477,0.09756157547235489,-14.131807327270508,-0.06987529993057251,-2.1197543144226074,0.40591758489608765,0
63,0.3100106716156006,-0.4505855441093445,-22.819665908813477,-0.09756157547235489,14.131807327270508,0.06987529993057251,2.1197543144226074,-0.40591758489608765,0.0,0.0,0.0,0.0,0.0,0.0,0.0,-0.44359715621303136,-0.024629149014249105,-0.2188515932035841,0.24046209856201148,-0.15875363000983725,-0.06097996203553258,-0.4325397782098414,1.6756245193606927,0.05229305918384016,0.029979483291132165,-2.7523788515996688,0.03421442765304183,2.766353154985518,0.76919744522704,1.6754973547542302,0.052104326824870026,0.029969505109285054,-2.752394845125968,0.0342448039870148,2.7663679543071322,0.7691630533470046,0.0002091744077126997,-0.0003496850842935935,-0.0001389949729863775,-0.0006225525187096264,0.00019400492764883704,0.0002882075446191576,-0.0010141681352621394,0.0,0.0,0.0,0.0,0.0,0.0,0.0,-0.00012716460646244876,-0.00018873235897013535,-9.97818184711105e-06,-1.5993526299329375e-05,3.0376333972972902e-05,1.4799321614411554e-05,-3.439188003540039e-05,-0.0002091744077126997,0.0003496850842935935,0.0001389949729863775,0.0006225525187096264,-0.00019400492764883704,-0.0002882075446191576,0.0010141681352621394,0.4505855441093445,22.819665908813477,0.09756157547235489,-14.131807327270508,-0.06987529993057251,-2.1197543144226074,0.40591758489608765,0
64,0.31499457359313965,-0.4267818331718445,-22.847436904907227,-0.1491362750530243,14.080232620239258,0.06438213586807251,2.1197543144226074,-0.41324180364608765,0.0,0.0,0.0,0.0,0.0,0.0,0.0,-0.44623520487289287,-0.019916880084119633,-0.21866827120464355,0.23443417577485945,-0.15852112846342975,-0.061627444598933,-0.4306696421889612,1.6756228489248375,0.0522950080256713,0.02998381240344725,-2.752374574314275,0.034214998567854746,2.7663527867123863,0.7691982590291234,1.6754973547542302,0.052104326824870026,0.029969505109285054,-2.752394845125968,0.0342448039870148,2.7663679543071322,0.7691630533470046,-0.0007872355444152264,0.00047958093489687044,0.0006520302588492433,0.00024859316758131365,0.0004029714084671548,0.00025024974768233225,-0.00044911317768155904,0.0,0.0,0.0,0.0,0.0,0.0,0.0,-0.00012549417060725432,-0.00019068120080127648,-1.4307294162196199e-05,-2.027081169320155e-05,2.980541916005469e-05,1.5167594745957302e-05,-3.5205682118788495e-05,0.0007872355444152264,-0.00047958093489687044,-0.0006520302588492433,-0.00024859316758131365,-0.0004029714084671548,-0.00025024974768233225,0.00044911317768155904,0.4267818331718445,22.847436904907227,0.1491362750530243,-14.080232620239258,-0.06438213586807251,-2.1197543144226074,0.41324180364608765,0
65,0.3199944496154785,-0.4267818331718445,-22.847436904907227,-0.1491362750530243,14.080232620239258,0.06438213586807251,2.1197543144226074,-0.41324180364608765,0.0,0.0,0.0,0.0,0.0,0.0,0.0,-0.44623520487289287,-0.019916880084119633,-0.21866827120464355,0.23443417577485945,-0.15852112846342975,-0.061627444598933,-0.4306696421889612,1.6756228489248375,0.0522950080256713,0.02998381240344725,-2.752374574314275,0.034214998567854746,2.7663527867123863,0.7691982590291234,1.6754973547542302,0.052104326824870026,0.029969505109285054,-2.752394845125968,0.0342448039870148,2.7663679543071322,0.7691630533470046,-0.0007872355444152264,0.00047958093489687044,0.0006520302588492433,0.00024859316758131365,0.0004029714084671548,0.00025024974768233225,-0.00044911317768155904,0.0,0.0,0.0,0.0,0.0,0.0,0.0,-0.00012549417060725432,-0.00019068120080127648,-1.4307294162196199e-05,-2.027081169320155e-05,2.980541916005469e-05,1.5167594745957302e-05,-3.5205682118788495e-05,0.0007872355444152264,-0.00047958093489687044,-0.0006520302588492433,-0.00024859316758131365,-0.0004029714084671548,-0.00025024974768233225,0.00044911317768155904,0.4267818331718445,22.847436904907227,0.1491362750530243,-14.080232620239258,-0.06438213586807251,-2.1197543144226074,0.41324180364608765,0
66,0.3249948024749756,-0.4505855441093445,-22.795862197875977,-0.1491362750530243,14.155611038208008,0.07628399133682251,2.1197543144226074,-0.44711631536483765,0.0,0.0,0.0,0.0,0.0,0.0,0.0,-0.44507236346339146,-0.02035632395928915,-0.21708463786821425,0.23237138366960258,-0.15868580900797086,-0.061315247169726105,-0.4291931029542987,1.6756245193606927,0.0522913887479849,0.02998380367963371,-2.752383035676122,0.03421368063549485,2.766355013985349,0.7692020228637588,1.6754973547542302,0.052104326824870026,0.029969505109285054,-2.752394845125968,0.0342448039870148,2.7663679543071322,0.7691630533470046,0.00013126866244692262,-0.0005926920002875378,0.0001641081901228433,-0.0015694619758214459,-1.794340748338536e-05,0.0002985617718216444,0.0002394269187922611,0.0,0.0,0.0,0.0,0.0,0.0,0.0,-0.00012716460646244876,-0.00018706192311487152,-1.4298570348656586e-05,-1.1809449846023057e-05,3.112335151995299e-05,1.294032178300597e-05,-3.89695167541948e-05,-0.00013126866244692262,0.0005926920002875378,-0.0001641081901228433,0.0015694619758214459,1.794340748338536e-05,-0.0002985617718216444,-0.0002394269187922611,0.4505855441093445,22.795862197875977,0.1491362750530243,-14.155611038208008,-0.07628399133682251,-2.1197543144226074,0.44711631536483765,0
67,0.3300001621246338,-0.4505855441093445,-22.795862197875977,-0.1491362750530243,14.155611038208008,0.07628399133682251,2.1197543144226074,-0.44711631536483765,0.0,0.0,0.0,0.0,0.0,0.0,0.0,-0.44507236346339146,-0.02035632395928915,-0.21708463786821425,0.23237138366960258,-0.15868580900797086,-0.061315247169726105,-0.4291931029542987,1.6756245193606927,0.0522913887479849,0.02998380367963371,-2.752383035676122,0.03421368063549485,2.766355013985349,0.7692020228637588,1.6754973547542302,0.052104326824870026,0.029969505109285054,-2.752394845125968,0.0342448039870148,2.7663679543071322,0.7691630533470046,0.00013126866244692262,-0.0005926920002875378,0.0001641081901228433,-0.0015694619758214459,-1.794340748338536e-05,0.0002985617718216444,0.0002394269187922611,0.0,0.0,0.0,0.0,0.0,0.0,0.0,-0.00012716460646244876,-0.00018706192311487152,-1.4298570348656586e-05,-1.1809449846023057e-05,3.112335151995299e-05,1.294032178300597e-05,-3.89695167541948e-05,-0.00013126866244692262,0.0005926920002875378,-0.0001641081901228433,0.0015694619758214459,1.794340748338536e-05,-0.0002985617718216444,-0.0002394269187922611,0.4505855441093445,22.795862197875977,0.1491362750530243,-14.155611038208008,-0.07628399133682251,-2.1197543144226074,0.44711631536483765,0
68,0.3350708484649658,-0.5021602511405945,-22.847436904907227,-0.1253325641155243,14.108003616333008,0.07628399133682251,2.1197543144226074,-0.43338340520858765,0.0,0.0,0.0,0.0,0.0,0.0,0.0,-0.4425909052031881,-0.021480255252177144,-0.21658857131641954,0.23194461172101463,-0.15879564880814614,-0.06097889192173025,-0.4305810198360701,1.6756281386383791,0.05229501094867,0.029981826471655367,-2.7523786656549065,0.03421403296802458,2.7663564974913033,0.7692004969848526,1.6754973547542302,0.052104326824870026,0.029969505109285054,-2.752394845125968,0.0342448039870148,2.7663679543071322,0.7691630533470046,0.0015232052943270008,0.0008646511325656942,-0.0005414208512432107,-0.00031068090153551153,-0.00012822839749223656,0.000164524857207768,-0.0004973362453791687,0.0,0.0,0.0,0.0,0.0,0.0,0.0,-0.00013078388414888842,-0.00019068412379997374,-1.2321362370313477e-05,-1.6179471061583683e-05,3.0771018990218e-05,1.1456815828925215e-05,-3.7443637847967004e-05,-0.0015232052943270008,-0.0008646511325656942,0.0005414208512432107,0.00031068090153551153,0.00012822839749223656,-0.000164524857207768,0.0004973362453791687,0.5021602511405945,22.847436904907227,0.1253325641155243,-14.108003616333008,-0.07628399133682251,-2.1197543144226074,0.43338340520858765,0
69,0.340015172958374,-0.5021602511405945,-22.847436904907227,-0.1253325641155243,14.108003616333008,0.07628399133682251,2.1197543144226074,-0.43338340520858765,0.0,0.0,0.0,0.0,0.0,0.0,0.0,-0.4425909052031881,-0.021480255252177144,-0.21658857131641954,0.23194461172101463,-0.15879564880814614,-0.06097889192173025,-0.4305810198360701,1.6756281386383791,0.05229501094867,0.029981826471655367,-2.7523786656549065,0.03421403296802458,2.7663564974913033,0.7692004969848526,1.6754973547542302,0.052104326824870026,0.029969505109285054,-2.752394845125968,0.0342448039870148,2.7663679543071322,0.7691630533470046,0.0015232052943270008,0.0008646511325656942,-0.0005414208512432107,-0.00031068090153551153,-0.00012822839749223656,0.000164524857207768,-0.0004973362453791687,0.0,0.0,0.0,0.0,0.0,0.0,0.0,-0.00013078388414888842,-0.00019068412379997374,-1.2321362370313477e-05,-1.6179471061583683e-05,3.0771018990218e-05,1.1456815828925215e-05,-3.7443637847967004e-05,-0.0015232052943270008,-0.0008646511325656942,0.0005414208512432107,0.00031068090153551153,0.00012822839749223656,-0.000164524857207768,0.0004973362453791687,0.5021602511405945,22.847436904907227,0.1253325641155243,-14.108003616333008,-0.07628399133682251,-2.1197543144226074,0.43338340520858765,0
70,0.34504270553588867,-0.4505855441093445,-22.819665908813477,-0.1729399859905243,14.080232620239258,0.06987529993057251,2.1261630058288574,-0.45352500677108765,0.0,0.0,0.0,0.0,0.0,0.0,0.0,-0.4449461662658972,-0.014211320073427436,-0.2204734455114172,0.22885446896264733,-0.1582680937984826,-0.06219661450958535,-0.43221349694623523,1.6756245193606927,0.05229305918385666,0.029985395238734384,-2.752377579634692,0.034214392551817074,2.766355780335429,0.769202730579931,1.6754973547542302,0.052104326824870026,0.029969505109285054,-2.752394845125968,0.0342448039870148,2.7663679543071322,0.7691630533470046,-0.00022000031975768843,0.00039042013717606206,0.0006854721009691672,0.00035823838356780256,0.0003169479857066005,-5.562377294111053e-05,0.0006884624255719764,0.0,0.0,0.0,0.0,0.0,0.0,0.0,-0.00012716460646244876,-0.00018873235898663604,-1.589012944933077e-05,-1.726549127623045e-05,3.04114351977261e-05,1.2173971703166586e-05,-3.967723292641612e-05,0.00022000031975768843,-0.00039042013717606206,-0.0006854721009691672,-0.00035823838356780256,-0.0003169479857066005,5.562377294111053e-05,-0.0006884624255719764,0.4505855441093445,22.819665908813477,0.1729399859905243,-14.080232620239258,-0.06987529993057251,-2.1261630058288574,0.45352500677108765,0
71,0.35003185272216797,-0.4505855441093445,-22.819665908813477,-0.1729399859905243,14.080232620239258,0.06987529993057251,2.1261630058288574,-0.45352500677108765,0.0,0.0,0.0,0.0,0.0,0.0,0.0,-0.4449461662658972,-0.014211320073427436,-0.2204734455114172,0.22885446896264733,-0.1582680937984826,-0.06219661450958535,-0.43221349694623523,1.6756245193606927,0.05229305918385666,0.029985395238734384,-2.752377579634692,0.034214392551817074,2.766355780335429,0.769202730579931,1.6754973547542302,0.052104326824870026,0.029969505109285054,-2.752394845125968,0.0342448039870148,2.7663679543071322,0.7691630533470046,-0.00022000031975768843,0.00039042013717606206,0.0006854721009691672,0.00035823838356780256,0.0003169479857066005,-5.562377294111053e-05,0.0006884624255719764,0.0,0.0,0.0,0.0,0.0,0.0,0.0,-0.00012716460646244876,-0.00018873235898663604,-1.589012944933077e-05,-1.726549127623045e-05,3.04114351977261e-05,1.2173971703166586e-05,-3.967723292641612e-05,0.00022000031975768843,-0.00039042013717606206,-0.0006854721009691672,-0.00035823838356780256,-0.0003169479857066005,5.562377294111053e-05,-0.0006884624255719764,0.4505855441093445,22.819665908813477,0.1729399859905243,-14.080232620239258,-0.06987529993057251,-2.1261630058288574,0.45352500677108765,0
72,0.35500121116638184,-0.4505855441093445,-22.795862197875977,-0.1253325641155243,14.080232620239258,0.06987529993057251,2.1261630058288574,-0.41324180364608765,0.0,0.0,0.0,0.0,0.0,0.0,0.0,-0.44355939339274386,-0.01958580664738389,-0.2175136238375681,0.23271987665867377,-0.15800749609569079,-0.06111655204643197,-0.4313149219572766,1.6756245193606927,0.0522913887479849,0.02998189661836313,-2.752374494662205,0.03421438816192244,2.766355661628797,0.7691982590290988,1.6754973547542302,0.052104326824870026,0.029969505109285054,-2.752394845125968,0.0342448039870148,2.7663679543071322,0.7691630533470046,-6.686313414065013e-05,-0.0004677425418570616,0.00025861687227318243,0.0005176667018543669,0.00017446852675372264,4.88803209396681e-06,-0.0006836917050812992,0.0,0.0,0.0,0.0,0.0,0.0,0.0,-0.00012716460646244876,-0.00018706192311487152,-1.2391509078075319e-05,-2.035046376303029e-05,3.0415825092361404e-05,1.2292678335246165e-05,-3.5205682094141544e-05,6.686313414065013e-05,0.0004677425418570616,-0.00025861687227318243,-0.0005176667018543669,-0.00017446852675372264,-4.88803209396681e-06,0.0006836917050812992,0.4505855441093445,22.795862197875977,0.1253325641155243,-14.080232620239258,-0.06987529993057251,-2.1261630058288574,0.41324180364608765,0
73,0.35999298095703125,-0.4505855441093445,-22.795862197875977,-0.1253325641155243,14.080232620239258,0.06987529993057251,2.1261630058288574,-0.41324180364608765,0.0,0.0,0.0,0.0,0.0,0.0,0.0,-0.44355939339274386,-0.01958580664738389,-0.2175136238375681,0.23271987665867377,-0.15800749609569079,-0.06111655204643197,-0.4313149219572766,1.6756245193606927,0.0522913887479849,0.02998189661836313,-2.752374494662205,0.03421438816192244,2.766355661628797,0.7691982590290988,1.6754973547542302,0.052104326824870026,0.029969505109285054,-2.752394845125968,0.0342448039870148,2.7663679543071322,0.7691630533470046,-6.686313414065013e-05,-0.0004677425418570616,0.00025861687227318243,0.0005176667018543669,0.00017446852675372264,4.88803209396681e-06,-0.0006836917050812992,0.0,0.0,0.0,0.0,0.0,0.0,0.0,-0.00012716460646244876,-0.00018706192311487152,-1.2391509078075319e-05,-2.035046376303029e-05,3.0415825092361404e-05,1.2292678335246165e-05,-3.5205682094141544e-05,6.686313414065013e-05,0.0004677425418570616,-0.00025861687227318243,-0.0005176667018543669,-0.00017446852675372264,-4.88803209396681e-06,0.0006836917050812992,0.4505855441093445,22.795862197875977,0.1253325641155243,-14.080232620239258,-0.06987529993057251,-2.1261630058288574,0.41324180364608765,0
74,0.365004301071167,-0.4505855441093445,-22.772058486938477,-0.1729399859905243,14.080232620239258,0.06438213586807251,2.1261630058288574,-0.45352500677108765,0.0,0.0,0.0,0.0,0.0,0.0,0.0,-0.44652421810939286,-0.017141495227949475,-0.21800838538104625,0.23201087278674787,-0.1578562140034335,-0.06118713584009105,-0.43059367583193736,1.6756245193606927,0.052289718312129634,0.029985482877989925,-2.7523775719344816,0.0342181972960631,2.766355780843473,0.7692016753024524,1.6754973547542302,0.052104326824870026,0.029969505109285054,-2.752394845125968,0.0342448039870148,2.7663679543071322,0.7691630533470046,0.0002484246001813151,-0.001170309971614042,0.0011188108253500334,0.00041627237424201073,0.0004918081962228049,1.1954806378667308e-05,0.0004335794485389574,0.0,0.0,0.0,0.0,0.0,0.0,0.0,-0.00012716460646244876,-0.0001853914872596077,-1.5977768704870943e-05,-1.7273191486477657e-05,2.66066909516971e-05,1.2173463659337358e-05,-3.86219554477929e-05,-0.0002484246001813151,0.001170309971614042,-0.0011188108253500334,-0.00041627237424201073,-0.0004918081962228049,-1.1954806378667308e-05,-0.0004335794485389574,0.4505855441093445,22.772058486938477,0.1729399859905243,-14.080232620239258,-0.06438213586807251,-2.1261630058288574,0.45352500677108765,0
75,0.37001466751098633,-0.4505855441093445,-22.772058486938477,-0.1729399859905243,14.080232620239258,0.06438213586807251,2.1261630058288574,-0.45352500677108765,0.0,0.0,0.0,0.0,0.0,0.0,0.0,-0.44652421810939286,-0.017141495227949475,-0.21800838538104625,0.23201087278674787,-0.1578562140034335,-0.06118713584009105,-0.43059367583193736,1.6756245193606927,0.052289718312129634,0.029985482877989925,-2.7523775719344816,0.0342181972960631,2.766355780843473,0.7692016753024524,1.6754973547542302,0.052104326824870026,0.029969505109285054,-2.752394845125968,0.0342448039870148,2.7663679543071322,0.7691630533470046,0.0002484246001813151,-0.001170309971614042,0.0011188108253500334,0.00041627237424201073,0.0004918081962228049,1.1954806378667308e-05,0.0004335794485389574,0.0,0.0,0.0,0.0,0.0,0.0,0.0,-0.00012716460646244876,-0.0001853914872596077,-1.5977768704870943e-05,-1.7273191486477657e-05,2.66066909516971e-05,1.2173463659337358e-05,-3.86219554477929e-05,-0.0002484246001813151,0.001170309971614042,-0.0011188108253500334,-0.00041627237424201073,-0.0004918081962228049,-1.1954806378667308e-05,-0.0004335794485389574,0.4505855441093445,22.772058486938477,0.1729399859905243,-14.080232620239258,-0.06438213586807251,-2.1261630058288574,0.45352500677108765,0
76,0.3751816749572754,-0.4783565402030945,-22.847436904907227,-0.1253325641155243,14.108003616333008,0.06987529993057251,2.1261630058288574,-0.43979209661483765,0.0,0.0,0.0,0.0,0.0,0.0,0.0,-0.4483819900747119,-0.01808912878484545,-0.2191314949042949,0.23329530721841601,-0.15754439085646652,-0.060436067634510905,-0.4319561975658285,1.6756264682025237,0.0522950080256713,0.029982054044216676,-2.752377212041564,0.034215455939571905,2.7663554140406896,0.7692001494056011,1.6754973547542302,0.052104326824870026,0.029969505109285054,-2.752394845125968,0.0342448039870148,2.7663679543071322,0.7691630533470046,0.0008061732853384053,0.0007175805893380716,-0.00023178537518880809,2.478625509902367e-05,0.000291622583141841,-4.993435465385942e-05,0.0015124101248401313,0.0,0.0,0.0,0.0,0.0,0.0,0.0,-0.00012911344829347193,-0.00019068120080127648,-1.2548934931622818e-05,-1.763308440416722e-05,2.934804744289532e-05,1.2540266442595538e-05,-3.7096058596475245e-05,-0.0008061732853384053,-0.0007175805893380716,0.00023178537518880809,-2.478625509902367e-05,-0.000291622583141841,4.993435465385942e-05,-0.0015124101248401313,0.4783565402030945,22.847436904907227,0.1253325641155243,-14.108003616333008,-0.06987529993057251,-2.1261630058288574,0.43979209661483765,0
77,0.38000035285949707,-0.4783565402030945,-22.847436904907227,-0.1253325641155243,14.108003616333008,0.06987529993057251,2.1261630058288574,-0.43979209661483765,0.0,0.0,0.0,0.0,0.0,0.0,0.0,-0.4483819900747119,-0.01808912878484545,-0.2191314949042949,0.23329530721841601,-0.15754439085646652,-0.060436067634510905,-0.4319561975658285,1.6756264682025237,0.0522950080256713,0.029982054044216676,-2.752377212041564,0.034215455939571905,2.7663554140406896,0.7692001494056011,1.6754973547542302,0.052104326824870026,0.029969505109285054,-2.752394845125968,0.0342448039870148,2.7663679543071322,0.7691630533470046,0.0008061732853384053,0.0007175805893380716,-0.00023178537518880809,2.478625509902367e-05,0.000291622583141841,-4.993435465385942e-05,0.0015124101248401313,0.0,0.0,0.0,0.0,0.0,0.0,0.0,-0.00012911344829347193,-0.00019068120080127648,-1.2548934931622818e-05,-1.763308440416722e-05,2.934804744289532e-05,1.2540266442595538e-05,-3.7096058596475245e-05,-0.0008061732853384053,-0.0007175805893380716,0.00023178537518880809,-2.478625509902367e-05,-0.000291622583141841,4.993435465385942e-05,-0.0015124101248401313,0.4783565402030945,22.847436904907227,0.1253325641155243,-14.108003616333008,-0.06987529993057251,-2.1261630058288574,0.43979209661483765,0
78,0.38500285148620605,-0.4783565402030945,-22.847436904907227,-0.1253325641155243,14.108003616333008,0.06987529993057251,2.1261630058288574,-0.43979209661483765,0.0,0.0,0.0,0.0,0.0,0.0,0.0,-0.4483819900747119,-0.01808912878484545,-0.2191314949042949,0.23329530721841601,-0.15754439085646652,-0.060436067634510905,-0.4319561975658285,1.6756264682025237,0.0522950080256713,0.029982054044216676,-2.752377212041564,0.034215455939571905,2.7663554140406896,0.7692001494056011,1.6754973547542302,0.052104326824870026,0.029969505109285054,-2.752394845125968,0.0342448039870148,2.7663679543071322,0.7691630533470046,0.0008061732853384053,0.0007175805893380716,-0.00023178537518880809,2.478625509902367e-05,0.000291622583141841,-4.993435465385942e-05,0.0015124101248401313,0.0,0.0,0.0,0.0,0.0,0.0,0.0,-0.00012911344829347193,-0.00019068120080127648,-1.2548934931622818e-05,-1.763308440416722e-05,2.934804744289532e-05,1.2540266442595538e-05,-3.7096058596475245e-05,-0.0008061732853384053,-0.0007175805893380716,0.00023178537518880809,-2.478625509902367e-05,-0.000291622583141841,4.993435465385942e-05,-0.0015124101248401313,0.4783565402030945,22.847436904907227,0.1253325641155243,-14.108003616333008,-0.06987529993057251,-2.1261630058288574,0.43979209661483765,0
79,0.3900136947631836,-0.4783565402030945,-22.795862197875977,-0.1491362750530243,14.108003616333008,0.08177715539932251,2.1197543144226074,-0.44711631536483765,0.0,0.0,0.0,0.0,0.0,0.0,0.0,-0.4451619213901148,-0.014994539993784263,-0.21756711208227805,0.2299887984994385,-0.15764692999614735,-0.06085577762401152,-0.4315495251197666,1.6756264682025237,0.0522913887479849,0.029983812443354373,-2.752376772148324,0.03421306719815639,2.7663563309705728,0.7692016696490551,1.6754973547542302,0.052104326824870026,0.029969505109285054,-2.752394845125968,0.0342448039870148,2.7663679543071322,0.7691630533470046,0.0009161446706649535,-0.0005736290780788819,0.00037669172037399664,-7.861786517445155e-05,-0.0003126115889853268,0.00012752717744068386,0.0006994349008313125,0.0,0.0,0.0,0.0,0.0,0.0,0.0,-0.00012911344829347193,-0.00018706192311487152,-1.4307334069318944e-05,-1.8072977644223442e-05,3.173678885841358e-05,1.1623336559463127e-05,-3.861630205048705e-05,-0.0009161446706649535,0.0005736290780788819,-0.00037669172037399664,7.861786517445155e-05,0.0003126115889853268,-0.00012752717744068386,-0.0006994349008313125,0.4783565402030945,22.795862197875977,0.1491362750530243,-14.108003616333008,-0.08177715539932251,-2.1197543144226074,0.44711631536483765,0
