rezayati/contactInterpretation/dataset/franka_main/labeled_data/link6/b8_1.csv
index,time,tau_J0,tau_J1,tau_J2,tau_J3,tau_J4,tau_J5,tau_J6,tau_J_d0,tau_J_d1,tau_J_d2,tau_J_d3,tau_J_d4,tau_J_d5,tau_J_d6,tau_ext0,tau_ext1,tau_ext2,tau_ext3,tau_ext4,tau_ext5,tau_ext6,q0,q1,q2,q3,q4,q5,q6,q_d0,q_d1,q_d2,q_d3,q_d4,q_d5,q_d6,dq0,dq1,dq2,dq3,dq4,dq5,dq6,dq_d0,dq_d1,dq_d2,dq_d3,dq_d4,dq_d5,dq_d6,e0,e1,e2,e3,e4,e5,e6,de0,de1,de2,de3,de4,de5,de6,etau_J0,etau_J1,etau_J2,etau_J3,etau_J4,etau_J5,etau_J6,label
1,0.0,-0.3514034152030945,-47.09548568725586,-1.0417754650115967,21.022981643676758,0.3857322335243225,2.3266634941101074,-0.28964561223983765,0.0,0.0,0.0,0.0,0.0,0.0,0.0,-0.4048990408023254,-0.26453084013655526,-0.19737626019152418,0.6249930392963449,-0.19726408977050647,0.10553141578984544,-0.32643987521232615,0.06232345706830052,0.6883073329339947,-0.07874475224185407,-1.6212505525149299,0.028225118308250054,2.287821351433528,0.8466314040753568,0.06226373270833701,0.6884179775783729,-0.07863937525950354,-1.6210372792796082,0.028167345702647853,2.2878312372101677,0.8466366937888992,-0.0010865272350243543,0.0006388913229225602,-0.00025279296976580954,0.000392321648090044,-0.00013956919466090066,0.000154768109629749,-0.0013494122199835094,0.0,0.0,0.0,0.0,0.0,0.0,0.0,-5.97243599635075e-05,0.00011064464437815502,0.00010537698235052462,0.00021327323532172038,-5.7772605602201405e-05,9.88577663951773e-06,5.289713542411256e-06,0.0010865272350243543,-0.0006388913229225602,0.00025279296976580954,-0.000392321648090044,0.00013956919466090066,-0.000154768109629749,0.0013494122199835094,0.3514034152030945,47.09548568725586,1.0417754650115967,-21.022981643676758,-0.3857322335243225,-2.3266634941101074,0.28964561223983765,0
2,0.004944801330566406,-0.3752071261405945,-47.07168197631836,-1.0695464611053467,21.022981643676758,0.3738303780555725,2.3202548027038574,-0.34457725286483765,0.0,0.0,0.0,0.0,0.0,0.0,0.0,-0.406383634959589,-0.2611900340096715,-0.20004220992140187,0.6188791189143961,-0.19692986725611916,0.10574048757183582,-0.32659735045646077,0.06232799819937468,0.6883056624981395,-0.07874280340002293,-1.6212526188824066,0.02822637610387316,2.287822753744006,0.8466375075909827,0.06226373270833701,0.6884179775783729,-0.07863937525950354,-1.6210372792796082,0.028167345702647853,2.2878312372101677,0.8466366937888992,-0.00023287906603922193,0.00011443172765157047,0.0003856029925677537,9.283496804333473e-05,0.00024219526568748398,0.00013603903436294466,0.0006384186450732231,0.0,0.0,0.0,0.0,0.0,0.0,0.0,-6.426549103766971e-05,0.00011231508023334946,0.00010342814051939042,0.00021533960279840336,-5.903040122530803e-05,8.483466161557374e-06,-8.138020834991266e-07,0.00023287906603922193,-0.00011443172765157047,-0.0003856029925677537,-9.283496804333473e-05,-0.00024219526568748398,-0.00013603903436294466,-0.0006384186450732231,0.3752071261405945,47.07168197631836,1.0695464611053467,-21.022981643676758,-0.3738303780555725,-2.3202548027038574,0.34457725286483765,0
3,0.009996414184570312,-0.3752071261405945,-47.07168197631836,-1.0695464611053467,21.022981643676758,0.3738303780555725,2.3202548027038574,-0.34457725286483765,0.0,0.0,0.0,0.0,0.0,0.0,0.0,-0.406383634959589,-0.2611900340096715,-0.20004220992140187,0.6188791189143961,-0.19692986725611916,0.10574048757183582,-0.32659735045646077,0.06232799819937468,0.6883056624981395,-0.07874280340002293,-1.6212526188824066,0.02822637610387316,2.287822753744006,0.8466375075909827,0.06226373270833701,0.6884179775783729,-0.07863937525950354,-1.6210372792796082,0.028167345702647853,2.2878312372101677,0.8466366937888992,-0.00023287906603922193,0.00011443172765157047,0.0003856029925677537,9.283496804333473e-05,0.00024219526568748398,0.00013603903436294466,0.0006384186450732231,0.0,0.0,0.0,0.0,0.0,0.0,0.0,-6.426549103766971e-05,0.00011231508023334946,0.00010342814051939042,0.00021533960279840336,-5.903040122530803e-05,8.483466161557374e-06,-8.138020834991266e-07,0.00023287906603922193,-0.00011443172765157047,-0.0003856029925677537,-9.283496804333473e-05,-0.00024219526568748398,-0.00013603903436294466,-0.0006384186450732231,0.3752071261405945,47.07168197631836,1.0695464611053467,-21.022981643676758,-0.3738303780555725,-2.3202548027038574,0.34457725286483765,0
4,0.01589798927307129,-0.4029781222343445,-47.02010726928711,-1.0695464611053467,21.074556350708008,0.3738303780555725,2.3202548027038574,-0.37204307317733765,0.0,0.0,0.0,0.0,0.0,0.0,0.0,-0.41223197641281195,-0.2630673798814909,-0.20636727648388656,0.6161842036165169,-0.1971116189787202,0.10575352451059049,-0.3279776067102161,0.06232781403298956,0.6883020432204531,-0.07874280340002293,-1.6212540924045458,0.02822257772083008,2.2878231186428497,0.8466405593487951,0.06226373270833701,0.6884179775783729,-0.07863937525950354,-1.6210372792796082,0.028167345702647853,2.2878312372101677,0.8466366937888992,-0.00044733847395850507,-0.00026047268354214637,0.0001656909933557772,-0.0012046925524000947,0.00020154061165163944,0.00017969345300489786,0.0017774773652243711,0.0,0.0,0.0,0.0,0.0,0.0,0.0,-6.408132465254845e-05,0.00011593435791978912,0.00010342814051939042,0.0002168131249375982,-5.523201818222537e-05,8.118567317971781e-06,-3.865559895954718e-06,0.00044733847395850507,0.00026047268354214637,-0.0001656909933557772,0.0012046925524000947,-0.00020154061165163944,-0.00017969345300489786,-0.0017774773652243711,0.4029781222343445,47.02010726928711,1.0695464611053467,-21.074556350708008,-0.3738303780555725,-2.3202548027038574,0.37204307317733765,0
5,0.019994020462036133,-0.4029781222343445,-47.02010726928711,-1.0695464611053467,21.074556350708008,0.3738303780555725,2.3202548027038574,-0.37204307317733765,0.0,0.0,0.0,0.0,0.0,0.0,0.0,-0.41223197641281195,-0.2630673798814909,-0.20636727648388656,0.6161842036165169,-0.1971116189787202,0.10575352451059049,-0.3279776067102161,0.06232781403298956,0.6883020432204531,-0.07874280340002293,-1.6212540924045458,0.02822257772083008,2.2878231186428497,0.8466405593487951,0.06226373270833701,0.6884179775783729,-0.07863937525950354,-1.6210372792796082,0.028167345702647853,2.2878312372101677,0.8466366937888992,-0.00044733847395850507,-0.00026047268354214637,0.0001656909933557772,-0.0012046925524000947,0.00020154061165163944,0.00017969345300489786,0.0017774773652243711,0.0,0.0,0.0,0.0,0.0,0.0,0.0,-6.408132465254845e-05,0.00011593435791978912,0.00010342814051939042,0.0002168131249375982,-5.523201818222537e-05,8.118567317971781e-06,-3.865559895954718e-06,0.00044733847395850507,0.00026047268354214637,-0.0001656909933557772,0.0012046925524000947,-0.00020154061165163944,-0.00017969345300489786,-0.0017774773652243711,0.4029781222343445,47.02010726928711,1.0695464611053467,-21.074556350708008,-0.3738303780555725,-2.3202548027038574,0.37204307317733765,0
6,0.019994020462036133,-0.4029781222343445,-47.02010726928711,-1.0695464611053467,21.074556350708008,0.3738303780555725,2.3202548027038574,-0.37204307317733765,0.0,0.0,0.0,0.0,0.0,0.0,0.0,-0.41223197641281195,-0.2630673798814909,-0.20636727648388656,0.6161842036165169,-0.1971116189787202,0.10575352451059049,-0.3279776067102161,0.06232781403298956,0.6883020432204531,-0.07874280340002293,-1.6212540924045458,0.02822257772083008,2.2878231186428497,0.8466405593487951,0.06226373270833701,0.6884179775783729,-0.07863937525950354,-1.6210372792796082,0.028167345702647853,2.2878312372101677,0.8466366937888992,-0.00044733847395850507,-0.00026047268354214637,0.0001656909933557772,-0.0012046925524000947,0.00020154061165163944,0.00017969345300489786,0.0017774773652243711,0.0,0.0,0.0,0.0,0.0,0.0,0.0,-6.408132465254845e-05,0.00011593435791978912,0.00010342814051939042,0.0002168131249375982,-5.523201818222537e-05,8.118567317971781e-06,-3.865559895954718e-06,0.00044733847395850507,0.00026047268354214637,-0.0001656909933557772,0.0012046925524000947,-0.00020154061165163944,-0.00017969345300489786,-0.0017774773652243711,0.4029781222343445,47.02010726928711,1.0695464611053467,-21.074556350708008,-0.3738303780555725,-2.3202548027038574,0.37204307317733765,0
7,0.03001689910888672,-0.4505855441093445,-47.07168197631836,-1.1171538829803467,20.975374221801758,0.3857322335243225,2.3202548027038574,-0.36471885442733765,0.0,0.0,0.0,0.0,0.0,0.0,0.0,-0.4170951404920615,-0.26842129243521046,-0.21001526715989588,0.6201308679592035,-0.19732522117792256,0.10609757174739595,-0.32979609393478615,0.0623304994834458,0.6883056624981395,-0.0787394625283124,-1.6212474003140398,0.02822194067616296,2.2878230068830687,0.8466397455467118,0.06226373270833701,0.6884179775783729,-0.07863937525950354,-1.6210372792796082,0.028167345702647853,2.2878312372101677,0.8466366937888992,0.00039590770815465116,0.0009428249249854811,0.00038986386783745257,0.001450810796449415,-0.00030331732394160775,2.9837697351434064e-05,0.001481622585020591,0.0,0.0,0.0,0.0,0.0,0.0,0.0,-6.676677510879248e-05,0.00011231508023334946,0.00010008726880886276,0.00021012103443163177,-5.459497351510689e-05,8.230327098956991e-06,-3.0517578126776357e-06,-0.00039590770815465116,-0.0009428249249854811,-0.00038986386783745257,-0.001450810796449415,0.00030331732394160775,-2.9837697351434064e-05,-0.001481622585020591,0.4505855441093445,47.07168197631836,1.1171538829803467,-20.975374221801758,-0.3857322335243225,-2.3202548027038574,0.36471885442733765,0
8,0.03500699996948242,-0.4505855441093445,-47.07168197631836,-1.1171538829803467,20.975374221801758,0.3857322335243225,2.3202548027038574,-0.36471885442733765,0.0,0.0,0.0,0.0,0.0,0.0,0.0,-0.4170951404920615,-0.26842129243521046,-0.21001526715989588,0.6201308679592035,-0.19732522117792256,0.10609757174739595,-0.32979609393478615,0.0623304994834458,0.6883056624981395,-0.0787394625283124,-1.6212474003140398,0.02822194067616296,2.2878230068830687,0.8466397455467118,0.06226373270833701,0.6884179775783729,-0.07863937525950354,-1.6210372792796082,0.028167345702647853,2.2878312372101677,0.8466366937888992,0.00039590770815465116,0.0009428249249854811,0.00038986386783745257,0.001450810796449415,-0.00030331732394160775,2.9837697351434064e-05,0.001481622585020591,0.0,0.0,0.0,0.0,0.0,0.0,0.0,-6.676677510879248e-05,0.00011231508023334946,0.00010008726880886276,0.00021012103443163177,-5.459497351510689e-05,8.230327098956991e-06,-3.0517578126776357e-06,-0.00039590770815465116,-0.0009428249249854811,-0.00038986386783745257,-0.001450810796449415,0.00030331732394160775,-2.9837697351434064e-05,-0.001481622585020591,0.4505855441093445,47.07168197631836,1.1171538829803467,-20.975374221801758,-0.3857322335243225,-2.3202548027038574,0.36471885442733765,0
9,0.04000115394592285,-0.5021602511405945,-47.04787826538086,-1.1409575939178467,21.022981643676758,0.3793235421180725,2.3138461112976074,-0.33725303411483765,0.0,0.0,0.0,0.0,0.0,0.0,0.0,-0.4210022952503769,-0.25909169545194743,-0.21200202229332252,0.6188427960368236,-0.19715352512756107,0.10535791311239032,-0.32985995031662274,0.062334748623822794,0.6883039920622842,-0.07873779209245714,-1.6212504818375613,0.028221982237336123,2.287820657620914,0.8466366937888993,0.06226373270833701,0.6884179775783729,-0.07863937525950354,-1.6210372792796082,0.028167345702647853,2.2878312372101677,0.8466366937888992,0.001214564260371777,0.0007196316388195867,0.0006887515914285402,0.00014173469753975943,0.0001709658854974899,0.0004068124431160909,0.0005575011948319362,0.0,0.0,0.0,0.0,0.0,0.0,0.0,-7.101591548578506e-05,0.00011398551608865493,9.841683295359893e-05,0.00021320255795309606,-5.463653468826962e-05,1.0579589253545407e-05,-1.1102230246251565e-16,-0.001214564260371777,-0.0007196316388195867,-0.0006887515914285402,-0.00014173469753975943,-0.0001709658854974899,-0.0004068124431160909,-0.0005575011948319362,0.5021602511405945,47.04787826538086,1.1409575939178467,-21.022981643676758,-0.3793235421180725,-2.3138461112976074,0.33725303411483765,0
10,0.045899152755737305,-0.4783565402030945,-47.04787826538086,-1.0695464611053467,21.022981643676758,0.3793235421180725,2.3138461112976074,-0.35831016302108765,0.0,0.0,0.0,0.0,0.0,0.0,0.0,-0.41458739138165845,-0.2692002589743601,-0.20533279156813378,0.626761034716291,-0.19655211626213942,0.10647668747551449,-0.32877000369624587,0.062334499304592506,0.6883039920622842,-0.07874280340002293,-1.6212504743139746,0.028222679368740476,2.287820613620279,0.8466390334698889,0.06226373270833701,0.6884179775783729,-0.07863937525950354,-1.6210372792796082,0.028167345702647853,2.2878312372101677,0.8466366937888992,0.0003532123020162593,0.00013887645189798677,-0.0010328202577840246,0.0001650923118974242,0.00016065914887341038,0.00046144095518077077,0.0012632894807489518,0.0,0.0,0.0,0.0,0.0,0.0,0.0,-7.076659625549625e-05,0.00011398551608865493,0.00010342814051939042,0.00021319503436645348,-5.533366609262319e-05,1.062358988868084e-05,-2.339680989726922e-06,-0.0003532123020162593,-0.00013887645189798677,0.0010328202577840246,-0.0001650923118974242,-0.00016065914887341038,-0.00046144095518077077,-0.0012632894807489518,0.4783565402030945,47.04787826538086,1.0695464611053467,-21.022981643676758,-0.3793235421180725,-2.3138461112976074,0.35831016302108765,0
11,0.049994468688964844,-0.4783565402030945,-47.04787826538086,-1.0695464611053467,21.022981643676758,0.3793235421180725,2.3138461112976074,-0.35831016302108765,0.0,0.0,0.0,0.0,0.0,0.0,0.0,-0.41458739138165845,-0.2692002589743601,-0.20533279156813378,0.626761034716291,-0.19655211626213942,0.10647668747551449,-0.32877000369624587,0.062334499304592506,0.6883039920622842,-0.07874280340002293,-1.6212504743139746,0.028222679368740476,2.287820613620279,0.8466390334698889,0.06226373270833701,0.6884179775783729,-0.07863937525950354,-1.6210372792796082,0.028167345702647853,2.2878312372101677,0.8466366937888992,0.0003532123020162593,0.00013887645189798677,-0.0010328202577840246,0.0001650923118974242,0.00016065914887341038,0.00046144095518077077,0.0012632894807489518,0.0,0.0,0.0,0.0,0.0,0.0,0.0,-7.076659625549625e-05,0.00011398551608865493,0.00010342814051939042,0.00021319503436645348,-5.533366609262319e-05,1.062358988868084e-05,-2.339680989726922e-06,-0.0003532123020162593,-0.00013887645189798677,0.0010328202577840246,-0.0001650923118974242,-0.00016065914887341038,-0.00046144095518077077,-0.0012632894807489518,0.4783565402030945,47.04787826538086,1.0695464611053467,-21.022981643676758,-0.3793235421180725,-2.3138461112976074,0.35831016302108765,0
12,0.0549921989440918,-0.4783565402030945,-47.04787826538086,-1.0695464611053467,21.022981643676758,0.3793235421180725,2.3138461112976074,-0.35831016302108765,0.0,0.0,0.0,0.0,0.0,0.0,0.0,-0.41458739138165845,-0.2692002589743601,-0.20533279156813378,0.626761034716291,-0.19655211626213942,0.10647668747551449,-0.32877000369624587,0.062334499304592506,0.6883039920622842,-0.07874280340002293,-1.6212504743139746,0.028222679368740476,2.287820613620279,0.8466390334698889,0.06226373270833701,0.6884179775783729,-0.07863937525950354,-1.6210372792796082,0.028167345702647853,2.2878312372101677,0.8466366937888992,0.0003532123020162593,0.00013887645189798677,-0.0010328202577840246,0.0001650923118974242,0.00016065914887341038,0.00046144095518077077,0.0012632894807489518,0.0,0.0,0.0,0.0,0.0,0.0,0.0,-7.076659625549625e-05,0.00011398551608865493,0.00010342814051939042,0.00021319503436645348,-5.533366609262319e-05,1.062358988868084e-05,-2.339680989726922e-06,-0.0003532123020162593,-0.00013887645189798677,0.0010328202577840246,-0.0001650923118974242,-0.00016065914887341038,-0.00046144095518077077,-0.0012632894807489518,0.4783565402030945,47.04787826538086,1.0695464611053467,-21.022981643676758,-0.3793235421180725,-2.3138461112976074,0.35831016302108765,0
13,0.05999255180358887,-0.4783565402030945,-47.11928939819336,-1.1409575939178467,21.046785354614258,0.3857322335243225,2.3202548027038574,-0.33084434270858765,0.0,0.0,0.0,0.0,0.0,0.0,0.0,-0.4224555559114094,-0.24915446576300904,-0.2063089044145299,0.6192034105307076,-0.19637756320115213,0.10534774972160173,-0.32881625864622394,0.0623345286850547,0.68830900336985,-0.07873779209245714,-1.6212542901899505,0.028224447460247996,2.287823106944512,0.8466359812275597,0.06226373270833701,0.6884179775783729,-0.07863937525950354,-1.6210372792796082,0.028167345702647853,2.2878312372101677,0.8466366937888992,0.0007609032347148001,0.002668368208612417,0.0011043897601279574,-0.0003093989932594976,-0.00022392483716638447,0.0002878026808209414,0.0002471781224218734,0.0,0.0,0.0,0.0,0.0,0.0,0.0,-7.079597671769133e-05,0.00010897420852284956,9.841683295359893e-05,0.000217010910342319,-5.7101757600142716e-05,8.130265655825752e-06,7.125613394887154e-07,-0.0007609032347148001,-0.002668368208612417,-0.0011043897601279574,0.0003093989932594976,0.00022392483716638447,-0.0002878026808209414,-0.0002471781224218734,0.4783565402030945,47.11928939819336,1.1409575939178467,-21.046785354614258,-0.3857322335243225,-2.3202548027038574,0.33084434270858765,0
14,0.06499314308166504,-0.4783565402030945,-47.11928939819336,-1.1409575939178467,21.046785354614258,0.3857322335243225,2.3202548027038574,-0.33084434270858765,0.0,0.0,0.0,0.0,0.0,0.0,0.0,-0.4224555559114094,-0.24915446576300904,-0.2063089044145299,0.6192034105307076,-0.19637756320115213,0.10534774972160173,-0.32881625864622394,0.0623345286850547,0.68830900336985,-0.07873779209245714,-1.6212542901899505,0.028224447460247996,2.287823106944512,0.8466359812275597,0.06226373270833701,0.6884179775783729,-0.07863937525950354,-1.6210372792796082,0.028167345702647853,2.2878312372101677,0.8466366937888992,0.0007609032347148001,0.002668368208612417,0.0011043897601279574,-0.0003093989932594976,-0.00022392483716638447,0.0002878026808209414,0.0002471781224218734,0.0,0.0,0.0,0.0,0.0,0.0,0.0,-7.079597671769133e-05,0.00010897420852284956,9.841683295359893e-05,0.000217010910342319,-5.7101757600142716e-05,8.130265655825752e-06,7.125613394887154e-07,-0.0007609032347148001,-0.002668368208612417,-0.0011043897601279574,0.0003093989932594976,0.00022392483716638447,-0.0002878026808209414,-0.0002471781224218734,0.4783565402030945,47.11928939819336,1.1409575939178467,-21.046785354614258,-0.3857322335243225,-2.3202548027038574,0.33084434270858765,0
15,0.06999325752258301,-0.4029781222343445,-47.04787826538086,-1.1171538829803467,20.999177932739258,0.3857322335243225,2.3330721855163574,-0.29605430364608765,0.0,0.0,0.0,0.0,0.0,0.0,0.0,-0.410224896045006,-0.2549148916681453,-0.19815390562055557,0.6220566497411227,-0.19616594283492744,0.10605469880863298,-0.3281561878172616,0.062329951099801696,0.6883039920622842,-0.0787394625283124,-1.6212488035631392,0.02822219990476841,2.287818386210837,0.8466289372377898,0.06226373270833701,0.6884179775783729,-0.07863937525950354,-1.6210372792796082,0.028167345702647853,2.2878312372101677,0.8466366937888992,-4.12605288995498e-05,0.00035246644767734567,0.000915841627966418,0.0009061918460920388,-0.00012605256782153432,8.110728996777398e-06,-0.0016660023829201454,0.0,0.0,0.0,0.0,0.0,0.0,0.0,-6.621839146468689e-05,0.00011398551608865493,0.00010008726880886276,0.00021152428353099495,-5.485420212055642e-05,1.2850999330460411e-05,7.756551109405763e-06,4.12605288995498e-05,-0.00035246644767734567,-0.000915841627966418,-0.0009061918460920388,0.00012605256782153432,-8.110728996777398e-06,0.0016660023829201454,0.4029781222343445,47.04787826538086,1.1171538829803467,-20.999177932739258,-0.3857322335243225,-2.3330721855163574,0.29605430364608765,0
16,0.07499527931213379,-0.4029781222343445,-47.04787826538086,-1.1171538829803467,20.999177932739258,0.3857322335243225,2.3330721855163574,-0.29605430364608765,0.0,0.0,0.0,0.0,0.0,0.0,0.0,-0.410224896045006,-0.2549148916681453,-0.19815390562055557,0.6220566497411227,-0.19616594283492744,0.10605469880863298,-0.3281561878172616,0.062329951099801696,0.6883039920622842,-0.0787394625283124,-1.6212488035631392,0.02822219990476841,2.287818386210837,0.8466289372377898,0.06226373270833701,0.6884179775783729,-0.07863937525950354,-1.6210372792796082,0.028167345702647853,2.2878312372101677,0.8466366937888992,-4.12605288995498e-05,0.00035246644767734567,0.000915841627966418,0.0009061918460920388,-0.00012605256782153432,8.110728996777398e-06,-0.0016660023829201454,0.0,0.0,0.0,0.0,0.0,0.0,0.0,-6.621839146468689e-05,0.00011398551608865493,0.00010008726880886276,0.00021152428353099495,-5.485420212055642e-05,1.2850999330460411e-05,7.756551109405763e-06,4.12605288995498e-05,-0.00035246644767734567,-0.000915841627966418,-0.0009061918460920388,0.00012605256782153432,-8.110728996777398e-06,0.0016660023829201454,0.4029781222343445,47.04787826538086,1.1171538829803467,-20.999177932739258,-0.3857322335243225,-2.3330721855163574,0.29605430364608765,0
17,0.07999634742736816,-0.3514034152030945,-47.04787826538086,-1.0417754650115967,20.999177932739258,0.3912253975868225,2.3202548027038574,-0.29605430364608765,0.0,0.0,0.0,0.0,0.0,0.0,0.0,-0.4149815424394486,-0.2577790300400338,-0.20571421108989119,0.6218786515263471,-0.19526749375179098,0.10669627797280128,-0.32752896862997133,0.06232562103476558,0.6883039920622842,-0.07874475224185407,-1.6212490420786219,0.028221607078510576,2.287819788219609,0.8466319983966656,0.06226373270833701,0.6884179775783729,-0.07863937525950354,-1.6210372792796082,0.028167345702647853,2.2878312372101677,0.8466366937888992,-0.0006172050207170461,-4.297912825461325e-05,-0.0002935278786206759,0.0005164060122002105,-0.00043840325739235734,7.119814444251564e-05,-0.0011430386408428433,0.0,0.0,0.0,0.0,0.0,0.0,0.0,-6.188832642856773e-05,0.00011398551608865493,0.00010537698235052462,0.00021176279901369277,-5.426137586272278e-05,1.1448990558715622e-05,4.695392233577955e-06,0.0006172050207170461,4.297912825461325e-05,0.0002935278786206759,-0.0005164060122002105,0.00043840325739235734,-7.119814444251564e-05,0.0011430386408428433,0.3514034152030945,47.04787826538086,1.0417754650115967,-20.999177932739258,-0.3912253975868225,-2.3202548027038574,0.29605430364608765,0
18,0.08506178855895996,-0.3514034152030945,-47.04787826538086,-1.0417754650115967,20.999177932739258,0.3912253975868225,2.3202548027038574,-0.29605430364608765,0.0,0.0,0.0,0.0,0.0,0.0,0.0,-0.4149815424394486,-0.2577790300400338,-0.20571421108989119,0.6218786515263471,-0.19526749375179098,0.10669627797280128,-0.32752896862997133,0.06232562103476558,0.6883039920622842,-0.07874475224185407,-1.6212490420786219,0.028221607078510576,2.287819788219609,0.8466319983966656,0.06226373270833701,0.6884179775783729,-0.07863937525950354,-1.6210372792796082,0.028167345702647853,2.2878312372101677,0.8466366937888992,-0.0006172050207170461,-4.297912825461325e-05,-0.0002935278786206759,0.0005164060122002105,-0.00043840325739235734,7.119814444251564e-05,-0.0011430386408428433,0.0,0.0,0.0,0.0,0.0,0.0,0.0,-6.188832642856773e-05,0.00011398551608865493,0.00010537698235052462,0.00021176279901369277,-5.426137586272278e-05,1.1448990558715622e-05,4.695392233577955e-06,0.0006172050207170461,4.297912825461325e-05,0.0002935278786206759,-0.0005164060122002105,0.00043840325739235734,-7.119814444251564e-05,0.0011430386408428433,0.3514034152030945,47.04787826538086,1.0417754650115967,-20.999177932739258,-0.3912253975868225,-2.3202548027038574,0.29605430364608765,0
19,0.09000396728515625,-0.3752071261405945,-47.02010726928711,-1.0179717540740967,21.022981643676758,0.3793235421180725,2.3266634941101074,-0.28964561223983765,0.0,0.0,0.0,0.0,0.0,0.0,0.0,-0.42032626134919004,-0.2498460429989741,-0.21062157119521074,0.6152176560168005,-0.1951302698804288,0.10499708942132673,-0.32554721978945617,0.062325127407837785,0.6883020432204531,-0.07874642267770933,-1.6212504730070816,0.028221822664821348,2.28781770296836,0.846631404074693,0.06226373270833701,0.6884179775783729,-0.07863937525950354,-1.6210372792796082,0.028167345702647853,2.2878312372101677,0.8466366937888992,5.5477418169762155e-05,-0.00021784738610605575,-0.00028560432506184643,-0.00011367333693820902,0.00010096024170578222,2.1902401165096098e-05,-0.0016483730136537872,0.0,0.0,0.0,0.0,0.0,0.0,0.0,-6.139469950077608e-05,0.00011593435791978912,0.00010704741820578845,0.00021319372747341525,-5.4476962173494875e-05,1.3534241807722225e-05,5.289714206213603e-06,-5.5477418169762155e-05,0.00021784738610605575,0.00028560432506184643,0.00011367333693820902,-0.00010096024170578222,-2.1902401165096098e-05,0.0016483730136537872,0.3752071261405945,47.02010726928711,1.0179717540740967,-21.022981643676758,-0.3793235421180725,-2.3266634941101074,0.28964561223983765,0
20,0.09593677520751953,-0.3752071261405945,-47.02010726928711,-1.0179717540740967,21.022981643676758,0.3793235421180725,2.3266634941101074,-0.28964561223983765,0.0,0.0,0.0,0.0,0.0,0.0,0.0,-0.42032626134919004,-0.2498460429989741,-0.21062157119521074,0.6152176560168005,-0.1951302698804288,0.10499708942132673,-0.32554721978945617,0.062325127407837785,0.6883020432204531,-0.07874642267770933,-1.6212504730070816,0.028221822664821348,2.28781770296836,0.846631404074693,0.06226373270833701,0.6884179775783729,-0.07863937525950354,-1.6210372792796082,0.028167345702647853,2.2878312372101677,0.8466366937888992,5.5477418169762155e-05,-0.00021784738610605575,-0.00028560432506184643,-0.00011367333693820902,0.00010096024170578222,2.1902401165096098e-05,-0.0016483730136537872,0.0,0.0,0.0,0.0,0.0,0.0,0.0,-6.139469950077608e-05,0.00011593435791978912,0.00010704741820578845,0.00021319372747341525,-5.4476962173494875e-05,1.3534241807722225e-05,5.289714206213603e-06,-5.5477418169762155e-05,0.00021784738610605575,0.00028560432506184643,0.00011367333693820902,-0.00010096024170578222,-2.1902401165096098e-05,0.0016483730136537872,0.3752071261405945,47.02010726928711,1.0179717540740967,-21.022981643676758,-0.3793235421180725,-2.3266634941101074,0.28964561223983765,0
21,0.10029411315917969,-0.3752071261405945,-47.02010726928711,-1.0179717540740967,21.022981643676758,0.3793235421180725,2.3266634941101074,-0.28964561223983765,0.0,0.0,0.0,0.0,0.0,0.0,0.0,-0.42032626134919004,-0.2498460429989741,-0.21062157119521074,0.6152176560168005,-0.1951302698804288,0.10499708942132673,-0.32554721978945617,0.062325127407837785,0.6883020432204531,-0.07874642267770933,-1.6212504730070816,0.028221822664821348,2.28781770296836,0.846631404074693,0.06226373270833701,0.6884179775783729,-0.07863937525950354,-1.6210372792796082,0.028167345702647853,2.2878312372101677,0.8466366937888992,5.5477418169762155e-05,-0.00021784738610605575,-0.00028560432506184643,-0.00011367333693820902,0.00010096024170578222,2.1902401165096098e-05,-0.0016483730136537872,0.0,0.0,0.0,0.0,0.0,0.0,0.0,-6.139469950077608e-05,0.00011593435791978912,0.00010704741820578845,0.00021319372747341525,-5.4476962173494875e-05,1.3534241807722225e-05,5.289714206213603e-06,-5.5477418169762155e-05,0.00021784738610605575,0.00028560432506184643,0.00011367333693820902,-0.00010096024170578222,-2.1902401165096098e-05,0.0016483730136537872,0.3752071261405945,47.02010726928711,1.0179717540740967,-21.022981643676758,-0.3793235421180725,-2.3266634941101074,0.28964561223983765,0
22,0.10504841804504395,-0.3752071261405945,-47.02010726928711,-1.0179717540740967,21.022981643676758,0.3793235421180725,2.3266634941101074,-0.28964561223983765,0.0,0.0,0.0,0.0,0.0,0.0,0.0,-0.42032626134919004,-0.2498460429989741,-0.21062157119521074,0.6152176560168005,-0.1951302698804288,0.10499708942132673,-0.32554721978945617,0.062325127407837785,0.6883020432204531,-0.07874642267770933,-1.6212504730070816,0.028221822664821348,2.28781770296836,0.846631404074693,0.06226373270833701,0.6884179775783729,-0.07863937525950354,-1.6210372792796082,0.028167345702647853,2.2878312372101677,0.8466366937888992,5.5477418169762155e-05,-0.00021784738610605575,-0.00028560432506184643,-0.00011367333693820902,0.00010096024170578222,2.1902401165096098e-05,-0.0016483730136537872,0.0,0.0,0.0,0.0,0.0,0.0,0.0,-6.139469950077608e-05,0.00011593435791978912,0.00010704741820578845,0.00021319372747341525,-5.4476962173494875e-05,1.3534241807722225e-05,5.289714206213603e-06,-5.5477418169762155e-05,0.00021784738610605575,0.00028560432506184643,0.00011367333693820902,-0.00010096024170578222,-2.1902401165096098e-05,0.0016483730136537872,0.3752071261405945,47.02010726928711,1.0179717540740967,-21.022981643676758,-0.3793235421180725,-2.3266634941101074,0.28964561223983765,0
23,0.10999441146850586,-0.3752071261405945,-47.02010726928711,-1.0179717540740967,21.022981643676758,0.3738303780555725,2.3266634941101074,-0.34457725286483765,0.0,0.0,0.0,0.0,0.0,0.0,0.0,-0.41182423659743544,-0.27622685407706116,-0.20543275040672931,0.6256912694015545,-0.1951501336822589,0.10670738992171275,-0.3262895722341349,0.06232513617483795,0.6882998974532412,-0.07874642267770933,-1.6212504730057296,0.028223521664761816,2.287819115703777,0.8466375075909827,0.06226373270833701,0.6884179775783729,-0.07863937525950354,-1.6210372792796082,0.028167345702647853,2.2878312372101677,0.8466366937888992,0.00048751354429574895,-0.00176013945147722,-0.0009577342725761228,-4.754779924246372e-05,0.0003528979379193957,0.00029661323104971125,0.00036994676570732666,0.0,0.0,0.0,0.0,0.0,0.0,0.0,-6.140346650094358e-05,0.00011808012513170318,0.00010704741820578845,0.00021319372612138565,-5.6175962113963473e-05,1.2121506390627701e-05,-8.138020834991266e-07,-0.00048751354429574895,0.00176013945147722,0.0009577342725761228,4.754779924246372e-05,-0.0003528979379193957,-0.00029661323104971125,-0.00036994676570732666,0.3752071261405945,47.02010726928711,1.0179717540740967,-21.022981643676758,-0.3738303780555725,-2.3266634941101074,0.34457725286483765,0
24,0.11790323257446289,-0.4267818331718445,-47.04787826538086,-1.0695464611053467,20.999177932739258,0.3793235421180725,2.3266634941101074,-0.30337852239608765,0.0,0.0,0.0,0.0,0.0,0.0,0.0,-0.4091800302696367,-0.2549815730750167,-0.2071957166880709,0.612912911909904,-0.19594304910013322,0.10505817122785041,-0.32731019584033855,0.062328747010523426,0.6883039920582465,-0.07874280340002293,-1.6212488026788907,0.028221451889463716,2.2878209459054246,0.8466329299542639,0.06226373270833701,0.6884179775783729,-0.07863937525950354,-1.6210372792796082,0.028167345702647853,2.2878312372101677,0.8466366937888992,0.0012860983751104514,-0.00029479930692440223,0.0001683432541784888,0.0006826866198158209,0.00010750013497464744,-0.00021404581801706657,-0.0011871903529953552,0.0,0.0,0.0,0.0,0.0,0.0,0.0,-6.50143021864169e-05,0.00011398552012631402,0.00010342814051939042,0.0002115233992825427,-5.410618681586307e-05,1.0291304743059726e-05,3.7638346352952823e-06,-0.0012860983751104514,0.00029479930692440223,-0.0001683432541784888,-0.0006826866198158209,-0.00010750013497464744,0.00021404581801706657,0.0011871903529953552,0.4267818331718445,47.04787826538086,1.0695464611053467,-20.999177932739258,-0.3793235421180725,-2.3266634941101074,0.30337852239608765,0
25,0.11999630928039551,-0.4267818331718445,-47.04787826538086,-1.0695464611053467,20.999177932739258,0.3793235421180725,2.3266634941101074,-0.30337852239608765,0.0,0.0,0.0,0.0,0.0,0.0,0.0,-0.4091800302696367,-0.2549815730750167,-0.2071957166880709,0.612912911909904,-0.19594304910013322,0.10505817122785041,-0.32731019584033855,0.062328747010523426,0.6883039920582465,-0.07874280340002293,-1.6212488026788907,0.028221451889463716,2.2878209459054246,0.8466329299542639,0.06226373270833701,0.6884179775783729,-0.07863937525950354,-1.6210372792796082,0.028167345702647853,2.2878312372101677,0.8466366937888992,0.0012860983751104514,-0.00029479930692440223,0.0001683432541784888,0.0006826866198158209,0.00010750013497464744,-0.00021404581801706657,-0.0011871903529953552,0.0,0.0,0.0,0.0,0.0,0.0,0.0,-6.50143021864169e-05,0.00011398552012631402,0.00010342814051939042,0.0002115233992825427,-5.410618681586307e-05,1.0291304743059726e-05,3.7638346352952823e-06,-0.0012860983751104514,0.00029479930692440223,-0.0001683432541784888,-0.0006826866198158209,-0.00010750013497464744,0.00021404581801706657,0.0011871903529953552,0.4267818331718445,47.04787826538086,1.0695464611053467,-20.999177932739258,-0.3793235421180725,-2.3266634941101074,0.30337852239608765,0
26,0.12499523162841797,-0.4267818331718445,-47.04787826538086,-1.0695464611053467,20.999177932739258,0.3793235421180725,2.3266634941101074,-0.30337852239608765,0.0,0.0,0.0,0.0,0.0,0.0,0.0,-0.4091800302696367,-0.2549815730750167,-0.2071957166880709,0.612912911909904,-0.19594304910013322,0.10505817122785041,-0.32731019584033855,0.062328747010523426,0.6883039920582465,-0.07874280340002293,-1.6212488026788907,0.028221451889463716,2.2878209459054246,0.8466329299542639,0.06226373270833701,0.6884179775783729,-0.07863937525950354,-1.6210372792796082,0.028167345702647853,2.2878312372101677,0.8466366937888992,0.0012860983751104514,-0.00029479930692440223,0.0001683432541784888,0.0006826866198158209,0.00010750013497464744,-0.00021404581801706657,-0.0011871903529953552,0.0,0.0,0.0,0.0,0.0,0.0,0.0,-6.50143021864169e-05,0.00011398552012631402,0.00010342814051939042,0.0002115233992825427,-5.410618681586307e-05,1.0291304743059726e-05,3.7638346352952823e-06,-0.0012860983751104514,0.00029479930692440223,-0.0001683432541784888,-0.0006826866198158209,-0.00010750013497464744,0.00021404581801706657,0.0011871903529953552,0.4267818331718445,47.04787826538086,1.0695464611053467,-20.999177932739258,-0.3793235421180725,-2.3266634941101074,0.30337852239608765,0
27,0.12999367713928223,-0.4267818331718445,-47.04787826538086,-1.0695464611053467,20.999177932739258,0.3793235421180725,2.3458895683288574,-0.34457725286483765,0.0,0.0,0.0,0.0,0.0,0.0,0.0,-0.41493602321634876,-0.26586065152868066,-0.2108139223858206,0.6193240804349288,-0.19596860121894946,0.10500838852110503,-0.3271599205263471,0.06232877301095893,0.6883039920622842,-0.07874280340002293,-1.621248908969753,0.028221859464611903,2.2878202762512436,0.8466375075909827,0.06226373270833701,0.6884179775783729,-0.07863937525950354,-1.6210372792796082,0.028167345702647853,2.2878312372101677,0.8466366937888992,0.0002837742031011853,5.225352654609668e-05,-0.00016093385690629152,0.000518323154525503,-4.3123131316723344e-05,-0.0005726441356900801,0.0008343649461339718,0.0,0.0,0.0,0.0,0.0,0.0,0.0,-6.50403026219229e-05,0.00011398551608865493,0.00010342814051939042,0.00021162969014487665,-5.451376196404997e-05,1.0960958924055575e-05,-8.138020834991266e-07,-0.0002837742031011853,-5.225352654609668e-05,0.00016093385690629152,-0.000518323154525503,4.3123131316723344e-05,0.0005726441356900801,-0.0008343649461339718,0.4267818331718445,47.04787826538086,1.0695464611053467,-20.999177932739258,-0.3793235421180725,-2.3458895683288574,0.34457725286483765,0
28,0.1349928379058838,-0.4267818331718445,-47.04787826538086,-1.0695464611053467,20.999177932739258,0.3793235421180725,2.3458895683288574,-0.34457725286483765,0.0,0.0,0.0,0.0,0.0,0.0,0.0,-0.41493602321634876,-0.26586065152868066,-0.2108139223858206,0.6193240804349288,-0.19596860121894946,0.10500838852110503,-0.3271599205263471,0.06232877301095893,0.6883039920622842,-0.07874280340002293,-1.621248908969753,0.028221859464611903,2.2878202762512436,0.8466375075909827,0.06226373270833701,0.6884179775783729,-0.07863937525950354,-1.6210372792796082,0.028167345702647853,2.2878312372101677,0.8466366937888992,0.0002837742031011853,5.225352654609668e-05,-0.00016093385690629152,0.000518323154525503,-4.3123131316723344e-05,-0.0005726441356900801,0.0008343649461339718,0.0,0.0,0.0,0.0,0.0,0.0,0.0,-6.50403026219229e-05,0.00011398551608865493,0.00010342814051939042,0.00021162969014487665,-5.451376196404997e-05,1.0960958924055575e-05,-8.138020834991266e-07,-0.0002837742031011853,-5.225352654609668e-05,0.00016093385690629152,-0.000518323154525503,4.3123131316723344e-05,0.0005726441356900801,-0.0008343649461339718,0.4267818331718445,47.04787826538086,1.0695464611053467,-20.999177932739258,-0.3793235421180725,-2.3458895683288574,0.34457725286483765,0
29,0.14000391960144043,-0.4267818331718445,-47.02010726928711,-1.0933501720428467,21.022981643676758,0.3793235421180725,2.3202548027038574,-0.34457725286483765,0.0,0.0,0.0,0.0,0.0,0.0,0.0,-0.3972544593244096,-0.26821772248263703,-0.19886974992099637,0.6230820523032711,-0.19616145456919812,0.10748357679173703,-0.32691770239516366,0.06232878179032207,0.6883020432204531,-0.07874113296416767,-1.6212528689658783,0.028221862119263346,2.287818881707481,0.8466375075909827,0.06226373270833701,0.6884179775783729,-0.07863937525950354,-1.6210372792796082,0.028167345702647853,2.2878312372101677,0.8466366937888992,0.0003950170553447057,-0.0004411141411576449,0.00015062646094213532,0.0006615045399297867,0.00014012759375265092,0.0005272754742101102,0.0002843715566544257,0.0,0.0,0.0,0.0,0.0,0.0,0.0,-6.504908198506215e-05,0.00011593435791978912,0.00010175770466412659,0.00021558968627011232,-5.4516416615493085e-05,1.2355502686745012e-05,-8.138020834991266e-07,-0.0003950170553447057,0.0004411141411576449,-0.00015062646094213532,-0.0006615045399297867,-0.00014012759375265092,-0.0005272754742101102,-0.0002843715566544257,0.4267818331718445,47.02010726928711,1.0933501720428467,-21.022981643676758,-0.3793235421180725,-2.3202548027038574,0.34457725286483765,0
30,0.14501237869262695,-0.4267818331718445,-47.02010726928711,-1.0933501720428467,21.022981643676758,0.3793235421180725,2.3202548027038574,-0.34457725286483765,0.0,0.0,0.0,0.0,0.0,0.0,0.0,-0.3972544593244096,-0.26821772248263703,-0.19886974992099637,0.6230820523032711,-0.19616145456919812,0.10748357679173703,-0.32691770239516366,0.06232878179032207,0.6883020432204531,-0.07874113296416767,-1.6212528689658783,0.028221862119263346,2.287818881707481,0.8466375075909827,0.06226373270833701,0.6884179775783729,-0.07863937525950354,-1.6210372792796082,0.028167345702647853,2.2878312372101677,0.8466366937888992,0.0003950170553447057,-0.0004411141411576449,0.00015062646094213532,0.0006615045399297867,0.00014012759375265092,0.0005272754742101102,0.0002843715566544257,0.0,0.0,0.0,0.0,0.0,0.0,0.0,-6.504908198506215e-05,0.00011593435791978912,0.00010175770466412659,0.00021558968627011232,-5.4516416615493085e-05,1.2355502686745012e-05,-8.138020834991266e-07,-0.0003950170553447057,0.0004411141411576449,-0.00015062646094213532,-0.0006615045399297867,-0.00014012759375265092,-0.0005272754742101102,-0.0002843715566544257,0.4267818331718445,47.02010726928711,1.0933501720428467,-21.022981643676758,-0.3793235421180725,-2.3202548027038574,0.34457725286483765,0
31,0.15000033378601074,-0.4505855441093445,-47.04787826538086,-1.0695464611053467,21.022981643676758,0.3674216866493225,2.3202548027038574,-0.36471885442733765,0.0,0.0,0.0,0.0,0.0,0.0,0.0,-0.4215157278440161,-0.25839162714603875,-0.21523402932541397,0.6177333839616398,-0.19564689982475655,0.10643878360959103,-0.32744837686925427,0.062330456128100835,0.6883039920622842,-0.07874280340002293,-1.6212504762897428,0.028227193440377826,2.287822024205327,0.8466397455467118,0.06226373270833701,0.6884179775783729,-0.07863937525950354,-1.6210372792796082,0.028167345702647853,2.2878312372101677,0.8466366937888992,-0.00030024693667990773,0.00041806251795258644,-0.0009897872794284496,5.3871857046837945e-05,0.0003105404317108179,-9.67560810896399e-05,0.0016442762261303886,0.0,0.0,0.0,0.0,0.0,0.0,0.0,-6.672341976382556e-05,0.00011398551608865493,0.00010342814051939042,0.00021319701013466918,-5.984773772997262e-05,9.213004840802341e-06,-3.0517578126776357e-06,0.00030024693667990773,-0.00041806251795258644,0.0009897872794284496,-5.3871857046837945e-05,-0.0003105404317108179,9.67560810896399e-05,-0.0016442762261303886,0.4505855441093445,47.04787826538086,1.0695464611053467,-21.022981643676758,-0.3674216866493225,-2.3202548027038574,0.36471885442733765,0
32,0.1549971103668213,-0.4505855441093445,-47.04787826538086,-1.0695464611053467,21.022981643676758,0.3674216866493225,2.3202548027038574,-0.36471885442733765,0.0,0.0,0.0,0.0,0.0,0.0,0.0,-0.4215157278440161,-0.25839162714603875,-0.21523402932541397,0.6177333839616398,-0.19564689982475655,0.10643878360959103,-0.32744837686925427,0.062330456128100835,0.6883039920622842,-0.07874280340002293,-1.6212504762897428,0.028227193440377826,2.287822024205327,0.8466397455467118,0.06226373270833701,0.6884179775783729,-0.07863937525950354,-1.6210372792796082,0.028167345702647853,2.2878312372101677,0.8466366937888992,-0.00030024693667990773,0.00041806251795258644,-0.0009897872794284496,5.3871857046837945e-05,0.0003105404317108179,-9.67560810896399e-05,0.0016442762261303886,0.0,0.0,0.0,0.0,0.0,0.0,0.0,-6.672341976382556e-05,0.00011398551608865493,0.00010342814051939042,0.00021319701013466918,-5.984773772997262e-05,9.213004840802341e-06,-3.0517578126776357e-06,0.00030024693667990773,-0.00041806251795258644,0.0009897872794284496,-5.3871857046837945e-05,-0.0003105404317108179,9.67560810896399e-05,-0.0016442762261303886,0.4505855441093445,47.04787826538086,1.0695464611053467,-21.022981643676758,-0.3674216866493225,-2.3202548027038574,0.36471885442733765,0
33,0.15999794006347656,-0.4783565402030945,-47.04787826538086,-1.0933501720428467,20.999177932739258,0.3793235421180725,2.3394808769226074,-0.35831016302108765,0.0,0.0,0.0,0.0,0.0,0.0,0.0,-0.40738291690516115,-0.27936288044157764,-0.20092970692554843,0.6325040453055027,-0.19600872568091912,0.10694797352419333,-0.32819119921343964,0.06233236595121459,0.6883039920622842,-0.07874113296416767,-1.621249517861969,0.028221449999092256,2.287819440352957,0.8466390334698889,0.06226373270833701,0.6884179775783729,-0.07863937525950354,-1.6210372792796082,0.028167345702647853,2.2878312372101677,0.8466366937888992,0.0007373841662360212,7.463942526435216e-05,-0.00036348985062498493,0.001185681101117413,1.6584137925117861e-06,-0.00040577722535673475,0.0011631902851467193,0.0,0.0,0.0,0.0,0.0,0.0,0.0,-6.863324287757766e-05,0.00011398551608865493,0.00010175770466412659,0.00021223858236085746,-5.410429644440301e-05,1.1796857210644163e-05,-2.339680989726922e-06,-0.0007373841662360212,-7.463942526435216e-05,0.00036348985062498493,-0.001185681101117413,-1.6584137925117861e-06,0.00040577722535673475,-0.0011631902851467193,0.4783565402030945,47.04787826538086,1.0933501720428467,-20.999177932739258,-0.3793235421180725,-2.3394808769226074,0.35831016302108765,0
34,0.1649935245513916,-0.4783565402030945,-47.04787826538086,-1.0933501720428467,20.999177932739258,0.3793235421180725,2.3394808769226074,-0.35831016302108765,0.0,0.0,0.0,0.0,0.0,0.0,0.0,-0.40738291690516115,-0.27936288044157764,-0.20092970692554843,0.6325040453055027,-0.19600872568091912,0.10694797352419333,-0.32819119921343964,0.06233236595121459,0.6883039920622842,-0.07874113296416767,-1.621249517861969,0.028221449999092256,2.287819440352957,0.8466390334698889,0.06226373270833701,0.6884179775783729,-0.07863937525950354,-1.6210372792796082,0.028167345702647853,2.2878312372101677,0.8466366937888992,0.0007373841662360212,7.463942526435216e-05,-0.00036348985062498493,0.001185681101117413,1.6584137925117861e-06,-0.00040577722535673475,0.0011631902851467193,0.0,0.0,0.0,0.0,0.0,0.0,0.0,-6.863324287757766e-05,0.00011398551608865493,0.00010175770466412659,0.00021223858236085746,-5.410429644440301e-05,1.1796857210644163e-05,-2.339680989726922e-06,-0.0007373841662360212,-7.463942526435216e-05,0.00036348985062498493,-0.001185681101117413,-1.6584137925117861e-06,0.00040577722535673475,-0.0011631902851467193,0.4783565402030945,47.04787826538086,1.0933501720428467,-20.999177932739258,-0.3793235421180725,-2.3394808769226074,0.35831016302108765,0
35,0.16999268531799316,-0.4783565402030945,-47.07168197631836,-1.1171538829803467,21.022981643676758,0.3793235421180725,2.3394808769226074,-0.28964561223983765,0.0,0.0,0.0,0.0,0.0,0.0,0.0,-0.43038135772991326,-0.25579893436273804,-0.21609973834864993,0.6217210060533489,-0.196260611683792,0.10588436202861512,-0.32839324663245256,0.062332392288643436,0.6883056624981395,-0.0787394625283124,-1.6212505554260663,0.028221574688746615,2.287819561748793,0.8466314040753576,0.06226373270833701,0.6884179775783729,-0.07863937525950354,-1.6210372792796082,0.028167345702647853,2.2878312372101677,0.8466366937888992,0.00019758329549229828,0.0008632806877542339,0.00021405658064681355,0.00027830706591545115,0.00024134497816396354,-0.0006575418426385724,-0.0016629751161328277,0.0,0.0,0.0,0.0,0.0,0.0,0.0,-6.86595803064266e-05,0.00011231508023334946,0.00010008726880886276,0.0002132761464581634,-5.422898609876159e-05,1.1675461374593965e-05,5.289713541523078e-06,-0.00019758329549229828,-0.0008632806877542339,-0.00021405658064681355,-0.00027830706591545115,-0.00024134497816396354,0.0006575418426385724,0.0016629751161328277,0.4783565402030945,47.07168197631836,1.1171538829803467,-21.022981643676758,-0.3793235421180725,-2.3394808769226074,0.28964561223983765,0
36,0.17499399185180664,-0.4783565402030945,-47.07168197631836,-1.1171538829803467,21.022981643676758,0.3793235421180725,2.3394808769226074,-0.28964561223983765,0.0,0.0,0.0,0.0,0.0,0.0,0.0,-0.43038135772991326,-0.25579893436273804,-0.21609973834864993,0.6217210060533489,-0.196260611683792,0.10588436202861512,-0.32839324663245256,0.062332392288643436,0.6883056624981395,-0.0787394625283124,-1.6212505554260663,0.028221574688746615,2.287819561748793,0.8466314040753576,0.06226373270833701,0.6884179775783729,-0.07863937525950354,-1.6210372792796082,0.028167345702647853,2.2878312372101677,0.8466366937888992,0.00019758329549229828,0.0008632806877542339,0.00021405658064681355,0.00027830706591545115,0.00024134497816396354,-0.0006575418426385724,-0.0016629751161328277,0.0,0.0,0.0,0.0,0.0,0.0,0.0,-6.86595803064266e-05,0.00011231508023334946,0.00010008726880886276,0.0002132761464581634,-5.422898609876159e-05,1.1675461374593965e-05,5.289713541523078e-06,-0.00019758329549229828,-0.0008632806877542339,-0.00021405658064681355,-0.00027830706591545115,-0.00024134497816396354,0.0006575418426385724,0.0016629751161328277,0.4783565402030945,47.07168197631836,1.1171538829803467,-21.022981643676758,-0.3793235421180725,-2.3394808769226074,0.28964561223983765,0
37,0.1799938678741455,-0.4029781222343445,-47.02010726928711,-1.0417754650115967,21.046785354614258,0.3793235421180725,2.3266634941101074,-0.31711143255233765,0.0,0.0,0.0,0.0,0.0,0.0,0.0,-0.413627913181871,-0.25176250067378364,-0.2033431543941918,0.6214989058675919,-0.196066576282462,0.10515174366930632,-0.32806776182737923,0.06232715535893404,0.6883020432204531,-0.07874475224185407,-1.6212521444231964,0.028226200280760207,2.2878223732899166,0.8466344558331701,0.06226373270833701,0.6884179775783729,-0.07863937525950354,-1.6210372792796082,0.028167345702647853,2.2878312372101677,0.8466366937888992,-0.0007434509113248508,-1.150664506693484e-05,-0.0008701506736598168,-0.0004094620958793657,0.00018356274701218365,-0.00024694652441560334,-0.0006744554174336053,0.0,0.0,0.0,0.0,0.0,0.0,0.0,-6.342265059702812e-05,0.00011593435791978912,0.00010537698235052462,0.00021486514358826092,-5.885457811235367e-05,8.863920251123147e-06,2.2379557290674867e-06,0.0007434509113248508,1.150664506693484e-05,0.0008701506736598168,0.0004094620958793657,-0.00018356274701218365,0.00024694652441560334,0.0006744554174336053,0.4029781222343445,47.02010726928711,1.0417754650115967,-21.046785354614258,-0.3793235421180725,-2.3266634941101074,0.31711143255233765,0
38,0.1860055923461914,-0.4029781222343445,-47.02010726928711,-1.0417754650115967,21.046785354614258,0.3793235421180725,2.3266634941101074,-0.31711143255233765,0.0,0.0,0.0,0.0,0.0,0.0,0.0,-0.413627913181871,-0.25176250067378364,-0.2033431543941918,0.6214989058675919,-0.196066576282462,0.10515174366930632,-0.32806776182737923,0.06232715535893404,0.6883020432204531,-0.07874475224185407,-1.6212521444231964,0.028226200280760207,2.2878223732899166,0.8466344558331701,0.06226373270833701,0.6884179775783729,-0.07863937525950354,-1.6210372792796082,0.028167345702647853,2.2878312372101677,0.8466366937888992,-0.0007434509113248508,-1.150664506693484e-05,-0.0008701506736598168,-0.0004094620958793657,0.00018356274701218365,-0.00024694652441560334,-0.0006744554174336053,0.0,0.0,0.0,0.0,0.0,0.0,0.0,-6.342265059702812e-05,0.00011593435791978912,0.00010537698235052462,0.00021486514358826092,-5.885457811235367e-05,8.863920251123147e-06,2.2379557290674867e-06,0.0007434509113248508,1.150664506693484e-05,0.0008701506736598168,0.0004094620958793657,-0.00018356274701218365,0.00024694652441560334,0.0006744554174336053,0.4029781222343445,47.02010726928711,1.0417754650115967,-21.046785354614258,-0.3793235421180725,-2.3266634941101074,0.31711143255233765,0
39,0.18999075889587402,-0.4029781222343445,-47.02010726928711,-1.0417754650115967,21.046785354614258,0.3793235421180725,2.3266634941101074,-0.31711143255233765,0.0,0.0,0.0,0.0,0.0,0.0,0.0,-0.413627913181871,-0.25176250067378364,-0.2033431543941918,0.6214989058675919,-0.196066576282462,0.10515174366930632,-0.32806776182737923,0.06232715535893404,0.6883020432204531,-0.07874475224185407,-1.6212521444231964,0.028226200280760207,2.2878223732899166,0.8466344558331701,0.06226373270833701,0.6884179775783729,-0.07863937525950354,-1.6210372792796082,0.028167345702647853,2.2878312372101677,0.8466366937888992,-0.0007434509113248508,-1.150664506693484e-05,-0.0008701506736598168,-0.0004094620958793657,0.00018356274701218365,-0.00024694652441560334,-0.0006744554174336053,0.0,0.0,0.0,0.0,0.0,0.0,0.0,-6.342265059702812e-05,0.00011593435791978912,0.00010537698235052462,0.00021486514358826092,-5.885457811235367e-05,8.863920251123147e-06,2.2379557290674867e-06,0.0007434509113248508,1.150664506693484e-05,0.0008701506736598168,0.0004094620958793657,-0.00018356274701218365,0.00024694652441560334,0.0006744554174336053,0.4029781222343445,47.02010726928711,1.0417754650115967,-21.046785354614258,-0.3793235421180725,-2.3266634941101074,0.31711143255233765,0
40,0.19499731063842773,-0.4029781222343445,-47.02010726928711,-1.0417754650115967,21.046785354614258,0.3793235421180725,2.3266634941101074,-0.31711143255233765,0.0,0.0,0.0,0.0,0.0,0.0,0.0,-0.413627913181871,-0.25176250067378364,-0.2033431543941918,0.6214989058675919,-0.196066576282462,0.10515174366930632,-0.32806776182737923,0.06232715535893404,0.6883020432204531,-0.07874475224185407,-1.6212521444231964,0.028226200280760207,2.2878223732899166,0.8466344558331701,0.06226373270833701,0.6884179775783729,-0.07863937525950354,-1.6210372792796082,0.028167345702647853,2.2878312372101677,0.8466366937888992,-0.0007434509113248508,-1.150664506693484e-05,-0.0008701506736598168,-0.0004094620958793657,0.00018356274701218365,-0.00024694652441560334,-0.0006744554174336053,0.0,0.0,0.0,0.0,0.0,0.0,0.0,-6.342265059702812e-05,0.00011593435791978912,0.00010537698235052462,0.00021486514358826092,-5.885457811235367e-05,8.863920251123147e-06,2.2379557290674867e-06,0.0007434509113248508,1.150664506693484e-05,0.0008701506736598168,0.0004094620958793657,-0.00018356274701218365,0.00024694652441560334,0.0006744554174336053,0.4029781222343445,47.02010726928711,1.0417754650115967,-21.046785354614258,-0.3793235421180725,-2.3266634941101074,0.31711143255233765,0
41,0.20000076293945312,-0.3752071261405945,-47.07168197631836,-1.0933501720428467,20.999177932739258,0.3738303780555725,2.3202548027038574,-0.34457725286483765,0.0,0.0,0.0,0.0,0.0,0.0,0.0,-0.4353450444785975,-0.2614728185560445,-0.21986629506156397,0.6268209711459157,-0.19551469172248842,0.10615279802128358,-0.3280543550739748,0.06232515763648449,0.6883056624981395,-0.07874113296416767,-1.62124907663679,0.028226481874714486,2.287821711769146,0.8466375075909827,0.06226373270833701,0.6884179775783729,-0.07863937525950354,-1.6210372792796082,0.028167345702647853,2.2878312372101677,0.8466366937888992,-0.00039441187649584623,0.0008790360343944525,0.00535925480951372,0.0007685830744828077,0.0002541706869475432,0.0005212162521166828,0.0008994176303824662,0.0,0.0,0.0,0.0,0.0,0.0,0.0,-6.142492814747991e-05,0.00011231508023334946,0.00010175770466412659,0.0002117973571817977,-5.9136172066633075e-05,9.525441021729364e-06,-8.138020834991266e-07,0.00039441187649584623,-0.0008790360343944525,-0.00535925480951372,-0.0007685830744828077,-0.0002541706869475432,-0.0005212162521166828,-0.0008994176303824662,0.3752071261405945,47.07168197631836,1.0933501720428467,-20.999177932739258,-0.3738303780555725,-2.3202548027038574,0.34457725286483765,0
42,0.20499753952026367,-0.3752071261405945,-47.07168197631836,-1.0933501720428467,20.999177932739258,0.3738303780555725,2.3202548027038574,-0.34457725286483765,0.0,0.0,0.0,0.0,0.0,0.0,0.0,-0.4353450444785975,-0.2614728185560445,-0.21986629506156397,0.6268209711459157,-0.19551469172248842,0.10615279802128358,-0.3280543550739748,0.06232515763648449,0.6883056624981395,-0.07874113296416767,-1.62124907663679,0.028226481874714486,2.287821711769146,0.8466375075909827,0.06226373270833701,0.6884179775783729,-0.07863937525950354,-1.6210372792796082,0.028167345702647853,2.2878312372101677,0.8466366937888992,-0.00039441187649584623,0.0008790360343944525,0.00535925480951372,0.0007685830744828077,0.0002541706869475432,0.0005212162521166828,0.0008994176303824662,0.0,0.0,0.0,0.0,0.0,0.0,0.0,-6.142492814747991e-05,0.00011231508023334946,0.00010175770466412659,0.0002117973571817977,-5.9136172066633075e-05,9.525441021729364e-06,-8.138020834991266e-07,0.00039441187649584623,-0.0008790360343944525,-0.00535925480951372,-0.0007685830744828077,-0.0002541706869475432,-0.0005212162521166828,-0.0008994176303824662,0.3752071261405945,47.07168197631836,1.0933501720428467,-20.999177932739258,-0.3738303780555725,-2.3202548027038574,0.34457725286483765,0
43,0.20999693870544434,-0.4267818331718445,-47.07168197631836,-1.0417754650115967,20.999177932739258,0.3793235421180725,2.3138461112976074,-0.34457725286483765,0.0,0.0,0.0,0.0,0.0,0.0,0.0,-0.4422381583506986,-0.26339070932314035,-0.22471453295068183,0.6275691179458417,-0.19542872992263105,0.10688794719634415,-0.3266448422973859,0.062328749600161513,0.6883056624981395,-0.07874475224185407,-1.6212488859673388,0.028225711514082926,2.2878201722254237,0.8466375075909827,0.06226373270833701,0.6884179775783729,-0.07863937525950354,-1.6210372792796082,0.028167345702647853,2.2878312372101677,0.8466366937888992,0.0007716569844508235,0.00010320896618964898,-0.0006024192883843327,0.0010554779694257345,-3.9491179526005503e-05,4.2291515560027984e-07,0.0005425886846578953,0.0,0.0,0.0,0.0,0.0,0.0,0.0,-6.501689182450421e-05,0.00011231508023334946,0.00010537698235052462,0.00021160668773068103,-5.8365811435073106e-05,1.1064984744013628e-05,-8.138020834991266e-07,-0.0007716569844508235,-0.00010320896618964898,0.0006024192883843327,-0.0010554779694257345,3.9491179526005503e-05,-4.2291515560027984e-07,-0.0005425886846578953,0.4267818331718445,47.07168197631836,1.0417754650115967,-20.999177932739258,-0.3793235421180725,-2.3138461112976074,0.34457725286483765,0
44,0.2149953842163086,-0.4267818331718445,-47.07168197631836,-1.0417754650115967,20.999177932739258,0.3793235421180725,2.3138461112976074,-0.34457725286483765,0.0,0.0,0.0,0.0,0.0,0.0,0.0,-0.4422381583506986,-0.26339070932314035,-0.22471453295068183,0.6275691179458417,-0.19542872992263105,0.10688794719634415,-0.3266448422973859,0.062328749600161513,0.6883056624981395,-0.07874475224185407,-1.6212488859673388,0.028225711514082926,2.2878201722254237,0.8466375075909827,0.06226373270833701,0.6884179775783729,-0.07863937525950354,-1.6210372792796082,0.028167345702647853,2.2878312372101677,0.8466366937888992,0.0007716569844508235,0.00010320896618964898,-0.0006024192883843327,0.0010554779694257345,-3.9491179526005503e-05,4.2291515560027984e-07,0.0005425886846578953,0.0,0.0,0.0,0.0,0.0,0.0,0.0,-6.501689182450421e-05,0.00011231508023334946,0.00010537698235052462,0.00021160668773068103,-5.8365811435073106e-05,1.1064984744013628e-05,-8.138020834991266e-07,-0.0007716569844508235,-0.00010320896618964898,0.0006024192883843327,-0.0010554779694257345,3.9491179526005503e-05,-4.2291515560027984e-07,-0.0005425886846578953,0.4267818331718445,47.07168197631836,1.0417754650115967,-20.999177932739258,-0.3793235421180725,-2.3138461112976074,0.34457725286483765,0
45,0.21999120712280273,-0.3752071261405945,-47.04787826538086,-1.0417754650115967,21.022981643676758,0.3857322335243225,2.3138461112976074,-0.35831016302108765,0.0,0.0,0.0,0.0,0.0,0.0,0.0,-0.387436687896846,-0.25473205104747526,-0.18477253618563583,0.6218176345142306,-0.196203670837116,0.10507900768567373,-0.32656555176296687,0.06232512750402343,0.6883039920622842,-0.07874475224185407,-1.6212504828176646,0.028225492611787837,2.287823792531927,0.8466390333083833,0.06226373270833701,0.6884179775783729,-0.07863937525950354,-1.6210372792796082,0.028167345702647853,2.2878312372101677,0.8466366937888992,6.798695600573429e-05,0.0003088688392476889,-0.0006467528242436365,0.00015059208167920432,-0.00022133245483736962,0.00031982786312373537,0.0018093504923325935,0.0,0.0,0.0,0.0,0.0,0.0,0.0,-6.139479568641887e-05,0.00011398551608865493,0.00010537698235052462,0.0002132035380564279,-5.814690913998402e-05,7.444678240542402e-06,-2.33951948414024e-06,-6.798695600573429e-05,-0.0003088688392476889,0.0006467528242436365,-0.00015059208167920432,0.00022133245483736962,-0.00031982786312373537,-0.0018093504923325935,0.3752071261405945,47.04787826538086,1.0417754650115967,-21.022981643676758,-0.3857322335243225,-2.3138461112976074,0.35831016302108765,0
46,0.22499346733093262,-0.3752071261405945,-47.04787826538086,-1.0417754650115967,21.022981643676758,0.3857322335243225,2.3138461112976074,-0.35831016302108765,0.0,0.0,0.0,0.0,0.0,0.0,0.0,-0.387436687896846,-0.25473205104747526,-0.18477253618563583,0.6218176345142306,-0.196203670837116,0.10507900768567373,-0.32656555176296687,0.06232512750402343,0.6883039920622842,-0.07874475224185407,-1.6212504828176646,0.028225492611787837,2.287823792531927,0.8466390333083833,0.06226373270833701,0.6884179775783729,-0.07863937525950354,-1.6210372792796082,0.028167345702647853,2.2878312372101677,0.8466366937888992,6.798695600573429e-05,0.0003088688392476889,-0.0006467528242436365,0.00015059208167920432,-0.00022133245483736962,0.00031982786312373537,0.0018093504923325935,0.0,0.0,0.0,0.0,0.0,0.0,0.0,-6.139479568641887e-05,0.00011398551608865493,0.00010537698235052462,0.0002132035380564279,-5.814690913998402e-05,7.444678240542402e-06,-2.33951948414024e-06,-6.798695600573429e-05,-0.0003088688392476889,0.0006467528242436365,-0.00015059208167920432,0.00022133245483736962,-0.00031982786312373537,-0.0018093504923325935,0.3752071261405945,47.04787826538086,1.0417754650115967,-21.022981643676758,-0.3857322335243225,-2.3138461112976074,0.35831016302108765,0
47,0.2312297821044922,-0.4267818331718445,-47.04787826538086,-1.0417754650115967,21.022981643676758,0.3793235421180725,2.3202548027038574,-0.35831016302108765,0.0,0.0,0.0,0.0,0.0,0.0,0.0,-0.411352623773763,-0.2608568273743258,-0.20376629273138447,0.6206225095990545,-0.19626271879864415,0.10487995148753124,-0.3257778723545955,0.062330880022886115,0.6883039920622842,-0.07874475224185407,-1.6212504733328337,0.028221941551923556,2.2878197886687506,0.846639033469888,0.06226373270833701,0.6884179775783729,-0.07863937525950354,-1.6210372792796082,0.028167345702647853,2.2878312372101677,0.8466366937888992,0.000692940278570623,-0.00021069930936660212,-0.000689460288648546,-0.00024318497248796903,7.184284519849891e-05,0.00016940944237507264,0.0016592707669070114,0.0,0.0,0.0,0.0,0.0,0.0,0.0,-6.714731454910555e-05,0.00011398551608865493,0.00010537698235052462,0.00021319405322550722,-5.459584927570288e-05,1.1448541417102831e-05,-2.3396809888387438e-06,-0.000692940278570623,0.00021069930936660212,0.000689460288648546,0.00024318497248796903,-7.184284519849891e-05,-0.00016940944237507264,-0.0016592707669070114,0.4267818331718445,47.04787826538086,1.0417754650115967,-21.022981643676758,-0.3793235421180725,-2.3202548027038574,0.35831016302108765,0
48,0.23499274253845215,-0.4267818331718445,-47.04787826538086,-1.0417754650115967,21.022981643676758,0.3793235421180725,2.3202548027038574,-0.35831016302108765,0.0,0.0,0.0,0.0,0.0,0.0,0.0,-0.411352623773763,-0.2608568273743258,-0.20376629273138447,0.6206225095990545,-0.19626271879864415,0.10487995148753124,-0.3257778723545955,0.062330880022886115,0.6883039920622842,-0.07874475224185407,-1.6212504733328337,0.028221941551923556,2.2878197886687506,0.846639033469888,0.06226373270833701,0.6884179775783729,-0.07863937525950354,-1.6210372792796082,0.028167345702647853,2.2878312372101677,0.8466366937888992,0.000692940278570623,-0.00021069930936660212,-0.000689460288648546,-0.00024318497248796903,7.184284519849891e-05,0.00016940944237507264,0.0016592707669070114,0.0,0.0,0.0,0.0,0.0,0.0,0.0,-6.714731454910555e-05,0.00011398551608865493,0.00010537698235052462,0.00021319405322550722,-5.459584927570288e-05,1.1448541417102831e-05,-2.3396809888387438e-06,-0.000692940278570623,0.00021069930936660212,0.000689460288648546,0.00024318497248796903,-7.184284519849891e-05,-0.00016940944237507264,-0.0016592707669070114,0.4267818331718445,47.04787826538086,1.0417754650115967,-21.022981643676758,-0.3793235421180725,-2.3202548027038574,0.35831016302108765,0
49,0.24097561836242676,-0.4029781222343445,-47.09548568725586,-0.9941680431365967,21.074556350708008,0.3738303780555725,2.3330721855163574,-0.30337852239608765,0.0,0.0,0.0,0.0,0.0,0.0,0.0,-0.3958555282026887,-0.2646734663064307,-0.1916657844817929,0.6222107019526179,-0.19664839435969192,0.10512136756829286,-0.32537815588672864,0.06232707657465164,0.6883073329339947,-0.0787480931135646,-1.6212540922834178,0.028222235654265102,2.2878205972035355,0.8466329299542639,0.06226373270833701,0.6884179775783729,-0.07863937525950354,-1.6210372792796082,0.028167345702647853,2.2878312372101677,0.8466366937888992,-6.512534111731175e-05,0.0010247400313874054,-0.0017530657530843193,-0.0013908243108429652,0.00038135840256925196,-9.735604625434205e-05,-0.001133443290634858,0.0,0.0,0.0,0.0,0.0,0.0,0.0,-6.334386631463157e-05,0.00011064464437815502,0.00010871785406105228,0.00021681300380960167,-5.4889951617249216e-05,1.0640006632200993e-05,3.7638346352952823e-06,6.512534111731175e-05,-0.0010247400313874054,0.0017530657530843193,0.0013908243108429652,-0.00038135840256925196,9.735604625434205e-05,0.001133443290634858,0.4029781222343445,47.09548568725586,0.9941680431365967,-21.074556350708008,-0.3738303780555725,-2.3330721855163574,0.30337852239608765,0
50,0.24500274658203125,-0.4029781222343445,-47.09548568725586,-0.9941680431365967,21.074556350708008,0.3738303780555725,2.3330721855163574,-0.30337852239608765,0.0,0.0,0.0,0.0,0.0,0.0,0.0,-0.3958555282026887,-0.2646734663064307,-0.1916657844817929,0.6222107019526179,-0.19664839435969192,0.10512136756829286,-0.32537815588672864,0.06232707657465164,0.6883073329339947,-0.0787480931135646,-1.6212540922834178,0.028222235654265102,2.2878205972035355,0.8466329299542639,0.06226373270833701,0.6884179775783729,-0.07863937525950354,-1.6210372792796082,0.028167345702647853,2.2878312372101677,0.8466366937888992,-6.512534111731175e-05,0.0010247400313874054,-0.0017530657530843193,-0.0013908243108429652,0.00038135840256925196,-9.735604625434205e-05,-0.001133443290634858,0.0,0.0,0.0,0.0,0.0,0.0,0.0,-6.334386631463157e-05,0.00011064464437815502,0.00010871785406105228,0.00021681300380960167,-5.4889951617249216e-05,1.0640006632200993e-05,3.7638346352952823e-06,6.512534111731175e-05,-0.0010247400313874054,0.0017530657530843193,0.0013908243108429652,-0.00038135840256925196,9.735604625434205e-05,0.001133443290634858,0.4029781222343445,47.09548568725586,0.9941680431365967,-21.074556350708008,-0.3738303780555725,-2.3330721855163574,0.30337852239608765,0
51,0.2500004768371582,-0.4783565402030945,-47.02010726928711,-1.0695464611053467,20.999177932739258,0.3857322335243225,2.3138461112976074,-0.31711143255233765,0.0,0.0,0.0,0.0,0.0,0.0,0.0,-0.40695433847738677,-0.2587641480442848,-0.1985831734463371,0.6207221450317082,-0.19642799738780342,0.10580470812672747,-0.32538828357585575,0.06233245374315865,0.6883020431114368,-0.07874280340002293,-1.6212488025698744,0.02822536924473265,2.2878234311369328,0.8466344558331701,0.06226373270833701,0.6884179775783729,-0.07863937525950354,-1.6210372792796082,0.028167345702647853,2.2878312372101677,0.8466366937888992,0.001236708646270335,-0.0002149887346668764,-0.00042828646125377167,0.000776422292388083,-0.00035490428001464674,0.00033527332576156646,-0.0007854332721444557,0.0,0.0,0.0,0.0,0.0,0.0,0.0,-6.872103482163938e-05,0.0001159344669360296,0.00010342814051939042,0.0002115232902661912,-5.8023542084797985e-05,7.806073234917221e-06,2.2379557290674867e-06,-0.001236708646270335,0.0002149887346668764,0.00042828646125377167,-0.000776422292388083,0.00035490428001464674,-0.00033527332576156646,0.0007854332721444557,0.4783565402030945,47.02010726928711,1.0695464611053467,-20.999177932739258,-0.3857322335243225,-2.3138461112976074,0.31711143255233765,0
52,0.2551882266998291,-0.4783565402030945,-47.02010726928711,-1.0695464611053467,20.999177932739258,0.3857322335243225,2.3138461112976074,-0.31711143255233765,0.0,0.0,0.0,0.0,0.0,0.0,0.0,-0.40695433847738677,-0.2587641480442848,-0.1985831734463371,0.6207221450317082,-0.19642799738780342,0.10580470812672747,-0.32538828357585575,0.06233245374315865,0.6883020431114368,-0.07874280340002293,-1.6212488025698744,0.02822536924473265,2.2878234311369328,0.8466344558331701,0.06226373270833701,0.6884179775783729,-0.07863937525950354,-1.6210372792796082,0.028167345702647853,2.2878312372101677,0.8466366937888992,0.001236708646270335,-0.0002149887346668764,-0.00042828646125377167,0.000776422292388083,-0.00035490428001464674,0.00033527332576156646,-0.0007854332721444557,0.0,0.0,0.0,0.0,0.0,0.0,0.0,-6.872103482163938e-05,0.0001159344669360296,0.00010342814051939042,0.0002115232902661912,-5.8023542084797985e-05,7.806073234917221e-06,2.2379557290674867e-06,-0.001236708646270335,0.0002149887346668764,0.00042828646125377167,-0.000776422292388083,0.00035490428001464674,-0.00033527332576156646,0.0007854332721444557,0.4783565402030945,47.02010726928711,1.0695464611053467,-20.999177932739258,-0.3857322335243225,-2.3138461112976074,0.31711143255233765,0
53,0.259993314743042,-0.4267818331718445,-47.04787826538086,-1.1171538829803467,21.046785354614258,0.3857322335243225,2.3330721855163574,-0.31711143255233765,0.0,0.0,0.0,0.0,0.0,0.0,0.0,-0.37397451103127805,-0.2588177268618014,-0.17018155323437992,0.6227974513484027,-0.19649006885768228,0.10556311564818383,-0.3265554562090503,0.062331117062223045,0.6883039920622835,-0.0787394625283124,-1.6212522232414932,0.02822126530820308,2.287821342729848,0.8466344558331701,0.06226373270833701,0.6884179775783729,-0.07863937525950354,-1.6210372792796082,0.028167345702647853,2.2878312372101677,0.8466366937888992,-0.0010168874937914194,0.0005395926200555908,-0.002902701164421775,-0.0006930713306202565,-0.00013703894675838425,-0.0004283737078671286,-0.0004121414946517333,0.0,0.0,0.0,0.0,0.0,0.0,0.0,-6.738435388603525e-05,0.00011398551608932106,0.00010008726880886276,0.00021494396188503906,-5.3919605555226985e-05,9.894480319516674e-06,2.2379557290674867e-06,0.0010168874937914194,-0.0005395926200555908,0.002902701164421775,0.0006930713306202565,0.00013703894675838425,0.0004283737078671286,0.0004121414946517333,0.4267818331718445,47.04787826538086,1.1171538829803467,-21.046785354614258,-0.3857322335243225,-2.3330721855163574,0.31711143255233765,0
54,0.2649970054626465,-0.4267818331718445,-47.04787826538086,-1.1171538829803467,21.046785354614258,0.3857322335243225,2.3330721855163574,-0.31711143255233765,0.0,0.0,0.0,0.0,0.0,0.0,0.0,-0.37397451103127805,-0.2588177268618014,-0.17018155323437992,0.6227974513484027,-0.19649006885768228,0.10556311564818383,-0.3265554562090503,0.062331117062223045,0.6883039920622835,-0.0787394625283124,-1.6212522232414932,0.02822126530820308,2.287821342729848,0.8466344558331701,0.06226373270833701,0.6884179775783729,-0.07863937525950354,-1.6210372792796082,0.028167345702647853,2.2878312372101677,0.8466366937888992,-0.0010168874937914194,0.0005395926200555908,-0.002902701164421775,-0.0006930713306202565,-0.00013703894675838425,-0.0004283737078671286,-0.0004121414946517333,0.0,0.0,0.0,0.0,0.0,0.0,0.0,-6.738435388603525e-05,0.00011398551608932106,0.00010008726880886276,0.00021494396188503906,-5.3919605555226985e-05,9.894480319516674e-06,2.2379557290674867e-06,0.0010168874937914194,-0.0005395926200555908,0.002902701164421775,0.0006930713306202565,0.00013703894675838425,0.0004283737078671286,0.0004121414946517333,0.4267818331718445,47.04787826538086,1.1171538829803467,-21.046785354614258,-0.3857322335243225,-2.3330721855163574,0.31711143255233765,0
55,0.26999378204345703,-0.4505855441093445,-47.07168197631836,-1.1171538829803467,21.022981643676758,0.3857322335243225,2.3330721855163574,-0.30337852239608765,0.0,0.0,0.0,0.0,0.0,0.0,0.0,-0.38976047661441465,-0.2573327701286887,-0.1816256347275153,0.6242572431044089,-0.19613346445206048,0.10554235076173402,-0.32631374147755954,0.06233049624387681,0.6883056624981395,-0.0787394625283124,-1.6212504818364977,0.02822433059046697,2.2878213470907687,0.8466329299542639,0.06226373270833701,0.6884179775783729,-0.07863937525950354,-1.6210372792796082,0.028167345702647853,2.2878312372101677,0.8466366937888992,-0.00037873502223852943,0.0009074166354473454,-0.0002720705764209756,-9.942372868878019e-05,-5.1940745817990165e-05,-0.00016688181051943796,-0.0011549756669458303,0.0,0.0,0.0,0.0,0.0,0.0,0.0,-6.676353553979747e-05,0.00011231508023334946,0.00010008726880886276,0.0002132025568895024,-5.698488781911634e-05,9.890119399003083e-06,3.7638346352952823e-06,0.00037873502223852943,-0.0009074166354473454,0.0002720705764209756,9.942372868878019e-05,5.1940745817990165e-05,0.00016688181051943796,0.0011549756669458303,0.4505855441093445,47.07168197631836,1.1171538829803467,-21.022981643676758,-0.3857322335243225,-2.3330721855163574,0.30337852239608765,0
56,0.2750067710876465,-0.4505855441093445,-47.07168197631836,-1.1171538829803467,21.022981643676758,0.3857322335243225,2.3330721855163574,-0.30337852239608765,0.0,0.0,0.0,0.0,0.0,0.0,0.0,-0.38976047661441465,-0.2573327701286887,-0.1816256347275153,0.6242572431044089,-0.19613346445206048,0.10554235076173402,-0.32631374147755954,0.06233049624387681,0.6883056624981395,-0.0787394625283124,-1.6212504818364977,0.02822433059046697,2.2878213470907687,0.8466329299542639,0.06226373270833701,0.6884179775783729,-0.07863937525950354,-1.6210372792796082,0.028167345702647853,2.2878312372101677,0.8466366937888992,-0.00037873502223852943,0.0009074166354473454,-0.0002720705764209756,-9.942372868878019e-05,-5.1940745817990165e-05,-0.00016688181051943796,-0.0011549756669458303,0.0,0.0,0.0,0.0,0.0,0.0,0.0,-6.676353553979747e-05,0.00011231508023334946,0.00010008726880886276,0.0002132025568895024,-5.698488781911634e-05,9.890119399003083e-06,3.7638346352952823e-06,0.00037873502223852943,-0.0009074166354473454,0.0002720705764209756,9.942372868878019e-05,5.1940745817990165e-05,0.00016688181051943796,0.0011549756669458303,0.4505855441093445,47.07168197631836,1.1171538829803467,-21.022981643676758,-0.3857322335243225,-2.3330721855163574,0.30337852239608765,0
57,0.28001904487609863,-0.4505855441093445,-47.04787826538086,-1.1409575939178467,20.999177932739258,0.3912253975868225,2.3138461112976074,-0.33725303411483765,0.0,0.0,0.0,0.0,0.0,0.0,0.0,-0.42658843968632815,-0.25930741440750227,-0.21376592798678934,0.6268515767589977,-0.19543364407632538,0.1070870371819435,-0.32596044147989195,0.06233069056683541,0.6883039920622842,-0.07873779209245714,-1.621248802570024,0.028223683217992457,2.2878206122325255,0.8466366937888993,0.06226373270833701,0.6884179775783729,-0.07863937525950354,-1.6210372792796082,0.028167345702647853,2.2878312372101677,0.8466366937888992,-0.00020676894122626332,0.0003401869949480451,0.0015928751638941397,0.0007553737556305879,-0.00041778841754691934,0.000337172169423328,0.0006983012740057618,0.0,0.0,0.0,0.0,0.0,0.0,0.0,-6.695785849840374e-05,0.00011398551608865493,9.841683295359893e-05,0.00021152329041584927,-5.633751534460385e-05,1.0624977642148536e-05,-1.1102230246251565e-16,0.00020676894122626332,-0.0003401869949480451,-0.0015928751638941397,-0.0007553737556305879,0.00041778841754691934,-0.000337172169423328,-0.0006983012740057618,0.4505855441093445,47.04787826538086,1.1409575939178467,-20.999177932739258,-0.3912253975868225,-2.3138461112976074,0.33725303411483765,0
58,0.2850058078765869,-0.4505855441093445,-47.04787826538086,-1.1409575939178467,20.999177932739258,0.3912253975868225,2.3138461112976074,-0.33725303411483765,0.0,0.0,0.0,0.0,0.0,0.0,0.0,-0.42658843968632815,-0.25930741440750227,-0.21376592798678934,0.6268515767589977,-0.19543364407632538,0.1070870371819435,-0.32596044147989195,0.06233069056683541,0.6883039920622842,-0.07873779209245714,-1.621248802570024,0.028223683217992457,2.2878206122325255,0.8466366937888993,0.06226373270833701,0.6884179775783729,-0.07863937525950354,-1.6210372792796082,0.028167345702647853,2.2878312372101677,0.8466366937888992,-0.00020676894122626332,0.0003401869949480451,0.0015928751638941397,0.0007553737556305879,-0.00041778841754691934,0.000337172169423328,0.0006983012740057618,0.0,0.0,0.0,0.0,0.0,0.0,0.0,-6.695785849840374e-05,0.00011398551608865493,9.841683295359893e-05,0.00021152329041584927,-5.633751534460385e-05,1.0624977642148536e-05,-1.1102230246251565e-16,0.00020676894122626332,-0.0003401869949480451,-0.0015928751638941397,-0.0007553737556305879,0.00041778841754691934,-0.000337172169423328,-0.0006983012740057618,0.4505855441093445,47.04787826538086,1.1409575939178467,-20.999177932739258,-0.3912253975868225,-2.3138461112976074,0.33725303411483765,0
59,0.29000115394592285,-0.4267818331718445,-47.07168197631836,-1.0933501720428467,20.999177932739258,0.3738303780555725,2.3266634941101074,-0.34457725286483765,0.0,0.0,0.0,0.0,0.0,0.0,0.0,-0.4381218904927421,-0.2478032253865049,-0.21955249678478922,0.6195157585535674,-0.19560980378229842,0.10530802531201704,-0.3252195154314007,0.06233090733754677,0.6883056624981395,-0.07874113296416767,-1.6212488038780697,0.028223653650708086,2.287818821556659,0.8466375075909827,0.06226373270833701,0.6884179775783729,-0.07863937525950354,-1.6210372792796082,0.028167345702647853,2.2878312372101677,0.8466366937888992,-0.00041930398629602184,0.0008693996116756887,0.0005279108986808662,0.00021895771539325124,0.0004070192253777898,-0.00035627461308404996,0.0006332033314334121,0.0,0.0,0.0,0.0,0.0,0.0,0.0,-6.717462920976386e-05,0.00011231508023334946,0.00010175770466412659,0.00021152459846152105,-5.630794806023298e-05,1.2415653508845992e-05,-8.138020834991266e-07,0.00041930398629602184,-0.0008693996116756887,-0.0005279108986808662,-0.00021895771539325124,-0.0004070192253777898,0.00035627461308404996,-0.0006332033314334121,0.4267818331718445,47.07168197631836,1.0933501720428467,-20.999177932739258,-0.3738303780555725,-2.3266634941101074,0.34457725286483765,0
60,0.29500532150268555,-0.4267818331718445,-47.07168197631836,-1.0933501720428467,20.999177932739258,0.3738303780555725,2.3266634941101074,-0.34457725286483765,0.0,0.0,0.0,0.0,0.0,0.0,0.0,-0.4381218904927421,-0.2478032253865049,-0.21955249678478922,0.6195157585535674,-0.19560980378229842,0.10530802531201704,-0.3252195154314007,0.06233090733754677,0.6883056624981395,-0.07874113296416767,-1.6212488038780697,0.028223653650708086,2.287818821556659,0.8466375075909827,0.06226373270833701,0.6884179775783729,-0.07863937525950354,-1.6210372792796082,0.028167345702647853,2.2878312372101677,0.8466366937888992,-0.00041930398629602184,0.0008693996116756887,0.0005279108986808662,0.00021895771539325124,0.0004070192253777898,-0.00035627461308404996,0.0006332033314334121,0.0,0.0,0.0,0.0,0.0,0.0,0.0,-6.717462920976386e-05,0.00011231508023334946,0.00010175770466412659,0.00021152459846152105,-5.630794806023298e-05,1.2415653508845992e-05,-8.138020834991266e-07,0.00041930398629602184,-0.0008693996116756887,-0.0005279108986808662,-0.00021895771539325124,-0.0004070192253777898,0.00035627461308404996,-0.0006332033314334121,0.4267818331718445,47.07168197631836,1.0933501720428467,-20.999177932739258,-0.3738303780555725,-2.3266634941101074,0.34457725286483765,0
61,0.3000040054321289,-0.4029781222343445,-47.04787826538086,-1.1171538829803467,21.046785354614258,0.3912253975868225,2.3266634941101074,-0.28964561223983765,0.0,0.0,0.0,0.0,0.0,0.0,0.0,-0.42769950061223816,-0.26183351557414564,-0.2104973524736524,0.6273317839476477,-0.19540509669447706,0.10604300698388924,-0.3252117531560451,0.062329209924383414,0.6883039920622842,-0.0787394625283124,-1.6212523818601712,0.028220265422849562,2.2878223597112295,0.8466314040753576,0.06226373270833701,0.6884179775783729,-0.07863937525950354,-1.6210372792796082,0.028167345702647853,2.2878312372101677,0.8466366937888992,7.203522831840598e-06,0.00013791261147043187,0.0010041651671603207,-0.0004204359931960664,-0.0006415860937092455,6.149055584373262e-05,-0.0014807549257901242,0.0,0.0,0.0,0.0,0.0,0.0,0.0,-6.547721604640427e-05,0.00011398551608865493,0.00010008726880886276,0.00021510258056300913,-5.2919720201709264e-05,8.87749893818679e-06,5.289713541523078e-06,-7.203522831840598e-06,-0.00013791261147043187,-0.0010041651671603207,0.0004204359931960664,0.0006415860937092455,-6.149055584373262e-05,0.0014807549257901242,0.4029781222343445,47.04787826538086,1.1171538829803467,-21.046785354614258,-0.3912253975868225,-2.3266634941101074,0.28964561223983765,0
62,0.3050041198730469,-0.4029781222343445,-47.04787826538086,-1.1171538829803467,21.046785354614258,0.3912253975868225,2.3266634941101074,-0.28964561223983765,0.0,0.0,0.0,0.0,0.0,0.0,0.0,-0.42769950061223816,-0.26183351557414564,-0.2104973524736524,0.6273317839476477,-0.19540509669447706,0.10604300698388924,-0.3252117531560451,0.062329209924383414,0.6883039920622842,-0.0787394625283124,-1.6212523818601712,0.028220265422849562,2.2878223597112295,0.8466314040753576,0.06226373270833701,0.6884179775783729,-0.07863937525950354,-1.6210372792796082,0.028167345702647853,2.2878312372101677,0.8466366937888992,7.203522831840598e-06,0.00013791261147043187,0.0010041651671603207,-0.0004204359931960664,-0.0006415860937092455,6.149055584373262e-05,-0.0014807549257901242,0.0,0.0,0.0,0.0,0.0,0.0,0.0,-6.547721604640427e-05,0.00011398551608865493,0.00010008726880886276,0.00021510258056300913,-5.2919720201709264e-05,8.87749893818679e-06,5.289713541523078e-06,-7.203522831840598e-06,-0.00013791261147043187,-0.0010041651671603207,0.0004204359931960664,0.0006415860937092455,-6.149055584373262e-05,0.0014807549257901242,0.4029781222343445,47.04787826538086,1.1171538829803467,-21.046785354614258,-0.3912253975868225,-2.3266634941101074,0.28964561223983765,0
63,0.31001734733581543,-0.3752071261405945,-47.04787826538086,-1.0695464611053467,21.046785354614258,0.3793235421180725,2.3074374198913574,-0.32352012395858765,0.0,0.0,0.0,0.0,0.0,0.0,0.0,-0.44521056100096484,-0.26135112650882125,-0.22713412174066616,0.6237252637510791,-0.19595213135115028,0.10628408757650426,-0.3247278766989824,0.062327972307311234,0.6883039920622842,-0.07874280340002293,-1.6212522494067436,0.02822186406639588,2.2878241896932514,0.846635167909993,0.06226373270833701,0.6884179775783729,-0.07863937525950354,-1.6210372792796082,0.028167345702647853,2.2878312372101677,0.8466366937888992,-0.0010558169640587497,-0.0003132964888505856,-0.00035356427187090703,-0.0005213985458047317,6.8404667929396626e-06,0.00044774915910840315,-7.32213392279049e-05,0.0,0.0,0.0,0.0,0.0,0.0,0.0,-6.423959897422504e-05,0.00011398551608865493,0.00010342814051939042,0.00021497012713544983,-5.4518363748028154e-05,7.047516916269814e-06,1.5258789061167732e-06,0.0010558169640587497,0.0003132964888505856,0.00035356427187090703,0.0005213985458047317,-6.8404667929396626e-06,-0.00044774915910840315,7.32213392279049e-05,0.3752071261405945,47.04787826538086,1.0695464611053467,-21.046785354614258,-0.3793235421180725,-2.3074374198913574,0.32352012395858765,0
64,0.3150146007537842,-0.3752071261405945,-47.04787826538086,-1.0695464611053467,21.046785354614258,0.3793235421180725,2.3074374198913574,-0.32352012395858765,0.0,0.0,0.0,0.0,0.0,0.0,0.0,-0.44521056100096484,-0.26135112650882125,-0.22713412174066616,0.6237252637510791,-0.19595213135115028,0.10628408757650426,-0.3247278766989824,0.062327972307311234,0.6883039920622842,-0.07874280340002293,-1.6212522494067436,0.02822186406639588,2.2878241896932514,0.846635167909993,0.06226373270833701,0.6884179775783729,-0.07863937525950354,-1.6210372792796082,0.028167345702647853,2.2878312372101677,0.8466366937888992,-0.0010558169640587497,-0.0003132964888505856,-0.00035356427187090703,-0.0005213985458047317,6.8404667929396626e-06,0.00044774915910840315,-7.32213392279049e-05,0.0,0.0,0.0,0.0,0.0,0.0,0.0,-6.423959897422504e-05,0.00011398551608865493,0.00010342814051939042,0.00021497012713544983,-5.4518363748028154e-05,7.047516916269814e-06,1.5258789061167732e-06,0.0010558169640587497,0.0003132964888505856,0.00035356427187090703,0.0005213985458047317,-6.8404667929396626e-06,-0.00044774915910840315,7.32213392279049e-05,0.3752071261405945,47.04787826538086,1.0695464611053467,-21.046785354614258,-0.3793235421180725,-2.3074374198913574,0.32352012395858765,0
65,0.32001829147338867,-0.3752071261405945,-47.04787826538086,-1.0695464611053467,21.046785354614258,0.3793235421180725,2.3074374198913574,-0.32352012395858765,0.0,0.0,0.0,0.0,0.0,0.0,0.0,-0.44521056100096484,-0.26135112650882125,-0.22713412174066616,0.6237252637510791,-0.19595213135115028,0.10628408757650426,-0.3247278766989824,0.062327972307311234,0.6883039920622842,-0.07874280340002293,-1.6212522494067436,0.02822186406639588,2.2878241896932514,0.846635167909993,0.06226373270833701,0.6884179775783729,-0.07863937525950354,-1.6210372792796082,0.028167345702647853,2.2878312372101677,0.8466366937888992,-0.0010558169640587497,-0.0003132964888505856,-0.00035356427187090703,-0.0005213985458047317,6.8404667929396626e-06,0.00044774915910840315,-7.32213392279049e-05,0.0,0.0,0.0,0.0,0.0,0.0,0.0,-6.423959897422504e-05,0.00011398551608865493,0.00010342814051939042,0.00021497012713544983,-5.4518363748028154e-05,7.047516916269814e-06,1.5258789061167732e-06,0.0010558169640587497,0.0003132964888505856,0.00035356427187090703,0.0005213985458047317,-6.8404667929396626e-06,-0.00044774915910840315,7.32213392279049e-05,0.3752071261405945,47.04787826538086,1.0695464611053467,-21.046785354614258,-0.3793235421180725,-2.3074374198913574,0.32352012395858765,0
66,0.3250315189361572,-0.3752071261405945,-47.04787826538086,-1.0695464611053467,21.046785354614258,0.3793235421180725,2.3074374198913574,-0.32352012395858765,0.0,0.0,0.0,0.0,0.0,0.0,0.0,-0.44521056100096484,-0.26135112650882125,-0.22713412174066616,0.6237252637510791,-0.19595213135115028,0.10628408757650426,-0.3247278766989824,0.062327972307311234,0.6883039920622842,-0.07874280340002293,-1.6212522494067436,0.02822186406639588,2.2878241896932514,0.846635167909993,0.06226373270833701,0.6884179775783729,-0.07863937525950354,-1.6210372792796082,0.028167345702647853,2.2878312372101677,0.8466366937888992,-0.0010558169640587497,-0.0003132964888505856,-0.00035356427187090703,-0.0005213985458047317,6.8404667929396626e-06,0.00044774915910840315,-7.32213392279049e-05,0.0,0.0,0.0,0.0,0.0,0.0,0.0,-6.423959897422504e-05,0.00011398551608865493,0.00010342814051939042,0.00021497012713544983,-5.4518363748028154e-05,7.047516916269814e-06,1.5258789061167732e-06,0.0010558169640587497,0.0003132964888505856,0.00035356427187090703,0.0005213985458047317,-6.8404667929396626e-06,-0.00044774915910840315,7.32213392279049e-05,0.3752071261405945,47.04787826538086,1.0695464611053467,-21.046785354614258,-0.3793235421180725,-2.3074374198913574,0.32352012395858765,0
67,0.32999491691589355,-0.4029781222343445,-47.04787826538086,-1.0695464611053467,21.046785354614258,0.3857322335243225,2.3394808769226074,-0.30337852239608765,0.0,0.0,0.0,0.0,0.0,0.0,0.0,-0.4297449943474777,-0.25541842653276353,-0.2164061573010633,0.6206777296519531,-0.19639736088408857,0.10541206766736343,-0.3245922684311074,0.06232731625488814,0.6883039920622842,-0.07874280340002293,-1.621254527627974,0.028225039092233874,2.2878206206399416,0.8466329299542639,0.06226373270833701,0.6884179775783729,-0.07863937525950354,-1.6210372792796082,0.028167345702647853,2.2878312372101677,0.8466366937888992,-0.0004019467125507384,0.0003025668684262681,0.00010386315661173022,-9.735572087592583e-05,-0.0003721561134611353,-0.0005149318353646039,-0.0008188262077738828,0.0,0.0,0.0,0.0,0.0,0.0,0.0,-6.358354655112974e-05,0.00011398551608865493,0.00010342814051939042,0.00021724834836578388,-5.7693389586020716e-05,1.0616570226051891e-05,3.7638346352952823e-06,0.0004019467125507384,-0.0003025668684262681,-0.00010386315661173022,9.735572087592583e-05,0.0003721561134611353,0.0005149318353646039,0.0008188262077738828,0.4029781222343445,47.04787826538086,1.0695464611053467,-21.046785354614258,-0.3857322335243225,-2.3394808769226074,0.30337852239608765,0
68,0.33499956130981445,-0.4029781222343445,-47.04787826538086,-1.0695464611053467,21.046785354614258,0.3857322335243225,2.3394808769226074,-0.30337852239608765,0.0,0.0,0.0,0.0,0.0,0.0,0.0,-0.4297449943474777,-0.25541842653276353,-0.2164061573010633,0.6206777296519531,-0.19639736088408857,0.10541206766736343,-0.3245922684311074,0.06232731625488814,0.6883039920622842,-0.07874280340002293,-1.621254527627974,0.028225039092233874,2.2878206206399416,0.8466329299542639,0.06226373270833701,0.6884179775783729,-0.07863937525950354,-1.6210372792796082,0.028167345702647853,2.2878312372101677,0.8466366937888992,-0.0004019467125507384,0.0003025668684262681,0.00010386315661173022,-9.735572087592583e-05,-0.0003721561134611353,-0.0005149318353646039,-0.0008188262077738828,0.0,0.0,0.0,0.0,0.0,0.0,0.0,-6.358354655112974e-05,0.00011398551608865493,0.00010342814051939042,0.00021724834836578388,-5.7693389586020716e-05,1.0616570226051891e-05,3.7638346352952823e-06,0.0004019467125507384,-0.0003025668684262681,-0.00010386315661173022,9.735572087592583e-05,0.0003721561134611353,0.0005149318353646039,0.0008188262077738828,0.4029781222343445,47.04787826538086,1.0695464611053467,-21.046785354614258,-0.3857322335243225,-2.3394808769226074,0.30337852239608765,0
69,0.33999013900756836,-0.4029781222343445,-47.04787826538086,-1.0417754650115967,21.022981643676758,0.3793235421180725,2.3202548027038574,-0.33725303411483765,0.0,0.0,0.0,0.0,0.0,0.0,0.0,-0.42545467708015317,-0.2729877437086565,-0.21193170978336787,0.6284430159772775,-0.19620259329939072,0.10711204690523485,-0.32547620428361806,0.062329948451570145,0.6883039920622842,-0.07874475224185407,-1.621253335023284,0.028224659884022802,2.287823124080222,0.8466366937888993,0.06226373270833701,0.6884179775783729,-0.07863937525950354,-1.6210372792796082,0.028167345702647853,2.2878312372101677,0.8466366937888992,-4.384600765258723e-05,-0.00035107606723832897,-0.0006486253478422552,0.00018952332021065344,0.0002784364907434241,0.00014970953258379313,0.0003300059229112447,0.0,0.0,0.0,0.0,0.0,0.0,0.0,-6.621574323313617e-05,0.00011398551608865493,0.00010537698235052462,0.00021605574367589142,-5.7314181374949064e-05,8.113129945641617e-06,-1.1102230246251565e-16,4.384600765258723e-05,0.00035107606723832897,0.0006486253478422552,-0.00018952332021065344,-0.0002784364907434241,-0.00014970953258379313,-0.0003300059229112447,0.4029781222343445,47.04787826538086,1.0417754650115967,-21.022981643676758,-0.3793235421180725,-2.3202548027038574,0.33725303411483765,0
70,0.34499073028564453,-0.4029781222343445,-47.04787826538086,-1.0417754650115967,21.022981643676758,0.3793235421180725,2.3202548027038574,-0.33725303411483765,0.0,0.0,0.0,0.0,0.0,0.0,0.0,-0.42545467708015317,-0.2729877437086565,-0.21193170978336787,0.6284430159772775,-0.19620259329939072,0.10711204690523485,-0.32547620428361806,0.062329948451570145,0.6883039920622842,-0.07874475224185407,-1.621253335023284,0.028224659884022802,2.287823124080222,0.8466366937888993,0.06226373270833701,0.6884179775783729,-0.07863937525950354,-1.6210372792796082,0.028167345702647853,2.2878312372101677,0.8466366937888992,-4.384600765258723e-05,-0.00035107606723832897,-0.0006486253478422552,0.00018952332021065344,0.0002784364907434241,0.00014970953258379313,0.0003300059229112447,0.0,0.0,0.0,0.0,0.0,0.0,0.0,-6.621574323313617e-05,0.00011398551608865493,0.00010537698235052462,0.00021605574367589142,-5.7314181374949064e-05,8.113129945641617e-06,-1.1102230246251565e-16,4.384600765258723e-05,0.00035107606723832897,0.0006486253478422552,-0.00018952332021065344,-0.0002784364907434241,-0.00014970953258379313,-0.0003300059229112447,0.4029781222343445,47.04787826538086,1.0417754650115967,-21.022981643676758,-0.3793235421180725,-2.3202548027038574,0.33725303411483765,0
71,0.3499903678894043,-0.4505855441093445,-47.04787826538086,-1.0695464611053467,21.046785354614258,0.3857322335243225,2.3010287284851074,-0.35098594427108765,0.0,0.0,0.0,0.0,0.0,0.0,0.0,-0.41505976983121523,-0.25547557787468567,-0.20412489041517234,0.6187795678826599,-0.19601874696016466,0.10544462189613145,-0.3261796589877253,0.062331128241902775,0.6883039920622842,-0.07874280340002293,-1.621252143457741,0.028223973458472565,2.287825090624231,0.8466382196678056,0.06226373270833701,0.6884179775783729,-0.07863937525950354,-1.6210372792796082,0.028167345702647853,2.2878312372101677,0.8466366937888992,0.0014104058675567606,2.924675921740338e-05,0.0003043542067820619,-0.0005151483150576143,-0.0001220978376584793,0.0007142055675648988,0.0017548871597306743,0.0,0.0,0.0,0.0,0.0,0.0,0.0,-6.739553356576583e-05,0.00011398551608865493,0.00010342814051939042,0.0002148641781327676,-5.662775582471191e-05,6.1465859366727216e-06,-1.5258789064498401e-06,-0.0014104058675567606,-2.924675921740338e-05,-0.0003043542067820619,0.0005151483150576143,0.0001220978376584793,-0.0007142055675648988,-0.0017548871597306743,0.4505855441093445,47.04787826538086,1.0695464611053467,-21.046785354614258,-0.3857322335243225,-2.3010287284851074,0.35098594427108765,0
72,0.35499000549316406,-0.4505855441093445,-47.04787826538086,-1.0695464611053467,21.046785354614258,0.3857322335243225,2.3010287284851074,-0.35098594427108765,0.0,0.0,0.0,0.0,0.0,0.0,0.0,-0.41505976983121523,-0.25547557787468567,-0.20412489041517234,0.6187795678826599,-0.19601874696016466,0.10544462189613145,-0.3261796589877253,0.062331128241902775,0.6883039920622842,-0.07874280340002293,-1.621252143457741,0.028223973458472565,2.287825090624231,0.8466382196678056,0.06226373270833701,0.6884179775783729,-0.07863937525950354,-1.6210372792796082,0.028167345702647853,2.2878312372101677,0.8466366937888992,0.0014104058675567606,2.924675921740338e-05,0.0003043542067820619,-0.0005151483150576143,-0.0001220978376584793,0.0007142055675648988,0.0017548871597306743,0.0,0.0,0.0,0.0,0.0,0.0,0.0,-6.739553356576583e-05,0.00011398551608865493,0.00010342814051939042,0.0002148641781327676,-5.662775582471191e-05,6.1465859366727216e-06,-1.5258789064498401e-06,-0.0014104058675567606,-2.924675921740338e-05,-0.0003043542067820619,0.0005151483150576143,0.0001220978376584793,-0.0007142055675648988,-0.0017548871597306743,0.4505855441093445,47.04787826538086,1.0695464611053467,-21.046785354614258,-0.3857322335243225,-2.3010287284851074,0.35098594427108765,0
73,0.35999488830566406,-0.4029781222343445,-47.02010726928711,-1.0933501720428467,20.999177932739258,0.3857322335243225,2.3202548027038574,-0.35098594427108765,0.0,0.0,0.0,0.0,0.0,0.0,0.0,-0.4374598757609005,-0.24943599238102693,-0.21924287938641804,0.616729916722022,-0.19607783608305288,0.10436698289846316,-0.3251667878209835,0.06232707736144936,0.6883020432204531,-0.07874113296416767,-1.6212488025698744,0.028225052207525685,2.287818881545015,0.8466382196678056,0.06226373270833701,0.6884179775783729,-0.07863937525950354,-1.6210372792796082,0.028167345702647853,2.2878312372101677,0.8466366937888992,-0.0005299874364461824,-7.462295420491024e-05,0.00010650938388126723,0.0004063373534433721,-0.00023639085736006904,0.0003927125865896214,0.0010017506782091243,0.0,0.0,0.0,0.0,0.0,0.0,0.0,-6.334465311234883e-05,0.00011593435791978912,0.00010175770466412659,0.0002115232902661912,-5.770650487783163e-05,1.2355665152785633e-05,-1.5258789064498401e-06,0.0005299874364461824,7.462295420491024e-05,-0.00010650938388126723,-0.0004063373534433721,0.00023639085736006904,-0.0003927125865896214,-0.0010017506782091243,0.4029781222343445,47.02010726928711,1.0933501720428467,-20.999177932739258,-0.3857322335243225,-2.3202548027038574,0.35098594427108765,0
74,0.3649911880493164,-0.4029781222343445,-47.02010726928711,-1.0933501720428467,20.999177932739258,0.3857322335243225,2.3202548027038574,-0.35098594427108765,0.0,0.0,0.0,0.0,0.0,0.0,0.0,-0.4374598757609005,-0.24943599238102693,-0.21924287938641804,0.616729916722022,-0.19607783608305288,0.10436698289846316,-0.3251667878209835,0.06232707736144936,0.6883020432204531,-0.07874113296416767,-1.6212488025698744,0.028225052207525685,2.287818881545015,0.8466382196678056,0.06226373270833701,0.6884179775783729,-0.07863937525950354,-1.6210372792796082,0.028167345702647853,2.2878312372101677,0.8466366937888992,-0.0005299874364461824,-7.462295420491024e-05,0.00010650938388126723,0.0004063373534433721,-0.00023639085736006904,0.0003927125865896214,0.0010017506782091243,0.0,0.0,0.0,0.0,0.0,0.0,0.0,-6.334465311234883e-05,0.00011593435791978912,0.00010175770466412659,0.0002115232902661912,-5.770650487783163e-05,1.2355665152785633e-05,-1.5258789064498401e-06,0.0005299874364461824,7.462295420491024e-05,-0.00010650938388126723,-0.0004063373534433721,0.00023639085736006904,-0.0003927125865896214,-0.0010017506782091243,0.4029781222343445,47.02010726928711,1.0933501720428467,-20.999177932739258,-0.3857322335243225,-2.3202548027038574,0.35098594427108765,0
75,0.3700096607208252,-0.4267818331718445,-46.99630355834961,-1.0695464611053467,21.022981643676758,0.3738303780555725,2.3266634941101074,-0.31711143255233765,0.0,0.0,0.0,0.0,0.0,0.0,0.0,-0.42122988660299016,-0.26014509892625326,-0.20589671184624864,0.6247112042413582,-0.19599196058139334,0.10579848179921147,-0.325748225933291,0.06232945811499629,0.6883003727845979,-0.07874280340002293,-1.6212505524785892,0.028222460800873875,2.2878223585231745,0.8466344558331701,0.06226373270833701,0.6884179775783729,-0.07863937525950354,-1.6210372792796082,0.028167345702647853,2.2878312372101677,0.8466366937888992,-0.00029616465594125776,-0.000649164366923294,-1.6939596351697724e-05,0.00024967079309123837,0.00033563807331835467,-7.555102727230507e-06,-0.0005029005889270082,0.0,0.0,0.0,0.0,0.0,0.0,0.0,-6.572540665927828e-05,0.00011760479377498356,0.00010342814051939042,0.00021327319898101216,-5.511509822602248e-05,8.878686993174512e-06,2.2379557290674867e-06,0.00029616465594125776,0.000649164366923294,1.6939596351697724e-05,-0.00024967079309123837,-0.00033563807331835467,7.555102727230507e-06,0.0005029005889270082,0.4267818331718445,46.99630355834961,1.0695464611053467,-21.022981643676758,-0.3738303780555725,-2.3266634941101074,0.31711143255233765,0
76,0.37499523162841797,-0.4267818331718445,-46.99630355834961,-1.0695464611053467,21.022981643676758,0.3738303780555725,2.3266634941101074,-0.31711143255233765,0.0,0.0,0.0,0.0,0.0,0.0,0.0,-0.42122988660299016,-0.26014509892625326,-0.20589671184624864,0.6247112042413582,-0.19599196058139334,0.10579848179921147,-0.325748225933291,0.06232945811499629,0.6883003727845979,-0.07874280340002293,-1.6212505524785892,0.028222460800873875,2.2878223585231745,0.8466344558331701,0.06226373270833701,0.6884179775783729,-0.07863937525950354,-1.6210372792796082,0.028167345702647853,2.2878312372101677,0.8466366937888992,-0.00029616465594125776,-0.000649164366923294,-1.6939596351697724e-05,0.00024967079309123837,0.00033563807331835467,-7.555102727230507e-06,-0.0005029005889270082,0.0,0.0,0.0,0.0,0.0,0.0,0.0,-6.572540665927828e-05,0.00011760479377498356,0.00010342814051939042,0.00021327319898101216,-5.511509822602248e-05,8.878686993174512e-06,2.2379557290674867e-06,0.00029616465594125776,0.000649164366923294,1.6939596351697724e-05,-0.00024967079309123837,-0.00033563807331835467,7.555102727230507e-06,0.0005029005889270082,0.4267818331718445,46.99630355834961,1.0695464611053467,-21.022981643676758,-0.3738303780555725,-2.3266634941101074,0.31711143255233765,0
77,0.37999486923217773,-0.4267818331718445,-47.04787826538086,-1.0417754650115967,21.022981643676758,0.3738303780555725,2.3266634941101074,-0.30978721380233765,0.0,0.0,0.0,0.0,0.0,0.0,0.0,-0.431703102009848,-0.2594234734486326,-0.20983612437043608,0.6243135093275648,-0.19632558044959844,0.10628449345256638,-0.32599226793704084,0.06232899545791627,0.6883039920622842,-0.07874475224185407,-1.621250473042517,0.02822543200695651,2.287818154556499,0.8466336420310868,0.06226373270833701,0.6884179775783729,-0.07863937525950354,-1.6210372792796082,0.028167345702647853,2.2878312372101677,0.8466366937888992,-0.0005646002778924445,0.0004485934734533305,-0.0011407649939576263,2.584699920870438e-06,0.0002242009228987187,-0.00013206195476291087,-0.0010108381629712164,0.0,0.0,0.0,0.0,0.0,0.0,0.0,-6.52627495792632e-05,0.00011398551608865493,0.00010537698235052462,0.00021319376290884762,-5.8086304308656994e-05,1.3082653668838873e-05,3.0517578123445688e-06,0.0005646002778924445,-0.0004485934734533305,0.0011407649939576263,-2.584699920870438e-06,-0.0002242009228987187,0.00013206195476291087,0.0010108381629712164,0.4267818331718445,47.04787826538086,1.0417754650115967,-21.022981643676758,-0.3738303780555725,-2.3266634941101074,0.30978721380233765,0
78,0.38499975204467773,-0.4267818331718445,-47.04787826538086,-1.0417754650115967,21.022981643676758,0.3738303780555725,2.3266634941101074,-0.30978721380233765,0.0,0.0,0.0,0.0,0.0,0.0,0.0,-0.431703102009848,-0.2594234734486326,-0.20983612437043608,0.6243135093275648,-0.19632558044959844,0.10628449345256638,-0.32599226793704084,0.06232899545791627,0.6883039920622842,-0.07874475224185407,-1.621250473042517,0.02822543200695651,2.287818154556499,0.8466336420310868,0.06226373270833701,0.6884179775783729,-0.07863937525950354,-1.6210372792796082,0.028167345702647853,2.2878312372101677,0.8466366937888992,-0.0005646002778924445,0.0004485934734533305,-0.0011407649939576263,2.584699920870438e-06,0.0002242009228987187,-0.00013206195476291087,-0.0010108381629712164,0.0,0.0,0.0,0.0,0.0,0.0,0.0,-6.52627495792632e-05,0.00011398551608865493,0.00010537698235052462,0.00021319376290884762,-5.8086304308656994e-05,1.3082653668838873e-05,3.0517578123445688e-06,0.0005646002778924445,-0.0004485934734533305,0.0011407649939576263,-2.584699920870438e-06,-0.0002242009228987187,0.00013206195476291087,0.0010108381629712164,0.4267818331718445,47.04787826538086,1.0417754650115967,-21.022981643676758,-0.3738303780555725,-2.3266634941101074,0.30978721380233765,0
79,0.3900136947631836,-0.4783565402030945,-47.04787826538086,-1.0933501720428467,21.046785354614258,0.3857322335243225,2.3202548027038574,-0.30978721380233765,0.0,0.0,0.0,0.0,0.0,0.0,0.0,-0.42213870895156214,-0.26150345672505537,-0.19932449676800543,0.6259317776753723,-0.1968017470198724,0.10682072112839629,-0.32651635102495746,0.06233236595146246,0.6883039920622842,-0.07874113296416767,-1.621252169932538,0.02822409377680919,2.287818885521768,0.8466336420310868,0.06226373270833701,0.6884179775783729,-0.07863937525950354,-1.6210372792796082,0.028167345702647853,2.2878312372101677,0.8466366937888992,0.0011302716608417396,-6.350067388247532e-07,0.0005278695463483468,-0.00021102214030005795,-0.00013555892925489493,0.00034745348928610584,-0.00030044569579534857,0.0,0.0,0.0,0.0,0.0,0.0,0.0,-6.863324312544883e-05,0.00011398551608865493,0.00010175770466412659,0.00021489065292978893,-5.674807416133562e-05,1.2351688399636629e-05,3.0517578123445688e-06,-0.0011302716608417396,6.350067388247532e-07,-0.0005278695463483468,0.00021102214030005795,0.00013555892925489493,-0.00034745348928610584,0.00030044569579534857,0.4783565402030945,47.04787826538086,1.0933501720428467,-21.046785354614258,-0.3857322335243225,-2.3202548027038574,0.30978721380233765,0
