rezayati/contactInterpretation/dataset/franka_main/labeled_data/link6/b8_4.csv
index,time,tau_J0,tau_J1,tau_J2,tau_J3,tau_J4,tau_J5,tau_J6,tau_J_d0,tau_J_d1,tau_J_d2,tau_J_d3,tau_J_d4,tau_J_d5,tau_J_d6,tau_ext0,tau_ext1,tau_ext2,tau_ext3,tau_ext4,tau_ext5,tau_ext6,q0,q1,q2,q3,q4,q5,q6,q_d0,q_d1,q_d2,q_d3,q_d4,q_d5,q_d6,dq0,dq1,dq2,dq3,dq4,dq5,dq6,dq_d0,dq_d1,dq_d2,dq_d3,dq_d4,dq_d5,dq_d6,e0,e1,e2,e3,e4,e5,e6,de0,de1,de2,de3,de4,de5,de6,etau_J0,etau_J1,etau_J2,etau_J3,etau_J4,etau_J5,etau_J6,label
1,0.0,-0.4267818331718445,-19.693445205688477,-0.3990752398967743,20.205720901489258,0.8563132882118225,2.4694857597351074,-0.25485557317733765,0.0,0.0,0.0,0.0,0.0,0.0,0.0,-0.410103493093031,0.01769346645144041,-0.21679703107297893,0.4165150102730791,0.26144223091286306,0.1016158456182027,-0.2729576897432683,1.2135622780989628,-0.22015680086612702,-0.007450161520874374,-2.604094575031626,-0.10902215916866789,2.468145402961333,0.8264792637091741,1.2134413937687574,-0.2202432315892585,-0.0075118285948192216,-2.6038483821997875,-0.10888392708698907,2.4681821257803174,0.826474908251239,0.0005594556542609299,-0.0005744767767469714,-0.00023454332800109637,-0.00028123629540549475,-0.0004251699326383869,0.00028935756893327616,-0.000573183145333025,0.0,0.0,0.0,0.0,0.0,0.0,0.0,-0.00012088433020540634,-8.643072313146982e-05,-6.166707394484727e-05,0.00024619283183824336,0.0001382320816788185,3.6722818984369354e-05,-4.355457935090179e-06,-0.0005594556542609299,0.0005744767767469714,0.00023454332800109637,0.00028123629540549475,0.0004251699326383869,-0.00028935756893327616,0.000573183145333025,0.4267818331718445,19.693445205688477,0.3990752398967743,-20.205720901489258,-0.8563132882118225,-2.4694857597351074,0.25485557317733765,0
2,0.0049555301666259766,-0.4267818331718445,-19.693445205688477,-0.3990752398967743,20.205720901489258,0.8563132882118225,2.4694857597351074,-0.25485557317733765,0.0,0.0,0.0,0.0,0.0,0.0,0.0,-0.410103493093031,0.01769346645144041,-0.21679703107297893,0.4165150102730791,0.26144223091286306,0.1016158456182027,-0.2729576897432683,1.2135622780989628,-0.22015680086612702,-0.007450161520874374,-2.604094575031626,-0.10902215916866789,2.468145402961333,0.8264792637091741,1.2134413937687574,-0.2202432315892585,-0.0075118285948192216,-2.6038483821997875,-0.10888392708698907,2.4681821257803174,0.826474908251239,0.0005594556542609299,-0.0005744767767469714,-0.00023454332800109637,-0.00028123629540549475,-0.0004251699326383869,0.00028935756893327616,-0.000573183145333025,0.0,0.0,0.0,0.0,0.0,0.0,0.0,-0.00012088433020540634,-8.643072313146982e-05,-6.166707394484727e-05,0.00024619283183824336,0.0001382320816788185,3.6722818984369354e-05,-4.355457935090179e-06,-0.0005594556542609299,0.0005744767767469714,0.00023454332800109637,0.00028123629540549475,0.0004251699326383869,-0.00028935756893327616,0.000573183145333025,0.4267818331718445,19.693445205688477,0.3990752398967743,-20.205720901489258,-0.8563132882118225,-2.4694857597351074,0.25485557317733765,0
3,0.009996891021728516,-0.4029781222343445,-19.717248916625977,-0.3990752398967743,20.181917190551758,0.8499045968055725,2.4694857597351074,-0.30337852239608765,0.0,0.0,0.0,0.0,0.0,0.0,0.0,-0.4104895840139977,0.015147586012258296,-0.21598720379407527,0.41881734965334166,0.2616000846312494,0.10211183045773636,-0.27252213033772454,1.2135606077721237,-0.22015513043027174,-0.007450389517093627,-2.604090838616352,-0.10902146023504466,2.4681454427455156,0.826484657084703,1.2134413937687574,-0.2202432315892585,-0.0075118285948192216,-2.6038483821997875,-0.10888392708698907,2.4681821257803174,0.826474908251239,-0.0004974248258100391,-7.292104105317425e-05,-0.000161720761577092,0.0005639583443176981,-4.8182815507222814e-05,2.3797474279413983e-05,0.0014801655826286297,0.0,0.0,0.0,0.0,0.0,0.0,0.0,-0.00011921400336634136,-8.810115898674753e-05,-6.1439077725595e-05,0.00024245641656461814,0.0001375331480555908,3.668303480175439e-05,-9.74883346394062e-06,0.0004974248258100391,7.292104105317425e-05,0.000161720761577092,-0.0005639583443176981,4.8182815507222814e-05,-2.3797474279413983e-05,-0.0014801655826286297,0.4029781222343445,19.717248916625977,0.3990752398967743,-20.181917190551758,-0.8499045968055725,-2.4694857597351074,0.30337852239608765,0
4,0.014951705932617188,-0.4029781222343445,-19.717248916625977,-0.3990752398967743,20.181917190551758,0.8499045968055725,2.4694857597351074,-0.30337852239608765,0.0,0.0,0.0,0.0,0.0,0.0,0.0,-0.4104895840139977,0.015147586012258296,-0.21598720379407527,0.41881734965334166,0.2616000846312494,0.10211183045773636,-0.27252213033772454,1.2135606077721237,-0.22015513043027174,-0.007450389517093627,-2.604090838616352,-0.10902146023504466,2.4681454427455156,0.826484657084703,1.2134413937687574,-0.2202432315892585,-0.0075118285948192216,-2.6038483821997875,-0.10888392708698907,2.4681821257803174,0.826474908251239,-0.0004974248258100391,-7.292104105317425e-05,-0.000161720761577092,0.0005639583443176981,-4.8182815507222814e-05,2.3797474279413983e-05,0.0014801655826286297,0.0,0.0,0.0,0.0,0.0,0.0,0.0,-0.00011921400336634136,-8.810115898674753e-05,-6.1439077725595e-05,0.00024245641656461814,0.0001375331480555908,3.668303480175439e-05,-9.74883346394062e-06,0.0004974248258100391,7.292104105317425e-05,0.000161720761577092,-0.0005639583443176981,4.8182815507222814e-05,-2.3797474279413983e-05,-0.0014801655826286297,0.4029781222343445,19.717248916625977,0.3990752398967743,-20.181917190551758,-0.8499045968055725,-2.4694857597351074,0.30337852239608765,0
5,0.020002126693725586,-0.4267818331718445,-19.717248916625977,-0.4228789508342743,20.181917190551758,0.8499045968055725,2.4694857597351074,-0.27591270208358765,0.0,0.0,0.0,0.0,0.0,0.0,0.0,-0.4060212553933955,0.018819408358818335,-0.20967778212969687,0.4144472572101449,0.2616576621564103,0.10092689550364072,-0.2720239392052854,1.2135622782079796,-0.22015513043027174,-0.0074485865564749235,-2.604092904899042,-0.10902146023511886,2.468145522152652,0.8264819192937546,1.2134413937687574,-0.2202432315892585,-0.0075118285948192216,-2.6038483821997875,-0.10888392708698907,2.4681821257803174,0.826474908251239,0.0008228004201777128,-0.00011693629202949677,0.0003921109380855454,-3.0307600713349015e-05,-5.8263776840423255e-05,-2.1073474454471028e-05,-0.0002068311404431743,0.0,0.0,0.0,0.0,0.0,0.0,0.0,-0.00012088443922220193,-8.810115898674753e-05,-6.324203834429803e-05,0.0002445226992544569,0.00013753314812978146,3.660362766533254e-05,-7.0110425155478495e-06,-0.0008228004201777128,0.00011693629202949677,-0.0003921109380855454,3.0307600713349015e-05,5.8263776840423255e-05,2.1073474454471028e-05,0.0002068311404431743,0.4267818331718445,19.717248916625977,0.4228789508342743,-20.181917190551758,-0.8499045968055725,-2.4694857597351074,0.27591270208358765,0
6,0.025059223175048828,-0.4267818331718445,-19.717248916625977,-0.4228789508342743,20.181917190551758,0.8499045968055725,2.4694857597351074,-0.27591270208358765,0.0,0.0,0.0,0.0,0.0,0.0,0.0,-0.4060212553933955,0.018819408358818335,-0.20967778212969687,0.4144472572101449,0.2616576621564103,0.10092689550364072,-0.2720239392052854,1.2135622782079796,-0.22015513043027174,-0.0074485865564749235,-2.604092904899042,-0.10902146023511886,2.468145522152652,0.8264819192937546,1.2134413937687574,-0.2202432315892585,-0.0075118285948192216,-2.6038483821997875,-0.10888392708698907,2.4681821257803174,0.826474908251239,0.0008228004201777128,-0.00011693629202949677,0.0003921109380855454,-3.0307600713349015e-05,-5.8263776840423255e-05,-2.1073474454471028e-05,-0.0002068311404431743,0.0,0.0,0.0,0.0,0.0,0.0,0.0,-0.00012088443922220193,-8.810115898674753e-05,-6.324203834429803e-05,0.0002445226992544569,0.00013753314812978146,3.660362766533254e-05,-7.0110425155478495e-06,-0.0008228004201777128,0.00011693629202949677,-0.0003921109380855454,3.0307600713349015e-05,5.8263776840423255e-05,2.1073474454471028e-05,0.0002068311404431743,0.4267818331718445,19.717248916625977,0.4228789508342743,-20.181917190551758,-0.8499045968055725,-2.4694857597351074,0.27591270208358765,0
7,0.03000020980834961,-0.4029781222343445,-19.745019912719727,-0.3713042438030243,20.154146194458008,0.8499045968055725,2.4630770683288574,-0.30337852239608765,0.0,0.0,0.0,0.0,0.0,0.0,0.0,-0.4104693093636132,0.017291868260253775,-0.2140822996000663,0.4161608930400073,0.2621664981960617,0.10104636472628821,-0.27257379946587945,1.2135598925163869,-0.2201531815884406,-0.007454468229135831,-2.6040909551240676,-0.10902146023511886,2.4681461150383543,0.8264849710534871,1.2134413937687574,-0.2202432315892585,-0.0075118285948192216,-2.6038483821997875,-0.10888392708698907,2.4681821257803174,0.826474908251239,-0.0002874593343724072,0.0004115593632390821,-0.0010048717137382931,0.0008749283732241512,7.401386748679762e-05,0.00033304077633811716,0.0010927778582309434,0.0,0.0,0.0,0.0,0.0,0.0,0.0,-0.00011849874762948076,-9.005000081788173e-05,-5.736036568339091e-05,0.00024257292428009336,0.00013753314812978146,3.6010741963021786e-05,-1.006280224802314e-05,0.0002874593343724072,-0.0004115593632390821,0.0010048717137382931,-0.0008749283732241512,-7.401386748679762e-05,-0.00033304077633811716,-0.0010927778582309434,0.4029781222343445,19.745019912719727,0.3713042438030243,-20.154146194458008,-0.8499045968055725,-2.4630770683288574,0.30337852239608765,0
8,0.0350034236907959,-0.4029781222343445,-19.745019912719727,-0.3713042438030243,20.154146194458008,0.8499045968055725,2.4630770683288574,-0.30337852239608765,0.0,0.0,0.0,0.0,0.0,0.0,0.0,-0.4104693093636132,0.017291868260253775,-0.2140822996000663,0.4161608930400073,0.2621664981960617,0.10104636472628821,-0.27257379946587945,1.2135598925163869,-0.2201531815884406,-0.007454468229135831,-2.6040909551240676,-0.10902146023511886,2.4681461150383543,0.8264849710534871,1.2134413937687574,-0.2202432315892585,-0.0075118285948192216,-2.6038483821997875,-0.10888392708698907,2.4681821257803174,0.826474908251239,-0.0002874593343724072,0.0004115593632390821,-0.0010048717137382931,0.0008749283732241512,7.401386748679762e-05,0.00033304077633811716,0.0010927778582309434,0.0,0.0,0.0,0.0,0.0,0.0,0.0,-0.00011849874762948076,-9.005000081788173e-05,-5.736036568339091e-05,0.00024257292428009336,0.00013753314812978146,3.6010741963021786e-05,-1.006280224802314e-05,0.0002874593343724072,-0.0004115593632390821,0.0010048717137382931,-0.0008749283732241512,-7.401386748679762e-05,-0.00033304077633811716,-0.0010927778582309434,0.4029781222343445,19.745019912719727,0.3713042438030243,-20.154146194458008,-0.8499045968055725,-2.4630770683288574,0.30337852239608765,0
9,0.04000496864318848,-0.4267818331718445,-19.693445205688477,-0.3990752398967743,20.205720901489258,0.8499045968055725,2.4630770683288574,-0.29605430364608765,0.0,0.0,0.0,0.0,0.0,0.0,0.0,-0.4105100122408323,0.009823457330717674,-0.21256461578094668,0.4201527870792834,0.26221089311133994,0.1013429936924981,-0.27401023291299936,1.2135622781676032,-0.2201568018427311,-0.007450231675388641,-2.6040945498367494,-0.10902146023511886,2.46814611503813,0.8264841567667394,1.2134413937687574,-0.2202432315892585,-0.0075118285948192216,-2.6038483821997875,-0.10888392708698907,2.4681821257803174,0.826474908251239,8.013859132889363e-05,-0.0012419387810936923,-0.0005435475660162606,-0.0003555074019410933,-0.00030386530573044303,0.00036572328909331454,0.0006423022041019794,0.0,0.0,0.0,0.0,0.0,0.0,0.0,-0.00012088439884583302,-8.642974652739444e-05,-6.159691943058085e-05,0.00024616763696183597,0.00013753314812978146,3.601074218728684e-05,-9.248515500326349e-06,-8.013859132889363e-05,0.0012419387810936923,0.0005435475660162606,0.0003555074019410933,0.00030386530573044303,-0.00036572328909331454,-0.0006423022041019794,0.4267818331718445,19.693445205688477,0.3990752398967743,-20.205720901489258,-0.8499045968055725,-2.4630770683288574,0.29605430364608765,0
10,0.045038461685180664,-0.4267818331718445,-19.693445205688477,-0.3990752398967743,20.205720901489258,0.8499045968055725,2.4630770683288574,-0.29605430364608765,0.0,0.0,0.0,0.0,0.0,0.0,0.0,-0.4105100122408323,0.009823457330717674,-0.21256461578094668,0.4201527870792834,0.26221089311133994,0.1013429936924981,-0.27401023291299936,1.2135622781676032,-0.2201568018427311,-0.007450231675388641,-2.6040945498367494,-0.10902146023511886,2.46814611503813,0.8264841567667394,1.2134413937687574,-0.2202432315892585,-0.0075118285948192216,-2.6038483821997875,-0.10888392708698907,2.4681821257803174,0.826474908251239,8.013859132889363e-05,-0.0012419387810936923,-0.0005435475660162606,-0.0003555074019410933,-0.00030386530573044303,0.00036572328909331454,0.0006423022041019794,0.0,0.0,0.0,0.0,0.0,0.0,0.0,-0.00012088439884583302,-8.642974652739444e-05,-6.159691943058085e-05,0.00024616763696183597,0.00013753314812978146,3.601074218728684e-05,-9.248515500326349e-06,-8.013859132889363e-05,0.0012419387810936923,0.0005435475660162606,0.0003555074019410933,0.00030386530573044303,-0.00036572328909331454,-0.0006423022041019794,0.4267818331718445,19.693445205688477,0.3990752398967743,-20.205720901489258,-0.8499045968055725,-2.4630770683288574,0.29605430364608765,0
11,0.050009965896606445,-0.4029781222343445,-19.717248916625977,-0.3713042438030243,20.181917190551758,0.8380027413368225,2.4630770683288574,-0.26217979192733765,0.0,0.0,0.0,0.0,0.0,0.0,0.0,-0.41188106425217685,0.013867825403956818,-0.2170400898743729,0.41382175404662735,0.26177158129221745,0.10072004867157529,-0.27511222508625977,1.2135606077357852,-0.22015513043027726,-0.007453050456824834,-2.604092903930762,-0.10902013780673343,2.468146233260217,0.8264803919630677,1.2134413937687574,-0.2202432315892585,-0.0075118285948192216,-2.6038483821997875,-0.10888392708698907,2.4681821257803174,0.826474908251239,-0.0002330327929340753,-0.0006162705195733594,-0.0015946582094931118,-0.00021382879412115216,0.0002763421584455018,0.0004158649502777036,-0.0006093831161922771,0.0,0.0,0.0,0.0,0.0,0.0,0.0,-0.00011921396702785358,-8.810115898122417e-05,-5.87781379943874e-05,0.00024452173097433416,0.00013621071974435905,3.5892520100500036e-05,-5.4837118286243935e-06,0.0002330327929340753,0.0006162705195733594,0.0015946582094931118,0.00021382879412115216,-0.0002763421584455018,-0.0004158649502777036,0.0006093831161922771,0.4029781222343445,19.717248916625977,0.3713042438030243,-20.181917190551758,-0.8380027413368225,-2.4630770683288574,0.26217979192733765,0
12,0.05498981475830078,-0.4029781222343445,-19.717248916625977,-0.3713042438030243,20.181917190551758,0.8380027413368225,2.4630770683288574,-0.26217979192733765,0.0,0.0,0.0,0.0,0.0,0.0,0.0,-0.41188106425217685,0.013867825403956818,-0.2170400898743729,0.41382175404662735,0.26177158129221745,0.10072004867157529,-0.27511222508625977,1.2135606077357852,-0.22015513043027726,-0.007453050456824834,-2.604092903930762,-0.10902013780673343,2.468146233260217,0.8264803919630677,1.2134413937687574,-0.2202432315892585,-0.0075118285948192216,-2.6038483821997875,-0.10888392708698907,2.4681821257803174,0.826474908251239,-0.0002330327929340753,-0.0006162705195733594,-0.0015946582094931118,-0.00021382879412115216,0.0002763421584455018,0.0004158649502777036,-0.0006093831161922771,0.0,0.0,0.0,0.0,0.0,0.0,0.0,-0.00011921396702785358,-8.810115898122417e-05,-5.87781379943874e-05,0.00024452173097433416,0.00013621071974435905,3.5892520100500036e-05,-5.4837118286243935e-06,0.0002330327929340753,0.0006162705195733594,0.0015946582094931118,0.00021382879412115216,-0.0002763421584455018,-0.0004158649502777036,0.0006093831161922771,0.4029781222343445,19.717248916625977,0.3713042438030243,-20.181917190551758,-0.8380027413368225,-2.4630770683288574,0.26217979192733765,0
13,0.05999922752380371,-0.4029781222343445,-19.745019912719727,-0.3713042438030243,20.229524612426758,0.8380027413368225,2.4694857597351074,-0.23471395671367645,0.0,0.0,0.0,0.0,0.0,0.0,0.0,-0.40668482555205315,0.01358442378397616,-0.21432897888232422,0.41470847999035637,0.2616857114549887,0.10154768729364316,-0.2752419972829891,1.2135606074450753,-0.2201531815884406,-0.007452109393276991,-2.6040962457824115,-0.10902013780673343,2.4681454204045776,0.8264762776583642,1.2134413937687574,-0.2202432315892585,-0.0075118285948192216,-2.6038483821997875,-0.10888392708698907,2.4681821257803174,0.826474908251239,-9.60477237945562e-05,0.0005740833361947401,-0.0004586060848494333,-0.0007535538715187154,0.00027412565246175336,6.649003520141457e-05,-0.0015169369884166794,0.0,0.0,0.0,0.0,0.0,0.0,0.0,-0.00011921367631795299,-9.005000081788173e-05,-5.9719201542230566e-05,0.0002478635826239639,0.00013621071974435905,3.670537573974286e-05,-1.3694071251402207e-06,9.60477237945562e-05,-0.0005740833361947401,0.0004586060848494333,0.0007535538715187154,-0.00027412565246175336,-6.649003520141457e-05,0.0015169369884166794,0.4029781222343445,19.745019912719727,0.3713042438030243,-20.229524612426758,-0.8380027413368225,-2.4694857597351074,0.23471395671367645,0
14,0.06499791145324707,-0.4029781222343445,-19.745019912719727,-0.3713042438030243,20.229524612426758,0.8380027413368225,2.4694857597351074,-0.23471395671367645,0.0,0.0,0.0,0.0,0.0,0.0,0.0,-0.40668482555205315,0.01358442378397616,-0.21432897888232422,0.41470847999035637,0.2616857114549887,0.10154768729364316,-0.2752419972829891,1.2135606074450753,-0.2201531815884406,-0.007452109393276991,-2.6040962457824115,-0.10902013780673343,2.4681454204045776,0.8264762776583642,1.2134413937687574,-0.2202432315892585,-0.0075118285948192216,-2.6038483821997875,-0.10888392708698907,2.4681821257803174,0.826474908251239,-9.60477237945562e-05,0.0005740833361947401,-0.0004586060848494333,-0.0007535538715187154,0.00027412565246175336,6.649003520141457e-05,-0.0015169369884166794,0.0,0.0,0.0,0.0,0.0,0.0,0.0,-0.00011921367631795299,-9.005000081788173e-05,-5.9719201542230566e-05,0.0002478635826239639,0.00013621071974435905,3.670537573974286e-05,-1.3694071251402207e-06,9.60477237945562e-05,-0.0005740833361947401,0.0004586060848494333,0.0007535538715187154,-0.00027412565246175336,-6.649003520141457e-05,0.0015169369884166794,0.4029781222343445,19.745019912719727,0.3713042438030243,-20.229524612426758,-0.8380027413368225,-2.4694857597351074,0.23471395671367645,0
15,0.07030940055847168,-0.4029781222343445,-19.693445205688477,-0.3990752398967743,20.181917190551758,0.8444114327430725,2.4630770683288574,-0.26217979192733765,0.0,0.0,0.0,0.0,0.0,0.0,0.0,-0.40921545404588233,0.014692410941576963,-0.21422717459878313,0.41361343249289695,0.26169251838696433,0.10059390325646231,-0.2731904665770328,1.2135605812811692,-0.22015680086612702,-0.007450389589250446,-2.604092904910706,-0.10902084988355636,2.4681464682509384,0.8264771355199965,1.2134413937687574,-0.2202432315892585,-0.0075118285948192216,-2.6038483821997875,-0.10888392708698907,2.4681821257803174,0.826474908251239,-7.984806476981614e-05,-0.0008905432299647109,6.401232816991584e-05,0.00016630262519158598,0.00018054393469854846,0.00029258645478260286,-0.0002537980356633944,0.0,0.0,0.0,0.0,0.0,0.0,0.0,-0.00011918751241180026,-8.643072313146982e-05,-6.143900556877541e-05,0.00024452271091846,0.000136922796567282,3.5657529378951835e-05,-2.227268757426515e-06,7.984806476981614e-05,0.0008905432299647109,-6.401232816991584e-05,-0.00016630262519158598,-0.00018054393469854846,-0.00029258645478260286,0.0002537980356633944,0.4029781222343445,19.693445205688477,0.3990752398967743,-20.181917190551758,-0.8444114327430725,-2.4630770683288574,0.26217979192733765,0
16,0.07550191879272461,-0.4029781222343445,-19.693445205688477,-0.3990752398967743,20.181917190551758,0.8444114327430725,2.4630770683288574,-0.26217979192733765,0.0,0.0,0.0,0.0,0.0,0.0,0.0,-0.40921545404588233,0.014692410941576963,-0.21422717459878313,0.41361343249289695,0.26169251838696433,0.10059390325646231,-0.2731904665770328,1.2135605812811692,-0.22015680086612702,-0.007450389589250446,-2.604092904910706,-0.10902084988355636,2.4681464682509384,0.8264771355199965,1.2134413937687574,-0.2202432315892585,-0.0075118285948192216,-2.6038483821997875,-0.10888392708698907,2.4681821257803174,0.826474908251239,-7.984806476981614e-05,-0.0008905432299647109,6.401232816991584e-05,0.00016630262519158598,0.00018054393469854846,0.00029258645478260286,-0.0002537980356633944,0.0,0.0,0.0,0.0,0.0,0.0,0.0,-0.00011918751241180026,-8.643072313146982e-05,-6.143900556877541e-05,0.00024452271091846,0.000136922796567282,3.5657529378951835e-05,-2.227268757426515e-06,7.984806476981614e-05,0.0008905432299647109,-6.401232816991584e-05,-0.00016630262519158598,-0.00018054393469854846,-0.00029258645478260286,0.0002537980356633944,0.4029781222343445,19.693445205688477,0.3990752398967743,-20.181917190551758,-0.8444114327430725,-2.4630770683288574,0.26217979192733765,0
17,0.07999873161315918,-0.3514034152030945,-19.717248916625977,-0.3990752398967743,20.154146194458008,0.8499045968055725,2.4694857597351074,-0.30978721380233765,0.0,0.0,0.0,0.0,0.0,0.0,0.0,-0.4096456439079133,0.008872129194763866,-0.2137120472357929,0.42018899737091636,0.26178193640763536,0.101094624167881,-0.2725364089208652,1.2135569884942883,-0.22015513140687581,-0.007450388508108982,-2.604090956068875,-0.10901826447241796,2.4681485954441578,0.826485720688737,1.2134413937687574,-0.2202432315892585,-0.0075118285948192216,-2.6038483821997875,-0.10888392708698907,2.4681821257803174,0.826474908251239,-0.001075663828472056,-0.0003208645601676098,-0.0003966823728757984,0.0014867372116028812,-0.0002185905109784522,0.00025449693341587416,0.0015285763744793518,0.0,0.0,0.0,0.0,0.0,0.0,0.0,-0.00011559472553090977,-8.810018238267214e-05,-6.144008671023996e-05,0.00024257386908743683,0.00013433738542888152,3.353033615960399e-05,-1.0812437498008975e-05,0.001075663828472056,0.0003208645601676098,0.0003966823728757984,-0.0014867372116028812,0.0002185905109784522,-0.00025449693341587416,-0.0015285763744793518,0.3514034152030945,19.717248916625977,0.3990752398967743,-20.154146194458008,-0.8499045968055725,-2.4694857597351074,0.30978721380233765,0
18,0.08501505851745605,-0.3514034152030945,-19.717248916625977,-0.3990752398967743,20.154146194458008,0.8499045968055725,2.4694857597351074,-0.30978721380233765,0.0,0.0,0.0,0.0,0.0,0.0,0.0,-0.4096456439079133,0.008872129194763866,-0.2137120472357929,0.42018899737091636,0.26178193640763536,0.101094624167881,-0.2725364089208652,1.2135569884942883,-0.22015513140687581,-0.007450388508108982,-2.604090956068875,-0.10901826447241796,2.4681485954441578,0.826485720688737,1.2134413937687574,-0.2202432315892585,-0.0075118285948192216,-2.6038483821997875,-0.10888392708698907,2.4681821257803174,0.826474908251239,-0.001075663828472056,-0.0003208645601676098,-0.0003966823728757984,0.0014867372116028812,-0.0002185905109784522,0.00025449693341587416,0.0015285763744793518,0.0,0.0,0.0,0.0,0.0,0.0,0.0,-0.00011559472553090977,-8.810018238267214e-05,-6.144008671023996e-05,0.00024257386908743683,0.00013433738542888152,3.353033615960399e-05,-1.0812437498008975e-05,0.001075663828472056,0.0003208645601676098,0.0003966823728757984,-0.0014867372116028812,0.0002185905109784522,-0.00025449693341587416,-0.0015285763744793518,0.3514034152030945,19.717248916625977,0.3990752398967743,-20.154146194458008,-0.8499045968055725,-2.4694857597351074,0.30978721380233765,0
19,0.09001827239990234,-0.3514034152030945,-19.717248916625977,-0.3990752398967743,20.154146194458008,0.8499045968055725,2.4694857597351074,-0.30978721380233765,0.0,0.0,0.0,0.0,0.0,0.0,0.0,-0.4096456439079133,0.008872129194763866,-0.2137120472357929,0.42018899737091636,0.26178193640763536,0.101094624167881,-0.2725364089208652,1.2135569884942883,-0.22015513140687581,-0.007450388508108982,-2.604090956068875,-0.10901826447241796,2.4681485954441578,0.826485720688737,1.2134413937687574,-0.2202432315892585,-0.0075118285948192216,-2.6038483821997875,-0.10888392708698907,2.4681821257803174,0.826474908251239,-0.001075663828472056,-0.0003208645601676098,-0.0003966823728757984,0.0014867372116028812,-0.0002185905109784522,0.00025449693341587416,0.0015285763744793518,0.0,0.0,0.0,0.0,0.0,0.0,0.0,-0.00011559472553090977,-8.810018238267214e-05,-6.144008671023996e-05,0.00024257386908743683,0.00013433738542888152,3.353033615960399e-05,-1.0812437498008975e-05,0.001075663828472056,0.0003208645601676098,0.0003966823728757984,-0.0014867372116028812,0.0002185905109784522,-0.00025449693341587416,-0.0015285763744793518,0.3514034152030945,19.717248916625977,0.3990752398967743,-20.154146194458008,-0.8499045968055725,-2.4694857597351074,0.30978721380233765,0
20,0.09496259689331055,-0.3514034152030945,-19.717248916625977,-0.3990752398967743,20.154146194458008,0.8499045968055725,2.4694857597351074,-0.30978721380233765,0.0,0.0,0.0,0.0,0.0,0.0,0.0,-0.4096456439079133,0.008872129194763866,-0.2137120472357929,0.42018899737091636,0.26178193640763536,0.101094624167881,-0.2725364089208652,1.2135569884942883,-0.22015513140687581,-0.007450388508108982,-2.604090956068875,-0.10901826447241796,2.4681485954441578,0.826485720688737,1.2134413937687574,-0.2202432315892585,-0.0075118285948192216,-2.6038483821997875,-0.10888392708698907,2.4681821257803174,0.826474908251239,-0.001075663828472056,-0.0003208645601676098,-0.0003966823728757984,0.0014867372116028812,-0.0002185905109784522,0.00025449693341587416,0.0015285763744793518,0.0,0.0,0.0,0.0,0.0,0.0,0.0,-0.00011559472553090977,-8.810018238267214e-05,-6.144008671023996e-05,0.00024257386908743683,0.00013433738542888152,3.353033615960399e-05,-1.0812437498008975e-05,0.001075663828472056,0.0003208645601676098,0.0003966823728757984,-0.0014867372116028812,0.0002185905109784522,-0.00025449693341587416,-0.0015285763744793518,0.3514034152030945,19.717248916625977,0.3990752398967743,-20.154146194458008,-0.8499045968055725,-2.4694857597351074,0.30978721380233765,0
21,0.09999370574951172,-0.4029781222343445,-19.717248916625977,-0.3990752398967743,20.229524612426758,0.8444114327430725,2.4694857597351074,-0.29605430364608765,0.0,0.0,0.0,0.0,0.0,0.0,0.0,-0.40470293239082933,0.009405018520191447,-0.2130968825822051,0.41745300050155165,0.2616100212862374,0.101141425737784,-0.27149055148625306,1.2135605282992645,-0.22015513043027726,-0.007450862073148509,-2.604095557017633,-0.10902084932464072,2.468145403033164,0.8264840787597548,1.2134413937687574,-0.2202432315892585,-0.0075118285948192216,-2.6038483821997875,-0.10888392708698907,2.4681821257803174,0.826474908251239,0.00010720774617051464,-0.000304763967475072,-6.320081500655063e-05,-0.000893883480061764,0.00010026909262490736,5.917375058802557e-05,0.001464563571609236,0.0,0.0,0.0,0.0,0.0,0.0,0.0,-0.00011913453050715894,-8.810115898122417e-05,-6.0966521670712676e-05,0.00024717481784541917,0.00013692223765164602,3.672274715338375e-05,-9.170508515787823e-06,-0.00010720774617051464,0.000304763967475072,6.320081500655063e-05,0.000893883480061764,-0.00010026909262490736,-5.917375058802557e-05,-0.001464563571609236,0.4029781222343445,19.717248916625977,0.3990752398967743,-20.229524612426758,-0.8444114327430725,-2.4694857597351074,0.29605430364608765,0
22,0.10500812530517578,-0.4029781222343445,-19.717248916625977,-0.3990752398967743,20.229524612426758,0.8444114327430725,2.4694857597351074,-0.29605430364608765,0.0,0.0,0.0,0.0,0.0,0.0,0.0,-0.40470293239082933,0.009405018520191447,-0.2130968825822051,0.41745300050155165,0.2616100212862374,0.101141425737784,-0.27149055148625306,1.2135605282992645,-0.22015513043027726,-0.007450862073148509,-2.604095557017633,-0.10902084932464072,2.468145403033164,0.8264840787597548,1.2134413937687574,-0.2202432315892585,-0.0075118285948192216,-2.6038483821997875,-0.10888392708698907,2.4681821257803174,0.826474908251239,0.00010720774617051464,-0.000304763967475072,-6.320081500655063e-05,-0.000893883480061764,0.00010026909262490736,5.917375058802557e-05,0.001464563571609236,0.0,0.0,0.0,0.0,0.0,0.0,0.0,-0.00011913453050715894,-8.810115898122417e-05,-6.0966521670712676e-05,0.00024717481784541917,0.00013692223765164602,3.672274715338375e-05,-9.170508515787823e-06,-0.00010720774617051464,0.000304763967475072,6.320081500655063e-05,0.000893883480061764,-0.00010026909262490736,-5.917375058802557e-05,-0.001464563571609236,0.4029781222343445,19.717248916625977,0.3990752398967743,-20.229524612426758,-0.8444114327430725,-2.4694857597351074,0.29605430364608765,0
23,0.1100311279296875,-0.3752071261405945,-19.745019912719727,-0.4228789508342743,20.154146194458008,0.8380027413368225,2.4758944511413574,-0.24844686686992645,0.0,0.0,0.0,0.0,0.0,0.0,0.0,-0.4053589491068109,0.007872703992681841,-0.21478530385180164,0.41852622905802567,0.2616214615532362,0.10138198618715213,-0.2706704406190809,1.2135586584937796,-0.2201531815884406,-0.007448560255986839,-2.604090956064987,-0.10902013780673028,2.468144703966437,0.8264785404868102,1.2134413937687574,-0.2202432315892585,-0.0075118285948192216,-2.6038483821997875,-0.10888392708698907,2.4681821257803174,0.826474908251239,-0.0008529949763197126,0.000214372469870246,5.777094038803483e-05,0.0008678923989389606,0.00034400584842748293,-1.2038224205473305e-05,-0.000470098028361916,0.0,0.0,0.0,0.0,0.0,0.0,0.0,-0.00011726472502227026,-9.005000081788173e-05,-6.32683388323823e-05,0.0002425738651994358,0.0001362107197412088,3.742181388055599e-05,-3.632235571204845e-06,0.0008529949763197126,-0.000214372469870246,-5.777094038803483e-05,-0.0008678923989389606,-0.00034400584842748293,1.2038224205473305e-05,0.000470098028361916,0.3752071261405945,19.745019912719727,0.4228789508342743,-20.154146194458008,-0.8380027413368225,-2.4758944511413574,0.24844686686992645,0
24,0.11502695083618164,-0.3752071261405945,-19.745019912719727,-0.4228789508342743,20.154146194458008,0.8380027413368225,2.4758944511413574,-0.24844686686992645,0.0,0.0,0.0,0.0,0.0,0.0,0.0,-0.4053589491068109,0.007872703992681841,-0.21478530385180164,0.41852622905802567,0.2616214615532362,0.10138198618715213,-0.2706704406190809,1.2135586584937796,-0.2201531815884406,-0.007448560255986839,-2.604090956064987,-0.10902013780673028,2.468144703966437,0.8264785404868102,1.2134413937687574,-0.2202432315892585,-0.0075118285948192216,-2.6038483821997875,-0.10888392708698907,2.4681821257803174,0.826474908251239,-0.0008529949763197126,0.000214372469870246,5.777094038803483e-05,0.0008678923989389606,0.00034400584842748293,-1.2038224205473305e-05,-0.000470098028361916,0.0,0.0,0.0,0.0,0.0,0.0,0.0,-0.00011726472502227026,-9.005000081788173e-05,-6.32683388323823e-05,0.0002425738651994358,0.0001362107197412088,3.742181388055599e-05,-3.632235571204845e-06,0.0008529949763197126,-0.000214372469870246,-5.777094038803483e-05,-0.0008678923989389606,-0.00034400584842748293,1.2038224205473305e-05,0.000470098028361916,0.3752071261405945,19.745019912719727,0.4228789508342743,-20.154146194458008,-0.8380027413368225,-2.4758944511413574,0.24844686686992645,0
25,0.12001824378967285,-0.4029781222343445,-19.745019912719727,-0.4466826617717743,20.205720901489258,0.8380027413368225,2.4823031425476074,-0.24844686686992645,0.0,0.0,0.0,0.0,0.0,0.0,0.0,-0.4027914270221479,0.0073459034256898766,-0.21245929575296366,0.4194975159193717,0.26054143823981424,0.10230296200531966,-0.26998714864025647,1.2135605811721524,-0.2201531815884406,-0.007447050918885791,-2.604094547002332,-0.10901907320155037,2.46814397886157,0.8264789062417172,1.2134413937687574,-0.2202432315892585,-0.0075118285948192216,-2.6038483821997875,-0.10888392708698907,2.4681821257803174,0.826474908251239,0.00018430619423527806,0.00020567809256357737,0.00027403371397762097,-0.0002682260948248264,0.00028666092622891295,-0.00016300915620422762,-0.0011626594124523532,0.0,0.0,0.0,0.0,0.0,0.0,0.0,-0.00011918740339500467,-9.005000081788173e-05,-6.477767593343099e-05,0.00024616480254424644,0.00013514611456129366,3.814691874737264e-05,-3.997990478121771e-06,-0.00018430619423527806,-0.00020567809256357737,-0.00027403371397762097,0.0002682260948248264,-0.00028666092622891295,0.00016300915620422762,0.0011626594124523532,0.4029781222343445,19.745019912719727,0.4466826617717743,-20.205720901489258,-0.8380027413368225,-2.4823031425476074,0.24844686686992645,0
26,0.12494421005249023,-0.4029781222343445,-19.745019912719727,-0.4466826617717743,20.205720901489258,0.8380027413368225,2.4823031425476074,-0.24844686686992645,0.0,0.0,0.0,0.0,0.0,0.0,0.0,-0.4027914270221479,0.0073459034256898766,-0.21245929575296366,0.4194975159193717,0.26054143823981424,0.10230296200531966,-0.26998714864025647,1.2135605811721524,-0.2201531815884406,-0.007447050918885791,-2.604094547002332,-0.10901907320155037,2.46814397886157,0.8264789062417172,1.2134413937687574,-0.2202432315892585,-0.0075118285948192216,-2.6038483821997875,-0.10888392708698907,2.4681821257803174,0.826474908251239,0.00018430619423527806,0.00020567809256357737,0.00027403371397762097,-0.0002682260948248264,0.00028666092622891295,-0.00016300915620422762,-0.0011626594124523532,0.0,0.0,0.0,0.0,0.0,0.0,0.0,-0.00011918740339500467,-9.005000081788173e-05,-6.477767593343099e-05,0.00024616480254424644,0.00013514611456129366,3.814691874737264e-05,-3.997990478121771e-06,-0.00018430619423527806,-0.00020567809256357737,-0.00027403371397762097,0.0002682260948248264,-0.00028666092622891295,0.00016300915620422762,0.0011626594124523532,0.4029781222343445,19.745019912719727,0.4466826617717743,-20.205720901489258,-0.8380027413368225,-2.4823031425476074,0.24844686686992645,0
27,0.12999558448791504,-0.4505855441093445,-19.745019912719727,-0.4466826617717743,20.181917190551758,0.8499045968055725,2.4694857597351074,-0.22830526530742645,0.0,0.0,0.0,0.0,0.0,0.0,0.0,-0.40251667896964094,0.015275306984254087,-0.21479342238209323,0.4160542478200385,0.2601908265421541,0.1021132422056205,-0.2718414291427383,1.213563630752246,-0.2201531815884406,-0.007446822598301197,-2.604090838616194,-0.1090213418855568,2.468145403122813,0.8264766673728544,1.2134413937687574,-0.2202432315892585,-0.0075118285948192216,-2.6038483821997875,-0.10888392708698907,2.4681821257803174,0.826474908251239,0.0011808523240442765,0.0010637095764143719,0.0005788016609412839,0.0005093255782175779,-0.00013261359981140816,0.0002291232715444894,-0.002261855860431699,0.0,0.0,0.0,0.0,0.0,0.0,0.0,-0.00012223698348856615,-9.005000081788173e-05,-6.500599651802427e-05,0.00024245641640652238,0.0001374147985677282,3.672265750420678e-05,-1.7591216153745037e-06,-0.0011808523240442765,-0.0010637095764143719,-0.0005788016609412839,-0.0005093255782175779,0.00013261359981140816,-0.0002291232715444894,0.002261855860431699,0.4505855441093445,19.745019912719727,0.4466826617717743,-20.181917190551758,-0.8499045968055725,-2.4694857597351074,0.22830526530742645,0
28,0.13501739501953125,-0.4505855441093445,-19.745019912719727,-0.4466826617717743,20.181917190551758,0.8499045968055725,2.4694857597351074,-0.22830526530742645,0.0,0.0,0.0,0.0,0.0,0.0,0.0,-0.40251667896964094,0.015275306984254087,-0.21479342238209323,0.4160542478200385,0.2601908265421541,0.1021132422056205,-0.2718414291427383,1.213563630752246,-0.2201531815884406,-0.007446822598301197,-2.604090838616194,-0.1090213418855568,2.468145403122813,0.8264766673728544,1.2134413937687574,-0.2202432315892585,-0.0075118285948192216,-2.6038483821997875,-0.10888392708698907,2.4681821257803174,0.826474908251239,0.0011808523240442765,0.0010637095764143719,0.0005788016609412839,0.0005093255782175779,-0.00013261359981140816,0.0002291232715444894,-0.002261855860431699,0.0,0.0,0.0,0.0,0.0,0.0,0.0,-0.00012223698348856615,-9.005000081788173e-05,-6.500599651802427e-05,0.00024245641640652238,0.0001374147985677282,3.672265750420678e-05,-1.7591216153745037e-06,-0.0011808523240442765,-0.0010637095764143719,-0.0005788016609412839,-0.0005093255782175779,0.00013261359981140816,-0.0002291232715444894,0.002261855860431699,0.4505855441093445,19.745019912719727,0.4466826617717743,-20.181917190551758,-0.8499045968055725,-2.4694857597351074,0.22830526530742645,0
29,0.1400458812713623,-0.4267818331718445,-19.745019912719727,-0.4228789508342743,20.154146194458008,0.8499045968055725,2.4694857597351074,-0.23471395671367645,0.0,0.0,0.0,0.0,0.0,0.0,0.0,-0.4033127281246403,0.010318499032914232,-0.21591762287149183,0.4196565947463781,0.26022191793370064,0.10267865818459318,-0.27319537656237697,1.2135622782061852,-0.2201531815884406,-0.007448718070977268,-2.604090956057211,-0.10902146023445076,2.468145522152428,0.8264773794496721,1.2134413937687574,-0.2202432315892585,-0.0075118285948192216,-2.6038483821997875,-0.10888392708698907,2.4681821257803174,0.826474908251239,0.00030739517399078344,0.00034322517417203585,0.00033897387180912425,0.0009173356165460789,-2.190897993066968e-05,0.00012197754986100402,-0.0017214032312960848,0.0,0.0,0.0,0.0,0.0,0.0,0.0,-0.00012088443742785948,-9.005000081788173e-05,-6.311052384195322e-05,0.00024257385742343374,0.00013753314746169087,3.66036278891535e-05,-2.471198433107169e-06,-0.00030739517399078344,-0.00034322517417203585,-0.00033897387180912425,-0.0009173356165460789,2.190897993066968e-05,-0.00012197754986100402,0.0017214032312960848,0.4267818331718445,19.745019912719727,0.4228789508342743,-20.154146194458008,-0.8499045968055725,-2.4694857597351074,0.23471395671367645,0
30,0.14501237869262695,-0.4267818331718445,-19.745019912719727,-0.4228789508342743,20.154146194458008,0.8499045968055725,2.4694857597351074,-0.23471395671367645,0.0,0.0,0.0,0.0,0.0,0.0,0.0,-0.4033127281246403,0.010318499032914232,-0.21591762287149183,0.4196565947463781,0.26022191793370064,0.10267865818459318,-0.27319537656237697,1.2135622782061852,-0.2201531815884406,-0.007448718070977268,-2.604090956057211,-0.10902146023445076,2.468145522152428,0.8264773794496721,1.2134413937687574,-0.2202432315892585,-0.0075118285948192216,-2.6038483821997875,-0.10888392708698907,2.4681821257803174,0.826474908251239,0.00030739517399078344,0.00034322517417203585,0.00033897387180912425,0.0009173356165460789,-2.190897993066968e-05,0.00012197754986100402,-0.0017214032312960848,0.0,0.0,0.0,0.0,0.0,0.0,0.0,-0.00012088443742785948,-9.005000081788173e-05,-6.311052384195322e-05,0.00024257385742343374,0.00013753314746169087,3.66036278891535e-05,-2.471198433107169e-06,-0.00030739517399078344,-0.00034322517417203585,-0.00033897387180912425,-0.0009173356165460789,2.190897993066968e-05,-0.00012197754986100402,0.0017214032312960848,0.4267818331718445,19.745019912719727,0.4228789508342743,-20.154146194458008,-0.8499045968055725,-2.4694857597351074,0.23471395671367645,0
31,0.14999794960021973,-0.4505855441093445,-19.717248916625977,-0.3990752398967743,20.205720901489258,0.8499045968055725,2.4694857597351074,-0.28964561223983765,0.0,0.0,0.0,0.0,0.0,0.0,0.0,-0.410625212668017,0.013687891858223104,-0.22029020885855322,0.41706078886559084,0.2608782223663274,0.10217890867496754,-0.2743142218721133,1.2135639486438348,-0.22015513043027174,-0.0074501527530018334,-2.604094575241583,-0.10902146023511886,2.4681454029615315,0.8264834451208167,1.2134413937687574,-0.2202432315892585,-0.0075118285948192216,-2.6038483821997875,-0.10888392708698907,2.4681821257803174,0.826474908251239,0.0007878755365924076,-7.24147326048903e-05,-0.0005929615487711293,-0.0004471197938066403,-0.0002689015167057275,3.960422482705325e-05,0.0003818215078822333,0.0,0.0,0.0,0.0,0.0,0.0,0.0,-0.00012255487507739637,-8.810115898674753e-05,-6.167584181738812e-05,0.0002461930417956282,0.00013753314812978146,3.672281878586148e-05,-8.536869577691064e-06,-0.0007878755365924076,7.24147326048903e-05,0.0005929615487711293,0.0004471197938066403,0.0002689015167057275,-3.960422482705325e-05,-0.0003818215078822333,0.4505855441093445,19.717248916625977,0.3990752398967743,-20.205720901489258,-0.8499045968055725,-2.4694857597351074,0.28964561223983765,0
32,0.15500092506408691,-0.4505855441093445,-19.717248916625977,-0.3990752398967743,20.205720901489258,0.8499045968055725,2.4694857597351074,-0.28964561223983765,0.0,0.0,0.0,0.0,0.0,0.0,0.0,-0.410625212668017,0.013687891858223104,-0.22029020885855322,0.41706078886559084,0.2608782223663274,0.10217890867496754,-0.2743142218721133,1.2135639486438348,-0.22015513043027174,-0.0074501527530018334,-2.604094575241583,-0.10902146023511886,2.4681454029615315,0.8264834451208167,1.2134413937687574,-0.2202432315892585,-0.0075118285948192216,-2.6038483821997875,-0.10888392708698907,2.4681821257803174,0.826474908251239,0.0007878755365924076,-7.24147326048903e-05,-0.0005929615487711293,-0.0004471197938066403,-0.0002689015167057275,3.960422482705325e-05,0.0003818215078822333,0.0,0.0,0.0,0.0,0.0,0.0,0.0,-0.00012255487507739637,-8.810115898674753e-05,-6.167584181738812e-05,0.0002461930417956282,0.00013753314812978146,3.672281878586148e-05,-8.536869577691064e-06,-0.0007878755365924076,7.24147326048903e-05,0.0005929615487711293,0.0004471197938066403,0.0002689015167057275,-3.960422482705325e-05,-0.0003818215078822333,0.4505855441093445,19.717248916625977,0.3990752398967743,-20.205720901489258,-0.8499045968055725,-2.4694857597351074,0.28964561223983765,0
33,0.15996217727661133,-0.4029781222343445,-19.745019912719727,-0.3990752398967743,20.181917190551758,0.8444114327430725,2.4694857597351074,-0.27591270208358765,0.0,0.0,0.0,0.0,0.0,0.0,0.0,-0.40749192945057017,0.00730179449464109,-0.21555990290701704,0.42016540431752736,0.2606876997880973,0.10199997832595457,-0.2745326446008681,1.2135605986147577,-0.2201531815884406,-0.007450178081526615,-2.604090523680467,-0.10902084988355636,2.4681455221524273,0.8264787794654898,1.2134413937687574,-0.2202432315892585,-0.0075118285948192216,-2.6038483821997875,-0.10888392708698907,2.4681821257803174,0.826474908251239,-0.00022162254529594746,-1.0710041450520436e-05,-9.174103327158927e-05,0.00037261127951188495,4.1978414766615696e-05,0.00020553463961573332,-2.4989154493018533e-06,0.0,0.0,0.0,0.0,0.0,0.0,0.0,-0.00011920484600036474,-9.005000081788173e-05,-6.165051329260623e-05,0.00024214148067924768,0.000136922796567282,3.660362789004168e-05,-3.871214250716903e-06,0.00022162254529594746,1.0710041450520436e-05,9.174103327158927e-05,-0.00037261127951188495,-4.1978414766615696e-05,-0.00020553463961573332,2.4989154493018533e-06,0.4029781222343445,19.745019912719727,0.3990752398967743,-20.181917190551758,-0.8444114327430725,-2.4694857597351074,0.27591270208358765,0
34,0.165008544921875,-0.4029781222343445,-19.745019912719727,-0.3990752398967743,20.181917190551758,0.8444114327430725,2.4694857597351074,-0.27591270208358765,0.0,0.0,0.0,0.0,0.0,0.0,0.0,-0.40749192945057017,0.00730179449464109,-0.21555990290701704,0.42016540431752736,0.2606876997880973,0.10199997832595457,-0.2745326446008681,1.2135605986147577,-0.2201531815884406,-0.007450178081526615,-2.604090523680467,-0.10902084988355636,2.4681455221524273,0.8264787794654898,1.2134413937687574,-0.2202432315892585,-0.0075118285948192216,-2.6038483821997875,-0.10888392708698907,2.4681821257803174,0.826474908251239,-0.00022162254529594746,-1.0710041450520436e-05,-9.174103327158927e-05,0.00037261127951188495,4.1978414766615696e-05,0.00020553463961573332,-2.4989154493018533e-06,0.0,0.0,0.0,0.0,0.0,0.0,0.0,-0.00011920484600036474,-9.005000081788173e-05,-6.165051329260623e-05,0.00024214148067924768,0.000136922796567282,3.660362789004168e-05,-3.871214250716903e-06,0.00022162254529594746,1.0710041450520436e-05,9.174103327158927e-05,-0.00037261127951188495,-4.1978414766615696e-05,-0.00020553463961573332,2.4989154493018533e-06,0.4029781222343445,19.745019912719727,0.3990752398967743,-20.181917190551758,-0.8444114327430725,-2.4694857597351074,0.27591270208358765,0
35,0.17000269889831543,-0.3752071261405945,-19.768823623657227,-0.4228789508342743,20.205720901489258,0.8444114327430725,2.4823031425476074,-0.27591270208358765,0.0,0.0,0.0,0.0,0.0,0.0,0.0,-0.4076277544575471,0.01130921127019589,-0.21411130651777735,0.41946061021565645,0.2609890430597552,0.10173561174270644,-0.2745587803924348,1.2135586589301381,-0.22015151115258536,-0.007449191528158906,-2.6040945753062354,-0.10902080996694684,2.468143991891632,0.8264786618358093,1.2134413937687574,-0.2202432315892585,-0.0075118285948192216,-2.6038483821997875,-0.10888392708698907,2.4681821257803174,0.826474908251239,-0.0008724139065598978,0.0012168391040120383,0.0005143717378122344,-0.00010726004145604029,0.0001840019213095652,-0.00028274247588817744,0.0005485177291651,0.0,0.0,0.0,0.0,0.0,0.0,0.0,-0.00011726516138077514,-9.172043667313168e-05,-6.263706666031522e-05,0.0002461931064479117,0.00013688287995776427,3.813388868545431e-05,-3.7535845702763027e-06,0.0008724139065598978,-0.0012168391040120383,-0.0005143717378122344,0.00010726004145604029,-0.0001840019213095652,0.00028274247588817744,-0.0005485177291651,0.3752071261405945,19.768823623657227,0.4228789508342743,-20.205720901489258,-0.8444114327430725,-2.4823031425476074,0.27591270208358765,0
36,0.17499279975891113,-0.3752071261405945,-19.768823623657227,-0.4228789508342743,20.205720901489258,0.8444114327430725,2.4823031425476074,-0.27591270208358765,0.0,0.0,0.0,0.0,0.0,0.0,0.0,-0.4076277544575471,0.01130921127019589,-0.21411130651777735,0.41946061021565645,0.2609890430597552,0.10173561174270644,-0.2745587803924348,1.2135586589301381,-0.22015151115258536,-0.007449191528158906,-2.6040945753062354,-0.10902080996694684,2.468143991891632,0.8264786618358093,1.2134413937687574,-0.2202432315892585,-0.0075118285948192216,-2.6038483821997875,-0.10888392708698907,2.4681821257803174,0.826474908251239,-0.0008724139065598978,0.0012168391040120383,0.0005143717378122344,-0.00010726004145604029,0.0001840019213095652,-0.00028274247588817744,0.0005485177291651,0.0,0.0,0.0,0.0,0.0,0.0,0.0,-0.00011726516138077514,-9.172043667313168e-05,-6.263706666031522e-05,0.0002461931064479117,0.00013688287995776427,3.813388868545431e-05,-3.7535845702763027e-06,0.0008724139065598978,-0.0012168391040120383,-0.0005143717378122344,0.00010726004145604029,-0.0001840019213095652,0.00028274247588817744,-0.0005485177291651,0.3752071261405945,19.768823623657227,0.4228789508342743,-20.205720901489258,-0.8444114327430725,-2.4823031425476074,0.27591270208358765,0
37,0.17999815940856934,-0.3752071261405945,-19.745019912719727,-0.4228789508342743,20.229524612426758,0.8380027413368225,2.4694857597351074,-0.24112264811992645,0.0,0.0,0.0,0.0,0.0,0.0,0.0,-0.40725647964862915,0.00831153110227039,-0.21316381418606323,0.4199706079600202,0.26165924109733685,0.10165016123693556,-0.27287330893197254,1.2135586589302931,-0.2201531815884406,-0.0074491915290498,-2.6040961692529967,-0.10902013342556703,2.468145402979277,0.8264780929738502,1.2134413937687574,-0.2202432315892585,-0.0075118285948192216,-2.6038483821997875,-0.10888392708698907,2.4681821257803174,0.826474908251239,-0.0004579221924142138,0.0002210885964450535,0.00018236102227602816,-0.0008869632065376841,0.00036255268931869244,0.0002458627548064514,-0.0012985840222357991,0.0,0.0,0.0,0.0,0.0,0.0,0.0,-0.00011726516153576227,-9.005000081788173e-05,-6.263706576942196e-05,0.0002477870532091586,0.00013620633857795716,3.672280104050074e-05,-3.184722611182522e-06,0.0004579221924142138,-0.0002210885964450535,-0.00018236102227602816,0.0008869632065376841,-0.00036255268931869244,-0.0002458627548064514,0.0012985840222357991,0.3752071261405945,19.745019912719727,0.4228789508342743,-20.229524612426758,-0.8380027413368225,-2.4694857597351074,0.24112264811992645,0
38,0.1849956512451172,-0.3752071261405945,-19.745019912719727,-0.4228789508342743,20.229524612426758,0.8380027413368225,2.4694857597351074,-0.24112264811992645,0.0,0.0,0.0,0.0,0.0,0.0,0.0,-0.40725647964862915,0.00831153110227039,-0.21316381418606323,0.4199706079600202,0.26165924109733685,0.10165016123693556,-0.27287330893197254,1.2135586589302931,-0.2201531815884406,-0.0074491915290498,-2.6040961692529967,-0.10902013342556703,2.468145402979277,0.8264780929738502,1.2134413937687574,-0.2202432315892585,-0.0075118285948192216,-2.6038483821997875,-0.10888392708698907,2.4681821257803174,0.826474908251239,-0.0004579221924142138,0.0002210885964450535,0.00018236102227602816,-0.0008869632065376841,0.00036255268931869244,0.0002458627548064514,-0.0012985840222357991,0.0,0.0,0.0,0.0,0.0,0.0,0.0,-0.00011726516153576227,-9.005000081788173e-05,-6.263706576942196e-05,0.0002477870532091586,0.00013620633857795716,3.672280104050074e-05,-3.184722611182522e-06,0.0004579221924142138,-0.0002210885964450535,-0.00018236102227602816,0.0008869632065376841,-0.00036255268931869244,-0.0002458627548064514,0.0012985840222357991,0.3752071261405945,19.745019912719727,0.4228789508342743,-20.229524612426758,-0.8380027413368225,-2.4694857597351074,0.24112264811992645,0
39,0.18999886512756348,-0.3752071261405945,-19.745019912719727,-0.4228789508342743,20.229524612426758,0.8380027413368225,2.4694857597351074,-0.24112264811992645,0.0,0.0,0.0,0.0,0.0,0.0,0.0,-0.40725647964862915,0.00831153110227039,-0.21316381418606323,0.4199706079600202,0.26165924109733685,0.10165016123693556,-0.27287330893197254,1.2135586589302931,-0.2201531815884406,-0.0074491915290498,-2.6040961692529967,-0.10902013342556703,2.468145402979277,0.8264780929738502,1.2134413937687574,-0.2202432315892585,-0.0075118285948192216,-2.6038483821997875,-0.10888392708698907,2.4681821257803174,0.826474908251239,-0.0004579221924142138,0.0002210885964450535,0.00018236102227602816,-0.0008869632065376841,0.00036255268931869244,0.0002458627548064514,-0.0012985840222357991,0.0,0.0,0.0,0.0,0.0,0.0,0.0,-0.00011726516153576227,-9.005000081788173e-05,-6.263706576942196e-05,0.0002477870532091586,0.00013620633857795716,3.672280104050074e-05,-3.184722611182522e-06,0.0004579221924142138,-0.0002210885964450535,-0.00018236102227602816,0.0008869632065376841,-0.00036255268931869244,-0.0002458627548064514,0.0012985840222357991,0.3752071261405945,19.745019912719727,0.4228789508342743,-20.229524612426758,-0.8380027413368225,-2.4694857597351074,0.24112264811992645,0
40,0.19499826431274414,-0.3752071261405945,-19.745019912719727,-0.4228789508342743,20.229524612426758,0.8380027413368225,2.4694857597351074,-0.24112264811992645,0.0,0.0,0.0,0.0,0.0,0.0,0.0,-0.40725647964862915,0.00831153110227039,-0.21316381418606323,0.4199706079600202,0.26165924109733685,0.10165016123693556,-0.27287330893197254,1.2135586589302931,-0.2201531815884406,-0.0074491915290498,-2.6040961692529967,-0.10902013342556703,2.468145402979277,0.8264780929738502,1.2134413937687574,-0.2202432315892585,-0.0075118285948192216,-2.6038483821997875,-0.10888392708698907,2.4681821257803174,0.826474908251239,-0.0004579221924142138,0.0002210885964450535,0.00018236102227602816,-0.0008869632065376841,0.00036255268931869244,0.0002458627548064514,-0.0012985840222357991,0.0,0.0,0.0,0.0,0.0,0.0,0.0,-0.00011726516153576227,-9.005000081788173e-05,-6.263706576942196e-05,0.0002477870532091586,0.00013620633857795716,3.672280104050074e-05,-3.184722611182522e-06,0.0004579221924142138,-0.0002210885964450535,-0.00018236102227602816,0.0008869632065376841,-0.00036255268931869244,-0.0002458627548064514,0.0012985840222357991,0.3752071261405945,19.745019912719727,0.4228789508342743,-20.229524612426758,-0.8380027413368225,-2.4694857597351074,0.24112264811992645,0
41,0.19999933242797852,-0.4029781222343445,-19.693445205688477,-0.4228789508342743,20.205720901489258,0.8380027413368225,2.4694857597351074,-0.28232139348983765,0.0,0.0,0.0,0.0,0.0,0.0,0.0,-0.405604444335015,0.011226398469006,-0.21534988421323692,0.41975984864964044,0.2610270076438287,0.10136763953051714,-0.27159029499160503,1.2135606077721242,-0.22015680086612702,-0.0074506133427022295,-2.6040944988169974,-0.10902013780672519,2.4681454029613072,0.8264825513734727,1.2134413937687574,-0.2202432315892585,-0.0075118285948192216,-2.6038483821997875,-0.10888392708698907,2.4681821257803174,0.826474908251239,4.1449585904571424e-05,-0.0008153303948410408,0.00033233941259448214,-0.00045283072859098766,0.0003528168750477895,0.00021047153787500975,0.0002705788682564326,0.0,0.0,0.0,0.0,0.0,0.0,0.0,-0.00011921400336678545,-8.643072313146982e-05,-6.12152521169921e-05,0.0002461166172098572,0.00013621071973611565,3.672281901012653e-05,-7.643122233669253e-06,-4.1449585904571424e-05,0.0008153303948410408,-0.00033233941259448214,0.00045283072859098766,-0.0003528168750477895,-0.00021047153787500975,-0.0002705788682564326,0.4029781222343445,19.693445205688477,0.4228789508342743,-20.205720901489258,-0.8380027413368225,-2.4694857597351074,0.28232139348983765,0
42,0.20494699478149414,-0.4029781222343445,-19.693445205688477,-0.4228789508342743,20.205720901489258,0.8380027413368225,2.4694857597351074,-0.28232139348983765,0.0,0.0,0.0,0.0,0.0,0.0,0.0,-0.405604444335015,0.011226398469006,-0.21534988421323692,0.41975984864964044,0.2610270076438287,0.10136763953051714,-0.27159029499160503,1.2135606077721242,-0.22015680086612702,-0.0074506133427022295,-2.6040944988169974,-0.10902013780672519,2.4681454029613072,0.8264825513734727,1.2134413937687574,-0.2202432315892585,-0.0075118285948192216,-2.6038483821997875,-0.10888392708698907,2.4681821257803174,0.826474908251239,4.1449585904571424e-05,-0.0008153303948410408,0.00033233941259448214,-0.00045283072859098766,0.0003528168750477895,0.00021047153787500975,0.0002705788682564326,0.0,0.0,0.0,0.0,0.0,0.0,0.0,-0.00011921400336678545,-8.643072313146982e-05,-6.12152521169921e-05,0.0002461166172098572,0.00013621071973611565,3.672281901012653e-05,-7.643122233669253e-06,-4.1449585904571424e-05,0.0008153303948410408,-0.00033233941259448214,0.00045283072859098766,-0.0003528168750477895,-0.00021047153787500975,-0.0002705788682564326,0.4029781222343445,19.693445205688477,0.4228789508342743,-20.205720901489258,-0.8380027413368225,-2.4694857597351074,0.28232139348983765,0
43,0.20995616912841797,-0.4029781222343445,-19.745019912719727,-0.3990752398967743,20.181917190551758,0.8499045968055725,2.4758944511413574,-0.27591270208358765,0.0,0.0,0.0,0.0,0.0,0.0,0.0,-0.4032125257781435,0.011423004715320229,-0.21056651253008044,0.4221203799385945,0.26097624837084854,0.10205827551809385,-0.27206985293648217,1.2135584620049122,-0.22015319037787726,-0.007450151790400639,-2.6040929045953383,-0.10901826641956965,2.46814469104599,0.8264805049368508,1.2134413937687574,-0.2202432315892585,-0.0075118285948192216,-2.6038483821997875,-0.10888392708698907,2.4681821257803174,0.826474908251239,0.0005492382222051294,0.0006416966382451535,5.813344597239099e-05,0.0002869710971720683,-0.0002513726630214246,-0.00016893033090141182,-7.882932634604973e-05,0.0,0.0,0.0,0.0,0.0,0.0,0.0,-0.00011706823615487139,-9.0041211381231e-05,-6.167680441858218e-05,0.0002445223955507281,0.0001343393325805714,3.743473432749056e-05,-5.596685611730656e-06,-0.0005492382222051294,-0.0006416966382451535,-5.813344597239099e-05,-0.0002869710971720683,0.0002513726630214246,0.00016893033090141182,7.882932634604973e-05,0.4029781222343445,19.745019912719727,0.3990752398967743,-20.181917190551758,-0.8499045968055725,-2.4758944511413574,0.27591270208358765,0
44,0.21495270729064941,-0.4029781222343445,-19.745019912719727,-0.3990752398967743,20.181917190551758,0.8499045968055725,2.4758944511413574,-0.27591270208358765,0.0,0.0,0.0,0.0,0.0,0.0,0.0,-0.4032125257781435,0.011423004715320229,-0.21056651253008044,0.4221203799385945,0.26097624837084854,0.10205827551809385,-0.27206985293648217,1.2135584620049122,-0.22015319037787726,-0.007450151790400639,-2.6040929045953383,-0.10901826641956965,2.46814469104599,0.8264805049368508,1.2134413937687574,-0.2202432315892585,-0.0075118285948192216,-2.6038483821997875,-0.10888392708698907,2.4681821257803174,0.826474908251239,0.0005492382222051294,0.0006416966382451535,5.813344597239099e-05,0.0002869710971720683,-0.0002513726630214246,-0.00016893033090141182,-7.882932634604973e-05,0.0,0.0,0.0,0.0,0.0,0.0,0.0,-0.00011706823615487139,-9.0041211381231e-05,-6.167680441858218e-05,0.0002445223955507281,0.0001343393325805714,3.743473432749056e-05,-5.596685611730656e-06,-0.0005492382222051294,-0.0006416966382451535,-5.813344597239099e-05,-0.0002869710971720683,0.0002513726630214246,0.00016893033090141182,7.882932634604973e-05,0.4029781222343445,19.745019912719727,0.3990752398967743,-20.181917190551758,-0.8499045968055725,-2.4758944511413574,0.27591270208358765,0
45,0.2200019359588623,-0.3752071261405945,-19.768823623657227,-0.3990752398967743,20.205720901489258,0.8499045968055725,2.4758944511413574,-0.24112264811992645,0.0,0.0,0.0,0.0,0.0,0.0,0.0,-0.40464725667652784,0.012977363194351287,-0.21075225765427813,0.4237396415540654,0.2610584120205277,0.10190199103136742,-0.2729180730385041,1.2135565131509685,-0.22015151115263498,-0.007450151778365504,-2.6040938865817758,-0.10902146021708968,2.4681446908844853,0.8264780886111972,1.2134413937687574,-0.2202432315892585,-0.0075118285948192216,-2.6038483821997875,-0.10888392708698907,2.4681821257803174,0.826474908251239,-0.0001700854578220409,0.001461112232373278,-0.0004630314139399162,-0.0002009570307459759,-8.333848873900843e-05,-5.6456044751608394e-05,-0.001336428850873664,0.0,0.0,0.0,0.0,0.0,0.0,0.0,-0.00011511938221109297,-9.172043662350471e-05,-6.167681645371723e-05,0.00024550438198822633,0.00013753313010060608,3.743489583207804e-05,-3.1803599581659014e-06,0.0001700854578220409,-0.001461112232373278,0.0004630314139399162,0.0002009570307459759,8.333848873900843e-05,5.6456044751608394e-05,0.001336428850873664,0.3752071261405945,19.768823623657227,0.3990752398967743,-20.205720901489258,-0.8499045968055725,-2.4758944511413574,0.24112264811992645,0
46,0.2250068187713623,-0.3752071261405945,-19.768823623657227,-0.3990752398967743,20.205720901489258,0.8499045968055725,2.4758944511413574,-0.24112264811992645,0.0,0.0,0.0,0.0,0.0,0.0,0.0,-0.40464725667652784,0.012977363194351287,-0.21075225765427813,0.4237396415540654,0.2610584120205277,0.10190199103136742,-0.2729180730385041,1.2135565131509685,-0.22015151115263498,-0.007450151778365504,-2.6040938865817758,-0.10902146021708968,2.4681446908844853,0.8264780886111972,1.2134413937687574,-0.2202432315892585,-0.0075118285948192216,-2.6038483821997875,-0.10888392708698907,2.4681821257803174,0.826474908251239,-0.0001700854578220409,0.001461112232373278,-0.0004630314139399162,-0.0002009570307459759,-8.333848873900843e-05,-5.6456044751608394e-05,-0.001336428850873664,0.0,0.0,0.0,0.0,0.0,0.0,0.0,-0.00011511938221109297,-9.172043662350471e-05,-6.167681645371723e-05,0.00024550438198822633,0.00013753313010060608,3.743489583207804e-05,-3.1803599581659014e-06,0.0001700854578220409,-0.001461112232373278,0.0004630314139399162,0.0002009570307459759,8.333848873900843e-05,5.6456044751608394e-05,0.001336428850873664,0.3752071261405945,19.768823623657227,0.3990752398967743,-20.205720901489258,-0.8499045968055725,-2.4758944511413574,0.24112264811992645,0
47,0.22999930381774902,-0.4267818331718445,-19.693445205688477,-0.4228789508342743,20.205720901489258,0.8444114327430725,2.4694857597351074,-0.23471395671367645,0.0,0.0,0.0,0.0,0.0,0.0,0.0,-0.4048922879202114,0.01591110726836937,-0.21440586525610766,0.41829212473995436,0.261271236464588,0.10102611075864389,-0.2733392203540087,1.2135622781958666,-0.22015680086612702,-0.007448823283533978,-2.6040945753076805,-0.10902084988355626,2.4681454029613072,0.8264773804186892,1.2134413937687574,-0.2202432315892585,-0.0075118285948192216,-2.6038483821997875,-0.10888392708698907,2.4681821257803174,0.826474908251239,0.00024429862079760353,-0.0008628999794638338,0.00021910106480538762,-0.0008301766319619216,6.80546767630368e-05,0.0001126464199285219,-0.002010032026939822,0.0,0.0,0.0,0.0,0.0,0.0,0.0,-0.00012088442710922465,-8.643072313146982e-05,-6.300531128524377e-05,0.000246193107892978,0.00013692279656718487,3.672281901012653e-05,-2.472167450195961e-06,-0.00024429862079760353,0.0008628999794638338,-0.00021910106480538762,0.0008301766319619216,-6.80546767630368e-05,-0.0001126464199285219,0.002010032026939822,0.4267818331718445,19.693445205688477,0.4228789508342743,-20.205720901489258,-0.8444114327430725,-2.4694857597351074,0.23471395671367645,0
48,0.235001802444458,-0.4267818331718445,-19.693445205688477,-0.4228789508342743,20.205720901489258,0.8444114327430725,2.4694857597351074,-0.23471395671367645,0.0,0.0,0.0,0.0,0.0,0.0,0.0,-0.4048922879202114,0.01591110726836937,-0.21440586525610766,0.41829212473995436,0.261271236464588,0.10102611075864389,-0.2733392203540087,1.2135622781958666,-0.22015680086612702,-0.007448823283533978,-2.6040945753076805,-0.10902084988355626,2.4681454029613072,0.8264773804186892,1.2134413937687574,-0.2202432315892585,-0.0075118285948192216,-2.6038483821997875,-0.10888392708698907,2.4681821257803174,0.826474908251239,0.00024429862079760353,-0.0008628999794638338,0.00021910106480538762,-0.0008301766319619216,6.80546767630368e-05,0.0001126464199285219,-0.002010032026939822,0.0,0.0,0.0,0.0,0.0,0.0,0.0,-0.00012088442710922465,-8.643072313146982e-05,-6.300531128524377e-05,0.000246193107892978,0.00013692279656718487,3.672281901012653e-05,-2.472167450195961e-06,-0.00024429862079760353,0.0008628999794638338,-0.00021910106480538762,0.0008301766319619216,-6.80546767630368e-05,-0.0001126464199285219,0.002010032026939822,0.4267818331718445,19.693445205688477,0.4228789508342743,-20.205720901489258,-0.8444114327430725,-2.4694857597351074,0.23471395671367645,0
49,0.24000096321105957,-0.4029781222343445,-19.717248916625977,-0.3990752398967743,20.181917190551758,0.8499045968055725,2.4758944511413574,-0.28964561223983765,0.0,0.0,0.0,0.0,0.0,0.0,0.0,-0.40356059667139826,0.01008800686252333,-0.21251765530682518,0.422602898510412,0.26132910915629043,0.10274577442192868,-0.2741559997377193,1.2135606077721242,-0.22015513043027174,-0.007453229249509949,-2.6040929048057273,-0.10902146023511886,2.468145044097194,0.8264834844205086,1.2134413937687574,-0.2202432315892585,-0.0075118285948192216,-2.6038483821997875,-0.10888392708698907,2.4681821257803174,0.826474908251239,-0.00019823485427654746,-0.0003026254801155765,-0.00033198413173657517,0.0005730232406477754,-6.31194702887393e-05,-0.00018405384562154438,0.0005202035456621295,0.0,0.0,0.0,0.0,0.0,0.0,0.0,-0.00011921400336678545,-8.810115898674753e-05,-5.859934530927282e-05,0.0002445226059397676,0.00013753314812978146,3.708168312321902e-05,-8.576169269525202e-06,0.00019823485427654746,0.0003026254801155765,0.00033198413173657517,-0.0005730232406477754,6.31194702887393e-05,0.00018405384562154438,-0.0005202035456621295,0.4029781222343445,19.717248916625977,0.3990752398967743,-20.181917190551758,-0.8499045968055725,-2.4758944511413574,0.28964561223983765,0
50,0.24499726295471191,-0.4029781222343445,-19.717248916625977,-0.3990752398967743,20.181917190551758,0.8499045968055725,2.4758944511413574,-0.28964561223983765,0.0,0.0,0.0,0.0,0.0,0.0,0.0,-0.40356059667139826,0.01008800686252333,-0.21251765530682518,0.422602898510412,0.26132910915629043,0.10274577442192868,-0.2741559997377193,1.2135606077721242,-0.22015513043027174,-0.007453229249509949,-2.6040929048057273,-0.10902146023511886,2.468145044097194,0.8264834844205086,1.2134413937687574,-0.2202432315892585,-0.0075118285948192216,-2.6038483821997875,-0.10888392708698907,2.4681821257803174,0.826474908251239,-0.00019823485427654746,-0.0003026254801155765,-0.00033198413173657517,0.0005730232406477754,-6.31194702887393e-05,-0.00018405384562154438,0.0005202035456621295,0.0,0.0,0.0,0.0,0.0,0.0,0.0,-0.00011921400336678545,-8.810115898674753e-05,-5.859934530927282e-05,0.0002445226059397676,0.00013753314812978146,3.708168312321902e-05,-8.576169269525202e-06,0.00019823485427654746,0.0003026254801155765,0.00033198413173657517,-0.0005730232406477754,6.31194702887393e-05,0.00018405384562154438,-0.0005202035456621295,0.4029781222343445,19.717248916625977,0.3990752398967743,-20.181917190551758,-0.8499045968055725,-2.4758944511413574,0.28964561223983765,0
51,0.24999499320983887,-0.4029781222343445,-19.717248916625977,-0.4466826617717743,20.181917190551758,0.8499045968055725,2.4694857597351074,-0.30337852239608765,0.0,0.0,0.0,0.0,0.0,0.0,0.0,-0.4049419880180344,0.01525942702066861,-0.21223061703610355,0.4170683854160789,0.261405852542562,0.10170778801582728,-0.27431542771213313,1.2135606077721242,-0.22015513043027174,-0.007449179182229234,-2.6040929049107056,-0.10902145872066754,2.4681454073239517,0.8264835969640617,1.2134413937687574,-0.2202432315892585,-0.0075118285948192216,-2.6038483821997875,-0.10888392708698907,2.4681821257803174,0.826474908251239,-0.00034076627430482966,-0.0004883701685884175,0.0010393274140829119,0.00019418065650578814,-9.897335618597177e-05,0.00021899152498202056,0.0011857525805745184,0.0,0.0,0.0,0.0,0.0,0.0,0.0,-0.00011921400336678545,-8.810115898674753e-05,-6.264941258998791e-05,0.0002445227109180159,0.0001375316336784671,3.6718456365658625e-05,-8.688712822668698e-06,0.00034076627430482966,0.0004883701685884175,-0.0010393274140829119,-0.00019418065650578814,9.897335618597177e-05,-0.00021899152498202056,-0.0011857525805745184,0.4029781222343445,19.717248916625977,0.4466826617717743,-20.181917190551758,-0.8499045968055725,-2.4694857597351074,0.30337852239608765,0
52,0.25499534606933594,-0.4029781222343445,-19.717248916625977,-0.4466826617717743,20.181917190551758,0.8499045968055725,2.4694857597351074,-0.30337852239608765,0.0,0.0,0.0,0.0,0.0,0.0,0.0,-0.4049419880180344,0.01525942702066861,-0.21223061703610355,0.4170683854160789,0.261405852542562,0.10170778801582728,-0.27431542771213313,1.2135606077721242,-0.22015513043027174,-0.007449179182229234,-2.6040929049107056,-0.10902145872066754,2.4681454073239517,0.8264835969640617,1.2134413937687574,-0.2202432315892585,-0.0075118285948192216,-2.6038483821997875,-0.10888392708698907,2.4681821257803174,0.826474908251239,-0.00034076627430482966,-0.0004883701685884175,0.0010393274140829119,0.00019418065650578814,-9.897335618597177e-05,0.00021899152498202056,0.0011857525805745184,0.0,0.0,0.0,0.0,0.0,0.0,0.0,-0.00011921400336678545,-8.810115898674753e-05,-6.264941258998791e-05,0.0002445227109180159,0.0001375316336784671,3.6718456365658625e-05,-8.688712822668698e-06,0.00034076627430482966,0.0004883701685884175,-0.0010393274140829119,-0.00019418065650578814,9.897335618597177e-05,-0.00021899152498202056,-0.0011857525805745184,0.4029781222343445,19.717248916625977,0.4466826617717743,-20.181917190551758,-0.8499045968055725,-2.4694857597351074,0.30337852239608765,0
53,0.2599952220916748,-0.4029781222343445,-19.745019912719727,-0.3990752398967743,20.229524612426758,0.8444114327430725,2.4694857597351074,-0.29605430364608765,0.0,0.0,0.0,0.0,0.0,0.0,0.0,-0.4038339124023887,0.008509192477437205,-0.20806984760178224,0.4227168544920316,0.2614352860062065,0.1028880321540901,-0.27531509065908455,1.2135606077721242,-0.2201531815884406,-0.007450154714307274,-2.604093490723281,-0.10902084788230858,2.4681454422071885,0.8264841963278504,1.2134413937687574,-0.2202432315892585,-0.0075118285948192216,-2.6038483821997875,-0.10888392708698907,2.4681821257803174,0.826474908251239,6.206707708777842e-06,4.920627086429179e-05,0.0002268940461642083,-0.000630881257992261,-0.00012333031264659506,0.00012111275335853749,0.0010304054310379816,0.0,0.0,0.0,0.0,0.0,0.0,0.0,-0.00011921400336678545,-9.005000081788173e-05,-6.167388051194714e-05,0.00024510852349335366,0.0001369207953195034,3.6683573128915015e-05,-9.288076611380092e-06,-6.206707708777842e-06,-4.920627086429179e-05,-0.0002268940461642083,0.000630881257992261,0.00012333031264659506,-0.00012111275335853749,-0.0010304054310379816,0.4029781222343445,19.745019912719727,0.3990752398967743,-20.229524612426758,-0.8444114327430725,-2.4694857597351074,0.29605430364608765,0
54,0.26502418518066406,-0.4029781222343445,-19.745019912719727,-0.3990752398967743,20.229524612426758,0.8444114327430725,2.4694857597351074,-0.29605430364608765,0.0,0.0,0.0,0.0,0.0,0.0,0.0,-0.4038339124023887,0.008509192477437205,-0.20806984760178224,0.4227168544920316,0.2614352860062065,0.1028880321540901,-0.27531509065908455,1.2135606077721242,-0.2201531815884406,-0.007450154714307274,-2.604093490723281,-0.10902084788230858,2.4681454422071885,0.8264841963278504,1.2134413937687574,-0.2202432315892585,-0.0075118285948192216,-2.6038483821997875,-0.10888392708698907,2.4681821257803174,0.826474908251239,6.206707708777842e-06,4.920627086429179e-05,0.0002268940461642083,-0.000630881257992261,-0.00012333031264659506,0.00012111275335853749,0.0010304054310379816,0.0,0.0,0.0,0.0,0.0,0.0,0.0,-0.00011921400336678545,-9.005000081788173e-05,-6.167388051194714e-05,0.00024510852349335366,0.0001369207953195034,3.6683573128915015e-05,-9.288076611380092e-06,-6.206707708777842e-06,-4.920627086429179e-05,-0.0002268940461642083,0.000630881257992261,0.00012333031264659506,-0.00012111275335853749,-0.0010304054310379816,0.4029781222343445,19.745019912719727,0.3990752398967743,-20.229524612426758,-0.8444114327430725,-2.4694857597351074,0.29605430364608765,0
55,0.2700026035308838,-0.4029781222343445,-19.745019912719727,-0.3990752398967743,20.205720901489258,0.8499045968055725,2.4630770683288574,-0.28232139348983765,0.0,0.0,0.0,0.0,0.0,0.0,0.0,-0.40380700605915504,0.013989376218737705,-0.20775789953626447,0.41754873240430546,0.26079109580923027,0.10191571389728668,-0.2750816155559441,1.213560607663108,-0.2201531815884406,-0.007450861999666444,-2.6040945753310094,-0.10902146023510756,2.468146115199857,0.8264826575364749,1.2134413937687574,-0.2202432315892585,-0.0075118285948192216,-2.6038483821997875,-0.10888392708698907,2.4681821257803174,0.826474908251239,0.0006021602167345076,0.00034575884090824353,-0.00022727825347691464,-0.00016669259154113,-0.00014569036310938218,0.0003627707231795437,0.0002590785284040618,0.0,0.0,0.0,0.0,0.0,0.0,0.0,-0.00011921389435065599,-9.005000081788173e-05,-6.0966595152777726e-05,0.00024619313122187236,0.00013753314811848494,3.601058046021066e-05,-7.74928523583629e-06,-0.0006021602167345076,-0.00034575884090824353,0.00022727825347691464,0.00016669259154113,0.00014569036310938218,-0.0003627707231795437,-0.0002590785284040618,0.4029781222343445,19.745019912719727,0.3990752398967743,-20.205720901489258,-0.8499045968055725,-2.4630770683288574,0.28232139348983765,0
56,0.275036096572876,-0.4029781222343445,-19.745019912719727,-0.3990752398967743,20.205720901489258,0.8499045968055725,2.4630770683288574,-0.28232139348983765,0.0,0.0,0.0,0.0,0.0,0.0,0.0,-0.40380700605915504,0.013989376218737705,-0.20775789953626447,0.41754873240430546,0.26079109580923027,0.10191571389728668,-0.2750816155559441,1.213560607663108,-0.2201531815884406,-0.007450861999666444,-2.6040945753310094,-0.10902146023510756,2.468146115199857,0.8264826575364749,1.2134413937687574,-0.2202432315892585,-0.0075118285948192216,-2.6038483821997875,-0.10888392708698907,2.4681821257803174,0.826474908251239,0.0006021602167345076,0.00034575884090824353,-0.00022727825347691464,-0.00016669259154113,-0.00014569036310938218,0.0003627707231795437,0.0002590785284040618,0.0,0.0,0.0,0.0,0.0,0.0,0.0,-0.00011921389435065599,-9.005000081788173e-05,-6.0966595152777726e-05,0.00024619313122187236,0.00013753314811848494,3.601058046021066e-05,-7.74928523583629e-06,-0.0006021602167345076,-0.00034575884090824353,0.00022727825347691464,0.00016669259154113,0.00014569036310938218,-0.0003627707231795437,-0.0002590785284040618,0.4029781222343445,19.745019912719727,0.3990752398967743,-20.205720901489258,-0.8499045968055725,-2.4630770683288574,0.28232139348983765,0
57,0.2799406051635742,-0.3514034152030945,-19.717248916625977,-0.3713042438030243,20.205720901489258,0.8380027413368225,2.4630770683288574,-0.25485557317733765,0.0,0.0,0.0,0.0,0.0,0.0,0.0,-0.4080457422958759,0.0101191872590144,-0.2131057181289835,0.41710396941398237,0.2611523220272773,0.10221483056730724,-0.27379149749221826,1.2135569884944373,-0.22015513043027174,-0.007452810845490231,-2.6040945753465614,-0.10902013780673343,2.468147179036911,0.8264795665327328,1.2134413937687574,-0.2202432315892585,-0.0075118285948192216,-2.6038483821997875,-0.10888392708698907,2.4681821257803174,0.826474908251239,-0.0016571516824302776,-0.0004938038190261042,-0.0007502722501732633,-0.0004408243418561781,0.00024143540824997454,0.0002053073551640071,-0.000735341685305663,0.0,0.0,0.0,0.0,0.0,0.0,0.0,-0.0001155947256799017,-8.810115898674753e-05,-5.901774932899097e-05,0.0002461931467738765,0.00013621071974435905,3.494674340620563e-05,-4.658281493763461e-06,0.0016571516824302776,0.0004938038190261042,0.0007502722501732633,0.0004408243418561781,-0.00024143540824997454,-0.0002053073551640071,0.000735341685305663,0.3514034152030945,19.717248916625977,0.3713042438030243,-20.205720901489258,-0.8380027413368225,-2.4630770683288574,0.25485557317733765,0
58,0.2850039005279541,-0.3514034152030945,-19.717248916625977,-0.3713042438030243,20.205720901489258,0.8380027413368225,2.4630770683288574,-0.25485557317733765,0.0,0.0,0.0,0.0,0.0,0.0,0.0,-0.4080457422958759,0.0101191872590144,-0.2131057181289835,0.41710396941398237,0.2611523220272773,0.10221483056730724,-0.27379149749221826,1.2135569884944373,-0.22015513043027174,-0.007452810845490231,-2.6040945753465614,-0.10902013780673343,2.468147179036911,0.8264795665327328,1.2134413937687574,-0.2202432315892585,-0.0075118285948192216,-2.6038483821997875,-0.10888392708698907,2.4681821257803174,0.826474908251239,-0.0016571516824302776,-0.0004938038190261042,-0.0007502722501732633,-0.0004408243418561781,0.00024143540824997454,0.0002053073551640071,-0.000735341685305663,0.0,0.0,0.0,0.0,0.0,0.0,0.0,-0.0001155947256799017,-8.810115898674753e-05,-5.901774932899097e-05,0.0002461931467738765,0.00013621071974435905,3.494674340620563e-05,-4.658281493763461e-06,0.0016571516824302776,0.0004938038190261042,0.0007502722501732633,0.0004408243418561781,-0.00024143540824997454,-0.0002053073551640071,0.000735341685305663,0.3514034152030945,19.717248916625977,0.3713042438030243,-20.205720901489258,-0.8380027413368225,-2.4630770683288574,0.25485557317733765,0
59,0.2900094985961914,-0.4029781222343445,-19.693445205688477,-0.4466826617717743,20.229524612426758,0.8499045968055725,2.4694857597351074,-0.25485557317733765,0.0,0.0,0.0,0.0,0.0,0.0,0.0,-0.40856195223087477,0.009129214421945024,-0.21170378684440658,0.41697899365485064,0.26130770564162153,0.10215237254443738,-0.2725929793706839,1.2135606077721242,-0.22015680086612702,-0.007446837538550147,-2.6040962457474244,-0.10902146018103132,2.4681454029673136,0.8264792264017536,1.2134413937687574,-0.2202432315892585,-0.0075118285948192216,-2.6038483821997875,-0.10888392708698907,2.4681821257803174,0.826474908251239,-0.0004931244720523694,-0.0007849790632201763,0.0006732381859636567,-0.0007981967333950893,7.02974148864956e-05,0.00024177048851519296,0.00019531590476148933,0.0,0.0,0.0,0.0,0.0,0.0,0.0,-0.00011921400336678545,-8.643072313146982e-05,-6.499105626907482e-05,0.0002478635476368396,0.00013753309404224145,3.6722813003819965e-05,-4.318150514603936e-06,0.0004931244720523694,0.0007849790632201763,-0.0006732381859636567,0.0007981967333950893,-7.02974148864956e-05,-0.00024177048851519296,-0.00019531590476148933,0.4029781222343445,19.693445205688477,0.4466826617717743,-20.229524612426758,-0.8499045968055725,-2.4694857597351074,0.25485557317733765,0
60,0.29500794410705566,-0.4029781222343445,-19.693445205688477,-0.4466826617717743,20.229524612426758,0.8499045968055725,2.4694857597351074,-0.25485557317733765,0.0,0.0,0.0,0.0,0.0,0.0,0.0,-0.40856195223087477,0.009129214421945024,-0.21170378684440658,0.41697899365485064,0.26130770564162153,0.10215237254443738,-0.2725929793706839,1.2135606077721242,-0.22015680086612702,-0.007446837538550147,-2.6040962457474244,-0.10902146018103132,2.4681454029673136,0.8264792264017536,1.2134413937687574,-0.2202432315892585,-0.0075118285948192216,-2.6038483821997875,-0.10888392708698907,2.4681821257803174,0.826474908251239,-0.0004931244720523694,-0.0007849790632201763,0.0006732381859636567,-0.0007981967333950893,7.02974148864956e-05,0.00024177048851519296,0.00019531590476148933,0.0,0.0,0.0,0.0,0.0,0.0,0.0,-0.00011921400336678545,-8.643072313146982e-05,-6.499105626907482e-05,0.0002478635476368396,0.00013753309404224145,3.6722813003819965e-05,-4.318150514603936e-06,0.0004931244720523694,0.0007849790632201763,-0.0006732381859636567,0.0007981967333950893,-7.02974148864956e-05,-0.00024177048851519296,-0.00019531590476148933,0.4029781222343445,19.693445205688477,0.4466826617717743,-20.229524612426758,-0.8499045968055725,-2.4694857597351074,0.25485557317733765,0
61,0.30003905296325684,-0.4029781222343445,-19.693445205688477,-0.4466826617717743,20.229524612426758,0.8499045968055725,2.4694857597351074,-0.25485557317733765,0.0,0.0,0.0,0.0,0.0,0.0,0.0,-0.40856195223087477,0.009129214421945024,-0.21170378684440658,0.41697899365485064,0.26130770564162153,0.10215237254443738,-0.2725929793706839,1.2135606077721242,-0.22015680086612702,-0.007446837538550147,-2.6040962457474244,-0.10902146018103132,2.4681454029673136,0.8264792264017536,1.2134413937687574,-0.2202432315892585,-0.0075118285948192216,-2.6038483821997875,-0.10888392708698907,2.4681821257803174,0.826474908251239,-0.0004931244720523694,-0.0007849790632201763,0.0006732381859636567,-0.0007981967333950893,7.02974148864956e-05,0.00024177048851519296,0.00019531590476148933,0.0,0.0,0.0,0.0,0.0,0.0,0.0,-0.00011921400336678545,-8.643072313146982e-05,-6.499105626907482e-05,0.0002478635476368396,0.00013753309404224145,3.6722813003819965e-05,-4.318150514603936e-06,0.0004931244720523694,0.0007849790632201763,-0.0006732381859636567,0.0007981967333950893,-7.02974148864956e-05,-0.00024177048851519296,-0.00019531590476148933,0.4029781222343445,19.693445205688477,0.4466826617717743,-20.229524612426758,-0.8499045968055725,-2.4694857597351074,0.25485557317733765,0
62,0.3049619197845459,-0.4029781222343445,-19.693445205688477,-0.4466826617717743,20.229524612426758,0.8499045968055725,2.4694857597351074,-0.25485557317733765,0.0,0.0,0.0,0.0,0.0,0.0,0.0,-0.40856195223087477,0.009129214421945024,-0.21170378684440658,0.41697899365485064,0.26130770564162153,0.10215237254443738,-0.2725929793706839,1.2135606077721242,-0.22015680086612702,-0.007446837538550147,-2.6040962457474244,-0.10902146018103132,2.4681454029673136,0.8264792264017536,1.2134413937687574,-0.2202432315892585,-0.0075118285948192216,-2.6038483821997875,-0.10888392708698907,2.4681821257803174,0.826474908251239,-0.0004931244720523694,-0.0007849790632201763,0.0006732381859636567,-0.0007981967333950893,7.02974148864956e-05,0.00024177048851519296,0.00019531590476148933,0.0,0.0,0.0,0.0,0.0,0.0,0.0,-0.00011921400336678545,-8.643072313146982e-05,-6.499105626907482e-05,0.0002478635476368396,0.00013753309404224145,3.6722813003819965e-05,-4.318150514603936e-06,0.0004931244720523694,0.0007849790632201763,-0.0006732381859636567,0.0007981967333950893,-7.02974148864956e-05,-0.00024177048851519296,-0.00019531590476148933,0.4029781222343445,19.693445205688477,0.4466826617717743,-20.229524612426758,-0.8499045968055725,-2.4694857597351074,0.25485557317733765,0
63,0.31000709533691406,-0.4029781222343445,-19.693445205688477,-0.4228789508342743,20.205720901489258,0.8499045968055725,2.4758944511413574,-0.24844686686992645,0.0,0.0,0.0,0.0,0.0,0.0,0.0,-0.4042817653112033,0.007873454924896094,-0.2069364947248636,0.41969008173065664,0.26135395216088636,0.10189505758211488,-0.27036503468875916,1.213560604828685,-0.22015680086612702,-0.007448560252027317,-2.604094548891947,-0.10902146023511876,2.4681446913690013,0.8264788936994462,1.2134413937687574,-0.2202432315892585,-0.0075118285948192216,-2.6038483821997875,-0.10888392708698907,2.4681821257803174,0.826474908251239,-0.00019475442519605884,-0.0006582964960037943,0.0005743316829567292,-9.866636625316234e-05,-0.00013699567789623697,-0.00023005056868109162,-0.0011381869655578975,0.0,0.0,0.0,0.0,0.0,0.0,0.0,-0.0001192110599277374,-8.643072313146982e-05,-6.326834279190424e-05,0.0002461666921593775,0.0001375331481296843,3.743441131609515e-05,-3.985448207122211e-06,0.00019475442519605884,0.0006582964960037943,-0.0005743316829567292,9.866636625316234e-05,0.00013699567789623697,0.00023005056868109162,0.0011381869655578975,0.4029781222343445,19.693445205688477,0.4228789508342743,-20.205720901489258,-0.8499045968055725,-2.4758944511413574,0.24844686686992645,0
64,0.31499409675598145,-0.4029781222343445,-19.693445205688477,-0.4228789508342743,20.205720901489258,0.8499045968055725,2.4758944511413574,-0.24844686686992645,0.0,0.0,0.0,0.0,0.0,0.0,0.0,-0.4042817653112033,0.007873454924896094,-0.2069364947248636,0.41969008173065664,0.26135395216088636,0.10189505758211488,-0.27036503468875916,1.213560604828685,-0.22015680086612702,-0.007448560252027317,-2.604094548891947,-0.10902146023511876,2.4681446913690013,0.8264788936994462,1.2134413937687574,-0.2202432315892585,-0.0075118285948192216,-2.6038483821997875,-0.10888392708698907,2.4681821257803174,0.826474908251239,-0.00019475442519605884,-0.0006582964960037943,0.0005743316829567292,-9.866636625316234e-05,-0.00013699567789623697,-0.00023005056868109162,-0.0011381869655578975,0.0,0.0,0.0,0.0,0.0,0.0,0.0,-0.0001192110599277374,-8.643072313146982e-05,-6.326834279190424e-05,0.0002461666921593775,0.0001375331481296843,3.743441131609515e-05,-3.985448207122211e-06,0.00019475442519605884,0.0006582964960037943,-0.0005743316829567292,9.866636625316234e-05,0.00013699567789623697,0.00023005056868109162,0.0011381869655578975,0.4029781222343445,19.693445205688477,0.4228789508342743,-20.205720901489258,-0.8499045968055725,-2.4758944511413574,0.24844686686992645,0
65,0.32076430320739746,-0.4267818331718445,-19.717248916625977,-0.4228789508342743,20.181917190551758,0.8380027413368225,2.4758944511413574,-0.23471395671367645,0.0,0.0,0.0,0.0,0.0,0.0,0.0,-0.40989717890043326,0.006998231762663062,-0.21244643450510411,0.4244789519911248,0.26121133363381577,0.1015202902723633,-0.2709638899289461,1.2135622782079631,-0.22015520953520154,-0.0074506908080325136,-2.604092904910557,-0.10902013780673343,2.4681447302918493,0.8264763212650275,1.2134413937687574,-0.2202432315892585,-0.0075118285948192216,-2.6038483821997875,-0.10888392708698907,2.4681821257803174,0.826474908251239,0.00012040944832518545,-0.0002205888637729651,0.0002490386818974643,0.0008212764813095626,0.00024329310842097107,-0.00010810826522736366,-0.001510232223056866,0.0,0.0,0.0,0.0,0.0,0.0,0.0,-0.00012088443920577063,-8.802205405694652e-05,-6.1137786786708e-05,0.00024452271076924603,0.00013621071974435905,3.739548846803942e-05,-1.413013788420514e-06,-0.00012040944832518545,0.0002205888637729651,-0.0002490386818974643,-0.0008212764813095626,-0.00024329310842097107,0.00010810826522736366,0.001510232223056866,0.4267818331718445,19.717248916625977,0.4228789508342743,-20.181917190551758,-0.8380027413368225,-2.4758944511413574,0.23471395671367645,0
66,0.3250141143798828,-0.4267818331718445,-19.717248916625977,-0.4228789508342743,20.181917190551758,0.8380027413368225,2.4758944511413574,-0.23471395671367645,0.0,0.0,0.0,0.0,0.0,0.0,0.0,-0.40989717890043326,0.006998231762663062,-0.21244643450510411,0.4244789519911248,0.26121133363381577,0.1015202902723633,-0.2709638899289461,1.2135622782079631,-0.22015520953520154,-0.0074506908080325136,-2.604092904910557,-0.10902013780673343,2.4681447302918493,0.8264763212650275,1.2134413937687574,-0.2202432315892585,-0.0075118285948192216,-2.6038483821997875,-0.10888392708698907,2.4681821257803174,0.826474908251239,0.00012040944832518545,-0.0002205888637729651,0.0002490386818974643,0.0008212764813095626,0.00024329310842097107,-0.00010810826522736366,-0.001510232223056866,0.0,0.0,0.0,0.0,0.0,0.0,0.0,-0.00012088443920577063,-8.802205405694652e-05,-6.1137786786708e-05,0.00024452271076924603,0.00013621071974435905,3.739548846803942e-05,-1.413013788420514e-06,-0.00012040944832518545,0.0002205888637729651,-0.0002490386818974643,-0.0008212764813095626,-0.00024329310842097107,0.00010810826522736366,0.001510232223056866,0.4267818331718445,19.717248916625977,0.4228789508342743,-20.181917190551758,-0.8380027413368225,-2.4758944511413574,0.23471395671367645,0
67,0.3300166130065918,-0.4267818331718445,-19.745019912719727,-0.4228789508342743,20.181917190551758,0.8444114327430725,2.4758944511413574,-0.25485557317733765,0.0,0.0,0.0,0.0,0.0,0.0,0.0,-0.4040629751534451,0.012844950135333252,-0.20612131080497334,0.42079442578357135,0.26030906095009926,0.10114570415528043,-0.27083438267773524,1.2135622427776924,-0.22015318158888716,-0.007448481463226109,-2.6040928964074372,-0.10902073159409158,2.4681446910462124,0.8264792656419241,1.2134413937687574,-0.2202432315892585,-0.0075118285948192216,-2.6038483821997875,-0.10888392708698907,2.4681821257803174,0.826474908251239,0.0007287771147886187,0.0003799827563969668,0.00020137346934362687,0.0002784569658723717,3.849152492706331e-05,-0.00016929317069561942,-0.000911701020233288,0.0,0.0,0.0,0.0,0.0,0.0,0.0,-0.00012084900893505335,-9.005000037132227e-05,-6.334713159311233e-05,0.0002445142076497042,0.00013680450710250314,3.7434734105001866e-05,-4.357390685050255e-06,-0.0007287771147886187,-0.0003799827563969668,-0.00020137346934362687,-0.0002784569658723717,-3.849152492706331e-05,0.00016929317069561942,0.000911701020233288,0.4267818331718445,19.745019912719727,0.4228789508342743,-20.181917190551758,-0.8444114327430725,-2.4758944511413574,0.25485557317733765,0
68,0.3350229263305664,-0.4267818331718445,-19.745019912719727,-0.4228789508342743,20.181917190551758,0.8444114327430725,2.4758944511413574,-0.25485557317733765,0.0,0.0,0.0,0.0,0.0,0.0,0.0,-0.4040629751534451,0.012844950135333252,-0.20612131080497334,0.42079442578357135,0.26030906095009926,0.10114570415528043,-0.27083438267773524,1.2135622427776924,-0.22015318158888716,-0.007448481463226109,-2.6040928964074372,-0.10902073159409158,2.4681446910462124,0.8264792656419241,1.2134413937687574,-0.2202432315892585,-0.0075118285948192216,-2.6038483821997875,-0.10888392708698907,2.4681821257803174,0.826474908251239,0.0007287771147886187,0.0003799827563969668,0.00020137346934362687,0.0002784569658723717,3.849152492706331e-05,-0.00016929317069561942,-0.000911701020233288,0.0,0.0,0.0,0.0,0.0,0.0,0.0,-0.00012084900893505335,-9.005000037132227e-05,-6.334713159311233e-05,0.0002445142076497042,0.00013680450710250314,3.7434734105001866e-05,-4.357390685050255e-06,-0.0007287771147886187,-0.0003799827563969668,-0.00020137346934362687,-0.0002784569658723717,-3.849152492706331e-05,0.00016929317069561942,0.000911701020233288,0.4267818331718445,19.745019912719727,0.4228789508342743,-20.181917190551758,-0.8444114327430725,-2.4758944511413574,0.25485557317733765,0
69,0.3399984836578369,-0.3752071261405945,-19.745019912719727,-0.3990752398967743,20.229524612426758,0.8499045968055725,2.4758944511413574,-0.27591270208358765,0.0,0.0,0.0,0.0,0.0,0.0,0.0,-0.40429100706587207,0.0051516490086969255,-0.21100160920408317,0.42598178686811744,0.2602433649042735,0.10247416439108159,-0.27070925876068963,1.2135586589300933,-0.2201531815884406,-0.0074501868853215,-2.6040953274293237,-0.1090182664189019,2.4681446923380355,0.826480545688772,1.2134413937687574,-0.2202432315892585,-0.0075118285948192216,-2.6038483821997875,-0.10888392708698907,2.4681821257803174,0.826474908251239,-0.0005684355722682995,-0.0001238189459994266,-0.0004281075751775735,-0.0006708599482202928,-0.0002353376451958649,-0.0002556602205624145,0.00037050112867122203,0.0,0.0,0.0,0.0,0.0,0.0,0.0,-0.00011726516133592213,-9.005000081788173e-05,-6.164170949772129e-05,0.00024694522953616627,0.00013433933191282776,3.7433442281908924e-05,-5.637437533012601e-06,0.0005684355722682995,0.0001238189459994266,0.0004281075751775735,0.0006708599482202928,0.0002353376451958649,0.0002556602205624145,-0.00037050112867122203,0.3752071261405945,19.745019912719727,0.3990752398967743,-20.229524612426758,-0.8499045968055725,-2.4758944511413574,0.27591270208358765,0
70,0.34499549865722656,-0.3752071261405945,-19.745019912719727,-0.3990752398967743,20.229524612426758,0.8499045968055725,2.4758944511413574,-0.27591270208358765,0.0,0.0,0.0,0.0,0.0,0.0,0.0,-0.40429100706587207,0.0051516490086969255,-0.21100160920408317,0.42598178686811744,0.2602433649042735,0.10247416439108159,-0.27070925876068963,1.2135586589300933,-0.2201531815884406,-0.0074501868853215,-2.6040953274293237,-0.1090182664189019,2.4681446923380355,0.826480545688772,1.2134413937687574,-0.2202432315892585,-0.0075118285948192216,-2.6038483821997875,-0.10888392708698907,2.4681821257803174,0.826474908251239,-0.0005684355722682995,-0.0001238189459994266,-0.0004281075751775735,-0.0006708599482202928,-0.0002353376451958649,-0.0002556602205624145,0.00037050112867122203,0.0,0.0,0.0,0.0,0.0,0.0,0.0,-0.00011726516133592213,-9.005000081788173e-05,-6.164170949772129e-05,0.00024694522953616627,0.00013433933191282776,3.7433442281908924e-05,-5.637437533012601e-06,0.0005684355722682995,0.0001238189459994266,0.0004281075751775735,0.0006708599482202928,0.0002353376451958649,0.0002556602205624145,-0.00037050112867122203,0.3752071261405945,19.745019912719727,0.3990752398967743,-20.229524612426758,-0.8499045968055725,-2.4758944511413574,0.27591270208358765,0
71,0.35001254081726074,-0.3752071261405945,-19.717248916625977,-0.4228789508342743,20.205720901489258,0.8499045968055725,2.4758944511413574,-0.30978721380233765,0.0,0.0,0.0,0.0,0.0,0.0,0.0,-0.40495812030437145,0.008712521271972418,-0.21590144993152371,0.4218631702667787,0.2603552147712724,0.10143139449491523,-0.270676107777317,1.2135585794574335,-0.22015513043027174,-0.007448484590011522,-2.604093801543904,-0.10902145973030175,2.4681446908844924,0.8264853647949044,1.2134413937687574,-0.2202432315892585,-0.0075118285948192216,-2.6038483821997875,-0.10888392708698907,2.4681821257803174,0.826474908251239,-0.0009445854818220584,-0.0006338457184621439,0.000259033951769595,-0.00017571691661672238,-0.0001699802316659251,-6.659147665670646e-05,0.0014980134398498294,0.0,0.0,0.0,0.0,0.0,0.0,0.0,-0.00011718568867613577,-8.810115898674753e-05,-6.334400480769928e-05,0.000245419344116371,0.00013753264331267667,3.7434895824972614e-05,-1.0456543665382512e-05,0.0009445854818220584,0.0006338457184621439,-0.000259033951769595,0.00017571691661672238,0.0001699802316659251,6.659147665670646e-05,-0.0014980134398498294,0.3752071261405945,19.717248916625977,0.4228789508342743,-20.205720901489258,-0.8499045968055725,-2.4758944511413574,0.30978721380233765,0
72,0.3550076484680176,-0.3752071261405945,-19.717248916625977,-0.4228789508342743,20.205720901489258,0.8499045968055725,2.4758944511413574,-0.30978721380233765,0.0,0.0,0.0,0.0,0.0,0.0,0.0,-0.40495812030437145,0.008712521271972418,-0.21590144993152371,0.4218631702667787,0.2603552147712724,0.10143139449491523,-0.270676107777317,1.2135585794574335,-0.22015513043027174,-0.007448484590011522,-2.604093801543904,-0.10902145973030175,2.4681446908844924,0.8264853647949044,1.2134413937687574,-0.2202432315892585,-0.0075118285948192216,-2.6038483821997875,-0.10888392708698907,2.4681821257803174,0.826474908251239,-0.0009445854818220584,-0.0006338457184621439,0.000259033951769595,-0.00017571691661672238,-0.0001699802316659251,-6.659147665670646e-05,0.0014980134398498294,0.0,0.0,0.0,0.0,0.0,0.0,0.0,-0.00011718568867613577,-8.810115898674753e-05,-6.334400480769928e-05,0.000245419344116371,0.00013753264331267667,3.7434895824972614e-05,-1.0456543665382512e-05,0.0009445854818220584,0.0006338457184621439,-0.000259033951769595,0.00017571691661672238,0.0001699802316659251,6.659147665670646e-05,-0.0014980134398498294,0.3752071261405945,19.717248916625977,0.4228789508342743,-20.205720901489258,-0.8499045968055725,-2.4758944511413574,0.30978721380233765,0
73,0.3599584102630615,-0.4029781222343445,-19.717248916625977,-0.3990752398967743,20.154146194458008,0.8380027413368225,2.4630770683288574,-0.28232139348983765,0.0,0.0,0.0,0.0,0.0,0.0,0.0,-0.40748689479174816,0.011577462534009843,-0.21710018617344695,0.4193771026574265,0.26086172255876117,0.10162102336529868,-0.27162401041302775,1.2135606048282364,-0.22015513043027174,-0.007450231662041751,-2.604090258481518,-0.10901871833315316,2.468149293952518,0.8264826706164095,1.2134413937687574,-0.2202432315892585,-0.0075118285948192216,-2.6038483821997875,-0.10888392708698907,2.4681821257803174,0.826474908251239,-0.0001862743158577072,-0.00019829264822024824,-0.0005260469084458674,0.000655489246255447,0.00038373085980720497,0.00045181959829104264,-0.00014700078964020714,0.0,0.0,0.0,0.0,0.0,0.0,0.0,-0.00011921105947898525,-8.810115898674753e-05,-6.159693277747041e-05,0.00024187628173066855,0.00013479124616408433,3.283182779956206e-05,-7.762365170416174e-06,0.0001862743158577072,0.00019829264822024824,0.0005260469084458674,-0.000655489246255447,-0.00038373085980720497,-0.00045181959829104264,0.00014700078964020714,0.4029781222343445,19.717248916625977,0.3990752398967743,-20.154146194458008,-0.8380027413368225,-2.4630770683288574,0.28232139348983765,0
74,0.3650033473968506,-0.4029781222343445,-19.717248916625977,-0.3990752398967743,20.154146194458008,0.8380027413368225,2.4630770683288574,-0.28232139348983765,0.0,0.0,0.0,0.0,0.0,0.0,0.0,-0.40748689479174816,0.011577462534009843,-0.21710018617344695,0.4193771026574265,0.26086172255876117,0.10162102336529868,-0.27162401041302775,1.2135606048282364,-0.22015513043027174,-0.007450231662041751,-2.604090258481518,-0.10901871833315316,2.468149293952518,0.8264826706164095,1.2134413937687574,-0.2202432315892585,-0.0075118285948192216,-2.6038483821997875,-0.10888392708698907,2.4681821257803174,0.826474908251239,-0.0001862743158577072,-0.00019829264822024824,-0.0005260469084458674,0.000655489246255447,0.00038373085980720497,0.00045181959829104264,-0.00014700078964020714,0.0,0.0,0.0,0.0,0.0,0.0,0.0,-0.00011921105947898525,-8.810115898674753e-05,-6.159693277747041e-05,0.00024187628173066855,0.00013479124616408433,3.283182779956206e-05,-7.762365170416174e-06,0.0001862743158577072,0.00019829264822024824,0.0005260469084458674,-0.000655489246255447,-0.00038373085980720497,-0.00045181959829104264,0.00014700078964020714,0.4029781222343445,19.717248916625977,0.3990752398967743,-20.154146194458008,-0.8380027413368225,-2.4630770683288574,0.28232139348983765,0
75,0.3700063228607178,-0.4029781222343445,-19.717248916625977,-0.4228789508342743,20.181917190551758,0.8499045968055725,2.4694857597351074,-0.23471395671367645,0.0,0.0,0.0,0.0,0.0,0.0,0.0,-0.40261628156046425,0.00997356478001906,-0.21301399204902138,0.4230572846742313,0.26114502777921983,0.10246715289961227,-0.2737221364221603,1.2135606077721077,-0.22015726626337617,-0.007449192827085674,-2.6040929048017896,-0.10902145876674213,2.4681455207168224,0.8264773804187139,1.2134413937687574,-0.2202432315892585,-0.0075118285948192216,-2.6038483821997875,-0.10888392708698907,2.4681821257803174,0.826474908251239,0.00012657390118530113,3.183032851073146e-05,0.00046529759973498193,0.00035367805260041996,-0.00043629102506587196,6.616206412028836e-05,-0.0011898682817300743,0.0,0.0,0.0,0.0,0.0,0.0,0.0,-0.00011921400335035415,-8.596532588231454e-05,-6.263576773354786e-05,0.0002445226020020286,0.0001375316797530557,3.6605063495009915e-05,-2.4721674748429123e-06,-0.00012657390118530113,-3.183032851073146e-05,-0.00046529759973498193,-0.00035367805260041996,0.00043629102506587196,-6.616206412028836e-05,0.0011898682817300743,0.4029781222343445,19.717248916625977,0.4228789508342743,-20.181917190551758,-0.8499045968055725,-2.4694857597351074,0.23471395671367645,0
76,0.37505269050598145,-0.4029781222343445,-19.717248916625977,-0.4228789508342743,20.181917190551758,0.8499045968055725,2.4694857597351074,-0.23471395671367645,0.0,0.0,0.0,0.0,0.0,0.0,0.0,-0.40261628156046425,0.00997356478001906,-0.21301399204902138,0.4230572846742313,0.26114502777921983,0.10246715289961227,-0.2737221364221603,1.2135606077721077,-0.22015726626337617,-0.007449192827085674,-2.6040929048017896,-0.10902145876674213,2.4681455207168224,0.8264773804187139,1.2134413937687574,-0.2202432315892585,-0.0075118285948192216,-2.6038483821997875,-0.10888392708698907,2.4681821257803174,0.826474908251239,0.00012657390118530113,3.183032851073146e-05,0.00046529759973498193,0.00035367805260041996,-0.00043629102506587196,6.616206412028836e-05,-0.0011898682817300743,0.0,0.0,0.0,0.0,0.0,0.0,0.0,-0.00011921400335035415,-8.596532588231454e-05,-6.263576773354786e-05,0.0002445226020020286,0.0001375316797530557,3.6605063495009915e-05,-2.4721674748429123e-06,-0.00012657390118530113,-3.183032851073146e-05,-0.00046529759973498193,-0.00035367805260041996,0.00043629102506587196,-6.616206412028836e-05,0.0011898682817300743,0.4029781222343445,19.717248916625977,0.4228789508342743,-20.181917190551758,-0.8499045968055725,-2.4694857597351074,0.23471395671367645,0
77,0.3800492286682129,-0.4029781222343445,-19.693445205688477,-0.3990752398967743,20.229524612426758,0.8444114327430725,2.4758944511413574,-0.26217979192733765,0.0,0.0,0.0,0.0,0.0,0.0,0.0,-0.40365914693780286,0.014076129867982705,-0.21542608913635308,0.4198099344513907,0.2609918072176997,0.10218239620991915,-0.27369689973208333,1.2135606077721242,-0.22015680087818384,-0.0074503888355132,-2.6040962420031857,-0.10902084988354807,2.468144690885149,0.8264804326626961,1.2134413937687574,-0.2202432315892585,-0.0075118285948192216,-2.6038483821997875,-0.10888392708698907,2.4681821257803174,0.826474908251239,0.0002136762342368145,-0.0002887767951424296,-0.00038162018910648367,-0.001113555202568695,0.00010230599227465099,-0.00010500934032702119,-0.0005914441697722267,0.0,0.0,0.0,0.0,0.0,0.0,0.0,-0.00011921400336678545,-8.643071107464206e-05,-6.143975930602164e-05,0.00024785980339814273,0.00013692279655899697,3.743489516816467e-05,-5.524411457069611e-06,-0.0002136762342368145,0.0002887767951424296,0.00038162018910648367,0.001113555202568695,-0.00010230599227465099,0.00010500934032702119,0.0005914441697722267,0.4029781222343445,19.693445205688477,0.3990752398967743,-20.229524612426758,-0.8444114327430725,-2.4758944511413574,0.26217979192733765,0
78,0.3850283622741699,-0.4029781222343445,-19.693445205688477,-0.3990752398967743,20.229524612426758,0.8444114327430725,2.4758944511413574,-0.26217979192733765,0.0,0.0,0.0,0.0,0.0,0.0,0.0,-0.40365914693780286,0.014076129867982705,-0.21542608913635308,0.4198099344513907,0.2609918072176997,0.10218239620991915,-0.27369689973208333,1.2135606077721242,-0.22015680087818384,-0.0074503888355132,-2.6040962420031857,-0.10902084988354807,2.468144690885149,0.8264804326626961,1.2134413937687574,-0.2202432315892585,-0.0075118285948192216,-2.6038483821997875,-0.10888392708698907,2.4681821257803174,0.826474908251239,0.0002136762342368145,-0.0002887767951424296,-0.00038162018910648367,-0.001113555202568695,0.00010230599227465099,-0.00010500934032702119,-0.0005914441697722267,0.0,0.0,0.0,0.0,0.0,0.0,0.0,-0.00011921400336678545,-8.643071107464206e-05,-6.143975930602164e-05,0.00024785980339814273,0.00013692279655899697,3.743489516816467e-05,-5.524411457069611e-06,-0.0002136762342368145,0.0002887767951424296,0.00038162018910648367,0.001113555202568695,-0.00010230599227465099,0.00010500934032702119,0.0005914441697722267,0.4029781222343445,19.693445205688477,0.3990752398967743,-20.229524612426758,-0.8444114327430725,-2.4758944511413574,0.26217979192733765,0
79,0.39000654220581055,-0.4029781222343445,-19.693445205688477,-0.3990752398967743,20.229524612426758,0.8444114327430725,2.4758944511413574,-0.26217979192733765,0.0,0.0,0.0,0.0,0.0,0.0,0.0,-0.40365914693780286,0.014076129867982705,-0.21542608913635308,0.4198099344513907,0.2609918072176997,0.10218239620991915,-0.27369689973208333,1.2135606077721242,-0.22015680087818384,-0.0074503888355132,-2.6040962420031857,-0.10902084988354807,2.468144690885149,0.8264804326626961,1.2134413937687574,-0.2202432315892585,-0.0075118285948192216,-2.6038483821997875,-0.10888392708698907,2.4681821257803174,0.826474908251239,0.0002136762342368145,-0.0002887767951424296,-0.00038162018910648367,-0.001113555202568695,0.00010230599227465099,-0.00010500934032702119,-0.0005914441697722267,0.0,0.0,0.0,0.0,0.0,0.0,0.0,-0.00011921400336678545,-8.643071107464206e-05,-6.143975930602164e-05,0.00024785980339814273,0.00013692279655899697,3.743489516816467e-05,-5.524411457069611e-06,-0.0002136762342368145,0.0002887767951424296,0.00038162018910648367,0.001113555202568695,-0.00010230599227465099,0.00010500934032702119,0.0005914441697722267,0.4029781222343445,19.693445205688477,0.3990752398967743,-20.229524612426758,-0.8444114327430725,-2.4758944511413574,0.26217979192733765,0
