rezayati/contactInterpretation/dataset/franka_main/labeled_data/link6/b8_6.csv
index,time,tau_J0,tau_J1,tau_J2,tau_J3,tau_J4,tau_J5,tau_J6,tau_J_d0,tau_J_d1,tau_J_d2,tau_J_d3,tau_J_d4,tau_J_d5,tau_J_d6,tau_ext0,tau_ext1,tau_ext2,tau_ext3,tau_ext4,tau_ext5,tau_ext6,q0,q1,q2,q3,q4,q5,q6,q_d0,q_d1,q_d2,q_d3,q_d4,q_d5,q_d6,dq0,dq1,dq2,dq3,dq4,dq5,dq6,dq_d0,dq_d1,dq_d2,dq_d3,dq_d4,dq_d5,dq_d6,e0,e1,e2,e3,e4,e5,e6,de0,de1,de2,de3,de4,de5,de6,etau_J0,etau_J1,etau_J2,etau_J3,etau_J4,etau_J5,etau_J6,label
1,0.0,0.08103066682815552,-18.106531143188477,1.0926239490509033,18.269685745239258,0.3619285225868225,2.2552523612976074,-0.20083944499492645,0.0,0.0,0.0,0.0,0.0,0.0,0.0,0.09744601934113317,0.5358742790964348,0.28194352840951675,0.6231739096895617,-0.06513055165719273,0.08751842354429452,-0.2095912075080845,-0.6091878653367361,-0.05761825235545644,-0.6665754056524112,-2.594732391056256,-0.05553197092811266,2.507942194020022,0.8763184780991738,-0.6090851748156966,-0.05753196718556838,-0.666603097082616,-2.5945565370258534,-0.05562143941554,2.507976027223799,0.8763108487046415,0.0006178928867049078,-0.00048597144053128785,0.0001640687106405985,-0.0007227287847652929,-8.424450113464568e-05,0.0005893994715823286,-0.000529652856841303,0.0,0.0,0.0,0.0,0.0,0.0,0.0,0.00010269052103950571,8.628516988805346e-05,-2.769143020475706e-05,0.00017585403040243364,-8.946848742733687e-05,3.383320377681187e-05,-7.629394532360223e-06,-0.0006178928867049078,0.00048597144053128785,-0.0001640687106405985,0.0007227287847652929,8.424450113464568e-05,-0.0005893994715823286,0.000529652856841303,-0.08103066682815552,18.106531143188477,-1.0926239490509033,-18.269685745239258,-0.3619285225868225,-2.2552523612976074,0.20083944499492645,0
2,0.004995822906494141,0.05722695589065552,-18.130334854125977,1.0926239490509033,18.198274612426758,0.3555198311805725,2.2625765800476074,-0.22098104655742645,0.0,0.0,0.0,0.0,0.0,0.0,0.0,0.09852813345073132,0.5355099047229394,0.28092407112904244,0.6208742800550272,-0.0647496803170117,0.08741141337132508,-0.21057877444752232,-0.6091861949008808,-0.057616581923606074,-0.666575404677598,-2.5947273797486954,-0.05553125885128975,2.5079413744216827,0.876320716054903,-0.6090851748156966,-0.05753196718556838,-0.666603097082616,-2.5945565370258534,-0.05562143941554,2.507976027223799,0.8763108487046415,0.0010459650315217822,0.00034984682612587014,-0.00020013364877543067,0.0010497748766586249,0.00023837875709015205,0.0004310353901032087,0.00078355599511059,0.0,0.0,0.0,0.0,0.0,0.0,0.0,0.00010102008518420025,8.461473803769021e-05,-2.76924050179872e-05,0.00017084272284195734,-9.018056425025289e-05,3.4652802116230674e-05,-9.867350261538732e-06,-0.0010459650315217822,-0.00034984682612587014,0.00020013364877543067,-0.0010497748766586249,-0.00023837875709015205,-0.0004310353901032087,-0.00078355599511059,-0.05722695589065552,18.130334854125977,-1.0926239490509033,-18.198274612426758,-0.3555198311805725,-2.2625765800476074,0.22098104655742645,0
3,0.009996891021728516,0.05722695589065552,-18.130334854125977,1.0926239490509033,18.198274612426758,0.3555198311805725,2.2625765800476074,-0.22098104655742645,0.0,0.0,0.0,0.0,0.0,0.0,0.0,0.09852813345073132,0.5355099047229394,0.28092407112904244,0.6208742800550272,-0.0647496803170117,0.08741141337132508,-0.21057877444752232,-0.6091861949008808,-0.057616581923606074,-0.666575404677598,-2.5947273797486954,-0.05553125885128975,2.5079413744216827,0.876320716054903,-0.6090851748156966,-0.05753196718556838,-0.666603097082616,-2.5945565370258534,-0.05562143941554,2.507976027223799,0.8763108487046415,0.0010459650315217822,0.00034984682612587014,-0.00020013364877543067,0.0010497748766586249,0.00023837875709015205,0.0004310353901032087,0.00078355599511059,0.0,0.0,0.0,0.0,0.0,0.0,0.0,0.00010102008518420025,8.461473803769021e-05,-2.76924050179872e-05,0.00017084272284195734,-9.018056425025289e-05,3.4652802116230674e-05,-9.867350261538732e-06,-0.0010459650315217822,-0.00034984682612587014,0.00020013364877543067,-0.0010497748766586249,-0.00023837875709015205,-0.0004310353901032087,-0.00078355599511059,-0.05722695589065552,18.130334854125977,-1.0926239490509033,-18.198274612426758,-0.3555198311805725,-2.2625765800476074,0.22098104655742645,0
4,0.014950752258300781,0.10880166292190552,-18.154138565063477,1.0926239490509033,18.297456741333008,0.3619285225868225,2.2818026542663574,-0.17978231608867645,0.0,0.0,0.0,0.0,0.0,0.0,0.0,0.1035623305177506,0.5375323543430102,0.28402311777799194,0.6195366702745115,-0.06470849682096089,0.08731028808846329,-0.21060395533734863,-0.6091898141785672,-0.05761491148775083,-0.6665777363659937,-2.594734339898092,-0.05553197092811266,2.5079388907926727,0.8763161384181842,-0.6090851748156966,-0.05753196718556838,-0.666603097082616,-2.5945565370258534,-0.05562143941554,2.507976027223799,0.8763108487046415,-8.343631251538373e-05,0.0010137913628410036,0.0003121370994302383,-0.0013087372020546373,-8.509624462228753e-05,-0.0004015985543328533,-0.0010187076957853915,0.0,0.0,0.0,0.0,0.0,0.0,0.0,0.00010463936287063991,8.29443021824472e-05,-2.5360716622291335e-05,0.00017780287223878588,-8.946848742733687e-05,3.713643112623899e-05,-5.289713542744323e-06,8.343631251538373e-05,-0.0010137913628410036,-0.0003121370994302383,0.0013087372020546373,8.509624462228753e-05,0.0004015985543328533,0.0010187076957853915,-0.10880166292190552,18.154138565063477,-1.0926239490509033,-18.297456741333008,-0.3619285225868225,-2.2818026542663574,0.17978231608867645,0
5,0.01999068260192871,0.10880166292190552,-18.154138565063477,1.0926239490509033,18.297456741333008,0.3619285225868225,2.2818026542663574,-0.17978231608867645,0.0,0.0,0.0,0.0,0.0,0.0,0.0,0.1035623305177506,0.5375323543430102,0.28402311777799194,0.6195366702745115,-0.06470849682096089,0.08731028808846329,-0.21060395533734863,-0.6091898141785672,-0.05761491148775083,-0.6665777363659937,-2.594734339898092,-0.05553197092811266,2.5079388907926727,0.8763161384181842,-0.6090851748156966,-0.05753196718556838,-0.666603097082616,-2.5945565370258534,-0.05562143941554,2.507976027223799,0.8763108487046415,-8.343631251538373e-05,0.0010137913628410036,0.0003121370994302383,-0.0013087372020546373,-8.509624462228753e-05,-0.0004015985543328533,-0.0010187076957853915,0.0,0.0,0.0,0.0,0.0,0.0,0.0,0.00010463936287063991,8.29443021824472e-05,-2.5360716622291335e-05,0.00017780287223878588,-8.946848742733687e-05,3.713643112623899e-05,-5.289713542744323e-06,8.343631251538373e-05,-0.0010137913628410036,-0.0003121370994302383,0.0013087372020546373,8.509624462228753e-05,0.0004015985543328533,0.0010187076957853915,-0.10880166292190552,18.154138565063477,-1.0926239490509033,-18.297456741333008,-0.3619285225868225,-2.2818026542663574,0.17978231608867645,0
6,0.0249941349029541,0.10880166292190552,-18.177942276000977,1.0688202381134033,18.222078323364258,0.3555198311805725,2.2689852714538574,-0.22098104655742645,0.0,0.0,0.0,0.0,0.0,0.0,0.0,0.10270968116335777,0.5355838123896084,0.28421328732745493,0.6180723129536501,-0.06489684822747395,0.08724401066285355,-0.21005166901755937,-0.6091898230088849,-0.05761324105189557,-0.6665737602552797,-2.594729050184551,-0.05553125885128975,2.507940668157067,0.876320716054903,-0.6090851748156966,-0.05753196718556838,-0.666603097082616,-2.5945565370258534,-0.05562143941554,2.507976027223799,0.8763108487046415,-0.000144672616540173,0.0010373090664884527,0.0011379589178725576,0.0002380623016359938,0.0001590029132268623,-9.390709633955571e-05,-6.906215037902667e-05,0.0,0.0,0.0,0.0,0.0,0.0,0.0,0.00010464819318833918,8.127386632718336e-05,-2.9336827336301496e-05,0.00017251315869737383,-9.018056425025289e-05,3.535906673191036e-05,-9.867350261538732e-06,0.000144672616540173,-0.0010373090664884527,-0.0011379589178725576,-0.0002380623016359938,-0.0001590029132268623,9.390709633955571e-05,6.906215037902667e-05,-0.10880166292190552,18.177942276000977,-1.0688202381134033,-18.222078323364258,-0.3555198311805725,-2.2689852714538574,0.22098104655742645,0
7,0.029992103576660156,0.10880166292190552,-18.177942276000977,1.0688202381134033,18.222078323364258,0.3555198311805725,2.2689852714538574,-0.22098104655742645,0.0,0.0,0.0,0.0,0.0,0.0,0.0,0.10270968116335777,0.5355838123896084,0.28421328732745493,0.6180723129536501,-0.06489684822747395,0.08724401066285355,-0.21005166901755937,-0.6091898230088849,-0.05761324105189557,-0.6665737602552797,-2.594729050184551,-0.05553125885128975,2.507940668157067,0.876320716054903,-0.6090851748156966,-0.05753196718556838,-0.666603097082616,-2.5945565370258534,-0.05562143941554,2.507976027223799,0.8763108487046415,-0.000144672616540173,0.0010373090664884527,0.0011379589178725576,0.0002380623016359938,0.0001590029132268623,-9.390709633955571e-05,-6.906215037902667e-05,0.0,0.0,0.0,0.0,0.0,0.0,0.0,0.00010464819318833918,8.127386632718336e-05,-2.9336827336301496e-05,0.00017251315869737383,-9.018056425025289e-05,3.535906673191036e-05,-9.867350261538732e-06,0.000144672616540173,-0.0010373090664884527,-0.0011379589178725576,-0.0002380623016359938,-0.0001590029132268623,9.390709633955571e-05,6.906215037902667e-05,-0.10880166292190552,18.177942276000977,-1.0688202381134033,-18.222078323364258,-0.3555198311805725,-2.2689852714538574,0.22098104655742645,0
8,0.03499245643615723,0.08103066682815552,-18.106531143188477,1.1164276599884033,18.245882034301758,0.3619285225868225,2.2625765800476074,-0.17337362468242645,0.0,0.0,0.0,0.0,0.0,0.0,0.0,0.10167145374119975,0.5335805273700502,0.2834099203930312,0.6200010908208441,-0.06489613330195347,0.08793041978570834,-0.21089058580508208,-0.6091878653367858,-0.05761825235946136,-0.6665780027814745,-2.5947307205854133,-0.055531975312610705,2.5079413666694146,0.8763154263413614,-0.6090851748156966,-0.05753196718556838,-0.666603097082616,-2.5945565370258534,-0.05562143941554,2.507976027223799,0.8763108487046415,0.00028886938438565994,-0.0005841601395305805,-2.459096041601279e-05,0.00030533586532858223,2.469192185219686e-05,0.0004218344367073951,-0.0011365062620213675,0.0,0.0,0.0,0.0,0.0,0.0,0.0,0.0001026905210892437,8.628517389297485e-05,-2.5094301141503905e-05,0.00017418355955989284,-8.946410292929446e-05,3.466055438439142e-05,-4.577636719904632e-06,-0.00028886938438565994,0.0005841601395305805,2.459096041601279e-05,-0.00030533586532858223,-2.469192185219686e-05,-0.0004218344367073951,0.0011365062620213675,-0.08103066682815552,18.106531143188477,-1.1164276599884033,-18.245882034301758,-0.3619285225868225,-2.2625765800476074,0.17337362468242645,0
9,0.03999948501586914,0.08103066682815552,-18.106531143188477,1.1164276599884033,18.245882034301758,0.3619285225868225,2.2625765800476074,-0.17337362468242645,0.0,0.0,0.0,0.0,0.0,0.0,0.0,0.10167145374119975,0.5335805273700502,0.2834099203930312,0.6200010908208441,-0.06489613330195347,0.08793041978570834,-0.21089058580508208,-0.6091878653367858,-0.05761825235946136,-0.6665780027814745,-2.5947307205854133,-0.055531975312610705,2.5079413666694146,0.8763154263413614,-0.6090851748156966,-0.05753196718556838,-0.666603097082616,-2.5945565370258534,-0.05562143941554,2.507976027223799,0.8763108487046415,0.00028886938438565994,-0.0005841601395305805,-2.459096041601279e-05,0.00030533586532858223,2.469192185219686e-05,0.0004218344367073951,-0.0011365062620213675,0.0,0.0,0.0,0.0,0.0,0.0,0.0,0.0001026905210892437,8.628517389297485e-05,-2.5094301141503905e-05,0.00017418355955989284,-8.946410292929446e-05,3.466055438439142e-05,-4.577636719904632e-06,-0.00028886938438565994,0.0005841601395305805,2.459096041601279e-05,-0.00030533586532858223,-2.469192185219686e-05,-0.0004218344367073951,0.0011365062620213675,-0.08103066682815552,18.106531143188477,-1.1164276599884033,-18.245882034301758,-0.3619285225868225,-2.2625765800476074,0.17337362468242645,0
10,0.04499363899230957,0.08103066682815552,-18.154138565063477,1.1680023670196533,18.269685745239258,0.3619285225868225,2.2689852714538574,-0.19351522624492645,0.0,0.0,0.0,0.0,0.0,0.0,0.0,0.10264884513056723,0.5386139596740508,0.28919137305693293,0.6164276635872911,-0.0647341026689927,0.0867670114270947,-0.20942494955549948,-0.6091878656637848,-0.0576149113796178,-0.6665809206959747,-2.5947323655464545,-0.05553197092813741,2.507940668158984,0.876317625051234,-0.6090851748156966,-0.05753196718556838,-0.666603097082616,-2.5945565370258534,-0.05562143941554,2.507976027223799,0.8763108487046415,0.0005628248848787906,0.0013223994241784063,-0.00140639894373785,-0.0003717138679861875,-0.0001580003437883676,-0.00013609557276776914,-0.00026899272696272354,0.0,0.0,0.0,0.0,0.0,0.0,0.0,0.00010269084808822715,8.294419404941689e-05,-2.2176386641259427e-05,0.00017582852060105125,-8.946848740259278e-05,3.535906481477724e-05,-6.776346592518578e-06,-0.0005628248848787906,-0.0013223994241784063,0.00140639894373785,0.0003717138679861875,0.0001580003437883676,0.00013609557276776914,0.00026899272696272354,-0.08103066682815552,18.154138565063477,-1.1680023670196533,-18.269685745239258,-0.3619285225868225,-2.2689852714538574,0.19351522624492645,0
11,0.049993276596069336,0.08103066682815552,-18.154138565063477,1.1680023670196533,18.269685745239258,0.3619285225868225,2.2689852714538574,-0.19351522624492645,0.0,0.0,0.0,0.0,0.0,0.0,0.0,0.10264884513056723,0.5386139596740508,0.28919137305693293,0.6164276635872911,-0.0647341026689927,0.0867670114270947,-0.20942494955549948,-0.6091878656637848,-0.0576149113796178,-0.6665809206959747,-2.5947323655464545,-0.05553197092813741,2.507940668158984,0.876317625051234,-0.6090851748156966,-0.05753196718556838,-0.666603097082616,-2.5945565370258534,-0.05562143941554,2.507976027223799,0.8763108487046415,0.0005628248848787906,0.0013223994241784063,-0.00140639894373785,-0.0003717138679861875,-0.0001580003437883676,-0.00013609557276776914,-0.00026899272696272354,0.0,0.0,0.0,0.0,0.0,0.0,0.0,0.00010269084808822715,8.294419404941689e-05,-2.2176386641259427e-05,0.00017582852060105125,-8.946848740259278e-05,3.535906481477724e-05,-6.776346592518578e-06,-0.0005628248848787906,-0.0013223994241784063,0.00140639894373785,0.0003717138679861875,0.0001580003437883676,0.00013609557276776914,0.00026899272696272354,-0.08103066682815552,18.154138565063477,-1.1680023670196533,-18.269685745239258,-0.3619285225868225,-2.2689852714538574,0.19351522624492645,0
12,0.05499577522277832,0.08103066682815552,-18.154138565063477,1.1680023670196533,18.269685745239258,0.3619285225868225,2.2689852714538574,-0.19351522624492645,0.0,0.0,0.0,0.0,0.0,0.0,0.0,0.10264884513056723,0.5386139596740508,0.28919137305693293,0.6164276635872911,-0.0647341026689927,0.0867670114270947,-0.20942494955549948,-0.6091878656637848,-0.0576149113796178,-0.6665809206959747,-2.5947323655464545,-0.05553197092813741,2.507940668158984,0.876317625051234,-0.6090851748156966,-0.05753196718556838,-0.666603097082616,-2.5945565370258534,-0.05562143941554,2.507976027223799,0.8763108487046415,0.0005628248848787906,0.0013223994241784063,-0.00140639894373785,-0.0003717138679861875,-0.0001580003437883676,-0.00013609557276776914,-0.00026899272696272354,0.0,0.0,0.0,0.0,0.0,0.0,0.0,0.00010269084808822715,8.294419404941689e-05,-2.2176386641259427e-05,0.00017582852060105125,-8.946848740259278e-05,3.535906481477724e-05,-6.776346592518578e-06,-0.0005628248848787906,-0.0013223994241784063,0.00140639894373785,0.0003717138679861875,0.0001580003437883676,0.00013609557276776914,0.00026899272696272354,-0.08103066682815552,18.154138565063477,-1.1680023670196533,-18.269685745239258,-0.3619285225868225,-2.2689852714538574,0.19351522624492645,0
13,0.059993743896484375,0.08103066682815552,-18.154138565063477,1.1680023670196533,18.269685745239258,0.3619285225868225,2.2689852714538574,-0.19351522624492645,0.0,0.0,0.0,0.0,0.0,0.0,0.0,0.10264884513056723,0.5386139596740508,0.28919137305693293,0.6164276635872911,-0.0647341026689927,0.0867670114270947,-0.20942494955549948,-0.6091878656637848,-0.0576149113796178,-0.6665809206959747,-2.5947323655464545,-0.05553197092813741,2.507940668158984,0.876317625051234,-0.6090851748156966,-0.05753196718556838,-0.666603097082616,-2.5945565370258534,-0.05562143941554,2.507976027223799,0.8763108487046415,0.0005628248848787906,0.0013223994241784063,-0.00140639894373785,-0.0003717138679861875,-0.0001580003437883676,-0.00013609557276776914,-0.00026899272696272354,0.0,0.0,0.0,0.0,0.0,0.0,0.0,0.00010269084808822715,8.294419404941689e-05,-2.2176386641259427e-05,0.00017582852060105125,-8.946848740259278e-05,3.535906481477724e-05,-6.776346592518578e-06,-0.0005628248848787906,-0.0013223994241784063,0.00140639894373785,0.0003717138679861875,0.0001580003437883676,0.00013609557276776914,0.00026899272696272354,-0.08103066682815552,18.154138565063477,-1.1680023670196533,-18.269685745239258,-0.3619285225868225,-2.2689852714538574,0.19351522624492645,0
14,0.06501197814941406,0.08103066682815552,-18.154138565063477,1.1680023670196533,18.269685745239258,0.3619285225868225,2.2689852714538574,-0.19351522624492645,0.0,0.0,0.0,0.0,0.0,0.0,0.0,0.10264884513056723,0.5386139596740508,0.28919137305693293,0.6164276635872911,-0.0647341026689927,0.0867670114270947,-0.20942494955549948,-0.6091878656637848,-0.0576149113796178,-0.6665809206959747,-2.5947323655464545,-0.05553197092813741,2.507940668158984,0.876317625051234,-0.6090851748156966,-0.05753196718556838,-0.666603097082616,-2.5945565370258534,-0.05562143941554,2.507976027223799,0.8763108487046415,0.0005628248848787906,0.0013223994241784063,-0.00140639894373785,-0.0003717138679861875,-0.0001580003437883676,-0.00013609557276776914,-0.00026899272696272354,0.0,0.0,0.0,0.0,0.0,0.0,0.0,0.00010269084808822715,8.294419404941689e-05,-2.2176386641259427e-05,0.00017582852060105125,-8.946848740259278e-05,3.535906481477724e-05,-6.776346592518578e-06,-0.0005628248848787906,-0.0013223994241784063,0.00140639894373785,0.0003717138679861875,0.0001580003437883676,0.00013609557276776914,0.00026899272696272354,-0.08103066682815552,18.154138565063477,-1.1680023670196533,-18.269685745239258,-0.3619285225868225,-2.2689852714538574,0.19351522624492645,0
15,0.0700078010559082,0.08103066682815552,-18.106531143188477,1.1441986560821533,18.269685745239258,0.3619285225868225,2.2753939628601074,-0.17337362468242645,0.0,0.0,0.0,0.0,0.0,0.0,0.0,0.09912678087621737,0.5364235316124886,0.2875842179908048,0.6195417891213076,-0.06462039497931947,0.08619859669415902,-0.2090726743179021,-0.6091878653367379,-0.05761824360068493,-0.6665790192486687,-2.5947323910561173,-0.05553197092811266,2.5079399517215872,0.8763154263411399,-0.6090851748156966,-0.05753196718556838,-0.666603097082616,-2.5945565370258534,-0.05562143941554,2.507976027223799,0.8763108487046415,9.942669241926147e-05,-0.0004278019745310006,-0.000643938390819284,-0.00047329092617433055,-4.792966991611859e-05,-6.585635819467291e-05,-0.0013886629240012465,0.0,0.0,0.0,0.0,0.0,0.0,0.0,0.00010269052104128207,8.627641511654849e-05,-2.4077833947311333e-05,0.0001758540302638778,-8.946848742733687e-05,3.607550221174094e-05,-4.5776364984151385e-06,-9.942669241926147e-05,0.0004278019745310006,0.000643938390819284,0.00047329092617433055,4.792966991611859e-05,6.585635819467291e-05,0.0013886629240012465,-0.08103066682815552,18.106531143188477,-1.1441986560821533,-18.269685745239258,-0.3619285225868225,-2.2753939628601074,0.17337362468242645,0
16,0.07500028610229492,0.08103066682815552,-18.106531143188477,1.1441986560821533,18.269685745239258,0.3619285225868225,2.2753939628601074,-0.17337362468242645,0.0,0.0,0.0,0.0,0.0,0.0,0.0,0.09912678087621737,0.5364235316124886,0.2875842179908048,0.6195417891213076,-0.06462039497931947,0.08619859669415902,-0.2090726743179021,-0.6091878653367379,-0.05761824360068493,-0.6665790192486687,-2.5947323910561173,-0.05553197092811266,2.5079399517215872,0.8763154263411399,-0.6090851748156966,-0.05753196718556838,-0.666603097082616,-2.5945565370258534,-0.05562143941554,2.507976027223799,0.8763108487046415,9.942669241926147e-05,-0.0004278019745310006,-0.000643938390819284,-0.00047329092617433055,-4.792966991611859e-05,-6.585635819467291e-05,-0.0013886629240012465,0.0,0.0,0.0,0.0,0.0,0.0,0.0,0.00010269052104128207,8.627641511654849e-05,-2.4077833947311333e-05,0.0001758540302638778,-8.946848742733687e-05,3.607550221174094e-05,-4.5776364984151385e-06,-9.942669241926147e-05,0.0004278019745310006,0.000643938390819284,0.00047329092617433055,4.792966991611859e-05,6.585635819467291e-05,0.0013886629240012465,-0.08103066682815552,18.106531143188477,-1.1441986560821533,-18.269685745239258,-0.3619285225868225,-2.2753939628601074,0.17337362468242645,0
17,0.07994413375854492,0.13260537385940552,-18.078760147094727,1.1441986560821533,18.222078323364258,0.3619285225868225,2.2753939628601074,-0.18710653483867645,0.0,0.0,0.0,0.0,0.0,0.0,0.0,0.09890647349276734,0.5365153676516732,0.2912006165899095,0.6189120763324887,-0.06450334158972525,0.08671594609279809,-0.20784449792779966,-0.6091914846144224,-0.05762020120127602,-0.6665800567421664,-2.594729047315135,-0.05553197092811266,2.5079388964441005,0.8763169522202676,-0.6090851748156966,-0.05753196718556838,-0.666603097082616,-2.5945565370258534,-0.05562143941554,2.507976027223799,0.8763108487046415,-0.0006861890785419204,-0.0014342621607244834,-0.0007707572129324387,0.00014206242143309253,-0.00019183492511811318,-0.00013671358626815813,-0.001224517040776753,0.0,0.0,0.0,0.0,0.0,0.0,0.0,0.00010630979872583435,8.823401570763612e-05,-2.304034044964265e-05,0.00017251028928155776,-8.946848742733687e-05,3.7130779698468785e-05,-6.1035156261324275e-06,0.0006861890785419204,0.0014342621607244834,0.0007707572129324387,-0.00014206242143309253,0.00019183492511811318,0.00013671358626815813,0.001224517040776753,-0.13260537385940552,18.078760147094727,-1.1441986560821533,-18.222078323364258,-0.3619285225868225,-2.2753939628601074,0.18710653483867645,0
18,0.08499336242675781,0.13260537385940552,-18.078760147094727,1.1441986560821533,18.222078323364258,0.3619285225868225,2.2753939628601074,-0.18710653483867645,0.0,0.0,0.0,0.0,0.0,0.0,0.0,0.09890647349276734,0.5365153676516732,0.2912006165899095,0.6189120763324887,-0.06450334158972525,0.08671594609279809,-0.20784449792779966,-0.6091914846144224,-0.05762020120127602,-0.6665800567421664,-2.594729047315135,-0.05553197092811266,2.5079388964441005,0.8763169522202676,-0.6090851748156966,-0.05753196718556838,-0.666603097082616,-2.5945565370258534,-0.05562143941554,2.507976027223799,0.8763108487046415,-0.0006861890785419204,-0.0014342621607244834,-0.0007707572129324387,0.00014206242143309253,-0.00019183492511811318,-0.00013671358626815813,-0.001224517040776753,0.0,0.0,0.0,0.0,0.0,0.0,0.0,0.00010630979872583435,8.823401570763612e-05,-2.304034044964265e-05,0.00017251028928155776,-8.946848742733687e-05,3.7130779698468785e-05,-6.1035156261324275e-06,0.0006861890785419204,0.0014342621607244834,0.0007707572129324387,-0.00014206242143309253,0.00019183492511811318,0.00013671358626815813,0.001224517040776753,-0.13260537385940552,18.078760147094727,-1.1441986560821533,-18.222078323364258,-0.3619285225868225,-2.2753939628601074,0.18710653483867645,0
19,0.09001398086547852,0.13260537385940552,-18.130334854125977,1.0926239490509033,18.245882034301758,0.3555198311805725,2.2625765800476074,-0.24112264811992645,0.0,0.0,0.0,0.0,0.0,0.0,0.0,0.09402389156906844,0.5395499633659334,0.28823764866687784,0.6184187783880912,-0.06445828523184084,0.08770834547181149,-0.20839421109608672,-0.6091914846144224,-0.057616345436659,-0.6665782042003352,-2.59473072062039,-0.05553125885128975,2.507941380229902,0.8763229540106322,-0.6090851748156966,-0.05753196718556838,-0.666603097082616,-2.5945565370258534,-0.05562143941554,2.507976027223799,0.8763108487046415,-0.0008008856686804733,0.0004621308368023689,0.0002099107908866617,-7.548279689242487e-05,-1.371374580363926e-06,0.00041838105486609697,0.0012183752715213192,0.0,0.0,0.0,0.0,0.0,0.0,0.0,0.00010630979872583435,8.437825109061659e-05,-2.4892882280802553e-05,0.000174183594536359,-9.018056425025289e-05,3.4646993896991773e-05,-1.2105305990717241e-05,0.0008008856686804733,-0.0004621308368023689,-0.0002099107908866617,7.548279689242487e-05,1.371374580363926e-06,-0.00041838105486609697,-0.0012183752715213192,-0.13260537385940552,18.130334854125977,-1.0926239490509033,-18.245882034301758,-0.3555198311805725,-2.2625765800476074,0.24112264811992645,0
20,0.09499359130859375,0.13260537385940552,-18.130334854125977,1.0926239490509033,18.245882034301758,0.3555198311805725,2.2625765800476074,-0.24112264811992645,0.0,0.0,0.0,0.0,0.0,0.0,0.0,0.09402389156906844,0.5395499633659334,0.28823764866687784,0.6184187783880912,-0.06445828523184084,0.08770834547181149,-0.20839421109608672,-0.6091914846144224,-0.057616345436659,-0.6665782042003352,-2.59473072062039,-0.05553125885128975,2.507941380229902,0.8763229540106322,-0.6090851748156966,-0.05753196718556838,-0.666603097082616,-2.5945565370258534,-0.05562143941554,2.507976027223799,0.8763108487046415,-0.0008008856686804733,0.0004621308368023689,0.0002099107908866617,-7.548279689242487e-05,-1.371374580363926e-06,0.00041838105486609697,0.0012183752715213192,0.0,0.0,0.0,0.0,0.0,0.0,0.0,0.00010630979872583435,8.437825109061659e-05,-2.4892882280802553e-05,0.000174183594536359,-9.018056425025289e-05,3.4646993896991773e-05,-1.2105305990717241e-05,0.0008008856686804733,-0.0004621308368023689,-0.0002099107908866617,7.548279689242487e-05,1.371374580363926e-06,-0.00041838105486609697,-0.0012183752715213192,-0.13260537385940552,18.130334854125977,-1.0926239490509033,-18.245882034301758,-0.3555198311805725,-2.2625765800476074,0.24112264811992645,0
21,0.09999251365661621,0.08103066682815552,-18.106531143188477,1.1164276599884033,18.269685745239258,0.3674216866493225,2.2689852714538574,-0.19351522624492645,0.0,0.0,0.0,0.0,0.0,0.0,0.0,0.09813991131550484,0.5423366101769301,0.28872355932529814,0.6182061868078242,-0.06505312336181082,0.0881626433726866,-0.2080820238650449,-0.6091878653367361,-0.057618252358126384,-0.6665794324970401,-2.5947323825529924,-0.05553258127967516,2.5079406681590606,0.8763176642970906,-0.6090851748156966,-0.05753196718556838,-0.666603097082616,-2.5945565370258534,-0.05562143941554,2.507976027223799,0.8763108487046415,0.0005989021062609704,0.0002872942315933508,-0.00023221142941611924,-0.0007403465400925362,-0.0003150818069534939,0.00013751094863335685,-0.000909951376209138,0.0,0.0,0.0,0.0,0.0,0.0,0.0,0.00010269052103950571,8.628517255800106e-05,-2.36645855758999e-05,0.00017584552713900692,-8.885813586483743e-05,3.53590647383939e-05,-6.815592449083141e-06,-0.0005989021062609704,-0.0002872942315933508,0.00023221142941611924,0.0007403465400925362,0.0003150818069534939,-0.00013751094863335685,0.000909951376209138,-0.08103066682815552,18.106531143188477,-1.1164276599884033,-18.269685745239258,-0.3674216866493225,-2.2689852714538574,0.19351522624492645,0
22,0.10499405860900879,0.08103066682815552,-18.106531143188477,1.1164276599884033,18.269685745239258,0.3674216866493225,2.2689852714538574,-0.19351522624492645,0.0,0.0,0.0,0.0,0.0,0.0,0.0,0.09813991131550484,0.5423366101769301,0.28872355932529814,0.6182061868078242,-0.06505312336181082,0.0881626433726866,-0.2080820238650449,-0.6091878653367361,-0.057618252358126384,-0.6665794324970401,-2.5947323825529924,-0.05553258127967516,2.5079406681590606,0.8763176642970906,-0.6090851748156966,-0.05753196718556838,-0.666603097082616,-2.5945565370258534,-0.05562143941554,2.507976027223799,0.8763108487046415,0.0005989021062609704,0.0002872942315933508,-0.00023221142941611924,-0.0007403465400925362,-0.0003150818069534939,0.00013751094863335685,-0.000909951376209138,0.0,0.0,0.0,0.0,0.0,0.0,0.0,0.00010269052103950571,8.628517255800106e-05,-2.36645855758999e-05,0.00017584552713900692,-8.885813586483743e-05,3.53590647383939e-05,-6.815592449083141e-06,-0.0005989021062609704,-0.0002872942315933508,0.00023221142941611924,0.0007403465400925362,0.0003150818069534939,-0.00013751094863335685,0.000909951376209138,-0.08103066682815552,18.106531143188477,-1.1164276599884033,-18.269685745239258,-0.3674216866493225,-2.2689852714538574,0.19351522624492645,0
23,0.1099996566772461,0.08103066682815552,-18.130334854125977,1.0926239490509033,18.245882034301758,0.3555198311805725,2.2689852714538574,-0.23471395671367645,0.0,0.0,0.0,0.0,0.0,0.0,0.0,0.09860957041652606,0.5388361989888804,0.28893086030119436,0.6217747285185296,-0.06470459495639627,0.08878767425186873,-0.20903704344647905,-0.6091878653367361,-0.05761658192360609,-0.6665754749882238,-2.594730720620358,-0.05553125885128975,2.5079406289132042,0.8763222419338093,-0.6090851748156966,-0.05753196718556838,-0.666603097082616,-2.5945565370258534,-0.05562143941554,2.507976027223799,0.8763108487046415,0.0005764989148060952,0.00011407276276972778,0.0003191873894342462,0.00010233363220255055,9.678365779453218e-05,0.0002828621475598836,0.001308445739711186,0.0,0.0,0.0,0.0,0.0,0.0,0.0,0.00010269052103950571,8.461473803770408e-05,-2.7622094392221186e-05,0.0001741835945043846,-9.018056425025289e-05,3.5398310594736415e-05,-1.1393229167766528e-05,-0.0005764989148060952,-0.00011407276276972778,-0.0003191873894342462,-0.00010233363220255055,-9.678365779453218e-05,-0.0002828621475598836,-0.001308445739711186,-0.08103066682815552,18.130334854125977,-1.0926239490509033,-18.245882034301758,-0.3555198311805725,-2.2689852714538574,0.23471395671367645,0
24,0.11499333381652832,0.08103066682815552,-18.130334854125977,1.0926239490509033,18.245882034301758,0.3555198311805725,2.2689852714538574,-0.23471395671367645,0.0,0.0,0.0,0.0,0.0,0.0,0.0,0.09860957041652606,0.5388361989888804,0.28893086030119436,0.6217747285185296,-0.06470459495639627,0.08878767425186873,-0.20903704344647905,-0.6091878653367361,-0.05761658192360609,-0.6665754749882238,-2.594730720620358,-0.05553125885128975,2.5079406289132042,0.8763222419338093,-0.6090851748156966,-0.05753196718556838,-0.666603097082616,-2.5945565370258534,-0.05562143941554,2.507976027223799,0.8763108487046415,0.0005764989148060952,0.00011407276276972778,0.0003191873894342462,0.00010233363220255055,9.678365779453218e-05,0.0002828621475598836,0.001308445739711186,0.0,0.0,0.0,0.0,0.0,0.0,0.0,0.00010269052103950571,8.461473803770408e-05,-2.7622094392221186e-05,0.0001741835945043846,-9.018056425025289e-05,3.5398310594736415e-05,-1.1393229167766528e-05,-0.0005764989148060952,-0.00011407276276972778,-0.0003191873894342462,-0.00010233363220255055,-9.678365779453218e-05,-0.0002828621475598836,-0.001308445739711186,-0.08103066682815552,18.130334854125977,-1.0926239490509033,-18.245882034301758,-0.3555198311805725,-2.2689852714538574,0.23471395671367645,0
25,0.11999130249023438,0.05722695589065552,-18.130334854125977,1.1441986560821533,18.269685745239258,0.3619285225868225,2.2818026542663574,-0.20083944499492645,0.0,0.0,0.0,0.0,0.0,0.0,0.0,0.10223980011000267,0.5414180864892992,0.29034868497022276,0.6223151218463916,-0.06490081172048531,0.08842367009492369,-0.20834332727038402,-0.6091861949008808,-0.05761650309462373,-0.6665790422522395,-2.594732391056261,-0.05553197092811266,2.5079392026597644,0.8763184780991738,-0.6090851748156966,-0.05753196718556838,-0.666603097082616,-2.5945565370258534,-0.05562143941554,2.507976027223799,0.8763108487046415,0.0012950848417157986,0.0003232835128694349,-0.0010135107906050547,-0.0002788589406021803,-0.00022734386498709011,-0.00039160910894962624,-0.000543890799378886,0.0,0.0,0.0,0.0,0.0,0.0,0.0,0.00010102008518420025,8.453590905534852e-05,-2.405483037648537e-05,0.0001758540304077627,-8.946848742733687e-05,3.682456403453216e-05,-7.629394532360223e-06,-0.0012950848417157986,-0.0003232835128694349,0.0010135107906050547,0.0002788589406021803,0.00022734386498709011,0.00039160910894962624,0.000543890799378886,-0.05722695589065552,18.130334854125977,-1.1441986560821533,-18.269685745239258,-0.3619285225868225,-2.2818026542663574,0.20083944499492645,0
26,0.12499880790710449,0.05722695589065552,-18.130334854125977,1.1441986560821533,18.269685745239258,0.3619285225868225,2.2818026542663574,-0.20083944499492645,0.0,0.0,0.0,0.0,0.0,0.0,0.0,0.10223980011000267,0.5414180864892992,0.29034868497022276,0.6223151218463916,-0.06490081172048531,0.08842367009492369,-0.20834332727038402,-0.6091861949008808,-0.05761650309462373,-0.6665790422522395,-2.594732391056261,-0.05553197092811266,2.5079392026597644,0.8763184780991738,-0.6090851748156966,-0.05753196718556838,-0.666603097082616,-2.5945565370258534,-0.05562143941554,2.507976027223799,0.8763108487046415,0.0012950848417157986,0.0003232835128694349,-0.0010135107906050547,-0.0002788589406021803,-0.00022734386498709011,-0.00039160910894962624,-0.000543890799378886,0.0,0.0,0.0,0.0,0.0,0.0,0.0,0.00010102008518420025,8.453590905534852e-05,-2.405483037648537e-05,0.0001758540304077627,-8.946848742733687e-05,3.682456403453216e-05,-7.629394532360223e-06,-0.0012950848417157986,-0.0003232835128694349,0.0010135107906050547,0.0002788589406021803,0.00022734386498709011,0.00039160910894962624,0.000543890799378886,-0.05722695589065552,18.130334854125977,-1.1441986560821533,-18.269685745239258,-0.3619285225868225,-2.2818026542663574,0.20083944499492645,0
27,0.12999796867370605,0.05722695589065552,-18.154138565063477,1.0926239490509033,18.222078323364258,0.3674216866493225,2.2689852714538574,-0.18710653483867645,0.0,0.0,0.0,0.0,0.0,0.0,0.0,0.10133920092323419,0.5404281301966729,0.2878842263007797,0.6224426999221092,-0.06520132314742164,0.08788826885537936,-0.21031209514893914,-0.6091861949008808,-0.05761491148730584,-0.6665782072975344,-2.5947290501495583,-0.05553258127967516,2.5079406681588274,0.8763169522202676,-0.6090851748156966,-0.05753196718556838,-0.666603097082616,-2.5945565370258534,-0.05562143941554,2.507976027223799,0.8763108487046415,0.0007312054167121027,0.000738226222564373,0.0005389104484027293,0.0007673112859185897,-0.00027590208986965286,1.90578696828312e-05,-0.0009454453374121777,0.0,0.0,0.0,0.0,0.0,0.0,0.0,0.00010102008518420025,8.294430173745593e-05,-2.488978508163875e-05,0.00017251312370492045,-8.885813586483743e-05,3.535906497154073e-05,-6.1035156261324275e-06,-0.0007312054167121027,-0.000738226222564373,-0.0005389104484027293,-0.0007673112859185897,0.00027590208986965286,-1.90578696828312e-05,0.0009454453374121777,-0.05722695589065552,18.154138565063477,-1.0926239490509033,-18.222078323364258,-0.3674216866493225,-2.2689852714538574,0.18710653483867645,0
28,0.13499903678894043,0.05722695589065552,-18.154138565063477,1.0926239490509033,18.222078323364258,0.3674216866493225,2.2689852714538574,-0.18710653483867645,0.0,0.0,0.0,0.0,0.0,0.0,0.0,0.10133920092323419,0.5404281301966729,0.2878842263007797,0.6224426999221092,-0.06520132314742164,0.08788826885537936,-0.21031209514893914,-0.6091861949008808,-0.05761491148730584,-0.6665782072975344,-2.5947290501495583,-0.05553258127967516,2.5079406681588274,0.8763169522202676,-0.6090851748156966,-0.05753196718556838,-0.666603097082616,-2.5945565370258534,-0.05562143941554,2.507976027223799,0.8763108487046415,0.0007312054167121027,0.000738226222564373,0.0005389104484027293,0.0007673112859185897,-0.00027590208986965286,1.90578696828312e-05,-0.0009454453374121777,0.0,0.0,0.0,0.0,0.0,0.0,0.0,0.00010102008518420025,8.294430173745593e-05,-2.488978508163875e-05,0.00017251312370492045,-8.885813586483743e-05,3.535906497154073e-05,-6.1035156261324275e-06,-0.0007312054167121027,-0.000738226222564373,-0.0005389104484027293,-0.0007673112859185897,0.00027590208986965286,-1.90578696828312e-05,0.0009454453374121777,-0.05722695589065552,18.154138565063477,-1.0926239490509033,-18.222078323364258,-0.3674216866493225,-2.2689852714538574,0.18710653483867645,0
29,0.14000368118286133,0.13260537385940552,-18.078760147094727,1.1164276599884033,18.297456741333008,0.3555198311805725,2.2625765800476074,-0.20083944499492645,0.0,0.0,0.0,0.0,0.0,0.0,0.0,0.099257433046997,0.5410902156195827,0.28988572513932825,0.6245205070195256,-0.06499046884277836,0.08806529244469453,-0.2094998223915092,-0.6091914846144224,-0.057619964714345405,-0.6665771444636154,-2.594734339898092,-0.05553125885128975,2.507941340990027,0.8763184780991738,-0.6090851748156966,-0.05753196718556838,-0.666603097082616,-2.5945565370258534,-0.05562143941554,2.507976027223799,0.8763108487046415,-0.0012761160016459784,-0.0010013299993658848,-0.00014173042956756496,-0.0009797487239750662,0.0001398620300845312,0.00025040611455708403,-0.0007364599043507378,0.0,0.0,0.0,0.0,0.0,0.0,0.0,0.00010630979872583435,8.799752877702155e-05,-2.595261900062429e-05,0.00017780287223878588,-9.018056425025289e-05,3.4686233771896724e-05,-7.629394532360223e-06,0.0012761160016459784,0.0010013299993658848,0.00014173042956756496,0.0009797487239750662,-0.0001398620300845312,-0.00025040611455708403,0.0007364599043507378,-0.13260537385940552,18.078760147094727,-1.1164276599884033,-18.297456741333008,-0.3555198311805725,-2.2625765800476074,0.20083944499492645,0
30,0.14499616622924805,0.13260537385940552,-18.078760147094727,1.1164276599884033,18.297456741333008,0.3555198311805725,2.2625765800476074,-0.20083944499492645,0.0,0.0,0.0,0.0,0.0,0.0,0.0,0.099257433046997,0.5410902156195827,0.28988572513932825,0.6245205070195256,-0.06499046884277836,0.08806529244469453,-0.2094998223915092,-0.6091914846144224,-0.057619964714345405,-0.6665771444636154,-2.594734339898092,-0.05553125885128975,2.507941340990027,0.8763184780991738,-0.6090851748156966,-0.05753196718556838,-0.666603097082616,-2.5945565370258534,-0.05562143941554,2.507976027223799,0.8763108487046415,-0.0012761160016459784,-0.0010013299993658848,-0.00014173042956756496,-0.0009797487239750662,0.0001398620300845312,0.00025040611455708403,-0.0007364599043507378,0.0,0.0,0.0,0.0,0.0,0.0,0.0,0.00010630979872583435,8.799752877702155e-05,-2.595261900062429e-05,0.00017780287223878588,-9.018056425025289e-05,3.4686233771896724e-05,-7.629394532360223e-06,0.0012761160016459784,0.0010013299993658848,0.00014173042956756496,0.0009797487239750662,-0.0001398620300845312,-0.00025040611455708403,0.0007364599043507378,-0.13260537385940552,18.078760147094727,-1.1164276599884033,-18.297456741333008,-0.3555198311805725,-2.2625765800476074,0.20083944499492645,0
31,0.1499936580657959,0.18418008089065552,-18.106531143188477,1.1164276599884033,18.222078323364258,0.3555198311805725,2.2488436698913574,-0.21457235515117645,0.0,0.0,0.0,0.0,0.0,0.0,0.0,0.10023882231466265,0.5431091744852963,0.29441887275309714,0.6210539481769072,-0.0653819011273104,0.08752975935110455,-0.21087873257225934,-0.6091951038921088,-0.057618252358126384,-0.6665773294824405,-2.5947289736551307,-0.05553125885128975,2.5079427883769987,0.8763200039780801,-0.6090851748156966,-0.05753196718556838,-0.666603097082616,-2.5945565370258534,-0.05562143941554,2.507976027223799,0.8763108487046415,-0.0022447576132974103,-0.0003737633232030783,0.00019196650150768094,0.0002953979198143198,5.854960375486528e-05,0.0009048839627332713,0.00022644494853115736,0.0,0.0,0.0,0.0,0.0,0.0,0.0,0.00010992907641227401,8.628517255800106e-05,-2.5767600175474747e-05,0.00017243662927723946,-9.018056425025289e-05,3.323884680028755e-05,-9.155273438588019e-06,0.0022447576132974103,0.0003737633232030783,-0.00019196650150768094,-0.0002953979198143198,-5.854960375486528e-05,-0.0009048839627332713,-0.00022644494853115736,-0.18418008089065552,18.106531143188477,-1.1164276599884033,-18.222078323364258,-0.3555198311805725,-2.2488436698913574,0.21457235515117645,0
32,0.15499377250671387,0.18418008089065552,-18.106531143188477,1.1164276599884033,18.222078323364258,0.3555198311805725,2.2488436698913574,-0.21457235515117645,0.0,0.0,0.0,0.0,0.0,0.0,0.0,0.10023882231466265,0.5431091744852963,0.29441887275309714,0.6210539481769072,-0.0653819011273104,0.08752975935110455,-0.21087873257225934,-0.6091951038921088,-0.057618252358126384,-0.6665773294824405,-2.5947289736551307,-0.05553125885128975,2.5079427883769987,0.8763200039780801,-0.6090851748156966,-0.05753196718556838,-0.666603097082616,-2.5945565370258534,-0.05562143941554,2.507976027223799,0.8763108487046415,-0.0022447576132974103,-0.0003737633232030783,0.00019196650150768094,0.0002953979198143198,5.854960375486528e-05,0.0009048839627332713,0.00022644494853115736,0.0,0.0,0.0,0.0,0.0,0.0,0.0,0.00010992907641227401,8.628517255800106e-05,-2.5767600175474747e-05,0.00017243662927723946,-9.018056425025289e-05,3.323884680028755e-05,-9.155273438588019e-06,0.0022447576132974103,0.0003737633232030783,-0.00019196650150768094,-0.0002953979198143198,-5.854960375486528e-05,-0.0009048839627332713,-0.00022644494853115736,-0.18418008089065552,18.106531143188477,-1.1164276599884033,-18.222078323364258,-0.3555198311805725,-2.2488436698913574,0.21457235515117645,0
33,0.15999412536621094,0.18418008089065552,-18.106531143188477,1.1164276599884033,18.222078323364258,0.3555198311805725,2.2488436698913574,-0.21457235515117645,0.0,0.0,0.0,0.0,0.0,0.0,0.0,0.10023882231466265,0.5431091744852963,0.29441887275309714,0.6210539481769072,-0.0653819011273104,0.08752975935110455,-0.21087873257225934,-0.6091951038921088,-0.057618252358126384,-0.6665773294824405,-2.5947289736551307,-0.05553125885128975,2.5079427883769987,0.8763200039780801,-0.6090851748156966,-0.05753196718556838,-0.666603097082616,-2.5945565370258534,-0.05562143941554,2.507976027223799,0.8763108487046415,-0.0022447576132974103,-0.0003737633232030783,0.00019196650150768094,0.0002953979198143198,5.854960375486528e-05,0.0009048839627332713,0.00022644494853115736,0.0,0.0,0.0,0.0,0.0,0.0,0.0,0.00010992907641227401,8.628517255800106e-05,-2.5767600175474747e-05,0.00017243662927723946,-9.018056425025289e-05,3.323884680028755e-05,-9.155273438588019e-06,0.0022447576132974103,0.0003737633232030783,-0.00019196650150768094,-0.0002953979198143198,-5.854960375486528e-05,-0.0009048839627332713,-0.00022644494853115736,-0.18418008089065552,18.106531143188477,-1.1164276599884033,-18.222078323364258,-0.3555198311805725,-2.2488436698913574,0.21457235515117645,0
34,0.1649930477142334,0.18418008089065552,-18.106531143188477,1.1164276599884033,18.222078323364258,0.3555198311805725,2.2488436698913574,-0.21457235515117645,0.0,0.0,0.0,0.0,0.0,0.0,0.0,0.10023882231466265,0.5431091744852963,0.29441887275309714,0.6210539481769072,-0.0653819011273104,0.08752975935110455,-0.21087873257225934,-0.6091951038921088,-0.057618252358126384,-0.6665773294824405,-2.5947289736551307,-0.05553125885128975,2.5079427883769987,0.8763200039780801,-0.6090851748156966,-0.05753196718556838,-0.666603097082616,-2.5945565370258534,-0.05562143941554,2.507976027223799,0.8763108487046415,-0.0022447576132974103,-0.0003737633232030783,0.00019196650150768094,0.0002953979198143198,5.854960375486528e-05,0.0009048839627332713,0.00022644494853115736,0.0,0.0,0.0,0.0,0.0,0.0,0.0,0.00010992907641227401,8.628517255800106e-05,-2.5767600175474747e-05,0.00017243662927723946,-9.018056425025289e-05,3.323884680028755e-05,-9.155273438588019e-06,0.0022447576132974103,0.0003737633232030783,-0.00019196650150768094,-0.0002953979198143198,-5.854960375486528e-05,-0.0009048839627332713,-0.00022644494853115736,-0.18418008089065552,18.106531143188477,-1.1164276599884033,-18.222078323364258,-0.3555198311805725,-2.2488436698913574,0.21457235515117645,0
35,0.16999411582946777,0.10880166292190552,-18.130334854125977,1.1164276599884033,18.245882034301758,0.3619285225868225,2.2689852714538574,-0.22830526530742645,0.0,0.0,0.0,0.0,0.0,0.0,0.0,0.09354896803902976,0.5404069792409629,0.2882069812298573,0.6274519069493191,-0.06473082205557569,0.0878687383753411,-0.21073006531117375,-0.6091898230088849,-0.05761657900401415,-0.666579874489133,-2.594730720619974,-0.05553197092811266,2.5079406681583962,0.8763215298569863,-0.6090851748156966,-0.05753196718556838,-0.666603097082616,-2.5945565370258534,-0.05562143941554,2.507976027223799,0.8763108487046415,-0.00020723374427743919,0.00013372912685584697,-0.00037017363313526693,0.0006815820533033195,-0.00011807809018192774,0.00016353019990078058,0.0007633744064525633,0.0,0.0,0.0,0.0,0.0,0.0,0.0,0.00010464819318833918,8.461181844576782e-05,-2.3222593482974396e-05,0.0001741835941206915,-8.946848742733687e-05,3.5359065402751355e-05,-1.0681152344815814e-05,0.00020723374427743919,-0.00013372912685584697,0.00037017363313526693,-0.0006815820533033195,0.00011807809018192774,-0.00016353019990078058,-0.0007633744064525633,-0.10880166292190552,18.130334854125977,-1.1164276599884033,-18.245882034301758,-0.3619285225868225,-2.2689852714538574,0.22830526530742645,0
36,0.17499327659606934,0.10880166292190552,-18.130334854125977,1.1164276599884033,18.245882034301758,0.3619285225868225,2.2689852714538574,-0.22830526530742645,0.0,0.0,0.0,0.0,0.0,0.0,0.0,0.09354896803902976,0.5404069792409629,0.2882069812298573,0.6274519069493191,-0.06473082205557569,0.0878687383753411,-0.21073006531117375,-0.6091898230088849,-0.05761657900401415,-0.666579874489133,-2.594730720619974,-0.05553197092811266,2.5079406681583962,0.8763215298569863,-0.6090851748156966,-0.05753196718556838,-0.666603097082616,-2.5945565370258534,-0.05562143941554,2.507976027223799,0.8763108487046415,-0.00020723374427743919,0.00013372912685584697,-0.00037017363313526693,0.0006815820533033195,-0.00011807809018192774,0.00016353019990078058,0.0007633744064525633,0.0,0.0,0.0,0.0,0.0,0.0,0.0,0.00010464819318833918,8.461181844576782e-05,-2.3222593482974396e-05,0.0001741835941206915,-8.946848742733687e-05,3.5359065402751355e-05,-1.0681152344815814e-05,0.00020723374427743919,-0.00013372912685584697,0.00037017363313526693,-0.0006815820533033195,0.00011807809018192774,-0.00016353019990078058,-0.0007633744064525633,-0.10880166292190552,18.130334854125977,-1.1164276599884033,-18.245882034301758,-0.3619285225868225,-2.2689852714538574,0.22830526530742645,0
37,0.1799914836883545,0.10880166292190552,-18.130334854125977,1.1164276599884033,18.245882034301758,0.3619285225868225,2.2753939628601074,-0.17337362468242645,0.0,0.0,0.0,0.0,0.0,0.0,0.0,0.10053376022791644,0.5426922892288291,0.2924697252914631,0.6242073995420476,-0.065305384320496,0.08670984622564357,-0.21130556644904008,-0.609189814178617,-0.05761658188754527,-0.6665773014288543,-2.5947307206204058,-0.05553197092811266,2.5079399560822377,0.8763154263413614,-0.6090851748156966,-0.05753196718556838,-0.666603097082616,-2.5945565370258534,-0.05562143941554,2.507976027223799,0.8763108487046415,-0.0002935412790363812,2.8231980909614688e-05,1.6139523044616036e-06,0.00016599631078267096,-0.0002847288735237948,-0.00012476999802823286,-0.0014648836272259749,0.0,0.0,0.0,0.0,0.0,0.0,0.0,0.0001046393629203779,8.461470197689003e-05,-2.579565376170656e-05,0.00017418359455234622,-8.946848742733687e-05,3.607114156123359e-05,-4.577636719904632e-06,0.0002935412790363812,-2.8231980909614688e-05,-1.6139523044616036e-06,-0.00016599631078267096,0.0002847288735237948,0.00012476999802823286,0.0014648836272259749,-0.10880166292190552,18.130334854125977,-1.1164276599884033,-18.245882034301758,-0.3619285225868225,-2.2753939628601074,0.17337362468242645,0
38,0.18534135818481445,0.10880166292190552,-18.130334854125977,1.1164276599884033,18.245882034301758,0.3619285225868225,2.2753939628601074,-0.17337362468242645,0.0,0.0,0.0,0.0,0.0,0.0,0.0,0.10053376022791644,0.5426922892288291,0.2924697252914631,0.6242073995420476,-0.065305384320496,0.08670984622564357,-0.21130556644904008,-0.609189814178617,-0.05761658188754527,-0.6665773014288543,-2.5947307206204058,-0.05553197092811266,2.5079399560822377,0.8763154263413614,-0.6090851748156966,-0.05753196718556838,-0.666603097082616,-2.5945565370258534,-0.05562143941554,2.507976027223799,0.8763108487046415,-0.0002935412790363812,2.8231980909614688e-05,1.6139523044616036e-06,0.00016599631078267096,-0.0002847288735237948,-0.00012476999802823286,-0.0014648836272259749,0.0,0.0,0.0,0.0,0.0,0.0,0.0,0.0001046393629203779,8.461470197689003e-05,-2.579565376170656e-05,0.00017418359455234622,-8.946848742733687e-05,3.607114156123359e-05,-4.577636719904632e-06,0.0002935412790363812,-2.8231980909614688e-05,-1.6139523044616036e-06,-0.00016599631078267096,0.0002847288735237948,0.00012476999802823286,0.0014648836272259749,-0.10880166292190552,18.130334854125977,-1.1164276599884033,-18.245882034301758,-0.3619285225868225,-2.2753939628601074,0.17337362468242645,0
39,0.18999361991882324,0.10880166292190552,-18.130334854125977,1.0688202381134033,18.245882034301758,0.3555198311805725,2.2753939628601074,-0.22098104655742645,0.0,0.0,0.0,0.0,0.0,0.0,0.0,0.09685371184426804,0.5401327835885423,0.2887782252202521,0.6228726062437013,-0.06600431187225364,0.08701164410309718,-0.21080300641728822,-0.6091898141785672,-0.05761658192360589,-0.6665737352059917,-2.5947307205854133,-0.05553125885128975,2.507939838344668,0.876320716054903,-0.6090851748156966,-0.05753196718556838,-0.666603097082616,-2.5945565370258534,-0.05562143941554,2.507976027223799,0.8763108487046415,-0.0008056737642928393,8.553279189069408e-05,0.0010291025236374423,-0.0003136916099689804,0.00017526939049967646,-0.00015244631230361972,8.720374349740856e-05,0.0,0.0,0.0,0.0,0.0,0.0,0.0,0.00010463936287063991,8.46147380375098e-05,-2.9361876624278693e-05,0.00017418355955989284,-9.018056425025289e-05,3.618887913114932e-05,-9.867350261538732e-06,0.0008056737642928393,-8.553279189069408e-05,-0.0010291025236374423,0.0003136916099689804,-0.00017526939049967646,0.00015244631230361972,-8.720374349740856e-05,-0.10880166292190552,18.130334854125977,-1.0688202381134033,-18.245882034301758,-0.3555198311805725,-2.2753939628601074,0.22098104655742645,0
40,0.19499659538269043,0.10880166292190552,-18.130334854125977,1.0688202381134033,18.245882034301758,0.3555198311805725,2.2753939628601074,-0.22098104655742645,0.0,0.0,0.0,0.0,0.0,0.0,0.0,0.09685371184426804,0.5401327835885423,0.2887782252202521,0.6228726062437013,-0.06600431187225364,0.08701164410309718,-0.21080300641728822,-0.6091898141785672,-0.05761658192360589,-0.6665737352059917,-2.5947307205854133,-0.05553125885128975,2.507939838344668,0.876320716054903,-0.6090851748156966,-0.05753196718556838,-0.666603097082616,-2.5945565370258534,-0.05562143941554,2.507976027223799,0.8763108487046415,-0.0008056737642928393,8.553279189069408e-05,0.0010291025236374423,-0.0003136916099689804,0.00017526939049967646,-0.00015244631230361972,8.720374349740856e-05,0.0,0.0,0.0,0.0,0.0,0.0,0.0,0.00010463936287063991,8.46147380375098e-05,-2.9361876624278693e-05,0.00017418355955989284,-9.018056425025289e-05,3.618887913114932e-05,-9.867350261538732e-06,0.0008056737642928393,-8.553279189069408e-05,-0.0010291025236374423,0.0003136916099689804,-0.00017526939049967646,0.00015244631230361972,-8.720374349740856e-05,-0.10880166292190552,18.130334854125977,-1.0688202381134033,-18.245882034301758,-0.3555198311805725,-2.2753939628601074,0.22098104655742645,0
41,0.20000362396240234,0.13260537385940552,-18.106531143188477,1.1164276599884033,18.269685745239258,0.3500266671180725,2.2552523612976074,-0.20083944499492645,0.0,0.0,0.0,0.0,0.0,0.0,0.0,0.10018673980606162,0.5351608188329677,0.29386183665359034,0.623330522837513,-0.06638955353282758,0.08771687890149762,-0.21098037943370643,-0.6091914846144224,-0.057618173530478996,-0.6665798831901617,-2.594732289017034,-0.05553064849972725,2.5079421940373026,0.8763184780991738,-0.6090851748156966,-0.05753196718556838,-0.666603097082616,-2.5945565370258534,-0.05562143941554,2.507976027223799,0.8763108487046415,-0.0006942832900902168,-0.00040576893706830726,-0.00033932904498849744,-0.0006598271556906093,0.0001621915948117571,0.0003982155443837257,-0.0005422610297657493,0.0,0.0,0.0,0.0,0.0,0.0,0.0,0.00010630979872583435,8.620634491061235e-05,-2.3213892454299057e-05,0.0001757519911804728,-9.079091581275234e-05,3.383318649641254e-05,-7.629394532360223e-06,0.0006942832900902168,0.00040576893706830726,0.00033932904498849744,0.0006598271556906093,-0.0001621915948117571,-0.0003982155443837257,0.0005422610297657493,-0.13260537385940552,18.106531143188477,-1.1164276599884033,-18.269685745239258,-0.3500266671180725,-2.2552523612976074,0.20083944499492645,0
42,0.20500612258911133,0.13260537385940552,-18.106531143188477,1.1164276599884033,18.269685745239258,0.3500266671180725,2.2552523612976074,-0.20083944499492645,0.0,0.0,0.0,0.0,0.0,0.0,0.0,0.10018673980606162,0.5351608188329677,0.29386183665359034,0.623330522837513,-0.06638955353282758,0.08771687890149762,-0.21098037943370643,-0.6091914846144224,-0.057618173530478996,-0.6665798831901617,-2.594732289017034,-0.05553064849972725,2.5079421940373026,0.8763184780991738,-0.6090851748156966,-0.05753196718556838,-0.666603097082616,-2.5945565370258534,-0.05562143941554,2.507976027223799,0.8763108487046415,-0.0006942832900902168,-0.00040576893706830726,-0.00033932904498849744,-0.0006598271556906093,0.0001621915948117571,0.0003982155443837257,-0.0005422610297657493,0.0,0.0,0.0,0.0,0.0,0.0,0.0,0.00010630979872583435,8.620634491061235e-05,-2.3213892454299057e-05,0.0001757519911804728,-9.079091581275234e-05,3.383318649641254e-05,-7.629394532360223e-06,0.0006942832900902168,0.00040576893706830726,0.00033932904498849744,0.0006598271556906093,-0.0001621915948117571,-0.0003982155443837257,0.0005422610297657493,-0.13260537385940552,18.106531143188477,-1.1164276599884033,-18.269685745239258,-0.3500266671180725,-2.2552523612976074,0.20083944499492645,0
43,0.20999908447265625,0.13260537385940552,-18.106531143188477,1.0926239490509033,18.297456741333008,0.3555198311805725,2.2689852714538574,-0.22830526530742645,0.0,0.0,0.0,0.0,0.0,0.0,0.0,0.09561727797259693,0.5349195824919173,0.28756849575939974,0.6229776514045594,-0.06670327766781481,0.08674997925459302,-0.21193878237196415,-0.6091914846144224,-0.05761825235901637,-0.6665753961336482,-2.594732273603164,-0.05553125885128975,2.5079406289132042,0.8763215298569863,-0.6090851748156966,-0.05753196718556838,-0.666603097082616,-2.5945565370258534,-0.05562143941554,2.507976027223799,0.8763108487046415,-0.0006973755793392742,-0.000610527853207016,0.00041547525181050425,-0.0011360708879984917,-7.201147872172369e-05,0.00011800223111697701,0.00019549373280234868,0.0,0.0,0.0,0.0,0.0,0.0,0.0,0.00010630979872583435,8.628517344798359e-05,-2.77009489677571e-05,0.00017573657731073666,-9.018056425025289e-05,3.5398310594736415e-05,-1.0681152344815814e-05,0.0006973755793392742,0.000610527853207016,-0.00041547525181050425,0.0011360708879984917,7.201147872172369e-05,-0.00011800223111697701,-0.00019549373280234868,-0.13260537385940552,18.106531143188477,-1.0926239490509033,-18.297456741333008,-0.3555198311805725,-2.2689852714538574,0.22830526530742645,0
44,0.21499395370483398,0.13260537385940552,-18.106531143188477,1.0926239490509033,18.297456741333008,0.3555198311805725,2.2689852714538574,-0.22830526530742645,0.0,0.0,0.0,0.0,0.0,0.0,0.0,0.09561727797259693,0.5349195824919173,0.28756849575939974,0.6229776514045594,-0.06670327766781481,0.08674997925459302,-0.21193878237196415,-0.6091914846144224,-0.05761825235901637,-0.6665753961336482,-2.594732273603164,-0.05553125885128975,2.5079406289132042,0.8763215298569863,-0.6090851748156966,-0.05753196718556838,-0.666603097082616,-2.5945565370258534,-0.05562143941554,2.507976027223799,0.8763108487046415,-0.0006973755793392742,-0.000610527853207016,0.00041547525181050425,-0.0011360708879984917,-7.201147872172369e-05,0.00011800223111697701,0.00019549373280234868,0.0,0.0,0.0,0.0,0.0,0.0,0.0,0.00010630979872583435,8.628517344798359e-05,-2.77009489677571e-05,0.00017573657731073666,-9.018056425025289e-05,3.5398310594736415e-05,-1.0681152344815814e-05,0.0006973755793392742,0.000610527853207016,-0.00041547525181050425,0.0011360708879984917,7.201147872172369e-05,-0.00011800223111697701,-0.00019549373280234868,-0.13260537385940552,18.106531143188477,-1.0926239490509033,-18.297456741333008,-0.3555198311805725,-2.2689852714538574,0.22830526530742645,0
45,0.21999144554138184,0.13260537385940552,-18.106531143188477,1.0926239490509033,18.245882034301758,0.3555198311805725,2.2882113456726074,-0.16604940593242645,0.0,0.0,0.0,0.0,0.0,0.0,0.0,0.10210001663141022,0.5413585950695814,0.2906407489731028,0.6211279533511136,-0.0667846868497159,0.08601776392061024,-0.21337274400708778,-0.6091914846144224,-0.057618173530478996,-0.6665754306779242,-2.5947307206087418,-0.05553125885128975,2.5079385317668645,0.876314612539278,-0.6090851748156966,-0.05753196718556838,-0.666603097082616,-2.5945565370258534,-0.05562143941554,2.507976027223799,0.8763108487046415,-0.0005786416273072942,5.5403738487782344e-05,0.00027441613625628505,-0.0001453756801573351,0.00010264417259609248,-0.0006366818830250297,-0.0014793763188306176,0.0,0.0,0.0,0.0,0.0,0.0,0.0,0.00010630979872583435,8.620634491061235e-05,-2.7666404691761848e-05,0.00017418358288834312,-9.018056425025289e-05,3.7495456934433236e-05,-3.7638346365165276e-06,0.0005786416273072942,-5.5403738487782344e-05,-0.00027441613625628505,0.0001453756801573351,-0.00010264417259609248,0.0006366818830250297,0.0014793763188306176,-0.13260537385940552,18.106531143188477,-1.0926239490509033,-18.245882034301758,-0.3555198311805725,-2.2882113456726074,0.16604940593242645,0
46,0.22499489784240723,0.13260537385940552,-18.106531143188477,1.0926239490509033,18.245882034301758,0.3555198311805725,2.2882113456726074,-0.16604940593242645,0.0,0.0,0.0,0.0,0.0,0.0,0.0,0.10210001663141022,0.5413585950695814,0.2906407489731028,0.6211279533511136,-0.0667846868497159,0.08601776392061024,-0.21337274400708778,-0.6091914846144224,-0.057618173530478996,-0.6665754306779242,-2.5947307206087418,-0.05553125885128975,2.5079385317668645,0.876314612539278,-0.6090851748156966,-0.05753196718556838,-0.666603097082616,-2.5945565370258534,-0.05562143941554,2.507976027223799,0.8763108487046415,-0.0005786416273072942,5.5403738487782344e-05,0.00027441613625628505,-0.0001453756801573351,0.00010264417259609248,-0.0006366818830250297,-0.0014793763188306176,0.0,0.0,0.0,0.0,0.0,0.0,0.0,0.00010630979872583435,8.620634491061235e-05,-2.7666404691761848e-05,0.00017418358288834312,-9.018056425025289e-05,3.7495456934433236e-05,-3.7638346365165276e-06,0.0005786416273072942,-5.5403738487782344e-05,-0.00027441613625628505,0.0001453756801573351,-0.00010264417259609248,0.0006366818830250297,0.0014793763188306176,-0.13260537385940552,18.106531143188477,-1.0926239490509033,-18.245882034301758,-0.3555198311805725,-2.2882113456726074,0.16604940593242645,0
47,0.22999191284179688,0.10880166292190552,-18.106531143188477,1.1164276599884033,18.269685745239258,0.3619285225868225,2.2625765800476074,-0.19351522624492645,0.0,0.0,0.0,0.0,0.0,0.0,0.0,0.10097474909920356,0.5363479123491642,0.28931791085942976,0.6278689081332659,-0.06630800265531242,0.08758399671952606,-0.2115685248744649,-0.6091898141785672,-0.05761753997858315,-0.6665799120439484,-2.594732391056261,-0.05553185263864788,2.5079413802358825,0.8763176642970906,-0.6090851748156966,-0.05753196718556838,-0.666603097082616,-2.5945565370258534,-0.05562143941554,2.507976027223799,0.8763108487046415,-0.00024887005547637354,-0.00010618337160621239,9.963637340976201e-05,-0.0003576126109148074,-0.0002678348290390671,0.0005034098300344732,-0.001256419214184571,0.0,0.0,0.0,0.0,0.0,0.0,0.0,0.00010463936287063991,8.5572793014764e-05,-2.3185038667605795e-05,0.0001758540304077627,-8.958677689212269e-05,3.4646987916442384e-05,-6.815592449083141e-06,0.00024887005547637354,0.00010618337160621239,-9.963637340976201e-05,0.0003576126109148074,0.0002678348290390671,-0.0005034098300344732,0.001256419214184571,-0.10880166292190552,18.106531143188477,-1.1164276599884033,-18.269685745239258,-0.3619285225868225,-2.2625765800476074,0.19351522624492645,0
48,0.23499560356140137,0.10880166292190552,-18.106531143188477,1.1164276599884033,18.269685745239258,0.3619285225868225,2.2625765800476074,-0.19351522624492645,0.0,0.0,0.0,0.0,0.0,0.0,0.0,0.10097474909920356,0.5363479123491642,0.28931791085942976,0.6278689081332659,-0.06630800265531242,0.08758399671952606,-0.2115685248744649,-0.6091898141785672,-0.05761753997858315,-0.6665799120439484,-2.594732391056261,-0.05553185263864788,2.5079413802358825,0.8763176642970906,-0.6090851748156966,-0.05753196718556838,-0.666603097082616,-2.5945565370258534,-0.05562143941554,2.507976027223799,0.8763108487046415,-0.00024887005547637354,-0.00010618337160621239,9.963637340976201e-05,-0.0003576126109148074,-0.0002678348290390671,0.0005034098300344732,-0.001256419214184571,0.0,0.0,0.0,0.0,0.0,0.0,0.0,0.00010463936287063991,8.5572793014764e-05,-2.3185038667605795e-05,0.0001758540304077627,-8.958677689212269e-05,3.4646987916442384e-05,-6.815592449083141e-06,0.00024887005547637354,0.00010618337160621239,-9.963637340976201e-05,0.0003576126109148074,0.0002678348290390671,-0.0005034098300344732,0.001256419214184571,-0.10880166292190552,18.106531143188477,-1.1164276599884033,-18.269685745239258,-0.3619285225868225,-2.2625765800476074,0.19351522624492645,0
49,0.23999452590942383,0.08103066682815552,-18.154138565063477,1.0926239490509033,18.222078323364258,0.3619285225868225,2.2818026542663574,-0.20083944499492645,0.0,0.0,0.0,0.0,0.0,0.0,0.0,0.09696090036338251,0.5359172415642804,0.2863672356184303,0.625997494554022,-0.06604226306961426,0.08759208130247473,-0.21274344726629876,-0.6091878653367361,-0.0576149114756866,-0.6665754740600808,-2.594729050184551,-0.05553197092610942,2.507939244005415,0.8763184780991738,-0.6090851748156966,-0.05753196718556838,-0.666603097082616,-2.5945565370258534,-0.05562143941554,2.507976027223799,0.8763108487046415,5.275251054564409e-05,0.0004800047782379482,9.957942166212568e-05,0.0006195789300529992,-3.515759246449567e-05,-0.0002955328397272624,-2.671350564541728e-05,0.0,0.0,0.0,0.0,0.0,0.0,0.0,0.00010269052103950571,8.294429011821564e-05,-2.762302253522808e-05,0.00017251315869737383,-8.946848943058167e-05,3.678321838407328e-05,-7.629394532360223e-06,-5.275251054564409e-05,-0.0004800047782379482,-9.957942166212568e-05,-0.0006195789300529992,3.515759246449567e-05,0.0002955328397272624,2.671350564541728e-05,-0.08103066682815552,18.154138565063477,-1.0926239490509033,-18.222078323364258,-0.3619285225868225,-2.2818026542663574,0.20083944499492645,0
50,0.2449960708618164,0.08103066682815552,-18.154138565063477,1.0926239490509033,18.222078323364258,0.3619285225868225,2.2818026542663574,-0.20083944499492645,0.0,0.0,0.0,0.0,0.0,0.0,0.0,0.09696090036338251,0.5359172415642804,0.2863672356184303,0.625997494554022,-0.06604226306961426,0.08759208130247473,-0.21274344726629876,-0.6091878653367361,-0.0576149114756866,-0.6665754740600808,-2.594729050184551,-0.05553197092610942,2.507939244005415,0.8763184780991738,-0.6090851748156966,-0.05753196718556838,-0.666603097082616,-2.5945565370258534,-0.05562143941554,2.507976027223799,0.8763108487046415,5.275251054564409e-05,0.0004800047782379482,9.957942166212568e-05,0.0006195789300529992,-3.515759246449567e-05,-0.0002955328397272624,-2.671350564541728e-05,0.0,0.0,0.0,0.0,0.0,0.0,0.0,0.00010269052103950571,8.294429011821564e-05,-2.762302253522808e-05,0.00017251315869737383,-8.946848943058167e-05,3.678321838407328e-05,-7.629394532360223e-06,-5.275251054564409e-05,-0.0004800047782379482,-9.957942166212568e-05,-0.0006195789300529992,3.515759246449567e-05,0.0002955328397272624,2.671350564541728e-05,-0.08103066682815552,18.154138565063477,-1.0926239490509033,-18.222078323364258,-0.3619285225868225,-2.2818026542663574,0.20083944499492645,0
51,0.24999666213989258,0.13260537385940552,-18.177942276000977,1.0926239490509033,18.245882034301758,0.3619285225868225,2.2689852714538574,-0.18710653483867645,0.0,0.0,0.0,0.0,0.0,0.0,0.0,0.10636022651294362,0.5410671673696964,0.29627880368432824,0.6233740964460254,-0.06640783944600541,0.08777604076118192,-0.21226752203070795,-0.6091921998701597,-0.057612531591054214,-0.6665753960111908,-2.5947307206204058,-0.05553197092811265,2.5079406143777017,0.8763169522202676,-0.6090851748156966,-0.05753196718556838,-0.666603097082616,-2.5945565370258534,-0.05562143941554,2.507976027223799,0.8763108487046415,-0.0003566799178892307,0.0015161336156960766,0.0006790730205991103,9.53491381009534e-05,-0.00024318968921669223,3.03035469376553e-06,-0.0013215623215078753,0.0,0.0,0.0,0.0,0.0,0.0,0.0,0.00010702505446313904,8.056440548583066e-05,-2.7701071425245694e-05,0.00017418359455234622,-8.946848742735075e-05,3.5412846097315764e-05,-6.1035156261324275e-06,0.0003566799178892307,-0.0015161336156960766,-0.0006790730205991103,-9.53491381009534e-05,0.00024318968921669223,-3.03035469376553e-06,0.0013215623215078753,-0.13260537385940552,18.177942276000977,-1.0926239490509033,-18.245882034301758,-0.3619285225868225,-2.2689852714538574,0.18710653483867645,0
52,0.2549927234649658,0.13260537385940552,-18.177942276000977,1.0926239490509033,18.245882034301758,0.3619285225868225,2.2689852714538574,-0.18710653483867645,0.0,0.0,0.0,0.0,0.0,0.0,0.0,0.10636022651294362,0.5410671673696964,0.29627880368432824,0.6233740964460254,-0.06640783944600541,0.08777604076118192,-0.21226752203070795,-0.6091921998701597,-0.057612531591054214,-0.6665753960111908,-2.5947307206204058,-0.05553197092811265,2.5079406143777017,0.8763169522202676,-0.6090851748156966,-0.05753196718556838,-0.666603097082616,-2.5945565370258534,-0.05562143941554,2.507976027223799,0.8763108487046415,-0.0003566799178892307,0.0015161336156960766,0.0006790730205991103,9.53491381009534e-05,-0.00024318968921669223,3.03035469376553e-06,-0.0013215623215078753,0.0,0.0,0.0,0.0,0.0,0.0,0.0,0.00010702505446313904,8.056440548583066e-05,-2.7701071425245694e-05,0.00017418359455234622,-8.946848742735075e-05,3.5412846097315764e-05,-6.1035156261324275e-06,0.0003566799178892307,-0.0015161336156960766,-0.0006790730205991103,-9.53491381009534e-05,0.00024318968921669223,-3.03035469376553e-06,0.0013215623215078753,-0.13260537385940552,18.177942276000977,-1.0926239490509033,-18.245882034301758,-0.3619285225868225,-2.2689852714538574,0.18710653483867645,0
53,0.2599947452545166,0.08103066682815552,-18.130334854125977,1.0688202381134033,18.245882034301758,0.3555198311805725,2.2818026542663574,-0.20083944499492645,0.0,0.0,0.0,0.0,0.0,0.0,0.0,0.09728503807256274,0.5350218804402381,0.28542833840041476,0.6304328444656745,-0.06579180992376417,0.08845729743389655,-0.2123321359614079,-0.6091878653380819,-0.05761658192227112,-0.6665738382788742,-2.594730712117137,-0.05553125885128974,2.507939126267744,0.8763184780991738,-0.6090851748156966,-0.05753196718556838,-0.666603097082616,-2.5945565370258534,-0.05562143941554,2.507976027223799,0.8763108487046415,0.0006386296521656326,7.3521929754165e-05,0.00041828750372733907,0.000765164364156574,0.00012041949856596592,-0.00042681517901571185,-0.0004597231059694703,0.0,0.0,0.0,0.0,0.0,0.0,0.0,0.00010269052238531806,8.461473670273723e-05,-2.925880374182732e-05,0.00017417509128359043,-9.018056425025983e-05,3.690095605479726e-05,-7.629394532360223e-06,-0.0006386296521656326,-7.3521929754165e-05,-0.00041828750372733907,-0.000765164364156574,-0.00012041949856596592,0.00042681517901571185,0.0004597231059694703,-0.08103066682815552,18.130334854125977,-1.0688202381134033,-18.245882034301758,-0.3555198311805725,-2.2818026542663574,0.20083944499492645,0
54,0.2649965286254883,0.08103066682815552,-18.130334854125977,1.0688202381134033,18.245882034301758,0.3555198311805725,2.2818026542663574,-0.20083944499492645,0.0,0.0,0.0,0.0,0.0,0.0,0.0,0.09728503807256274,0.5350218804402381,0.28542833840041476,0.6304328444656745,-0.06579180992376417,0.08845729743389655,-0.2123321359614079,-0.6091878653380819,-0.05761658192227112,-0.6665738382788742,-2.594730712117137,-0.05553125885128974,2.507939126267744,0.8763184780991738,-0.6090851748156966,-0.05753196718556838,-0.666603097082616,-2.5945565370258534,-0.05562143941554,2.507976027223799,0.8763108487046415,0.0006386296521656326,7.3521929754165e-05,0.00041828750372733907,0.000765164364156574,0.00012041949856596592,-0.00042681517901571185,-0.0004597231059694703,0.0,0.0,0.0,0.0,0.0,0.0,0.0,0.00010269052238531806,8.461473670273723e-05,-2.925880374182732e-05,0.00017417509128359043,-9.018056425025983e-05,3.690095605479726e-05,-7.629394532360223e-06,-0.0006386296521656326,-7.3521929754165e-05,-0.00041828750372733907,-0.000765164364156574,-0.00012041949856596592,0.00042681517901571185,0.0004597231059694703,-0.08103066682815552,18.130334854125977,-1.0688202381134033,-18.245882034301758,-0.3555198311805725,-2.2818026542663574,0.20083944499492645,0
55,0.2700064182281494,0.08103066682815552,-18.130334854125977,1.0926239490509033,18.269685745239258,0.3555198311805725,2.2753939628601074,-0.20083944499492645,0.0,0.0,0.0,0.0,0.0,0.0,0.0,0.0978378976243069,0.5417194446527557,0.28492180439251485,0.6224859289019461,-0.06625040633917736,0.08729523006640359,-0.21208036382631382,-0.6091878653367361,-0.05761658192360609,-0.6665753960113865,-2.5947323910562132,-0.05553125885128974,2.5079399560815734,0.8763184780991738,-0.6090851748156966,-0.05753196718556838,-0.666603097082616,-2.5945565370258534,-0.05562143941554,2.507976027223799,0.8763108487046415,7.553450109555238e-05,0.0004951621584383959,0.000126968777371347,-0.0008321003651793765,8.886359591769465e-05,-8.231755776046408e-05,-0.0009936119262386018,0.0,0.0,0.0,0.0,0.0,0.0,0.0,0.00010269052103950571,8.461473803770408e-05,-2.7701071229513374e-05,0.00017585403035980107,-9.018056425025983e-05,3.6071142225591046e-05,-7.629394532360223e-06,-7.553450109555238e-05,-0.0004951621584383959,-0.000126968777371347,0.0008321003651793765,-8.886359591769465e-05,8.231755776046408e-05,0.0009936119262386018,-0.08103066682815552,18.130334854125977,-1.0926239490509033,-18.269685745239258,-0.3555198311805725,-2.2753939628601074,0.20083944499492645,0
56,0.2749948501586914,0.08103066682815552,-18.130334854125977,1.0926239490509033,18.269685745239258,0.3555198311805725,2.2753939628601074,-0.20083944499492645,0.0,0.0,0.0,0.0,0.0,0.0,0.0,0.0978378976243069,0.5417194446527557,0.28492180439251485,0.6224859289019461,-0.06625040633917736,0.08729523006640359,-0.21208036382631382,-0.6091878653367361,-0.05761658192360609,-0.6665753960113865,-2.5947323910562132,-0.05553125885128974,2.5079399560815734,0.8763184780991738,-0.6090851748156966,-0.05753196718556838,-0.666603097082616,-2.5945565370258534,-0.05562143941554,2.507976027223799,0.8763108487046415,7.553450109555238e-05,0.0004951621584383959,0.000126968777371347,-0.0008321003651793765,8.886359591769465e-05,-8.231755776046408e-05,-0.0009936119262386018,0.0,0.0,0.0,0.0,0.0,0.0,0.0,0.00010269052103950571,8.461473803770408e-05,-2.7701071229513374e-05,0.00017585403035980107,-9.018056425025983e-05,3.6071142225591046e-05,-7.629394532360223e-06,-7.553450109555238e-05,-0.0004951621584383959,-0.000126968777371347,0.0008321003651793765,-8.886359591769465e-05,8.231755776046408e-05,0.0009936119262386018,-0.08103066682815552,18.130334854125977,-1.0926239490509033,-18.269685745239258,-0.3555198311805725,-2.2753939628601074,0.20083944499492645,0
57,0.2799968719482422,0.10880166292190552,-18.177942276000977,1.0926239490509033,18.222078323364258,0.3555198311805725,2.2625765800476074,-0.22830526530742645,0.0,0.0,0.0,0.0,0.0,0.0,0.0,0.09349184123264313,0.5344169539213757,0.28246919474652804,0.6279573881101514,-0.06639309155046251,0.08927180667020305,-0.2121035148603904,-0.6091898141785672,-0.05761321477556811,-0.6665761066878042,-2.594729050184551,-0.05553125885128974,2.5079413279080747,0.8763215298569863,-0.6090851748156966,-0.05753196718556838,-0.666603097082616,-2.5945565370258534,-0.05562143941554,2.507976027223799,0.8763108487046415,-0.00045666952925470645,0.0010521150123192825,7.516067596368043e-05,0.0007932024042038949,-2.1946923031779037e-05,0.0002785899402067228,0.0008278290655607279,0.0,0.0,0.0,0.0,0.0,0.0,0.0,0.00010463936287063991,8.12475899997292e-05,-2.699039481179888e-05,0.00017251315869737383,-9.018056425025983e-05,3.4699315724306956e-05,-1.0681152344815814e-05,0.00045666952925470645,-0.0010521150123192825,-7.516067596368043e-05,-0.0007932024042038949,2.1946923031779037e-05,-0.0002785899402067228,-0.0008278290655607279,-0.10880166292190552,18.177942276000977,-1.0926239490509033,-18.222078323364258,-0.3555198311805725,-2.2625765800476074,0.22830526530742645,0
58,0.2849442958831787,0.10880166292190552,-18.177942276000977,1.0926239490509033,18.222078323364258,0.3555198311805725,2.2625765800476074,-0.22830526530742645,0.0,0.0,0.0,0.0,0.0,0.0,0.0,0.09349184123264313,0.5344169539213757,0.28246919474652804,0.6279573881101514,-0.06639309155046251,0.08927180667020305,-0.2121035148603904,-0.6091898141785672,-0.05761321477556811,-0.6665761066878042,-2.594729050184551,-0.05553125885128974,2.5079413279080747,0.8763215298569863,-0.6090851748156966,-0.05753196718556838,-0.666603097082616,-2.5945565370258534,-0.05562143941554,2.507976027223799,0.8763108487046415,-0.00045666952925470645,0.0010521150123192825,7.516067596368043e-05,0.0007932024042038949,-2.1946923031779037e-05,0.0002785899402067228,0.0008278290655607279,0.0,0.0,0.0,0.0,0.0,0.0,0.0,0.00010463936287063991,8.12475899997292e-05,-2.699039481179888e-05,0.00017251315869737383,-9.018056425025983e-05,3.4699315724306956e-05,-1.0681152344815814e-05,0.00045666952925470645,-0.0010521150123192825,-7.516067596368043e-05,-0.0007932024042038949,2.1946923031779037e-05,-0.0002785899402067228,-0.0008278290655607279,-0.10880166292190552,18.177942276000977,-1.0926239490509033,-18.222078323364258,-0.3555198311805725,-2.2625765800476074,0.22830526530742645,0
59,0.2899956703186035,0.08103066682815552,-18.130334854125977,1.0926239490509033,18.269685745239258,0.3555198311805725,2.2753939628601074,-0.22098104655742645,0.0,0.0,0.0,0.0,0.0,0.0,0.0,0.0931524587805137,0.5381930095547869,0.28237852212844217,0.6238051617896665,-0.06679460658117492,0.08800883151434157,-0.21152832269547006,-0.6091885807014896,-0.05761658192345777,-0.6665753998666701,-2.594732390111454,-0.05553125885128974,2.5079399546283923,0.8763206768090465,-0.6090851748156966,-0.05753196718556838,-0.666603097082616,-2.5945565370258534,-0.05562143941554,2.507976027223799,0.8763108487046415,0.00046770114346985953,-0.00010848896804835659,-0.00025213825449029435,-0.0006360322059583832,0.00027245210868783934,9.21214960664827e-05,0.00018046154365981853,0.0,0.0,0.0,0.0,0.0,0.0,0.0,0.00010340588579305088,8.461473788938523e-05,-2.7697215945865494e-05,0.00017585308560041923,-9.018056425025983e-05,3.607259540672203e-05,-9.82810440497417e-06,-0.00046770114346985953,0.00010848896804835659,0.00025213825449029435,0.0006360322059583832,-0.00027245210868783934,-9.21214960664827e-05,-0.00018046154365981853,-0.08103066682815552,18.130334854125977,-1.0926239490509033,-18.269685745239258,-0.3555198311805725,-2.2753939628601074,0.22098104655742645,0
60,0.295001745223999,0.08103066682815552,-18.130334854125977,1.0926239490509033,18.269685745239258,0.3555198311805725,2.2753939628601074,-0.22098104655742645,0.0,0.0,0.0,0.0,0.0,0.0,0.0,0.0931524587805137,0.5381930095547869,0.28237852212844217,0.6238051617896665,-0.06679460658117492,0.08800883151434157,-0.21152832269547006,-0.6091885807014896,-0.05761658192345777,-0.6665753998666701,-2.594732390111454,-0.05553125885128974,2.5079399546283923,0.8763206768090465,-0.6090851748156966,-0.05753196718556838,-0.666603097082616,-2.5945565370258534,-0.05562143941554,2.507976027223799,0.8763108487046415,0.00046770114346985953,-0.00010848896804835659,-0.00025213825449029435,-0.0006360322059583832,0.00027245210868783934,9.21214960664827e-05,0.00018046154365981853,0.0,0.0,0.0,0.0,0.0,0.0,0.0,0.00010340588579305088,8.461473788938523e-05,-2.7697215945865494e-05,0.00017585308560041923,-9.018056425025983e-05,3.607259540672203e-05,-9.82810440497417e-06,-0.00046770114346985953,0.00010848896804835659,0.00025213825449029435,0.0006360322059583832,-0.00027245210868783934,-9.21214960664827e-05,-0.00018046154365981853,-0.08103066682815552,18.130334854125977,-1.0926239490509033,-18.269685745239258,-0.3555198311805725,-2.2753939628601074,0.22098104655742645,0
61,0.3000071048736572,0.08103066682815552,-18.130334854125977,1.0926239490509033,18.269685745239258,0.3555198311805725,2.2753939628601074,-0.22098104655742645,0.0,0.0,0.0,0.0,0.0,0.0,0.0,0.0931524587805137,0.5381930095547869,0.28237852212844217,0.6238051617896665,-0.06679460658117492,0.08800883151434157,-0.21152832269547006,-0.6091885807014896,-0.05761658192345777,-0.6665753998666701,-2.594732390111454,-0.05553125885128974,2.5079399546283923,0.8763206768090465,-0.6090851748156966,-0.05753196718556838,-0.666603097082616,-2.5945565370258534,-0.05562143941554,2.507976027223799,0.8763108487046415,0.00046770114346985953,-0.00010848896804835659,-0.00025213825449029435,-0.0006360322059583832,0.00027245210868783934,9.21214960664827e-05,0.00018046154365981853,0.0,0.0,0.0,0.0,0.0,0.0,0.0,0.00010340588579305088,8.461473788938523e-05,-2.7697215945865494e-05,0.00017585308560041923,-9.018056425025983e-05,3.607259540672203e-05,-9.82810440497417e-06,-0.00046770114346985953,0.00010848896804835659,0.00025213825449029435,0.0006360322059583832,-0.00027245210868783934,-9.21214960664827e-05,-0.00018046154365981853,-0.08103066682815552,18.130334854125977,-1.0926239490509033,-18.269685745239258,-0.3555198311805725,-2.2753939628601074,0.22098104655742645,0
62,0.3049890995025635,0.08103066682815552,-18.130334854125977,1.0926239490509033,18.269685745239258,0.3555198311805725,2.2753939628601074,-0.22098104655742645,0.0,0.0,0.0,0.0,0.0,0.0,0.0,0.0931524587805137,0.5381930095547869,0.28237852212844217,0.6238051617896665,-0.06679460658117492,0.08800883151434157,-0.21152832269547006,-0.6091885807014896,-0.05761658192345777,-0.6665753998666701,-2.594732390111454,-0.05553125885128974,2.5079399546283923,0.8763206768090465,-0.6090851748156966,-0.05753196718556838,-0.666603097082616,-2.5945565370258534,-0.05562143941554,2.507976027223799,0.8763108487046415,0.00046770114346985953,-0.00010848896804835659,-0.00025213825449029435,-0.0006360322059583832,0.00027245210868783934,9.21214960664827e-05,0.00018046154365981853,0.0,0.0,0.0,0.0,0.0,0.0,0.0,0.00010340588579305088,8.461473788938523e-05,-2.7697215945865494e-05,0.00017585308560041923,-9.018056425025983e-05,3.607259540672203e-05,-9.82810440497417e-06,-0.00046770114346985953,0.00010848896804835659,0.00025213825449029435,0.0006360322059583832,-0.00027245210868783934,-9.21214960664827e-05,-0.00018046154365981853,-0.08103066682815552,18.130334854125977,-1.0926239490509033,-18.269685745239258,-0.3555198311805725,-2.2753939628601074,0.22098104655742645,0
63,0.3099939823150635,0.16037636995315552,-18.154138565063477,1.1164276599884033,18.269685745239258,0.3555198311805725,2.2689852714538574,-0.20083944499492645,0.0,0.0,0.0,0.0,0.0,0.0,0.0,0.09562653646311357,0.5348342876741816,0.2847494001181046,0.6257279379424255,-0.06646089095881184,0.08911029065906634,-0.212163005045231,-0.6091934334602918,-0.05761491145170649,-0.6665791725844068,-2.594732388221833,-0.05553161399563153,2.5079406681590526,0.8763184780989524,-0.6090851748156966,-0.05753196718556838,-0.666603097082616,-2.5945565370258534,-0.05562143941554,2.507976027223799,0.8763108487046415,-0.0016602290564341896,0.0005157551167437517,-0.00010772249524120851,-0.00031723064479477866,0.00010464596209203484,0.0003220255657920893,-0.0007499912416622758,0.0,0.0,0.0,0.0,0.0,0.0,0.0,0.00010825864459518275,8.294426613810607e-05,-2.3924498209204614e-05,0.00017585119597951504,-8.982541990847082e-05,3.53590647463875e-05,-7.62939431087073e-06,0.0016602290564341896,-0.0005157551167437517,0.00010772249524120851,0.00031723064479477866,-0.00010464596209203484,-0.0003220255657920893,0.0007499912416622758,-0.16037636995315552,18.154138565063477,-1.1164276599884033,-18.269685745239258,-0.3555198311805725,-2.2689852714538574,0.20083944499492645,0
64,0.31499266624450684,0.16037636995315552,-18.154138565063477,1.1164276599884033,18.269685745239258,0.3555198311805725,2.2689852714538574,-0.20083944499492645,0.0,0.0,0.0,0.0,0.0,0.0,0.0,0.09562653646311357,0.5348342876741816,0.2847494001181046,0.6257279379424255,-0.06646089095881184,0.08911029065906634,-0.212163005045231,-0.6091934334602918,-0.05761491145170649,-0.6665791725844068,-2.594732388221833,-0.05553161399563153,2.5079406681590526,0.8763184780989524,-0.6090851748156966,-0.05753196718556838,-0.666603097082616,-2.5945565370258534,-0.05562143941554,2.507976027223799,0.8763108487046415,-0.0016602290564341896,0.0005157551167437517,-0.00010772249524120851,-0.00031723064479477866,0.00010464596209203484,0.0003220255657920893,-0.0007499912416622758,0.0,0.0,0.0,0.0,0.0,0.0,0.0,0.00010825864459518275,8.294426613810607e-05,-2.3924498209204614e-05,0.00017585119597951504,-8.982541990847082e-05,3.53590647463875e-05,-7.62939431087073e-06,0.0016602290564341896,-0.0005157551167437517,0.00010772249524120851,0.00031723064479477866,-0.00010464596209203484,-0.0003220255657920893,0.0007499912416622758,-0.16037636995315552,18.154138565063477,-1.1164276599884033,-18.269685745239258,-0.3555198311805725,-2.2689852714538574,0.20083944499492645,0
65,0.32001566886901855,0.10880166292190552,-18.130334854125977,1.1164276599884033,18.269685745239258,0.3555198311805725,2.2753939628601074,-0.22830526530742645,0.0,0.0,0.0,0.0,0.0,0.0,0.0,0.09456642230269291,0.537053220623363,0.28533422047715645,0.6227418087566172,-0.0662996828282943,0.08908113875723699,-0.2130624224249649,-0.6091898141785672,-0.05761658192360589,-0.6665773034578435,-2.594732158633561,-0.05553137723474181,2.507939951075565,0.8763215298569863,-0.6090851748156966,-0.05753196718556838,-0.666603097082616,-2.5945565370258534,-0.05562143941554,2.507976027223799,0.8763108487046415,-0.0003822279660695886,0.00042057534476540385,-0.00022294610161812563,-0.00031939136235138466,0.0002616262969639969,-7.661065074343559e-05,0.0009226512082514372,0.0,0.0,0.0,0.0,0.0,0.0,0.0,0.00010463936287063991,8.46147380375098e-05,-2.5793624772507684e-05,0.00017562160770756563,-9.006218079819078e-05,3.607614823408767e-05,-1.0681152344815814e-05,0.0003822279660695886,-0.00042057534476540385,0.00022294610161812563,0.00031939136235138466,-0.0002616262969639969,7.661065074343559e-05,-0.0009226512082514372,-0.10880166292190552,18.130334854125977,-1.1164276599884033,-18.269685745239258,-0.3555198311805725,-2.2753939628601074,0.22830526530742645,0
66,0.32501959800720215,0.10880166292190552,-18.130334854125977,1.1164276599884033,18.269685745239258,0.3555198311805725,2.2753939628601074,-0.22830526530742645,0.0,0.0,0.0,0.0,0.0,0.0,0.0,0.09456642230269291,0.537053220623363,0.28533422047715645,0.6227418087566172,-0.0662996828282943,0.08908113875723699,-0.2130624224249649,-0.6091898141785672,-0.05761658192360589,-0.6665773034578435,-2.594732158633561,-0.05553137723474181,2.507939951075565,0.8763215298569863,-0.6090851748156966,-0.05753196718556838,-0.666603097082616,-2.5945565370258534,-0.05562143941554,2.507976027223799,0.8763108487046415,-0.0003822279660695886,0.00042057534476540385,-0.00022294610161812563,-0.00031939136235138466,0.0002616262969639969,-7.661065074343559e-05,0.0009226512082514372,0.0,0.0,0.0,0.0,0.0,0.0,0.0,0.00010463936287063991,8.46147380375098e-05,-2.5793624772507684e-05,0.00017562160770756563,-9.006218079819078e-05,3.607614823408767e-05,-1.0681152344815814e-05,0.0003822279660695886,-0.00042057534476540385,0.00022294610161812563,0.00031939136235138466,-0.0002616262969639969,7.661065074343559e-05,-0.0009226512082514372,-0.10880166292190552,18.130334854125977,-1.1164276599884033,-18.269685745239258,-0.3555198311805725,-2.2753939628601074,0.22830526530742645,0
67,0.32999658584594727,0.10880166292190552,-18.130334854125977,1.0926239490509033,18.269685745239258,0.3619285225868225,2.2882113456726074,-0.19351522624492645,0.0,0.0,0.0,0.0,0.0,0.0,0.0,0.09326449402871896,0.5353606699353349,0.2837525596724684,0.6257236736724231,-0.0660110338316302,0.08892119600390297,-0.21314600978977544,-0.6091898145056159,-0.057616581923606094,-0.6665753960120882,-2.5947323910549493,-0.055531970982910545,2.507938492682707,0.8763176642970906,-0.6090851748156966,-0.05753196718556838,-0.666603097082616,-2.5945565370258534,-0.05562143941554,2.507976027223799,0.8763108487046415,-0.0005424705897243456,0.00045468060250396757,0.00020760019171561816,-0.0003084496486891996,-0.00031981480056296837,-0.0006455321448148387,-0.0014389223351726783,0.0,0.0,0.0,0.0,0.0,0.0,0.0,0.00010463968991936135,8.461473803771102e-05,-2.7701070527852423e-05,0.00017585402909592318,-8.946843262945536e-05,3.753454109212129e-05,-6.815592449083141e-06,0.0005424705897243456,-0.00045468060250396757,-0.00020760019171561816,0.0003084496486891996,0.00031981480056296837,0.0006455321448148387,0.0014389223351726783,-0.10880166292190552,18.130334854125977,-1.0926239490509033,-18.269685745239258,-0.3619285225868225,-2.2882113456726074,0.19351522624492645,0
68,0.3349950313568115,0.10880166292190552,-18.130334854125977,1.0926239490509033,18.269685745239258,0.3619285225868225,2.2882113456726074,-0.19351522624492645,0.0,0.0,0.0,0.0,0.0,0.0,0.0,0.09326449402871896,0.5353606699353349,0.2837525596724684,0.6257236736724231,-0.0660110338316302,0.08892119600390297,-0.21314600978977544,-0.6091898145056159,-0.057616581923606094,-0.6665753960120882,-2.5947323910549493,-0.055531970982910545,2.507938492682707,0.8763176642970906,-0.6090851748156966,-0.05753196718556838,-0.666603097082616,-2.5945565370258534,-0.05562143941554,2.507976027223799,0.8763108487046415,-0.0005424705897243456,0.00045468060250396757,0.00020760019171561816,-0.0003084496486891996,-0.00031981480056296837,-0.0006455321448148387,-0.0014389223351726783,0.0,0.0,0.0,0.0,0.0,0.0,0.0,0.00010463968991936135,8.461473803771102e-05,-2.7701070527852423e-05,0.00017585402909592318,-8.946843262945536e-05,3.753454109212129e-05,-6.815592449083141e-06,0.0005424705897243456,-0.00045468060250396757,-0.00020760019171561816,0.0003084496486891996,0.00031981480056296837,0.0006455321448148387,0.0014389223351726783,-0.10880166292190552,18.130334854125977,-1.0926239490509033,-18.269685745239258,-0.3619285225868225,-2.2882113456726074,0.19351522624492645,0
69,0.34000635147094727,0.10880166292190552,-18.154138565063477,1.0926239490509033,18.245882034301758,0.3555198311805725,2.2818026542663574,-0.22830526530742645,0.0,0.0,0.0,0.0,0.0,0.0,0.0,0.09716092307814186,0.5414816830519001,0.2860242051268771,0.6221131186517124,-0.0664278123919296,0.08804998518692186,-0.21437787509486408,-0.609189814178569,-0.05761483265876847,-0.6665756300141704,-2.594730695110599,-0.05553125885129005,2.507939242497808,0.8763215298569863,-0.6090851748156966,-0.05753196718556838,-0.666603097082616,-2.5945565370258534,-0.05562143941554,2.507976027223799,0.8763108487046415,-0.0003191758977174484,0.0010668664743470958,0.0004433167941368238,-0.00024084450939898687,0.00019812745623843452,-0.00034225130644516255,0.00038736456090177285,0.0,0.0,0.0,0.0,0.0,0.0,0.0,0.00010463936287241626,8.28654732000847e-05,-2.7467068445585774e-05,0.00017415808474563477,-9.018056424994758e-05,3.6784725991001466e-05,-1.0681152344815814e-05,0.0003191758977174484,-0.0010668664743470958,-0.0004433167941368238,0.00024084450939898687,-0.00019812745623843452,0.00034225130644516255,-0.00038736456090177285,-0.10880166292190552,18.154138565063477,-1.0926239490509033,-18.245882034301758,-0.3555198311805725,-2.2818026542663574,0.22830526530742645,0
70,0.34499406814575195,0.10880166292190552,-18.154138565063477,1.0926239490509033,18.245882034301758,0.3555198311805725,2.2818026542663574,-0.22830526530742645,0.0,0.0,0.0,0.0,0.0,0.0,0.0,0.09716092307814186,0.5414816830519001,0.2860242051268771,0.6221131186517124,-0.0664278123919296,0.08804998518692186,-0.21437787509486408,-0.609189814178569,-0.05761483265876847,-0.6665756300141704,-2.594730695110599,-0.05553125885129005,2.507939242497808,0.8763215298569863,-0.6090851748156966,-0.05753196718556838,-0.666603097082616,-2.5945565370258534,-0.05562143941554,2.507976027223799,0.8763108487046415,-0.0003191758977174484,0.0010668664743470958,0.0004433167941368238,-0.00024084450939898687,0.00019812745623843452,-0.00034225130644516255,0.00038736456090177285,0.0,0.0,0.0,0.0,0.0,0.0,0.0,0.00010463936287241626,8.28654732000847e-05,-2.7467068445585774e-05,0.00017415808474563477,-9.018056424994758e-05,3.6784725991001466e-05,-1.0681152344815814e-05,0.0003191758977174484,-0.0010668664743470958,-0.0004433167941368238,0.00024084450939898687,-0.00019812745623843452,0.00034225130644516255,-0.00038736456090177285,-0.10880166292190552,18.154138565063477,-1.0926239490509033,-18.245882034301758,-0.3555198311805725,-2.2818026542663574,0.22830526530742645,0
71,0.3499929904937744,0.08103066682815552,-18.154138565063477,1.0926239490509033,18.245882034301758,0.3619285225868225,2.2753939628601074,-0.20724813640117645,0.0,0.0,0.0,0.0,0.0,0.0,0.0,0.09799457872965736,0.5355179251140119,0.2862222759052399,0.627451226876459,-0.06644636681522861,0.08962387409998275,-0.21385685412070618,-0.6091885815736198,-0.05761483265832348,-0.6665753963687293,-2.594730720620262,-0.055533036523526834,2.5079399560822293,0.8763191901759968,-0.6090851748156966,-0.05753196718556838,-0.666603097082616,-2.5945565370258534,-0.05562143941554,2.507976027223799,0.8763108487046415,0.0004400619094891783,0.0005118702657794297,7.878969271682843e-05,9.475598757863796e-05,-0.00020835234731835672,-3.3827124064722756e-05,-0.00013226478682547922,0.0,0.0,0.0,0.0,0.0,0.0,0.0,0.00010340675792319676,8.286547275509343e-05,-2.7700713886691375e-05,0.00017418359440846132,-8.840289201316603e-05,3.607114156967128e-05,-8.341471355310937e-06,-0.0004400619094891783,-0.0005118702657794297,-7.878969271682843e-05,-9.475598757863796e-05,0.00020835234731835672,3.3827124064722756e-05,0.00013226478682547922,-0.08103066682815552,18.154138565063477,-1.0926239490509033,-18.245882034301758,-0.3619285225868225,-2.2753939628601074,0.20724813640117645,0
72,0.35500216484069824,0.08103066682815552,-18.154138565063477,1.0926239490509033,18.245882034301758,0.3619285225868225,2.2753939628601074,-0.20724813640117645,0.0,0.0,0.0,0.0,0.0,0.0,0.0,0.09799457872965736,0.5355179251140119,0.2862222759052399,0.627451226876459,-0.06644636681522861,0.08962387409998275,-0.21385685412070618,-0.6091885815736198,-0.05761483265832348,-0.6665753963687293,-2.594730720620262,-0.055533036523526834,2.5079399560822293,0.8763191901759968,-0.6090851748156966,-0.05753196718556838,-0.666603097082616,-2.5945565370258534,-0.05562143941554,2.507976027223799,0.8763108487046415,0.0004400619094891783,0.0005118702657794297,7.878969271682843e-05,9.475598757863796e-05,-0.00020835234731835672,-3.3827124064722756e-05,-0.00013226478682547922,0.0,0.0,0.0,0.0,0.0,0.0,0.0,0.00010340675792319676,8.286547275509343e-05,-2.7700713886691375e-05,0.00017418359440846132,-8.840289201316603e-05,3.607114156967128e-05,-8.341471355310937e-06,-0.0004400619094891783,-0.0005118702657794297,-7.878969271682843e-05,-9.475598757863796e-05,0.00020835234731835672,3.3827124064722756e-05,0.00013226478682547922,-0.08103066682815552,18.154138565063477,-1.0926239490509033,-18.245882034301758,-0.3619285225868225,-2.2753939628601074,0.20724813640117645,0
73,0.3600120544433594,0.10880166292190552,-18.106531143188477,1.0688202381134033,18.222078323364258,0.3619285225868225,2.2689852714538574,-0.22098104655742645,0.0,0.0,0.0,0.0,0.0,0.0,0.0,0.09677091022781732,0.5341493363008336,0.28379030686271167,0.6285657558884581,-0.06647023012675728,0.09037344229039244,-0.2141401011424993,-0.6091898152000955,-0.05761612397649251,-0.6665761041281807,-2.594729050184551,-0.055531970934127976,2.5079406681590606,0.876320716054903,-0.6090851748156966,-0.05753196718556838,-0.666603097082616,-2.5945565370258534,-0.05562143941554,2.507976027223799,0.8763108487046415,-0.0006236302542019317,-0.0006519235790976275,0.0010768303000236116,0.0009866268874975852,-0.00014809742488768553,0.0001227442257916967,0.0009306954646536385,0.0,0.0,0.0,0.0,0.0,0.0,0.0,0.0001046403843989463,8.41567909241267e-05,-2.6992954435312022e-05,0.00017251315869737383,-8.946848141202363e-05,3.53590647383939e-05,-9.867350261538732e-06,0.0006236302542019317,0.0006519235790976275,-0.0010768303000236116,-0.0009866268874975852,0.00014809742488768553,-0.0001227442257916967,-0.0009306954646536385,-0.10880166292190552,18.106531143188477,-1.0688202381134033,-18.222078323364258,-0.3619285225868225,-2.2689852714538574,0.22098104655742645,0
74,0.3649883270263672,0.10880166292190552,-18.106531143188477,1.0688202381134033,18.222078323364258,0.3619285225868225,2.2689852714538574,-0.22098104655742645,0.0,0.0,0.0,0.0,0.0,0.0,0.0,0.09677091022781732,0.5341493363008336,0.28379030686271167,0.6285657558884581,-0.06647023012675728,0.09037344229039244,-0.2141401011424993,-0.6091898152000955,-0.05761612397649251,-0.6665761041281807,-2.594729050184551,-0.055531970934127976,2.5079406681590606,0.876320716054903,-0.6090851748156966,-0.05753196718556838,-0.666603097082616,-2.5945565370258534,-0.05562143941554,2.507976027223799,0.8763108487046415,-0.0006236302542019317,-0.0006519235790976275,0.0010768303000236116,0.0009866268874975852,-0.00014809742488768553,0.0001227442257916967,0.0009306954646536385,0.0,0.0,0.0,0.0,0.0,0.0,0.0,0.0001046403843989463,8.41567909241267e-05,-2.6992954435312022e-05,0.00017251315869737383,-8.946848141202363e-05,3.53590647383939e-05,-9.867350261538732e-06,0.0006236302542019317,0.0006519235790976275,-0.0010768303000236116,-0.0009866268874975852,0.00014809742488768553,-0.0001227442257916967,-0.0009306954646536385,-0.10880166292190552,18.106531143188477,-1.0688202381134033,-18.222078323364258,-0.3619285225868225,-2.2689852714538574,0.22098104655742645,0
75,0.36998987197875977,0.10880166292190552,-18.154138565063477,1.1164276599884033,18.245882034301758,0.3555198311805725,2.2753939628601074,-0.19351522624492645,0.0,0.0,0.0,0.0,0.0,0.0,0.0,0.09762594376367377,0.5374457415007353,0.28511033466666774,0.6258442237562054,-0.06662555007100791,0.08960597728563358,-0.21307994094136745,-0.6091898141785729,-0.05761488519940859,-0.6665777945776706,-2.5947307206204058,-0.055531258851289775,2.5079399517215872,0.8763176642970906,-0.6090851748156966,-0.05753196718556838,-0.666603097082616,-2.5945565370258534,-0.05562143941554,2.507976027223799,0.8763108487046415,-0.00016924278070497468,0.0005087746635793267,-0.00036493513810021333,0.00038599334220743497,6.775562895344227e-05,-0.0004372594010321434,-0.0015856821672548655,0.0,0.0,0.0,0.0,0.0,0.0,0.0,0.00010463936287630204,8.291801384020803e-05,-2.530250494536812e-05,0.00017418359455234622,-9.018056425022514e-05,3.607550221174094e-05,-6.815592449083141e-06,0.00016924278070497468,-0.0005087746635793267,0.00036493513810021333,-0.00038599334220743497,-6.775562895344227e-05,0.0004372594010321434,0.0015856821672548655,-0.10880166292190552,18.154138565063477,-1.1164276599884033,-18.245882034301758,-0.3555198311805725,-2.2753939628601074,0.19351522624492645,0
76,0.37499165534973145,0.10880166292190552,-18.154138565063477,1.1164276599884033,18.245882034301758,0.3555198311805725,2.2753939628601074,-0.19351522624492645,0.0,0.0,0.0,0.0,0.0,0.0,0.0,0.09762594376367377,0.5374457415007353,0.28511033466666774,0.6258442237562054,-0.06662555007100791,0.08960597728563358,-0.21307994094136745,-0.6091898141785729,-0.05761488519940859,-0.6665777945776706,-2.5947307206204058,-0.055531258851289775,2.5079399517215872,0.8763176642970906,-0.6090851748156966,-0.05753196718556838,-0.666603097082616,-2.5945565370258534,-0.05562143941554,2.507976027223799,0.8763108487046415,-0.00016924278070497468,0.0005087746635793267,-0.00036493513810021333,0.00038599334220743497,6.775562895344227e-05,-0.0004372594010321434,-0.0015856821672548655,0.0,0.0,0.0,0.0,0.0,0.0,0.0,0.00010463936287630204,8.291801384020803e-05,-2.530250494536812e-05,0.00017418359455234622,-9.018056425022514e-05,3.607550221174094e-05,-6.815592449083141e-06,0.00016924278070497468,-0.0005087746635793267,0.00036493513810021333,-0.00038599334220743497,-6.775562895344227e-05,0.0004372594010321434,0.0015856821672548655,-0.10880166292190552,18.154138565063477,-1.1164276599884033,-18.245882034301758,-0.3555198311805725,-2.2753939628601074,0.19351522624492645,0
77,0.3799934387207031,0.10880166292190552,-18.078760147094727,1.1164276599884033,18.222078323364258,0.3500266671180725,2.2689852714538574,-0.22830526530742645,0.0,0.0,0.0,0.0,0.0,0.0,0.0,0.10058490577532238,0.5375554492204403,0.2878270686230068,0.6269871633043432,-0.06621988785674687,0.08896416234317651,-0.21448274000689352,-0.6091898141785672,-0.05762012204776264,-0.6665773784552761,-2.594729050184551,-0.05553064849972725,2.507940668159036,0.8763215298569863,-0.6090851748156966,-0.05753196718556838,-0.666603097082616,-2.5945565370258534,-0.05562143941554,2.507976027223799,0.8763108487046415,-0.0002135157402927533,-0.0010273871077875038,1.801925742932736e-05,0.0007301313374907415,0.00021290145485324796,0.0001940523633830515,0.0007219520645995014,0.0,0.0,0.0,0.0,0.0,0.0,0.0,0.00010463936287063991,8.81548621942535e-05,-2.571862733991015e-05,0.00017251315869737383,-9.079091581275234e-05,3.5359064762818804e-05,-1.0681152344815814e-05,0.0002135157402927533,0.0010273871077875038,-1.801925742932736e-05,-0.0007301313374907415,-0.00021290145485324796,-0.0001940523633830515,-0.0007219520645995014,-0.10880166292190552,18.078760147094727,-1.1164276599884033,-18.222078323364258,-0.3500266671180725,-2.2689852714538574,0.22830526530742645,0
78,0.3849916458129883,0.10880166292190552,-18.078760147094727,1.1164276599884033,18.222078323364258,0.3500266671180725,2.2689852714538574,-0.22830526530742645,0.0,0.0,0.0,0.0,0.0,0.0,0.0,0.10058490577532238,0.5375554492204403,0.2878270686230068,0.6269871633043432,-0.06621988785674687,0.08896416234317651,-0.21448274000689352,-0.6091898141785672,-0.05762012204776264,-0.6665773784552761,-2.594729050184551,-0.05553064849972725,2.507940668159036,0.8763215298569863,-0.6090851748156966,-0.05753196718556838,-0.666603097082616,-2.5945565370258534,-0.05562143941554,2.507976027223799,0.8763108487046415,-0.0002135157402927533,-0.0010273871077875038,1.801925742932736e-05,0.0007301313374907415,0.00021290145485324796,0.0001940523633830515,0.0007219520645995014,0.0,0.0,0.0,0.0,0.0,0.0,0.0,0.00010463936287063991,8.81548621942535e-05,-2.571862733991015e-05,0.00017251315869737383,-9.079091581275234e-05,3.5359064762818804e-05,-1.0681152344815814e-05,0.0002135157402927533,0.0010273871077875038,-1.801925742932736e-05,-0.0007301313374907415,-0.00021290145485324796,-0.0001940523633830515,-0.0007219520645995014,-0.10880166292190552,18.078760147094727,-1.1164276599884033,-18.222078323364258,-0.3500266671180725,-2.2689852714538574,0.22830526530742645,0
79,0.38999342918395996,0.10880166292190552,-18.154138565063477,1.1441986560821533,18.269685745239258,0.3500266671180725,2.2753939628601074,-0.20724813640117645,0.0,0.0,0.0,0.0,0.0,0.0,0.0,0.09639417912788904,0.5289421858332153,0.28539411072129517,0.631040405818299,-0.06570299887872813,0.08940273453941858,-0.21396797048647562,-0.6091898141785672,-0.05761419878247168,-0.6665790191421062,-2.5947323824480137,-0.05553064849972725,2.5079399560822377,0.8763191901759968,-0.6090851748156966,-0.05753196718556838,-0.666603097082616,-2.5945565370258534,-0.05562143941554,2.507976027223799,0.8763108487046415,-0.00020278271215134783,0.0003046351578579518,-0.000880583150013395,-0.0003522528347671143,0.000356281759418954,-2.000556585567497e-05,-0.0002130938742631603,0.0,0.0,0.0,0.0,0.0,0.0,0.0,0.00010463936287063991,8.223159690329968e-05,-2.4077940509847906e-05,0.0001758454221603145,-9.079091581275234e-05,3.607114156123359e-05,-8.341471355310937e-06,0.00020278271215134783,-0.0003046351578579518,0.000880583150013395,0.0003522528347671143,-0.000356281759418954,2.000556585567497e-05,0.0002130938742631603,-0.10880166292190552,18.154138565063477,-1.1441986560821533,-18.269685745239258,-0.3500266671180725,-2.2753939628601074,0.20724813640117645,0
