rezayati/contactInterpretation/dataset/franka_main/labeled_data/link6/b8_7.csv
index,time,tau_J0,tau_J1,tau_J2,tau_J3,tau_J4,tau_J5,tau_J6,tau_J_d0,tau_J_d1,tau_J_d2,tau_J_d3,tau_J_d4,tau_J_d5,tau_J_d6,tau_ext0,tau_ext1,tau_ext2,tau_ext3,tau_ext4,tau_ext5,tau_ext6,q0,q1,q2,q3,q4,q5,q6,q_d0,q_d1,q_d2,q_d3,q_d4,q_d5,q_d6,dq0,dq1,dq2,dq3,dq4,dq5,dq6,dq_d0,dq_d1,dq_d2,dq_d3,dq_d4,dq_d5,dq_d6,e0,e1,e2,e3,e4,e5,e6,de0,de1,de2,de3,de4,de5,de6,etau_J0,etau_J1,etau_J2,etau_J3,etau_J4,etau_J5,etau_J6,label
1,0.0,-0.24825400114059448,-11.826318740844727,1.0410492420196533,21.816438674926758,0.5047507882118225,2.5271639823913574,-0.28964561223983765,0.0,0.0,0.0,0.0,0.0,0.0,0.0,-0.2588782621461901,0.5072716373027033,-0.1490303256897504,0.4869612436421626,-0.02564112303461791,0.13622247009820343,-0.3164285758559601,0.17288108357630275,-0.4874969006463101,-0.11132821755137358,-1.9464142422934794,0.1334577695329984,2.5953970566325717,0.9452568123680575,0.1728802376190821,-0.48752024683155326,-0.11147110072896137,-1.9463801863486305,0.1336059019074957,2.595550359778934,0.9452445589611904,6.575601790537523e-05,7.339044873854656e-06,0.0002197951626358431,-0.0011318660241376656,0.00017229881644267324,0.00025713159631054333,-0.0009594980320257186,0.0,0.0,0.0,0.0,0.0,0.0,0.0,-8.459572206354071e-07,-2.334618524313381e-05,-0.00014288317758778812,3.405594484884311e-05,0.00014813237449728955,0.0001533031463623047,-1.225340686705767e-05,-6.575601790537523e-05,-7.339044873854656e-06,-0.0002197951626358431,0.0011318660241376656,-0.00017229881644267324,-0.00025713159631054333,0.0009594980320257186,0.24825400114059448,11.826318740844727,-1.0410492420196533,-21.816438674926758,-0.5047507882118225,-2.5271639823913574,0.28964561223983765,0
2,0.0050013065338134766,-0.2720577120780945,-11.774744033813477,1.0688202381134033,21.792634963989258,0.5166526436805725,2.5399813652038574,-0.33084434270858765,0.0,0.0,0.0,0.0,0.0,0.0,0.0,-0.25789529276404977,0.5009299557551147,-0.1496901300750267,0.49029354223471694,-0.025713228897473857,0.13595169376922459,-0.3167385413960792,0.17288275401215802,-0.4875005199239965,-0.11133016639320473,-1.9464126451165564,0.13345644856724792,2.595395632478926,0.9452613451216303,0.1728802376190821,-0.48752024683155326,-0.11147110072896137,-1.9463801863486305,0.1336059019074957,2.595550359778934,0.9452445589611904,0.000454581419560705,-0.0013784134714524162,-0.00011916441499453036,-0.0002597182645590489,-0.00014474125552165238,-0.00037849629611473454,0.0010373945773316377,0.0,0.0,0.0,0.0,0.0,0.0,0.0,-2.5163930759131148e-06,-1.9726907556749662e-05,-0.00014093433575664005,3.245876792590252e-05,0.00014945334024776824,0.00015472730000798407,-1.6786160439874465e-05,-0.000454581419560705,0.0013784134714524162,0.00011916441499453036,0.0002597182645590489,0.00014474125552165238,0.00037849629611473454,-0.0010373945773316377,0.2720577120780945,11.774744033813477,-1.0688202381134033,-21.792634963989258,-0.5166526436805725,-2.5399813652038574,0.33084434270858765,0
3,0.010007858276367188,-0.2720577120780945,-11.774744033813477,1.0688202381134033,21.792634963989258,0.5166526436805725,2.5399813652038574,-0.33084434270858765,0.0,0.0,0.0,0.0,0.0,0.0,0.0,-0.25789529276404977,0.5009299557551147,-0.1496901300750267,0.49029354223471694,-0.025713228897473857,0.13595169376922459,-0.3167385413960792,0.17288275401215802,-0.4875005199239965,-0.11133016639320473,-1.9464126451165564,0.13345644856724792,2.595395632478926,0.9452613451216303,0.1728802376190821,-0.48752024683155326,-0.11147110072896137,-1.9463801863486305,0.1336059019074957,2.595550359778934,0.9452445589611904,0.000454581419560705,-0.0013784134714524162,-0.00011916441499453036,-0.0002597182645590489,-0.00014474125552165238,-0.00037849629611473454,0.0010373945773316377,0.0,0.0,0.0,0.0,0.0,0.0,0.0,-2.5163930759131148e-06,-1.9726907556749662e-05,-0.00014093433575664005,3.245876792590252e-05,0.00014945334024776824,0.00015472730000798407,-1.6786160439874465e-05,-0.000454581419560705,0.0013784134714524162,0.00011916441499453036,0.0002597182645590489,0.00014474125552165238,0.00037849629611473454,-0.0010373945773316377,0.2720577120780945,11.774744033813477,-1.0688202381134033,-21.792634963989258,-0.5166526436805725,-2.5399813652038574,0.33084434270858765,0
4,0.01500248908996582,-0.2998287081718445,-11.850122451782227,1.0410492420196533,21.768831253051758,0.5102439522743225,2.5271639823913574,-0.26858848333358765,0.0,0.0,0.0,0.0,0.0,0.0,0.0,-0.2586982672379949,0.49892536096489476,-0.14949966325224215,0.4918942779761108,-0.025468004461784908,0.13518291818472283,-0.3171373792221813,0.17288470285398916,-0.4874952302104548,-0.11132821755137358,-1.9464102420917908,0.13345715918144416,2.5953970566325717,0.9452545604037897,0.1728802376190821,-0.48752024683155326,-0.11147110072896137,-1.9463801863486305,0.1336059019074957,2.595550359778934,0.9452445589611904,0.0007427726525260378,0.00045107429742686497,0.0004914084744857532,0.0005580149717639286,0.00011934414054249431,0.00039078830510451786,-0.0011057005199110168,0.0,0.0,0.0,0.0,0.0,0.0,0.0,-4.465234907047311e-06,-2.5016621098439273e-05,-0.00014288317758778812,3.0055743160284365e-05,0.00014874272605153172,0.0001533031463623047,-1.0001442599327781e-05,-0.0007427726525260378,-0.00045107429742686497,-0.0004914084744857532,-0.0005580149717639286,-0.00011934414054249431,-0.00039078830510451786,0.0011057005199110168,0.2998287081718445,11.850122451782227,-1.0410492420196533,-21.768831253051758,-0.5102439522743225,-2.5271639823913574,0.26858848333358765,0
5,0.02001166343688965,-0.2998287081718445,-11.850122451782227,1.0410492420196533,21.768831253051758,0.5102439522743225,2.5271639823913574,-0.26858848333358765,0.0,0.0,0.0,0.0,0.0,0.0,0.0,-0.2586982672379949,0.49892536096489476,-0.14949966325224215,0.4918942779761108,-0.025468004461784908,0.13518291818472283,-0.3171373792221813,0.17288470285398916,-0.4874952302104548,-0.11132821755137358,-1.9464102420917908,0.13345715918144416,2.5953970566325717,0.9452545604037897,0.1728802376190821,-0.48752024683155326,-0.11147110072896137,-1.9463801863486305,0.1336059019074957,2.595550359778934,0.9452445589611904,0.0007427726525260378,0.00045107429742686497,0.0004914084744857532,0.0005580149717639286,0.00011934414054249431,0.00039078830510451786,-0.0011057005199110168,0.0,0.0,0.0,0.0,0.0,0.0,0.0,-4.465234907047311e-06,-2.5016621098439273e-05,-0.00014288317758778812,3.0055743160284365e-05,0.00014874272605153172,0.0001533031463623047,-1.0001442599327781e-05,-0.0007427726525260378,-0.00045107429742686497,-0.0004914084744857532,-0.0005580149717639286,-0.00011934414054249431,-0.00039078830510451786,0.0011057005199110168,0.2998287081718445,11.850122451782227,-1.0410492420196533,-21.768831253051758,-0.5102439522743225,-2.5271639823913574,0.26858848333358765,0
6,0.025000810623168945,-0.24825400114059448,-11.826318740844727,0.9934418201446533,21.792634963989258,0.4928489327430725,2.5463900566101074,-0.29605430364608765,0.0,0.0,0.0,0.0,0.0,0.0,0.0,-0.2632492053813846,0.5053338781217885,-0.15027439717023475,0.48966192634104816,-0.025405097762399655,0.13479720255823818,-0.3160900671617194,0.17288108357630275,-0.4874969006463101,-0.11132487667966307,-1.9464125684622848,0.1334590919613838,2.595394920402103,0.9452574787896946,0.1728802376190821,-0.48752024683155326,-0.11147110072896137,-1.9463801863486305,0.1336059019074957,2.595550359778934,0.9452445589611904,-0.0008638652995210782,0.0002707540847168776,0.0009393809008771061,-0.00022562212271000384,0.0005023037331539261,-0.00031754403222841206,-0.00011021582668740893,0.0,0.0,0.0,0.0,0.0,0.0,0.0,-8.459572206354071e-07,-2.334618524313381e-05,-0.0001462240492983019,3.2382113654305655e-05,0.00014680994611188103,0.00015543937683082376,-1.2919828504154296e-05,0.0008638652995210782,-0.0002707540847168776,-0.0009393809008771061,0.00022562212271000384,-0.0005023037331539261,0.00031754403222841206,0.00011021582668740893,0.24825400114059448,11.826318740844727,-0.9934418201446533,-21.792634963989258,-0.4928489327430725,-2.5463900566101074,0.29605430364608765,0
7,0.030003786087036133,-0.24825400114059448,-11.826318740844727,0.9934418201446533,21.792634963989258,0.4928489327430725,2.5463900566101074,-0.29605430364608765,0.0,0.0,0.0,0.0,0.0,0.0,0.0,-0.2632492053813846,0.5053338781217885,-0.15027439717023475,0.48966192634104816,-0.025405097762399655,0.13479720255823818,-0.3160900671617194,0.17288108357630275,-0.4874969006463101,-0.11132487667966307,-1.9464125684622848,0.1334590919613838,2.595394920402103,0.9452574787896946,0.1728802376190821,-0.48752024683155326,-0.11147110072896137,-1.9463801863486305,0.1336059019074957,2.595550359778934,0.9452445589611904,-0.0008638652995210782,0.0002707540847168776,0.0009393809008771061,-0.00022562212271000384,0.0005023037331539261,-0.00031754403222841206,-0.00011021582668740893,0.0,0.0,0.0,0.0,0.0,0.0,0.0,-8.459572206354071e-07,-2.334618524313381e-05,-0.0001462240492983019,3.2382113654305655e-05,0.00014680994611188103,0.00015543937683082376,-1.2919828504154296e-05,0.0008638652995210782,-0.0002707540847168776,-0.0009393809008771061,0.00022562212271000384,-0.0005023037331539261,0.00031754403222841206,0.00011021582668740893,0.24825400114059448,11.826318740844727,-0.9934418201446533,-21.792634963989258,-0.4928489327430725,-2.5463900566101074,0.29605430364608765,0
8,0.03500080108642578,-0.22445029020309448,-11.774744033813477,1.0926239490509033,21.792634963989258,0.5221458077430725,2.5271639823913574,-0.30978721380233765,0.0,0.0,0.0,0.0,0.0,0.0,0.0,-0.2576619782156724,0.5060459315471172,-0.13781407881197422,0.48744780748207767,-0.026489609110677312,0.13456594645116263,-0.3159047341673088,0.1728794131404475,-0.4875005199239965,-0.11133183682905999,-1.9464126542739038,0.13345583675305048,2.5953970566325717,0.9452595276188877,0.1728802376190821,-0.48752024683155326,-0.11147110072896137,-1.9463801863486305,0.1336059019074957,2.595550359778934,0.9452445589611904,-0.0005152974598573939,-0.0010366453333608518,-0.0010202604697807406,-0.0003838809793850141,-0.0005516848620076755,9.996463090289752e-05,0.0002123708329759114,0.0,0.0,0.0,0.0,0.0,0.0,0.0,8.24478634614545e-07,-1.9726907556749662e-05,-0.00013926389990137622,3.2467925273227394e-05,0.0001500651544452114,0.0001533031463623047,-1.49686576972341e-05,0.0005152974598573939,0.0010366453333608518,0.0010202604697807406,0.0003838809793850141,0.0005516848620076755,-9.996463090289752e-05,-0.0002123708329759114,0.22445029020309448,11.774744033813477,-1.0926239490509033,-21.792634963989258,-0.5221458077430725,-2.5271639823913574,0.30978721380233765,0
9,0.04000043869018555,-0.22445029020309448,-11.774744033813477,1.0926239490509033,21.792634963989258,0.5221458077430725,2.5271639823913574,-0.30978721380233765,0.0,0.0,0.0,0.0,0.0,0.0,0.0,-0.2576619782156724,0.5060459315471172,-0.13781407881197422,0.48744780748207767,-0.026489609110677312,0.13456594645116263,-0.3159047341673088,0.1728794131404475,-0.4875005199239965,-0.11133183682905999,-1.9464126542739038,0.13345583675305048,2.5953970566325717,0.9452595276188877,0.1728802376190821,-0.48752024683155326,-0.11147110072896137,-1.9463801863486305,0.1336059019074957,2.595550359778934,0.9452445589611904,-0.0005152974598573939,-0.0010366453333608518,-0.0010202604697807406,-0.0003838809793850141,-0.0005516848620076755,9.996463090289752e-05,0.0002123708329759114,0.0,0.0,0.0,0.0,0.0,0.0,0.0,8.24478634614545e-07,-1.9726907556749662e-05,-0.00013926389990137622,3.2467925273227394e-05,0.0001500651544452114,0.0001533031463623047,-1.49686576972341e-05,0.0005152974598573939,0.0010366453333608518,0.0010202604697807406,0.0003838809793850141,0.0005516848620076755,-9.996463090289752e-05,-0.0002123708329759114,0.22445029020309448,11.774744033813477,-1.0926239490509033,-21.792634963989258,-0.5221458077430725,-2.5271639823913574,0.30978721380233765,0
10,0.044997215270996094,-0.24825400114059448,-11.826318740844727,1.0926239490509033,21.792634963989258,0.5166526436805725,2.5399813652038574,-0.30978721380233765,0.0,0.0,0.0,0.0,0.0,0.0,0.0,-0.25960456982908214,0.4972896109496939,-0.14177868310284972,0.4947415901301704,-0.02620344703584543,0.13524798333733587,-0.31612462265249824,0.17288108357630275,-0.4874969006463101,-0.11133183682905999,-1.9464104259818609,0.13345656557804272,2.595395632478926,0.9452633529394433,0.1728802376190821,-0.48752024683155326,-0.11147110072896137,-1.9463801863486305,0.1336059019074957,2.595550359778934,0.9452445589611904,0.0005793604475949737,-1.5948277497701443e-05,-0.0010135833959003505,3.2215030023807295e-05,-0.00036967113837363917,-0.000302073981774726,0.00020534356127989328,0.0,0.0,0.0,0.0,0.0,0.0,0.0,-8.459572206354071e-07,-2.334618524313381e-05,-0.00013926389990137622,3.023963323034451e-05,0.00014933632945296482,0.00015472730000798407,-1.8793978252884536e-05,-0.0005793604475949737,1.5948277497701443e-05,0.0010135833959003505,-3.2215030023807295e-05,0.00036967113837363917,0.000302073981774726,-0.00020534356127989328,0.24825400114059448,11.826318740844727,-1.0926239490509033,-21.792634963989258,-0.5166526436805725,-2.5399813652038574,0.30978721380233765,0
11,0.04999876022338867,-0.24825400114059448,-11.826318740844727,1.0926239490509033,21.792634963989258,0.5166526436805725,2.5399813652038574,-0.30978721380233765,0.0,0.0,0.0,0.0,0.0,0.0,0.0,-0.25960456982908214,0.4972896109496939,-0.14177868310284972,0.4947415901301704,-0.02620344703584543,0.13524798333733587,-0.31612462265249824,0.17288108357630275,-0.4874969006463101,-0.11133183682905999,-1.9464104259818609,0.13345656557804272,2.595395632478926,0.9452633529394433,0.1728802376190821,-0.48752024683155326,-0.11147110072896137,-1.9463801863486305,0.1336059019074957,2.595550359778934,0.9452445589611904,0.0005793604475949737,-1.5948277497701443e-05,-0.0010135833959003505,3.2215030023807295e-05,-0.00036967113837363917,-0.000302073981774726,0.00020534356127989328,0.0,0.0,0.0,0.0,0.0,0.0,0.0,-8.459572206354071e-07,-2.334618524313381e-05,-0.00013926389990137622,3.023963323034451e-05,0.00014933632945296482,0.00015472730000798407,-1.8793978252884536e-05,-0.0005793604475949737,1.5948277497701443e-05,0.0010135833959003505,-3.2215030023807295e-05,0.00036967113837363917,0.000302073981774726,-0.00020534356127989328,0.24825400114059448,11.826318740844727,-1.0926239490509033,-21.792634963989258,-0.5166526436805725,-2.5399813652038574,0.30978721380233765,0
12,0.05567622184753418,-0.24825400114059448,-11.802515029907227,1.0410492420196533,21.792634963989258,0.5047507882118225,2.5537142753601074,-0.28964561223983765,0.0,0.0,0.0,0.0,0.0,0.0,0.0,-0.2606942672473425,0.5078161409745262,-0.14780995465877717,0.4908662585274732,-0.025985720840326982,0.13475297880027579,-0.3166187306487697,0.17288108357630275,-0.4874985710821654,-0.11132821758737586,-1.9464126539226478,0.13345883579453482,2.5953941066000197,0.9452571861680095,0.1728802376190821,-0.48752024683155326,-0.11147110072896137,-1.9463801863486305,0.1336059019074957,2.595550359778934,0.9452445589611904,-0.00023184095029532448,-0.00017957421679645492,0.000386699191879328,-0.00021792417409187482,0.00013597566293087072,-0.00043057104293790045,-0.0005753439787547491,0.0,0.0,0.0,0.0,0.0,0.0,0.0,-8.459572206354071e-07,-2.1675749387883858e-05,-0.00014288314158550364,3.246757401731415e-05,0.00014706611296086414,0.0001562531789143229,-1.2627206819049164e-05,0.00023184095029532448,0.00017957421679645492,-0.000386699191879328,0.00021792417409187482,-0.00013597566293087072,0.00043057104293790045,0.0005753439787547491,0.24825400114059448,11.802515029907227,-1.0410492420196533,-21.792634963989258,-0.5047507882118225,-2.5537142753601074,0.28964561223983765,0
13,0.0599973201751709,-0.24825400114059448,-11.802515029907227,1.0410492420196533,21.792634963989258,0.5047507882118225,2.5537142753601074,-0.28964561223983765,0.0,0.0,0.0,0.0,0.0,0.0,0.0,-0.2606942672473425,0.5078161409745262,-0.14780995465877717,0.4908662585274732,-0.025985720840326982,0.13475297880027579,-0.3166187306487697,0.17288108357630275,-0.4874985710821654,-0.11132821758737586,-1.9464126539226478,0.13345883579453482,2.5953941066000197,0.9452571861680095,0.1728802376190821,-0.48752024683155326,-0.11147110072896137,-1.9463801863486305,0.1336059019074957,2.595550359778934,0.9452445589611904,-0.00023184095029532448,-0.00017957421679645492,0.000386699191879328,-0.00021792417409187482,0.00013597566293087072,-0.00043057104293790045,-0.0005753439787547491,0.0,0.0,0.0,0.0,0.0,0.0,0.0,-8.459572206354071e-07,-2.1675749387883858e-05,-0.00014288314158550364,3.246757401731415e-05,0.00014706611296086414,0.0001562531789143229,-1.2627206819049164e-05,0.00023184095029532448,0.00017957421679645492,-0.000386699191879328,0.00021792417409187482,-0.00013597566293087072,0.00043057104293790045,0.0005753439787547491,0.24825400114059448,11.802515029907227,-1.0410492420196533,-21.792634963989258,-0.5047507882118225,-2.5537142753601074,0.28964561223983765,0
14,0.06499838829040527,-0.2720577120780945,-11.826318740844727,1.0410492420196533,21.768831253051758,0.5102439522743225,2.5399813652038574,-0.34457725286483765,0.0,0.0,0.0,0.0,0.0,0.0,0.0,-0.25923751939733736,0.513493262045104,-0.14545926741498852,0.4852620811603302,-0.025719538468201422,0.1351266435431191,-0.315676474379145,0.17288275401215802,-0.4874969006463101,-0.11132821755137379,-1.946410983838531,0.13345858086861184,2.595395632478926,0.945263398919983,0.1728802376190821,-0.48752024683155326,-0.11147110072896137,-1.9463801863486305,0.1336059019074957,2.595550359778934,0.9452445589611904,0.0005495299601678887,0.0004141726743605864,-0.00045285526589491936,9.77429983489489e-05,-6.388009407220695e-05,0.007113979634287198,0.0014060821305246012,0.0,0.0,0.0,0.0,0.0,0.0,0.0,-2.5163930759131148e-06,-2.334618524313381e-05,-0.00014288317758757996,3.079748990053588e-05,0.0001473210388838464,0.00015472730000798407,-1.8839958792593592e-05,-0.0005495299601678887,-0.0004141726743605864,0.00045285526589491936,-9.77429983489489e-05,6.388009407220695e-05,-0.007113979634287198,-0.0014060821305246012,0.2720577120780945,11.826318740844727,-1.0410492420196533,-21.768831253051758,-0.5102439522743225,-2.5399813652038574,0.34457725286483765,0
15,0.07001090049743652,-0.2720577120780945,-11.826318740844727,1.0410492420196533,21.768831253051758,0.5102439522743225,2.5399813652038574,-0.34457725286483765,0.0,0.0,0.0,0.0,0.0,0.0,0.0,-0.25923751939733736,0.513493262045104,-0.14545926741498852,0.4852620811603302,-0.025719538468201422,0.1351266435431191,-0.315676474379145,0.17288275401215802,-0.4874969006463101,-0.11132821755137379,-1.946410983838531,0.13345858086861184,2.595395632478926,0.945263398919983,0.1728802376190821,-0.48752024683155326,-0.11147110072896137,-1.9463801863486305,0.1336059019074957,2.595550359778934,0.9452445589611904,0.0005495299601678887,0.0004141726743605864,-0.00045285526589491936,9.77429983489489e-05,-6.388009407220695e-05,0.007113979634287198,0.0014060821305246012,0.0,0.0,0.0,0.0,0.0,0.0,0.0,-2.5163930759131148e-06,-2.334618524313381e-05,-0.00014288317758757996,3.079748990053588e-05,0.0001473210388838464,0.00015472730000798407,-1.8839958792593592e-05,-0.0005495299601678887,-0.0004141726743605864,0.00045285526589491936,-9.77429983489489e-05,6.388009407220695e-05,-0.007113979634287198,-0.0014060821305246012,0.2720577120780945,11.826318740844727,-1.0410492420196533,-21.768831253051758,-0.5102439522743225,-2.5399813652038574,0.34457725286483765,0
16,0.07500839233398438,-0.24825400114059448,-11.826318740844727,1.0172455310821533,21.816438674926758,0.5047507882118225,2.5335726737976074,-0.30337852239608765,0.0,0.0,0.0,0.0,0.0,0.0,0.0,-0.2549234516419706,0.5192328826115382,-0.14262384215004786,0.4792165916534026,-0.025305416172515183,0.13537855277767397,-0.3163645456930853,0.17288108357630275,-0.4874969006463101,-0.11132654711551832,-1.9464143247102437,0.13345776954102384,2.595396344555749,0.9452616711104556,0.1728802376190821,-0.48752024683155326,-0.11147110072896137,-1.9463801863486305,0.1336059019074957,2.595550359778934,0.9452445589611904,-0.0005635801958351483,0.0006010633344555709,0.0005086432442201576,-0.001051930336318686,0.00035863193204241226,0.0004462152074016057,0.00013457832259179412,0.0,0.0,0.0,0.0,0.0,0.0,0.0,-8.459572206354071e-07,-2.334618524313381e-05,-0.00014455361344305195,3.413836161314521e-05,0.00014813236647184813,0.00015401522318514438,-1.7112149265141596e-05,0.0005635801958351483,-0.0006010633344555709,-0.0005086432442201576,0.001051930336318686,-0.00035863193204241226,-0.0004462152074016057,-0.00013457832259179412,0.24825400114059448,11.826318740844727,-1.0172455310821533,-21.816438674926758,-0.5047507882118225,-2.5335726737976074,0.30337852239608765,0
17,0.08002996444702148,-0.24825400114059448,-11.826318740844727,1.0172455310821533,21.816438674926758,0.5047507882118225,2.5335726737976074,-0.30337852239608765,0.0,0.0,0.0,0.0,0.0,0.0,0.0,-0.2549234516419706,0.5192328826115382,-0.14262384215004786,0.4792165916534026,-0.025305416172515183,0.13537855277767397,-0.3163645456930853,0.17288108357630275,-0.4874969006463101,-0.11132654711551832,-1.9464143247102437,0.13345776954102384,2.595396344555749,0.9452616711104556,0.1728802376190821,-0.48752024683155326,-0.11147110072896137,-1.9463801863486305,0.1336059019074957,2.595550359778934,0.9452445589611904,-0.0005635801958351483,0.0006010633344555709,0.0005086432442201576,-0.001051930336318686,0.00035863193204241226,0.0004462152074016057,0.00013457832259179412,0.0,0.0,0.0,0.0,0.0,0.0,0.0,-8.459572206354071e-07,-2.334618524313381e-05,-0.00014455361344305195,3.413836161314521e-05,0.00014813236647184813,0.00015401522318514438,-1.7112149265141596e-05,0.0005635801958351483,-0.0006010633344555709,-0.0005086432442201576,0.001051930336318686,-0.00035863193204241226,-0.0004462152074016057,-0.00013457832259179412,0.24825400114059448,11.826318740844727,-1.0172455310821533,-21.816438674926758,-0.5047507882118225,-2.5335726737976074,0.30337852239608765,0
18,0.08501458168029785,-0.2720577120780945,-11.826318740844727,1.0172455310821533,21.816438674926758,0.5166526436805725,2.5463900566101074,-0.29605430364608765,0.0,0.0,0.0,0.0,0.0,0.0,0.0,-0.2598260472520339,0.49589569340605927,-0.14802316444694968,0.4945600879487008,-0.024615342912877432,0.13900327904959925,-0.31616386467960617,0.17288275401215802,-0.4874969006463101,-0.11132655586407386,-1.9464143247102437,0.13345644710461302,2.595394920402103,0.9452574800771782,0.1728802376190821,-0.48752024683155326,-0.11147110072896137,-1.9463801863486305,0.1336059019074957,2.595550359778934,0.9452445589611904,-0.0002221561538788692,3.106368723616349e-05,0.0005926362695387742,-0.0008803878375940922,-0.00036530110005332235,-0.00035343980325026946,-0.0004982431902734072,0.0,0.0,0.0,0.0,0.0,0.0,0.0,-2.5163930759131148e-06,-2.334618524313381e-05,-0.0001445448648875053,3.413836161314521e-05,0.00014945480288267032,0.00015543937683082376,-1.2921115987829523e-05,0.0002221561538788692,-3.106368723616349e-05,-0.0005926362695387742,0.0008803878375940922,0.00036530110005332235,0.00035343980325026946,0.0004982431902734072,0.2720577120780945,11.826318740844727,-1.0172455310821533,-21.816438674926758,-0.5166526436805725,-2.5463900566101074,0.29605430364608765,0
19,0.09000349044799805,-0.2720577120780945,-11.826318740844727,1.0172455310821533,21.816438674926758,0.5166526436805725,2.5463900566101074,-0.29605430364608765,0.0,0.0,0.0,0.0,0.0,0.0,0.0,-0.2598260472520339,0.49589569340605927,-0.14802316444694968,0.4945600879487008,-0.024615342912877432,0.13900327904959925,-0.31616386467960617,0.17288275401215802,-0.4874969006463101,-0.11132655586407386,-1.9464143247102437,0.13345644710461302,2.595394920402103,0.9452574800771782,0.1728802376190821,-0.48752024683155326,-0.11147110072896137,-1.9463801863486305,0.1336059019074957,2.595550359778934,0.9452445589611904,-0.0002221561538788692,3.106368723616349e-05,0.0005926362695387742,-0.0008803878375940922,-0.00036530110005332235,-0.00035343980325026946,-0.0004982431902734072,0.0,0.0,0.0,0.0,0.0,0.0,0.0,-2.5163930759131148e-06,-2.334618524313381e-05,-0.0001445448648875053,3.413836161314521e-05,0.00014945480288267032,0.00015543937683082376,-1.2921115987829523e-05,0.0002221561538788692,-3.106368723616349e-05,-0.0005926362695387742,0.0008803878375940922,0.00036530110005332235,0.00035343980325026946,0.0004982431902734072,0.2720577120780945,11.826318740844727,-1.0172455310821533,-21.816438674926758,-0.5166526436805725,-2.5463900566101074,0.29605430364608765,0
20,0.09499740600585938,-0.24825400114059448,-11.826318740844727,1.0172455310821533,21.792634963989258,0.5047507882118225,2.5399813652038574,-0.33084434270858765,0.0,0.0,0.0,0.0,0.0,0.0,0.0,-0.2579484489737185,0.5090114275073157,-0.14346086239792005,0.4889709627056574,-0.025119829948631347,0.13774248692167163,-0.3164282473518848,0.17288108357630275,-0.4874969006463101,-0.1113265471155677,-1.946412653256903,0.13345777002054338,2.595395632478926,0.9452646064884055,0.1728802376190821,-0.48752024683155326,-0.11147110072896137,-1.9463801863486305,0.1336059019074957,2.595550359778934,0.9452445589611904,-0.0001414860924705514,0.0004025388117007964,0.0009360673944429293,-0.00037952850630377784,7.515193140976118e-05,-0.00026642891336746584,0.0005503151508320494,0.0,0.0,0.0,0.0,0.0,0.0,0.0,-8.459572206354071e-07,-2.334618524313381e-05,-0.0001445536133936609,3.246690827252152e-05,0.00014813188695231294,0.00015472730000798407,-2.0047527215072414e-05,0.0001414860924705514,-0.0004025388117007964,-0.0009360673944429293,0.00037952850630377784,-7.515193140976118e-05,0.00026642891336746584,-0.0005503151508320494,0.24825400114059448,11.826318740844727,-1.0172455310821533,-21.792634963989258,-0.5047507882118225,-2.5399813652038574,0.33084434270858765,0
21,0.10000085830688477,-0.24825400114059448,-11.826318740844727,1.0172455310821533,21.792634963989258,0.5047507882118225,2.5399813652038574,-0.33084434270858765,0.0,0.0,0.0,0.0,0.0,0.0,0.0,-0.2579484489737185,0.5090114275073157,-0.14346086239792005,0.4889709627056574,-0.025119829948631347,0.13774248692167163,-0.3164282473518848,0.17288108357630275,-0.4874969006463101,-0.1113265471155677,-1.946412653256903,0.13345777002054338,2.595395632478926,0.9452646064884055,0.1728802376190821,-0.48752024683155326,-0.11147110072896137,-1.9463801863486305,0.1336059019074957,2.595550359778934,0.9452445589611904,-0.0001414860924705514,0.0004025388117007964,0.0009360673944429293,-0.00037952850630377784,7.515193140976118e-05,-0.00026642891336746584,0.0005503151508320494,0.0,0.0,0.0,0.0,0.0,0.0,0.0,-8.459572206354071e-07,-2.334618524313381e-05,-0.0001445536133936609,3.246690827252152e-05,0.00014813188695231294,0.00015472730000798407,-2.0047527215072414e-05,0.0001414860924705514,-0.0004025388117007964,-0.0009360673944429293,0.00037952850630377784,-7.515193140976118e-05,0.00026642891336746584,-0.0005503151508320494,0.24825400114059448,11.826318740844727,-1.0172455310821533,-21.792634963989258,-0.5047507882118225,-2.5399813652038574,0.33084434270858765,0
22,0.10499906539916992,-0.24825400114059448,-11.826318740844727,1.0172455310821533,21.792634963989258,0.5047507882118225,2.5399813652038574,-0.33084434270858765,0.0,0.0,0.0,0.0,0.0,0.0,0.0,-0.2579484489737185,0.5090114275073157,-0.14346086239792005,0.4889709627056574,-0.025119829948631347,0.13774248692167163,-0.3164282473518848,0.17288108357630275,-0.4874969006463101,-0.1113265471155677,-1.946412653256903,0.13345777002054338,2.595395632478926,0.9452646064884055,0.1728802376190821,-0.48752024683155326,-0.11147110072896137,-1.9463801863486305,0.1336059019074957,2.595550359778934,0.9452445589611904,-0.0001414860924705514,0.0004025388117007964,0.0009360673944429293,-0.00037952850630377784,7.515193140976118e-05,-0.00026642891336746584,0.0005503151508320494,0.0,0.0,0.0,0.0,0.0,0.0,0.0,-8.459572206354071e-07,-2.334618524313381e-05,-0.0001445536133936609,3.246690827252152e-05,0.00014813188695231294,0.00015472730000798407,-2.0047527215072414e-05,0.0001414860924705514,-0.0004025388117007964,-0.0009360673944429293,0.00037952850630377784,-7.515193140976118e-05,0.00026642891336746584,-0.0005503151508320494,0.24825400114059448,11.826318740844727,-1.0172455310821533,-21.792634963989258,-0.5047507882118225,-2.5399813652038574,0.33084434270858765,0
23,0.1100013256072998,-0.24825400114059448,-11.826318740844727,1.0172455310821533,21.792634963989258,0.5047507882118225,2.5399813652038574,-0.33084434270858765,0.0,0.0,0.0,0.0,0.0,0.0,0.0,-0.2579484489737185,0.5090114275073157,-0.14346086239792005,0.4889709627056574,-0.025119829948631347,0.13774248692167163,-0.3164282473518848,0.17288108357630275,-0.4874969006463101,-0.1113265471155677,-1.946412653256903,0.13345777002054338,2.595395632478926,0.9452646064884055,0.1728802376190821,-0.48752024683155326,-0.11147110072896137,-1.9463801863486305,0.1336059019074957,2.595550359778934,0.9452445589611904,-0.0001414860924705514,0.0004025388117007964,0.0009360673944429293,-0.00037952850630377784,7.515193140976118e-05,-0.00026642891336746584,0.0005503151508320494,0.0,0.0,0.0,0.0,0.0,0.0,0.0,-8.459572206354071e-07,-2.334618524313381e-05,-0.0001445536133936609,3.246690827252152e-05,0.00014813188695231294,0.00015472730000798407,-2.0047527215072414e-05,0.0001414860924705514,-0.0004025388117007964,-0.0009360673944429293,0.00037952850630377784,-7.515193140976118e-05,0.00026642891336746584,-0.0005503151508320494,0.24825400114059448,11.826318740844727,-1.0172455310821533,-21.792634963989258,-0.5047507882118225,-2.5399813652038574,0.33084434270858765,0
24,0.11499857902526855,-0.24825400114059448,-11.826318740844727,1.0172455310821533,21.792634963989258,0.5047507882118225,2.5399813652038574,-0.33084434270858765,0.0,0.0,0.0,0.0,0.0,0.0,0.0,-0.2579484489737185,0.5090114275073157,-0.14346086239792005,0.4889709627056574,-0.025119829948631347,0.13774248692167163,-0.3164282473518848,0.17288108357630275,-0.4874969006463101,-0.1113265471155677,-1.946412653256903,0.13345777002054338,2.595395632478926,0.9452646064884055,0.1728802376190821,-0.48752024683155326,-0.11147110072896137,-1.9463801863486305,0.1336059019074957,2.595550359778934,0.9452445589611904,-0.0001414860924705514,0.0004025388117007964,0.0009360673944429293,-0.00037952850630377784,7.515193140976118e-05,-0.00026642891336746584,0.0005503151508320494,0.0,0.0,0.0,0.0,0.0,0.0,0.0,-8.459572206354071e-07,-2.334618524313381e-05,-0.0001445536133936609,3.246690827252152e-05,0.00014813188695231294,0.00015472730000798407,-2.0047527215072414e-05,0.0001414860924705514,-0.0004025388117007964,-0.0009360673944429293,0.00037952850630377784,-7.515193140976118e-05,0.00026642891336746584,-0.0005503151508320494,0.24825400114059448,11.826318740844727,-1.0172455310821533,-21.792634963989258,-0.5047507882118225,-2.5399813652038574,0.33084434270858765,0
25,0.11999821662902832,-0.22445029020309448,-11.826318740844727,1.0172455310821533,21.792634963989258,0.5047507882118225,2.5335726737976074,-0.30978721380233765,0.0,0.0,0.0,0.0,0.0,0.0,0.0,-0.26332579128021916,0.5017142929062145,-0.15105288419889445,0.49380922834609414,-0.02502848055285148,0.13782171492136142,-0.31737617137553603,0.1728794131404475,-0.4874969006463101,-0.11132655586407386,-1.946412654236698,0.13345776953300115,2.595396344555749,0.9452633633841291,0.1728802376190821,-0.48752024683155326,-0.11147110072896137,-1.9463801863486305,0.1336059019074957,2.595550359778934,0.9452445589611904,-0.0009485809693340363,-0.00020531646430806905,0.0006803685656707486,-0.00010385178288215956,7.915640320554224e-05,4.0344728060654013e-05,-4.5510804700698975e-05,0.0,0.0,0.0,0.0,0.0,0.0,0.0,8.24478634614545e-07,-2.334618524313381e-05,-0.0001445448648875053,3.246788806743339e-05,0.00014813237449454175,0.00015401522318514438,-1.8804422938667464e-05,0.0009485809693340363,0.00020531646430806905,-0.0006803685656707486,0.00010385178288215956,-7.915640320554224e-05,-4.0344728060654013e-05,4.5510804700698975e-05,0.22445029020309448,11.826318740844727,-1.0172455310821533,-21.792634963989258,-0.5047507882118225,-2.5335726737976074,0.30978721380233765,0
26,0.12499809265136719,-0.22445029020309448,-11.826318740844727,1.0172455310821533,21.792634963989258,0.5047507882118225,2.5335726737976074,-0.30978721380233765,0.0,0.0,0.0,0.0,0.0,0.0,0.0,-0.26332579128021916,0.5017142929062145,-0.15105288419889445,0.49380922834609414,-0.02502848055285148,0.13782171492136142,-0.31737617137553603,0.1728794131404475,-0.4874969006463101,-0.11132655586407386,-1.946412654236698,0.13345776953300115,2.595396344555749,0.9452633633841291,0.1728802376190821,-0.48752024683155326,-0.11147110072896137,-1.9463801863486305,0.1336059019074957,2.595550359778934,0.9452445589611904,-0.0009485809693340363,-0.00020531646430806905,0.0006803685656707486,-0.00010385178288215956,7.915640320554224e-05,4.0344728060654013e-05,-4.5510804700698975e-05,0.0,0.0,0.0,0.0,0.0,0.0,0.0,8.24478634614545e-07,-2.334618524313381e-05,-0.0001445448648875053,3.246788806743339e-05,0.00014813237449454175,0.00015401522318514438,-1.8804422938667464e-05,0.0009485809693340363,0.00020531646430806905,-0.0006803685656707486,0.00010385178288215956,-7.915640320554224e-05,-4.0344728060654013e-05,4.5510804700698975e-05,0.22445029020309448,11.826318740844727,-1.0172455310821533,-21.792634963989258,-0.5047507882118225,-2.5335726737976074,0.30978721380233765,0
27,0.12999844551086426,-0.24825400114059448,-11.850122451782227,1.0688202381134033,21.741060256958008,0.5102439522743225,2.5335726737976074,-0.33725303411483765,0.0,0.0,0.0,0.0,0.0,0.0,0.0,-0.26126005251836115,0.5032029490953113,-0.14982325090895904,0.49130332984635294,-0.025483896692690425,0.13710474336937808,-0.31651512689135614,0.17288108357630275,-0.4874952302104548,-0.111330245130254,-1.9464090074869176,0.1334571591814359,2.595396344555749,0.9452657975063687,0.1728802376190821,-0.48752024683155326,-0.11147110072896137,-1.9463801863486305,0.1336059019074957,2.595550359778934,0.9452445589611904,-0.0002337234050482237,0.0004039974996114123,-0.0007516414385891362,0.0008272939480206044,-0.00013118696305355188,4.191016235211032e-05,0.0014821881268237214,0.0,0.0,0.0,0.0,0.0,0.0,0.0,-8.459572206354071e-07,-2.5016621098439273e-05,-0.00014085559870737063,2.8821138287060677e-05,0.00014874272605977512,0.00015401522318514438,-2.1238545178325907e-05,0.0002337234050482237,-0.0004039974996114123,0.0007516414385891362,-0.0008272939480206044,0.00013118696305355188,-4.191016235211032e-05,-0.0014821881268237214,0.24825400114059448,11.850122451782227,-1.0688202381134033,-21.741060256958008,-0.5102439522743225,-2.5335726737976074,0.33725303411483765,0
28,0.13500118255615234,-0.24825400114059448,-11.850122451782227,1.0688202381134033,21.741060256958008,0.5102439522743225,2.5335726737976074,-0.33725303411483765,0.0,0.0,0.0,0.0,0.0,0.0,0.0,-0.26126005251836115,0.5032029490953113,-0.14982325090895904,0.49130332984635294,-0.025483896692690425,0.13710474336937808,-0.31651512689135614,0.17288108357630275,-0.4874952302104548,-0.111330245130254,-1.9464090074869176,0.1334571591814359,2.595396344555749,0.9452657975063687,0.1728802376190821,-0.48752024683155326,-0.11147110072896137,-1.9463801863486305,0.1336059019074957,2.595550359778934,0.9452445589611904,-0.0002337234050482237,0.0004039974996114123,-0.0007516414385891362,0.0008272939480206044,-0.00013118696305355188,4.191016235211032e-05,0.0014821881268237214,0.0,0.0,0.0,0.0,0.0,0.0,0.0,-8.459572206354071e-07,-2.5016621098439273e-05,-0.00014085559870737063,2.8821138287060677e-05,0.00014874272605977512,0.00015401522318514438,-2.1238545178325907e-05,0.0002337234050482237,-0.0004039974996114123,0.0007516414385891362,-0.0008272939480206044,0.00013118696305355188,-4.191016235211032e-05,-0.0014821881268237214,0.24825400114059448,11.850122451782227,-1.0688202381134033,-21.741060256958008,-0.5102439522743225,-2.5335726737976074,0.33725303411483765,0
29,0.14000391960144043,-0.22445029020309448,-11.850122451782227,1.0172455310821533,21.792634963989258,0.5102439522743225,2.5271639823913574,-0.30978721380233765,0.0,0.0,0.0,0.0,0.0,0.0,0.0,-0.25955541746016897,0.4947054981655657,-0.14795234937448237,0.4933980893150079,-0.025658260612528978,0.1369363672294937,-0.3163403852800302,0.1728794131404475,-0.4874952302104548,-0.11132654711596279,-1.9464124056686891,0.1334571591814359,2.5953970566325717,0.9452594197058252,0.1728802376190821,-0.48752024683155326,-0.11147110072896137,-1.9463801863486305,0.1336059019074957,2.595550359778934,0.9452445589611904,-0.0007124631064784691,0.0003406682431762379,0.000378030015715574,-0.0003503625902662578,-1.4087388305277097e-05,0.00016380876072001732,-0.00012107929217662695,0.0,0.0,0.0,0.0,0.0,0.0,0.0,8.24478634614545e-07,-2.5016621098439273e-05,-0.00014455361299857417,3.221932005859074e-05,0.00014874272605977512,0.0001533031463623047,-1.486074463474818e-05,0.0007124631064784691,-0.0003406682431762379,-0.000378030015715574,0.0003503625902662578,1.4087388305277097e-05,-0.00016380876072001732,0.00012107929217662695,0.22445029020309448,11.850122451782227,-1.0172455310821533,-21.792634963989258,-0.5102439522743225,-2.5271639823913574,0.30978721380233765,0
30,0.14500808715820312,-0.22445029020309448,-11.850122451782227,1.0172455310821533,21.792634963989258,0.5102439522743225,2.5271639823913574,-0.30978721380233765,0.0,0.0,0.0,0.0,0.0,0.0,0.0,-0.25955541746016897,0.4947054981655657,-0.14795234937448237,0.4933980893150079,-0.025658260612528978,0.1369363672294937,-0.3163403852800302,0.1728794131404475,-0.4874952302104548,-0.11132654711596279,-1.9464124056686891,0.1334571591814359,2.5953970566325717,0.9452594197058252,0.1728802376190821,-0.48752024683155326,-0.11147110072896137,-1.9463801863486305,0.1336059019074957,2.595550359778934,0.9452445589611904,-0.0007124631064784691,0.0003406682431762379,0.000378030015715574,-0.0003503625902662578,-1.4087388305277097e-05,0.00016380876072001732,-0.00012107929217662695,0.0,0.0,0.0,0.0,0.0,0.0,0.0,8.24478634614545e-07,-2.5016621098439273e-05,-0.00014455361299857417,3.221932005859074e-05,0.00014874272605977512,0.0001533031463623047,-1.486074463474818e-05,0.0007124631064784691,-0.0003406682431762379,-0.000378030015715574,0.0003503625902662578,1.4087388305277097e-05,-0.00016380876072001732,0.00012107929217662695,0.22445029020309448,11.850122451782227,-1.0172455310821533,-21.792634963989258,-0.5102439522743225,-2.5271639823913574,0.30978721380233765,0
31,0.15000677108764648,-0.24825400114059448,-11.826318740844727,1.0410492420196533,21.768831253051758,0.5047507882118225,2.5399813652038574,-0.33084434270858765,0.0,0.0,0.0,0.0,0.0,0.0,0.0,-0.2565043825356841,0.5054569881233744,-0.146581460810134,0.48588548815180527,-0.02568000110247435,0.1350097858766135,-0.31628728941083145,0.17288108357630275,-0.4874969006463101,-0.11132821755137358,-1.946410241072954,0.1334577695329984,2.595395632478926,0.9452650983196551,0.1728802376190821,-0.48752024683155326,-0.11147110072896137,-1.9463801863486305,0.1336059019074957,2.595550359778934,0.9452445589611904,-0.00033961388715431697,0.0001614703605483087,0.00018720679146590406,0.0004318071630742174,0.00015410956516751602,-0.00010616764987164463,0.0007068537190863342,0.0,0.0,0.0,0.0,0.0,0.0,0.0,-8.459572206354071e-07,-2.334618524313381e-05,-0.00014288317758778812,3.0054724323491655e-05,0.00014813237449728955,0.00015472730000798407,-2.0539358464688462e-05,0.00033961388715431697,-0.0001614703605483087,-0.00018720679146590406,-0.0004318071630742174,-0.00015410956516751602,0.00010616764987164463,-0.0007068537190863342,0.24825400114059448,11.826318740844727,-1.0410492420196533,-21.768831253051758,-0.5047507882118225,-2.5399813652038574,0.33084434270858765,0
32,0.15500497817993164,-0.24825400114059448,-11.826318740844727,1.0410492420196533,21.768831253051758,0.5047507882118225,2.5399813652038574,-0.33084434270858765,0.0,0.0,0.0,0.0,0.0,0.0,0.0,-0.2565043825356841,0.5054569881233744,-0.146581460810134,0.48588548815180527,-0.02568000110247435,0.1350097858766135,-0.31628728941083145,0.17288108357630275,-0.4874969006463101,-0.11132821755137358,-1.946410241072954,0.1334577695329984,2.595395632478926,0.9452650983196551,0.1728802376190821,-0.48752024683155326,-0.11147110072896137,-1.9463801863486305,0.1336059019074957,2.595550359778934,0.9452445589611904,-0.00033961388715431697,0.0001614703605483087,0.00018720679146590406,0.0004318071630742174,0.00015410956516751602,-0.00010616764987164463,0.0007068537190863342,0.0,0.0,0.0,0.0,0.0,0.0,0.0,-8.459572206354071e-07,-2.334618524313381e-05,-0.00014288317758778812,3.0054724323491655e-05,0.00014813237449728955,0.00015472730000798407,-2.0539358464688462e-05,0.00033961388715431697,-0.0001614703605483087,-0.00018720679146590406,-0.0004318071630742174,-0.00015410956516751602,0.00010616764987164463,-0.0007068537190863342,0.24825400114059448,11.826318740844727,-1.0410492420196533,-21.768831253051758,-0.5047507882118225,-2.5399813652038574,0.33084434270858765,0
33,0.1600041389465332,-0.22445029020309448,-11.850122451782227,1.0410492420196533,21.741060256958008,0.5102439522743225,2.5335726737976074,-0.29605430364608765,0.0,0.0,0.0,0.0,0.0,0.0,0.0,-0.25406568286692455,0.5112838584783226,-0.14189989511690004,0.48352842582838657,-0.02550973432562064,0.13443678307671517,-0.3166927216528484,0.1728794131404475,-0.4874952302104548,-0.11132821755137358,-1.94640895257621,0.1334571591814359,2.595396344555749,0.9452618245956279,0.1728802376190821,-0.48752024683155326,-0.11147110072896137,-1.9463801863486305,0.1336059019074957,2.595550359778934,0.9452445589611904,-0.00010723763016678346,0.0009561765717658232,0.0003074809533471322,0.0006997175650085043,-6.290670571036726e-05,6.912528700402947e-05,-0.0001355838104851876,0.0,0.0,0.0,0.0,0.0,0.0,0.0,8.24478634614545e-07,-2.5016621098439273e-05,-0.00014288317758778812,2.8766227579524184e-05,0.00014874272605977512,0.00015401522318514438,-1.7265634437491073e-05,0.00010723763016678346,-0.0009561765717658232,-0.0003074809533471322,-0.0006997175650085043,6.290670571036726e-05,-6.912528700402947e-05,0.0001355838104851876,0.22445029020309448,11.850122451782227,-1.0410492420196533,-21.741060256958008,-0.5102439522743225,-2.5335726737976074,0.29605430364608765,0
34,0.16495418548583984,-0.22445029020309448,-11.850122451782227,1.0410492420196533,21.741060256958008,0.5102439522743225,2.5335726737976074,-0.29605430364608765,0.0,0.0,0.0,0.0,0.0,0.0,0.0,-0.25406568286692455,0.5112838584783226,-0.14189989511690004,0.48352842582838657,-0.02550973432562064,0.13443678307671517,-0.3166927216528484,0.1728794131404475,-0.4874952302104548,-0.11132821755137358,-1.94640895257621,0.1334571591814359,2.595396344555749,0.9452618245956279,0.1728802376190821,-0.48752024683155326,-0.11147110072896137,-1.9463801863486305,0.1336059019074957,2.595550359778934,0.9452445589611904,-0.00010723763016678346,0.0009561765717658232,0.0003074809533471322,0.0006997175650085043,-6.290670571036726e-05,6.912528700402947e-05,-0.0001355838104851876,0.0,0.0,0.0,0.0,0.0,0.0,0.0,8.24478634614545e-07,-2.5016621098439273e-05,-0.00014288317758778812,2.8766227579524184e-05,0.00014874272605977512,0.00015401522318514438,-1.7265634437491073e-05,0.00010723763016678346,-0.0009561765717658232,-0.0003074809533471322,-0.0006997175650085043,6.290670571036726e-05,-6.912528700402947e-05,0.0001355838104851876,0.22445029020309448,11.850122451782227,-1.0410492420196533,-21.741060256958008,-0.5102439522743225,-2.5335726737976074,0.29605430364608765,0
35,0.16995453834533691,-0.2720577120780945,-11.826318740844727,1.0688202381134033,21.792634963989258,0.5166526436805725,2.5399813652038574,-0.28964561223983765,0.0,0.0,0.0,0.0,0.0,0.0,0.0,-0.25649328244835173,0.4974729551435027,-0.14591853539853183,0.49287774079818664,-0.02499772327776304,0.1362821073512044,-0.31664925689647955,0.17288275401215802,-0.4874969006463101,-0.11133016639320473,-1.946412654273923,0.133456447104613,2.595395632478926,0.9452611151708374,0.1728802376190821,-0.48752024683155326,-0.11147110072896137,-1.9463801863486305,0.1336059019074957,2.595550359778934,0.9452445589611904,0.00012465560487638421,-0.00022222596490134672,-0.00024274947898070333,-0.0002521848639372075,-0.00024348580485923554,-0.0002882610929035751,-0.0007248644259082777,0.0,0.0,0.0,0.0,0.0,0.0,0.0,-2.5163930759131148e-06,-2.334618524313381e-05,-0.00014093433575664005,3.2467925292545274e-05,0.00014945480288269808,0.00015472730000798407,-1.6556209647022868e-05,-0.00012465560487638421,0.00022222596490134672,0.00024274947898070333,0.0002521848639372075,0.00024348580485923554,0.0002882610929035751,0.0007248644259082777,0.2720577120780945,11.826318740844727,-1.0688202381134033,-21.792634963989258,-0.5166526436805725,-2.5399813652038574,0.28964561223983765,0
36,0.1758124828338623,-0.2720577120780945,-11.826318740844727,1.0688202381134033,21.792634963989258,0.5166526436805725,2.5399813652038574,-0.28964561223983765,0.0,0.0,0.0,0.0,0.0,0.0,0.0,-0.25649328244835173,0.4974729551435027,-0.14591853539853183,0.49287774079818664,-0.02499772327776304,0.1362821073512044,-0.31664925689647955,0.17288275401215802,-0.4874969006463101,-0.11133016639320473,-1.946412654273923,0.133456447104613,2.595395632478926,0.9452611151708374,0.1728802376190821,-0.48752024683155326,-0.11147110072896137,-1.9463801863486305,0.1336059019074957,2.595550359778934,0.9452445589611904,0.00012465560487638421,-0.00022222596490134672,-0.00024274947898070333,-0.0002521848639372075,-0.00024348580485923554,-0.0002882610929035751,-0.0007248644259082777,0.0,0.0,0.0,0.0,0.0,0.0,0.0,-2.5163930759131148e-06,-2.334618524313381e-05,-0.00014093433575664005,3.2467925292545274e-05,0.00014945480288269808,0.00015472730000798407,-1.6556209647022868e-05,-0.00012465560487638421,0.00022222596490134672,0.00024274947898070333,0.0002521848639372075,0.00024348580485923554,0.0002882610929035751,0.0007248644259082777,0.2720577120780945,11.826318740844727,-1.0688202381134033,-21.792634963989258,-0.5166526436805725,-2.5399813652038574,0.28964561223983765,0
37,0.17999744415283203,-0.22445029020309448,-11.873926162719727,1.0410492420196533,21.792634963989258,0.5102439522743225,2.5399813652038574,-0.32352012395858765,0.0,0.0,0.0,0.0,0.0,0.0,0.0,-0.2553631101023904,0.5081760952171135,-0.14133922834269672,0.48728639768721027,-0.02513724890423771,0.13519553142514493,-0.31674919377461436,0.1728794131404475,-0.48749355977459957,-0.11132821755137358,-1.9464126542367035,0.1334571591814359,2.595395632478926,0.9452637887930058,0.1728802376190821,-0.48752024683155326,-0.11147110072896137,-1.9463801863486305,0.1336059019074957,2.595550359778934,0.9452445589611904,-0.0006814642099229809,0.0014610554087766266,0.0003938569015372537,-0.00010324708914824069,-1.4636291550459307e-05,-0.00026337294659573094,0.00029107098994473436,0.0,0.0,0.0,0.0,0.0,0.0,0.0,8.24478634614545e-07,-2.6687056953689225e-05,-0.00014288317758778812,3.246788807298451e-05,0.00014874272605977512,0.00015472730000798407,-1.922983181534832e-05,0.0006814642099229809,-0.0014610554087766266,-0.0003938569015372537,0.00010324708914824069,1.4636291550459307e-05,0.00026337294659573094,-0.00029107098994473436,0.22445029020309448,11.873926162719727,-1.0410492420196533,-21.792634963989258,-0.5102439522743225,-2.5399813652038574,0.32352012395858765,0
38,0.18500113487243652,-0.22445029020309448,-11.873926162719727,1.0410492420196533,21.792634963989258,0.5102439522743225,2.5399813652038574,-0.32352012395858765,0.0,0.0,0.0,0.0,0.0,0.0,0.0,-0.2553631101023904,0.5081760952171135,-0.14133922834269672,0.48728639768721027,-0.02513724890423771,0.13519553142514493,-0.31674919377461436,0.1728794131404475,-0.48749355977459957,-0.11132821755137358,-1.9464126542367035,0.1334571591814359,2.595395632478926,0.9452637887930058,0.1728802376190821,-0.48752024683155326,-0.11147110072896137,-1.9463801863486305,0.1336059019074957,2.595550359778934,0.9452445589611904,-0.0006814642099229809,0.0014610554087766266,0.0003938569015372537,-0.00010324708914824069,-1.4636291550459307e-05,-0.00026337294659573094,0.00029107098994473436,0.0,0.0,0.0,0.0,0.0,0.0,0.0,8.24478634614545e-07,-2.6687056953689225e-05,-0.00014288317758778812,3.246788807298451e-05,0.00014874272605977512,0.00015472730000798407,-1.922983181534832e-05,0.0006814642099229809,-0.0014610554087766266,-0.0003938569015372537,0.00010324708914824069,1.4636291550459307e-05,0.00026337294659573094,-0.00029107098994473436,0.22445029020309448,11.873926162719727,-1.0410492420196533,-21.792634963989258,-0.5102439522743225,-2.5399813652038574,0.32352012395858765,0
39,0.19000005722045898,-0.2720577120780945,-11.802515029907227,1.0410492420196533,21.768831253051758,0.5221458077430725,2.5271639823913574,-0.30978721380233765,0.0,0.0,0.0,0.0,0.0,0.0,0.0,-0.2560223128260065,0.5132105334892454,-0.14217076534804232,0.4835663085265565,-0.024824542892130413,0.13464426184785241,-0.3176252833876869,0.17288275401215802,-0.4874985710821654,-0.11132821755137358,-1.946410736589636,0.13345583675305048,2.5953970566325717,0.9452595269199265,0.1728802376190821,-0.48752024683155326,-0.11147110072896137,-1.9463801863486305,0.1336059019074957,2.595550359778934,0.9452445589611904,0.00039108103382166605,-0.0005043614158301429,-0.00013788161616850247,-2.7342086883889274e-05,-0.0004667667352557806,0.0004446968522164721,0.0003463202447194312,0.0,0.0,0.0,0.0,0.0,0.0,0.0,-2.5163930759131148e-06,-2.1675749387883858e-05,-0.00014288317758778812,3.055024100540038e-05,0.0001500651544452114,0.0001533031463623047,-1.4967958736122888e-05,-0.00039108103382166605,0.0005043614158301429,0.00013788161616850247,2.7342086883889274e-05,0.0004667667352557806,-0.0004446968522164721,-0.0003463202447194312,0.2720577120780945,11.802515029907227,-1.0410492420196533,-21.768831253051758,-0.5221458077430725,-2.5271639823913574,0.30978721380233765,0
40,0.19500136375427246,-0.2720577120780945,-11.802515029907227,1.0410492420196533,21.768831253051758,0.5221458077430725,2.5271639823913574,-0.30978721380233765,0.0,0.0,0.0,0.0,0.0,0.0,0.0,-0.2560223128260065,0.5132105334892454,-0.14217076534804232,0.4835663085265565,-0.024824542892130413,0.13464426184785241,-0.3176252833876869,0.17288275401215802,-0.4874985710821654,-0.11132821755137358,-1.946410736589636,0.13345583675305048,2.5953970566325717,0.9452595269199265,0.1728802376190821,-0.48752024683155326,-0.11147110072896137,-1.9463801863486305,0.1336059019074957,2.595550359778934,0.9452445589611904,0.00039108103382166605,-0.0005043614158301429,-0.00013788161616850247,-2.7342086883889274e-05,-0.0004667667352557806,0.0004446968522164721,0.0003463202447194312,0.0,0.0,0.0,0.0,0.0,0.0,0.0,-2.5163930759131148e-06,-2.1675749387883858e-05,-0.00014288317758778812,3.055024100540038e-05,0.0001500651544452114,0.0001533031463623047,-1.4967958736122888e-05,-0.00039108103382166605,0.0005043614158301429,0.00013788161616850247,2.7342086883889274e-05,0.0004667667352557806,-0.0004446968522164721,-0.0003463202447194312,0.2720577120780945,11.802515029907227,-1.0410492420196533,-21.768831253051758,-0.5221458077430725,-2.5271639823913574,0.30978721380233765,0
41,0.20000195503234863,-0.24825400114059448,-11.802515029907227,1.0172455310821533,21.792634963989258,0.4983420968055725,2.5399813652038574,-0.30978721380233765,0.0,0.0,0.0,0.0,0.0,0.0,0.0,-0.25812740034984577,0.4976120182628831,-0.1443098025902564,0.49333161057321145,-0.024236923207592777,0.1360865492058704,-0.3167861029770194,0.17288108357630275,-0.4874985710821654,-0.11132654711551832,-1.946412651107483,0.13345848160982132,2.595395632478926,0.9452600900825247,0.1728802376190821,-0.48752024683155326,-0.11147110072896137,-1.9463801863486305,0.1336059019074957,2.595550359778934,0.9452445589611904,-0.0006397601757500182,-0.0007101604741643449,0.0003295567230335171,1.674215125422869e-05,0.0003807074169915988,-0.00032495616377684815,0.00044306413570890257,0.0,0.0,0.0,0.0,0.0,0.0,0.0,-8.459572206354071e-07,-2.1675749387883858e-05,-0.00014455361344305195,3.246475885254618e-05,0.0001474202976743666,0.00015472730000798407,-1.553112133423351e-05,0.0006397601757500182,0.0007101604741643449,-0.0003295567230335171,-1.674215125422869e-05,-0.0003807074169915988,0.00032495616377684815,-0.00044306413570890257,0.24825400114059448,11.802515029907227,-1.0172455310821533,-21.792634963989258,-0.4983420968055725,-2.5399813652038574,0.30978721380233765,0
42,0.2057962417602539,-0.24825400114059448,-11.802515029907227,1.0172455310821533,21.792634963989258,0.4983420968055725,2.5399813652038574,-0.30978721380233765,0.0,0.0,0.0,0.0,0.0,0.0,0.0,-0.25812740034984577,0.4976120182628831,-0.1443098025902564,0.49333161057321145,-0.024236923207592777,0.1360865492058704,-0.3167861029770194,0.17288108357630275,-0.4874985710821654,-0.11132654711551832,-1.946412651107483,0.13345848160982132,2.595395632478926,0.9452600900825247,0.1728802376190821,-0.48752024683155326,-0.11147110072896137,-1.9463801863486305,0.1336059019074957,2.595550359778934,0.9452445589611904,-0.0006397601757500182,-0.0007101604741643449,0.0003295567230335171,1.674215125422869e-05,0.0003807074169915988,-0.00032495616377684815,0.00044306413570890257,0.0,0.0,0.0,0.0,0.0,0.0,0.0,-8.459572206354071e-07,-2.1675749387883858e-05,-0.00014455361344305195,3.246475885254618e-05,0.0001474202976743666,0.00015472730000798407,-1.553112133423351e-05,0.0006397601757500182,0.0007101604741643449,-0.0003295567230335171,-1.674215125422869e-05,-0.0003807074169915988,0.00032495616377684815,-0.00044306413570890257,0.24825400114059448,11.802515029907227,-1.0172455310821533,-21.792634963989258,-0.4983420968055725,-2.5399813652038574,0.30978721380233765,0
43,0.2100059986114502,-0.2720577120780945,-11.873926162719727,0.9934418201446533,21.792634963989258,0.5047507882118225,2.5271639823913574,-0.31711143255233765,0.0,0.0,0.0,0.0,0.0,0.0,0.0,-0.25609000107164803,0.5122109346533148,-0.14030770612616453,0.4856388240911339,-0.02495411249086253,0.13446547829555366,-0.31685798906775875,0.17288275401215802,-0.48749355977459957,-0.11132487667966307,-1.9464126268022708,0.13345780902414164,2.5953970566325717,0.9452634535844993,0.1728802376190821,-0.48752024683155326,-0.11147110072896137,-1.9463801863486305,0.1336059019074957,2.595550359778934,0.9452445589611904,0.0002425336962627773,0.001692787201635489,0.0015255071362093732,-0.00045370309385608243,0.00011890178984413864,0.0005567086062456347,0.000122562242281978,0.0,0.0,0.0,0.0,0.0,0.0,0.0,-2.5163930759131148e-06,-2.6687056953689225e-05,-0.0001462240492983019,3.244045364025894e-05,0.00014809288335404514,0.0001533031463623047,-1.8894623308840508e-05,-0.0002425336962627773,-0.001692787201635489,-0.0015255071362093732,0.00045370309385608243,-0.00011890178984413864,-0.0005567086062456347,-0.000122562242281978,0.2720577120780945,11.873926162719727,-0.9934418201446533,-21.792634963989258,-0.5047507882118225,-2.5271639823913574,0.31711143255233765,0
44,0.2150135040283203,-0.2720577120780945,-11.873926162719727,0.9934418201446533,21.792634963989258,0.5047507882118225,2.5271639823913574,-0.31711143255233765,0.0,0.0,0.0,0.0,0.0,0.0,0.0,-0.25609000107164803,0.5122109346533148,-0.14030770612616453,0.4856388240911339,-0.02495411249086253,0.13446547829555366,-0.31685798906775875,0.17288275401215802,-0.48749355977459957,-0.11132487667966307,-1.9464126268022708,0.13345780902414164,2.5953970566325717,0.9452634535844993,0.1728802376190821,-0.48752024683155326,-0.11147110072896137,-1.9463801863486305,0.1336059019074957,2.595550359778934,0.9452445589611904,0.0002425336962627773,0.001692787201635489,0.0015255071362093732,-0.00045370309385608243,0.00011890178984413864,0.0005567086062456347,0.000122562242281978,0.0,0.0,0.0,0.0,0.0,0.0,0.0,-2.5163930759131148e-06,-2.6687056953689225e-05,-0.0001462240492983019,3.244045364025894e-05,0.00014809288335404514,0.0001533031463623047,-1.8894623308840508e-05,-0.0002425336962627773,-0.001692787201635489,-0.0015255071362093732,0.00045370309385608243,-0.00011890178984413864,-0.0005567086062456347,-0.000122562242281978,0.2720577120780945,11.873926162719727,-0.9934418201446533,-21.792634963989258,-0.5047507882118225,-2.5271639823913574,0.31711143255233765,0
45,0.22001004219055176,-0.19667929410934448,-11.802515029907227,1.0172455310821533,21.768831253051758,0.5102439522743225,2.5463900566101074,-0.32352012395858765,0.0,0.0,0.0,0.0,0.0,0.0,0.0,-0.25947946526939,0.49855827305303474,-0.14705797994774794,0.4928077058469142,-0.02473878840307001,0.13585328402068683,-0.31696278612782675,0.17287746429861633,-0.4874985710821654,-0.11132654711551832,-1.946410901422079,0.13345715918165882,2.595394920402103,0.9452616564267304,0.1728802376190821,-0.48752024683155326,-0.11147110072896137,-1.9463801863486305,0.1336059019074957,2.595550359778934,0.9452445589611904,-0.0013048210621302012,-0.0007323035373472789,0.0006107336991506695,0.0005899359649120942,0.00018045546172444808,-0.0005534711483417408,0.000962559207306207,0.0,0.0,0.0,0.0,0.0,0.0,0.0,2.7733204657764965e-06,-2.1675749387883858e-05,-0.00014455361344305195,3.07150734484285e-05,0.0001487427258368701,0.00015543937683082376,-1.70974655400169e-05,0.0013048210621302012,0.0007323035373472789,-0.0006107336991506695,-0.0005899359649120942,-0.00018045546172444808,0.0005534711483417408,-0.000962559207306207,0.19667929410934448,11.802515029907227,-1.0172455310821533,-21.768831253051758,-0.5102439522743225,-2.5463900566101074,0.32352012395858765,0
46,0.22500395774841309,-0.19667929410934448,-11.802515029907227,1.0172455310821533,21.768831253051758,0.5102439522743225,2.5463900566101074,-0.32352012395858765,0.0,0.0,0.0,0.0,0.0,0.0,0.0,-0.25947946526939,0.49855827305303474,-0.14705797994774794,0.4928077058469142,-0.02473878840307001,0.13585328402068683,-0.31696278612782675,0.17287746429861633,-0.4874985710821654,-0.11132654711551832,-1.946410901422079,0.13345715918165882,2.595394920402103,0.9452616564267304,0.1728802376190821,-0.48752024683155326,-0.11147110072896137,-1.9463801863486305,0.1336059019074957,2.595550359778934,0.9452445589611904,-0.0013048210621302012,-0.0007323035373472789,0.0006107336991506695,0.0005899359649120942,0.00018045546172444808,-0.0005534711483417408,0.000962559207306207,0.0,0.0,0.0,0.0,0.0,0.0,0.0,2.7733204657764965e-06,-2.1675749387883858e-05,-0.00014455361344305195,3.07150734484285e-05,0.0001487427258368701,0.00015543937683082376,-1.70974655400169e-05,0.0013048210621302012,0.0007323035373472789,-0.0006107336991506695,-0.0005899359649120942,-0.00018045546172444808,0.0005534711483417408,-0.000962559207306207,0.19667929410934448,11.802515029907227,-1.0172455310821533,-21.768831253051758,-0.5102439522743225,-2.5463900566101074,0.32352012395858765,0
47,0.23000812530517578,-0.22445029020309448,-11.826318740844727,1.0688202381134033,21.792634963989258,0.5166526436805725,2.5335726737976074,-0.26217979192733765,0.0,0.0,0.0,0.0,0.0,0.0,0.0,-0.26152225331807816,0.5053979814657251,-0.15187094961501146,0.4861699639196715,-0.024040236457363463,0.13510672871864515,-0.3164242383133471,0.1728794131404475,-0.4874969006463101,-0.11133016639320473,-1.946412654273923,0.133456447104613,2.595396344555749,0.945253840056157,0.1728802376190821,-0.48752024683155326,-0.11147110072896137,-1.9463801863486305,0.1336059019074957,2.595550359778934,0.9452445589611904,-0.0010852916712138943,-0.0003561188547157408,-0.00072215527979207,-0.0004380239158207562,-0.0003422160899096913,0.00015653962587638064,-0.0013049766655214869,0.0,0.0,0.0,0.0,0.0,0.0,0.0,8.24478634614545e-07,-2.334618524313381e-05,-0.00014093433575664005,3.2467925292545274e-05,0.00014945480288269808,0.00015401522318514438,-9.281094966562264e-06,0.0010852916712138943,0.0003561188547157408,0.00072215527979207,0.0004380239158207562,0.0003422160899096913,-0.00015653962587638064,0.0013049766655214869,0.22445029020309448,11.826318740844727,-1.0688202381134033,-21.792634963989258,-0.5166526436805725,-2.5335726737976074,0.26217979192733765,0
48,0.2349987030029297,-0.22445029020309448,-11.826318740844727,1.0688202381134033,21.792634963989258,0.5166526436805725,2.5335726737976074,-0.26217979192733765,0.0,0.0,0.0,0.0,0.0,0.0,0.0,-0.26152225331807816,0.5053979814657251,-0.15187094961501146,0.4861699639196715,-0.024040236457363463,0.13510672871864515,-0.3164242383133471,0.1728794131404475,-0.4874969006463101,-0.11133016639320473,-1.946412654273923,0.133456447104613,2.595396344555749,0.945253840056157,0.1728802376190821,-0.48752024683155326,-0.11147110072896137,-1.9463801863486305,0.1336059019074957,2.595550359778934,0.9452445589611904,-0.0010852916712138943,-0.0003561188547157408,-0.00072215527979207,-0.0004380239158207562,-0.0003422160899096913,0.00015653962587638064,-0.0013049766655214869,0.0,0.0,0.0,0.0,0.0,0.0,0.0,8.24478634614545e-07,-2.334618524313381e-05,-0.00014093433575664005,3.2467925292545274e-05,0.00014945480288269808,0.00015401522318514438,-9.281094966562264e-06,0.0010852916712138943,0.0003561188547157408,0.00072215527979207,0.0004380239158207562,0.0003422160899096913,-0.00015653962587638064,0.0013049766655214869,0.22445029020309448,11.826318740844727,-1.0688202381134033,-21.792634963989258,-0.5166526436805725,-2.5335726737976074,0.26217979192733765,0
49,0.24001216888427734,-0.2720577120780945,-11.826318740844727,1.0410492420196533,21.792634963989258,0.5221458077430725,2.5335726737976074,-0.28232139348983765,0.0,0.0,0.0,0.0,0.0,0.0,0.0,-0.2598839291102932,0.5070194641263217,-0.14786217906208873,0.4849192539913877,-0.024591436772021066,0.13479953611492523,-0.315091593436381,0.17288275401215802,-0.4874969006463101,-0.11132821755137358,-1.9464125718580894,0.13345583675305048,2.595396344555749,0.9452593313168256,0.1728802376190821,-0.48752024683155326,-0.11147110072896137,-1.9463801863486305,0.1336059019074957,2.595550359778934,0.9452445589611904,5.123513682057239e-05,0.00011467775062601924,0.00016090095988728287,-0.0002684815356533118,-0.0005655415700178833,0.0001579869484359096,-0.0008469546001904991,0.0,0.0,0.0,0.0,0.0,0.0,0.0,-2.5163930759131148e-06,-2.334618524313381e-05,-0.00014288317758778812,3.238550945883212e-05,0.0001500651544452114,0.00015401522318514438,-1.4772355635184198e-05,-5.123513682057239e-05,-0.00011467775062601924,-0.00016090095988728287,0.0002684815356533118,0.0005655415700178833,-0.0001579869484359096,0.0008469546001904991,0.2720577120780945,11.826318740844727,-1.0410492420196533,-21.792634963989258,-0.5221458077430725,-2.5335726737976074,0.28232139348983765,0
50,0.24499988555908203,-0.2720577120780945,-11.826318740844727,1.0410492420196533,21.792634963989258,0.5221458077430725,2.5335726737976074,-0.28232139348983765,0.0,0.0,0.0,0.0,0.0,0.0,0.0,-0.2598839291102932,0.5070194641263217,-0.14786217906208873,0.4849192539913877,-0.024591436772021066,0.13479953611492523,-0.315091593436381,0.17288275401215802,-0.4874969006463101,-0.11132821755137358,-1.9464125718580894,0.13345583675305048,2.595396344555749,0.9452593313168256,0.1728802376190821,-0.48752024683155326,-0.11147110072896137,-1.9463801863486305,0.1336059019074957,2.595550359778934,0.9452445589611904,5.123513682057239e-05,0.00011467775062601924,0.00016090095988728287,-0.0002684815356533118,-0.0005655415700178833,0.0001579869484359096,-0.0008469546001904991,0.0,0.0,0.0,0.0,0.0,0.0,0.0,-2.5163930759131148e-06,-2.334618524313381e-05,-0.00014288317758778812,3.238550945883212e-05,0.0001500651544452114,0.00015401522318514438,-1.4772355635184198e-05,-5.123513682057239e-05,-0.00011467775062601924,-0.00016090095988728287,0.0002684815356533118,0.0005655415700178833,-0.0001579869484359096,0.0008469546001904991,0.2720577120780945,11.826318740844727,-1.0410492420196533,-21.792634963989258,-0.5221458077430725,-2.5335726737976074,0.28232139348983765,0
51,0.2499992847442627,-0.2720577120780945,-11.826318740844727,1.0410492420196533,21.792634963989258,0.5221458077430725,2.5335726737976074,-0.28232139348983765,0.0,0.0,0.0,0.0,0.0,0.0,0.0,-0.2598839291102932,0.5070194641263217,-0.14786217906208873,0.4849192539913877,-0.024591436772021066,0.13479953611492523,-0.315091593436381,0.17288275401215802,-0.4874969006463101,-0.11132821755137358,-1.9464125718580894,0.13345583675305048,2.595396344555749,0.9452593313168256,0.1728802376190821,-0.48752024683155326,-0.11147110072896137,-1.9463801863486305,0.1336059019074957,2.595550359778934,0.9452445589611904,5.123513682057239e-05,0.00011467775062601924,0.00016090095988728287,-0.0002684815356533118,-0.0005655415700178833,0.0001579869484359096,-0.0008469546001904991,0.0,0.0,0.0,0.0,0.0,0.0,0.0,-2.5163930759131148e-06,-2.334618524313381e-05,-0.00014288317758778812,3.238550945883212e-05,0.0001500651544452114,0.00015401522318514438,-1.4772355635184198e-05,-5.123513682057239e-05,-0.00011467775062601924,-0.00016090095988728287,0.0002684815356533118,0.0005655415700178833,-0.0001579869484359096,0.0008469546001904991,0.2720577120780945,11.826318740844727,-1.0410492420196533,-21.792634963989258,-0.5221458077430725,-2.5335726737976074,0.28232139348983765,0
52,0.25501036643981934,-0.2720577120780945,-11.826318740844727,1.0410492420196533,21.792634963989258,0.5221458077430725,2.5335726737976074,-0.28232139348983765,0.0,0.0,0.0,0.0,0.0,0.0,0.0,-0.2598839291102932,0.5070194641263217,-0.14786217906208873,0.4849192539913877,-0.024591436772021066,0.13479953611492523,-0.315091593436381,0.17288275401215802,-0.4874969006463101,-0.11132821755137358,-1.9464125718580894,0.13345583675305048,2.595396344555749,0.9452593313168256,0.1728802376190821,-0.48752024683155326,-0.11147110072896137,-1.9463801863486305,0.1336059019074957,2.595550359778934,0.9452445589611904,5.123513682057239e-05,0.00011467775062601924,0.00016090095988728287,-0.0002684815356533118,-0.0005655415700178833,0.0001579869484359096,-0.0008469546001904991,0.0,0.0,0.0,0.0,0.0,0.0,0.0,-2.5163930759131148e-06,-2.334618524313381e-05,-0.00014288317758778812,3.238550945883212e-05,0.0001500651544452114,0.00015401522318514438,-1.4772355635184198e-05,-5.123513682057239e-05,-0.00011467775062601924,-0.00016090095988728287,0.0002684815356533118,0.0005655415700178833,-0.0001579869484359096,0.0008469546001904991,0.2720577120780945,11.826318740844727,-1.0410492420196533,-21.792634963989258,-0.5221458077430725,-2.5335726737976074,0.28232139348983765,0
53,0.25999927520751953,-0.24825400114059448,-11.802515029907227,1.0172455310821533,21.792634963989258,0.5047507882118225,2.5271639823913574,-0.28964561223983765,0.0,0.0,0.0,0.0,0.0,0.0,0.0,-0.2612103884307972,0.5050281456991995,-0.1439773115729971,0.4872751229935696,-0.024691074866787125,0.13471804766095177,-0.3147604841366032,0.17288108357630275,-0.4874985710821654,-0.11132654711551832,-1.9464126542742333,0.1334577695329984,2.5953970566325717,0.9452582610219612,0.1728802376190821,-0.48752024683155326,-0.11147110072896137,-1.9463801863486305,0.1336059019074957,2.595550359778934,0.9452445589611904,-0.0003534907967509019,-0.0003680169833538268,0.0006321555726707826,1.6177110478428812e-05,0.00023237514926993793,0.00023088022606306045,-0.0010523406891532782,0.0,0.0,0.0,0.0,0.0,0.0,0.0,-8.459572206354071e-07,-2.1675749387883858e-05,-0.00014455361344305195,3.246792560274159e-05,0.00014813237449728955,0.0001533031463623047,-1.3702060770781621e-05,0.0003534907967509019,0.0003680169833538268,-0.0006321555726707826,-1.6177110478428812e-05,-0.00023237514926993793,-0.00023088022606306045,0.0010523406891532782,0.24825400114059448,11.802515029907227,-1.0172455310821533,-21.792634963989258,-0.5047507882118225,-2.5271639823913574,0.28964561223983765,0
54,0.26499438285827637,-0.24825400114059448,-11.802515029907227,1.0172455310821533,21.792634963989258,0.5047507882118225,2.5271639823913574,-0.28964561223983765,0.0,0.0,0.0,0.0,0.0,0.0,0.0,-0.2612103884307972,0.5050281456991995,-0.1439773115729971,0.4872751229935696,-0.024691074866787125,0.13471804766095177,-0.3147604841366032,0.17288108357630275,-0.4874985710821654,-0.11132654711551832,-1.9464126542742333,0.1334577695329984,2.5953970566325717,0.9452582610219612,0.1728802376190821,-0.48752024683155326,-0.11147110072896137,-1.9463801863486305,0.1336059019074957,2.595550359778934,0.9452445589611904,-0.0003534907967509019,-0.0003680169833538268,0.0006321555726707826,1.6177110478428812e-05,0.00023237514926993793,0.00023088022606306045,-0.0010523406891532782,0.0,0.0,0.0,0.0,0.0,0.0,0.0,-8.459572206354071e-07,-2.1675749387883858e-05,-0.00014455361344305195,3.246792560274159e-05,0.00014813237449728955,0.0001533031463623047,-1.3702060770781621e-05,0.0003534907967509019,0.0003680169833538268,-0.0006321555726707826,-1.6177110478428812e-05,-0.00023237514926993793,-0.00023088022606306045,0.0010523406891532782,0.24825400114059448,11.802515029907227,-1.0172455310821533,-21.792634963989258,-0.5047507882118225,-2.5271639823913574,0.28964561223983765,0
55,0.27001285552978516,-0.2720577120780945,-11.802515029907227,1.0688202381134033,21.768831253051758,0.5166526436805725,2.5335726737976074,-0.33084434270858765,0.0,0.0,0.0,0.0,0.0,0.0,0.0,-0.2555202046907786,0.5108113271855456,-0.13623936629043476,0.48710134554733187,-0.025431102608292448,0.13407823376524702,-0.31533962061905496,0.17288275401215802,-0.4874985710821654,-0.11133016639320473,-1.946410983838533,0.13345964588721593,2.595396344555749,0.9452617476205628,0.1728802376190821,-0.48752024683155326,-0.11147110072896137,-1.9463801863486305,0.1336059019074957,2.595550359778934,0.9452445589611904,0.00070630609855295,5.205927362993963e-05,0.00022144649613033718,0.00042285264251000775,-0.00033619614868626857,0.00012784651755561803,0.001327057111615927,0.0,0.0,0.0,0.0,0.0,0.0,0.0,-2.5163930759131148e-06,-2.1675749387883858e-05,-0.00014093433575664005,3.079748990253428e-05,0.00014625602027976137,0.00015401522318514438,-1.7188659372391335e-05,-0.00070630609855295,-5.205927362993963e-05,-0.00022144649613033718,-0.00042285264251000775,0.00033619614868626857,-0.00012784651755561803,-0.001327057111615927,0.2720577120780945,11.802515029907227,-1.0688202381134033,-21.768831253051758,-0.5166526436805725,-2.5335726737976074,0.33084434270858765,0
56,0.27500462532043457,-0.2720577120780945,-11.802515029907227,1.0688202381134033,21.768831253051758,0.5166526436805725,2.5335726737976074,-0.33084434270858765,0.0,0.0,0.0,0.0,0.0,0.0,0.0,-0.2555202046907786,0.5108113271855456,-0.13623936629043476,0.48710134554733187,-0.025431102608292448,0.13407823376524702,-0.31533962061905496,0.17288275401215802,-0.4874985710821654,-0.11133016639320473,-1.946410983838533,0.13345964588721593,2.595396344555749,0.9452617476205628,0.1728802376190821,-0.48752024683155326,-0.11147110072896137,-1.9463801863486305,0.1336059019074957,2.595550359778934,0.9452445589611904,0.00070630609855295,5.205927362993963e-05,0.00022144649613033718,0.00042285264251000775,-0.00033619614868626857,0.00012784651755561803,0.001327057111615927,0.0,0.0,0.0,0.0,0.0,0.0,0.0,-2.5163930759131148e-06,-2.1675749387883858e-05,-0.00014093433575664005,3.079748990253428e-05,0.00014625602027976137,0.00015401522318514438,-1.7188659372391335e-05,-0.00070630609855295,-5.205927362993963e-05,-0.00022144649613033718,-0.00042285264251000775,0.00033619614868626857,-0.00012784651755561803,-0.001327057111615927,0.2720577120780945,11.802515029907227,-1.0688202381134033,-21.768831253051758,-0.5166526436805725,-2.5335726737976074,0.33084434270858765,0
57,0.28079700469970703,-0.2720577120780945,-11.802515029907227,1.0410492420196533,21.768831253051758,0.5166526436805725,2.5335726737976074,-0.32352012395858765,0.0,0.0,0.0,0.0,0.0,0.0,0.0,-0.25818559777891503,0.5119588370801718,-0.14276042621360518,0.48608107419703456,-0.025375235942054625,0.13416329865954224,-0.315296631579535,0.17288275401215802,-0.4874985710821654,-0.11132821755137358,-1.9464102420918425,0.13345644712267019,2.595396344555749,0.9452621568456481,0.1728802376190821,-0.48752024683155326,-0.11147110072896137,-1.9463801863486305,0.1336059019074957,2.595550359778934,0.9452445589611904,0.00033101829385954285,-0.000323438953738246,0.0004329077950776652,4.5021237796070515e-05,-0.0003487817273005088,-1.8636515176215767e-05,0.0008391658897166257,0.0,0.0,0.0,0.0,0.0,0.0,0.0,-2.5163930759131148e-06,-2.1675749387883858e-05,-0.00014288317758778812,3.0055743212020758e-05,0.00014945478482550345,0.00015401522318514438,-1.759788445765409e-05,-0.00033101829385954285,0.000323438953738246,-0.0004329077950776652,-4.5021237796070515e-05,0.0003487817273005088,1.8636515176215767e-05,-0.0008391658897166257,0.2720577120780945,11.802515029907227,-1.0410492420196533,-21.768831253051758,-0.5166526436805725,-2.5335726737976074,0.32352012395858765,0
58,0.28499817848205566,-0.2720577120780945,-11.802515029907227,1.0410492420196533,21.768831253051758,0.5166526436805725,2.5335726737976074,-0.32352012395858765,0.0,0.0,0.0,0.0,0.0,0.0,0.0,-0.25818559777891503,0.5119588370801718,-0.14276042621360518,0.48608107419703456,-0.025375235942054625,0.13416329865954224,-0.315296631579535,0.17288275401215802,-0.4874985710821654,-0.11132821755137358,-1.9464102420918425,0.13345644712267019,2.595396344555749,0.9452621568456481,0.1728802376190821,-0.48752024683155326,-0.11147110072896137,-1.9463801863486305,0.1336059019074957,2.595550359778934,0.9452445589611904,0.00033101829385954285,-0.000323438953738246,0.0004329077950776652,4.5021237796070515e-05,-0.0003487817273005088,-1.8636515176215767e-05,0.0008391658897166257,0.0,0.0,0.0,0.0,0.0,0.0,0.0,-2.5163930759131148e-06,-2.1675749387883858e-05,-0.00014288317758778812,3.0055743212020758e-05,0.00014945478482550345,0.00015401522318514438,-1.759788445765409e-05,-0.00033101829385954285,0.000323438953738246,-0.0004329077950776652,-4.5021237796070515e-05,0.0003487817273005088,1.8636515176215767e-05,-0.0008391658897166257,0.2720577120780945,11.802515029907227,-1.0410492420196533,-21.768831253051758,-0.5166526436805725,-2.5335726737976074,0.32352012395858765,0
59,0.29000020027160645,-0.2720577120780945,-11.802515029907227,1.0688202381134033,21.768831253051758,0.5102439522743225,2.5271639823913574,-0.29605430364608765,0.0,0.0,0.0,0.0,0.0,0.0,0.0,-0.2563346137950671,0.5011985106092085,-0.13776261504069798,0.49371826923837386,-0.02542358167075873,0.13524849412225515,-0.31571768499412967,0.17288275401215802,-0.4874985710821654,-0.11133016639320473,-1.9464109012673083,0.13345717234515042,2.5953970566325717,0.9452578939253431,0.1728802376190821,-0.48752024683155326,-0.11147110072896137,-1.9463801863486305,0.1336059019074957,2.595550359778934,0.9452445589611904,0.00042408796458981944,-0.000427363584836331,-0.0001876257960505829,0.00027108099077119283,-0.00017306731744981443,0.0003288487943422479,-6.381113380763305e-05,0.0,0.0,0.0,0.0,0.0,0.0,0.0,-2.5163930759131148e-06,-2.1675749387883858e-05,-0.00014093433575664005,3.071491867778775e-05,0.0001487295623452678,0.0001533031463623047,-1.3334964152678097e-05,-0.00042408796458981944,0.000427363584836331,0.0001876257960505829,-0.00027108099077119283,0.00017306731744981443,-0.0003288487943422479,6.381113380763305e-05,0.2720577120780945,11.802515029907227,-1.0688202381134033,-21.768831253051758,-0.5102439522743225,-2.5271639823913574,0.29605430364608765,0
60,0.2950148582458496,-0.2720577120780945,-11.802515029907227,1.0688202381134033,21.768831253051758,0.5102439522743225,2.5271639823913574,-0.29605430364608765,0.0,0.0,0.0,0.0,0.0,0.0,0.0,-0.2563346137950671,0.5011985106092085,-0.13776261504069798,0.49371826923837386,-0.02542358167075873,0.13524849412225515,-0.31571768499412967,0.17288275401215802,-0.4874985710821654,-0.11133016639320473,-1.9464109012673083,0.13345717234515042,2.5953970566325717,0.9452578939253431,0.1728802376190821,-0.48752024683155326,-0.11147110072896137,-1.9463801863486305,0.1336059019074957,2.595550359778934,0.9452445589611904,0.00042408796458981944,-0.000427363584836331,-0.0001876257960505829,0.00027108099077119283,-0.00017306731744981443,0.0003288487943422479,-6.381113380763305e-05,0.0,0.0,0.0,0.0,0.0,0.0,0.0,-2.5163930759131148e-06,-2.1675749387883858e-05,-0.00014093433575664005,3.071491867778775e-05,0.0001487295623452678,0.0001533031463623047,-1.3334964152678097e-05,-0.00042408796458981944,0.000427363584836331,0.0001876257960505829,-0.00027108099077119283,0.00017306731744981443,-0.0003288487943422479,6.381113380763305e-05,0.2720577120780945,11.802515029907227,-1.0688202381134033,-21.768831253051758,-0.5102439522743225,-2.5271639823913574,0.29605430364608765,0
61,0.30002593994140625,-0.24825400114059448,-11.802515029907227,1.0172455310821533,21.768831253051758,0.5047507882118225,2.5463900566101074,-0.31711143255233765,0.0,0.0,0.0,0.0,0.0,0.0,0.0,-0.26297675824785605,0.5143921218765768,-0.1482442860989423,0.4853505108842966,-0.025317055203582815,0.13438958163348874,-0.3151716465749816,0.17288108357630275,-0.4874985710821654,-0.11132654711551832,-1.9464109838371346,0.1334577695332213,2.595394920402103,0.9452598631184587,0.1728802376190821,-0.48752024683155326,-0.11147110072896137,-1.9463801863486305,0.1336059019074957,2.595550359778934,0.9452445589611904,-0.00024238076266360444,2.7186281564707947e-05,0.0002486879187084944,0.0001789422035778294,0.00016542969022115348,-0.0004608632002784022,0.0004574555727909192,0.0,0.0,0.0,0.0,0.0,0.0,0.0,-8.459572206354071e-07,-2.1675749387883858e-05,-0.00014455361344305195,3.079748850409736e-05,0.00014813237427438453,0.00015543937683082376,-1.5304157268247742e-05,0.00024238076266360444,-2.7186281564707947e-05,-0.0002486879187084944,-0.0001789422035778294,-0.00016542969022115348,0.0004608632002784022,-0.0004574555727909192,0.24825400114059448,11.802515029907227,-1.0172455310821533,-21.768831253051758,-0.5047507882118225,-2.5463900566101074,0.31711143255233765,0
62,0.30501890182495117,-0.24825400114059448,-11.802515029907227,1.0172455310821533,21.768831253051758,0.5047507882118225,2.5463900566101074,-0.31711143255233765,0.0,0.0,0.0,0.0,0.0,0.0,0.0,-0.26297675824785605,0.5143921218765768,-0.1482442860989423,0.4853505108842966,-0.025317055203582815,0.13438958163348874,-0.3151716465749816,0.17288108357630275,-0.4874985710821654,-0.11132654711551832,-1.9464109838371346,0.1334577695332213,2.595394920402103,0.9452598631184587,0.1728802376190821,-0.48752024683155326,-0.11147110072896137,-1.9463801863486305,0.1336059019074957,2.595550359778934,0.9452445589611904,-0.00024238076266360444,2.7186281564707947e-05,0.0002486879187084944,0.0001789422035778294,0.00016542969022115348,-0.0004608632002784022,0.0004574555727909192,0.0,0.0,0.0,0.0,0.0,0.0,0.0,-8.459572206354071e-07,-2.1675749387883858e-05,-0.00014455361344305195,3.079748850409736e-05,0.00014813237427438453,0.00015543937683082376,-1.5304157268247742e-05,0.00024238076266360444,-2.7186281564707947e-05,-0.0002486879187084944,-0.0001789422035778294,-0.00016542969022115348,0.0004608632002784022,-0.0004574555727909192,0.24825400114059448,11.802515029907227,-1.0172455310821533,-21.768831253051758,-0.5047507882118225,-2.5463900566101074,0.31711143255233765,0
63,0.3100459575653076,-0.2998287081718445,-11.802515029907227,1.0172455310821533,21.792634963989258,0.5102439522743225,2.5399813652038574,-0.30337852239608765,0.0,0.0,0.0,0.0,0.0,0.0,0.0,-0.2598984054729557,0.5065742735362173,-0.14550740861039108,0.48772609366521313,-0.025765554735971703,0.1346987504328916,-0.31559726262263615,0.17288470285398916,-0.4874985710821654,-0.11132654711551832,-1.9464125616832375,0.1334571591814359,2.595395632478926,0.9452615924929154,0.1728802376190821,-0.48752024683155326,-0.11147110072896137,-1.9463801863486305,0.1336059019074957,2.595550359778934,0.9452445589611904,0.0005820823986534244,-0.0006627835245486486,0.000472467724118798,-0.00041435564944118257,-0.0002185902065103613,-0.0003931193857275289,0.00028417547958660503,0.0,0.0,0.0,0.0,0.0,0.0,0.0,-4.465234907047311e-06,-2.1675749387883858e-05,-0.00014455361344305195,3.2375334606982165e-05,0.00014874272605977512,0.00015472730000798407,-1.7033531724996998e-05,-0.0005820823986534244,0.0006627835245486486,-0.000472467724118798,0.00041435564944118257,0.0002185902065103613,0.0003931193857275289,-0.00028417547958660503,0.2998287081718445,11.802515029907227,-1.0172455310821533,-21.792634963989258,-0.5102439522743225,-2.5399813652038574,0.30337852239608765,0
64,0.31503939628601074,-0.2998287081718445,-11.802515029907227,1.0172455310821533,21.792634963989258,0.5102439522743225,2.5399813652038574,-0.30337852239608765,0.0,0.0,0.0,0.0,0.0,0.0,0.0,-0.2598984054729557,0.5065742735362173,-0.14550740861039108,0.48772609366521313,-0.025765554735971703,0.1346987504328916,-0.31559726262263615,0.17288470285398916,-0.4874985710821654,-0.11132654711551832,-1.9464125616832375,0.1334571591814359,2.595395632478926,0.9452615924929154,0.1728802376190821,-0.48752024683155326,-0.11147110072896137,-1.9463801863486305,0.1336059019074957,2.595550359778934,0.9452445589611904,0.0005820823986534244,-0.0006627835245486486,0.000472467724118798,-0.00041435564944118257,-0.0002185902065103613,-0.0003931193857275289,0.00028417547958660503,0.0,0.0,0.0,0.0,0.0,0.0,0.0,-4.465234907047311e-06,-2.1675749387883858e-05,-0.00014455361344305195,3.2375334606982165e-05,0.00014874272605977512,0.00015472730000798407,-1.7033531724996998e-05,-0.0005820823986534244,0.0006627835245486486,-0.000472467724118798,0.00041435564944118257,0.0002185902065103613,0.0003931193857275289,-0.00028417547958660503,0.2998287081718445,11.802515029907227,-1.0172455310821533,-21.792634963989258,-0.5102439522743225,-2.5399813652038574,0.30337852239608765,0
65,0.32006382942199707,-0.22445029020309448,-11.826318740844727,1.0172455310821533,21.768831253051758,0.5166526436805725,2.5399813652038574,-0.32352012395858765,0.0,0.0,0.0,0.0,0.0,0.0,0.0,-0.26101477520636385,0.5103908738837052,-0.14670079011789353,0.48686631884764736,-0.026085361053323552,0.13359634287018043,-0.3144658787874281,0.1728794131404475,-0.4874969006463101,-0.11132654711551832,-1.9464109838385266,0.133456447104613,2.595395632478926,0.9452616164560196,0.1728802376190821,-0.48752024683155326,-0.11147110072896137,-1.9463801863486305,0.1336059019074957,2.595550359778934,0.9452445589611904,-0.0009594236284805773,3.883279783595033e-05,0.0003988726246783786,-0.00013036383853717195,-0.00020231446324506014,-0.0001791232135345533,0.0009242036333628344,0.0,0.0,0.0,0.0,0.0,0.0,0.0,8.24478634614545e-07,-2.334618524313381e-05,-0.00014455361344305195,3.079748989609499e-05,0.00014945480288269808,0.00015472730000798407,-1.7057494829164632e-05,0.0009594236284805773,-3.883279783595033e-05,-0.0003988726246783786,0.00013036383853717195,0.00020231446324506014,0.0001791232135345533,-0.0009242036333628344,0.22445029020309448,11.826318740844727,-1.0172455310821533,-21.768831253051758,-0.5166526436805725,-2.5399813652038574,0.32352012395858765,0
66,0.32506394386291504,-0.22445029020309448,-11.826318740844727,1.0172455310821533,21.768831253051758,0.5166526436805725,2.5399813652038574,-0.32352012395858765,0.0,0.0,0.0,0.0,0.0,0.0,0.0,-0.26101477520636385,0.5103908738837052,-0.14670079011789353,0.48686631884764736,-0.026085361053323552,0.13359634287018043,-0.3144658787874281,0.1728794131404475,-0.4874969006463101,-0.11132654711551832,-1.9464109838385266,0.133456447104613,2.595395632478926,0.9452616164560196,0.1728802376190821,-0.48752024683155326,-0.11147110072896137,-1.9463801863486305,0.1336059019074957,2.595550359778934,0.9452445589611904,-0.0009594236284805773,3.883279783595033e-05,0.0003988726246783786,-0.00013036383853717195,-0.00020231446324506014,-0.0001791232135345533,0.0009242036333628344,0.0,0.0,0.0,0.0,0.0,0.0,0.0,8.24478634614545e-07,-2.334618524313381e-05,-0.00014455361344305195,3.079748989609499e-05,0.00014945480288269808,0.00015472730000798407,-1.7057494829164632e-05,0.0009594236284805773,-3.883279783595033e-05,-0.0003988726246783786,0.00013036383853717195,0.00020231446324506014,0.0001791232135345533,-0.0009242036333628344,0.22445029020309448,11.826318740844727,-1.0172455310821533,-21.768831253051758,-0.5166526436805725,-2.5399813652038574,0.32352012395858765,0
67,0.3300056457519531,-0.22445029020309448,-11.826318740844727,1.0172455310821533,21.768831253051758,0.5166526436805725,2.5399813652038574,-0.32352012395858765,0.0,0.0,0.0,0.0,0.0,0.0,0.0,-0.26101477520636385,0.5103908738837052,-0.14670079011789353,0.48686631884764736,-0.026085361053323552,0.13359634287018043,-0.3144658787874281,0.1728794131404475,-0.4874969006463101,-0.11132654711551832,-1.9464109838385266,0.133456447104613,2.595395632478926,0.9452616164560196,0.1728802376190821,-0.48752024683155326,-0.11147110072896137,-1.9463801863486305,0.1336059019074957,2.595550359778934,0.9452445589611904,-0.0009594236284805773,3.883279783595033e-05,0.0003988726246783786,-0.00013036383853717195,-0.00020231446324506014,-0.0001791232135345533,0.0009242036333628344,0.0,0.0,0.0,0.0,0.0,0.0,0.0,8.24478634614545e-07,-2.334618524313381e-05,-0.00014455361344305195,3.079748989609499e-05,0.00014945480288269808,0.00015472730000798407,-1.7057494829164632e-05,0.0009594236284805773,-3.883279783595033e-05,-0.0003988726246783786,0.00013036383853717195,0.00020231446324506014,0.0001791232135345533,-0.0009242036333628344,0.22445029020309448,11.826318740844727,-1.0172455310821533,-21.768831253051758,-0.5166526436805725,-2.5399813652038574,0.32352012395858765,0
68,0.33501148223876953,-0.22445029020309448,-11.826318740844727,1.0172455310821533,21.768831253051758,0.5166526436805725,2.5399813652038574,-0.32352012395858765,0.0,0.0,0.0,0.0,0.0,0.0,0.0,-0.26101477520636385,0.5103908738837052,-0.14670079011789353,0.48686631884764736,-0.026085361053323552,0.13359634287018043,-0.3144658787874281,0.1728794131404475,-0.4874969006463101,-0.11132654711551832,-1.9464109838385266,0.133456447104613,2.595395632478926,0.9452616164560196,0.1728802376190821,-0.48752024683155326,-0.11147110072896137,-1.9463801863486305,0.1336059019074957,2.595550359778934,0.9452445589611904,-0.0009594236284805773,3.883279783595033e-05,0.0003988726246783786,-0.00013036383853717195,-0.00020231446324506014,-0.0001791232135345533,0.0009242036333628344,0.0,0.0,0.0,0.0,0.0,0.0,0.0,8.24478634614545e-07,-2.334618524313381e-05,-0.00014455361344305195,3.079748989609499e-05,0.00014945480288269808,0.00015472730000798407,-1.7057494829164632e-05,0.0009594236284805773,-3.883279783595033e-05,-0.0003988726246783786,0.00013036383853717195,0.00020231446324506014,0.0001791232135345533,-0.0009242036333628344,0.22445029020309448,11.826318740844727,-1.0172455310821533,-21.768831253051758,-0.5166526436805725,-2.5399813652038574,0.32352012395858765,0
69,0.3400280475616455,-0.3236324191093445,-11.802515029907227,1.0688202381134033,21.792634963989258,0.5102439522743225,2.5399813652038574,-0.31711143255233765,0.0,0.0,0.0,0.0,0.0,0.0,0.0,-0.26070461413869767,0.5113695338054414,-0.14931829132048458,0.485541675615034,-0.02559375393751432,0.1334787174871051,-0.31463593726767036,0.1728863732898444,-0.4874985710821654,-0.11133016639320473,-1.9464126451170216,0.1334571591814359,2.595395632478926,0.9452630822710542,0.1728802376190821,-0.48752024683155326,-0.11147110072896137,-1.9463801863486305,0.1336059019074957,2.595550359778934,0.9452445589611904,0.0015958021803952852,-0.0005955903876744224,-0.0005332846808381456,-0.0006272829039510996,-4.367060895457379e-05,-0.0002252161482378572,0.0007834532041964208,0.0,0.0,0.0,0.0,0.0,0.0,0.0,-6.135670762297263e-06,-2.1675749387883858e-05,-0.00014093433575664005,3.245876839108597e-05,0.00014874272605977512,0.00015472730000798407,-1.852330986373829e-05,-0.0015958021803952852,0.0005955903876744224,0.0005332846808381456,0.0006272829039510996,4.367060895457379e-05,0.0002252161482378572,-0.0007834532041964208,0.3236324191093445,11.802515029907227,-1.0688202381134033,-21.792634963989258,-0.5102439522743225,-2.5399813652038574,0.31711143255233765,0
70,0.3450305461883545,-0.3236324191093445,-11.802515029907227,1.0688202381134033,21.792634963989258,0.5102439522743225,2.5399813652038574,-0.31711143255233765,0.0,0.0,0.0,0.0,0.0,0.0,0.0,-0.26070461413869767,0.5113695338054414,-0.14931829132048458,0.485541675615034,-0.02559375393751432,0.1334787174871051,-0.31463593726767036,0.1728863732898444,-0.4874985710821654,-0.11133016639320473,-1.9464126451170216,0.1334571591814359,2.595395632478926,0.9452630822710542,0.1728802376190821,-0.48752024683155326,-0.11147110072896137,-1.9463801863486305,0.1336059019074957,2.595550359778934,0.9452445589611904,0.0015958021803952852,-0.0005955903876744224,-0.0005332846808381456,-0.0006272829039510996,-4.367060895457379e-05,-0.0002252161482378572,0.0007834532041964208,0.0,0.0,0.0,0.0,0.0,0.0,0.0,-6.135670762297263e-06,-2.1675749387883858e-05,-0.00014093433575664005,3.245876839108597e-05,0.00014874272605977512,0.00015472730000798407,-1.852330986373829e-05,-0.0015958021803952852,0.0005955903876744224,0.0005332846808381456,0.0006272829039510996,4.367060895457379e-05,0.0002252161482378572,-0.0007834532041964208,0.3236324191093445,11.802515029907227,-1.0688202381134033,-21.792634963989258,-0.5102439522743225,-2.5399813652038574,0.31711143255233765,0
71,0.3500089645385742,-0.22445029020309448,-11.826318740844727,1.0688202381134033,21.816438674926758,0.5102439522743225,2.5399813652038574,-0.26858848333358765,0.0,0.0,0.0,0.0,0.0,0.0,0.0,-0.2613623325791694,0.5141282769598099,-0.14558705590798543,0.48306258434267035,-0.02566666862823308,0.13347305078130808,-0.3148326686235204,0.1728794131404475,-0.4874969006463101,-0.11133016639320473,-1.9464139675728964,0.1334571591814359,2.595395632478926,0.9452558751664824,0.1728802376190821,-0.48752024683155326,-0.11147110072896137,-1.9463801863486305,0.1336059019074957,2.595550359778934,0.9452445589611904,-0.0008513206700670169,0.00028003061104130963,-0.00037264430853038163,-0.0012775732970188361,-0.0001368517659906827,-2.1500312261129888e-05,-0.001423037895577152,0.0,0.0,0.0,0.0,0.0,0.0,0.0,8.24478634614545e-07,-2.334618524313381e-05,-0.00014093433575664005,3.378122426589414e-05,0.00014874272605977512,0.00015472730000798407,-1.1316205291933557e-05,0.0008513206700670169,-0.00028003061104130963,0.00037264430853038163,0.0012775732970188361,0.0001368517659906827,2.1500312261129888e-05,0.001423037895577152,0.22445029020309448,11.826318740844727,-1.0688202381134033,-21.816438674926758,-0.5102439522743225,-2.5399813652038574,0.26858848333358765,0
72,0.3550276756286621,-0.22445029020309448,-11.826318740844727,1.0688202381134033,21.816438674926758,0.5102439522743225,2.5399813652038574,-0.26858848333358765,0.0,0.0,0.0,0.0,0.0,0.0,0.0,-0.2613623325791694,0.5141282769598099,-0.14558705590798543,0.48306258434267035,-0.02566666862823308,0.13347305078130808,-0.3148326686235204,0.1728794131404475,-0.4874969006463101,-0.11133016639320473,-1.9464139675728964,0.1334571591814359,2.595395632478926,0.9452558751664824,0.1728802376190821,-0.48752024683155326,-0.11147110072896137,-1.9463801863486305,0.1336059019074957,2.595550359778934,0.9452445589611904,-0.0008513206700670169,0.00028003061104130963,-0.00037264430853038163,-0.0012775732970188361,-0.0001368517659906827,-2.1500312261129888e-05,-0.001423037895577152,0.0,0.0,0.0,0.0,0.0,0.0,0.0,8.24478634614545e-07,-2.334618524313381e-05,-0.00014093433575664005,3.378122426589414e-05,0.00014874272605977512,0.00015472730000798407,-1.1316205291933557e-05,0.0008513206700670169,-0.00028003061104130963,0.00037264430853038163,0.0012775732970188361,0.0001368517659906827,2.1500312261129888e-05,0.001423037895577152,0.22445029020309448,11.826318740844727,-1.0688202381134033,-21.816438674926758,-0.5102439522743225,-2.5399813652038574,0.26858848333358765,0
73,0.36002635955810547,-0.22445029020309448,-11.826318740844727,1.0688202381134033,21.792634963989258,0.5166526436805725,2.5207552909851074,-0.28964561223983765,0.0,0.0,0.0,0.0,0.0,0.0,0.0,-0.26089868891875395,0.51311433134346,-0.1408687476773076,0.4846578340566639,-0.025679309960415498,0.1343451829675891,-0.3152343608901281,0.1728794131404475,-0.4874969006463101,-0.11133016639320473,-1.9464123975269472,0.133456447104613,2.5953977687093945,0.9452578522975653,0.1728802376190821,-0.48752024683155326,-0.11147110072896137,-1.9463801863486305,0.1336059019074957,2.595550359778934,0.9452445589611904,-0.0005154133183866024,0.000770942149772965,-0.00017084536110503057,-0.0003401875926627386,-0.00013954035846099898,0.0004834895108803802,-0.0007311873332040053,0.0,0.0,0.0,0.0,0.0,0.0,0.0,8.24478634614545e-07,-2.334618524313381e-05,-0.00014093433575664005,3.221117831664344e-05,0.00014945480288269808,0.000152591069539465,-1.3293336374897713e-05,0.0005154133183866024,-0.000770942149772965,0.00017084536110503057,0.0003401875926627386,0.00013954035846099898,-0.0004834895108803802,0.0007311873332040053,0.22445029020309448,11.826318740844727,-1.0688202381134033,-21.792634963989258,-0.5166526436805725,-2.5207552909851074,0.28964561223983765,0
74,0.3650016784667969,-0.22445029020309448,-11.826318740844727,1.0688202381134033,21.792634963989258,0.5166526436805725,2.5207552909851074,-0.28964561223983765,0.0,0.0,0.0,0.0,0.0,0.0,0.0,-0.26089868891875395,0.51311433134346,-0.1408687476773076,0.4846578340566639,-0.025679309960415498,0.1343451829675891,-0.3152343608901281,0.1728794131404475,-0.4874969006463101,-0.11133016639320473,-1.9464123975269472,0.133456447104613,2.5953977687093945,0.9452578522975653,0.1728802376190821,-0.48752024683155326,-0.11147110072896137,-1.9463801863486305,0.1336059019074957,2.595550359778934,0.9452445589611904,-0.0005154133183866024,0.000770942149772965,-0.00017084536110503057,-0.0003401875926627386,-0.00013954035846099898,0.0004834895108803802,-0.0007311873332040053,0.0,0.0,0.0,0.0,0.0,0.0,0.0,8.24478634614545e-07,-2.334618524313381e-05,-0.00014093433575664005,3.221117831664344e-05,0.00014945480288269808,0.000152591069539465,-1.3293336374897713e-05,0.0005154133183866024,-0.000770942149772965,0.00017084536110503057,0.0003401875926627386,0.00013954035846099898,-0.0004834895108803802,0.0007311873332040053,0.22445029020309448,11.826318740844727,-1.0688202381134033,-21.792634963989258,-0.5166526436805725,-2.5207552909851074,0.28964561223983765,0
75,0.3700077533721924,-0.2720577120780945,-11.802515029907227,1.0410492420196533,21.768831253051758,0.4983420968055725,2.5335726737976074,-0.27591270208358765,0.0,0.0,0.0,0.0,0.0,0.0,0.0,-0.25957538888282655,0.5000702148778413,-0.1391570982418801,0.49248817713112697,-0.02529683695865293,0.13549606001827516,-0.3154873434975991,0.17288275401215802,-0.4874985710821654,-0.11132821755137358,-1.9464109833819694,0.13345852110096457,2.595396344555749,0.9452557377571779,0.1728802376190821,-0.48752024683155326,-0.11147110072896137,-1.9463801863486305,0.1336059019074957,2.595550359778934,0.9452445589611904,0.0002810239678643074,-0.00038556184981208044,0.0004086513379779361,0.00046151940831557707,0.0004784567848712598,5.6994613495886346e-05,-0.0009777924794808985,0.0,0.0,0.0,0.0,0.0,0.0,0.0,-2.5163930759131148e-06,-2.1675749387883858e-05,-0.00014288317758778812,3.0797033338858526e-05,0.00014738080653112218,0.00015401522318514438,-1.1178795987443202e-05,-0.0002810239678643074,0.00038556184981208044,-0.0004086513379779361,-0.00046151940831557707,-0.0004784567848712598,-5.6994613495886346e-05,0.0009777924794808985,0.2720577120780945,11.802515029907227,-1.0410492420196533,-21.768831253051758,-0.4983420968055725,-2.5335726737976074,0.27591270208358765,0
76,0.37503647804260254,-0.2720577120780945,-11.802515029907227,1.0410492420196533,21.768831253051758,0.4983420968055725,2.5335726737976074,-0.27591270208358765,0.0,0.0,0.0,0.0,0.0,0.0,0.0,-0.25957538888282655,0.5000702148778413,-0.1391570982418801,0.49248817713112697,-0.02529683695865293,0.13549606001827516,-0.3154873434975991,0.17288275401215802,-0.4874985710821654,-0.11132821755137358,-1.9464109833819694,0.13345852110096457,2.595396344555749,0.9452557377571779,0.1728802376190821,-0.48752024683155326,-0.11147110072896137,-1.9463801863486305,0.1336059019074957,2.595550359778934,0.9452445589611904,0.0002810239678643074,-0.00038556184981208044,0.0004086513379779361,0.00046151940831557707,0.0004784567848712598,5.6994613495886346e-05,-0.0009777924794808985,0.0,0.0,0.0,0.0,0.0,0.0,0.0,-2.5163930759131148e-06,-2.1675749387883858e-05,-0.00014288317758778812,3.0797033338858526e-05,0.00014738080653112218,0.00015401522318514438,-1.1178795987443202e-05,-0.0002810239678643074,0.00038556184981208044,-0.0004086513379779361,-0.00046151940831557707,-0.0004784567848712598,-5.6994613495886346e-05,0.0009777924794808985,0.2720577120780945,11.802515029907227,-1.0410492420196533,-21.768831253051758,-0.4983420968055725,-2.5335726737976074,0.27591270208358765,0
77,0.3800482749938965,-0.2998287081718445,-11.850122451782227,0.9934418201446533,21.792634963989258,0.5047507882118225,2.5399813652038574,-0.30337852239608765,0.0,0.0,0.0,0.0,0.0,0.0,0.0,-0.2621345215886726,0.5062804694147541,-0.1478922077376882,0.49018492770450345,-0.025094456392878054,0.13497079209393392,-0.3154062291337824,0.17288470285398916,-0.4874952302104548,-0.11132487667966307,-1.9464126176072365,0.1334577695330727,2.595395632532761,0.9452597407088863,0.1728802376190821,-0.48752024683155326,-0.11147110072896137,-1.9463801863486305,0.1336059019074957,2.595550359778934,0.9452445589611904,0.0008374184521804565,0.0007707381728318035,0.0006742773289089964,-0.00026825283914380145,3.277356750218069e-05,-0.00023834933507650274,3.2580365613814644e-05,0.0,0.0,0.0,0.0,0.0,0.0,0.0,-4.465234907047311e-06,-2.5016621098439273e-05,-0.0001462240492983019,3.2431258605969404e-05,0.00014813237442298788,0.00015472724617282552,-1.5181747695880432e-05,-0.0008374184521804565,-0.0007707381728318035,-0.0006742773289089964,0.00026825283914380145,-3.277356750218069e-05,0.00023834933507650274,-3.2580365613814644e-05,0.2998287081718445,11.850122451782227,-0.9934418201446533,-21.792634963989258,-0.5047507882118225,-2.5399813652038574,0.30337852239608765,0
78,0.38503432273864746,-0.2998287081718445,-11.850122451782227,0.9934418201446533,21.792634963989258,0.5047507882118225,2.5399813652038574,-0.30337852239608765,0.0,0.0,0.0,0.0,0.0,0.0,0.0,-0.2621345215886726,0.5062804694147541,-0.1478922077376882,0.49018492770450345,-0.025094456392878054,0.13497079209393392,-0.3154062291337824,0.17288470285398916,-0.4874952302104548,-0.11132487667966307,-1.9464126176072365,0.1334577695330727,2.595395632532761,0.9452597407088863,0.1728802376190821,-0.48752024683155326,-0.11147110072896137,-1.9463801863486305,0.1336059019074957,2.595550359778934,0.9452445589611904,0.0008374184521804565,0.0007707381728318035,0.0006742773289089964,-0.00026825283914380145,3.277356750218069e-05,-0.00023834933507650274,3.2580365613814644e-05,0.0,0.0,0.0,0.0,0.0,0.0,0.0,-4.465234907047311e-06,-2.5016621098439273e-05,-0.0001462240492983019,3.2431258605969404e-05,0.00014813237442298788,0.00015472724617282552,-1.5181747695880432e-05,-0.0008374184521804565,-0.0007707381728318035,-0.0006742773289089964,0.00026825283914380145,-3.277356750218069e-05,0.00023834933507650274,-3.2580365613814644e-05,0.2998287081718445,11.850122451782227,-0.9934418201446533,-21.792634963989258,-0.5047507882118225,-2.5399813652038574,0.30337852239608765,0
79,0.390704870223999,-0.2998287081718445,-11.826318740844727,1.0172455310821533,21.816438674926758,0.5102439522743225,2.5271639823913574,-0.28964561223983765,0.0,0.0,0.0,0.0,0.0,0.0,0.0,-0.25905434143760997,0.49934156689722636,-0.14364444095471524,0.49385640893006344,-0.025827300009774228,0.13528117544627852,-0.3162100949243671,0.17288470285398916,-0.4874969006463101,-0.11132654711551832,-1.9464143245969827,0.1334571591814359,2.5953970566325717,0.9452579729785744,0.1728802376190821,-0.48752024683155326,-0.11147110072896137,-1.9463801863486305,0.1336059019074957,2.595550359778934,0.9452445589611904,0.00032590346429993,-0.00041869624069647743,0.0005180059091620478,-0.000811619123759026,-8.029866986590065e-05,0.00033065799950654674,-0.00033390974661653397,0.0,0.0,0.0,0.0,0.0,0.0,0.0,-4.465234907047311e-06,-2.334618524313381e-05,-0.00014455361344305195,3.413824835218904e-05,0.00014874272605977512,0.0001533031463623047,-1.341401738397252e-05,-0.00032590346429993,0.00041869624069647743,-0.0005180059091620478,0.000811619123759026,8.029866986590065e-05,-0.00033065799950654674,0.00033390974661653397,0.2998287081718445,11.826318740844727,-1.0172455310821533,-21.816438674926758,-0.5102439522743225,-2.5271639823913574,0.28964561223983765,0
