rezayati/contactInterpretation/dataset/franka_main/labeled_data/link6/b8_8.csv
index,time,tau_J0,tau_J1,tau_J2,tau_J3,tau_J4,tau_J5,tau_J6,tau_J_d0,tau_J_d1,tau_J_d2,tau_J_d3,tau_J_d4,tau_J_d5,tau_J_d6,tau_ext0,tau_ext1,tau_ext2,tau_ext3,tau_ext4,tau_ext5,tau_ext6,q0,q1,q2,q3,q4,q5,q6,q_d0,q_d1,q_d2,q_d3,q_d4,q_d5,q_d6,dq0,dq1,dq2,dq3,dq4,dq5,dq6,dq_d0,dq_d1,dq_d2,dq_d3,dq_d4,dq_d5,dq_d6,e0,e1,e2,e3,e4,e5,e6,de0,de1,de2,de3,de4,de5,de6,etau_J0,etau_J1,etau_J2,etau_J3,etau_J4,etau_J5,etau_J6,label
1,0.0,-0.5021602511405945,-22.819665908813477,-0.1253325641155243,14.008821487426758,0.2007957100868225,2.1517977714538574,-0.41965049505233765,0.0,0.0,0.0,0.0,0.0,0.0,0.0,-0.441087471281456,-0.019109363237981316,-0.2189499426534229,0.18347311734479066,-0.031077783277373743,-0.03553909120116696,-0.4050654811581108,1.6757431756027958,0.052312233253006345,0.02999804453608895,-2.7525680733944804,0.03429587348602198,2.766314551724328,0.7691989711059464,1.6754973547542302,0.052104326824870026,0.029969505109285054,-2.752394845125968,0.0342448039870148,2.7663679543071322,0.7691630533470046,0.0013728754320380383,-0.00010933552251494456,-0.0007858446815805102,0.0011969830266370107,9.499770800506737e-05,0.00011406458148661,0.000847763717445769,0.0,0.0,0.0,0.0,0.0,0.0,0.0,-0.00024582084856561437,-0.00020790642813631882,-2.8539426803895346e-05,0.00017322826851229323,-5.1069499007176666e-05,5.3402582804285004e-05,-3.591775894173921e-05,-0.0013728754320380383,0.00010933552251494456,0.0007858446815805102,-0.0011969830266370107,-9.499770800506737e-05,-0.00011406458148661,-0.000847763717445769,0.5021602511405945,22.819665908813477,0.1253325641155243,-14.008821487426758,-0.2007957100868225,-2.1517977714538574,0.41965049505233765,0
2,0.005387306213378906,-0.5021602511405945,-22.819665908813477,-0.1253325641155243,14.008821487426758,0.2007957100868225,2.1517977714538574,-0.41965049505233765,0.0,0.0,0.0,0.0,0.0,0.0,0.0,-0.441087471281456,-0.019109363237981316,-0.2189499426534229,0.18347311734479066,-0.031077783277373743,-0.03553909120116696,-0.4050654811581108,1.6757431756027958,0.052312233253006345,0.02999804453608895,-2.7525680733944804,0.03429587348602198,2.766314551724328,0.7691989711059464,1.6754973547542302,0.052104326824870026,0.029969505109285054,-2.752394845125968,0.0342448039870148,2.7663679543071322,0.7691630533470046,0.0013728754320380383,-0.00010933552251494456,-0.0007858446815805102,0.0011969830266370107,9.499770800506737e-05,0.00011406458148661,0.000847763717445769,0.0,0.0,0.0,0.0,0.0,0.0,0.0,-0.00024582084856561437,-0.00020790642813631882,-2.8539426803895346e-05,0.00017322826851229323,-5.1069499007176666e-05,5.3402582804285004e-05,-3.591775894173921e-05,-0.0013728754320380383,0.00010933552251494456,0.0007858446815805102,-0.0011969830266370107,-9.499770800506737e-05,-0.00011406458148661,-0.000847763717445769,0.5021602511405945,22.819665908813477,0.1253325641155243,-14.008821487426758,-0.2007957100868225,-2.1517977714538574,0.41965049505233765,0
3,0.009683370590209961,-0.4267818331718445,-22.819665908813477,-0.09756157547235489,14.008821487426758,0.2126975655555725,2.1517977714538574,-0.42605918645858765,0.0,0.0,0.0,0.0,0.0,0.0,0.0,-0.4637017383873377,-0.02512075188791919,-0.24428136544494516,0.18715369654409053,-0.028860695393622387,-0.034922713878818706,-0.4055733956491138,1.6757378821100235,0.052312233253006345,0.029996174661290967,-2.7525678445384725,0.03429439455592053,2.766314551724328,0.7691995654451993,1.6754973547542302,0.052104326824870026,0.029969505109285054,-2.752394845125968,0.0342448039870148,2.7663679543071322,0.7691630533470046,0.0006230460306933379,-0.00031673642511525054,-0.0004687468292962153,0.0013538400788651438,-0.00023750505314645346,-0.00016799484944813258,3.3397194246079114e-05,0.0,0.0,0.0,0.0,0.0,0.0,0.0,-0.0002405273557932741,-0.00020790642813631882,-2.66695520059132e-05,0.000172999412504371,-4.9590568905730215e-05,5.3402582804285004e-05,-3.651209819466317e-05,-0.0006230460306933379,0.00031673642511525054,0.0004687468292962153,-0.0013538400788651438,0.00023750505314645346,0.00016799484944813258,-3.3397194246079114e-05,0.4267818331718445,22.819665908813477,0.09756157547235489,-14.008821487426758,-0.2126975655555725,-2.1517977714538574,0.42605918645858765,0
4,0.014689445495605469,-0.4267818331718445,-22.819665908813477,-0.09756157547235489,14.008821487426758,0.2126975655555725,2.1517977714538574,-0.42605918645858765,0.0,0.0,0.0,0.0,0.0,0.0,0.0,-0.4637017383873377,-0.02512075188791919,-0.24428136544494516,0.18715369654409053,-0.028860695393622387,-0.034922713878818706,-0.4055733956491138,1.6757378821100235,0.052312233253006345,0.029996174661290967,-2.7525678445384725,0.03429439455592053,2.766314551724328,0.7691995654451993,1.6754973547542302,0.052104326824870026,0.029969505109285054,-2.752394845125968,0.0342448039870148,2.7663679543071322,0.7691630533470046,0.0006230460306933379,-0.00031673642511525054,-0.0004687468292962153,0.0013538400788651438,-0.00023750505314645346,-0.00016799484944813258,3.3397194246079114e-05,0.0,0.0,0.0,0.0,0.0,0.0,0.0,-0.0002405273557932741,-0.00020790642813631882,-2.66695520059132e-05,0.000172999412504371,-4.9590568905730215e-05,5.3402582804285004e-05,-3.651209819466317e-05,-0.0006230460306933379,0.00031673642511525054,0.0004687468292962153,-0.0013538400788651438,0.00023750505314645346,0.00016799484944813258,-3.3397194246079114e-05,0.4267818331718445,22.819665908813477,0.09756157547235489,-14.008821487426758,-0.2126975655555725,-2.1517977714538574,0.42605918645858765,0
5,0.01968979835510254,-0.2998287081718445,-22.772058486938477,-0.1253325641155243,14.080232620239258,0.1953025460243225,2.1453890800476074,-0.42605918645858765,0.0,0.0,0.0,0.0,0.0,0.0,0.0,-0.4242051825259848,-0.018625105574514106,-0.20770771632157847,0.18287960864905736,-0.03121429854108514,-0.03590610793762363,-0.40884838362764053,1.6757289683947358,0.05230889238129582,0.029998123503045027,-2.7525728634032074,0.03429632652241003,2.76631632343928,0.7691986235439753,1.6754973547542302,0.052104326824870026,0.029969505109285054,-2.752394845125968,0.0342448039870148,2.7663679543071322,0.7691630533470046,-0.0019119982211672558,-0.00030137499941294203,0.001666258856481763,-0.0005285432954640852,0.0003638181808699709,0.00016742935899397235,-0.0001053427705173686,0.0,0.0,0.0,0.0,0.0,0.0,0.0,-0.0002316136405056124,-0.00020456555642579116,-2.861839375997363e-05,0.0001780182772392891,-5.152253539522644e-05,5.163086785220372e-05,-3.5570196970646784e-05,0.0019119982211672558,0.00030137499941294203,-0.001666258856481763,0.0005285432954640852,-0.0003638181808699709,-0.00016742935899397235,0.0001053427705173686,0.2998287081718445,22.772058486938477,0.1253325641155243,-14.080232620239258,-0.1953025460243225,-2.1453890800476074,0.42605918645858765,0
6,0.024702787399291992,-0.2998287081718445,-22.772058486938477,-0.1253325641155243,14.080232620239258,0.1953025460243225,2.1453890800476074,-0.42605918645858765,0.0,0.0,0.0,0.0,0.0,0.0,0.0,-0.4242051825259848,-0.018625105574514106,-0.20770771632157847,0.18287960864905736,-0.03121429854108514,-0.03590610793762363,-0.40884838362764053,1.6757289683947358,0.05230889238129582,0.029998123503045027,-2.7525728634032074,0.03429632652241003,2.76631632343928,0.7691986235439753,1.6754973547542302,0.052104326824870026,0.029969505109285054,-2.752394845125968,0.0342448039870148,2.7663679543071322,0.7691630533470046,-0.0019119982211672558,-0.00030137499941294203,0.001666258856481763,-0.0005285432954640852,0.0003638181808699709,0.00016742935899397235,-0.0001053427705173686,0.0,0.0,0.0,0.0,0.0,0.0,0.0,-0.0002316136405056124,-0.00020456555642579116,-2.861839375997363e-05,0.0001780182772392891,-5.152253539522644e-05,5.163086785220372e-05,-3.5570196970646784e-05,0.0019119982211672558,0.00030137499941294203,-0.001666258856481763,0.0005285432954640852,-0.0003638181808699709,-0.00016742935899397235,0.0001053427705173686,0.2998287081718445,22.772058486938477,0.1253325641155243,-14.080232620239258,-0.1953025460243225,-2.1453890800476074,0.42605918645858765,0
7,0.029687881469726562,-0.3514034152030945,-22.795862197875977,-0.09756157547235489,14.032625198364258,0.2072044014930725,2.1453890800476074,-0.46725791692733765,0.0,0.0,0.0,0.0,0.0,0.0,0.0,-0.41767400345477823,-0.02274075816448813,-0.2013457898862132,0.18675351322602726,-0.03014609157019807,-0.03509889277821337,-0.41109447414531686,1.6757319074108803,0.05231056281715108,0.029996174661736735,-2.7525702027930543,0.03429820222656299,2.766315263807132,0.7692010818991184,1.6754973547542302,0.052104326824870026,0.029969505109285054,-2.752394845125968,0.0342448039870148,2.7663679543071322,0.7691630533470046,-0.00030860913116994817,-0.00038339574574503134,0.0005045234925558132,0.00017303416772047523,-0.0001458743533704539,8.323799526682448e-05,0.002973205039999685,0.0,0.0,0.0,0.0,0.0,0.0,0.0,-0.00023455265665006664,-0.000206235992281055,-2.6669552451681622e-05,0.0001753576670862067,-5.339823954818995e-05,5.2690500000007745e-05,-3.802855211376688e-05,0.00030860913116994817,0.00038339574574503134,-0.0005045234925558132,-0.00017303416772047523,0.0001458743533704539,-8.323799526682448e-05,-0.002973205039999685,0.3514034152030945,22.795862197875977,0.09756157547235489,-14.032625198364258,-0.2072044014930725,-2.1453890800476074,0.46725791692733765,0
8,0.03470778465270996,-0.3514034152030945,-22.795862197875977,-0.09756157547235489,14.032625198364258,0.2072044014930725,2.1453890800476074,-0.46725791692733765,0.0,0.0,0.0,0.0,0.0,0.0,0.0,-0.41767400345477823,-0.02274075816448813,-0.2013457898862132,0.18675351322602726,-0.03014609157019807,-0.03509889277821337,-0.41109447414531686,1.6757319074108803,0.05231056281715108,0.029996174661736735,-2.7525702027930543,0.03429820222656299,2.766315263807132,0.7692010818991184,1.6754973547542302,0.052104326824870026,0.029969505109285054,-2.752394845125968,0.0342448039870148,2.7663679543071322,0.7691630533470046,-0.00030860913116994817,-0.00038339574574503134,0.0005045234925558132,0.00017303416772047523,-0.0001458743533704539,8.323799526682448e-05,0.002973205039999685,0.0,0.0,0.0,0.0,0.0,0.0,0.0,-0.00023455265665006664,-0.000206235992281055,-2.6669552451681622e-05,0.0001753576670862067,-5.339823954818995e-05,5.2690500000007745e-05,-3.802855211376688e-05,0.00030860913116994817,0.00038339574574503134,-0.0005045234925558132,-0.00017303416772047523,0.0001458743533704539,-8.323799526682448e-05,-0.002973205039999685,0.3514034152030945,22.795862197875977,0.09756157547235489,-14.032625198364258,-0.2072044014930725,-2.1453890800476074,0.46725791692733765,0
9,0.04048919677734375,-0.3514034152030945,-22.795862197875977,-0.09756157547235489,14.032625198364258,0.2072044014930725,2.1453890800476074,-0.46725791692733765,0.0,0.0,0.0,0.0,0.0,0.0,0.0,-0.41767400345477823,-0.02274075816448813,-0.2013457898862132,0.18675351322602726,-0.03014609157019807,-0.03509889277821337,-0.41109447414531686,1.6757319074108803,0.05231056281715108,0.029996174661736735,-2.7525702027930543,0.03429820222656299,2.766315263807132,0.7692010818991184,1.6754973547542302,0.052104326824870026,0.029969505109285054,-2.752394845125968,0.0342448039870148,2.7663679543071322,0.7691630533470046,-0.00030860913116994817,-0.00038339574574503134,0.0005045234925558132,0.00017303416772047523,-0.0001458743533704539,8.323799526682448e-05,0.002973205039999685,0.0,0.0,0.0,0.0,0.0,0.0,0.0,-0.00023455265665006664,-0.000206235992281055,-2.6669552451681622e-05,0.0001753576670862067,-5.339823954818995e-05,5.2690500000007745e-05,-3.802855211376688e-05,0.00030860913116994817,0.00038339574574503134,-0.0005045234925558132,-0.00017303416772047523,0.0001458743533704539,-8.323799526682448e-05,-0.002973205039999685,0.3514034152030945,22.795862197875977,0.09756157547235489,-14.032625198364258,-0.2072044014930725,-2.1453890800476074,0.46725791692733765,0
10,0.044677019119262695,-0.3514034152030945,-22.795862197875977,-0.09756157547235489,14.032625198364258,0.2072044014930725,2.1453890800476074,-0.46725791692733765,0.0,0.0,0.0,0.0,0.0,0.0,0.0,-0.41767400345477823,-0.02274075816448813,-0.2013457898862132,0.18675351322602726,-0.03014609157019807,-0.03509889277821337,-0.41109447414531686,1.6757319074108803,0.05231056281715108,0.029996174661736735,-2.7525702027930543,0.03429820222656299,2.766315263807132,0.7692010818991184,1.6754973547542302,0.052104326824870026,0.029969505109285054,-2.752394845125968,0.0342448039870148,2.7663679543071322,0.7691630533470046,-0.00030860913116994817,-0.00038339574574503134,0.0005045234925558132,0.00017303416772047523,-0.0001458743533704539,8.323799526682448e-05,0.002973205039999685,0.0,0.0,0.0,0.0,0.0,0.0,0.0,-0.00023455265665006664,-0.000206235992281055,-2.6669552451681622e-05,0.0001753576670862067,-5.339823954818995e-05,5.2690500000007745e-05,-3.802855211376688e-05,0.00030860913116994817,0.00038339574574503134,-0.0005045234925558132,-0.00017303416772047523,0.0001458743533704539,-8.323799526682448e-05,-0.002973205039999685,0.3514034152030945,22.795862197875977,0.09756157547235489,-14.032625198364258,-0.2072044014930725,-2.1453890800476074,0.46725791692733765,0
11,0.0496826171875,-0.4267818331718445,-22.847436904907227,-0.1253325641155243,14.056428909301758,0.2007957100868225,2.1453890800476074,-0.37204307317733765,0.0,0.0,0.0,0.0,0.0,0.0,0.0,-0.41697645329252686,-0.022218878031978466,-0.20105077597698404,0.18803054808263517,-0.02878029827942727,-0.03481424593688317,-0.40979073450851466,1.675735819478259,0.052314182094837486,0.029998123503045027,-2.7525712101955073,0.03429573312657018,2.766315263801151,0.7691926171782837,1.6754973547542302,0.052104326824870026,0.029969505109285054,-2.752394845125968,0.0342448039870148,2.7663679543071322,0.7691630533470046,0.0007089873706389541,0.0006293158430884202,0.0004814542678706705,-0.0002510343442313568,0.000268784190256057,-9.99131228210699e-05,-0.0008184753883776381,0.0,0.0,0.0,0.0,0.0,0.0,0.0,-0.00023846472402877517,-0.00020985526996745996,-2.861839375997363e-05,0.00017636506953921938,-5.092913955537931e-05,5.269050598144531e-05,-2.956383127905582e-05,-0.0007089873706389541,-0.0006293158430884202,-0.0004814542678706705,0.0002510343442313568,-0.000268784190256057,9.99131228210699e-05,0.0008184753883776381,0.4267818331718445,22.847436904907227,0.1253325641155243,-14.056428909301758,-0.2007957100868225,-2.1453890800476074,0.37204307317733765,0
12,0.054686546325683594,-0.4267818331718445,-22.847436904907227,-0.1253325641155243,14.056428909301758,0.2007957100868225,2.1453890800476074,-0.37204307317733765,0.0,0.0,0.0,0.0,0.0,0.0,0.0,-0.41697645329252686,-0.022218878031978466,-0.20105077597698404,0.18803054808263517,-0.02878029827942727,-0.03481424593688317,-0.40979073450851466,1.675735819478259,0.052314182094837486,0.029998123503045027,-2.7525712101955073,0.03429573312657018,2.766315263801151,0.7691926171782837,1.6754973547542302,0.052104326824870026,0.029969505109285054,-2.752394845125968,0.0342448039870148,2.7663679543071322,0.7691630533470046,0.0007089873706389541,0.0006293158430884202,0.0004814542678706705,-0.0002510343442313568,0.000268784190256057,-9.99131228210699e-05,-0.0008184753883776381,0.0,0.0,0.0,0.0,0.0,0.0,0.0,-0.00023846472402877517,-0.00020985526996745996,-2.861839375997363e-05,0.00017636506953921938,-5.092913955537931e-05,5.269050598144531e-05,-2.956383127905582e-05,-0.0007089873706389541,-0.0006293158430884202,-0.0004814542678706705,0.0002510343442313568,-0.000268784190256057,9.99131228210699e-05,0.0008184753883776381,0.4267818331718445,22.847436904907227,0.1253325641155243,-14.056428909301758,-0.2007957100868225,-2.1453890800476074,0.37204307317733765,0
13,0.05968427658081055,-0.5021602511405945,-22.871240615844727,-0.1491362750530243,14.056428909301758,0.2007957100868225,2.1582064628601074,-0.43338340520858765,0.0,0.0,0.0,0.0,0.0,0.0,0.0,-0.41898334180699504,-0.024349066592795898,-0.20224688878880182,0.18746736428052177,-0.028536912389120477,-0.03531348544290595,-0.4075278945207906,1.6757431500891007,0.05231585253069274,0.02999979393890029,-2.7525714479954773,0.03429575566201564,2.766313839647505,0.7692003792452802,1.6754973547542302,0.052104326824870026,0.029969505109285054,-2.752394845125968,0.0342448039870148,2.7663679543071322,0.7691630533470046,0.0007654336578728232,0.0009042392099609267,0.00018000848335968347,3.2948644247882476e-05,0.0001385517262931846,-0.0003037585582662518,0.0014402639742319057,0.0,0.0,0.0,0.0,0.0,0.0,0.0,-0.0002457953348704578,-0.00021152570582271685,-3.028882961523746e-05,0.00017660286950915705,-5.095167500084041e-05,5.4114659627124695e-05,-3.7325898275542e-05,-0.0007654336578728232,-0.0009042392099609267,-0.00018000848335968347,-3.2948644247882476e-05,-0.0001385517262931846,0.0003037585582662518,-0.0014402639742319057,0.5021602511405945,22.871240615844727,0.1491362750530243,-14.056428909301758,-0.2007957100868225,-2.1582064628601074,0.43338340520858765,0
14,0.06468677520751953,-0.5021602511405945,-22.871240615844727,-0.1491362750530243,14.056428909301758,0.2007957100868225,2.1582064628601074,-0.43338340520858765,0.0,0.0,0.0,0.0,0.0,0.0,0.0,-0.41898334180699504,-0.024349066592795898,-0.20224688878880182,0.18746736428052177,-0.028536912389120477,-0.03531348544290595,-0.4075278945207906,1.6757431500891007,0.05231585253069274,0.02999979393890029,-2.7525714479954773,0.03429575566201564,2.766313839647505,0.7692003792452802,1.6754973547542302,0.052104326824870026,0.029969505109285054,-2.752394845125968,0.0342448039870148,2.7663679543071322,0.7691630533470046,0.0007654336578728232,0.0009042392099609267,0.00018000848335968347,3.2948644247882476e-05,0.0001385517262931846,-0.0003037585582662518,0.0014402639742319057,0.0,0.0,0.0,0.0,0.0,0.0,0.0,-0.0002457953348704578,-0.00021152570582271685,-3.028882961523746e-05,0.00017660286950915705,-5.095167500084041e-05,5.4114659627124695e-05,-3.7325898275542e-05,-0.0007654336578728232,-0.0009042392099609267,-0.00018000848335968347,-3.2948644247882476e-05,-0.0001385517262931846,0.0003037585582662518,-0.0014402639742319057,0.5021602511405945,22.871240615844727,0.1491362750530243,-14.056428909301758,-0.2007957100868225,-2.1582064628601074,0.43338340520858765,0
15,0.0696876049041748,-0.4783565402030945,-22.819665908813477,-0.1491362750530243,14.080232620239258,0.1953025460243225,2.1389803886413574,-0.43979209661483765,0.0,0.0,0.0,0.0,0.0,0.0,0.0,-0.4248304021684257,-0.027783240995532137,-0.2067343308209324,0.18415959669144258,-0.02915530138722458,-0.03635595237223388,-0.4077418891398799,1.6757415051667963,0.05231223328905069,0.02999979393890029,-2.752572858575673,0.03429632587256839,2.7663159758779736,0.7692012090071756,1.6754973547542302,0.052104326824870026,0.029969505109285054,-2.752394845125968,0.0342448039870148,2.7663679543071322,0.7691630533470046,-0.00030935465915048926,-0.0008625722190374601,-0.0005245307800005909,-0.000577204571249636,0.00019605394682823744,0.00044222412579526636,0.001075815730842581,0.0,0.0,0.0,0.0,0.0,0.0,0.0,-0.00024415041256609094,-0.00020790646418066688,-3.028882961523746e-05,0.00017801344970491684,-5.152188555358761e-05,5.197842915860562e-05,-3.815566017095762e-05,0.00030935465915048926,0.0008625722190374601,0.0005245307800005909,0.000577204571249636,-0.00019605394682823744,-0.00044222412579526636,-0.001075815730842581,0.4783565402030945,22.819665908813477,0.1491362750530243,-14.080232620239258,-0.1953025460243225,-2.1389803886413574,0.43979209661483765,0
16,0.07468914985656738,-0.4783565402030945,-22.819665908813477,-0.1491362750530243,14.080232620239258,0.1953025460243225,2.1389803886413574,-0.43979209661483765,0.0,0.0,0.0,0.0,0.0,0.0,0.0,-0.4248304021684257,-0.027783240995532137,-0.2067343308209324,0.18415959669144258,-0.02915530138722458,-0.03635595237223388,-0.4077418891398799,1.6757415051667963,0.05231223328905069,0.02999979393890029,-2.752572858575673,0.03429632587256839,2.7663159758779736,0.7692012090071756,1.6754973547542302,0.052104326824870026,0.029969505109285054,-2.752394845125968,0.0342448039870148,2.7663679543071322,0.7691630533470046,-0.00030935465915048926,-0.0008625722190374601,-0.0005245307800005909,-0.000577204571249636,0.00019605394682823744,0.00044222412579526636,0.001075815730842581,0.0,0.0,0.0,0.0,0.0,0.0,0.0,-0.00024415041256609094,-0.00020790646418066688,-3.028882961523746e-05,0.00017801344970491684,-5.152188555358761e-05,5.197842915860562e-05,-3.815566017095762e-05,0.00030935465915048926,0.0008625722190374601,0.0005245307800005909,0.000577204571249636,-0.00019605394682823744,-0.00044222412579526636,-0.001075815730842581,0.4783565402030945,22.819665908813477,0.1491362750530243,-14.080232620239258,-0.1953025460243225,-2.1389803886413574,0.43979209661483765,0
17,0.07968378067016602,-0.4505855441093445,-22.847436904907227,-0.1491362750530243,14.032625198364258,0.2007957100868225,2.1517977714538574,-0.40591758489608765,0.0,0.0,0.0,0.0,0.0,0.0,0.0,-0.43478294200706985,-0.02425265354630237,-0.21447766538934512,0.17758569598912205,-0.03005508148502358,-0.03811458478240847,-0.4090038461865772,1.6757395563251094,0.052314182094837694,0.02999979393890029,-2.7525698232952838,0.03429575501192254,2.766314551724328,0.7691974452270397,1.6754973547542302,0.052104326824870026,0.029969505109285054,-2.752394845125968,0.0342448039870148,2.7663679543071322,0.7691630533470046,-0.0008465958544730979,0.0007051558586531779,-0.0007637749523983596,-6.182731276541914e-06,0.0001397119978836436,-0.00026446423051169156,0.0003370565707029037,0.0,0.0,0.0,0.0,0.0,0.0,0.0,-0.0002422015708791747,-0.00020985526996766812,-3.028882961523746e-05,0.0001749781693156649,-5.0951024907736064e-05,5.3402582804285004e-05,-3.4391880035067324e-05,0.0008465958544730979,-0.0007051558586531779,0.0007637749523983596,6.182731276541914e-06,-0.0001397119978836436,0.00026446423051169156,-0.0003370565707029037,0.4505855441093445,22.847436904907227,0.1491362750530243,-14.032625198364258,-0.2007957100868225,-2.1517977714538574,0.40591758489608765,0
18,0.08471393585205078,-0.4505855441093445,-22.847436904907227,-0.1491362750530243,14.032625198364258,0.2007957100868225,2.1517977714538574,-0.40591758489608765,0.0,0.0,0.0,0.0,0.0,0.0,0.0,-0.43478294200706985,-0.02425265354630237,-0.21447766538934512,0.17758569598912205,-0.03005508148502358,-0.03811458478240847,-0.4090038461865772,1.6757395563251094,0.052314182094837694,0.02999979393890029,-2.7525698232952838,0.03429575501192254,2.766314551724328,0.7691974452270397,1.6754973547542302,0.052104326824870026,0.029969505109285054,-2.752394845125968,0.0342448039870148,2.7663679543071322,0.7691630533470046,-0.0008465958544730979,0.0007051558586531779,-0.0007637749523983596,-6.182731276541914e-06,0.0001397119978836436,-0.00026446423051169156,0.0003370565707029037,0.0,0.0,0.0,0.0,0.0,0.0,0.0,-0.0002422015708791747,-0.00020985526996766812,-3.028882961523746e-05,0.0001749781693156649,-5.0951024907736064e-05,5.3402582804285004e-05,-3.4391880035067324e-05,0.0008465958544730979,-0.0007051558586531779,0.0007637749523983596,6.182731276541914e-06,-0.0001397119978836436,0.00026446423051169156,-0.0003370565707029037,0.4505855441093445,22.847436904907227,0.1491362750530243,-14.032625198364258,-0.2007957100868225,-2.1517977714538574,0.40591758489608765,0
19,0.08970093727111816,-0.4783565402030945,-22.795862197875977,-0.1729399859905243,14.056428909301758,0.2072044014930725,2.1453890800476074,-0.42605918645858765,0.0,0.0,0.0,0.0,0.0,0.0,0.0,-0.4399242895580413,-0.029836039169534347,-0.21958326061429115,0.18810062907179131,-0.030380388014861492,-0.03590046457726832,-0.40625004979884394,1.6757414963487356,0.05231056281715109,0.030001464374755555,-2.752571413949106,0.034298202226782246,2.766315263801151,0.7691995261993426,1.6754973547542302,0.052104326824870026,0.029969505109285054,-2.752394845125968,0.0342448039870148,2.7663679543071322,0.7691630533470046,0.0006538074736712966,0.00021710728449959513,0.0003409160458835137,0.00035549268438502213,-0.00012291377416367085,-2.122706965927562e-05,0.0015989689225116685,0.0,0.0,0.0,0.0,0.0,0.0,0.0,-0.0002441415945053649,-0.00020623599228106193,-3.195926547050129e-05,0.0001765688231381013,-5.339823976744512e-05,5.269050598144531e-05,-3.647285233798758e-05,-0.0006538074736712966,-0.00021710728449959513,-0.0003409160458835137,-0.00035549268438502213,0.00012291377416367085,2.122706965927562e-05,-0.0015989689225116685,0.4783565402030945,22.795862197875977,0.1729399859905243,-14.056428909301758,-0.2072044014930725,-2.1453890800476074,0.42605918645858765,0
20,0.09470248222351074,-0.4783565402030945,-22.795862197875977,-0.1729399859905243,14.056428909301758,0.2072044014930725,2.1453890800476074,-0.42605918645858765,0.0,0.0,0.0,0.0,0.0,0.0,0.0,-0.4399242895580413,-0.029836039169534347,-0.21958326061429115,0.18810062907179131,-0.030380388014861492,-0.03590046457726832,-0.40625004979884394,1.6757414963487356,0.05231056281715109,0.030001464374755555,-2.752571413949106,0.034298202226782246,2.766315263801151,0.7691995261993426,1.6754973547542302,0.052104326824870026,0.029969505109285054,-2.752394845125968,0.0342448039870148,2.7663679543071322,0.7691630533470046,0.0006538074736712966,0.00021710728449959513,0.0003409160458835137,0.00035549268438502213,-0.00012291377416367085,-2.122706965927562e-05,0.0015989689225116685,0.0,0.0,0.0,0.0,0.0,0.0,0.0,-0.0002441415945053649,-0.00020623599228106193,-3.195926547050129e-05,0.0001765688231381013,-5.339823976744512e-05,5.269050598144531e-05,-3.647285233798758e-05,-0.0006538074736712966,-0.00021710728449959513,-0.0003409160458835137,-0.00035549268438502213,0.00012291377416367085,2.122706965927562e-05,-0.0015989689225116685,0.4783565402030945,22.795862197875977,0.1729399859905243,-14.056428909301758,-0.2072044014930725,-2.1453890800476074,0.42605918645858765,0
21,0.09969806671142578,-0.4505855441093445,-22.819665908813477,-0.09756157547235489,14.032625198364258,0.2072044014930725,2.1453890800476074,-0.37204307317733765,0.0,0.0,0.0,0.0,0.0,0.0,0.0,-0.44002929769475285,-0.019447262161440566,-0.22088474502891514,0.18498617727028172,-0.029989735604433142,-0.036641024727083034,-0.40225118675963495,1.6757395553802519,0.05231223325300635,0.029996174661736735,-2.752569769127586,0.034296069722881246,2.76631632343928,0.7691936770308677,1.6754973547542302,0.052104326824870026,0.029969505109285054,-2.752394845125968,0.0342448039870148,2.7663679543071322,0.7691630533470046,0.0001226366716779538,0.0008845603121699547,-0.00034392813863787995,0.0007535178860543903,-4.9111238473307194e-05,0.0003044474370913487,-0.0007585958881626103,0.0,0.0,0.0,0.0,0.0,0.0,0.0,-0.00024220062602164916,-0.00020790642813632576,-2.6669552451681622e-05,0.0001749240016177822,-5.1265735866445894e-05,5.163086785220372e-05,-3.062368386308467e-05,-0.0001226366716779538,-0.0008845603121699547,0.00034392813863787995,-0.0007535178860543903,4.9111238473307194e-05,-0.0003044474370913487,0.0007585958881626103,0.4505855441093445,22.819665908813477,0.09756157547235489,-14.032625198364258,-0.2072044014930725,-2.1453890800476074,0.37204307317733765,0
22,0.1046903133392334,-0.4505855441093445,-22.819665908813477,-0.09756157547235489,14.032625198364258,0.2072044014930725,2.1453890800476074,-0.37204307317733765,0.0,0.0,0.0,0.0,0.0,0.0,0.0,-0.44002929769475285,-0.019447262161440566,-0.22088474502891514,0.18498617727028172,-0.029989735604433142,-0.036641024727083034,-0.40225118675963495,1.6757395553802519,0.05231223325300635,0.029996174661736735,-2.752569769127586,0.034296069722881246,2.76631632343928,0.7691936770308677,1.6754973547542302,0.052104326824870026,0.029969505109285054,-2.752394845125968,0.0342448039870148,2.7663679543071322,0.7691630533470046,0.0001226366716779538,0.0008845603121699547,-0.00034392813863787995,0.0007535178860543903,-4.9111238473307194e-05,0.0003044474370913487,-0.0007585958881626103,0.0,0.0,0.0,0.0,0.0,0.0,0.0,-0.00024220062602164916,-0.00020790642813632576,-2.6669552451681622e-05,0.0001749240016177822,-5.1265735866445894e-05,5.163086785220372e-05,-3.062368386308467e-05,-0.0001226366716779538,-0.0008845603121699547,0.00034392813863787995,-0.0007535178860543903,4.9111238473307194e-05,-0.0003044474370913487,0.0007585958881626103,0.4505855441093445,22.819665908813477,0.09756157547235489,-14.032625198364258,-0.2072044014930725,-2.1453890800476074,0.37204307317733765,0
23,0.10968732833862305,-0.4267818331718445,-22.847436904907227,-0.1253325641155243,14.032625198364258,0.2007957100868225,2.1389803886413574,-0.40591758489608765,0.0,0.0,0.0,0.0,0.0,0.0,0.0,-0.4362986496530563,-0.015769215551990005,-0.21741236248720966,0.18722688518038746,-0.02898905521666829,-0.03585224585028343,-0.39943233856138843,1.6757378857842702,0.05231418209483749,0.029998123503045027,-2.75256952288286,0.0342957162310301,2.766315975883955,0.7691974452270154,1.6754973547542302,0.052104326824870026,0.029969505109285054,-2.752394845125968,0.0342448039870148,2.7663679543071322,0.7691630533470046,0.0006913388273802288,0.0013517887622457121,0.00021994988277656758,0.0003272924746154616,0.0001477486149612704,0.0004908755243680423,0.0003943902866140201,0.0,0.0,0.0,0.0,0.0,0.0,0.0,-0.0002405310300399588,-0.0002098552699674669,-2.861839375997363e-05,0.00017467775689183895,-5.09122440153012e-05,5.1978423177168054e-05,-3.439188001075344e-05,-0.0006913388273802288,-0.0013517887622457121,-0.00021994988277656758,-0.0003272924746154616,-0.0001477486149612704,-0.0004908755243680423,-0.0003943902866140201,0.4267818331718445,22.847436904907227,0.1253325641155243,-14.032625198364258,-0.2007957100868225,-2.1389803886413574,0.40591758489608765,0
24,0.1146860122680664,-0.4267818331718445,-22.847436904907227,-0.1253325641155243,14.032625198364258,0.2007957100868225,2.1389803886413574,-0.40591758489608765,0.0,0.0,0.0,0.0,0.0,0.0,0.0,-0.4362986496530563,-0.015769215551990005,-0.21741236248720966,0.18722688518038746,-0.02898905521666829,-0.03585224585028343,-0.39943233856138843,1.6757378857842702,0.05231418209483749,0.029998123503045027,-2.75256952288286,0.0342957162310301,2.766315975883955,0.7691974452270154,1.6754973547542302,0.052104326824870026,0.029969505109285054,-2.752394845125968,0.0342448039870148,2.7663679543071322,0.7691630533470046,0.0006913388273802288,0.0013517887622457121,0.00021994988277656758,0.0003272924746154616,0.0001477486149612704,0.0004908755243680423,0.0003943902866140201,0.0,0.0,0.0,0.0,0.0,0.0,0.0,-0.0002405310300399588,-0.0002098552699674669,-2.861839375997363e-05,0.00017467775689183895,-5.09122440153012e-05,5.1978423177168054e-05,-3.439188001075344e-05,-0.0006913388273802288,-0.0013517887622457121,-0.00021994988277656758,-0.0003272924746154616,-0.0001477486149612704,-0.0004908755243680423,-0.0003943902866140201,0.4267818331718445,22.847436904907227,0.1253325641155243,-14.032625198364258,-0.2007957100868225,-2.1389803886413574,0.40591758489608765,0
25,0.1146860122680664,-0.4267818331718445,-22.847436904907227,-0.1253325641155243,14.032625198364258,0.2007957100868225,2.1389803886413574,-0.40591758489608765,0.0,0.0,0.0,0.0,0.0,0.0,0.0,-0.4362986496530563,-0.015769215551990005,-0.21741236248720966,0.18722688518038746,-0.02898905521666829,-0.03585224585028343,-0.39943233856138843,1.6757378857842702,0.05231418209483749,0.029998123503045027,-2.75256952288286,0.0342957162310301,2.766315975883955,0.7691974452270154,1.6754973547542302,0.052104326824870026,0.029969505109285054,-2.752394845125968,0.0342448039870148,2.7663679543071322,0.7691630533470046,0.0006913388273802288,0.0013517887622457121,0.00021994988277656758,0.0003272924746154616,0.0001477486149612704,0.0004908755243680423,0.0003943902866140201,0.0,0.0,0.0,0.0,0.0,0.0,0.0,-0.0002405310300399588,-0.0002098552699674669,-2.861839375997363e-05,0.00017467775689183895,-5.09122440153012e-05,5.1978423177168054e-05,-3.439188001075344e-05,-0.0006913388273802288,-0.0013517887622457121,-0.00021994988277656758,-0.0003272924746154616,-0.0001477486149612704,-0.0004908755243680423,-0.0003943902866140201,0.4267818331718445,22.847436904907227,0.1253325641155243,-14.032625198364258,-0.2007957100868225,-2.1389803886413574,0.40591758489608765,0
26,0.12468528747558594,-0.4267818331718445,-22.847436904907227,-0.07375786453485489,14.080232620239258,0.1953025460243225,2.1582064628601074,-0.38577598333358765,0.0,0.0,0.0,0.0,0.0,0.0,0.0,-0.42324053097980646,-0.02013802964959406,-0.2068672827337073,0.19365697287692446,-0.029078665801669092,-0.034494901449834324,-0.3999903121141744,1.6757378858892535,0.05231418209483749,0.02999450422588147,-2.7525729577790394,0.03429968310706671,2.766313839647505,0.7691940167598242,1.6754973547542302,0.052104326824870026,0.029969505109285054,-2.752394845125968,0.0342448039870148,2.7663679543071322,0.7691630533470046,0.000915432270149009,0.0004385514194741293,5.6596803973599424e-05,-0.00021470137105587396,0.0003835429256443393,-0.00010046214053247726,-0.0010444405974175278,0.0,0.0,0.0,0.0,0.0,0.0,0.0,-0.00024053113502331414,-0.0002098552699674669,-2.4999116596417792e-05,0.0001781126530713273,-5.487912005190665e-05,5.4114659627124695e-05,-3.0963412819606795e-05,-0.000915432270149009,-0.0004385514194741293,-5.6596803973599424e-05,0.00021470137105587396,-0.0003835429256443393,0.00010046214053247726,0.0010444405974175278,0.4267818331718445,22.847436904907227,0.07375786453485489,-14.080232620239258,-0.1953025460243225,-2.1582064628601074,0.38577598333358765,0
27,0.12969613075256348,-0.4267818331718445,-22.847436904907227,-0.07375786453485489,14.080232620239258,0.1953025460243225,2.1582064628601074,-0.38577598333358765,0.0,0.0,0.0,0.0,0.0,0.0,0.0,-0.42324053097980646,-0.02013802964959406,-0.2068672827337073,0.19365697287692446,-0.029078665801669092,-0.034494901449834324,-0.3999903121141744,1.6757378858892535,0.05231418209483749,0.02999450422588147,-2.7525729577790394,0.03429968310706671,2.766313839647505,0.7691940167598242,1.6754973547542302,0.052104326824870026,0.029969505109285054,-2.752394845125968,0.0342448039870148,2.7663679543071322,0.7691630533470046,0.000915432270149009,0.0004385514194741293,5.6596803973599424e-05,-0.00021470137105587396,0.0003835429256443393,-0.00010046214053247726,-0.0010444405974175278,0.0,0.0,0.0,0.0,0.0,0.0,0.0,-0.00024053113502331414,-0.0002098552699674669,-2.4999116596417792e-05,0.0001781126530713273,-5.487912005190665e-05,5.4114659627124695e-05,-3.0963412819606795e-05,-0.000915432270149009,-0.0004385514194741293,-5.6596803973599424e-05,0.00021470137105587396,-0.0003835429256443393,0.00010046214053247726,0.0010444405974175278,0.4267818331718445,22.847436904907227,0.07375786453485489,-14.080232620239258,-0.1953025460243225,-2.1582064628601074,0.38577598333358765,0
28,0.1346907615661621,-0.3752071261405945,-22.819665908813477,-0.09756157547235489,14.032625198364258,0.2007957100868225,2.1582064628601074,-0.39950889348983765,0.0,0.0,0.0,0.0,0.0,0.0,0.0,-0.4205647399104371,-0.015473485025504032,-0.20201268165781044,0.1867769664132775,-0.02902062344539925,-0.035193410331337424,-0.4007696494618226,1.6757318913301178,0.05231223325300635,0.029996174661736735,-2.7525702111918773,0.034295715702245974,2.766313839647505,0.7691966154059268,1.6754973547542302,0.052104326824870026,0.029969505109285054,-2.752394845125968,0.0342448039870148,2.7663679543071322,0.7691630533470046,-0.00017266795319136884,-8.766116780738519e-05,0.00019380207626713695,0.0005453150306348975,-4.26514055637713e-05,-0.00016112518773549235,-0.0005563391379215347,0.0,0.0,0.0,0.0,0.0,0.0,0.0,-0.00023453657588756727,-0.00020790642813632576,-2.6669552451681622e-05,0.00017536606590917714,-5.0911715231173604e-05,5.4114659627124695e-05,-3.356205892213193e-05,0.00017266795319136884,8.766116780738519e-05,-0.00019380207626713695,-0.0005453150306348975,4.26514055637713e-05,0.00016112518773549235,0.0005563391379215347,0.3752071261405945,22.819665908813477,0.09756157547235489,-14.032625198364258,-0.2007957100868225,-2.1582064628601074,0.39950889348983765,0
29,0.13970327377319336,-0.3752071261405945,-22.819665908813477,-0.09756157547235489,14.032625198364258,0.2007957100868225,2.1582064628601074,-0.39950889348983765,0.0,0.0,0.0,0.0,0.0,0.0,0.0,-0.4205647399104371,-0.015473485025504032,-0.20201268165781044,0.1867769664132775,-0.02902062344539925,-0.035193410331337424,-0.4007696494618226,1.6757318913301178,0.05231223325300635,0.029996174661736735,-2.7525702111918773,0.034295715702245974,2.766313839647505,0.7691966154059268,1.6754973547542302,0.052104326824870026,0.029969505109285054,-2.752394845125968,0.0342448039870148,2.7663679543071322,0.7691630533470046,-0.00017266795319136884,-8.766116780738519e-05,0.00019380207626713695,0.0005453150306348975,-4.26514055637713e-05,-0.00016112518773549235,-0.0005563391379215347,0.0,0.0,0.0,0.0,0.0,0.0,0.0,-0.00023453657588756727,-0.00020790642813632576,-2.6669552451681622e-05,0.00017536606590917714,-5.0911715231173604e-05,5.4114659627124695e-05,-3.356205892213193e-05,0.00017266795319136884,8.766116780738519e-05,-0.00019380207626713695,-0.0005453150306348975,4.26514055637713e-05,0.00016112518773549235,0.0005563391379215347,0.3752071261405945,22.819665908813477,0.09756157547235489,-14.032625198364258,-0.2007957100868225,-2.1582064628601074,0.39950889348983765,0
30,0.1447310447692871,-0.4267818331718445,-22.748254776000977,-0.07375786453485489,14.008821487426758,0.1888938546180725,2.1453890800476074,-0.43979209661483765,0.0,0.0,0.0,0.0,0.0,0.0,0.0,-0.4169295482869345,-0.01816957098438696,-0.19876904260431935,0.18601246209717892,-0.029385533253799098,-0.03452301054661405,-0.4030912621763247,1.675737851835953,0.05230722194544056,0.02999450422588147,-2.752568762167178,0.034300277685548906,2.766315263801151,0.7692012090596815,1.6754973547542302,0.052104326824870026,0.029969505109285054,-2.752394845125968,0.0342448039870148,2.7663679543071322,0.7691630533470046,0.0007384550691189271,-0.0017417072238377646,-0.0005756862270003887,0.0008988903506697672,0.000558757043934109,2.8607696229129276e-05,0.0011495057908978423,0.0,0.0,0.0,0.0,0.0,0.0,0.0,-0.00024049708172269035,-0.00020289512057053427,-2.4999116596417792e-05,0.00017391704120983675,-5.5473698534105886e-05,5.269050598144531e-05,-3.815571267684614e-05,-0.0007384550691189271,0.0017417072238377646,0.0005756862270003887,-0.0008988903506697672,-0.000558757043934109,-2.8607696229129276e-05,-0.0011495057908978423,0.4267818331718445,22.748254776000977,0.07375786453485489,-14.008821487426758,-0.1888938546180725,-2.1453890800476074,0.43979209661483765,0
31,0.1497023105621338,-0.4267818331718445,-22.748254776000977,-0.07375786453485489,14.008821487426758,0.1888938546180725,2.1453890800476074,-0.43979209661483765,0.0,0.0,0.0,0.0,0.0,0.0,0.0,-0.4169295482869345,-0.01816957098438696,-0.19876904260431935,0.18601246209717892,-0.029385533253799098,-0.03452301054661405,-0.4030912621763247,1.675737851835953,0.05230722194544056,0.02999450422588147,-2.752568762167178,0.034300277685548906,2.766315263801151,0.7692012090596815,1.6754973547542302,0.052104326824870026,0.029969505109285054,-2.752394845125968,0.0342448039870148,2.7663679543071322,0.7691630533470046,0.0007384550691189271,-0.0017417072238377646,-0.0005756862270003887,0.0008988903506697672,0.000558757043934109,2.8607696229129276e-05,0.0011495057908978423,0.0,0.0,0.0,0.0,0.0,0.0,0.0,-0.00024049708172269035,-0.00020289512057053427,-2.4999116596417792e-05,0.00017391704120983675,-5.5473698534105886e-05,5.269050598144531e-05,-3.815571267684614e-05,-0.0007384550691189271,0.0017417072238377646,0.0005756862270003887,-0.0008988903506697672,-0.000558757043934109,-2.8607696229129276e-05,-0.0011495057908978423,0.4267818331718445,22.748254776000977,0.07375786453485489,-14.008821487426758,-0.1888938546180725,-2.1453890800476074,0.43979209661483765,0
32,0.15469765663146973,-0.4783565402030945,-22.772058486938477,-0.1729399859905243,14.056428909301758,0.2126975655555725,2.1453890800476074,-0.41965049505233765,0.0,0.0,0.0,0.0,0.0,0.0,0.0,-0.42172939939559406,-0.015267314503415957,-0.20167506362878704,0.18593781923147584,-0.02925547355742221,-0.03460410500431021,-0.40483974282490615,1.6757387245979332,0.052308892381295824,0.030001464374755555,-2.7525735142565164,0.03429443697753806,2.766318442715539,0.769197909798926,1.6754973547542302,0.052104326824870026,0.029969505109285054,-2.752394845125968,0.0342448039870148,2.7663679543071322,0.7691630533470046,0.0011090418188938916,-0.00041554442778835157,0.0008033526420069585,-0.00036220224005712034,-0.00038811193096512217,0.00014721669787516066,0.0006199751354532356,0.0,0.0,0.0,0.0,0.0,0.0,0.0,-0.00024136984370293213,-0.0002045655564257981,-3.195926547050129e-05,0.00017866913054831457,-4.963299052326148e-05,4.951159159327645e-05,-3.485645192136122e-05,-0.0011090418188938916,0.00041554442778835157,-0.0008033526420069585,0.00036220224005712034,0.00038811193096512217,-0.00014721669787516066,-0.0006199751354532356,0.4783565402030945,22.772058486938477,0.1729399859905243,-14.056428909301758,-0.2126975655555725,-2.1453890800476074,0.41965049505233765,0
33,0.16011595726013184,-0.4783565402030945,-22.772058486938477,-0.1729399859905243,14.056428909301758,0.2126975655555725,2.1453890800476074,-0.41965049505233765,0.0,0.0,0.0,0.0,0.0,0.0,0.0,-0.42172939939559406,-0.015267314503415957,-0.20167506362878704,0.18593781923147584,-0.02925547355742221,-0.03460410500431021,-0.40483974282490615,1.6757387245979332,0.052308892381295824,0.030001464374755555,-2.7525735142565164,0.03429443697753806,2.766318442715539,0.769197909798926,1.6754973547542302,0.052104326824870026,0.029969505109285054,-2.752394845125968,0.0342448039870148,2.7663679543071322,0.7691630533470046,0.0011090418188938916,-0.00041554442778835157,0.0008033526420069585,-0.00036220224005712034,-0.00038811193096512217,0.00014721669787516066,0.0006199751354532356,0.0,0.0,0.0,0.0,0.0,0.0,0.0,-0.00024136984370293213,-0.0002045655564257981,-3.195926547050129e-05,0.00017866913054831457,-4.963299052326148e-05,4.951159159327645e-05,-3.485645192136122e-05,-0.0011090418188938916,0.00041554442778835157,-0.0008033526420069585,0.00036220224005712034,0.00038811193096512217,-0.00014721669787516066,-0.0006199751354532356,0.4783565402030945,22.772058486938477,0.1729399859905243,-14.056428909301758,-0.2126975655555725,-2.1453890800476074,0.41965049505233765,0
34,0.16475486755371094,-0.4783565402030945,-22.772058486938477,-0.1729399859905243,14.056428909301758,0.2126975655555725,2.1453890800476074,-0.41965049505233765,0.0,0.0,0.0,0.0,0.0,0.0,0.0,-0.42172939939559406,-0.015267314503415957,-0.20167506362878704,0.18593781923147584,-0.02925547355742221,-0.03460410500431021,-0.40483974282490615,1.6757387245979332,0.052308892381295824,0.030001464374755555,-2.7525735142565164,0.03429443697753806,2.766318442715539,0.769197909798926,1.6754973547542302,0.052104326824870026,0.029969505109285054,-2.752394845125968,0.0342448039870148,2.7663679543071322,0.7691630533470046,0.0011090418188938916,-0.00041554442778835157,0.0008033526420069585,-0.00036220224005712034,-0.00038811193096512217,0.00014721669787516066,0.0006199751354532356,0.0,0.0,0.0,0.0,0.0,0.0,0.0,-0.00024136984370293213,-0.0002045655564257981,-3.195926547050129e-05,0.00017866913054831457,-4.963299052326148e-05,4.951159159327645e-05,-3.485645192136122e-05,-0.0011090418188938916,0.00041554442778835157,-0.0008033526420069585,0.00036220224005712034,0.00038811193096512217,-0.00014721669787516066,-0.0006199751354532356,0.4783565402030945,22.772058486938477,0.1729399859905243,-14.056428909301758,-0.2126975655555725,-2.1453890800476074,0.41965049505233765,0
35,0.16972589492797852,-0.4783565402030945,-22.772058486938477,-0.1729399859905243,14.056428909301758,0.2126975655555725,2.1453890800476074,-0.41965049505233765,0.0,0.0,0.0,0.0,0.0,0.0,0.0,-0.42172939939559406,-0.015267314503415957,-0.20167506362878704,0.18593781923147584,-0.02925547355742221,-0.03460410500431021,-0.40483974282490615,1.6757387245979332,0.052308892381295824,0.030001464374755555,-2.7525735142565164,0.03429443697753806,2.766318442715539,0.769197909798926,1.6754973547542302,0.052104326824870026,0.029969505109285054,-2.752394845125968,0.0342448039870148,2.7663679543071322,0.7691630533470046,0.0011090418188938916,-0.00041554442778835157,0.0008033526420069585,-0.00036220224005712034,-0.00038811193096512217,0.00014721669787516066,0.0006199751354532356,0.0,0.0,0.0,0.0,0.0,0.0,0.0,-0.00024136984370293213,-0.0002045655564257981,-3.195926547050129e-05,0.00017866913054831457,-4.963299052326148e-05,4.951159159327645e-05,-3.485645192136122e-05,-0.0011090418188938916,0.00041554442778835157,-0.0008033526420069585,0.00036220224005712034,0.00038811193096512217,-0.00014721669787516066,-0.0006199751354532356,0.4783565402030945,22.772058486938477,0.1729399859905243,-14.056428909301758,-0.2126975655555725,-2.1453890800476074,0.41965049505233765,0
36,0.1747572422027588,-0.4505855441093445,-22.795862197875977,-0.1491362750530243,14.056428909301758,0.2072044014930725,2.1582064628601074,-0.43338340520858765,0.0,0.0,0.0,0.0,0.0,0.0,0.0,-0.42453242013270304,-0.017249805403924658,-0.20226812692701412,0.18991539567931862,-0.029601098874149426,-0.03369903752996009,-0.40467445931803175,1.6757374900150608,0.05231056281715109,0.02999979393890029,-2.7525732596247794,0.03429606986758675,2.76631383966545,0.7692003399954349,1.6754973547542302,0.052104326824870026,0.029969505109285054,-2.752394845125968,0.0342448039870148,2.7663679543071322,0.7691630533470046,-0.00012214191569337966,-0.0001888239185736765,-2.9851798111813454e-05,0.0001593888724822493,-0.00016419862042971322,-0.0002559426412450512,0.001396147715314423,0.0,0.0,0.0,0.0,0.0,0.0,0.0,-0.00024013526083055403,-0.00020623599228106193,-3.028882961523746e-05,0.00017841449881128568,-5.126588057195042e-05,5.41146416823679e-05,-3.728664843027918e-05,0.00012214191569337966,0.0001888239185736765,2.9851798111813454e-05,-0.0001593888724822493,0.00016419862042971322,0.0002559426412450512,-0.001396147715314423,0.4505855441093445,22.795862197875977,0.1491362750530243,-14.056428909301758,-0.2072044014930725,-2.1582064628601074,0.43338340520858765,0
37,0.17968225479125977,-0.4505855441093445,-22.795862197875977,-0.1491362750530243,14.056428909301758,0.2072044014930725,2.1582064628601074,-0.43338340520858765,0.0,0.0,0.0,0.0,0.0,0.0,0.0,-0.42453242013270304,-0.017249805403924658,-0.20226812692701412,0.18991539567931862,-0.029601098874149426,-0.03369903752996009,-0.40467445931803175,1.6757374900150608,0.05231056281715109,0.02999979393890029,-2.7525732596247794,0.03429606986758675,2.76631383966545,0.7692003399954349,1.6754973547542302,0.052104326824870026,0.029969505109285054,-2.752394845125968,0.0342448039870148,2.7663679543071322,0.7691630533470046,-0.00012214191569337966,-0.0001888239185736765,-2.9851798111813454e-05,0.0001593888724822493,-0.00016419862042971322,-0.0002559426412450512,0.001396147715314423,0.0,0.0,0.0,0.0,0.0,0.0,0.0,-0.00024013526083055403,-0.00020623599228106193,-3.028882961523746e-05,0.00017841449881128568,-5.126588057195042e-05,5.41146416823679e-05,-3.728664843027918e-05,0.00012214191569337966,0.0001888239185736765,2.9851798111813454e-05,-0.0001593888724822493,0.00016419862042971322,0.0002559426412450512,-0.001396147715314423,0.4505855441093445,22.795862197875977,0.1491362750530243,-14.056428909301758,-0.2072044014930725,-2.1582064628601074,0.43338340520858765,0
38,0.18469929695129395,-0.4505855441093445,-22.847436904907227,-0.1729399859905243,14.056428909301758,0.2126975655555725,2.1453890800476074,-0.41324180364608765,0.0,0.0,0.0,0.0,0.0,0.0,0.0,-0.4318755626383831,-0.011994665303250952,-0.20773323958737622,0.1849890259834178,-0.02992112471402112,-0.03448377917489128,-0.4042507406895157,1.675739556313445,0.05231418209483749,0.030001464374755555,-2.752573330029009,0.03429439358595885,2.766315263801151,0.7691982182749951,1.6754973547542302,0.052104326824870026,0.029969505109285054,-2.752394845125968,0.0342448039870148,2.7663679543071322,0.7691630533470046,-0.0004813675987877406,0.0006763234227070964,0.00040548855188663304,-0.00040430215759338755,-0.0004308668937962096,0.0001490136322643937,0.0007439002654979303,0.0,0.0,0.0,0.0,0.0,0.0,0.0,-0.00024220155921472752,-0.0002098552699674669,-3.195926547050129e-05,0.00017848490304084308,-4.9589598944049795e-05,5.269050598144531e-05,-3.51649279904942e-05,0.0004813675987877406,-0.0006763234227070964,-0.00040548855188663304,0.00040430215759338755,0.0004308668937962096,-0.0001490136322643937,-0.0007439002654979303,0.4505855441093445,22.847436904907227,0.1729399859905243,-14.056428909301758,-0.2126975655555725,-2.1453890800476074,0.41324180364608765,0
39,0.18969273567199707,-0.4505855441093445,-22.847436904907227,-0.1729399859905243,14.056428909301758,0.2126975655555725,2.1453890800476074,-0.41324180364608765,0.0,0.0,0.0,0.0,0.0,0.0,0.0,-0.4318755626383831,-0.011994665303250952,-0.20773323958737622,0.1849890259834178,-0.02992112471402112,-0.03448377917489128,-0.4042507406895157,1.675739556313445,0.05231418209483749,0.030001464374755555,-2.752573330029009,0.03429439358595885,2.766315263801151,0.7691982182749951,1.6754973547542302,0.052104326824870026,0.029969505109285054,-2.752394845125968,0.0342448039870148,2.7663679543071322,0.7691630533470046,-0.0004813675987877406,0.0006763234227070964,0.00040548855188663304,-0.00040430215759338755,-0.0004308668937962096,0.0001490136322643937,0.0007439002654979303,0.0,0.0,0.0,0.0,0.0,0.0,0.0,-0.00024220155921472752,-0.0002098552699674669,-3.195926547050129e-05,0.00017848490304084308,-4.9589598944049795e-05,5.269050598144531e-05,-3.51649279904942e-05,0.0004813675987877406,-0.0006763234227070964,-0.00040548855188663304,0.00040430215759338755,0.0004308668937962096,-0.0001490136322643937,-0.0007439002654979303,0.4505855441093445,22.847436904907227,0.1729399859905243,-14.056428909301758,-0.2126975655555725,-2.1453890800476074,0.41324180364608765,0
40,0.19468140602111816,-0.5021602511405945,-22.819665908813477,-0.09756157547235489,14.056428909301758,0.2007957100868225,2.1389803886413574,-0.37204307317733765,0.0,0.0,0.0,0.0,0.0,0.0,0.0,-0.4335032165216779,-0.01568675307967169,-0.2088052923196376,0.18935421016311904,-0.03051505251866912,-0.03391266553136152,-0.4030389702285636,1.6757431754978172,0.05231223325300635,0.029996174661736735,-2.7525721037740425,0.034296070941071295,2.7663159758779736,0.7691936807461522,1.6754973547542302,0.052104326824870026,0.029969505109285054,-2.752394845125968,0.0342448039870148,2.7663679543071322,0.7691630533470046,0.0012399373031794722,-4.493681196148662e-05,-0.0007397505620734848,0.00019879904297626918,6.291111130781396e-06,0.0005370518822710469,-0.0009484166619243119,0.0,0.0,0.0,0.0,0.0,0.0,0.0,-0.00024582074358692196,-0.00020790642813632576,-2.6669552451681622e-05,0.0001772586480743854,-5.126695405649473e-05,5.197842915860562e-05,-3.062739914760915e-05,-0.0012399373031794722,4.493681196148662e-05,0.0007397505620734848,-0.00019879904297626918,-6.291111130781396e-06,-0.0005370518822710469,0.0009484166619243119,0.5021602511405945,22.819665908813477,0.09756157547235489,-14.056428909301758,-0.2007957100868225,-2.1389803886413574,0.37204307317733765,0
41,0.19970273971557617,-0.5021602511405945,-22.819665908813477,-0.09756157547235489,14.056428909301758,0.2007957100868225,2.1389803886413574,-0.37204307317733765,0.0,0.0,0.0,0.0,0.0,0.0,0.0,-0.4335032165216779,-0.01568675307967169,-0.2088052923196376,0.18935421016311904,-0.03051505251866912,-0.03391266553136152,-0.4030389702285636,1.6757431754978172,0.05231223325300635,0.029996174661736735,-2.7525721037740425,0.034296070941071295,2.7663159758779736,0.7691936807461522,1.6754973547542302,0.052104326824870026,0.029969505109285054,-2.752394845125968,0.0342448039870148,2.7663679543071322,0.7691630533470046,0.0012399373031794722,-4.493681196148662e-05,-0.0007397505620734848,0.00019879904297626918,6.291111130781396e-06,0.0005370518822710469,-0.0009484166619243119,0.0,0.0,0.0,0.0,0.0,0.0,0.0,-0.00024582074358692196,-0.00020790642813632576,-2.6669552451681622e-05,0.0001772586480743854,-5.126695405649473e-05,5.197842915860562e-05,-3.062739914760915e-05,-0.0012399373031794722,4.493681196148662e-05,0.0007397505620734848,-0.00019879904297626918,-6.291111130781396e-06,-0.0005370518822710469,0.0009484166619243119,0.5021602511405945,22.819665908813477,0.09756157547235489,-14.056428909301758,-0.2007957100868225,-2.1389803886413574,0.37204307317733765,0
42,0.20470333099365234,-0.3752071261405945,-22.819665908813477,-0.1253325641155243,14.056428909301758,0.2007957100868225,2.1453890800476074,-0.43979209661483765,0.0,0.0,0.0,0.0,0.0,0.0,0.0,-0.42841453160327947,-0.016214458391861784,-0.20144896355712147,0.18668165643918308,-0.031466155549606585,-0.03463660819482775,-0.4018075554406136,1.6757342382673361,0.05231223325300635,0.029998123503045027,-2.7525719836819493,0.034295715526798366,2.766315263801151,0.7692012089001589,1.6754973547542302,0.052104326824870026,0.029969505109285054,-2.752394845125968,0.0342448039870148,2.7663679543071322,0.7691630533470046,-0.0004752096083961179,-2.190170989141876e-05,0.00040774375639768425,-0.0002360752962201808,-8.186166138881121e-05,0.00026868006968343614,0.0015570566766171232,0.0,0.0,0.0,0.0,0.0,0.0,0.0,-0.00023688351310591216,-0.00020790642813632576,-2.861839375997363e-05,0.00017713855598122663,-5.0911539783565773e-05,5.269050598144531e-05,-3.8155553154228805e-05,0.0004752096083961179,2.190170989141876e-05,-0.00040774375639768425,0.0002360752962201808,8.186166138881121e-05,-0.00026868006968343614,-0.0015570566766171232,0.3752071261405945,22.819665908813477,0.1253325641155243,-14.056428909301758,-0.2007957100868225,-2.1453890800476074,0.43979209661483765,0
43,0.20974040031433105,-0.3752071261405945,-22.819665908813477,-0.1253325641155243,14.056428909301758,0.2007957100868225,2.1453890800476074,-0.43979209661483765,0.0,0.0,0.0,0.0,0.0,0.0,0.0,-0.42841453160327947,-0.016214458391861784,-0.20144896355712147,0.18668165643918308,-0.031466155549606585,-0.03463660819482775,-0.4018075554406136,1.6757342382673361,0.05231223325300635,0.029998123503045027,-2.7525719836819493,0.034295715526798366,2.766315263801151,0.7692012089001589,1.6754973547542302,0.052104326824870026,0.029969505109285054,-2.752394845125968,0.0342448039870148,2.7663679543071322,0.7691630533470046,-0.0004752096083961179,-2.190170989141876e-05,0.00040774375639768425,-0.0002360752962201808,-8.186166138881121e-05,0.00026868006968343614,0.0015570566766171232,0.0,0.0,0.0,0.0,0.0,0.0,0.0,-0.00023688351310591216,-0.00020790642813632576,-2.861839375997363e-05,0.00017713855598122663,-5.0911539783565773e-05,5.269050598144531e-05,-3.8155553154228805e-05,0.0004752096083961179,2.190170989141876e-05,-0.00040774375639768425,0.0002360752962201808,8.186166138881121e-05,-0.00026868006968343614,-0.0015570566766171232,0.3752071261405945,22.819665908813477,0.1253325641155243,-14.056428909301758,-0.2007957100868225,-2.1453890800476074,0.43979209661483765,0
44,0.2147200107574463,-0.3236324191093445,-22.819665908813477,-0.07375786453485489,14.080232620239258,0.2072044014930725,2.1517977714538574,-0.43979209661483765,0.0,0.0,0.0,0.0,0.0,0.0,0.0,-0.42234550556701167,-0.02320960552315717,-0.19860018151471046,0.1884135706864081,-0.03104861774552756,-0.034079953372674575,-0.40116366935706105,1.675730647333828,0.05231223325300635,0.02999450422588147,-2.752572854796458,0.03429501666184247,2.766314551724328,0.7692001474316437,1.6754973547542302,0.052104326824870026,0.029969505109285054,-2.752394845125968,0.0342448039870148,2.7663679543071322,0.7691630533470046,-0.000966104448283298,-0.00024402607989737628,0.00024562212231172686,-0.0009513296272642177,-0.00027210215324681826,-0.00020319756939141172,0.0018116384878277426,0.0,0.0,0.0,0.0,0.0,0.0,0.0,-0.00023329257959781025,-0.00020790642813632576,-2.4999116596417792e-05,0.0001780096704897538,-5.021267482766684e-05,5.3402582804285004e-05,-3.70940846390333e-05,0.000966104448283298,0.00024402607989737628,-0.00024562212231172686,0.0009513296272642177,0.00027210215324681826,0.00020319756939141172,-0.0018116384878277426,0.3236324191093445,22.819665908813477,0.07375786453485489,-14.080232620239258,-0.2072044014930725,-2.1517977714538574,0.43979209661483765,0
45,0.2197113037109375,-0.3236324191093445,-22.819665908813477,-0.07375786453485489,14.080232620239258,0.2072044014930725,2.1517977714538574,-0.43979209661483765,0.0,0.0,0.0,0.0,0.0,0.0,0.0,-0.42234550556701167,-0.02320960552315717,-0.19860018151471046,0.1884135706864081,-0.03104861774552756,-0.034079953372674575,-0.40116366935706105,1.675730647333828,0.05231223325300635,0.02999450422588147,-2.752572854796458,0.03429501666184247,2.766314551724328,0.7692001474316437,1.6754973547542302,0.052104326824870026,0.029969505109285054,-2.752394845125968,0.0342448039870148,2.7663679543071322,0.7691630533470046,-0.000966104448283298,-0.00024402607989737628,0.00024562212231172686,-0.0009513296272642177,-0.00027210215324681826,-0.00020319756939141172,0.0018116384878277426,0.0,0.0,0.0,0.0,0.0,0.0,0.0,-0.00023329257959781025,-0.00020790642813632576,-2.4999116596417792e-05,0.0001780096704897538,-5.021267482766684e-05,5.3402582804285004e-05,-3.70940846390333e-05,0.000966104448283298,0.00024402607989737628,-0.00024562212231172686,0.0009513296272642177,0.00027210215324681826,0.00020319756939141172,-0.0018116384878277426,0.3236324191093445,22.819665908813477,0.07375786453485489,-14.080232620239258,-0.2072044014930725,-2.1517977714538574,0.43979209661483765,0
46,0.22469782829284668,-0.3752071261405945,-22.847436904907227,-0.1253325641155243,14.032625198364258,0.2007957100868225,2.1453890800476074,-0.43338340520858765,0.0,0.0,0.0,0.0,0.0,0.0,0.0,-0.42398587856907416,-0.023641428233583554,-0.20137557972068582,0.18812380947193355,-0.02946549274099131,-0.03453309756111128,-0.4006477803662709,1.6757342581082988,0.05231418209483749,0.029998123503045027,-2.7525716652502847,0.03429928288746048,2.766315263801151,0.7692004838430723,1.6754973547542302,0.052104326824870026,0.029969505109285054,-2.752394845125968,0.0342448039870148,2.7663679543071322,0.7691630533470046,-0.0004541965490468911,0.0004519807071165051,0.0009894882942340503,0.0004050665163120978,0.00027839649609384264,0.00022432140212454756,0.0007721747588346376,0.0,0.0,0.0,0.0,0.0,0.0,0.0,-0.00023690335406856278,-0.0002098552699674669,-2.861839375997363e-05,0.00017682012431663452,-5.447890044567999e-05,5.269050598144531e-05,-3.7430496067636376e-05,0.0004541965490468911,-0.0004519807071165051,-0.0009894882942340503,-0.0004050665163120978,-0.00027839649609384264,-0.00022432140212454756,-0.0007721747588346376,0.3752071261405945,22.847436904907227,0.1253325641155243,-14.032625198364258,-0.2007957100868225,-2.1453890800476074,0.43338340520858765,0
47,0.22970938682556152,-0.3752071261405945,-22.847436904907227,-0.1253325641155243,14.032625198364258,0.2007957100868225,2.1453890800476074,-0.43338340520858765,0.0,0.0,0.0,0.0,0.0,0.0,0.0,-0.42398587856907416,-0.023641428233583554,-0.20137557972068582,0.18812380947193355,-0.02946549274099131,-0.03453309756111128,-0.4006477803662709,1.6757342581082988,0.05231418209483749,0.029998123503045027,-2.7525716652502847,0.03429928288746048,2.766315263801151,0.7692004838430723,1.6754973547542302,0.052104326824870026,0.029969505109285054,-2.752394845125968,0.0342448039870148,2.7663679543071322,0.7691630533470046,-0.0004541965490468911,0.0004519807071165051,0.0009894882942340503,0.0004050665163120978,0.00027839649609384264,0.00022432140212454756,0.0007721747588346376,0.0,0.0,0.0,0.0,0.0,0.0,0.0,-0.00023690335406856278,-0.0002098552699674669,-2.861839375997363e-05,0.00017682012431663452,-5.447890044567999e-05,5.269050598144531e-05,-3.7430496067636376e-05,0.0004541965490468911,-0.0004519807071165051,-0.0009894882942340503,-0.0004050665163120978,-0.00027839649609384264,-0.00022432140212454756,-0.0007721747588346376,0.3752071261405945,22.847436904907227,0.1253325641155243,-14.032625198364258,-0.2007957100868225,-2.1453890800476074,0.43338340520858765,0
48,0.23470187187194824,-0.4505855441093445,-22.871240615844727,-0.1491362750530243,14.032625198364258,0.2007957100868225,2.1517977714538574,-0.37845176458358765,0.0,0.0,0.0,0.0,0.0,0.0,0.0,-0.4182883001709356,-0.02275597294253435,-0.19587663465038796,0.18787155908192113,-0.029043996717030507,-0.03477530428025263,-0.4019974644896937,1.6757393266318215,0.05231585253069275,0.02999979393890029,-2.7525696159746147,0.03429577258367965,2.766314551724328,0.7691943929846367,1.6754973547542302,0.052104326824870026,0.029969505109285054,-2.752394845125968,0.0342448039870148,2.7663679543071322,0.7691630533470046,0.00082514996797936,0.00154895330966559,0.0006955360824444388,0.0005508582781424723,0.00015957260470112267,-9.196188969566337e-05,-0.0011157724848066413,0.0,0.0,0.0,0.0,0.0,0.0,0.0,-0.0002419718775912294,-0.00021152570582272379,-3.028882961523746e-05,0.0001747708486465882,-5.096859666484793e-05,5.3402582804285004e-05,-3.1339637632021855e-05,-0.00082514996797936,-0.00154895330966559,-0.0006955360824444388,-0.0005508582781424723,-0.00015957260470112267,9.196188969566337e-05,0.0011157724848066413,0.4505855441093445,22.871240615844727,0.1491362750530243,-14.032625198364258,-0.2007957100868225,-2.1517977714538574,0.37845176458358765,0
49,0.2397303581237793,-0.4505855441093445,-22.871240615844727,-0.1491362750530243,14.032625198364258,0.2007957100868225,2.1517977714538574,-0.37845176458358765,0.0,0.0,0.0,0.0,0.0,0.0,0.0,-0.4182883001709356,-0.02275597294253435,-0.19587663465038796,0.18787155908192113,-0.029043996717030507,-0.03477530428025263,-0.4019974644896937,1.6757393266318215,0.05231585253069275,0.02999979393890029,-2.7525696159746147,0.03429577258367965,2.766314551724328,0.7691943929846367,1.6754973547542302,0.052104326824870026,0.029969505109285054,-2.752394845125968,0.0342448039870148,2.7663679543071322,0.7691630533470046,0.00082514996797936,0.00154895330966559,0.0006955360824444388,0.0005508582781424723,0.00015957260470112267,-9.196188969566337e-05,-0.0011157724848066413,0.0,0.0,0.0,0.0,0.0,0.0,0.0,-0.0002419718775912294,-0.00021152570582272379,-3.028882961523746e-05,0.0001747708486465882,-5.096859666484793e-05,5.3402582804285004e-05,-3.1339637632021855e-05,-0.00082514996797936,-0.00154895330966559,-0.0006955360824444388,-0.0005508582781424723,-0.00015957260470112267,9.196188969566337e-05,0.0011157724848066413,0.4505855441093445,22.871240615844727,0.1491362750530243,-14.032625198364258,-0.2007957100868225,-2.1517977714538574,0.37845176458358765,0
50,0.24472951889038086,-0.4267818331718445,-22.795862197875977,-0.1253325641155243,14.056428909301758,0.1953025460243225,2.1582064628601074,-0.37845176458358765,0.0,0.0,0.0,0.0,0.0,0.0,0.0,-0.4167656837162911,-0.021550852436737326,-0.1950765348723736,0.1830128405294926,-0.029208588047107516,-0.03525746569698836,-0.40232781469344764,1.675736967534912,0.05231056281715109,0.029998123503045027,-2.752571950598687,0.03429952465526686,2.766313839647505,0.7691908613421271,1.6754973547542302,0.052104326824870026,0.029969505109285054,-2.752394845125968,0.0342448039870148,2.7663679543071322,0.7691630533470046,-0.0001643056235398276,-0.00020678872803332204,2.860241825426328e-05,-0.0003881496020754752,0.00042914581335757863,-0.0002514780819733685,-0.0006161729226640906,0.0,0.0,0.0,0.0,0.0,0.0,0.0,-0.00023961278068185266,-0.00020623599228106193,-2.861839375997363e-05,0.00017710547271887478,-5.472066825205901e-05,5.4114659627124695e-05,-2.7807995122475226e-05,0.0001643056235398276,0.00020678872803332204,-2.860241825426328e-05,0.0003881496020754752,-0.00042914581335757863,0.0002514780819733685,0.0006161729226640906,0.4267818331718445,22.795862197875977,0.1253325641155243,-14.056428909301758,-0.1953025460243225,-2.1582064628601074,0.37845176458358765,0
51,0.24973154067993164,-0.4267818331718445,-22.795862197875977,-0.1253325641155243,14.056428909301758,0.1953025460243225,2.1582064628601074,-0.37845176458358765,0.0,0.0,0.0,0.0,0.0,0.0,0.0,-0.4167656837162911,-0.021550852436737326,-0.1950765348723736,0.1830128405294926,-0.029208588047107516,-0.03525746569698836,-0.40232781469344764,1.675736967534912,0.05231056281715109,0.029998123503045027,-2.752571950598687,0.03429952465526686,2.766313839647505,0.7691908613421271,1.6754973547542302,0.052104326824870026,0.029969505109285054,-2.752394845125968,0.0342448039870148,2.7663679543071322,0.7691630533470046,-0.0001643056235398276,-0.00020678872803332204,2.860241825426328e-05,-0.0003881496020754752,0.00042914581335757863,-0.0002514780819733685,-0.0006161729226640906,0.0,0.0,0.0,0.0,0.0,0.0,0.0,-0.00023961278068185266,-0.00020623599228106193,-2.861839375997363e-05,0.00017710547271887478,-5.472066825205901e-05,5.4114659627124695e-05,-2.7807995122475226e-05,0.0001643056235398276,0.00020678872803332204,-2.860241825426328e-05,0.0003881496020754752,-0.00042914581335757863,0.0002514780819733685,0.0006161729226640906,0.4267818331718445,22.795862197875977,0.1253325641155243,-14.056428909301758,-0.1953025460243225,-2.1582064628601074,0.37845176458358765,0
52,0.2547309398651123,-0.4267818331718445,-22.795862197875977,-0.2007109820842743,14.056428909301758,0.2007957100868225,2.1582064628601074,-0.38577598333358765,0.0,0.0,0.0,0.0,0.0,0.0,0.0,-0.4180756858023087,-0.021009463679622295,-0.1983515945780217,0.18400741395175108,-0.02880743132360775,-0.03470447063647886,-0.4011502386935086,1.6757376562958086,0.05231056281715109,0.030003413216586696,-2.7525739772148667,0.03429571570135151,2.766313839647505,0.7691948540386622,1.6754973547542302,0.052104326824870026,0.029969505109285054,-2.752394845125968,0.0342448039870148,2.7663679543071322,0.7691630533470046,-5.6553845868769036e-05,-0.00030541593329746244,0.0012530844770654427,-0.00010740270684455663,0.00013899233423827895,-0.0002699138280543266,-0.0005765919855963634,0.0,0.0,0.0,0.0,0.0,0.0,0.0,-0.00024030154157839156,-0.00020623599228106193,-3.3908107301642426e-05,0.00017913208889863697,-5.091171433670855e-05,5.4114659627124695e-05,-3.1800691657535296e-05,5.6553845868769036e-05,0.00030541593329746244,-0.0012530844770654427,0.00010740270684455663,-0.00013899233423827895,0.0002699138280543266,0.0005765919855963634,0.4267818331718445,22.795862197875977,0.2007109820842743,-14.056428909301758,-0.2007957100868225,-2.1582064628601074,0.38577598333358765,0
53,0.25968384742736816,-0.4267818331718445,-22.795862197875977,-0.2007109820842743,14.056428909301758,0.2007957100868225,2.1582064628601074,-0.38577598333358765,0.0,0.0,0.0,0.0,0.0,0.0,0.0,-0.4180756858023087,-0.021009463679622295,-0.1983515945780217,0.18400741395175108,-0.02880743132360775,-0.03470447063647886,-0.4011502386935086,1.6757376562958086,0.05231056281715109,0.030003413216586696,-2.7525739772148667,0.03429571570135151,2.766313839647505,0.7691948540386622,1.6754973547542302,0.052104326824870026,0.029969505109285054,-2.752394845125968,0.0342448039870148,2.7663679543071322,0.7691630533470046,-5.6553845868769036e-05,-0.00030541593329746244,0.0012530844770654427,-0.00010740270684455663,0.00013899233423827895,-0.0002699138280543266,-0.0005765919855963634,0.0,0.0,0.0,0.0,0.0,0.0,0.0,-0.00024030154157839156,-0.00020623599228106193,-3.3908107301642426e-05,0.00017913208889863697,-5.091171433670855e-05,5.4114659627124695e-05,-3.1800691657535296e-05,5.6553845868769036e-05,0.00030541593329746244,-0.0012530844770654427,0.00010740270684455663,-0.00013899233423827895,0.0002699138280543266,0.0005765919855963634,0.4267818331718445,22.795862197875977,0.2007109820842743,-14.056428909301758,-0.2007957100868225,-2.1582064628601074,0.38577598333358765,0
54,0.26468467712402344,-0.4267818331718445,-22.772058486938477,-0.1491362750530243,14.080232620239258,0.2072044014930725,2.1453890800476074,-0.41965049505233765,0.0,0.0,0.0,0.0,0.0,0.0,0.0,-0.41580907998692956,-0.02158623520884422,-0.2003240372179989,0.18696723859360728,-0.029385813404644523,-0.03383153661806614,-0.4010121520769072,1.6757378603781514,0.052308892381295824,0.02999979393890029,-2.7525731102587168,0.034296188178254784,2.766315263801151,0.7691986164376924,1.6754973547542302,0.052104326824870026,0.029969505109285054,-2.752394845125968,0.0342448039870148,2.7663679543071322,0.7691630533470046,0.00026285800887957295,-0.0008031188796786435,0.000712897712465094,-0.0006302376784991636,-0.00028065088698845926,1.3503828849527428e-05,0.0004802574057504073,0.0,0.0,0.0,0.0,0.0,0.0,0.0,-0.00024050562392119446,-0.0002045655564257981,-3.028882961523746e-05,0.00017826513274865619,-5.138419123998372e-05,5.269050598144531e-05,-3.556309068775132e-05,-0.00026285800887957295,0.0008031188796786435,-0.000712897712465094,0.0006302376784991636,0.00028065088698845926,-1.3503828849527428e-05,-0.0004802574057504073,0.4267818331718445,22.772058486938477,0.1491362750530243,-14.080232620239258,-0.2072044014930725,-2.1453890800476074,0.41965049505233765,0
55,0.2696831226348877,-0.4267818331718445,-22.772058486938477,-0.1491362750530243,14.080232620239258,0.2072044014930725,2.1453890800476074,-0.41965049505233765,0.0,0.0,0.0,0.0,0.0,0.0,0.0,-0.41580907998692956,-0.02158623520884422,-0.2003240372179989,0.18696723859360728,-0.029385813404644523,-0.03383153661806614,-0.4010121520769072,1.6757378603781514,0.052308892381295824,0.02999979393890029,-2.7525731102587168,0.034296188178254784,2.766315263801151,0.7691986164376924,1.6754973547542302,0.052104326824870026,0.029969505109285054,-2.752394845125968,0.0342448039870148,2.7663679543071322,0.7691630533470046,0.00026285800887957295,-0.0008031188796786435,0.000712897712465094,-0.0006302376784991636,-0.00028065088698845926,1.3503828849527428e-05,0.0004802574057504073,0.0,0.0,0.0,0.0,0.0,0.0,0.0,-0.00024050562392119446,-0.0002045655564257981,-3.028882961523746e-05,0.00017826513274865619,-5.138419123998372e-05,5.269050598144531e-05,-3.556309068775132e-05,-0.00026285800887957295,0.0008031188796786435,-0.000712897712465094,0.0006302376784991636,0.00028065088698845926,-1.3503828849527428e-05,-0.0004802574057504073,0.4267818331718445,22.772058486938477,0.1491362750530243,-14.080232620239258,-0.2072044014930725,-2.1453890800476074,0.41965049505233765,0
56,0.27472472190856934,-0.4505855441093445,-22.819665908813477,-0.1729399859905243,14.080232620239258,0.1888938546180725,2.1655306816101074,-0.42605918645858765,0.0,0.0,0.0,0.0,0.0,0.0,0.0,-0.42688287993800084,-0.020321377946186894,-0.21011982615100439,0.18515855547504217,-0.029765530547715725,-0.03533575841193072,-0.40133943711404874,1.6757395563249653,0.05231223325300635,0.030001464374755555,-2.752572863614601,0.034297037955852566,2.7663130258454216,0.7691996788201163,1.6754973547542302,0.052104326824870026,0.029969505109285054,-2.752394845125968,0.0342448039870148,2.7663679543071322,0.7691630533470046,-0.0002556292206782507,-0.00029601723842061304,0.00111928196423846,-0.0009913088565185854,0.0003852157954908196,-0.0007239619869002128,0.000606690688134935,0.0,0.0,0.0,0.0,0.0,0.0,0.0,-0.00024220157073506776,-0.00020790642813632576,-3.195926547050129e-05,0.0001780184886328584,-5.223396883776571e-05,5.492846171062382e-05,-3.66254731116733e-05,0.0002556292206782507,0.00029601723842061304,-0.00111928196423846,0.0009913088565185854,-0.0003852157954908196,0.0007239619869002128,-0.000606690688134935,0.4505855441093445,22.819665908813477,0.1729399859905243,-14.080232620239258,-0.1888938546180725,-2.1655306816101074,0.42605918645858765,0
57,0.2797095775604248,-0.4505855441093445,-22.819665908813477,-0.1729399859905243,14.080232620239258,0.1888938546180725,2.1655306816101074,-0.42605918645858765,0.0,0.0,0.0,0.0,0.0,0.0,0.0,-0.42688287993800084,-0.020321377946186894,-0.21011982615100439,0.18515855547504217,-0.029765530547715725,-0.03533575841193072,-0.40133943711404874,1.6757395563249653,0.05231223325300635,0.030001464374755555,-2.752572863614601,0.034297037955852566,2.7663130258454216,0.7691996788201163,1.6754973547542302,0.052104326824870026,0.029969505109285054,-2.752394845125968,0.0342448039870148,2.7663679543071322,0.7691630533470046,-0.0002556292206782507,-0.00029601723842061304,0.00111928196423846,-0.0009913088565185854,0.0003852157954908196,-0.0007239619869002128,0.000606690688134935,0.0,0.0,0.0,0.0,0.0,0.0,0.0,-0.00024220157073506776,-0.00020790642813632576,-3.195926547050129e-05,0.0001780184886328584,-5.223396883776571e-05,5.492846171062382e-05,-3.66254731116733e-05,0.0002556292206782507,0.00029601723842061304,-0.00111928196423846,0.0009913088565185854,-0.0003852157954908196,0.0007239619869002128,-0.000606690688134935,0.4505855441093445,22.819665908813477,0.1729399859905243,-14.080232620239258,-0.1888938546180725,-2.1655306816101074,0.42605918645858765,0
58,0.2847023010253906,-0.4505855441093445,-22.819665908813477,-0.1729399859905243,14.080232620239258,0.1888938546180725,2.1655306816101074,-0.42605918645858765,0.0,0.0,0.0,0.0,0.0,0.0,0.0,-0.42688287993800084,-0.020321377946186894,-0.21011982615100439,0.18515855547504217,-0.029765530547715725,-0.03533575841193072,-0.40133943711404874,1.6757395563249653,0.05231223325300635,0.030001464374755555,-2.752572863614601,0.034297037955852566,2.7663130258454216,0.7691996788201163,1.6754973547542302,0.052104326824870026,0.029969505109285054,-2.752394845125968,0.0342448039870148,2.7663679543071322,0.7691630533470046,-0.0002556292206782507,-0.00029601723842061304,0.00111928196423846,-0.0009913088565185854,0.0003852157954908196,-0.0007239619869002128,0.000606690688134935,0.0,0.0,0.0,0.0,0.0,0.0,0.0,-0.00024220157073506776,-0.00020790642813632576,-3.195926547050129e-05,0.0001780184886328584,-5.223396883776571e-05,5.492846171062382e-05,-3.66254731116733e-05,0.0002556292206782507,0.00029601723842061304,-0.00111928196423846,0.0009913088565185854,-0.0003852157954908196,0.0007239619869002128,-0.000606690688134935,0.4505855441093445,22.819665908813477,0.1729399859905243,-14.080232620239258,-0.1888938546180725,-2.1655306816101074,0.42605918645858765,0
59,0.28975510597229004,-0.4505855441093445,-22.819665908813477,-0.1729399859905243,14.080232620239258,0.1888938546180725,2.1655306816101074,-0.42605918645858765,0.0,0.0,0.0,0.0,0.0,0.0,0.0,-0.42688287993800084,-0.020321377946186894,-0.21011982615100439,0.18515855547504217,-0.029765530547715725,-0.03533575841193072,-0.40133943711404874,1.6757395563249653,0.05231223325300635,0.030001464374755555,-2.752572863614601,0.034297037955852566,2.7663130258454216,0.7691996788201163,1.6754973547542302,0.052104326824870026,0.029969505109285054,-2.752394845125968,0.0342448039870148,2.7663679543071322,0.7691630533470046,-0.0002556292206782507,-0.00029601723842061304,0.00111928196423846,-0.0009913088565185854,0.0003852157954908196,-0.0007239619869002128,0.000606690688134935,0.0,0.0,0.0,0.0,0.0,0.0,0.0,-0.00024220157073506776,-0.00020790642813632576,-3.195926547050129e-05,0.0001780184886328584,-5.223396883776571e-05,5.492846171062382e-05,-3.66254731116733e-05,0.0002556292206782507,0.00029601723842061304,-0.00111928196423846,0.0009913088565185854,-0.0003852157954908196,0.0007239619869002128,-0.000606690688134935,0.4505855441093445,22.819665908813477,0.1729399859905243,-14.080232620239258,-0.1888938546180725,-2.1655306816101074,0.42605918645858765,0
60,0.2947506904602051,-0.4267818331718445,-22.819665908813477,-0.1491362750530243,14.008821487426758,0.2126975655555725,2.1453890800476074,-0.41324180364608765,0.0,0.0,0.0,0.0,0.0,0.0,0.0,-0.4302781085250097,-0.025056612988773583,-0.20796327564138786,0.18939891630295158,-0.030559254779415658,-0.034718654664319955,-0.4027193212878929,1.6757355900066406,0.05231223325300635,0.02999979393890029,-2.75256990978179,0.03429444574725157,2.766315263801151,0.7691982459471466,1.6754973547542302,0.052104326824870026,0.029969505109285054,-2.752394845125968,0.0342448039870148,2.7663679543071322,0.7691630533470046,-0.0003862804145497901,-0.000550818698144701,0.0007937330455852193,0.0012284736483144977,-0.0004627004778711408,0.00011404718604578888,0.0006066174367743689,0.0,0.0,0.0,0.0,0.0,0.0,0.0,-0.00023823525241040144,-0.00020790642813632576,-3.028882961523746e-05,0.00017506465582206587,-4.9641760236772414e-05,5.269050598144531e-05,-3.5192600141953356e-05,0.0003862804145497901,0.000550818698144701,-0.0007937330455852193,-0.0012284736483144977,0.0004627004778711408,-0.00011404718604578888,-0.0006066174367743689,0.4267818331718445,22.819665908813477,0.1491362750530243,-14.008821487426758,-0.2126975655555725,-2.1453890800476074,0.41324180364608765,0
61,0.299685001373291,-0.4267818331718445,-22.819665908813477,-0.1491362750530243,14.008821487426758,0.2126975655555725,2.1453890800476074,-0.41324180364608765,0.0,0.0,0.0,0.0,0.0,0.0,0.0,-0.4302781085250097,-0.025056612988773583,-0.20796327564138786,0.18939891630295158,-0.030559254779415658,-0.034718654664319955,-0.4027193212878929,1.6757355900066406,0.05231223325300635,0.02999979393890029,-2.75256990978179,0.03429444574725157,2.766315263801151,0.7691982459471466,1.6754973547542302,0.052104326824870026,0.029969505109285054,-2.752394845125968,0.0342448039870148,2.7663679543071322,0.7691630533470046,-0.0003862804145497901,-0.000550818698144701,0.0007937330455852193,0.0012284736483144977,-0.0004627004778711408,0.00011404718604578888,0.0006066174367743689,0.0,0.0,0.0,0.0,0.0,0.0,0.0,-0.00023823525241040144,-0.00020790642813632576,-3.028882961523746e-05,0.00017506465582206587,-4.9641760236772414e-05,5.269050598144531e-05,-3.5192600141953356e-05,0.0003862804145497901,0.000550818698144701,-0.0007937330455852193,-0.0012284736483144977,0.0004627004778711408,-0.00011404718604578888,-0.0006066174367743689,0.4267818331718445,22.819665908813477,0.1491362750530243,-14.008821487426758,-0.2126975655555725,-2.1453890800476074,0.41324180364608765,0
62,0.30468177795410156,-0.3752071261405945,-22.819665908813477,-0.1253325641155243,14.080232620239258,0.2072044014930725,2.1517977714538574,-0.43338340520858765,0.0,0.0,0.0,0.0,0.0,0.0,0.0,-0.4252151147302685,-0.022876777550168387,-0.20066331117749475,0.1888044958639464,-0.03061906281800226,-0.03514082634935177,-0.4036536585454964,1.6757335778453437,0.05231223325300635,0.029998123503045027,-2.7525736200943425,0.03429500346204662,2.766314551724328,0.7692004969848444,1.6754973547542302,0.052104326824870026,0.029969505109285054,-2.752394845125968,0.0342448039870148,2.7663679543071322,0.7691630533470046,-0.00048575897446657973,0.00019959207138439672,0.0006406880118635147,-0.00040593156812317817,-0.0002904423607807604,-0.0001555572458155609,0.0009241755115726912,0.0,0.0,0.0,0.0,0.0,0.0,0.0,-0.0002362230911134855,-0.00020790642813632576,-2.861839375997363e-05,0.00017877496837437334,-5.0199475031820207e-05,5.3402582804285004e-05,-3.7443637839751354e-05,0.00048575897446657973,-0.00019959207138439672,-0.0006406880118635147,0.00040593156812317817,0.0002904423607807604,0.0001555572458155609,-0.0009241755115726912,0.3752071261405945,22.819665908813477,0.1253325641155243,-14.080232620239258,-0.2072044014930725,-2.1517977714538574,0.43338340520858765,0
63,0.309694766998291,-0.3752071261405945,-22.819665908813477,-0.1253325641155243,14.080232620239258,0.2072044014930725,2.1517977714538574,-0.43338340520858765,0.0,0.0,0.0,0.0,0.0,0.0,0.0,-0.4252151147302685,-0.022876777550168387,-0.20066331117749475,0.1888044958639464,-0.03061906281800226,-0.03514082634935177,-0.4036536585454964,1.6757335778453437,0.05231223325300635,0.029998123503045027,-2.7525736200943425,0.03429500346204662,2.766314551724328,0.7692004969848444,1.6754973547542302,0.052104326824870026,0.029969505109285054,-2.752394845125968,0.0342448039870148,2.7663679543071322,0.7691630533470046,-0.00048575897446657973,0.00019959207138439672,0.0006406880118635147,-0.00040593156812317817,-0.0002904423607807604,-0.0001555572458155609,0.0009241755115726912,0.0,0.0,0.0,0.0,0.0,0.0,0.0,-0.0002362230911134855,-0.00020790642813632576,-2.861839375997363e-05,0.00017877496837437334,-5.0199475031820207e-05,5.3402582804285004e-05,-3.7443637839751354e-05,0.00048575897446657973,-0.00019959207138439672,-0.0006406880118635147,0.00040593156812317817,0.0002904423607807604,0.0001555572458155609,-0.0009241755115726912,0.3752071261405945,22.819665908813477,0.1253325641155243,-14.080232620239258,-0.2072044014930725,-2.1517977714538574,0.43338340520858765,0
64,0.3146841526031494,-0.4029781222343445,-22.772058486938477,-0.09756157547235489,14.032625198364258,0.2007957100868225,2.1517977714538574,-0.43979209661483765,0.0,0.0,0.0,0.0,0.0,0.0,0.0,-0.42384762078984745,-0.020390134086009083,-0.20012369722448412,0.18674298190533378,-0.030031969496510744,-0.035646060226782426,-0.4053660193474717,1.6757355266847267,0.052308892381295824,0.029996174661736735,-2.752569522430832,0.03429891446589733,2.766314551724328,0.7692012085233235,1.6754973547542302,0.052104326824870026,0.029969505109285054,-2.752394845125968,0.0342448039870148,2.7663679543071322,0.7691630533470046,-0.000101792107568789,-0.0009859962435504175,0.00013421078932518993,0.0001793739664979964,-2.4505996971464375e-05,-8.744432530216534e-06,0.0014477229009769714,0.0,0.0,0.0,0.0,0.0,0.0,0.0,-0.0002381719304964669,-0.0002045655564257981,-2.6669552451681622e-05,0.0001746773048640904,-5.411047888252696e-05,5.3402582804285004e-05,-3.8155176318888095e-05,0.000101792107568789,0.0009859962435504175,-0.00013421078932518993,-0.0001793739664979964,2.4505996971464375e-05,8.744432530216534e-06,-0.0014477229009769714,0.4029781222343445,22.772058486938477,0.09756157547235489,-14.032625198364258,-0.2007957100868225,-2.1517977714538574,0.43979209661483765,0
65,0.3197133541107178,-0.4029781222343445,-22.772058486938477,-0.09756157547235489,14.032625198364258,0.2007957100868225,2.1517977714538574,-0.43979209661483765,0.0,0.0,0.0,0.0,0.0,0.0,0.0,-0.42384762078984745,-0.020390134086009083,-0.20012369722448412,0.18674298190533378,-0.030031969496510744,-0.035646060226782426,-0.4053660193474717,1.6757355266847267,0.052308892381295824,0.029996174661736735,-2.752569522430832,0.03429891446589733,2.766314551724328,0.7692012085233235,1.6754973547542302,0.052104326824870026,0.029969505109285054,-2.752394845125968,0.0342448039870148,2.7663679543071322,0.7691630533470046,-0.000101792107568789,-0.0009859962435504175,0.00013421078932518993,0.0001793739664979964,-2.4505996971464375e-05,-8.744432530216534e-06,0.0014477229009769714,0.0,0.0,0.0,0.0,0.0,0.0,0.0,-0.0002381719304964669,-0.0002045655564257981,-2.6669552451681622e-05,0.0001746773048640904,-5.411047888252696e-05,5.3402582804285004e-05,-3.8155176318888095e-05,0.000101792107568789,0.0009859962435504175,-0.00013421078932518993,-0.0001793739664979964,2.4505996971464375e-05,8.744432530216534e-06,-0.0014477229009769714,0.4029781222343445,22.772058486938477,0.09756157547235489,-14.032625198364258,-0.2007957100868225,-2.1517977714538574,0.43979209661483765,0
66,0.32473230361938477,-0.4267818331718445,-22.795862197875977,-0.07375786453485489,14.008821487426758,0.2007957100868225,2.1517977714538574,-0.35831016302108765,0.0,0.0,0.0,0.0,0.0,0.0,0.0,-0.4178369123192075,-0.02172847786510045,-0.19454089049304563,0.19022977039878702,-0.029967593020118897,-0.034664126336928086,-0.40658475656657134,1.6757358195910137,0.05231056281715109,0.02999450418977404,-2.752567880649871,0.03429572870255185,2.766314551724328,0.7691921555134954,1.6754973547542302,0.052104326824870026,0.029969505109285054,-2.752394845125968,0.0342448039870148,2.7663679543071322,0.7691630533470046,0.0004905453362698972,-0.0005608889435475261,-0.0004455839485602429,0.0009754314674886779,6.942278237656169e-05,-9.670468993094374e-05,-0.0022321871736620176,0.0,0.0,0.0,0.0,0.0,0.0,0.0,-0.00023846483678346964,-0.00020623599228106193,-2.4999080488984776e-05,0.00017303552390268706,-5.092471553704708e-05,5.3402582804285004e-05,-2.910216649076869e-05,-0.0004905453362698972,0.0005608889435475261,0.0004455839485602429,-0.0009754314674886779,-6.942278237656169e-05,9.670468993094374e-05,0.0022321871736620176,0.4267818331718445,22.795862197875977,0.07375786453485489,-14.008821487426758,-0.2007957100868225,-2.1517977714538574,0.35831016302108765,0
67,0.32973194122314453,-0.4267818331718445,-22.795862197875977,-0.07375786453485489,14.008821487426758,0.2007957100868225,2.1517977714538574,-0.35831016302108765,0.0,0.0,0.0,0.0,0.0,0.0,0.0,-0.4178369123192075,-0.02172847786510045,-0.19454089049304563,0.19022977039878702,-0.029967593020118897,-0.034664126336928086,-0.40658475656657134,1.6757358195910137,0.05231056281715109,0.02999450418977404,-2.752567880649871,0.03429572870255185,2.766314551724328,0.7691921555134954,1.6754973547542302,0.052104326824870026,0.029969505109285054,-2.752394845125968,0.0342448039870148,2.7663679543071322,0.7691630533470046,0.0004905453362698972,-0.0005608889435475261,-0.0004455839485602429,0.0009754314674886779,6.942278237656169e-05,-9.670468993094374e-05,-0.0022321871736620176,0.0,0.0,0.0,0.0,0.0,0.0,0.0,-0.00023846483678346964,-0.00020623599228106193,-2.4999080488984776e-05,0.00017303552390268706,-5.092471553704708e-05,5.3402582804285004e-05,-2.910216649076869e-05,-0.0004905453362698972,0.0005608889435475261,0.0004455839485602429,-0.0009754314674886779,-6.942278237656169e-05,9.670468993094374e-05,0.0022321871736620176,0.4267818331718445,22.795862197875977,0.07375786453485489,-14.008821487426758,-0.2007957100868225,-2.1517977714538574,0.35831016302108765,0
68,0.334758996963501,-0.3752071261405945,-22.847436904907227,-0.1253325641155243,14.032625198364258,0.2007957100868225,2.1453890800476074,-0.41324180364608765,0.0,0.0,0.0,0.0,0.0,0.0,0.0,-0.41704075033126947,-0.01953264082730115,-0.19320884918022313,0.18809620710832559,-0.029752740609812773,-0.034593571606904204,-0.40689921639985,1.6757341899655043,0.05231418209483749,0.029998123503044826,-2.752569772205873,0.0342957170376603,2.766315263801151,0.7691979058164137,1.6754973547542302,0.052104326824870026,0.029969505109285054,-2.752394845125968,0.0342448039870148,2.7663679543071322,0.7691630533470046,-0.0010766792340384391,0.0008201807783876796,0.00013062618749137088,0.0003792317180287585,0.00012930591491297315,4.225449888675654e-05,0.0003011739665515939,0.0,0.0,0.0,0.0,0.0,0.0,0.0,-0.0002368352112740446,-0.0002098552699674669,-2.8618393759772404e-05,0.00017492707990474088,-5.0913050645501334e-05,5.269050598144531e-05,-3.48524694090413e-05,0.0010766792340384391,-0.0008201807783876796,-0.00013062618749137088,-0.0003792317180287585,-0.00012930591491297315,-4.225449888675654e-05,-0.0003011739665515939,0.3752071261405945,22.847436904907227,0.1253325641155243,-14.032625198364258,-0.2007957100868225,-2.1453890800476074,0.41324180364608765,0
69,0.339709997177124,-0.3752071261405945,-22.847436904907227,-0.1253325641155243,14.032625198364258,0.2007957100868225,2.1453890800476074,-0.41324180364608765,0.0,0.0,0.0,0.0,0.0,0.0,0.0,-0.41704075033126947,-0.01953264082730115,-0.19320884918022313,0.18809620710832559,-0.029752740609812773,-0.034593571606904204,-0.40689921639985,1.6757341899655043,0.05231418209483749,0.029998123503044826,-2.752569772205873,0.0342957170376603,2.766315263801151,0.7691979058164137,1.6754973547542302,0.052104326824870026,0.029969505109285054,-2.752394845125968,0.0342448039870148,2.7663679543071322,0.7691630533470046,-0.0010766792340384391,0.0008201807783876796,0.00013062618749137088,0.0003792317180287585,0.00012930591491297315,4.225449888675654e-05,0.0003011739665515939,0.0,0.0,0.0,0.0,0.0,0.0,0.0,-0.0002368352112740446,-0.0002098552699674669,-2.8618393759772404e-05,0.00017492707990474088,-5.0913050645501334e-05,5.269050598144531e-05,-3.48524694090413e-05,0.0010766792340384391,-0.0008201807783876796,-0.00013062618749137088,-0.0003792317180287585,-0.00012930591491297315,-4.225449888675654e-05,-0.0003011739665515939,0.3752071261405945,22.847436904907227,0.1253325641155243,-14.032625198364258,-0.2007957100868225,-2.1453890800476074,0.41324180364608765,0
70,0.34468555450439453,-0.5299312472343445,-22.795862197875977,-0.2007109820842743,14.080232620239258,0.1953025460243225,2.1517977714538574,-0.42605918645858765,0.0,0.0,0.0,0.0,0.0,0.0,0.0,-0.42055230510018277,-0.021735303130084045,-0.1976645334336125,0.1871750255553941,-0.02934720887941471,-0.034985229863220675,-0.40633265361261095,1.675745124444194,0.05231056281715109,0.030003413216586696,-2.7525731865638723,0.034296325872350354,2.766314551724328,0.7691992906683737,1.6754973547542302,0.052104326824870026,0.029969505109285054,-2.752394845125968,0.0342448039870148,2.7663679543071322,0.7691630533470046,0.0020979966788331568,-0.0008612730439609387,0.0015180492650354856,-0.0009106509732849182,0.0001918354825793932,-0.00022783014292054955,0.0010634339744272987,0.0,0.0,0.0,0.0,0.0,0.0,0.0,-0.0002477696899638726,-0.00020623599228106193,-3.3908107301642426e-05,0.00017834143790418366,-5.1521885335553685e-05,5.3402582804285004e-05,-3.623732136903701e-05,-0.0020979966788331568,0.0008612730439609387,-0.0015180492650354856,0.0009106509732849182,-0.0001918354825793932,0.00022783014292054955,-0.0010634339744272987,0.5299312472343445,22.795862197875977,0.2007109820842743,-14.080232620239258,-0.1953025460243225,-2.1517977714538574,0.42605918645858765,0
71,0.3496861457824707,-0.5299312472343445,-22.795862197875977,-0.2007109820842743,14.080232620239258,0.1953025460243225,2.1517977714538574,-0.42605918645858765,0.0,0.0,0.0,0.0,0.0,0.0,0.0,-0.42055230510018277,-0.021735303130084045,-0.1976645334336125,0.1871750255553941,-0.02934720887941471,-0.034985229863220675,-0.40633265361261095,1.675745124444194,0.05231056281715109,0.030003413216586696,-2.7525731865638723,0.034296325872350354,2.766314551724328,0.7691992906683737,1.6754973547542302,0.052104326824870026,0.029969505109285054,-2.752394845125968,0.0342448039870148,2.7663679543071322,0.7691630533470046,0.0020979966788331568,-0.0008612730439609387,0.0015180492650354856,-0.0009106509732849182,0.0001918354825793932,-0.00022783014292054955,0.0010634339744272987,0.0,0.0,0.0,0.0,0.0,0.0,0.0,-0.0002477696899638726,-0.00020623599228106193,-3.3908107301642426e-05,0.00017834143790418366,-5.1521885335553685e-05,5.3402582804285004e-05,-3.623732136903701e-05,-0.0020979966788331568,0.0008612730439609387,-0.0015180492650354856,0.0009106509732849182,-0.0001918354825793932,0.00022783014292054955,-0.0010634339744272987,0.5299312472343445,22.795862197875977,0.2007109820842743,-14.080232620239258,-0.1953025460243225,-2.1517977714538574,0.42605918645858765,0
72,0.35468482971191406,-0.4267818331718445,-22.795862197875977,-0.1729399859905243,14.056428909301758,0.1953025460243225,2.1453890800476074,-0.40591758489608765,0.0,0.0,0.0,0.0,0.0,0.0,0.0,-0.4282569670304112,-0.021800338661380505,-0.20234084788341342,0.1882701041549623,-0.02993789085929385,-0.03534706341759643,-0.4066292306203152,1.6757378849444466,0.05231056281715109,0.030001464374755555,-2.7525732535247394,0.03429952519666138,2.766315263801151,0.7691970876514638,1.6754973547542302,0.052104326824870026,0.029969505109285054,-2.752394845125968,0.0342448039870148,2.7663679543071322,0.7691630533470046,-0.0008515450565744938,-0.0007077944161902508,0.00034940190871772254,0.00023320034975302616,0.00015670041618325042,0.00027074949432214,0.00019459786365891296,0.0,0.0,0.0,0.0,0.0,0.0,0.0,-0.00024053019021641475,-0.00020623599228106193,-3.195926547050129e-05,0.00017840839877125703,-5.4721209646578506e-05,5.269050598144531e-05,-3.4034304459140685e-05,0.0008515450565744938,0.0007077944161902508,-0.00034940190871772254,-0.00023320034975302616,-0.00015670041618325042,-0.00027074949432214,-0.00019459786365891296,0.4267818331718445,22.795862197875977,0.1729399859905243,-14.056428909301758,-0.1953025460243225,-2.1453890800476074,0.40591758489608765,0
73,0.35970067977905273,-0.4267818331718445,-22.795862197875977,-0.1729399859905243,14.056428909301758,0.1953025460243225,2.1453890800476074,-0.40591758489608765,0.0,0.0,0.0,0.0,0.0,0.0,0.0,-0.4282569670304112,-0.021800338661380505,-0.20234084788341342,0.1882701041549623,-0.02993789085929385,-0.03534706341759643,-0.4066292306203152,1.6757378849444466,0.05231056281715109,0.030001464374755555,-2.7525732535247394,0.03429952519666138,2.766315263801151,0.7691970876514638,1.6754973547542302,0.052104326824870026,0.029969505109285054,-2.752394845125968,0.0342448039870148,2.7663679543071322,0.7691630533470046,-0.0008515450565744938,-0.0007077944161902508,0.00034940190871772254,0.00023320034975302616,0.00015670041618325042,0.00027074949432214,0.00019459786365891296,0.0,0.0,0.0,0.0,0.0,0.0,0.0,-0.00024053019021641475,-0.00020623599228106193,-3.195926547050129e-05,0.00017840839877125703,-5.4721209646578506e-05,5.269050598144531e-05,-3.4034304459140685e-05,0.0008515450565744938,0.0007077944161902508,-0.00034940190871772254,-0.00023320034975302616,-0.00015670041618325042,-0.00027074949432214,-0.00019459786365891296,0.4267818331718445,22.795862197875977,0.1729399859905243,-14.056428909301758,-0.1953025460243225,-2.1453890800476074,0.40591758489608765,0
74,0.3647167682647705,-0.4267818331718445,-22.795862197875977,-0.09756157547235489,14.080232620239258,0.1953025460243225,2.1453890800476074,-0.37204307317733765,0.0,0.0,0.0,0.0,0.0,0.0,0.0,-0.42682892017476803,-0.028799750529709855,-0.20169073735097656,0.19582006588596398,-0.03134095382152071,-0.03240142665165407,-0.40613535907288134,1.6757378858892489,0.05231056281715109,0.029996174661736735,-2.75257561095055,0.034297396539174525,2.766315263801151,0.7691936416600127,1.6754973547542302,0.052104326824870026,0.029969505109285054,-2.752394845125968,0.0342448039870148,2.7663679543071322,0.7691630533470046,2.566422430582932e-05,-0.0006710312958967753,-0.000894545655169941,-0.0010939827718599035,0.000327750842744065,-0.0009934226095114082,-0.0012400328180595746,0.0,0.0,0.0,0.0,0.0,0.0,0.0,-0.0002405311350186512,-0.00020623599228106193,-2.6669552451681622e-05,0.0001807658245818189,-5.2592552159724804e-05,5.269050598144531e-05,-3.0588313008061974e-05,-2.566422430582932e-05,0.0006710312958967753,0.000894545655169941,0.0010939827718599035,-0.000327750842744065,0.0009934226095114082,0.0012400328180595746,0.4267818331718445,22.795862197875977,0.09756157547235489,-14.080232620239258,-0.1953025460243225,-2.1453890800476074,0.37204307317733765,0
75,0.369708776473999,-0.4267818331718445,-22.795862197875977,-0.09756157547235489,14.080232620239258,0.1953025460243225,2.1453890800476074,-0.37204307317733765,0.0,0.0,0.0,0.0,0.0,0.0,0.0,-0.42682892017476803,-0.028799750529709855,-0.20169073735097656,0.19582006588596398,-0.03134095382152071,-0.03240142665165407,-0.40613535907288134,1.6757378858892489,0.05231056281715109,0.029996174661736735,-2.75257561095055,0.034297396539174525,2.766315263801151,0.7691936416600127,1.6754973547542302,0.052104326824870026,0.029969505109285054,-2.752394845125968,0.0342448039870148,2.7663679543071322,0.7691630533470046,2.566422430582932e-05,-0.0006710312958967753,-0.000894545655169941,-0.0010939827718599035,0.000327750842744065,-0.0009934226095114082,-0.0012400328180595746,0.0,0.0,0.0,0.0,0.0,0.0,0.0,-0.0002405311350186512,-0.00020623599228106193,-2.6669552451681622e-05,0.0001807658245818189,-5.2592552159724804e-05,5.269050598144531e-05,-3.0588313008061974e-05,-2.566422430582932e-05,0.0006710312958967753,0.000894545655169941,0.0010939827718599035,-0.000327750842744065,0.0009934226095114082,0.0012400328180595746,0.4267818331718445,22.795862197875977,0.09756157547235489,-14.080232620239258,-0.1953025460243225,-2.1453890800476074,0.37204307317733765,0
76,0.3747141361236572,-0.4505855441093445,-22.795862197875977,-0.1253325641155243,14.056428909301758,0.2072044014930725,2.1517977714538574,-0.38577598333358765,0.0,0.0,0.0,0.0,0.0,0.0,0.0,-0.4287524018014222,-0.020032322757336664,-0.20528822696860932,0.18920796343524232,-0.031180486374127615,-0.034577478729119274,-0.4059859442587858,1.675739323902425,0.05231056281715109,0.029998123503045027,-2.752571413987539,0.034295018072320375,2.7663145517422727,0.7691952072712361,1.6754973547542302,0.052104326824870026,0.029969505109285054,-2.752394845125968,0.0342448039870148,2.7663679543071322,0.7691630533470046,0.0010620104435810028,-0.00042945519984887034,0.0004225079263302068,0.0002575506953258885,-7.535491748730394e-05,-0.0003062950241798511,-0.0012670334187709711,0.0,0.0,0.0,0.0,0.0,0.0,0.0,-0.0002419691481947428,-0.00020623599228106193,-2.861839375997363e-05,0.00017656886157091378,-5.021408530557492e-05,5.340256485952821e-05,-3.215392423150387e-05,-0.0010620104435810028,0.00042945519984887034,-0.0004225079263302068,-0.0002575506953258885,7.535491748730394e-05,0.0003062950241798511,0.0012670334187709711,0.4505855441093445,22.795862197875977,0.1253325641155243,-14.056428909301758,-0.2072044014930725,-2.1517977714538574,0.38577598333358765,0
77,0.37970495223999023,-0.4505855441093445,-22.795862197875977,-0.1253325641155243,14.056428909301758,0.2072044014930725,2.1517977714538574,-0.38577598333358765,0.0,0.0,0.0,0.0,0.0,0.0,0.0,-0.4287524018014222,-0.020032322757336664,-0.20528822696860932,0.18920796343524232,-0.031180486374127615,-0.034577478729119274,-0.4059859442587858,1.675739323902425,0.05231056281715109,0.029998123503045027,-2.752571413987539,0.034295018072320375,2.7663145517422727,0.7691952072712361,1.6754973547542302,0.052104326824870026,0.029969505109285054,-2.752394845125968,0.0342448039870148,2.7663679543071322,0.7691630533470046,0.0010620104435810028,-0.00042945519984887034,0.0004225079263302068,0.0002575506953258885,-7.535491748730394e-05,-0.0003062950241798511,-0.0012670334187709711,0.0,0.0,0.0,0.0,0.0,0.0,0.0,-0.0002419691481947428,-0.00020623599228106193,-2.861839375997363e-05,0.00017656886157091378,-5.021408530557492e-05,5.340256485952821e-05,-3.215392423150387e-05,-0.0010620104435810028,0.00042945519984887034,-0.0004225079263302068,-0.0002575506953258885,7.535491748730394e-05,0.0003062950241798511,0.0012670334187709711,0.4505855441093445,22.795862197875977,0.1253325641155243,-14.056428909301758,-0.2072044014930725,-2.1517977714538574,0.38577598333358765,0
78,0.38468337059020996,-0.4505855441093445,-22.795862197875977,-0.1253325641155243,14.056428909301758,0.2072044014930725,2.1517977714538574,-0.38577598333358765,0.0,0.0,0.0,0.0,0.0,0.0,0.0,-0.4287524018014222,-0.020032322757336664,-0.20528822696860932,0.18920796343524232,-0.031180486374127615,-0.034577478729119274,-0.4059859442587858,1.675739323902425,0.05231056281715109,0.029998123503045027,-2.752571413987539,0.034295018072320375,2.7663145517422727,0.7691952072712361,1.6754973547542302,0.052104326824870026,0.029969505109285054,-2.752394845125968,0.0342448039870148,2.7663679543071322,0.7691630533470046,0.0010620104435810028,-0.00042945519984887034,0.0004225079263302068,0.0002575506953258885,-7.535491748730394e-05,-0.0003062950241798511,-0.0012670334187709711,0.0,0.0,0.0,0.0,0.0,0.0,0.0,-0.0002419691481947428,-0.00020623599228106193,-2.861839375997363e-05,0.00017656886157091378,-5.021408530557492e-05,5.340256485952821e-05,-3.215392423150387e-05,-0.0010620104435810028,0.00042945519984887034,-0.0004225079263302068,-0.0002575506953258885,7.535491748730394e-05,0.0003062950241798511,0.0012670334187709711,0.4505855441093445,22.795862197875977,0.1253325641155243,-14.056428909301758,-0.2072044014930725,-2.1517977714538574,0.38577598333358765,0
79,0.38968372344970703,-0.4505855441093445,-22.795862197875977,-0.1253325641155243,14.056428909301758,0.2072044014930725,2.1517977714538574,-0.38577598333358765,0.0,0.0,0.0,0.0,0.0,0.0,0.0,-0.4287524018014222,-0.020032322757336664,-0.20528822696860932,0.18920796343524232,-0.031180486374127615,-0.034577478729119274,-0.4059859442587858,1.675739323902425,0.05231056281715109,0.029998123503045027,-2.752571413987539,0.034295018072320375,2.7663145517422727,0.7691952072712361,1.6754973547542302,0.052104326824870026,0.029969505109285054,-2.752394845125968,0.0342448039870148,2.7663679543071322,0.7691630533470046,0.0010620104435810028,-0.00042945519984887034,0.0004225079263302068,0.0002575506953258885,-7.535491748730394e-05,-0.0003062950241798511,-0.0012670334187709711,0.0,0.0,0.0,0.0,0.0,0.0,0.0,-0.0002419691481947428,-0.00020623599228106193,-2.861839375997363e-05,0.00017656886157091378,-5.021408530557492e-05,5.340256485952821e-05,-3.215392423150387e-05,-0.0010620104435810028,0.00042945519984887034,-0.0004225079263302068,-0.0002575506953258885,7.535491748730394e-05,0.0003062950241798511,0.0012670334187709711,0.4505855441093445,22.795862197875977,0.1253325641155243,-14.056428909301758,-0.2072044014930725,-2.1517977714538574,0.38577598333358765,0
