rezayati/contactInterpretation/dataset/franka_main/labeled_data/link6/b9_1.csv
index,time,tau_J0,tau_J1,tau_J2,tau_J3,tau_J4,tau_J5,tau_J6,tau_J_d0,tau_J_d1,tau_J_d2,tau_J_d3,tau_J_d4,tau_J_d5,tau_J_d6,tau_ext0,tau_ext1,tau_ext2,tau_ext3,tau_ext4,tau_ext5,tau_ext6,q0,q1,q2,q3,q4,q5,q6,q_d0,q_d1,q_d2,q_d3,q_d4,q_d5,q_d6,dq0,dq1,dq2,dq3,dq4,dq5,dq6,dq_d0,dq_d1,dq_d2,dq_d3,dq_d4,dq_d5,dq_d6,e0,e1,e2,e3,e4,e5,e6,de0,de1,de2,de3,de4,de5,de6,etau_J0,etau_J1,etau_J2,etau_J3,etau_J4,etau_J5,etau_J6,label
1,0.0,-0.6291133761405945,-47.11928939819336,-1.3155181407928467,21.074556350708008,0.9634299874305725,2.3330721855163574,-0.37204307317733765,0.0,0.0,0.0,0.0,0.0,0.0,0.0,-0.6189223126191101,-0.2700979197761609,-0.42389437726229573,0.6424774433763912,0.3870132139920143,0.10581671318134722,-0.3294264390183643,0.06239088241363826,0.6884720220733106,-0.0786136876493787,-1.6210271177961115,0.027955215727289515,2.2878073953522575,0.8466405593487951,0.06226373270833701,0.6884179775783729,-0.07863937525950354,-1.6210372792796082,0.028167345702647853,2.2878312372101677,0.8466366937888992,-0.00018975891595675903,0.0014897234056261066,-0.00013842362440681145,-0.0003387139060504897,0.00023111274706799132,-9.619442019171216e-05,0.001529408590387343,0.0,0.0,0.0,0.0,0.0,0.0,0.0,-0.00012714970530124797,-5.404449493773278e-05,-2.5687610124836002e-05,-1.0161483496640145e-05,0.00021212997535833764,2.384185791015625e-05,-3.865559895954718e-06,0.00018975891595675903,-0.0014897234056261066,0.00013842362440681145,0.0003387139060504897,-0.00023111274706799132,9.619442019171216e-05,-0.001529408590387343,0.6291133761405945,47.11928939819336,1.3155181407928467,-21.074556350708008,-0.9634299874305725,-2.3330721855163574,0.37204307317733765,0
2,0.004103899002075195,-0.6053096652030945,-47.04787826538086,-1.3155181407928467,21.046785354614258,0.9634299874305725,2.3074374198913574,-0.35831016302108765,0.0,0.0,0.0,0.0,0.0,0.0,0.0,-0.6402725323385827,-0.2599376840218596,-0.43934846139730716,0.6366380111830653,0.3873062899564776,0.10551300854147379,-0.33078673047860857,0.06238921197778299,0.6884670106547097,-0.0786136876373554,-1.6210251686393444,0.027955215727289515,2.2878102436595493,0.8466390334698889,0.06226373270833701,0.6884179775783729,-0.07863937525950354,-1.6210372792796082,0.028167345702647853,2.2878312372101677,0.8466366937888992,-0.001126694822118319,0.00020961606061438513,-0.00014456338286524694,-0.00029253888994725354,0.00011077871164646826,-0.00026172899900283225,0.0009145488708200249,0.0,0.0,0.0,0.0,0.0,0.0,0.0,-0.00012547926944598414,-4.9033076336857384e-05,-2.5687622148135025e-05,-1.2110640263740535e-05,0.00021212997535833764,2.0993550618353396e-05,-2.339680989726922e-06,0.001126694822118319,-0.00020961606061438513,0.00014456338286524694,0.00029253888994725354,-0.00011077871164646826,0.00026172899900283225,-0.0009145488708200249,0.6053096652030945,47.04787826538086,1.3155181407928467,-21.046785354614258,-0.9634299874305725,-2.3074374198913574,0.35831016302108765,0
3,0.009552478790283203,-0.6053096652030945,-47.04787826538086,-1.3155181407928467,21.046785354614258,0.9634299874305725,2.3074374198913574,-0.35831016302108765,0.0,0.0,0.0,0.0,0.0,0.0,0.0,-0.6402725323385827,-0.2599376840218596,-0.43934846139730716,0.6366380111830653,0.3873062899564776,0.10551300854147379,-0.33078673047860857,0.06238921197778299,0.6884670106547097,-0.0786136876373554,-1.6210251686393444,0.027955215727289515,2.2878102436595493,0.8466390334698889,0.06226373270833701,0.6884179775783729,-0.07863937525950354,-1.6210372792796082,0.028167345702647853,2.2878312372101677,0.8466366937888992,-0.001126694822118319,0.00020961606061438513,-0.00014456338286524694,-0.00029253888994725354,0.00011077871164646826,-0.00026172899900283225,0.0009145488708200249,0.0,0.0,0.0,0.0,0.0,0.0,0.0,-0.00012547926944598414,-4.9033076336857384e-05,-2.5687622148135025e-05,-1.2110640263740535e-05,0.00021212997535833764,2.0993550618353396e-05,-2.339680989726922e-06,0.001126694822118319,-0.00020961606061438513,0.00014456338286524694,0.00029253888994725354,-0.00011077871164646826,0.00026172899900283225,-0.0009145488708200249,0.6053096652030945,47.04787826538086,1.3155181407928467,-21.046785354614258,-0.9634299874305725,-2.3074374198913574,0.35831016302108765,0
4,0.014565229415893555,-0.6053096652030945,-47.04787826538086,-1.3155181407928467,21.046785354614258,0.9634299874305725,2.3074374198913574,-0.35831016302108765,0.0,0.0,0.0,0.0,0.0,0.0,0.0,-0.6402725323385827,-0.2599376840218596,-0.43934846139730716,0.6366380111830653,0.3873062899564776,0.10551300854147379,-0.33078673047860857,0.06238921197778299,0.6884670106547097,-0.0786136876373554,-1.6210251686393444,0.027955215727289515,2.2878102436595493,0.8466390334698889,0.06226373270833701,0.6884179775783729,-0.07863937525950354,-1.6210372792796082,0.028167345702647853,2.2878312372101677,0.8466366937888992,-0.001126694822118319,0.00020961606061438513,-0.00014456338286524694,-0.00029253888994725354,0.00011077871164646826,-0.00026172899900283225,0.0009145488708200249,0.0,0.0,0.0,0.0,0.0,0.0,0.0,-0.00012547926944598414,-4.9033076336857384e-05,-2.5687622148135025e-05,-1.2110640263740535e-05,0.00021212997535833764,2.0993550618353396e-05,-2.339680989726922e-06,0.001126694822118319,-0.00020961606061438513,0.00014456338286524694,0.00029253888994725354,-0.00011077871164646826,0.00026172899900283225,-0.0009145488708200249,0.6053096652030945,47.04787826538086,1.3155181407928467,-21.046785354614258,-0.9634299874305725,-2.3074374198913574,0.35831016302108765,0
5,0.019099712371826172,-0.6053096652030945,-47.04787826538086,-1.3155181407928467,21.046785354614258,0.9634299874305725,2.3074374198913574,-0.35831016302108765,0.0,0.0,0.0,0.0,0.0,0.0,0.0,-0.6402725323385827,-0.2599376840218596,-0.43934846139730716,0.6366380111830653,0.3873062899564776,0.10551300854147379,-0.33078673047860857,0.06238921197778299,0.6884670106547097,-0.0786136876373554,-1.6210251686393444,0.027955215727289515,2.2878102436595493,0.8466390334698889,0.06226373270833701,0.6884179775783729,-0.07863937525950354,-1.6210372792796082,0.028167345702647853,2.2878312372101677,0.8466366937888992,-0.001126694822118319,0.00020961606061438513,-0.00014456338286524694,-0.00029253888994725354,0.00011077871164646826,-0.00026172899900283225,0.0009145488708200249,0.0,0.0,0.0,0.0,0.0,0.0,0.0,-0.00012547926944598414,-4.9033076336857384e-05,-2.5687622148135025e-05,-1.2110640263740535e-05,0.00021212997535833764,2.0993550618353396e-05,-2.339680989726922e-06,0.001126694822118319,-0.00020961606061438513,0.00014456338286524694,0.00029253888994725354,-0.00011077871164646826,0.00026172899900283225,-0.0009145488708200249,0.6053096652030945,47.04787826538086,1.3155181407928467,-21.046785354614258,-0.9634299874305725,-2.3074374198913574,0.35831016302108765,0
6,0.02409839630126953,-0.5815059542655945,-47.04787826538086,-1.3155181407928467,21.074556350708008,0.9689231514930725,2.3266634941101074,-0.32352012395858765,0.0,0.0,0.0,0.0,0.0,0.0,0.0,-0.6233935421181467,-0.27485290312096866,-0.4270664250988443,0.6459963871354256,0.38747562606005675,0.10493350797535086,-0.33071120724740966,0.06238754154192773,0.6884670097664284,-0.07861369543201853,-1.6210271177961098,0.027954605375727016,2.2878081074290804,0.8466352076464229,0.06226373270833701,0.6884179775783729,-0.07863937525950354,-1.6210372792796082,0.028167345702647853,2.2878312372101677,0.8466366937888992,-0.0006755158847909743,-0.00011656949519567117,0.0006462971680138818,-0.0006809077831698956,-0.0001000259230511131,-0.00023796895875059207,-0.0007086748401828012,0.0,0.0,0.0,0.0,0.0,0.0,0.0,-0.0001238088335907203,-4.903218805552001e-05,-2.567982748501174e-05,-1.0161483498416501e-05,0.00021274032692083708,2.312978108731656e-05,1.4861424763035203e-06,0.0006755158847909743,0.00011656949519567117,-0.0006462971680138818,0.0006809077831698956,0.0001000259230511131,0.00023796895875059207,0.0007086748401828012,0.5815059542655945,47.04787826538086,1.3155181407928467,-21.074556350708008,-0.9689231514930725,-2.3266634941101074,0.32352012395858765,0
7,0.02909708023071289,-0.5815059542655945,-47.04787826538086,-1.3155181407928467,21.074556350708008,0.9689231514930725,2.3266634941101074,-0.32352012395858765,0.0,0.0,0.0,0.0,0.0,0.0,0.0,-0.6233935421181467,-0.27485290312096866,-0.4270664250988443,0.6459963871354256,0.38747562606005675,0.10493350797535086,-0.33071120724740966,0.06238754154192773,0.6884670097664284,-0.07861369543201853,-1.6210271177961098,0.027954605375727016,2.2878081074290804,0.8466352076464229,0.06226373270833701,0.6884179775783729,-0.07863937525950354,-1.6210372792796082,0.028167345702647853,2.2878312372101677,0.8466366937888992,-0.0006755158847909743,-0.00011656949519567117,0.0006462971680138818,-0.0006809077831698956,-0.0001000259230511131,-0.00023796895875059207,-0.0007086748401828012,0.0,0.0,0.0,0.0,0.0,0.0,0.0,-0.0001238088335907203,-4.903218805552001e-05,-2.567982748501174e-05,-1.0161483498416501e-05,0.00021274032692083708,2.312978108731656e-05,1.4861424763035203e-06,0.0006755158847909743,0.00011656949519567117,-0.0006462971680138818,0.0006809077831698956,0.0001000259230511131,0.00023796895875059207,0.0007086748401828012,0.5815059542655945,47.04787826538086,1.3155181407928467,-21.074556350708008,-0.9689231514930725,-2.3266634941101074,0.32352012395858765,0
8,0.034098148345947266,-0.6053096652030945,-47.04787826538086,-1.2917144298553467,21.022981643676758,0.9634299874305725,2.3202548027038574,-0.30978721380233765,0.0,0.0,0.0,0.0,0.0,0.0,0.0,-0.6265070649233562,-0.2885815174300856,-0.4340400955325766,0.6525635680846404,0.387916879642377,0.10626620924369333,-0.33049819962979365,0.06238921197778299,0.6884670107657392,-0.07861535720718091,-1.621023498518425,0.027955215727289515,2.2878088195059036,0.8466336420313111,0.06226373270833701,0.6884179775783729,-0.07863937525950354,-1.6210372792796082,0.028167345702647853,2.2878312372101677,0.8466366937888992,0.0004743508297132642,-0.001008743310581257,-0.00014011174318860186,0.000882091397821727,0.00011085870242244476,4.552134746219259e-05,-0.0002673570649101723,0.0,0.0,0.0,0.0,0.0,0.0,0.0,-0.00012547926944598414,-4.9033187366376296e-05,-2.4018052322632988e-05,-1.3780761183079804e-05,0.00021212997535833764,2.241770426403278e-05,3.051757588079518e-06,-0.0004743508297132642,0.001008743310581257,0.00014011174318860186,-0.000882091397821727,-0.00011085870242244476,-4.552134746219259e-05,0.0002673570649101723,0.6053096652030945,47.04787826538086,1.2917144298553467,-21.022981643676758,-0.9634299874305725,-2.3202548027038574,0.30978721380233765,0
9,0.03909444808959961,-0.6053096652030945,-47.04787826538086,-1.2917144298553467,21.022981643676758,0.9634299874305725,2.3202548027038574,-0.30978721380233765,0.0,0.0,0.0,0.0,0.0,0.0,0.0,-0.6265070649233562,-0.2885815174300856,-0.4340400955325766,0.6525635680846404,0.387916879642377,0.10626620924369333,-0.33049819962979365,0.06238921197778299,0.6884670107657392,-0.07861535720718091,-1.621023498518425,0.027955215727289515,2.2878088195059036,0.8466336420313111,0.06226373270833701,0.6884179775783729,-0.07863937525950354,-1.6210372792796082,0.028167345702647853,2.2878312372101677,0.8466366937888992,0.0004743508297132642,-0.001008743310581257,-0.00014011174318860186,0.000882091397821727,0.00011085870242244476,4.552134746219259e-05,-0.0002673570649101723,0.0,0.0,0.0,0.0,0.0,0.0,0.0,-0.00012547926944598414,-4.9033187366376296e-05,-2.4018052322632988e-05,-1.3780761183079804e-05,0.00021212997535833764,2.241770426403278e-05,3.051757588079518e-06,-0.0004743508297132642,0.001008743310581257,0.00014011174318860186,-0.000882091397821727,-0.00011085870242244476,-4.552134746219259e-05,0.0002673570649101723,0.6053096652030945,47.04787826538086,1.2917144298553467,-21.022981643676758,-0.9634299874305725,-2.3202548027038574,0.30978721380233765,0
10,0.04410600662231445,-0.5537349581718445,-47.09548568725586,-1.2917144298553467,21.046785354614258,0.9689231514930725,2.3202548027038574,-0.29605430364608765,0.0,0.0,0.0,0.0,0.0,0.0,0.0,-0.6150430414533463,-0.27031794829654326,-0.43088787809691653,0.6414934939067207,0.3878194373931321,0.10411442808468448,-0.32880579244090746,0.06238559270009659,0.688469620138294,-0.07861538340586109,-1.6210251689542803,0.027954605375727016,2.2878088195059036,0.8466321161521806,0.06226373270833701,0.6884179775783729,-0.07863937525950354,-1.6210372792796082,0.028167345702647853,2.2878312372101677,0.8466366937888992,-0.0006243701132565036,0.0007799012183900383,0.0003038728375468412,0.00013524458816341025,2.708922689182996e-05,-0.00011113682051742065,-0.0013670892636463796,0.0,0.0,0.0,0.0,0.0,0.0,0.0,-0.00012185999175957918,-5.1642559921183384e-05,-2.399185364244938e-05,-1.2110325327885363e-05,0.00021274032692083708,2.241770426403278e-05,4.577636718572364e-06,0.0006243701132565036,-0.0007799012183900383,-0.0003038728375468412,-0.00013524458816341025,-2.708922689182996e-05,0.00011113682051742065,0.0013670892636463796,0.5537349581718445,47.09548568725586,1.2917144298553467,-21.046785354614258,-0.9689231514930725,-2.3202548027038574,0.29605430364608765,0
11,0.04910421371459961,-0.5537349581718445,-47.09548568725586,-1.2917144298553467,21.046785354614258,0.9689231514930725,2.3202548027038574,-0.29605430364608765,0.0,0.0,0.0,0.0,0.0,0.0,0.0,-0.6150430414533463,-0.27031794829654326,-0.43088787809691653,0.6414934939067207,0.3878194373931321,0.10411442808468448,-0.32880579244090746,0.06238559270009659,0.688469620138294,-0.07861538340586109,-1.6210251689542803,0.027954605375727016,2.2878088195059036,0.8466321161521806,0.06226373270833701,0.6884179775783729,-0.07863937525950354,-1.6210372792796082,0.028167345702647853,2.2878312372101677,0.8466366937888992,-0.0006243701132565036,0.0007799012183900383,0.0003038728375468412,0.00013524458816341025,2.708922689182996e-05,-0.00011113682051742065,-0.0013670892636463796,0.0,0.0,0.0,0.0,0.0,0.0,0.0,-0.00012185999175957918,-5.1642559921183384e-05,-2.399185364244938e-05,-1.2110325327885363e-05,0.00021274032692083708,2.241770426403278e-05,4.577636718572364e-06,0.0006243701132565036,-0.0007799012183900383,-0.0003038728375468412,-0.00013524458816341025,-2.708922689182996e-05,0.00011113682051742065,0.0013670892636463796,0.5537349581718445,47.09548568725586,1.2917144298553467,-21.046785354614258,-0.9689231514930725,-2.3202548027038574,0.29605430364608765,0
12,0.05414223670959473,-0.6053096652030945,-47.14706039428711,-1.2401397228240967,21.074556350708008,0.9634299874305725,2.3394808769226074,-0.31711143255233765,0.0,0.0,0.0,0.0,0.0,0.0,0.0,-0.6158502020395731,-0.2921232400369941,-0.43435836631698665,0.6524880679982316,0.3884611227809736,0.10572260342933139,-0.3280550277770438,0.06238921197778299,0.6884739709110125,-0.07861897637670712,-1.6210271177961115,0.027955215727289515,2.2878066832754347,0.8466344558331701,0.06226373270833701,0.6884179775783729,-0.07863937525950354,-1.6210372792796082,0.028167345702647853,2.2878312372101677,0.8466366937888992,0.00015495921167600897,0.001132942259829442,-0.0007833086929707705,7.055409600848835e-05,0.00010956330762703133,7.960747727003744e-05,-0.0006662156357194984,0.0,0.0,0.0,0.0,0.0,0.0,0.0,-0.00012547926944598414,-5.599333263961448e-05,-2.03988827964241e-05,-1.0161483496640145e-05,0.00021212997535833764,2.455393473299594e-05,2.2379557290674867e-06,-0.00015495921167600897,-0.001132942259829442,0.0007833086929707705,-7.055409600848835e-05,-0.00010956330762703133,-7.960747727003744e-05,0.0006662156357194984,0.6053096652030945,47.14706039428711,1.2401397228240967,-21.074556350708008,-0.9634299874305725,-2.3394808769226074,0.31711143255233765,0
13,0.05911540985107422,-0.6053096652030945,-47.14706039428711,-1.2401397228240967,21.074556350708008,0.9634299874305725,2.3394808769226074,-0.31711143255233765,0.0,0.0,0.0,0.0,0.0,0.0,0.0,-0.6158502020395731,-0.2921232400369941,-0.43435836631698665,0.6524880679982316,0.3884611227809736,0.10572260342933139,-0.3280550277770438,0.06238921197778299,0.6884739709110125,-0.07861897637670712,-1.6210271177961115,0.027955215727289515,2.2878066832754347,0.8466344558331701,0.06226373270833701,0.6884179775783729,-0.07863937525950354,-1.6210372792796082,0.028167345702647853,2.2878312372101677,0.8466366937888992,0.00015495921167600897,0.001132942259829442,-0.0007833086929707705,7.055409600848835e-05,0.00010956330762703133,7.960747727003744e-05,-0.0006662156357194984,0.0,0.0,0.0,0.0,0.0,0.0,0.0,-0.00012547926944598414,-5.599333263961448e-05,-2.03988827964241e-05,-1.0161483496640145e-05,0.00021212997535833764,2.455393473299594e-05,2.2379557290674867e-06,-0.00015495921167600897,-0.001132942259829442,0.0007833086929707705,-7.055409600848835e-05,-0.00010956330762703133,-7.960747727003744e-05,0.0006662156357194984,0.6053096652030945,47.14706039428711,1.2401397228240967,-21.074556350708008,-0.9634299874305725,-2.3394808769226074,0.31711143255233765,0
14,0.0641014575958252,-0.5815059542655945,-47.07168197631836,-1.2917144298553467,21.022981643676758,0.9634299874305725,2.3202548027038574,-0.31711143255233765,0.0,0.0,0.0,0.0,0.0,0.0,0.0,-0.6136853160474645,-0.2707903417428913,-0.4309193046384915,0.6413671824596182,0.3877717763620589,0.10643114285427595,-0.32840924824944706,0.06238541315940387,0.6884686812016001,-0.0786153572071314,-1.621022806919218,0.027955215727289515,2.2878088195059036,0.8466344558331701,0.06226373270833701,0.6884179775783729,-0.07863937525950354,-1.6210372792796082,0.028167345702647853,2.2878312372101677,0.8466366937888992,-0.00033910012666376493,-0.0003033016767284659,0.0002369545339450083,0.0009732021438881957,6.536241523259022e-05,1.9041126472124094e-05,-0.00026987866711289084,0.0,0.0,0.0,0.0,0.0,0.0,0.0,-0.00012168045106686343,-5.0703623227232875e-05,-2.4018052372135057e-05,-1.4472360390094252e-05,0.00021212997535833764,2.241770426403278e-05,2.2379557290674867e-06,0.00033910012666376493,0.0003033016767284659,-0.0002369545339450083,-0.0009732021438881957,-6.536241523259022e-05,-1.9041126472124094e-05,0.00026987866711289084,0.5815059542655945,47.07168197631836,1.2917144298553467,-21.022981643676758,-0.9634299874305725,-2.3202548027038574,0.31711143255233765,0
15,0.06999683380126953,-0.5815059542655945,-47.07168197631836,-1.2917144298553467,21.022981643676758,0.9634299874305725,2.3202548027038574,-0.31711143255233765,0.0,0.0,0.0,0.0,0.0,0.0,0.0,-0.6136853160474645,-0.2707903417428913,-0.4309193046384915,0.6413671824596182,0.3877717763620589,0.10643114285427595,-0.32840924824944706,0.06238541315940387,0.6884686812016001,-0.0786153572071314,-1.621022806919218,0.027955215727289515,2.2878088195059036,0.8466344558331701,0.06226373270833701,0.6884179775783729,-0.07863937525950354,-1.6210372792796082,0.028167345702647853,2.2878312372101677,0.8466366937888992,-0.00033910012666376493,-0.0003033016767284659,0.0002369545339450083,0.0009732021438881957,6.536241523259022e-05,1.9041126472124094e-05,-0.00026987866711289084,0.0,0.0,0.0,0.0,0.0,0.0,0.0,-0.00012168045106686343,-5.0703623227232875e-05,-2.4018052372135057e-05,-1.4472360390094252e-05,0.00021212997535833764,2.241770426403278e-05,2.2379557290674867e-06,0.00033910012666376493,0.0003033016767284659,-0.0002369545339450083,-0.0009732021438881957,-6.536241523259022e-05,-1.9041126472124094e-05,0.00026987866711289084,0.5815059542655945,47.07168197631836,1.2917144298553467,-21.022981643676758,-0.9634299874305725,-2.3202548027038574,0.31711143255233765,0
16,0.07410120964050293,-0.6291133761405945,-47.07168197631836,-1.2917144298553467,21.022981643676758,0.9689231514930725,2.3202548027038574,-0.34457725286483765,0.0,0.0,0.0,0.0,0.0,0.0,0.0,-0.6227059764502393,-0.27688853331988017,-0.43771420461150806,0.6446933156023404,0.3875004059614078,0.10613568961887147,-0.32821888754563466,0.06239088240162348,0.6884686802022844,-0.07861535713495921,-1.621023498514521,0.027954605375727016,2.2878088195059036,0.8466375075909827,0.06226373270833701,0.6884179775783729,-0.07863937525950354,-1.6210372792796082,0.028167345702647853,2.2878312372101677,0.8466366937888992,0.00013497853809897378,0.0004027091012380342,-0.0001663783601566699,0.0006364847689992305,-0.00016720498184070244,0.00011156567270011106,0.00034259030801051226,0.0,0.0,0.0,0.0,0.0,0.0,0.0,-0.0001271496932864699,-5.070262391149161e-05,-2.401812454433383e-05,-1.3780765087068048e-05,0.00021274032692083708,2.241770426403278e-05,-8.138020834991266e-07,-0.00013497853809897378,-0.0004027091012380342,0.0001663783601566699,-0.0006364847689992305,0.00016720498184070244,-0.00011156567270011106,-0.00034259030801051226,0.6291133761405945,47.07168197631836,1.2917144298553467,-21.022981643676758,-0.9689231514930725,-2.3202548027038574,0.34457725286483765,0
17,0.07909679412841797,-0.6291133761405945,-47.07168197631836,-1.2917144298553467,21.022981643676758,0.9689231514930725,2.3202548027038574,-0.34457725286483765,0.0,0.0,0.0,0.0,0.0,0.0,0.0,-0.6227059764502393,-0.27688853331988017,-0.43771420461150806,0.6446933156023404,0.3875004059614078,0.10613568961887147,-0.32821888754563466,0.06239088240162348,0.6884686802022844,-0.07861535713495921,-1.621023498514521,0.027954605375727016,2.2878088195059036,0.8466375075909827,0.06226373270833701,0.6884179775783729,-0.07863937525950354,-1.6210372792796082,0.028167345702647853,2.2878312372101677,0.8466366937888992,0.00013497853809897378,0.0004027091012380342,-0.0001663783601566699,0.0006364847689992305,-0.00016720498184070244,0.00011156567270011106,0.00034259030801051226,0.0,0.0,0.0,0.0,0.0,0.0,0.0,-0.0001271496932864699,-5.070262391149161e-05,-2.401812454433383e-05,-1.3780765087068048e-05,0.00021274032692083708,2.241770426403278e-05,-8.138020834991266e-07,-0.00013497853809897378,-0.0004027091012380342,0.0001663783601566699,-0.0006364847689992305,0.00016720498184070244,-0.00011156567270011106,-0.00034259030801051226,0.6291133761405945,47.07168197631836,1.2917144298553467,-21.022981643676758,-0.9689231514930725,-2.3202548027038574,0.34457725286483765,0
18,0.08409738540649414,-0.6568843722343445,-47.07168197631836,-1.3155181407928467,21.098360061645508,0.9570212960243225,2.3394808769226074,-0.33084434270858765,0.0,0.0,0.0,0.0,0.0,0.0,0.0,-0.61775421545408,-0.28513408872469775,-0.4298973269248985,0.6494362603851267,0.38807815048060534,0.10691936849317354,-0.3295655426701439,0.062392831255469336,0.6884686812015945,-0.07861581763732707,-1.6210287882319667,0.027956046139568456,2.2878066832754347,0.8466359817120764,0.06226373270833701,0.6884179775783729,-0.07863937525950354,-1.6210372792796082,0.028167345702647853,2.2878312372101677,0.8466366937888992,9.437348279920166e-05,0.00015096632158376178,0.0005056656266905996,-0.0012596121814776615,0.00031317366352198923,-0.00035850500300843466,-3.768908413473163e-05,0.0,0.0,0.0,0.0,0.0,0.0,0.0,-0.00012909854713232666,-5.070362322168176e-05,-2.3557622176470505e-05,-8.491047641445704e-06,0.0002112995630793972,2.455393473299594e-05,7.120768227286689e-07,-9.437348279920166e-05,-0.00015096632158376178,-0.0005056656266905996,0.0012596121814776615,-0.00031317366352198923,0.00035850500300843466,3.768908413473163e-05,0.6568843722343445,47.07168197631836,1.3155181407928467,-21.098360061645508,-0.9570212960243225,-2.3394808769226074,0.33084434270858765,0
19,0.0890970230102539,-0.6568843722343445,-47.07168197631836,-1.3155181407928467,21.098360061645508,0.9570212960243225,2.3394808769226074,-0.33084434270858765,0.0,0.0,0.0,0.0,0.0,0.0,0.0,-0.61775421545408,-0.28513408872469775,-0.4298973269248985,0.6494362603851267,0.38807815048060534,0.10691936849317354,-0.3295655426701439,0.062392831255469336,0.6884686812015945,-0.07861581763732707,-1.6210287882319667,0.027956046139568456,2.2878066832754347,0.8466359817120764,0.06226373270833701,0.6884179775783729,-0.07863937525950354,-1.6210372792796082,0.028167345702647853,2.2878312372101677,0.8466366937888992,9.437348279920166e-05,0.00015096632158376178,0.0005056656266905996,-0.0012596121814776615,0.00031317366352198923,-0.00035850500300843466,-3.768908413473163e-05,0.0,0.0,0.0,0.0,0.0,0.0,0.0,-0.00012909854713232666,-5.070362322168176e-05,-2.3557622176470505e-05,-8.491047641445704e-06,0.0002112995630793972,2.455393473299594e-05,7.120768227286689e-07,-9.437348279920166e-05,-0.00015096632158376178,-0.0005056656266905996,0.0012596121814776615,-0.00031317366352198923,0.00035850500300843466,3.768908413473163e-05,0.6568843722343445,47.07168197631836,1.3155181407928467,-21.098360061645508,-0.9570212960243225,-2.3394808769226074,0.33084434270858765,0
20,0.09409379959106445,-0.6806880831718445,-47.07168197631836,-1.3393218517303467,21.022981643676758,0.9808250069618225,2.2882113456726074,-0.36471885442733765,0.0,0.0,0.0,0.0,0.0,0.0,0.0,-0.6277483569862896,-0.2772335604128719,-0.4312377572123395,0.6473212698311444,0.3878788307247672,0.1076770016455257,-0.3303674741825323,0.06239450169132466,0.6884679527003862,-0.07861414710524181,-1.621023498518425,0.027953282948009604,2.287812379890018,0.8466397455467118,0.06226373270833701,0.6884179775783729,-0.07863937525950354,-1.6210372792796082,0.028167345702647853,2.2878312372101677,0.8466366937888992,0.00017600180399357068,0.0004673756142389923,0.0004896912585190279,0.000795600921331159,-0.0005904689942790727,0.0008654358293135148,0.001675489764329815,0.0,0.0,0.0,0.0,0.0,0.0,0.0,-0.00013076898298765294,-4.997512201332377e-05,-2.522815426173053e-05,-1.3780761183079804e-05,0.0002140627546382487,1.8857320149834322e-05,-3.0517578126776357e-06,-0.00017600180399357068,-0.0004673756142389923,-0.0004896912585190279,-0.000795600921331159,0.0005904689942790727,-0.0008654358293135148,-0.001675489764329815,0.6806880831718445,47.07168197631836,1.3393218517303467,-21.022981643676758,-0.9808250069618225,-2.2882113456726074,0.36471885442733765,0
21,0.09909701347351074,-0.6806880831718445,-47.07168197631836,-1.3393218517303467,21.022981643676758,0.9808250069618225,2.2882113456726074,-0.36471885442733765,0.0,0.0,0.0,0.0,0.0,0.0,0.0,-0.6277483569862896,-0.2772335604128719,-0.4312377572123395,0.6473212698311444,0.3878788307247672,0.1076770016455257,-0.3303674741825323,0.06239450169132466,0.6884679527003862,-0.07861414710524181,-1.621023498518425,0.027953282948009604,2.287812379890018,0.8466397455467118,0.06226373270833701,0.6884179775783729,-0.07863937525950354,-1.6210372792796082,0.028167345702647853,2.2878312372101677,0.8466366937888992,0.00017600180399357068,0.0004673756142389923,0.0004896912585190279,0.000795600921331159,-0.0005904689942790727,0.0008654358293135148,0.001675489764329815,0.0,0.0,0.0,0.0,0.0,0.0,0.0,-0.00013076898298765294,-4.997512201332377e-05,-2.522815426173053e-05,-1.3780761183079804e-05,0.0002140627546382487,1.8857320149834322e-05,-3.0517578126776357e-06,-0.00017600180399357068,-0.0004673756142389923,-0.0004896912585190279,-0.000795600921331159,0.0005904689942790727,-0.0008654358293135148,-0.001675489764329815,0.6806880831718445,47.07168197631836,1.3393218517303467,-21.022981643676758,-0.9808250069618225,-2.2882113456726074,0.36471885442733765,0
22,0.10501933097839355,-0.6806880831718445,-47.04787826538086,-1.3155181407928467,21.074556350708008,0.9634299874305725,2.3074374198913574,-0.34457725286483765,0.0,0.0,0.0,0.0,0.0,0.0,0.0,-0.638362827743253,-0.2788430039242907,-0.43613255672314755,0.6511677039221185,0.38766592526239535,0.10654060989836758,-0.3285953063870586,0.06239450169132466,0.6884648252579907,-0.0786136866750458,-1.6210271177961115,0.027955570733657592,2.2878102436595493,0.8466375075909827,0.06226373270833701,0.6884179775783729,-0.07863937525950354,-1.6210372792796082,0.028167345702647853,2.2878312372101677,0.8466366937888992,-0.0002560675874374435,-1.6605485998762458e-05,-0.0009369415572854248,-0.0005749615772030406,2.9105051141188537e-05,0.0005517556284340402,0.0008067728231156161,0.0,0.0,0.0,0.0,0.0,0.0,0.0,-0.00013076898298765294,-4.684767961782299e-05,-2.5688584457742025e-05,-1.0161483496640145e-05,0.00021177496899026094,2.0993550618353396e-05,-8.138020834991266e-07,0.0002560675874374435,1.6605485998762458e-05,0.0009369415572854248,0.0005749615772030406,-2.9105051141188537e-05,-0.0005517556284340402,-0.0008067728231156161,0.6806880831718445,47.04787826538086,1.3155181407928467,-21.074556350708008,-0.9634299874305725,-2.3074374198913574,0.34457725286483765,0
23,0.1091299057006836,-0.6806880831718445,-47.04787826538086,-1.3155181407928467,21.074556350708008,0.9634299874305725,2.3074374198913574,-0.34457725286483765,0.0,0.0,0.0,0.0,0.0,0.0,0.0,-0.638362827743253,-0.2788430039242907,-0.43613255672314755,0.6511677039221185,0.38766592526239535,0.10654060989836758,-0.3285953063870586,0.06239450169132466,0.6884648252579907,-0.0786136866750458,-1.6210271177961115,0.027955570733657592,2.2878102436595493,0.8466375075909827,0.06226373270833701,0.6884179775783729,-0.07863937525950354,-1.6210372792796082,0.028167345702647853,2.2878312372101677,0.8466366937888992,-0.0002560675874374435,-1.6605485998762458e-05,-0.0009369415572854248,-0.0005749615772030406,2.9105051141188537e-05,0.0005517556284340402,0.0008067728231156161,0.0,0.0,0.0,0.0,0.0,0.0,0.0,-0.00013076898298765294,-4.684767961782299e-05,-2.5688584457742025e-05,-1.0161483496640145e-05,0.00021177496899026094,2.0993550618353396e-05,-8.138020834991266e-07,0.0002560675874374435,1.6605485998762458e-05,0.0009369415572854248,0.0005749615772030406,-2.9105051141188537e-05,-0.0005517556284340402,-0.0008067728231156161,0.6806880831718445,47.04787826538086,1.3155181407928467,-21.074556350708008,-0.9634299874305725,-2.3074374198913574,0.34457725286483765,0
24,0.1150059700012207,-0.6806880831718445,-47.04787826538086,-1.3155181407928467,21.074556350708008,0.9634299874305725,2.3074374198913574,-0.34457725286483765,0.0,0.0,0.0,0.0,0.0,0.0,0.0,-0.638362827743253,-0.2788430039242907,-0.43613255672314755,0.6511677039221185,0.38766592526239535,0.10654060989836758,-0.3285953063870586,0.06239450169132466,0.6884648252579907,-0.0786136866750458,-1.6210271177961115,0.027955570733657592,2.2878102436595493,0.8466375075909827,0.06226373270833701,0.6884179775783729,-0.07863937525950354,-1.6210372792796082,0.028167345702647853,2.2878312372101677,0.8466366937888992,-0.0002560675874374435,-1.6605485998762458e-05,-0.0009369415572854248,-0.0005749615772030406,2.9105051141188537e-05,0.0005517556284340402,0.0008067728231156161,0.0,0.0,0.0,0.0,0.0,0.0,0.0,-0.00013076898298765294,-4.684767961782299e-05,-2.5688584457742025e-05,-1.0161483496640145e-05,0.00021177496899026094,2.0993550618353396e-05,-8.138020834991266e-07,0.0002560675874374435,1.6605485998762458e-05,0.0009369415572854248,0.0005749615772030406,-2.9105051141188537e-05,-0.0005517556284340402,-0.0008067728231156161,0.6806880831718445,47.04787826538086,1.3155181407928467,-21.074556350708008,-0.9634299874305725,-2.3074374198913574,0.34457725286483765,0
25,0.11910033226013184,-0.6291133761405945,-47.07168197631836,-1.3155181407928467,21.074556350708008,0.9634299874305725,2.3138461112976074,-0.30337852239608765,0.0,0.0,0.0,0.0,0.0,0.0,0.0,-0.6108090509124221,-0.26939699520327326,-0.41768937948153456,0.6501183798518236,0.3869238859726407,0.10691688303580531,-0.32658796899973436,0.06239088241363826,0.6884686810782278,-0.07861581752906772,-1.6210271177961115,0.027955215729293537,2.2878095315827265,0.8466329299542639,0.06226373270833701,0.6884179775783729,-0.07863937525950354,-1.6210372792796082,0.028167345702647853,2.2878312372101677,0.8466366937888992,0.00012053984531101131,0.0008406507430466805,-0.0002522595669789676,-7.273019460558762e-05,0.00014888027490614946,0.000660375114802558,-0.000606895496750985,0.0,0.0,0.0,0.0,0.0,0.0,0.0,-0.00012714970530124797,-5.070349985492051e-05,-2.3557730435816437e-05,-1.0161483496640145e-05,0.0002121299733543157,2.1705627441193087e-05,3.7638346352952823e-06,-0.00012053984531101131,-0.0008406507430466805,0.0002522595669789676,7.273019460558762e-05,-0.00014888027490614946,-0.000660375114802558,0.000606895496750985,0.6291133761405945,47.07168197631836,1.3155181407928467,-21.074556350708008,-0.9634299874305725,-2.3138461112976074,0.30337852239608765,0
26,0.12409758567810059,-0.6291133761405945,-47.07168197631836,-1.3155181407928467,21.074556350708008,0.9634299874305725,2.3138461112976074,-0.30337852239608765,0.0,0.0,0.0,0.0,0.0,0.0,0.0,-0.6108090509124221,-0.26939699520327326,-0.41768937948153456,0.6501183798518236,0.3869238859726407,0.10691688303580531,-0.32658796899973436,0.06239088241363826,0.6884686810782278,-0.07861581752906772,-1.6210271177961115,0.027955215729293537,2.2878095315827265,0.8466329299542639,0.06226373270833701,0.6884179775783729,-0.07863937525950354,-1.6210372792796082,0.028167345702647853,2.2878312372101677,0.8466366937888992,0.00012053984531101131,0.0008406507430466805,-0.0002522595669789676,-7.273019460558762e-05,0.00014888027490614946,0.000660375114802558,-0.000606895496750985,0.0,0.0,0.0,0.0,0.0,0.0,0.0,-0.00012714970530124797,-5.070349985492051e-05,-2.3557730435816437e-05,-1.0161483496640145e-05,0.0002121299733543157,2.1705627441193087e-05,3.7638346352952823e-06,-0.00012053984531101131,-0.0008406507430466805,0.0002522595669789676,7.273019460558762e-05,-0.00014888027490614946,-0.000660375114802558,0.000606895496750985,0.6291133761405945,47.07168197631836,1.3155181407928467,-21.074556350708008,-0.9634299874305725,-2.3138461112976074,0.30337852239608765,0
27,0.12910151481628418,-0.6291133761405945,-47.07168197631836,-1.3155181407928467,21.098360061645508,0.9689231514930725,2.3138461112976074,-0.35831016302108765,0.0,0.0,0.0,0.0,0.0,0.0,0.0,-0.6425431236031259,-0.2694947220516238,-0.44418591450314765,0.6482051586514507,0.3875487455228028,0.10693278650809274,-0.32493702515589323,0.06239088241363826,0.6884686812015994,-0.07861581754109645,-1.6210287882319667,0.027954605375727026,2.2878095315827265,0.8466390334698889,0.06226373270833701,0.6884179775783729,-0.07863937525950354,-1.6210372792796082,0.028167345702647853,2.2878312372101677,0.8466366937888992,-0.0005004324732353464,0.0002925802699006393,-9.40398348035234e-06,-0.0013127028945036725,-6.0620808531147625e-05,0.0002634318895507157,0.0007247294314420475,0.0,0.0,0.0,0.0,0.0,0.0,0.0,-0.00012714970530124797,-5.070362322656674e-05,-2.35577184070912e-05,-8.491047641445704e-06,0.00021274032692082667,2.1705627441193087e-05,-2.339680989726922e-06,0.0005004324732353464,-0.0002925802699006393,9.40398348035234e-06,0.0013127028945036725,6.0620808531147625e-05,-0.0002634318895507157,-0.0007247294314420475,0.6291133761405945,47.07168197631836,1.3155181407928467,-21.098360061645508,-0.9689231514930725,-2.3138461112976074,0.35831016302108765,0
28,0.13409662246704102,-0.6291133761405945,-47.07168197631836,-1.3155181407928467,21.098360061645508,0.9689231514930725,2.3138461112976074,-0.35831016302108765,0.0,0.0,0.0,0.0,0.0,0.0,0.0,-0.6425431236031259,-0.2694947220516238,-0.44418591450314765,0.6482051586514507,0.3875487455228028,0.10693278650809274,-0.32493702515589323,0.06239088241363826,0.6884686812015994,-0.07861581754109645,-1.6210287882319667,0.027954605375727026,2.2878095315827265,0.8466390334698889,0.06226373270833701,0.6884179775783729,-0.07863937525950354,-1.6210372792796082,0.028167345702647853,2.2878312372101677,0.8466366937888992,-0.0005004324732353464,0.0002925802699006393,-9.40398348035234e-06,-0.0013127028945036725,-6.0620808531147625e-05,0.0002634318895507157,0.0007247294314420475,0.0,0.0,0.0,0.0,0.0,0.0,0.0,-0.00012714970530124797,-5.070362322656674e-05,-2.35577184070912e-05,-8.491047641445704e-06,0.00021274032692082667,2.1705627441193087e-05,-2.339680989726922e-06,0.0005004324732353464,-0.0002925802699006393,9.40398348035234e-06,0.0013127028945036725,6.0620808531147625e-05,-0.0002634318895507157,-0.0007247294314420475,0.6291133761405945,47.07168197631836,1.3155181407928467,-21.098360061645508,-0.9689231514930725,-2.3138461112976074,0.35831016302108765,0
29,0.13904523849487305,-0.6053096652030945,-47.11928939819336,-1.2917144298553467,21.046785354614258,0.9689231514930725,2.3330721855163574,-0.30978721380233765,0.0,0.0,0.0,0.0,0.0,0.0,0.0,-0.6198935253231733,-0.27974684902644376,-0.4280250495284815,0.6530814969756028,0.38779773702443826,0.1072791777668531,-0.32649725543291924,0.06238921197778299,0.6884720217402054,-0.07861535711090106,-1.621024939366019,0.027954605375727016,2.2878105742666452,0.8466336420310868,0.06226373270833701,0.6884179775783729,-0.07863937525950354,-1.6210372792796082,0.028167345702647853,2.2878312372101677,0.8466366937888992,5.171655258180355e-05,0.000889478180697275,0.00018387336287869235,0.0003889711550224166,-0.00016667172762202745,7.21119323564838e-05,-0.0013669954673321595,0.0,0.0,0.0,0.0,0.0,0.0,0.0,-0.00012547926944598414,-5.40441618325227e-05,-2.4018148602478195e-05,-1.2339913589176632e-05,0.00021274032692083708,2.0662943522431476e-05,3.0517578123445688e-06,-5.171655258180355e-05,-0.000889478180697275,-0.00018387336287869235,-0.0003889711550224166,0.00016667172762202745,-7.21119323564838e-05,0.0013669954673321595,0.6053096652030945,47.11928939819336,1.2917144298553467,-21.046785354614258,-0.9689231514930725,-2.3330721855163574,0.30978721380233765,0
30,0.14409804344177246,-0.6053096652030945,-47.11928939819336,-1.2917144298553467,21.046785354614258,0.9689231514930725,2.3330721855163574,-0.30978721380233765,0.0,0.0,0.0,0.0,0.0,0.0,0.0,-0.6198935253231733,-0.27974684902644376,-0.4280250495284815,0.6530814969756028,0.38779773702443826,0.1072791777668531,-0.32649725543291924,0.06238921197778299,0.6884720217402054,-0.07861535711090106,-1.621024939366019,0.027954605375727016,2.2878105742666452,0.8466336420310868,0.06226373270833701,0.6884179775783729,-0.07863937525950354,-1.6210372792796082,0.028167345702647853,2.2878312372101677,0.8466366937888992,5.171655258180355e-05,0.000889478180697275,0.00018387336287869235,0.0003889711550224166,-0.00016667172762202745,7.21119323564838e-05,-0.0013669954673321595,0.0,0.0,0.0,0.0,0.0,0.0,0.0,-0.00012547926944598414,-5.40441618325227e-05,-2.4018148602478195e-05,-1.2339913589176632e-05,0.00021274032692083708,2.0662943522431476e-05,3.0517578123445688e-06,-5.171655258180355e-05,-0.000889478180697275,-0.00018387336287869235,-0.0003889711550224166,0.00016667172762202745,-7.21119323564838e-05,0.0013669954673321595,0.6053096652030945,47.11928939819336,1.2917144298553467,-21.046785354614258,-0.9689231514930725,-2.3330721855163574,0.30978721380233765,0
31,0.14909577369689941,-0.6053096652030945,-47.07168197631836,-1.2917144298553467,21.074556350708008,0.9634299874305725,2.3138461112976074,-0.31711143255233765,0.0,0.0,0.0,0.0,0.0,0.0,0.0,-0.6305441962234294,-0.2812879435693697,-0.43478480325143604,0.6503677544686821,0.38789855949866003,0.10854665147878276,-0.3281288022852406,0.06238921197778299,0.6884686812015983,-0.07861535713495867,-1.6210271177948155,0.027955215727289515,2.2878095316006717,0.8466344514725194,0.06226373270833701,0.6884179775783729,-0.07863937525950354,-1.6210372792796082,0.028167345702647853,2.2878312372101677,0.8466366937888992,0.00027955550704182136,-0.0004474040982508305,0.00040129267126352847,-0.0004274019233927367,0.00012075532968533247,0.00032151687590595333,-0.0004446616234117029,0.0,0.0,0.0,0.0,0.0,0.0,0.0,-0.00012547926944598414,-5.070362322545652e-05,-2.4018124544875064e-05,-1.0161484792714504e-05,0.00021212997535833764,2.1705609495992206e-05,2.2423163797968826e-06,-0.00027955550704182136,0.0004474040982508305,-0.00040129267126352847,0.0004274019233927367,-0.00012075532968533247,-0.00032151687590595333,0.0004446616234117029,0.6053096652030945,47.07168197631836,1.2917144298553467,-21.074556350708008,-0.9634299874305725,-2.3138461112976074,0.31711143255233765,0
32,0.15500950813293457,-0.6053096652030945,-47.07168197631836,-1.2917144298553467,21.074556350708008,0.9634299874305725,2.3138461112976074,-0.31711143255233765,0.0,0.0,0.0,0.0,0.0,0.0,0.0,-0.6305441962234294,-0.2812879435693697,-0.43478480325143604,0.6503677544686821,0.38789855949866003,0.10854665147878276,-0.3281288022852406,0.06238921197778299,0.6884686812015983,-0.07861535713495867,-1.6210271177948155,0.027955215727289515,2.2878095316006717,0.8466344514725194,0.06226373270833701,0.6884179775783729,-0.07863937525950354,-1.6210372792796082,0.028167345702647853,2.2878312372101677,0.8466366937888992,0.00027955550704182136,-0.0004474040982508305,0.00040129267126352847,-0.0004274019233927367,0.00012075532968533247,0.00032151687590595333,-0.0004446616234117029,0.0,0.0,0.0,0.0,0.0,0.0,0.0,-0.00012547926944598414,-5.070362322545652e-05,-2.4018124544875064e-05,-1.0161484792714504e-05,0.00021212997535833764,2.1705609495992206e-05,2.2423163797968826e-06,-0.00027955550704182136,0.0004474040982508305,-0.00040129267126352847,0.0004274019233927367,-0.00012075532968533247,-0.00032151687590595333,0.0004446616234117029,0.6053096652030945,47.07168197631836,1.2917144298553467,-21.074556350708008,-0.9634299874305725,-2.3138461112976074,0.31711143255233765,0
33,0.15909242630004883,-0.5537349581718445,-47.09548568725586,-1.3155181407928467,21.074556350708008,0.9753318428993225,2.3266634941101074,-0.30978721380233765,0.0,0.0,0.0,0.0,0.0,0.0,0.0,-0.6304752207692633,-0.2754456554451279,-0.4346885919720216,0.6436897890038439,0.387750586579698,0.10706907583229684,-0.32784850030475293,0.06238558978050465,0.6884703516374553,-0.07861581752906786,-1.6210271177961115,0.027953893298904096,2.2878081074290804,0.8466336420310622,0.06226373270833701,0.6884179775783729,-0.07863937525950354,-1.6210372792796082,0.028167345702647853,2.2878312372101677,0.8466366937888992,-0.0011550649676300244,0.00037414502712774183,0.0010653487229465184,-0.0007761065974157549,-0.00037051124923593513,-8.439866028383694e-05,-0.0007681666184534554,0.0,0.0,0.0,0.0,0.0,0.0,0.0,-0.00012185707216764291,-5.2374059082427316e-05,-2.355773043567766e-05,-1.0161483496640145e-05,0.00021345240374375657,2.312978108731656e-05,3.05175783699152e-06,0.0011550649676300244,-0.00037414502712774183,-0.0010653487229465184,0.0007761065974157549,0.00037051124923593513,8.439866028383694e-05,0.0007681666184534554,0.5537349581718445,47.09548568725586,1.3155181407928467,-21.074556350708008,-0.9753318428993225,-2.3266634941101074,0.30978721380233765,0
34,0.16410422325134277,-0.5537349581718445,-47.09548568725586,-1.3155181407928467,21.074556350708008,0.9753318428993225,2.3266634941101074,-0.30978721380233765,0.0,0.0,0.0,0.0,0.0,0.0,0.0,-0.6304752207692633,-0.2754456554451279,-0.4346885919720216,0.6436897890038439,0.387750586579698,0.10706907583229684,-0.32784850030475293,0.06238558978050465,0.6884703516374553,-0.07861581752906786,-1.6210271177961115,0.027953893298904096,2.2878081074290804,0.8466336420310622,0.06226373270833701,0.6884179775783729,-0.07863937525950354,-1.6210372792796082,0.028167345702647853,2.2878312372101677,0.8466366937888992,-0.0011550649676300244,0.00037414502712774183,0.0010653487229465184,-0.0007761065974157549,-0.00037051124923593513,-8.439866028383694e-05,-0.0007681666184534554,0.0,0.0,0.0,0.0,0.0,0.0,0.0,-0.00012185707216764291,-5.2374059082427316e-05,-2.355773043567766e-05,-1.0161483496640145e-05,0.00021345240374375657,2.312978108731656e-05,3.05175783699152e-06,0.0011550649676300244,-0.00037414502712774183,-0.0010653487229465184,0.0007761065974157549,0.00037051124923593513,8.439866028383694e-05,0.0007681666184534554,0.5537349581718445,47.09548568725586,1.3155181407928467,-21.074556350708008,-0.9753318428993225,-2.3266634941101074,0.30978721380233765,0
35,0.16910362243652344,-0.6053096652030945,-47.09548568725586,-1.2917144298553467,21.046785354614258,0.9634299874305725,2.3266634941101074,-0.33725303411483765,0.0,0.0,0.0,0.0,0.0,0.0,0.0,-0.6180538515994928,-0.2797035052430347,-0.4261978513335298,0.6464028068421417,0.38772823169334,0.10783540144965227,-0.32747890067503416,0.06238708359524266,0.6884703516374553,-0.078615357110901,-1.6210251689542803,0.027955215727289515,2.2878081074290804,0.8466366937888993,0.06226373270833701,0.6884179775783729,-0.07863937525950354,-1.6210372792796082,0.028167345702647853,2.2878312372101677,0.8466366937888992,0.00038940273549279385,0.0011334093280446745,0.0002960738253607084,0.0008730415996452839,9.814407052947914e-05,2.776910082821489e-05,9.662240941545627e-05,0.0,0.0,0.0,0.0,0.0,0.0,0.0,-0.00012335088690564738,-5.2374059082427316e-05,-2.4018148602547584e-05,-1.2110325327885363e-05,0.00021212997535833764,2.312978108731656e-05,-1.1102230246251565e-16,-0.00038940273549279385,-0.0011334093280446745,-0.0002960738253607084,-0.0008730415996452839,-9.814407052947914e-05,-2.776910082821489e-05,-9.662240941545627e-05,0.6053096652030945,47.09548568725586,1.2917144298553467,-21.046785354614258,-0.9634299874305725,-2.3266634941101074,0.33725303411483765,0
36,0.1741034984588623,-0.6053096652030945,-47.09548568725586,-1.2917144298553467,21.046785354614258,0.9634299874305725,2.3266634941101074,-0.33725303411483765,0.0,0.0,0.0,0.0,0.0,0.0,0.0,-0.6180538515994928,-0.2797035052430347,-0.4261978513335298,0.6464028068421417,0.38772823169334,0.10783540144965227,-0.32747890067503416,0.06238708359524266,0.6884703516374553,-0.078615357110901,-1.6210251689542803,0.027955215727289515,2.2878081074290804,0.8466366937888993,0.06226373270833701,0.6884179775783729,-0.07863937525950354,-1.6210372792796082,0.028167345702647853,2.2878312372101677,0.8466366937888992,0.00038940273549279385,0.0011334093280446745,0.0002960738253607084,0.0008730415996452839,9.814407052947914e-05,2.776910082821489e-05,9.662240941545627e-05,0.0,0.0,0.0,0.0,0.0,0.0,0.0,-0.00012335088690564738,-5.2374059082427316e-05,-2.4018148602547584e-05,-1.2110325327885363e-05,0.00021212997535833764,2.312978108731656e-05,-1.1102230246251565e-16,-0.00038940273549279385,-0.0011334093280446745,-0.0002960738253607084,-0.0008730415996452839,-9.814407052947914e-05,-2.776910082821489e-05,-9.662240941545627e-05,0.6053096652030945,47.09548568725586,1.2917144298553467,-21.046785354614258,-0.9634299874305725,-2.3266634941101074,0.33725303411483765,0
37,0.17910552024841309,-0.6053096652030945,-47.02010726928711,-1.2679107189178467,21.098360061645508,0.9689231514930725,2.3202548027038574,-0.31711143255233765,0.0,0.0,0.0,0.0,0.0,0.0,0.0,-0.6222447980712242,-0.26936250780435234,-0.4290332840183204,0.6402298419479134,0.3872545204075442,0.10716981302349035,-0.32821604763012496,0.062389211965768215,0.6884650619239137,-0.07861702753472753,-1.6210287882319667,0.027954605375727016,2.2878088195059036,0.8466344558331701,0.06226373270833701,0.6884179775783729,-0.07863937525950354,-1.6210372792796082,0.028167345702647853,2.2878312372101677,0.8466366937888992,4.902874398573992e-05,-0.0007061391801071102,-0.000339307481363252,-0.0015772343017147747,-0.00028785267742746493,-0.0001507792774076971,-0.0009671773941894919,0.0,0.0,0.0,0.0,0.0,0.0,0.0,-0.00012547925743120608,-4.7084345540793215e-05,-2.2347724776008993e-05,-8.491047641445704e-06,0.00021274032692083708,2.241770426403278e-05,2.2379557290674867e-06,-4.902874398573992e-05,0.0007061391801071102,0.000339307481363252,0.0015772343017147747,0.00028785267742746493,0.0001507792774076971,0.0009671773941894919,0.6053096652030945,47.02010726928711,1.2679107189178467,-21.098360061645508,-0.9689231514930725,-2.3202548027038574,0.31711143255233765,0
38,0.1840963363647461,-0.6053096652030945,-47.02010726928711,-1.2679107189178467,21.098360061645508,0.9689231514930725,2.3202548027038574,-0.31711143255233765,0.0,0.0,0.0,0.0,0.0,0.0,0.0,-0.6222447980712242,-0.26936250780435234,-0.4290332840183204,0.6402298419479134,0.3872545204075442,0.10716981302349035,-0.32821604763012496,0.062389211965768215,0.6884650619239137,-0.07861702753472753,-1.6210287882319667,0.027954605375727016,2.2878088195059036,0.8466344558331701,0.06226373270833701,0.6884179775783729,-0.07863937525950354,-1.6210372792796082,0.028167345702647853,2.2878312372101677,0.8466366937888992,4.902874398573992e-05,-0.0007061391801071102,-0.000339307481363252,-0.0015772343017147747,-0.00028785267742746493,-0.0001507792774076971,-0.0009671773941894919,0.0,0.0,0.0,0.0,0.0,0.0,0.0,-0.00012547925743120608,-4.7084345540793215e-05,-2.2347724776008993e-05,-8.491047641445704e-06,0.00021274032692083708,2.241770426403278e-05,2.2379557290674867e-06,-4.902874398573992e-05,0.0007061391801071102,0.000339307481363252,0.0015772343017147747,0.00028785267742746493,0.0001507792774076971,0.0009671773941894919,0.6053096652030945,47.02010726928711,1.2679107189178467,-21.098360061645508,-0.9689231514930725,-2.3202548027038574,0.31711143255233765,0
39,0.18909788131713867,-0.6291133761405945,-47.07168197631836,-1.2401397228240967,21.022981643676758,0.9570212960243225,2.3138461112976074,-0.33084434270858765,0.0,0.0,0.0,0.0,0.0,0.0,0.0,-0.6247333137617451,-0.2754309978186306,-0.4295182969067767,0.6465223143656528,0.38720698630343625,0.1065179876618545,-0.3306364442393195,0.06239087949404612,0.6884686812016001,-0.07861900268354689,-1.621023498518425,0.02795592780411243,2.2878095315827265,0.8466359817120764,0.06226373270833701,0.6884179775783729,-0.07863937525950354,-1.6210372792796082,0.028167345702647853,2.2878312372101677,0.8466366937888992,2.4612974855839236e-05,0.0008483570367391526,-0.0011799757045814568,0.0008947417228958039,0.0002804777102311517,0.00026867845865452035,3.596375925460154e-05,0.0,0.0,0.0,0.0,0.0,0.0,0.0,-0.00012714678570911048,-5.0703623227232875e-05,-2.0372575956648098e-05,-1.3780761183079804e-05,0.00021141789853542162,2.1705627441193087e-05,7.120768227286689e-07,-2.4612974855839236e-05,-0.0008483570367391526,0.0011799757045814568,-0.0008947417228958039,-0.0002804777102311517,-0.00026867845865452035,-3.596375925460154e-05,0.6291133761405945,47.07168197631836,1.2401397228240967,-21.022981643676758,-0.9570212960243225,-2.3138461112976074,0.33084434270858765,0
40,0.19409537315368652,-0.6291133761405945,-47.07168197631836,-1.2401397228240967,21.022981643676758,0.9570212960243225,2.3138461112976074,-0.33084434270858765,0.0,0.0,0.0,0.0,0.0,0.0,0.0,-0.6247333137617451,-0.2754309978186306,-0.4295182969067767,0.6465223143656528,0.38720698630343625,0.1065179876618545,-0.3306364442393195,0.06239087949404612,0.6884686812016001,-0.07861900268354689,-1.621023498518425,0.02795592780411243,2.2878095315827265,0.8466359817120764,0.06226373270833701,0.6884179775783729,-0.07863937525950354,-1.6210372792796082,0.028167345702647853,2.2878312372101677,0.8466366937888992,2.4612974855839236e-05,0.0008483570367391526,-0.0011799757045814568,0.0008947417228958039,0.0002804777102311517,0.00026867845865452035,3.596375925460154e-05,0.0,0.0,0.0,0.0,0.0,0.0,0.0,-0.00012714678570911048,-5.0703623227232875e-05,-2.0372575956648098e-05,-1.3780761183079804e-05,0.00021141789853542162,2.1705627441193087e-05,7.120768227286689e-07,-2.4612974855839236e-05,-0.0008483570367391526,0.0011799757045814568,-0.0008947417228958039,-0.0002804777102311517,-0.00026867845865452035,-3.596375925460154e-05,0.6291133761405945,47.07168197631836,1.2401397228240967,-21.022981643676758,-0.9570212960243225,-2.3138461112976074,0.33084434270858765,0
41,0.1990954875946045,-0.6291133761405945,-47.07168197631836,-1.2401397228240967,21.022981643676758,0.9570212960243225,2.3138461112976074,-0.33084434270858765,0.0,0.0,0.0,0.0,0.0,0.0,0.0,-0.6247333137617451,-0.2754309978186306,-0.4295182969067767,0.6465223143656528,0.38720698630343625,0.1065179876618545,-0.3306364442393195,0.06239087949404612,0.6884686812016001,-0.07861900268354689,-1.621023498518425,0.02795592780411243,2.2878095315827265,0.8466359817120764,0.06226373270833701,0.6884179775783729,-0.07863937525950354,-1.6210372792796082,0.028167345702647853,2.2878312372101677,0.8466366937888992,2.4612974855839236e-05,0.0008483570367391526,-0.0011799757045814568,0.0008947417228958039,0.0002804777102311517,0.00026867845865452035,3.596375925460154e-05,0.0,0.0,0.0,0.0,0.0,0.0,0.0,-0.00012714678570911048,-5.0703623227232875e-05,-2.0372575956648098e-05,-1.3780761183079804e-05,0.00021141789853542162,2.1705627441193087e-05,7.120768227286689e-07,-2.4612974855839236e-05,-0.0008483570367391526,0.0011799757045814568,-0.0008947417228958039,-0.0002804777102311517,-0.00026867845865452035,-3.596375925460154e-05,0.6291133761405945,47.07168197631836,1.2401397228240967,-21.022981643676758,-0.9570212960243225,-2.3138461112976074,0.33084434270858765,0
42,0.20409631729125977,-0.6291133761405945,-47.07168197631836,-1.2401397228240967,21.022981643676758,0.9570212960243225,2.3138461112976074,-0.33084434270858765,0.0,0.0,0.0,0.0,0.0,0.0,0.0,-0.6247333137617451,-0.2754309978186306,-0.4295182969067767,0.6465223143656528,0.38720698630343625,0.1065179876618545,-0.3306364442393195,0.06239087949404612,0.6884686812016001,-0.07861900268354689,-1.621023498518425,0.02795592780411243,2.2878095315827265,0.8466359817120764,0.06226373270833701,0.6884179775783729,-0.07863937525950354,-1.6210372792796082,0.028167345702647853,2.2878312372101677,0.8466366937888992,2.4612974855839236e-05,0.0008483570367391526,-0.0011799757045814568,0.0008947417228958039,0.0002804777102311517,0.00026867845865452035,3.596375925460154e-05,0.0,0.0,0.0,0.0,0.0,0.0,0.0,-0.00012714678570911048,-5.0703623227232875e-05,-2.0372575956648098e-05,-1.3780761183079804e-05,0.00021141789853542162,2.1705627441193087e-05,7.120768227286689e-07,-2.4612974855839236e-05,-0.0008483570367391526,0.0011799757045814568,-0.0008947417228958039,-0.0002804777102311517,-0.00026867845865452035,-3.596375925460154e-05,0.6291133761405945,47.07168197631836,1.2401397228240967,-21.022981643676758,-0.9570212960243225,-2.3138461112976074,0.33084434270858765,0
43,0.20909380912780762,-0.6568843722343445,-47.07168197631836,-1.3155181407928467,21.074556350708008,0.9570212960243225,2.3202548027038574,-0.31711143255233765,0.0,0.0,0.0,0.0,0.0,0.0,0.0,-0.6425942707425807,-0.2798415168634649,-0.44246749958152004,0.6515783989039687,0.3876232075368376,0.10665250881484323,-0.3319863384298457,0.06239283125546391,0.6884664956979584,-0.07861368666306644,-1.6210271177961115,0.02795592780411243,2.2878088195059036,0.8466344165873134,0.06226373270833701,0.6884179775783729,-0.07863937525950354,-1.6210372792796082,0.028167345702647853,2.2878312372101677,0.8466366937888992,-1.5680415865945872e-05,0.0002492234366025517,-0.00045242257937926403,-0.0005145038294071228,0.0003175295513152615,0.00018806876236463873,-0.0006898442577721654,0.0,0.0,0.0,0.0,0.0,0.0,0.0,-0.00012909854712690044,-4.851811958550556e-05,-2.5688596437103972e-05,-1.0161483496640145e-05,0.00021141789853542162,2.241770426403278e-05,2.2772015857430716e-06,1.5680415865945872e-05,-0.0002492234366025517,0.00045242257937926403,0.0005145038294071228,-0.0003175295513152615,-0.00018806876236463873,0.0006898442577721654,0.6568843722343445,47.07168197631836,1.3155181407928467,-21.074556350708008,-0.9570212960243225,-2.3202548027038574,0.31711143255233765,0
44,0.21411561965942383,-0.6568843722343445,-47.07168197631836,-1.3155181407928467,21.074556350708008,0.9570212960243225,2.3202548027038574,-0.31711143255233765,0.0,0.0,0.0,0.0,0.0,0.0,0.0,-0.6425942707425807,-0.2798415168634649,-0.44246749958152004,0.6515783989039687,0.3876232075368376,0.10665250881484323,-0.3319863384298457,0.06239283125546391,0.6884664956979584,-0.07861368666306644,-1.6210271177961115,0.02795592780411243,2.2878088195059036,0.8466344165873134,0.06226373270833701,0.6884179775783729,-0.07863937525950354,-1.6210372792796082,0.028167345702647853,2.2878312372101677,0.8466366937888992,-1.5680415865945872e-05,0.0002492234366025517,-0.00045242257937926403,-0.0005145038294071228,0.0003175295513152615,0.00018806876236463873,-0.0006898442577721654,0.0,0.0,0.0,0.0,0.0,0.0,0.0,-0.00012909854712690044,-4.851811958550556e-05,-2.5688596437103972e-05,-1.0161483496640145e-05,0.00021141789853542162,2.241770426403278e-05,2.2772015857430716e-06,1.5680415865945872e-05,-0.0002492234366025517,0.00045242257937926403,0.0005145038294071228,-0.0003175295513152615,-0.00018806876236463873,0.0006898442577721654,0.6568843722343445,47.07168197631836,1.3155181407928467,-21.074556350708008,-0.9570212960243225,-2.3202548027038574,0.31711143255233765,0
45,0.2190999984741211,-0.6568843722343445,-47.04787826538086,-1.3155181407928467,21.046785354614258,0.9689231514930725,2.3138461112976074,-0.29605430364608765,0.0,0.0,0.0,0.0,0.0,0.0,0.0,-0.6371073670866252,-0.2677485159634378,-0.43851919138894035,0.6459724478985425,0.3870971713343274,0.10567200684178031,-0.33117376773923807,0.0623928312554694,0.6884670107534077,-0.07861377435297787,-1.6210251689542803,0.027954605375727016,2.2878095315827265,0.8466321161519591,0.06226373270833701,0.6884179775783729,-0.07863937525950354,-1.6210372792796082,0.028167345702647853,2.2878312372101677,0.8466366937888992,-0.0005810074323614352,1.5828199334102987e-05,-0.0005101792920910633,-7.221354812394098e-05,-0.00010369622330342228,0.0001998467638123862,-0.001511985348625369,0.0,0.0,0.0,0.0,0.0,0.0,0.0,-0.0001290985471323891,-4.9033175034796095e-05,-2.5600906525674594e-05,-1.2110325327885363e-05,0.00021274032692083708,2.1705627441193087e-05,4.577636940061858e-06,0.0005810074323614352,-1.5828199334102987e-05,0.0005101792920910633,7.221354812394098e-05,0.00010369622330342228,-0.0001998467638123862,0.001511985348625369,0.6568843722343445,47.04787826538086,1.3155181407928467,-21.046785354614258,-0.9689231514930725,-2.3138461112976074,0.29605430364608765,0
46,0.22409749031066895,-0.6568843722343445,-47.04787826538086,-1.3155181407928467,21.046785354614258,0.9689231514930725,2.3138461112976074,-0.29605430364608765,0.0,0.0,0.0,0.0,0.0,0.0,0.0,-0.6371073670866252,-0.2677485159634378,-0.43851919138894035,0.6459724478985425,0.3870971713343274,0.10567200684178031,-0.33117376773923807,0.0623928312554694,0.6884670107534077,-0.07861377435297787,-1.6210251689542803,0.027954605375727016,2.2878095315827265,0.8466321161519591,0.06226373270833701,0.6884179775783729,-0.07863937525950354,-1.6210372792796082,0.028167345702647853,2.2878312372101677,0.8466366937888992,-0.0005810074323614352,1.5828199334102987e-05,-0.0005101792920910633,-7.221354812394098e-05,-0.00010369622330342228,0.0001998467638123862,-0.001511985348625369,0.0,0.0,0.0,0.0,0.0,0.0,0.0,-0.0001290985471323891,-4.9033175034796095e-05,-2.5600906525674594e-05,-1.2110325327885363e-05,0.00021274032692083708,2.1705627441193087e-05,4.577636940061858e-06,0.0005810074323614352,-1.5828199334102987e-05,0.0005101792920910633,7.221354812394098e-05,0.00010369622330342228,-0.0001998467638123862,0.001511985348625369,0.6568843722343445,47.04787826538086,1.3155181407928467,-21.046785354614258,-0.9689231514930725,-2.3138461112976074,0.29605430364608765,0
47,0.22409749031066895,-0.6568843722343445,-47.04787826538086,-1.3155181407928467,21.046785354614258,0.9689231514930725,2.3138461112976074,-0.29605430364608765,0.0,0.0,0.0,0.0,0.0,0.0,0.0,-0.6371073670866252,-0.2677485159634378,-0.43851919138894035,0.6459724478985425,0.3870971713343274,0.10567200684178031,-0.33117376773923807,0.0623928312554694,0.6884670107534077,-0.07861377435297787,-1.6210251689542803,0.027954605375727016,2.2878095315827265,0.8466321161519591,0.06226373270833701,0.6884179775783729,-0.07863937525950354,-1.6210372792796082,0.028167345702647853,2.2878312372101677,0.8466366937888992,-0.0005810074323614352,1.5828199334102987e-05,-0.0005101792920910633,-7.221354812394098e-05,-0.00010369622330342228,0.0001998467638123862,-0.001511985348625369,0.0,0.0,0.0,0.0,0.0,0.0,0.0,-0.0001290985471323891,-4.9033175034796095e-05,-2.5600906525674594e-05,-1.2110325327885363e-05,0.00021274032692083708,2.1705627441193087e-05,4.577636940061858e-06,0.0005810074323614352,-1.5828199334102987e-05,0.0005101792920910633,7.221354812394098e-05,0.00010369622330342228,-0.0001998467638123862,0.001511985348625369,0.6568843722343445,47.04787826538086,1.3155181407928467,-21.046785354614258,-0.9689231514930725,-2.3138461112976074,0.29605430364608765,0
48,0.23412799835205078,-0.6806880831718445,-47.07168197631836,-1.3155181407928467,21.074556350708008,0.9515281319618225,2.3202548027038574,-0.30337852239608765,0.0,0.0,0.0,0.0,0.0,0.0,0.0,-0.6188901158948362,-0.27574481313713894,-0.42408342841244845,0.6503731702153328,0.3870598416414539,0.10586954583125702,-0.3307699105755813,0.06239450169132466,0.6884686812016001,-0.07861368666351194,-1.6210271177961115,0.02795653815567493,2.2878088195059036,0.8466329299542639,0.06226373270833701,0.6884179775783729,-0.07863937525950354,-1.6210372792796082,0.028167345702647853,2.2878312372101677,0.8466366937888992,0.000847297343314684,0.00017444623713329122,-0.00018363784103630186,-0.0006695155770795243,0.0004361100480258957,0.00017159584691019475,-0.0013398987160717591,0.0,0.0,0.0,0.0,0.0,0.0,0.0,-0.00013076898298765294,-5.0703623227232875e-05,-2.5688595991599228e-05,-1.0161483496640145e-05,0.00021080754697292217,2.241770426403278e-05,3.7638346352952823e-06,-0.000847297343314684,-0.00017444623713329122,0.00018363784103630186,0.0006695155770795243,-0.0004361100480258957,-0.00017159584691019475,0.0013398987160717591,0.6806880831718445,47.07168197631836,1.3155181407928467,-21.074556350708008,-0.9515281319618225,-2.3202548027038574,0.30337852239608765,0
49,0.23909354209899902,-0.6806880831718445,-47.07168197631836,-1.3155181407928467,21.074556350708008,0.9515281319618225,2.3202548027038574,-0.30337852239608765,0.0,0.0,0.0,0.0,0.0,0.0,0.0,-0.6188901158948362,-0.27574481313713894,-0.42408342841244845,0.6503731702153328,0.3870598416414539,0.10586954583125702,-0.3307699105755813,0.06239450169132466,0.6884686812016001,-0.07861368666351194,-1.6210271177961115,0.02795653815567493,2.2878088195059036,0.8466329299542639,0.06226373270833701,0.6884179775783729,-0.07863937525950354,-1.6210372792796082,0.028167345702647853,2.2878312372101677,0.8466366937888992,0.000847297343314684,0.00017444623713329122,-0.00018363784103630186,-0.0006695155770795243,0.0004361100480258957,0.00017159584691019475,-0.0013398987160717591,0.0,0.0,0.0,0.0,0.0,0.0,0.0,-0.00013076898298765294,-5.0703623227232875e-05,-2.5688595991599228e-05,-1.0161483496640145e-05,0.00021080754697292217,2.241770426403278e-05,3.7638346352952823e-06,-0.000847297343314684,-0.00017444623713329122,0.00018363784103630186,0.0006695155770795243,-0.0004361100480258957,-0.00017159584691019475,0.0013398987160717591,0.6806880831718445,47.07168197631836,1.3155181407928467,-21.074556350708008,-0.9515281319618225,-2.3202548027038574,0.30337852239608765,0
50,0.2440946102142334,-0.6568843722343445,-47.04787826538086,-1.2679107189178467,21.046785354614258,0.9515281319618225,2.3202548027038574,-0.35831016302108765,0.0,0.0,0.0,0.0,0.0,0.0,0.0,-0.6279375089169605,-0.2802777289178949,-0.4312004560251363,0.6521601661502503,0.3868896799017622,0.10610317432339207,-0.33144180809372226,0.0623928312554694,0.6884670107657448,-0.07861773782341104,-1.6210251689542803,0.02795653815567493,2.2878088195059036,0.8466390334698889,0.06226373270833701,0.6884179775783729,-0.07863937525950354,-1.6210372792796082,0.028167345702647853,2.2878312372101677,0.8466366937888992,0.0004932212497697232,-0.0007621596696806922,-0.0010669138819785523,7.326049041108023e-05,0.0005898103808911335,0.00012686367227231714,0.0015862847367085178,0.0,0.0,0.0,0.0,0.0,0.0,0.0,-0.0001290985471323891,-4.903318737192741e-05,-2.163743609250035e-05,-1.2110325327885363e-05,0.00021080754697292217,2.241770426403278e-05,-2.339680989726922e-06,-0.0004932212497697232,0.0007621596696806922,0.0010669138819785523,-7.326049041108023e-05,-0.0005898103808911335,-0.00012686367227231714,-0.0015862847367085178,0.6568843722343445,47.04787826538086,1.2679107189178467,-21.046785354614258,-0.9515281319618225,-2.3202548027038574,0.35831016302108765,0
51,0.24909210205078125,-0.6568843722343445,-47.04787826538086,-1.2679107189178467,21.046785354614258,0.9515281319618225,2.3202548027038574,-0.35831016302108765,0.0,0.0,0.0,0.0,0.0,0.0,0.0,-0.6279375089169605,-0.2802777289178949,-0.4312004560251363,0.6521601661502503,0.3868896799017622,0.10610317432339207,-0.33144180809372226,0.0623928312554694,0.6884670107657448,-0.07861773782341104,-1.6210251689542803,0.02795653815567493,2.2878088195059036,0.8466390334698889,0.06226373270833701,0.6884179775783729,-0.07863937525950354,-1.6210372792796082,0.028167345702647853,2.2878312372101677,0.8466366937888992,0.0004932212497697232,-0.0007621596696806922,-0.0010669138819785523,7.326049041108023e-05,0.0005898103808911335,0.00012686367227231714,0.0015862847367085178,0.0,0.0,0.0,0.0,0.0,0.0,0.0,-0.0001290985471323891,-4.903318737192741e-05,-2.163743609250035e-05,-1.2110325327885363e-05,0.00021080754697292217,2.241770426403278e-05,-2.339680989726922e-06,-0.0004932212497697232,0.0007621596696806922,0.0010669138819785523,-7.326049041108023e-05,-0.0005898103808911335,-0.00012686367227231714,-0.0015862847367085178,0.6568843722343445,47.04787826538086,1.2679107189178467,-21.046785354614258,-0.9515281319618225,-2.3202548027038574,0.35831016302108765,0
52,0.2540922164916992,-0.6291133761405945,-47.04787826538086,-1.2679107189178467,21.074556350708008,0.9634299874305725,2.3394808769226074,-0.34457725286483765,0.0,0.0,0.0,0.0,0.0,0.0,0.0,-0.6322803190795737,-0.26959172623195693,-0.4327431794140585,0.6460265320106682,0.3866402728074435,0.10484275430025707,-0.33153460982206834,0.06239088241363826,0.6884670107657448,-0.07861702753873706,-1.6210271177961115,0.027955215727289515,2.2878066832754347,0.8466375075909827,0.06226373270833701,0.6884179775783729,-0.07863937525950354,-1.6210372792796082,0.028167345702647853,2.2878312372101677,0.8466366937888992,0.0001903380129357696,-0.0005120125385799221,-0.0002876665196147457,-0.0006214964030394171,-0.00011706300696530495,-0.000646672888635385,0.000215831254566875,0.0,0.0,0.0,0.0,0.0,0.0,0.0,-0.00012714970530124797,-4.903318737192741e-05,-2.2347720766480172e-05,-1.0161483496640145e-05,0.00021212997535833764,2.455393473299594e-05,-8.138020834991266e-07,-0.0001903380129357696,0.0005120125385799221,0.0002876665196147457,0.0006214964030394171,0.00011706300696530495,0.000646672888635385,-0.000215831254566875,0.6291133761405945,47.04787826538086,1.2679107189178467,-21.074556350708008,-0.9634299874305725,-2.3394808769226074,0.34457725286483765,0
53,0.25911998748779297,-0.6291133761405945,-47.04787826538086,-1.2679107189178467,21.074556350708008,0.9634299874305725,2.3394808769226074,-0.34457725286483765,0.0,0.0,0.0,0.0,0.0,0.0,0.0,-0.6322803190795737,-0.26959172623195693,-0.4327431794140585,0.6460265320106682,0.3866402728074435,0.10484275430025707,-0.33153460982206834,0.06239088241363826,0.6884670107657448,-0.07861702753873706,-1.6210271177961115,0.027955215727289515,2.2878066832754347,0.8466375075909827,0.06226373270833701,0.6884179775783729,-0.07863937525950354,-1.6210372792796082,0.028167345702647853,2.2878312372101677,0.8466366937888992,0.0001903380129357696,-0.0005120125385799221,-0.0002876665196147457,-0.0006214964030394171,-0.00011706300696530495,-0.000646672888635385,0.000215831254566875,0.0,0.0,0.0,0.0,0.0,0.0,0.0,-0.00012714970530124797,-4.903318737192741e-05,-2.2347720766480172e-05,-1.0161483496640145e-05,0.00021212997535833764,2.455393473299594e-05,-8.138020834991266e-07,-0.0001903380129357696,0.0005120125385799221,0.0002876665196147457,0.0006214964030394171,0.00011706300696530495,0.000646672888635385,-0.000215831254566875,0.6291133761405945,47.04787826538086,1.2679107189178467,-21.074556350708008,-0.9634299874305725,-2.3394808769226074,0.34457725286483765,0
54,0.2641291618347168,-0.6291133761405945,-47.09548568725586,-1.3155181407928467,21.074556350708008,0.9634299874305725,2.3394808769226074,-0.33084434270858765,0.0,0.0,0.0,0.0,0.0,0.0,0.0,-0.6381926450944474,-0.27239108962436753,-0.43682118897143407,0.6467904246203684,0.38655006917014645,0.1051367110052573,-0.3311358622518963,0.06239087949404632,0.6884703426436132,-0.07861439987469922,-1.6210271177961115,0.027955215727289515,2.2878066832754347,0.8466359817120764,0.06226373270833701,0.6884179775783729,-0.07863937525950354,-1.6210372792796082,0.028167345702647853,2.2878312372101677,0.8466366937888992,0.000730662554382302,0.0005542267077993761,0.0002785855353678912,-0.0007600403140510453,4.763728873190084e-05,-0.0003383119395486096,-0.00017299070874546426,0.0,0.0,0.0,0.0,0.0,0.0,0.0,-0.0001271467857093117,-5.2365065240311814e-05,-2.497538480432382e-05,-1.0161483496640145e-05,0.00021212997535833764,2.455393473299594e-05,7.120768227286689e-07,-0.000730662554382302,-0.0005542267077993761,-0.0002785855353678912,0.0007600403140510453,-4.763728873190084e-05,0.0003383119395486096,0.00017299070874546426,0.6291133761405945,47.09548568725586,1.3155181407928467,-21.074556350708008,-0.9634299874305725,-2.3394808769226074,0.33084434270858765,0
55,0.26910972595214844,-0.6291133761405945,-47.09548568725586,-1.3155181407928467,21.074556350708008,0.9634299874305725,2.3394808769226074,-0.33084434270858765,0.0,0.0,0.0,0.0,0.0,0.0,0.0,-0.6381926450944474,-0.27239108962436753,-0.43682118897143407,0.6467904246203684,0.38655006917014645,0.1051367110052573,-0.3311358622518963,0.06239087949404632,0.6884703426436132,-0.07861439987469922,-1.6210271177961115,0.027955215727289515,2.2878066832754347,0.8466359817120764,0.06226373270833701,0.6884179775783729,-0.07863937525950354,-1.6210372792796082,0.028167345702647853,2.2878312372101677,0.8466366937888992,0.000730662554382302,0.0005542267077993761,0.0002785855353678912,-0.0007600403140510453,4.763728873190084e-05,-0.0003383119395486096,-0.00017299070874546426,0.0,0.0,0.0,0.0,0.0,0.0,0.0,-0.0001271467857093117,-5.2365065240311814e-05,-2.497538480432382e-05,-1.0161483496640145e-05,0.00021212997535833764,2.455393473299594e-05,7.120768227286689e-07,-0.000730662554382302,-0.0005542267077993761,-0.0002785855353678912,0.0007600403140510453,-4.763728873190084e-05,0.0003383119395486096,0.00017299070874546426,0.6291133761405945,47.09548568725586,1.3155181407928467,-21.074556350708008,-0.9634299874305725,-2.3394808769226074,0.33084434270858765,0
56,0.27533769607543945,-0.5815059542655945,-47.07168197631836,-1.3155181407928467,21.074556350708008,0.9689231514930725,2.3266634941101074,-0.31711143255233765,0.0,0.0,0.0,0.0,0.0,0.0,0.0,-0.6187122103031663,-0.27340800537509063,-0.4237444396328008,0.6447661080910686,0.38656394667529426,0.10626941657910628,-0.33084307657330986,0.06238754154191125,0.6884684383678114,-0.07861368666704303,-1.6210271177961115,0.027954605375727016,2.2878081074290804,0.8466344558331701,0.06226373270833701,0.6884179775783729,-0.07863937525950354,-1.6210372792796082,0.028167345702647853,2.2878312372101677,0.8466366937888992,-8.01350150607526e-05,-8.995426232090346e-05,0.0012601330242677164,-0.0008803403893467488,-7.38360081841163e-05,-0.00014515123698972306,-0.00013982149188568376,0.0,0.0,0.0,0.0,0.0,0.0,0.0,-0.00012380883357424044,-5.046078943848897e-05,-2.5688592460507143e-05,-1.0161483496640145e-05,0.00021274032692083708,2.312978108731656e-05,2.2379557290674867e-06,8.01350150607526e-05,8.995426232090346e-05,-0.0012601330242677164,0.0008803403893467488,7.38360081841163e-05,0.00014515123698972306,0.00013982149188568376,0.5815059542655945,47.07168197631836,1.3155181407928467,-21.074556350708008,-0.9689231514930725,-2.3266634941101074,0.31711143255233765,0
57,0.2790992259979248,-0.5815059542655945,-47.07168197631836,-1.3155181407928467,21.074556350708008,0.9689231514930725,2.3266634941101074,-0.31711143255233765,0.0,0.0,0.0,0.0,0.0,0.0,0.0,-0.6187122103031663,-0.27340800537509063,-0.4237444396328008,0.6447661080910686,0.38656394667529426,0.10626941657910628,-0.33084307657330986,0.06238754154191125,0.6884684383678114,-0.07861368666704303,-1.6210271177961115,0.027954605375727016,2.2878081074290804,0.8466344558331701,0.06226373270833701,0.6884179775783729,-0.07863937525950354,-1.6210372792796082,0.028167345702647853,2.2878312372101677,0.8466366937888992,-8.01350150607526e-05,-8.995426232090346e-05,0.0012601330242677164,-0.0008803403893467488,-7.38360081841163e-05,-0.00014515123698972306,-0.00013982149188568376,0.0,0.0,0.0,0.0,0.0,0.0,0.0,-0.00012380883357424044,-5.046078943848897e-05,-2.5688592460507143e-05,-1.0161483496640145e-05,0.00021274032692083708,2.312978108731656e-05,2.2379557290674867e-06,8.01350150607526e-05,8.995426232090346e-05,-0.0012601330242677164,0.0008803403893467488,7.38360081841163e-05,0.00014515123698972306,0.00013982149188568376,0.5815059542655945,47.07168197631836,1.3155181407928467,-21.074556350708008,-0.9689231514930725,-2.3266634941101074,0.31711143255233765,0
58,0.2842400074005127,-0.6053096652030945,-47.07168197631836,-1.2401397228240967,21.046785354614258,0.9689231514930725,2.3266634941101074,-0.33725303411483765,0.0,0.0,0.0,0.0,0.0,0.0,0.0,-0.6344840973817224,-0.2765710903996569,-0.43767556161497756,0.6467008695571057,0.3870419753700067,0.10632260019760269,-0.3297056400802175,0.06238921197778299,0.6884686812002293,-0.07861905529752347,-1.6210251689542803,0.0279546058627042,2.2878081074290804,0.8466366937888993,0.06226373270833701,0.6884179775783729,-0.07863937525950354,-1.6210372792796082,0.028167345702647853,2.2878312372101677,0.8466366937888992,7.542550881031778e-05,0.0002723290031826534,-0.001378319555356366,0.00030414748694591615,-0.0002367269962938656,-4.053648314953326e-05,0.00010852831862734642,0.0,0.0,0.0,0.0,0.0,0.0,0.0,-0.00012547926944598414,-5.0703621856440506e-05,-2.03199619800698e-05,-1.2110325327885363e-05,0.0002127398399436528,2.312978108731656e-05,-1.1102230246251565e-16,-7.542550881031778e-05,-0.0002723290031826534,0.001378319555356366,-0.00030414748694591615,0.0002367269962938656,4.053648314953326e-05,-0.00010852831862734642,0.6053096652030945,47.07168197631836,1.2401397228240967,-21.046785354614258,-0.9689231514930725,-2.3266634941101074,0.33725303411483765,0
59,0.2890949249267578,-0.6053096652030945,-47.07168197631836,-1.2401397228240967,21.046785354614258,0.9689231514930725,2.3266634941101074,-0.33725303411483765,0.0,0.0,0.0,0.0,0.0,0.0,0.0,-0.6344840973817224,-0.2765710903996569,-0.43767556161497756,0.6467008695571057,0.3870419753700067,0.10632260019760269,-0.3297056400802175,0.06238921197778299,0.6884686812002293,-0.07861905529752347,-1.6210251689542803,0.0279546058627042,2.2878081074290804,0.8466366937888993,0.06226373270833701,0.6884179775783729,-0.07863937525950354,-1.6210372792796082,0.028167345702647853,2.2878312372101677,0.8466366937888992,7.542550881031778e-05,0.0002723290031826534,-0.001378319555356366,0.00030414748694591615,-0.0002367269962938656,-4.053648314953326e-05,0.00010852831862734642,0.0,0.0,0.0,0.0,0.0,0.0,0.0,-0.00012547926944598414,-5.0703621856440506e-05,-2.03199619800698e-05,-1.2110325327885363e-05,0.0002127398399436528,2.312978108731656e-05,-1.1102230246251565e-16,-7.542550881031778e-05,-0.0002723290031826534,0.001378319555356366,-0.00030414748694591615,0.0002367269962938656,4.053648314953326e-05,-0.00010852831862734642,0.6053096652030945,47.07168197631836,1.2401397228240967,-21.046785354614258,-0.9689231514930725,-2.3266634941101074,0.33725303411483765,0
60,0.29410862922668457,-0.5815059542655945,-47.04787826538086,-1.2679107189178467,21.022981643676758,0.9753318428993225,2.3202548027038574,-0.32352012395858765,0.0,0.0,0.0,0.0,0.0,0.0,0.0,-0.6140593423387474,-0.2672204126692584,-0.42204583027582326,0.6443224544225833,0.38705321779001156,0.10605732931789351,-0.329798212300204,0.06238754154192773,0.6884648242627873,-0.07861986868990727,-1.621023498518425,0.027953893298906844,2.287809879144033,0.846635167909993,0.06226373270833701,0.6884179775783729,-0.07863937525950354,-1.6210372792796082,0.028167345702647853,2.2878312372101677,0.8466366937888992,-0.0004541562135044915,-0.00017852341495470958,-6.652804520995803e-05,0.0008383365654937402,-0.00037644263570722953,0.00017743901611643723,-0.0002833345048948469,0.0,0.0,0.0,0.0,0.0,0.0,0.0,-0.0001238088335907203,-4.684668441445883e-05,-1.950656959627539e-05,-1.3780761183079804e-05,0.00021345240374100877,2.1358066134791187e-05,1.5258789061167732e-06,0.0004541562135044915,0.00017852341495470958,6.652804520995803e-05,-0.0008383365654937402,0.00037644263570722953,-0.00017743901611643723,0.0002833345048948469,0.5815059542655945,47.04787826538086,1.2679107189178467,-21.022981643676758,-0.9753318428993225,-2.3202548027038574,0.32352012395858765,0
61,0.29911112785339355,-0.5815059542655945,-47.04787826538086,-1.2679107189178467,21.022981643676758,0.9753318428993225,2.3202548027038574,-0.32352012395858765,0.0,0.0,0.0,0.0,0.0,0.0,0.0,-0.6140593423387474,-0.2672204126692584,-0.42204583027582326,0.6443224544225833,0.38705321779001156,0.10605732931789351,-0.329798212300204,0.06238754154192773,0.6884648242627873,-0.07861986868990727,-1.621023498518425,0.027953893298906844,2.287809879144033,0.846635167909993,0.06226373270833701,0.6884179775783729,-0.07863937525950354,-1.6210372792796082,0.028167345702647853,2.2878312372101677,0.8466366937888992,-0.0004541562135044915,-0.00017852341495470958,-6.652804520995803e-05,0.0008383365654937402,-0.00037644263570722953,0.00017743901611643723,-0.0002833345048948469,0.0,0.0,0.0,0.0,0.0,0.0,0.0,-0.0001238088335907203,-4.684668441445883e-05,-1.950656959627539e-05,-1.3780761183079804e-05,0.00021345240374100877,2.1358066134791187e-05,1.5258789061167732e-06,0.0004541562135044915,0.00017852341495470958,6.652804520995803e-05,-0.0008383365654937402,0.00037644263570722953,-0.00017743901611643723,0.0002833345048948469,0.5815059542655945,47.04787826538086,1.2679107189178467,-21.022981643676758,-0.9753318428993225,-2.3202548027038574,0.32352012395858765,0
62,0.30411577224731445,-0.5815059542655945,-47.04787826538086,-1.2679107189178467,21.022981643676758,0.9753318428993225,2.3202548027038574,-0.32352012395858765,0.0,0.0,0.0,0.0,0.0,0.0,0.0,-0.6140593423387474,-0.2672204126692584,-0.42204583027582326,0.6443224544225833,0.38705321779001156,0.10605732931789351,-0.329798212300204,0.06238754154192773,0.6884648242627873,-0.07861986868990727,-1.621023498518425,0.027953893298906844,2.287809879144033,0.846635167909993,0.06226373270833701,0.6884179775783729,-0.07863937525950354,-1.6210372792796082,0.028167345702647853,2.2878312372101677,0.8466366937888992,-0.0004541562135044915,-0.00017852341495470958,-6.652804520995803e-05,0.0008383365654937402,-0.00037644263570722953,0.00017743901611643723,-0.0002833345048948469,0.0,0.0,0.0,0.0,0.0,0.0,0.0,-0.0001238088335907203,-4.684668441445883e-05,-1.950656959627539e-05,-1.3780761183079804e-05,0.00021345240374100877,2.1358066134791187e-05,1.5258789061167732e-06,0.0004541562135044915,0.00017852341495470958,6.652804520995803e-05,-0.0008383365654937402,0.00037644263570722953,-0.00017743901611643723,0.0002833345048948469,0.5815059542655945,47.04787826538086,1.2679107189178467,-21.022981643676758,-0.9753318428993225,-2.3202548027038574,0.32352012395858765,0
63,0.3091156482696533,-0.5815059542655945,-47.04787826538086,-1.2679107189178467,21.022981643676758,0.9753318428993225,2.3202548027038574,-0.32352012395858765,0.0,0.0,0.0,0.0,0.0,0.0,0.0,-0.6140593423387474,-0.2672204126692584,-0.42204583027582326,0.6443224544225833,0.38705321779001156,0.10605732931789351,-0.329798212300204,0.06238754154192773,0.6884648242627873,-0.07861986868990727,-1.621023498518425,0.027953893298906844,2.287809879144033,0.846635167909993,0.06226373270833701,0.6884179775783729,-0.07863937525950354,-1.6210372792796082,0.028167345702647853,2.2878312372101677,0.8466366937888992,-0.0004541562135044915,-0.00017852341495470958,-6.652804520995803e-05,0.0008383365654937402,-0.00037644263570722953,0.00017743901611643723,-0.0002833345048948469,0.0,0.0,0.0,0.0,0.0,0.0,0.0,-0.0001238088335907203,-4.684668441445883e-05,-1.950656959627539e-05,-1.3780761183079804e-05,0.00021345240374100877,2.1358066134791187e-05,1.5258789061167732e-06,0.0004541562135044915,0.00017852341495470958,6.652804520995803e-05,-0.0008383365654937402,0.00037644263570722953,-0.00017743901611643723,0.0002833345048948469,0.5815059542655945,47.04787826538086,1.2679107189178467,-21.022981643676758,-0.9753318428993225,-2.3202548027038574,0.32352012395858765,0
64,0.31410741806030273,-0.6291133761405945,-47.04787826538086,-1.2917144298553467,21.098360061645508,0.9570212960243225,2.3202548027038574,-0.31711143255233765,0.0,0.0,0.0,0.0,0.0,0.0,0.0,-0.6203395265116342,-0.27363033834683276,-0.4258940745735823,0.6489712981522116,0.38724019914033264,0.10599617996234159,-0.32931475212538847,0.06239088241363826,0.6884670107616305,-0.07861535710421834,-1.6210287882319667,0.02795592780411243,2.2878088195078976,0.846631276918782,0.06226373270833701,0.6884179775783729,-0.07863937525950354,-1.6210372792796082,0.028167345702647853,2.2878312372101677,0.8466366937888992,0.0003080147419131219,-0.0002585017960369982,-0.00010286541992077046,-0.0012350868826224745,0.00031396750727880946,-5.162806838386024e-05,-0.00016872601734897302,0.0,0.0,0.0,0.0,0.0,0.0,0.0,-0.00012714970530124797,-4.903318325766293e-05,-2.4018155285202014e-05,-8.491047641445704e-06,0.00021141789853542162,2.2417702270072226e-05,5.4168701171253275e-06,-0.0003080147419131219,0.0002585017960369982,0.00010286541992077046,0.0012350868826224745,-0.00031396750727880946,5.162806838386024e-05,0.00016872601734897302,0.6291133761405945,47.04787826538086,1.2917144298553467,-21.098360061645508,-0.9570212960243225,-2.3202548027038574,0.31711143255233765,0
65,0.319110631942749,-0.6291133761405945,-47.04787826538086,-1.2917144298553467,21.098360061645508,0.9570212960243225,2.3202548027038574,-0.31711143255233765,0.0,0.0,0.0,0.0,0.0,0.0,0.0,-0.6203395265116342,-0.27363033834683276,-0.4258940745735823,0.6489712981522116,0.38724019914033264,0.10599617996234159,-0.32931475212538847,0.06239088241363826,0.6884670107616305,-0.07861535710421834,-1.6210287882319667,0.02795592780411243,2.2878088195078976,0.846631276918782,0.06226373270833701,0.6884179775783729,-0.07863937525950354,-1.6210372792796082,0.028167345702647853,2.2878312372101677,0.8466366937888992,0.0003080147419131219,-0.0002585017960369982,-0.00010286541992077046,-0.0012350868826224745,0.00031396750727880946,-5.162806838386024e-05,-0.00016872601734897302,0.0,0.0,0.0,0.0,0.0,0.0,0.0,-0.00012714970530124797,-4.903318325766293e-05,-2.4018155285202014e-05,-8.491047641445704e-06,0.00021141789853542162,2.2417702270072226e-05,5.4168701171253275e-06,-0.0003080147419131219,0.0002585017960369982,0.00010286541992077046,0.0012350868826224745,-0.00031396750727880946,5.162806838386024e-05,0.00016872601734897302,0.6291133761405945,47.04787826538086,1.2917144298553467,-21.098360061645508,-0.9570212960243225,-2.3202548027038574,0.31711143255233765,0
66,0.3241078853607178,-0.6291133761405945,-46.99630355834961,-1.3155181407928467,21.074556350708008,0.9689231514930725,2.3330721855163574,-0.35831016302108765,0.0,0.0,0.0,0.0,0.0,0.0,0.0,-0.6216089771835633,-0.2717453856128454,-0.42566407266538275,0.649621409289322,0.3871975217572067,0.10514958774792882,-0.32813185114573756,0.06239088241363826,0.6884633913770234,-0.07861368667504574,-1.6210271177961115,0.027954605375727016,2.2878073953522575,0.8466390334639072,0.06226373270833701,0.6884179775783729,-0.07863937525950354,-1.6210372792796082,0.028167345702647853,2.2878312372101677,0.8466366937888992,-0.00043296091336407884,-0.0013019458102690549,0.0005649364467809008,-0.0007707038674823935,-4.642440862159549e-05,-0.00024392038796919262,0.001259509484168341,0.0,0.0,0.0,0.0,0.0,0.0,0.0,-0.00012714970530124797,-4.541379865052875e-05,-2.5688584457797536e-05,-1.0161483496640145e-05,0.00021274032692083708,2.384185791015625e-05,-2.33967500806731e-06,0.00043296091336407884,0.0013019458102690549,-0.0005649364467809008,0.0007707038674823935,4.642440862159549e-05,0.00024392038796919262,-0.001259509484168341,0.6291133761405945,46.99630355834961,1.3155181407928467,-21.074556350708008,-0.9689231514930725,-2.3330721855163574,0.35831016302108765,0
67,0.3293623924255371,-0.6291133761405945,-46.99630355834961,-1.3155181407928467,21.074556350708008,0.9689231514930725,2.3330721855163574,-0.35831016302108765,0.0,0.0,0.0,0.0,0.0,0.0,0.0,-0.6216089771835633,-0.2717453856128454,-0.42566407266538275,0.649621409289322,0.3871975217572067,0.10514958774792882,-0.32813185114573756,0.06239088241363826,0.6884633913770234,-0.07861368667504574,-1.6210271177961115,0.027954605375727016,2.2878073953522575,0.8466390334639072,0.06226373270833701,0.6884179775783729,-0.07863937525950354,-1.6210372792796082,0.028167345702647853,2.2878312372101677,0.8466366937888992,-0.00043296091336407884,-0.0013019458102690549,0.0005649364467809008,-0.0007707038674823935,-4.642440862159549e-05,-0.00024392038796919262,0.001259509484168341,0.0,0.0,0.0,0.0,0.0,0.0,0.0,-0.00012714970530124797,-4.541379865052875e-05,-2.5688584457797536e-05,-1.0161483496640145e-05,0.00021274032692083708,2.384185791015625e-05,-2.33967500806731e-06,0.00043296091336407884,0.0013019458102690549,-0.0005649364467809008,0.0007707038674823935,4.642440862159549e-05,0.00024392038796919262,-0.001259509484168341,0.6291133761405945,46.99630355834961,1.3155181407928467,-21.074556350708008,-0.9689231514930725,-2.3330721855163574,0.35831016302108765,0
68,0.3341062068939209,-0.6806880831718445,-47.04787826538086,-1.3908965587615967,21.022981643676758,0.9634299874305725,2.3266634941101074,-0.28964561223983765,0.0,0.0,0.0,0.0,0.0,0.0,0.0,-0.6385603704268193,-0.26457792545545816,-0.43850898277193273,0.645941422329395,0.3877234986111059,0.10498332444953536,-0.3275735650914139,0.06239450169132466,0.6884670107657442,-0.07861055412251435,-1.621023498518425,0.027955215727289515,2.2878081074290804,0.8466314040753576,0.06226373270833701,0.6884179775783729,-0.07863937525950354,-1.6210372792796082,0.028167345702647853,2.2878312372101677,0.8466366937888992,0.0006714264249962198,-2.5955650844027897e-05,0.0013610782252136459,0.0003101581155875276,6.184664827385149e-05,-0.0002176887186729011,-0.00196218787489972,0.0,0.0,0.0,0.0,0.0,0.0,0.0,-0.00013076898298765294,-4.90331873713723e-05,-2.8821136989196083e-05,-1.3780761183079804e-05,0.00021212997535833764,2.312978108731656e-05,5.289713541523078e-06,-0.0006714264249962198,2.5955650844027897e-05,-0.0013610782252136459,-0.0003101581155875276,-6.184664827385149e-05,0.0002176887186729011,0.00196218787489972,0.6806880831718445,47.04787826538086,1.3908965587615967,-21.022981643676758,-0.9634299874305725,-2.3266634941101074,0.28964561223983765,0
69,0.33911752700805664,-0.6806880831718445,-47.04787826538086,-1.3908965587615967,21.022981643676758,0.9634299874305725,2.3266634941101074,-0.28964561223983765,0.0,0.0,0.0,0.0,0.0,0.0,0.0,-0.6385603704268193,-0.26457792545545816,-0.43850898277193273,0.645941422329395,0.3877234986111059,0.10498332444953536,-0.3275735650914139,0.06239450169132466,0.6884670107657442,-0.07861055412251435,-1.621023498518425,0.027955215727289515,2.2878081074290804,0.8466314040753576,0.06226373270833701,0.6884179775783729,-0.07863937525950354,-1.6210372792796082,0.028167345702647853,2.2878312372101677,0.8466366937888992,0.0006714264249962198,-2.5955650844027897e-05,0.0013610782252136459,0.0003101581155875276,6.184664827385149e-05,-0.0002176887186729011,-0.00196218787489972,0.0,0.0,0.0,0.0,0.0,0.0,0.0,-0.00013076898298765294,-4.90331873713723e-05,-2.8821136989196083e-05,-1.3780761183079804e-05,0.00021212997535833764,2.312978108731656e-05,5.289713541523078e-06,-0.0006714264249962198,2.5955650844027897e-05,-0.0013610782252136459,-0.0003101581155875276,-6.184664827385149e-05,0.0002176887186729011,0.00196218787489972,0.6806880831718445,47.04787826538086,1.3908965587615967,-21.022981643676758,-0.9634299874305725,-2.3266634941101074,0.28964561223983765,0
70,0.3441007137298584,-0.6568843722343445,-47.09548568725586,-1.3155181407928467,21.046785354614258,0.9689231514930725,2.3394808769226074,-0.30978721380233765,0.0,0.0,0.0,0.0,0.0,0.0,0.0,-0.6315063805398444,-0.27984985671345775,-0.43494912362713667,0.6515656043510286,0.3873768333178084,0.1060367836115681,-0.32762947692907196,0.0623928312554694,0.6884703516374553,-0.07861368667519424,-1.6210251689542803,0.027954605375727016,2.2878066832754347,0.8466336420310868,0.06226373270833701,0.6884179775783729,-0.07863937525950354,-1.6210372792796082,0.028167345702647853,2.2878312372101677,0.8466366937888992,-0.00018011415751816796,0.0007128367697621651,-0.00013158097145075568,0.0001577936774530154,-0.00018722350939480906,-0.0005511406887771199,-0.0009813872013681485,0.0,0.0,0.0,0.0,0.0,0.0,0.0,-0.0001290985471323891,-5.2374059082427316e-05,-2.5688584309305207e-05,-1.2110325327885363e-05,0.00021274032692083708,2.455393473299594e-05,3.0517578123445688e-06,0.00018011415751816796,-0.0007128367697621651,0.00013158097145075568,-0.0001577936774530154,0.00018722350939480906,0.0005511406887771199,0.0009813872013681485,0.6568843722343445,47.09548568725586,1.3155181407928467,-21.046785354614258,-0.9689231514930725,-2.3394808769226074,0.30978721380233765,0
71,0.34911322593688965,-0.6568843722343445,-47.09548568725586,-1.3155181407928467,21.046785354614258,0.9689231514930725,2.3394808769226074,-0.30978721380233765,0.0,0.0,0.0,0.0,0.0,0.0,0.0,-0.6315063805398444,-0.27984985671345775,-0.43494912362713667,0.6515656043510286,0.3873768333178084,0.1060367836115681,-0.32762947692907196,0.0623928312554694,0.6884703516374553,-0.07861368667519424,-1.6210251689542803,0.027954605375727016,2.2878066832754347,0.8466336420310868,0.06226373270833701,0.6884179775783729,-0.07863937525950354,-1.6210372792796082,0.028167345702647853,2.2878312372101677,0.8466366937888992,-0.00018011415751816796,0.0007128367697621651,-0.00013158097145075568,0.0001577936774530154,-0.00018722350939480906,-0.0005511406887771199,-0.0009813872013681485,0.0,0.0,0.0,0.0,0.0,0.0,0.0,-0.0001290985471323891,-5.2374059082427316e-05,-2.5688584309305207e-05,-1.2110325327885363e-05,0.00021274032692083708,2.455393473299594e-05,3.0517578123445688e-06,0.00018011415751816796,-0.0007128367697621651,0.00013158097145075568,-0.0001577936774530154,0.00018722350939480906,0.0005511406887771199,0.0009813872013681485,0.6568843722343445,47.09548568725586,1.3155181407928467,-21.046785354614258,-0.9689231514930725,-2.3394808769226074,0.30978721380233765,0
72,0.35411787033081055,-0.6291133761405945,-47.07168197631836,-1.3155181407928467,21.046785354614258,0.9689231514930725,2.3394808769226074,-0.32352012395858765,0.0,0.0,0.0,0.0,0.0,0.0,0.0,-0.6163271240263893,-0.2757992013838383,-0.4221350286604275,0.6485695898412709,0.3869495198410644,0.10690958455685765,-0.3288493132583919,0.06239088241363826,0.6884686812016001,-0.07861439695170058,-1.6210251689542803,0.027954605375727016,2.2878066832754347,0.846635167909993,0.06226373270833701,0.6884179775783729,-0.07863937525950354,-1.6210372792796082,0.028167345702647853,2.2878312372101677,0.8466366937888992,-4.2669128586009015e-05,3.5539983773136155e-05,0.0006836001155563959,0.00042306913913129376,-0.0002593744099024571,-0.00015299010565519576,-0.0005016647275777431,0.0,0.0,0.0,0.0,0.0,0.0,0.0,-0.00012714970530124797,-5.0703623227232875e-05,-2.497830780295862e-05,-1.2110325327885363e-05,0.00021274032692083708,2.455393473299594e-05,1.5258789061167732e-06,4.2669128586009015e-05,-3.5539983773136155e-05,-0.0006836001155563959,-0.00042306913913129376,0.0002593744099024571,0.00015299010565519576,0.0005016647275777431,0.6291133761405945,47.07168197631836,1.3155181407928467,-21.046785354614258,-0.9689231514930725,-2.3394808769226074,0.32352012395858765,0
73,0.35910964012145996,-0.6291133761405945,-47.07168197631836,-1.3155181407928467,21.046785354614258,0.9689231514930725,2.3394808769226074,-0.32352012395858765,0.0,0.0,0.0,0.0,0.0,0.0,0.0,-0.6163271240263893,-0.2757992013838383,-0.4221350286604275,0.6485695898412709,0.3869495198410644,0.10690958455685765,-0.3288493132583919,0.06239088241363826,0.6884686812016001,-0.07861439695170058,-1.6210251689542803,0.027954605375727016,2.2878066832754347,0.846635167909993,0.06226373270833701,0.6884179775783729,-0.07863937525950354,-1.6210372792796082,0.028167345702647853,2.2878312372101677,0.8466366937888992,-4.2669128586009015e-05,3.5539983773136155e-05,0.0006836001155563959,0.00042306913913129376,-0.0002593744099024571,-0.00015299010565519576,-0.0005016647275777431,0.0,0.0,0.0,0.0,0.0,0.0,0.0,-0.00012714970530124797,-5.0703623227232875e-05,-2.497830780295862e-05,-1.2110325327885363e-05,0.00021274032692083708,2.455393473299594e-05,1.5258789061167732e-06,4.2669128586009015e-05,-3.5539983773136155e-05,-0.0006836001155563959,-0.00042306913913129376,0.0002593744099024571,0.00015299010565519576,0.0005016647275777431,0.6291133761405945,47.07168197631836,1.3155181407928467,-21.046785354614258,-0.9689231514930725,-2.3394808769226074,0.32352012395858765,0
74,0.36409449577331543,-0.6053096652030945,-47.07168197631836,-1.3393218517303467,21.074556350708008,0.9634299874305725,2.3202548027038574,-0.32352012395858765,0.0,0.0,0.0,0.0,0.0,0.0,0.0,-0.6460506101161007,-0.2738954998296689,-0.4435034186983203,0.6450506096171056,0.3879195462384739,0.10694380387657094,-0.3287104248055609,0.06238921197778299,0.688468681090565,-0.07861201623117127,-1.6210271177961115,0.027955215727289515,2.2878088195059036,0.846635167909993,0.06226373270833701,0.6884179775783729,-0.07863937525950354,-1.6210372792796082,0.028167345702647853,2.2878312372101677,0.8466366937888992,-0.000718824312867873,-0.0001613926453944642,0.0007898104633726823,-0.00024724854915375745,-0.0016278369379795204,-0.00016031351242674734,-0.0005412833597347004,0.0,0.0,0.0,0.0,0.0,0.0,0.0,-0.00012547926944598414,-5.070351219216285e-05,-2.7359028332271662e-05,-1.0161483496640145e-05,0.00021212997535833764,2.241770426403278e-05,1.5258789061167732e-06,0.000718824312867873,0.0001613926453944642,-0.0007898104633726823,0.00024724854915375745,0.0016278369379795204,0.00016031351242674734,0.0005412833597347004,0.6053096652030945,47.07168197631836,1.3393218517303467,-21.074556350708008,-0.9634299874305725,-2.3202548027038574,0.32352012395858765,0
75,0.3691062927246094,-0.6053096652030945,-47.07168197631836,-1.3393218517303467,21.074556350708008,0.9634299874305725,2.3202548027038574,-0.32352012395858765,0.0,0.0,0.0,0.0,0.0,0.0,0.0,-0.6460506101161007,-0.2738954998296689,-0.4435034186983203,0.6450506096171056,0.3879195462384739,0.10694380387657094,-0.3287104248055609,0.06238921197778299,0.688468681090565,-0.07861201623117127,-1.6210271177961115,0.027955215727289515,2.2878088195059036,0.846635167909993,0.06226373270833701,0.6884179775783729,-0.07863937525950354,-1.6210372792796082,0.028167345702647853,2.2878312372101677,0.8466366937888992,-0.000718824312867873,-0.0001613926453944642,0.0007898104633726823,-0.00024724854915375745,-0.0016278369379795204,-0.00016031351242674734,-0.0005412833597347004,0.0,0.0,0.0,0.0,0.0,0.0,0.0,-0.00012547926944598414,-5.070351219216285e-05,-2.7359028332271662e-05,-1.0161483496640145e-05,0.00021212997535833764,2.241770426403278e-05,1.5258789061167732e-06,0.000718824312867873,0.0001613926453944642,-0.0007898104633726823,0.00024724854915375745,0.0016278369379795204,0.00016031351242674734,0.0005412833597347004,0.6053096652030945,47.07168197631836,1.3393218517303467,-21.074556350708008,-0.9634299874305725,-2.3202548027038574,0.32352012395858765,0
76,0.374112606048584,-0.5815059542655945,-47.07168197631836,-1.2401397228240967,21.074556350708008,0.9570212960243225,2.3330721855163574,-0.30337852239608765,0.0,0.0,0.0,0.0,0.0,0.0,0.0,-0.6278733461346018,-0.27747790202954714,-0.4324458683837355,0.6472875829373775,0.38665914652428074,0.1062814129296403,-0.32906011726814466,0.06238754154192773,0.6884678627619641,-0.07861897680959548,-1.6210271177961115,0.027959124484682366,2.2878077485649673,0.8466297510398758,0.06226373270833701,0.6884179775783729,-0.07863937525950354,-1.6210372792796082,0.028167345702647853,2.2878312372101677,0.8466366937888992,-0.0007420604209969432,-8.857158081656821e-05,-0.001409094458390598,-0.0003835196466881046,0.0003104370646360599,-0.00026408619829895264,-0.001144472187487106,0.0,0.0,0.0,0.0,0.0,0.0,0.0,-0.0001238088335907203,-4.988518359128058e-05,-2.0398449908060057e-05,-1.0161483496640145e-05,0.00020822121796548743,2.3488645200409053e-05,6.942749023353123e-06,0.0007420604209969432,8.857158081656821e-05,0.001409094458390598,0.0003835196466881046,-0.0003104370646360599,0.00026408619829895264,0.001144472187487106,0.5815059542655945,47.07168197631836,1.2401397228240967,-21.074556350708008,-0.9570212960243225,-2.3330721855163574,0.30337852239608765,0
77,0.37909674644470215,-0.5815059542655945,-47.07168197631836,-1.2401397228240967,21.074556350708008,0.9570212960243225,2.3330721855163574,-0.30337852239608765,0.0,0.0,0.0,0.0,0.0,0.0,0.0,-0.6278733461346018,-0.27747790202954714,-0.4324458683837355,0.6472875829373775,0.38665914652428074,0.1062814129296403,-0.32906011726814466,0.06238754154192773,0.6884678627619641,-0.07861897680959548,-1.6210271177961115,0.027959124484682366,2.2878077485649673,0.8466297510398758,0.06226373270833701,0.6884179775783729,-0.07863937525950354,-1.6210372792796082,0.028167345702647853,2.2878312372101677,0.8466366937888992,-0.0007420604209969432,-8.857158081656821e-05,-0.001409094458390598,-0.0003835196466881046,0.0003104370646360599,-0.00026408619829895264,-0.001144472187487106,0.0,0.0,0.0,0.0,0.0,0.0,0.0,-0.0001238088335907203,-4.988518359128058e-05,-2.0398449908060057e-05,-1.0161483496640145e-05,0.00020822121796548743,2.3488645200409053e-05,6.942749023353123e-06,0.0007420604209969432,8.857158081656821e-05,0.001409094458390598,0.0003835196466881046,-0.0003104370646360599,0.00026408619829895264,0.001144472187487106,0.5815059542655945,47.07168197631836,1.2401397228240967,-21.074556350708008,-0.9570212960243225,-2.3330721855163574,0.30337852239608765,0
78,0.38411474227905273,-0.6053096652030945,-47.07168197631836,-1.2917144298553467,21.046785354614258,0.9570212960243225,2.3202548027038574,-0.32352012395858765,0.0,0.0,0.0,0.0,0.0,0.0,0.0,-0.634075815416307,-0.2802676274139447,-0.4384521929118531,0.6456979969460582,0.3871000820202919,0.1070337331380585,-0.32936313741165324,0.06238921197778299,0.6884664956933383,-0.07861535709887464,-1.6210251689542803,0.027956041773115763,2.2878088195078976,0.846635167892048,0.06226373270833701,0.6884179775783729,-0.07863937525950354,-1.6210372792796082,0.028167345702647853,2.2878312372101677,0.8466366937888992,-0.0004057090765669733,-7.452817202260635e-05,2.098173084003434e-05,3.334762329404661e-05,0.0002518298151101183,0.0002829320796237753,-0.0004134102297507782,0.0,0.0,0.0,0.0,0.0,0.0,0.0,-0.00012547926944598414,-4.8518114965423464e-05,-2.401816062889972e-05,-1.2110325327885363e-05,0.00021130392953208968,2.2417702270072226e-05,1.5258968512066318e-06,0.0004057090765669733,7.452817202260635e-05,-2.098173084003434e-05,-3.334762329404661e-05,-0.0002518298151101183,-0.0002829320796237753,0.0004134102297507782,0.6053096652030945,47.07168197631836,1.2917144298553467,-21.046785354614258,-0.9570212960243225,-2.3202548027038574,0.32352012395858765,0
79,0.38910984992980957,-0.6053096652030945,-47.07168197631836,-1.2917144298553467,21.046785354614258,0.9570212960243225,2.3202548027038574,-0.32352012395858765,0.0,0.0,0.0,0.0,0.0,0.0,0.0,-0.634075815416307,-0.2802676274139447,-0.4384521929118531,0.6456979969460582,0.3871000820202919,0.1070337331380585,-0.32936313741165324,0.06238921197778299,0.6884664956933383,-0.07861535709887464,-1.6210251689542803,0.027956041773115763,2.2878088195078976,0.846635167892048,0.06226373270833701,0.6884179775783729,-0.07863937525950354,-1.6210372792796082,0.028167345702647853,2.2878312372101677,0.8466366937888992,-0.0004057090765669733,-7.452817202260635e-05,2.098173084003434e-05,3.334762329404661e-05,0.0002518298151101183,0.0002829320796237753,-0.0004134102297507782,0.0,0.0,0.0,0.0,0.0,0.0,0.0,-0.00012547926944598414,-4.8518114965423464e-05,-2.401816062889972e-05,-1.2110325327885363e-05,0.00021130392953208968,2.2417702270072226e-05,1.5258968512066318e-06,0.0004057090765669733,7.452817202260635e-05,-2.098173084003434e-05,-3.334762329404661e-05,-0.0002518298151101183,-0.0002829320796237753,0.0004134102297507782,0.6053096652030945,47.07168197631836,1.2917144298553467,-21.046785354614258,-0.9570212960243225,-2.3202548027038574,0.32352012395858765,0
