rezayati/contactInterpretation/dataset/franka_main/labeled_data/link6/b9_3.csv
index,time,tau_J0,tau_J1,tau_J2,tau_J3,tau_J4,tau_J5,tau_J6,tau_J_d0,tau_J_d1,tau_J_d2,tau_J_d3,tau_J_d4,tau_J_d5,tau_J_d6,tau_ext0,tau_ext1,tau_ext2,tau_ext3,tau_ext4,tau_ext5,tau_ext6,q0,q1,q2,q3,q4,q5,q6,q_d0,q_d1,q_d2,q_d3,q_d4,q_d5,q_d6,dq0,dq1,dq2,dq3,dq4,dq5,dq6,dq_d0,dq_d1,dq_d2,dq_d3,dq_d4,dq_d5,dq_d6,e0,e1,e2,e3,e4,e5,e6,de0,de1,de2,de3,de4,de5,de6,etau_J0,etau_J1,etau_J2,etau_J3,etau_J4,etau_J5,etau_J6,label
1,0.0,-0.6568843722343445,-34.06295394897461,-4.096584796905518,19.336885452270508,0.2667136788368225,1.796573281288147,-0.13217489421367645,0.0,0.0,0.0,0.0,0.0,0.0,0.0,-0.6561205200316048,0.04073078115140704,-0.4852925334735417,0.27838542507054664,0.22315567894324356,-0.11333578168178039,-0.10454534496690737,1.0547436107292343,0.32376259371272303,-0.3923572833579883,-2.1531454475846603,0.8646274095595206,2.4659381490563166,0.5444916129106264,1.0544104758940245,0.3238615046091247,-0.39250456234122666,-2.153291787532338,0.8647539153680389,2.46587817577521,0.5445020185570556,-0.0010044784723138133,0.0005095499506520051,0.00022173255022988074,-0.0004424508215323425,0.0002318066400590167,5.5904481479350856e-06,0.001215089180383084,0.0,0.0,0.0,0.0,0.0,0.0,0.0,-0.0003331348352098029,9.891089640168271e-05,-0.00014727898323835253,-0.00014633994767754288,0.00012650580851836235,-5.997328110662892e-05,1.0405646429179072e-05,0.0010044784723138133,-0.0005095499506520051,-0.00022173255022988074,0.0004424508215323425,-0.0002318066400590167,-5.5904481479350856e-06,-0.001215089180383084,0.6568843722343445,34.06295394897461,4.096584796905518,-19.336885452270508,-0.2667136788368225,-1.796573281288147,0.13217489421367645,0
2,0.004952907562255859,-0.6568843722343445,-34.06295394897461,-4.096584796905518,19.336885452270508,0.2667136788368225,1.796573281288147,-0.13217489421367645,0.0,0.0,0.0,0.0,0.0,0.0,0.0,-0.6561205200316048,0.04073078115140704,-0.4852925334735417,0.27838542507054664,0.22315567894324356,-0.11333578168178039,-0.10454534496690737,1.0547436107292343,0.32376259371272303,-0.3923572833579883,-2.1531454475846603,0.8646274095595206,2.4659381490563166,0.5444916129106264,1.0544104758940245,0.3238615046091247,-0.39250456234122666,-2.153291787532338,0.8647539153680389,2.46587817577521,0.5445020185570556,-0.0010044784723138133,0.0005095499506520051,0.00022173255022988074,-0.0004424508215323425,0.0002318066400590167,5.5904481479350856e-06,0.001215089180383084,0.0,0.0,0.0,0.0,0.0,0.0,0.0,-0.0003331348352098029,9.891089640168271e-05,-0.00014727898323835253,-0.00014633994767754288,0.00012650580851836235,-5.997328110662892e-05,1.0405646429179072e-05,0.0010044784723138133,-0.0005095499506520051,-0.00022173255022988074,0.0004424508215323425,-0.0002318066400590167,-5.5904481479350856e-06,-0.001215089180383084,0.6568843722343445,34.06295394897461,4.096584796905518,-19.336885452270508,-0.2667136788368225,-1.796573281288147,0.13217489421367645,0
3,0.010003805160522461,-0.6568843722343445,-34.03915023803711,-4.048977375030518,19.336885452270508,0.2786155343055725,1.796573281288147,-0.12485067546367645,0.0,0.0,0.0,0.0,0.0,0.0,0.0,-0.6504924878827452,0.032230833550960625,-0.48155301965061914,0.2826853968341132,0.2222071597582448,-0.11322201935853106,-0.10645046840907094,1.0547443259809506,0.3237609232768678,-0.39236062422969886,-2.153145447546976,0.8646261268655457,2.4659381098097954,0.5444909207222488,1.0544104758940245,0.3238615046091247,-0.39250456234122666,-2.153291787532338,0.8647539153680389,2.46587817577521,0.5445020185570556,-0.0008314965256584431,-0.0008898465638497684,-0.000586846829504356,-0.000685003047848028,-5.579974299012479e-05,-6.788830436642605e-05,0.0008626425065118799,0.0,0.0,0.0,0.0,0.0,0.0,0.0,-0.00033385008692610185,0.00010058133225693267,-0.00014393811152779712,-0.00014633998536206505,0.00012778850249317575,-5.993403458548485e-05,1.1097834806794715e-05,0.0008314965256584431,0.0008898465638497684,0.000586846829504356,0.000685003047848028,5.579974299012479e-05,6.788830436642605e-05,-0.0008626425065118799,0.6568843722343445,34.03915023803711,4.048977375030518,-19.336885452270508,-0.2786155343055725,-1.796573281288147,0.12485067546367645,0
4,0.014994144439697266,-0.6568843722343445,-34.03915023803711,-4.048977375030518,19.336885452270508,0.2786155343055725,1.796573281288147,-0.12485067546367645,0.0,0.0,0.0,0.0,0.0,0.0,0.0,-0.6504924878827452,0.032230833550960625,-0.48155301965061914,0.2826853968341132,0.2222071597582448,-0.11322201935853106,-0.10645046840907094,1.0547443259809506,0.3237609232768678,-0.39236062422969886,-2.153145447546976,0.8646261268655457,2.4659381098097954,0.5444909207222488,1.0544104758940245,0.3238615046091247,-0.39250456234122666,-2.153291787532338,0.8647539153680389,2.46587817577521,0.5445020185570556,-0.0008314965256584431,-0.0008898465638497684,-0.000586846829504356,-0.000685003047848028,-5.579974299012479e-05,-6.788830436642605e-05,0.0008626425065118799,0.0,0.0,0.0,0.0,0.0,0.0,0.0,-0.00033385008692610185,0.00010058133225693267,-0.00014393811152779712,-0.00014633998536206505,0.00012778850249317575,-5.993403458548485e-05,1.1097834806794715e-05,0.0008314965256584431,0.0008898465638497684,0.000586846829504356,0.000685003047848028,5.579974299012479e-05,6.788830436642605e-05,-0.0008626425065118799,0.6568843722343445,34.03915023803711,4.048977375030518,-19.336885452270508,-0.2786155343055725,-1.796573281288147,0.12485067546367645,0
5,0.019990205764770508,-0.6568843722343445,-34.03915023803711,-4.048977375030518,19.336885452270508,0.2786155343055725,1.796573281288147,-0.12485067546367645,0.0,0.0,0.0,0.0,0.0,0.0,0.0,-0.6504924878827452,0.032230833550960625,-0.48155301965061914,0.2826853968341132,0.2222071597582448,-0.11322201935853106,-0.10645046840907094,1.0547443259809506,0.3237609232768678,-0.39236062422969886,-2.153145447546976,0.8646261268655457,2.4659381098097954,0.5444909207222488,1.0544104758940245,0.3238615046091247,-0.39250456234122666,-2.153291787532338,0.8647539153680389,2.46587817577521,0.5445020185570556,-0.0008314965256584431,-0.0008898465638497684,-0.000586846829504356,-0.000685003047848028,-5.579974299012479e-05,-6.788830436642605e-05,0.0008626425065118799,0.0,0.0,0.0,0.0,0.0,0.0,0.0,-0.00033385008692610185,0.00010058133225693267,-0.00014393811152779712,-0.00014633998536206505,0.00012778850249317575,-5.993403458548485e-05,1.1097834806794715e-05,0.0008314965256584431,0.0008898465638497684,0.000586846829504356,0.000685003047848028,5.579974299012479e-05,6.788830436642605e-05,-0.0008626425065118799,0.6568843722343445,34.03915023803711,4.048977375030518,-19.336885452270508,-0.2786155343055725,-1.796573281288147,0.12485067546367645,0
6,0.024990320205688477,-0.6568843722343445,-34.03915023803711,-4.048977375030518,19.336885452270508,0.2786155343055725,1.796573281288147,-0.12485067546367645,0.0,0.0,0.0,0.0,0.0,0.0,0.0,-0.6504924878827452,0.032230833550960625,-0.48155301965061914,0.2826853968341132,0.2222071597582448,-0.11322201935853106,-0.10645046840907094,1.0547443259809506,0.3237609232768678,-0.39236062422969886,-2.153145447546976,0.8646261268655457,2.4659381098097954,0.5444909207222488,1.0544104758940245,0.3238615046091247,-0.39250456234122666,-2.153291787532338,0.8647539153680389,2.46587817577521,0.5445020185570556,-0.0008314965256584431,-0.0008898465638497684,-0.000586846829504356,-0.000685003047848028,-5.579974299012479e-05,-6.788830436642605e-05,0.0008626425065118799,0.0,0.0,0.0,0.0,0.0,0.0,0.0,-0.00033385008692610185,0.00010058133225693267,-0.00014393811152779712,-0.00014633998536206505,0.00012778850249317575,-5.993403458548485e-05,1.1097834806794715e-05,0.0008314965256584431,0.0008898465638497684,0.000586846829504356,0.000685003047848028,5.579974299012479e-05,6.788830436642605e-05,-0.0008626425065118799,0.6568843722343445,34.03915023803711,4.048977375030518,-19.336885452270508,-0.2786155343055725,-1.796573281288147,0.12485067546367645,0
7,0.02999281883239746,-0.5815059542655945,-34.01534652709961,-4.048977375030518,19.336885452270508,0.2841086983680725,1.790164589881897,-0.07724325358867645,0.0,0.0,0.0,0.0,0.0,0.0,0.0,-0.6440077972860557,0.0411026269058572,-0.47583073114276025,0.2802384062711621,0.22205904642215962,-0.11402435710734134,-0.10672008701402153,1.0547387978528675,0.32375925284101253,-0.39236062422969886,-2.153145447546976,0.8646254767777777,2.46593893913945,0.5444897474636903,1.0544104758940245,0.3238615046091247,-0.39250456234122666,-2.153291787532338,0.8647539153680389,2.46587817577521,0.5445020185570556,-0.0016162964482909264,-0.0005188950673062104,0.0004189174210064542,-0.00016933624173052025,-0.0002758816242577847,0.00022382763164826422,-0.001023431857959639,0.0,0.0,0.0,0.0,0.0,0.0,0.0,-0.0003283219588430253,0.00010225176811218262,-0.00014393811152779712,-0.00014633998536206505,0.00012843859026123727,-6.076336424021278e-05,1.2271093365323615e-05,0.0016162964482909264,0.0005188950673062104,-0.0004189174210064542,0.00016933624173052025,0.0002758816242577847,-0.00022382763164826422,0.001023431857959639,0.5815059542655945,34.01534652709961,4.048977375030518,-19.336885452270508,-0.2841086983680725,-1.790164589881897,0.07724325358867645,0
8,0.034990787506103516,-0.5815059542655945,-34.01534652709961,-4.048977375030518,19.336885452270508,0.2841086983680725,1.790164589881897,-0.07724325358867645,0.0,0.0,0.0,0.0,0.0,0.0,0.0,-0.6440077972860557,0.0411026269058572,-0.47583073114276025,0.2802384062711621,0.22205904642215962,-0.11402435710734134,-0.10672008701402153,1.0547387978528675,0.32375925284101253,-0.39236062422969886,-2.153145447546976,0.8646254767777777,2.46593893913945,0.5444897474636903,1.0544104758940245,0.3238615046091247,-0.39250456234122666,-2.153291787532338,0.8647539153680389,2.46587817577521,0.5445020185570556,-0.0016162964482909264,-0.0005188950673062104,0.0004189174210064542,-0.00016933624173052025,-0.0002758816242577847,0.00022382763164826422,-0.001023431857959639,0.0,0.0,0.0,0.0,0.0,0.0,0.0,-0.0003283219588430253,0.00010225176811218262,-0.00014393811152779712,-0.00014633998536206505,0.00012843859026123727,-6.076336424021278e-05,1.2271093365323615e-05,0.0016162964482909264,0.0005188950673062104,-0.0004189174210064542,0.00016933624173052025,0.0002758816242577847,-0.00022382763164826422,0.001023431857959639,0.5815059542655945,34.01534652709961,4.048977375030518,-19.336885452270508,-0.2841086983680725,-1.790164589881897,0.07724325358867645,0
9,0.03998899459838867,-0.6053096652030945,-34.01534652709961,-3.9974029064178467,19.289278030395508,0.2667136788368225,1.790164589881897,-0.11111776530742645,0.0,0.0,0.0,0.0,0.0,0.0,0.0,-0.6523337732438184,0.05076920160895903,-0.4826177197030289,0.27343183538302795,0.2229858598311993,-0.11398534973209425,-0.10638907032613477,1.054740706705956,0.32375925284101253,-0.39236424349065413,-2.153142106675265,0.8646274102115991,2.465938861132915,0.5444892727690459,1.0544104758940245,0.3238615046091247,-0.39250456234122666,-2.153291787532338,0.8647539153680389,2.46587817577521,0.5445020185570556,-0.0005689192282596493,0.00040569053897097365,-0.0004001147694868532,0.00018682407943257923,0.00048670734968656715,-0.00048128305062449894,0.0006315597624753131,0.0,0.0,0.0,0.0,0.0,0.0,0.0,-0.00033023081193150894,0.00010225176811218262,-0.00014031885057252946,-0.00014968085707289802,0.00012650515643986004,-6.068535770520356e-05,1.2745788009693726e-05,0.0005689192282596493,-0.00040569053897097365,0.0004001147694868532,-0.00018682407943257923,-0.00048670734968656715,0.00048128305062449894,-0.0006315597624753131,0.6053096652030945,34.01534652709961,3.9974029064178467,-19.289278030395508,-0.2667136788368225,-1.790164589881897,0.11111776530742645,0
10,0.04499053955078125,-0.6053096652030945,-34.01534652709961,-3.9974029064178467,19.289278030395508,0.2667136788368225,1.790164589881897,-0.11111776530742645,0.0,0.0,0.0,0.0,0.0,0.0,0.0,-0.6523337732438184,0.05076920160895903,-0.4826177197030289,0.27343183538302795,0.2229858598311993,-0.11398534973209425,-0.10638907032613477,1.054740706705956,0.32375925284101253,-0.39236424349065413,-2.153142106675265,0.8646274102115991,2.465938861132915,0.5444892727690459,1.0544104758940245,0.3238615046091247,-0.39250456234122666,-2.153291787532338,0.8647539153680389,2.46587817577521,0.5445020185570556,-0.0005689192282596493,0.00040569053897097365,-0.0004001147694868532,0.00018682407943257923,0.00048670734968656715,-0.00048128305062449894,0.0006315597624753131,0.0,0.0,0.0,0.0,0.0,0.0,0.0,-0.00033023081193150894,0.00010225176811218262,-0.00014031885057252946,-0.00014968085707289802,0.00012650515643986004,-6.068535770520356e-05,1.2745788009693726e-05,0.0005689192282596493,-0.00040569053897097365,0.0004001147694868532,-0.00018682407943257923,-0.00048670734968656715,0.00048128305062449894,-0.0006315597624753131,0.6053096652030945,34.01534652709961,3.9974029064178467,-19.289278030395508,-0.2667136788368225,-1.790164589881897,0.11111776530742645,0
11,0.0499882698059082,-0.6053096652030945,-34.01534652709961,-4.025173664093018,19.313081741333008,0.2841086983680725,1.777347207069397,-0.05710165575146675,0.0,0.0,0.0,0.0,0.0,0.0,0.0,-0.6544946925345573,0.03999347589084424,-0.4864639671216288,0.27960602783747496,0.22348478417575166,-0.11412352163342628,-0.10540941823022774,1.0547407067073018,0.32375925284101253,-0.3923622946655541,-2.1531437771111204,0.8646254767775571,2.4659393433855614,0.5444833886927386,1.0544104758940245,0.3238615046091247,-0.39250456234122666,-2.153291787532338,0.8647539153680389,2.46587817577521,0.5445020185570556,-2.0712345828691616e-05,0.0001356115860741996,9.631141598720218e-06,-8.699755173295507e-05,-0.00022240813906452127,0.00021068338247200882,-0.0017573425591307778,0.0,0.0,0.0,0.0,0.0,0.0,0.0,-0.0003302308132773213,0.00010225176811218262,-0.00014226767567254717,-0.00014801042121748154,0.0001284385904818386,-6.116761035146467e-05,1.862986431699909e-05,2.0712345828691616e-05,-0.0001356115860741996,-9.631141598720218e-06,8.699755173295507e-05,0.00022240813906452127,-0.00021068338247200882,0.0017573425591307778,0.6053096652030945,34.01534652709961,4.025173664093018,-19.313081741333008,-0.2841086983680725,-1.777347207069397,0.05710165575146675,0
12,0.05499553680419922,-0.6053096652030945,-34.01534652709961,-4.025173664093018,19.313081741333008,0.2841086983680725,1.777347207069397,-0.05710165575146675,0.0,0.0,0.0,0.0,0.0,0.0,0.0,-0.6544946925345573,0.03999347589084424,-0.4864639671216288,0.27960602783747496,0.22348478417575166,-0.11412352163342628,-0.10540941823022774,1.0547407067073018,0.32375925284101253,-0.3923622946655541,-2.1531437771111204,0.8646254767775571,2.4659393433855614,0.5444833886927386,1.0544104758940245,0.3238615046091247,-0.39250456234122666,-2.153291787532338,0.8647539153680389,2.46587817577521,0.5445020185570556,-2.0712345828691616e-05,0.0001356115860741996,9.631141598720218e-06,-8.699755173295507e-05,-0.00022240813906452127,0.00021068338247200882,-0.0017573425591307778,0.0,0.0,0.0,0.0,0.0,0.0,0.0,-0.0003302308132773213,0.00010225176811218262,-0.00014226767567254717,-0.00014801042121748154,0.0001284385904818386,-6.116761035146467e-05,1.862986431699909e-05,2.0712345828691616e-05,-0.0001356115860741996,-9.631141598720218e-06,8.699755173295507e-05,0.00022240813906452127,-0.00021068338247200882,0.0017573425591307778,0.6053096652030945,34.01534652709961,4.025173664093018,-19.313081741333008,-0.2841086983680725,-1.777347207069397,0.05710165575146675,0
13,0.05999398231506348,-0.6291133761405945,-34.06295394897461,-4.025173664093018,19.360689163208008,0.2786155343055725,1.783755898475647,-0.07724325358867645,0.0,0.0,0.0,0.0,0.0,0.0,0.0,-0.6504925714720068,0.02961163292557375,-0.48825887673754576,0.287158661598561,0.22391225031191966,-0.1138218816778471,-0.1040593724326008,1.0547423771431572,0.32376259371272303,-0.3923622946655541,-2.1531471179828308,0.8646260876196892,2.4659396894341654,0.5444886878255364,1.0544104758940245,0.3238615046091247,-0.39250456234122666,-2.153291787532338,0.8647539153680389,2.46587817577521,0.5445020185570556,-1.62793063052707e-05,0.00038816498005813754,-0.0003455898333696991,-0.0005289629747400642,-0.00012231624158303775,0.0003714235721007869,-0.0006455589084489558,0.0,0.0,0.0,0.0,0.0,0.0,0.0,-0.0003319012491327378,9.891089640168271e-05,-0.00014226767567254717,-0.00014466954950709265,0.0001278277483497403,-6.15136589554588e-05,1.3330731519212158e-05,1.62793063052707e-05,-0.00038816498005813754,0.0003455898333696991,0.0005289629747400642,0.00012231624158303775,-0.0003714235721007869,0.0006455589084489558,0.6291133761405945,34.06295394897461,4.025173664093018,-19.360689163208008,-0.2786155343055725,-1.783755898475647,0.07724325358867645,0
14,0.0649573802947998,-0.6291133761405945,-34.06295394897461,-4.025173664093018,19.360689163208008,0.2786155343055725,1.783755898475647,-0.07724325358867645,0.0,0.0,0.0,0.0,0.0,0.0,0.0,-0.6504925714720068,0.02961163292557375,-0.48825887673754576,0.287158661598561,0.22391225031191966,-0.1138218816778471,-0.1040593724326008,1.0547423771431572,0.32376259371272303,-0.3923622946655541,-2.1531471179828308,0.8646260876196892,2.4659396894341654,0.5444886878255364,1.0544104758940245,0.3238615046091247,-0.39250456234122666,-2.153291787532338,0.8647539153680389,2.46587817577521,0.5445020185570556,-1.62793063052707e-05,0.00038816498005813754,-0.0003455898333696991,-0.0005289629747400642,-0.00012231624158303775,0.0003714235721007869,-0.0006455589084489558,0.0,0.0,0.0,0.0,0.0,0.0,0.0,-0.0003319012491327378,9.891089640168271e-05,-0.00014226767567254717,-0.00014466954950709265,0.0001278277483497403,-6.15136589554588e-05,1.3330731519212158e-05,1.62793063052707e-05,-0.00038816498005813754,0.0003455898333696991,0.0005289629747400642,0.00012231624158303775,-0.0003714235721007869,0.0006455589084489558,0.6291133761405945,34.06295394897461,4.025173664093018,-19.360689163208008,-0.2786155343055725,-1.783755898475647,0.07724325358867645,0
15,0.06998991966247559,-0.6568843722343445,-34.03915023803711,-4.025173664093018,19.313081741333008,0.2786155343055725,1.796573281288147,-0.09738485515117645,0.0,0.0,0.0,0.0,0.0,0.0,0.0,-0.6463620664306444,0.035460087325951364,-0.486007541263261,0.280133662203067,0.22400185756525584,-0.11450819299940082,-0.10308399403226344,1.0547443259849882,0.3237609232768678,-0.3923622946655541,-2.1531437771111204,0.8646261268655485,2.465938253711926,0.5444877514063142,1.0544104758940245,0.3238615046091247,-0.39250456234122666,-2.153291787532338,0.8647539153680389,2.46587817577521,0.5445020185570556,0.00013542915460652182,-0.000841805479398459,-0.0005594494517717909,0.00011982717805340805,1.3459917653420272e-05,-0.00012011550968183723,-0.00014845812395992291,0.0,0.0,0.0,0.0,0.0,0.0,0.0,-0.00033385009096376095,0.00010058133225693267,-0.00014226767567254717,-0.00014801042121748154,0.0001277885024904002,-6.007793671614081e-05,1.4267150741376078e-05,-0.00013542915460652182,0.000841805479398459,0.0005594494517717909,-0.00011982717805340805,-1.3459917653420272e-05,0.00012011550968183723,0.00014845812395992291,0.6568843722343445,34.03915023803711,4.025173664093018,-19.313081741333008,-0.2786155343055725,-1.796573281288147,0.09738485515117645,0
16,0.07539057731628418,-0.6568843722343445,-34.03915023803711,-4.025173664093018,19.313081741333008,0.2786155343055725,1.796573281288147,-0.09738485515117645,0.0,0.0,0.0,0.0,0.0,0.0,0.0,-0.6463620664306444,0.035460087325951364,-0.486007541263261,0.280133662203067,0.22400185756525584,-0.11450819299940082,-0.10308399403226344,1.0547443259849882,0.3237609232768678,-0.3923622946655541,-2.1531437771111204,0.8646261268655485,2.465938253711926,0.5444877514063142,1.0544104758940245,0.3238615046091247,-0.39250456234122666,-2.153291787532338,0.8647539153680389,2.46587817577521,0.5445020185570556,0.00013542915460652182,-0.000841805479398459,-0.0005594494517717909,0.00011982717805340805,1.3459917653420272e-05,-0.00012011550968183723,-0.00014845812395992291,0.0,0.0,0.0,0.0,0.0,0.0,0.0,-0.00033385009096376095,0.00010058133225693267,-0.00014226767567254717,-0.00014801042121748154,0.0001277885024904002,-6.007793671614081e-05,1.4267150741376078e-05,-0.00013542915460652182,0.000841805479398459,0.0005594494517717909,-0.00011982717805340805,-1.3459917653420272e-05,0.00012011550968183723,0.00014845812395992291,0.6568843722343445,34.03915023803711,4.025173664093018,-19.313081741333008,-0.2786155343055725,-1.796573281288147,0.09738485515117645,0
17,0.07998895645141602,-0.6291133761405945,-34.06295394897461,-4.025173664093018,19.289278030395508,0.2722068428993225,1.802981972694397,-0.08365194499492645,0.0,0.0,0.0,0.0,0.0,0.0,0.0,-0.6230959404069372,0.040796084052667575,-0.46386059356714787,0.2768160803927355,0.22336513348000872,-0.11666734703274233,-0.10331618894023835,1.0547423771431572,0.32376259371272303,-0.3923622946655541,-2.153142106675265,0.864626800732391,2.4659370837667103,0.5444862211488378,1.0544104758940245,0.3238615046091247,-0.39250456234122666,-2.153291787532338,0.8647539153680389,2.46587817577521,0.5445020185570556,0.0006366673972146902,0.00036745424189355886,4.98112562228549e-05,0.00040601200477566926,0.0002994706770345276,-0.0005651427730881419,-0.0005912665449977932,0.0,0.0,0.0,0.0,0.0,0.0,0.0,-0.0003319012491327378,9.891089640168271e-05,-0.00014226767567254717,-0.00014968085707289802,0.00012711463564796244,-5.890799150032322e-05,1.5797408217776976e-05,-0.0006366673972146902,-0.00036745424189355886,-4.98112562228549e-05,-0.00040601200477566926,-0.0002994706770345276,0.0005651427730881419,0.0005912665449977932,0.6291133761405945,34.06295394897461,4.025173664093018,-19.289278030395508,-0.2722068428993225,-1.802981972694397,0.08365194499492645,0
18,0.08498978614807129,-0.6291133761405945,-34.06295394897461,-4.025173664093018,19.289278030395508,0.2722068428993225,1.802981972694397,-0.08365194499492645,0.0,0.0,0.0,0.0,0.0,0.0,0.0,-0.6230959404069372,0.040796084052667575,-0.46386059356714787,0.2768160803927355,0.22336513348000872,-0.11666734703274233,-0.10331618894023835,1.0547423771431572,0.32376259371272303,-0.3923622946655541,-2.153142106675265,0.864626800732391,2.4659370837667103,0.5444862211488378,1.0544104758940245,0.3238615046091247,-0.39250456234122666,-2.153291787532338,0.8647539153680389,2.46587817577521,0.5445020185570556,0.0006366673972146902,0.00036745424189355886,4.98112562228549e-05,0.00040601200477566926,0.0002994706770345276,-0.0005651427730881419,-0.0005912665449977932,0.0,0.0,0.0,0.0,0.0,0.0,0.0,-0.0003319012491327378,9.891089640168271e-05,-0.00014226767567254717,-0.00014968085707289802,0.00012711463564796244,-5.890799150032322e-05,1.5797408217776976e-05,-0.0006366673972146902,-0.00036745424189355886,-4.98112562228549e-05,-0.00040601200477566926,-0.0002994706770345276,0.0005651427730881419,0.0005912665449977932,0.6291133761405945,34.06295394897461,4.025173664093018,-19.289278030395508,-0.2722068428993225,-1.802981972694397,0.08365194499492645,0
19,0.08998560905456543,-0.6568843722343445,-34.03915023803711,-4.025173664093018,19.336885452270508,0.2786155343055725,1.790164589881897,-0.13217489421367645,0.0,0.0,0.0,0.0,0.0,0.0,0.0,-0.6322178011770679,0.02825205913554889,-0.4739571355104542,0.2829060385862351,0.22396977138572347,-0.11491939103595013,-0.1021842679483351,1.0547443256579394,0.3237609232768678,-0.3923622946655541,-2.153145447546976,0.8646260872926489,2.465938978868051,0.5444916124799448,1.0544104758940245,0.3238615046091247,-0.39250456234122666,-2.153291787532338,0.8647539153680389,2.46587817577521,0.5445020185570556,0.000559990422333546,-0.00011564997212638681,0.0001995894904417412,-0.00011139462270523449,0.00015012590875388828,8.540884559878746e-05,0.0015349319198438142,0.0,0.0,0.0,0.0,0.0,0.0,0.0,-0.0003338497639149285,0.00010058133225693267,-0.00014226767567254717,-0.00014633998536206505,0.00012782807539002405,-6.080309284106633e-05,1.0406077110780565e-05,-0.000559990422333546,0.00011564997212638681,-0.0001995894904417412,0.00011139462270523449,-0.00015012590875388828,-8.540884559878746e-05,-0.0015349319198438142,0.6568843722343445,34.03915023803711,4.025173664093018,-19.336885452270508,-0.2786155343055725,-1.790164589881897,0.13217489421367645,0
20,0.0950160026550293,-0.6568843722343445,-34.03915023803711,-4.025173664093018,19.336885452270508,0.2786155343055725,1.790164589881897,-0.13217489421367645,0.0,0.0,0.0,0.0,0.0,0.0,0.0,-0.6322178011770679,0.02825205913554889,-0.4739571355104542,0.2829060385862351,0.22396977138572347,-0.11491939103595013,-0.1021842679483351,1.0547443256579394,0.3237609232768678,-0.3923622946655541,-2.153145447546976,0.8646260872926489,2.465938978868051,0.5444916124799448,1.0544104758940245,0.3238615046091247,-0.39250456234122666,-2.153291787532338,0.8647539153680389,2.46587817577521,0.5445020185570556,0.000559990422333546,-0.00011564997212638681,0.0001995894904417412,-0.00011139462270523449,0.00015012590875388828,8.540884559878746e-05,0.0015349319198438142,0.0,0.0,0.0,0.0,0.0,0.0,0.0,-0.0003338497639149285,0.00010058133225693267,-0.00014226767567254717,-0.00014633998536206505,0.00012782807539002405,-6.080309284106633e-05,1.0406077110780565e-05,-0.000559990422333546,0.00011564997212638681,-0.0001995894904417412,0.00011139462270523449,-0.00015012590875388828,-8.540884559878746e-05,-0.0015349319198438142,0.6568843722343445,34.03915023803711,4.025173664093018,-19.336885452270508,-0.2786155343055725,-1.790164589881897,0.13217489421367645,0
21,0.09996557235717773,-0.6806880831718445,-33.99154281616211,-4.048977375030518,19.336885452270508,0.2841086983680725,1.790164589881897,-0.07724325358867645,0.0,0.0,0.0,0.0,0.0,0.0,0.0,-0.6621024029600273,0.03399023309443629,-0.4958957483685927,0.2759391960003261,0.22514192133386046,-0.11308644956656852,-0.10246535872226666,1.054745996384503,0.32375758240515723,-0.39236062422969886,-2.153145447546976,0.8646286954283722,2.4659388480511875,0.544485508910484,1.0544104758940245,0.3238615046091247,-0.39250456234122666,-2.153291787532338,0.8647539153680389,2.46587817577521,0.5445020185570556,-0.0007247127226201814,-0.0010171942275647617,-0.0003257786777972327,-0.000859047363632792,-0.00032043601524450244,0.00010092907790684235,-0.0012713855803050897,0.0,0.0,0.0,0.0,0.0,0.0,0.0,-0.0003355204904784692,0.00010392220396748808,-0.00014393811152779712,-0.00014633998536206505,0.00012521993966674305,-6.0672275977502466e-05,1.6509646571627457e-05,0.0007247127226201814,0.0010171942275647617,0.0003257786777972327,0.000859047363632792,0.00032043601524450244,-0.00010092907790684235,0.0012713855803050897,0.6806880831718445,33.99154281616211,4.048977375030518,-19.336885452270508,-0.2841086983680725,-1.790164589881897,0.07724325358867645,0
22,0.10498571395874023,-0.6806880831718445,-33.99154281616211,-4.048977375030518,19.336885452270508,0.2841086983680725,1.790164589881897,-0.07724325358867645,0.0,0.0,0.0,0.0,0.0,0.0,0.0,-0.6621024029600273,0.03399023309443629,-0.4958957483685927,0.2759391960003261,0.22514192133386046,-0.11308644956656852,-0.10246535872226666,1.054745996384503,0.32375758240515723,-0.39236062422969886,-2.153145447546976,0.8646286954283722,2.4659388480511875,0.544485508910484,1.0544104758940245,0.3238615046091247,-0.39250456234122666,-2.153291787532338,0.8647539153680389,2.46587817577521,0.5445020185570556,-0.0007247127226201814,-0.0010171942275647617,-0.0003257786777972327,-0.000859047363632792,-0.00032043601524450244,0.00010092907790684235,-0.0012713855803050897,0.0,0.0,0.0,0.0,0.0,0.0,0.0,-0.0003355204904784692,0.00010392220396748808,-0.00014393811152779712,-0.00014633998536206505,0.00012521993966674305,-6.0672275977502466e-05,1.6509646571627457e-05,0.0007247127226201814,0.0010171942275647617,0.0003257786777972327,0.000859047363632792,0.00032043601524450244,-0.00010092907790684235,0.0012713855803050897,0.6806880831718445,33.99154281616211,4.048977375030518,-19.336885452270508,-0.2841086983680725,-1.790164589881897,0.07724325358867645,0
23,0.10998797416687012,-0.7084590792655945,-34.01534652709961,-4.096584796905518,19.336885452270508,0.2841086983680725,1.777347207069397,-0.12485067546367645,0.0,0.0,0.0,0.0,0.0,0.0,0.0,-0.6583515239001477,0.04494881616343828,-0.4846340305089589,0.27471474494406384,0.22419486330787639,-0.11438663289757942,-0.10366942106753103,1.0547479452626745,0.32375925284101253,-0.3923572833579883,-2.153145447546976,0.8646254767957228,2.46594036377776,0.5444912710278554,1.0544104758940245,0.3238615046091247,-0.39250456234122666,-2.153291787532338,0.8647539153680389,2.46587817577521,0.5445020185570556,-0.00029867047965927986,0.0007257197062795082,0.0008289853707217407,-0.0008559227770806698,-0.0002748961283205233,0.00036578931216165746,0.0012278591157448204,0.0,0.0,0.0,0.0,0.0,0.0,0.0,-0.00033746936864997856,0.00010225176811218262,-0.00014727898323835253,-0.00014633998536206505,0.00012843857231614741,-6.218800255020085e-05,1.074752920016131e-05,0.00029867047965927986,-0.0007257197062795082,-0.0008289853707217407,0.0008559227770806698,0.0002748961283205233,-0.00036578931216165746,-0.0012278591157448204,0.7084590792655945,34.01534652709961,4.096584796905518,-19.336885452270508,-0.2841086983680725,-1.777347207069397,0.12485067546367645,0
24,0.11500000953674316,-0.7084590792655945,-34.01534652709961,-4.096584796905518,19.336885452270508,0.2841086983680725,1.777347207069397,-0.12485067546367645,0.0,0.0,0.0,0.0,0.0,0.0,0.0,-0.6583515239001477,0.04494881616343828,-0.4846340305089589,0.27471474494406384,0.22419486330787639,-0.11438663289757942,-0.10366942106753103,1.0547479452626745,0.32375925284101253,-0.3923572833579883,-2.153145447546976,0.8646254767957228,2.46594036377776,0.5444912710278554,1.0544104758940245,0.3238615046091247,-0.39250456234122666,-2.153291787532338,0.8647539153680389,2.46587817577521,0.5445020185570556,-0.00029867047965927986,0.0007257197062795082,0.0008289853707217407,-0.0008559227770806698,-0.0002748961283205233,0.00036578931216165746,0.0012278591157448204,0.0,0.0,0.0,0.0,0.0,0.0,0.0,-0.00033746936864997856,0.00010225176811218262,-0.00014727898323835253,-0.00014633998536206505,0.00012843857231614741,-6.218800255020085e-05,1.074752920016131e-05,0.00029867047965927986,-0.0007257197062795082,-0.0008289853707217407,0.0008559227770806698,0.0002748961283205233,-0.00036578931216165746,-0.0012278591157448204,0.7084590792655945,34.01534652709961,4.096584796905518,-19.336885452270508,-0.2841086983680725,-1.777347207069397,0.12485067546367645,0
25,0.11999058723449707,-0.6806880831718445,-34.01534652709961,-4.096584796905518,19.313081741333008,0.2722068428993225,1.815799355506897,-0.12485067546367645,0.0,0.0,0.0,0.0,0.0,0.0,0.0,-0.6492236789566945,0.04388322421944595,-0.47291388838778253,0.2794087982789511,0.22348026336158794,-0.11539808181306309,-0.1033917981603107,1.0547459964208437,0.32375925284101253,-0.3923572833579883,-2.1531437771111204,0.8646267992059637,2.4659361305095815,0.5444909170096116,1.0544104758940245,0.3238615046091247,-0.39250456234122666,-2.153291787532338,0.8647539153680389,2.46587817577521,0.5445020185570556,-0.00019120204701939805,0.0008943471313234337,0.0007579086206445481,-0.00024699828103964296,5.624197227364403e-05,-0.0008821582856949985,0.0012732405465125769,0.0,0.0,0.0,0.0,0.0,0.0,0.0,-0.00033552052681917743,0.00010225176811218262,-0.00014727898323835253,-0.00014801042121748154,0.0001271161620751693,-5.7954734371534755e-05,1.1101547443992388e-05,0.00019120204701939805,-0.0008943471313234337,-0.0007579086206445481,0.00024699828103964296,-5.624197227364403e-05,0.0008821582856949985,-0.0012732405465125769,0.6806880831718445,34.01534652709961,4.096584796905518,-19.313081741333008,-0.2722068428993225,-1.815799355506897,0.12485067546367645,0
26,0.12498974800109863,-0.6806880831718445,-34.01534652709961,-4.096584796905518,19.313081741333008,0.2722068428993225,1.815799355506897,-0.12485067546367645,0.0,0.0,0.0,0.0,0.0,0.0,0.0,-0.6492236789566945,0.04388322421944595,-0.47291388838778253,0.2794087982789511,0.22348026336158794,-0.11539808181306309,-0.1033917981603107,1.0547459964208437,0.32375925284101253,-0.3923572833579883,-2.1531437771111204,0.8646267992059637,2.4659361305095815,0.5444909170096116,1.0544104758940245,0.3238615046091247,-0.39250456234122666,-2.153291787532338,0.8647539153680389,2.46587817577521,0.5445020185570556,-0.00019120204701939805,0.0008943471313234337,0.0007579086206445481,-0.00024699828103964296,5.624197227364403e-05,-0.0008821582856949985,0.0012732405465125769,0.0,0.0,0.0,0.0,0.0,0.0,0.0,-0.00033552052681917743,0.00010225176811218262,-0.00014727898323835253,-0.00014801042121748154,0.0001271161620751693,-5.7954734371534755e-05,1.1101547443992388e-05,0.00019120204701939805,-0.0008943471313234337,-0.0007579086206445481,0.00024699828103964296,-5.624197227364403e-05,0.0008821582856949985,-0.0012732405465125769,0.6806880831718445,34.01534652709961,4.096584796905518,-19.313081741333008,-0.2722068428993225,-1.815799355506897,0.12485067546367645,0
27,0.1299903392791748,-0.6806880831718445,-34.03915023803711,-3.9974029064178467,19.360689163208008,0.2786155343055725,1.777347207069397,-0.08365194499492645,0.0,0.0,0.0,0.0,0.0,0.0,0.0,-0.6587668755589114,0.09683270666007006,-0.4769523067653793,0.25427705206397583,0.22226557511010953,-0.11699342055003689,-0.10358721881771635,1.0547459964208437,0.3237609232768678,-0.3923642434908036,-2.1531471179828308,0.8646264447569846,2.465940403024355,0.5444872811279006,1.0544104758940245,0.3238615046091247,-0.39250456234122666,-2.153291787532338,0.8647539153680389,2.46587817577521,0.5445020185570556,0.00018959109716723167,-0.00025410918115485146,-0.0016792477301315657,-0.001369167532762897,-0.00029253254557268384,0.0007462862188089167,-0.000913955070686528,0.0,0.0,0.0,0.0,0.0,0.0,0.0,-0.00033552052681917743,0.00010058133225693267,-0.00014031885042303793,-0.00014466954950709265,0.00012747061105433666,-6.222724914506372e-05,1.4737429155031734e-05,-0.00018959109716723167,0.00025410918115485146,0.0016792477301315657,0.001369167532762897,0.00029253254557268384,-0.0007462862188089167,0.000913955070686528,0.6806880831718445,34.03915023803711,3.9974029064178467,-19.360689163208008,-0.2786155343055725,-1.777347207069397,0.08365194499492645,0
28,0.13494420051574707,-0.6806880831718445,-34.03915023803711,-3.9974029064178467,19.360689163208008,0.2786155343055725,1.777347207069397,-0.08365194499492645,0.0,0.0,0.0,0.0,0.0,0.0,0.0,-0.6587668755589114,0.09683270666007006,-0.4769523067653793,0.25427705206397583,0.22226557511010953,-0.11699342055003689,-0.10358721881771635,1.0547459964208437,0.3237609232768678,-0.3923642434908036,-2.1531471179828308,0.8646264447569846,2.465940403024355,0.5444872811279006,1.0544104758940245,0.3238615046091247,-0.39250456234122666,-2.153291787532338,0.8647539153680389,2.46587817577521,0.5445020185570556,0.00018959109716723167,-0.00025410918115485146,-0.0016792477301315657,-0.001369167532762897,-0.00029253254557268384,0.0007462862188089167,-0.000913955070686528,0.0,0.0,0.0,0.0,0.0,0.0,0.0,-0.00033552052681917743,0.00010058133225693267,-0.00014031885042303793,-0.00014466954950709265,0.00012747061105433666,-6.222724914506372e-05,1.4737429155031734e-05,-0.00018959109716723167,0.00025410918115485146,0.0016792477301315657,0.001369167532762897,0.00029253254557268384,-0.0007462862188089167,0.000913955070686528,0.6806880831718445,34.03915023803711,3.9974029064178467,-19.360689163208008,-0.2786155343055725,-1.777347207069397,0.08365194499492645,0
29,0.1399857997894287,-0.6053096652030945,-34.11452865600586,-3.9974029064178467,19.313081741333008,0.2786155343055725,1.796573281288147,-0.11844198405742645,0.0,0.0,0.0,0.0,0.0,0.0,0.0,-0.646920618194153,0.017700136671656885,-0.4759713408448487,0.2917922683351508,0.2215293888434727,-0.11385641670477843,-0.10454123244706277,1.0547407067073018,0.3237662129904095,-0.39236424349065413,-2.1531437771111204,0.8646260915462937,2.4659382667938865,0.5444901258528788,1.0544104758940245,0.3238615046091247,-0.39250456234122666,-2.153291787532338,0.8647539153680389,2.46587817577521,0.5445020185570556,1.064555601416851e-05,0.00072787817015302,-0.0008045201975242093,0.00012163660006055932,-1.5306685471079707e-05,-0.00029628609700544235,0.0006939317232438234,0.0,0.0,0.0,0.0,0.0,0.0,0.0,-0.0003302308132773213,9.529161871524305e-05,-0.00014031885057252946,-0.00014801042121748154,0.0001278238217452543,-6.009101867654465e-05,1.1892704176785784e-05,-1.064555601416851e-05,-0.00072787817015302,0.0008045201975242093,-0.00012163660006055932,1.5306685471079707e-05,0.00029628609700544235,-0.0006939317232438234,0.6053096652030945,34.11452865600586,3.9974029064178467,-19.313081741333008,-0.2786155343055725,-1.796573281288147,0.11844198405742645,0
30,0.14499735832214355,-0.6053096652030945,-34.11452865600586,-3.9974029064178467,19.313081741333008,0.2786155343055725,1.796573281288147,-0.11844198405742645,0.0,0.0,0.0,0.0,0.0,0.0,0.0,-0.646920618194153,0.017700136671656885,-0.4759713408448487,0.2917922683351508,0.2215293888434727,-0.11385641670477843,-0.10454123244706277,1.0547407067073018,0.3237662129904095,-0.39236424349065413,-2.1531437771111204,0.8646260915462937,2.4659382667938865,0.5444901258528788,1.0544104758940245,0.3238615046091247,-0.39250456234122666,-2.153291787532338,0.8647539153680389,2.46587817577521,0.5445020185570556,1.064555601416851e-05,0.00072787817015302,-0.0008045201975242093,0.00012163660006055932,-1.5306685471079707e-05,-0.00029628609700544235,0.0006939317232438234,0.0,0.0,0.0,0.0,0.0,0.0,0.0,-0.0003302308132773213,9.529161871524305e-05,-0.00014031885057252946,-0.00014801042121748154,0.0001278238217452543,-6.009101867654465e-05,1.1892704176785784e-05,-1.064555601416851e-05,-0.00072787817015302,0.0008045201975242093,-0.00012163660006055932,1.5306685471079707e-05,0.00029628609700544235,-0.0006939317232438234,0.6053096652030945,34.11452865600586,3.9974029064178467,-19.313081741333008,-0.2786155343055725,-1.796573281288147,0.11844198405742645,0
31,0.14999103546142578,-0.6053096652030945,-34.11452865600586,-3.9974029064178467,19.313081741333008,0.2786155343055725,1.796573281288147,-0.11844198405742645,0.0,0.0,0.0,0.0,0.0,0.0,0.0,-0.646920618194153,0.017700136671656885,-0.4759713408448487,0.2917922683351508,0.2215293888434727,-0.11385641670477843,-0.10454123244706277,1.0547407067073018,0.3237662129904095,-0.39236424349065413,-2.1531437771111204,0.8646260915462937,2.4659382667938865,0.5444901258528788,1.0544104758940245,0.3238615046091247,-0.39250456234122666,-2.153291787532338,0.8647539153680389,2.46587817577521,0.5445020185570556,1.064555601416851e-05,0.00072787817015302,-0.0008045201975242093,0.00012163660006055932,-1.5306685471079707e-05,-0.00029628609700544235,0.0006939317232438234,0.0,0.0,0.0,0.0,0.0,0.0,0.0,-0.0003302308132773213,9.529161871524305e-05,-0.00014031885057252946,-0.00014801042121748154,0.0001278238217452543,-6.009101867654465e-05,1.1892704176785784e-05,-1.064555601416851e-05,-0.00072787817015302,0.0008045201975242093,-0.00012163660006055932,1.5306685471079707e-05,0.00029628609700544235,-0.0006939317232438234,0.6053096652030945,34.11452865600586,3.9974029064178467,-19.313081741333008,-0.2786155343055725,-1.796573281288147,0.11844198405742645,0
32,0.15499520301818848,-0.6053096652030945,-34.11452865600586,-3.9974029064178467,19.313081741333008,0.2786155343055725,1.796573281288147,-0.11844198405742645,0.0,0.0,0.0,0.0,0.0,0.0,0.0,-0.646920618194153,0.017700136671656885,-0.4759713408448487,0.2917922683351508,0.2215293888434727,-0.11385641670477843,-0.10454123244706277,1.0547407067073018,0.3237662129904095,-0.39236424349065413,-2.1531437771111204,0.8646260915462937,2.4659382667938865,0.5444901258528788,1.0544104758940245,0.3238615046091247,-0.39250456234122666,-2.153291787532338,0.8647539153680389,2.46587817577521,0.5445020185570556,1.064555601416851e-05,0.00072787817015302,-0.0008045201975242093,0.00012163660006055932,-1.5306685471079707e-05,-0.00029628609700544235,0.0006939317232438234,0.0,0.0,0.0,0.0,0.0,0.0,0.0,-0.0003302308132773213,9.529161871524305e-05,-0.00014031885057252946,-0.00014801042121748154,0.0001278238217452543,-6.009101867654465e-05,1.1892704176785784e-05,-1.064555601416851e-05,-0.00072787817015302,0.0008045201975242093,-0.00012163660006055932,1.5306685471079707e-05,0.00029628609700544235,-0.0006939317232438234,0.6053096652030945,34.11452865600586,3.9974029064178467,-19.313081741333008,-0.2786155343055725,-1.796573281288147,0.11844198405742645,0
33,0.16006135940551758,-0.6053096652030945,-34.11452865600586,-3.9974029064178467,19.313081741333008,0.2786155343055725,1.796573281288147,-0.11844198405742645,0.0,0.0,0.0,0.0,0.0,0.0,0.0,-0.646920618194153,0.017700136671656885,-0.4759713408448487,0.2917922683351508,0.2215293888434727,-0.11385641670477843,-0.10454123244706277,1.0547407067073018,0.3237662129904095,-0.39236424349065413,-2.1531437771111204,0.8646260915462937,2.4659382667938865,0.5444901258528788,1.0544104758940245,0.3238615046091247,-0.39250456234122666,-2.153291787532338,0.8647539153680389,2.46587817577521,0.5445020185570556,1.064555601416851e-05,0.00072787817015302,-0.0008045201975242093,0.00012163660006055932,-1.5306685471079707e-05,-0.00029628609700544235,0.0006939317232438234,0.0,0.0,0.0,0.0,0.0,0.0,0.0,-0.0003302308132773213,9.529161871524305e-05,-0.00014031885057252946,-0.00014801042121748154,0.0001278238217452543,-6.009101867654465e-05,1.1892704176785784e-05,-1.064555601416851e-05,-0.00072787817015302,0.0008045201975242093,-0.00012163660006055932,1.5306685471079707e-05,0.00029628609700544235,-0.0006939317232438234,0.6053096652030945,34.11452865600586,3.9974029064178467,-19.313081741333008,-0.2786155343055725,-1.796573281288147,0.11844198405742645,0
34,0.16498756408691406,-0.5815059542655945,-34.06295394897461,-3.9974029064178467,19.289278030395508,0.2722068428993225,1.790164589881897,-0.11111776530742645,0.0,0.0,0.0,0.0,0.0,0.0,0.0,-0.652081163580258,0.020966097026382993,-0.48160021689274,0.2831781363218048,0.22226855478157637,-0.11458814319474118,-0.10476175375470591,1.0547390361624303,0.32376259371272303,-0.3923643229998526,-2.153142106675265,0.864626799696537,2.4659345833347657,0.544492451659729,1.0544104758940245,0.3238615046091247,-0.39250456234122666,-2.153291787532338,0.8647539153680389,2.46587817577521,0.5445020185570556,-0.0007861973558681049,5.928173710673695e-05,-0.00023941513043146658,0.0003783191548693893,6.243380075251192e-05,-6.680791247053094e-05,-1.838970563239143e-05,0.0,0.0,0.0,0.0,0.0,0.0,0.0,-0.00032856026840577535,9.891089640168271e-05,-0.00014023934137408212,-0.00014968085707289802,0.0001271156715019206,-5.6407559555715636e-05,9.566897326562795e-06,0.0007861973558681049,-5.928173710673695e-05,0.00023941513043146658,-0.0003783191548693893,-6.243380075251192e-05,6.680791247053094e-05,1.838970563239143e-05,0.5815059542655945,34.06295394897461,3.9974029064178467,-19.289278030395508,-0.2722068428993225,-1.790164589881897,0.11111776530742645,0
35,0.16994214057922363,-0.5815059542655945,-34.06295394897461,-3.9974029064178467,19.289278030395508,0.2722068428993225,1.790164589881897,-0.11111776530742645,0.0,0.0,0.0,0.0,0.0,0.0,0.0,-0.652081163580258,0.020966097026382993,-0.48160021689274,0.2831781363218048,0.22226855478157637,-0.11458814319474118,-0.10476175375470591,1.0547390361624303,0.32376259371272303,-0.3923643229998526,-2.153142106675265,0.864626799696537,2.4659345833347657,0.544492451659729,1.0544104758940245,0.3238615046091247,-0.39250456234122666,-2.153291787532338,0.8647539153680389,2.46587817577521,0.5445020185570556,-0.0007861973558681049,5.928173710673695e-05,-0.00023941513043146658,0.0003783191548693893,6.243380075251192e-05,-6.680791247053094e-05,-1.838970563239143e-05,0.0,0.0,0.0,0.0,0.0,0.0,0.0,-0.00032856026840577535,9.891089640168271e-05,-0.00014023934137408212,-0.00014968085707289802,0.0001271156715019206,-5.6407559555715636e-05,9.566897326562795e-06,0.0007861973558681049,-5.928173710673695e-05,0.00023941513043146658,-0.0003783191548693893,-6.243380075251192e-05,6.680791247053094e-05,1.838970563239143e-05,0.5815059542655945,34.06295394897461,3.9974029064178467,-19.289278030395508,-0.2722068428993225,-1.790164589881897,0.11111776530742645,0
36,0.1749887466430664,-0.6806880831718445,-34.01534652709961,-3.9974029064178467,19.336885452270508,0.2722068428993225,1.796573281288147,-0.12485067546367645,0.0,0.0,0.0,0.0,0.0,0.0,0.0,-0.6635193000616291,0.013847490403379733,-0.4936887813129745,0.28395369745203136,0.2231357111755424,-0.11263157808107212,-0.10575968986036735,1.0547452811651057,0.32375925284101253,-0.39236424349110294,-2.153145447546976,0.8646267992604498,2.465938266769074,0.5444907986419705,1.0544104758940245,0.3238615046091247,-0.39250456234122666,-2.153291787532338,0.8647539153680389,2.46587817577521,0.5445020185570556,0.0013892647942426199,-0.0007907322614446861,-0.00146165828938723,-0.0008118386940264069,-2.444263768530105e-05,-0.00019207364891399084,0.001251486913844439,0.0,0.0,0.0,0.0,0.0,0.0,0.0,-0.0003348052710812066,0.00010225176811218262,-0.0001403188501237218,-0.00014633998536206505,0.00012711610758908698,-6.009099386394823e-05,1.1219915085125542e-05,-0.0013892647942426199,0.0007907322614446861,0.00146165828938723,0.0008118386940264069,2.444263768530105e-05,0.00019207364891399084,-0.001251486913844439,0.6806880831718445,34.01534652709961,3.9974029064178467,-19.336885452270508,-0.2722068428993225,-1.796573281288147,0.12485067546367645,0
37,0.17998480796813965,-0.6806880831718445,-34.01534652709961,-3.9974029064178467,19.336885452270508,0.2722068428993225,1.796573281288147,-0.12485067546367645,0.0,0.0,0.0,0.0,0.0,0.0,0.0,-0.6635193000616291,0.013847490403379733,-0.4936887813129745,0.28395369745203136,0.2231357111755424,-0.11263157808107212,-0.10575968986036735,1.0547452811651057,0.32375925284101253,-0.39236424349110294,-2.153145447546976,0.8646267992604498,2.465938266769074,0.5444907986419705,1.0544104758940245,0.3238615046091247,-0.39250456234122666,-2.153291787532338,0.8647539153680389,2.46587817577521,0.5445020185570556,0.0013892647942426199,-0.0007907322614446861,-0.00146165828938723,-0.0008118386940264069,-2.444263768530105e-05,-0.00019207364891399084,0.001251486913844439,0.0,0.0,0.0,0.0,0.0,0.0,0.0,-0.0003348052710812066,0.00010225176811218262,-0.0001403188501237218,-0.00014633998536206505,0.00012711610758908698,-6.009099386394823e-05,1.1219915085125542e-05,-0.0013892647942426199,0.0007907322614446861,0.00146165828938723,0.0008118386940264069,2.444263768530105e-05,0.00019207364891399084,-0.001251486913844439,0.6806880831718445,34.01534652709961,3.9974029064178467,-19.336885452270508,-0.2722068428993225,-1.796573281288147,0.12485067546367645,0
38,0.18499159812927246,-0.6291133761405945,-34.06295394897461,-4.025173664093018,19.289278030395508,0.2841086983680725,1.763614296913147,-0.06351034343242645,0.0,0.0,0.0,0.0,0.0,0.0,0.0,-0.6367439678027982,0.014897823051360826,-0.47232518249002753,0.2850974877114986,0.22200395437996218,-0.11364557243071981,-0.10501736255503917,1.0547423771391196,0.32376259371272303,-0.3923622946655541,-2.153142106675265,0.8646258344054224,2.4659419272882057,0.5444871619459656,1.0544104758940245,0.3238615046091247,-0.39250456234122666,-2.153291787532338,0.8647539153680389,2.46587817577521,0.5445020185570556,1.01709241535062e-05,0.00024849486307058677,1.2960460659469318e-05,0.00037894654578446874,-0.0003130630508378418,0.0011269500940843692,-0.0014493922972498286,0.0,0.0,0.0,0.0,0.0,0.0,0.0,-0.0003319012450950787,9.891089640168271e-05,-0.00014226767567254717,-0.00014968085707289802,0.0001280809626165169,-6.375151299575776e-05,1.4856611090019456e-05,-1.01709241535062e-05,-0.00024849486307058677,-1.2960460659469318e-05,-0.00037894654578446874,0.0003130630508378418,-0.0011269500940843692,0.0014493922972498286,0.6291133761405945,34.06295394897461,4.025173664093018,-19.289278030395508,-0.2841086983680725,-1.763614296913147,0.06351034343242645,0
39,0.18999123573303223,-0.6291133761405945,-34.06295394897461,-4.025173664093018,19.289278030395508,0.2841086983680725,1.763614296913147,-0.06351034343242645,0.0,0.0,0.0,0.0,0.0,0.0,0.0,-0.6367439678027982,0.014897823051360826,-0.47232518249002753,0.2850974877114986,0.22200395437996218,-0.11364557243071981,-0.10501736255503917,1.0547423771391196,0.32376259371272303,-0.3923622946655541,-2.153142106675265,0.8646258344054224,2.4659419272882057,0.5444871619459656,1.0544104758940245,0.3238615046091247,-0.39250456234122666,-2.153291787532338,0.8647539153680389,2.46587817577521,0.5445020185570556,1.01709241535062e-05,0.00024849486307058677,1.2960460659469318e-05,0.00037894654578446874,-0.0003130630508378418,0.0011269500940843692,-0.0014493922972498286,0.0,0.0,0.0,0.0,0.0,0.0,0.0,-0.0003319012450950787,9.891089640168271e-05,-0.00014226767567254717,-0.00014968085707289802,0.0001280809626165169,-6.375151299575776e-05,1.4856611090019456e-05,-1.01709241535062e-05,-0.00024849486307058677,-1.2960460659469318e-05,-0.00037894654578446874,0.0003130630508378418,-0.0011269500940843692,0.0014493922972498286,0.6291133761405945,34.06295394897461,4.025173664093018,-19.289278030395508,-0.2841086983680725,-1.763614296913147,0.06351034343242645,0
40,0.19498777389526367,-0.6291133761405945,-34.01534652709961,-4.048977375030518,19.313081741333008,0.2722068428993225,1.790164589881897,-0.13217489421367645,0.0,0.0,0.0,0.0,0.0,0.0,0.0,-0.6502062928229502,0.027549968896478223,-0.4820171125980674,0.2752861204803194,0.22273322655828956,-0.1135818216756148,-0.1040868106550509,1.0547423771431572,0.32375925284101253,-0.39236062422969886,-2.1531437771111204,0.8646267999165634,2.4659389788707005,0.5444947918429586,1.0544104758940245,0.3238615046091247,-0.39250456234122666,-2.153291787532338,0.8647539153680389,2.46587817577521,0.5445020185570556,-0.00048188730669438003,7.575466471565347e-05,-0.000292848854837494,-0.0006383870024912582,2.339301891583882e-05,0.00011616084600776123,0.0009493897509058952,0.0,0.0,0.0,0.0,0.0,0.0,0.0,-0.0003319012491327378,0.00010225176811218262,-0.00014393811152779712,-0.00014801042121748154,0.0001271154514754791,-6.080309549050256e-05,7.226714097030573e-06,0.00048188730669438003,-7.575466471565347e-05,0.000292848854837494,0.0006383870024912582,-2.339301891583882e-05,-0.00011616084600776123,-0.0009493897509058952,0.6291133761405945,34.01534652709961,4.048977375030518,-19.313081741333008,-0.2722068428993225,-1.790164589881897,0.13217489421367645,0
41,0.19998955726623535,-0.6291133761405945,-34.01534652709961,-4.048977375030518,19.313081741333008,0.2722068428993225,1.790164589881897,-0.13217489421367645,0.0,0.0,0.0,0.0,0.0,0.0,0.0,-0.6502062928229502,0.027549968896478223,-0.4820171125980674,0.2752861204803194,0.22273322655828956,-0.1135818216756148,-0.1040868106550509,1.0547423771431572,0.32375925284101253,-0.39236062422969886,-2.1531437771111204,0.8646267999165634,2.4659389788707005,0.5444947918429586,1.0544104758940245,0.3238615046091247,-0.39250456234122666,-2.153291787532338,0.8647539153680389,2.46587817577521,0.5445020185570556,-0.00048188730669438003,7.575466471565347e-05,-0.000292848854837494,-0.0006383870024912582,2.339301891583882e-05,0.00011616084600776123,0.0009493897509058952,0.0,0.0,0.0,0.0,0.0,0.0,0.0,-0.0003319012491327378,0.00010225176811218262,-0.00014393811152779712,-0.00014801042121748154,0.0001271154514754791,-6.080309549050256e-05,7.226714097030573e-06,0.00048188730669438003,-7.575466471565347e-05,0.000292848854837494,0.0006383870024912582,-2.339301891583882e-05,-0.00011616084600776123,-0.0009493897509058952,0.6291133761405945,34.01534652709961,4.048977375030518,-19.313081741333008,-0.2722068428993225,-1.790164589881897,0.13217489421367645,0
42,0.20494842529296875,-0.6291133761405945,-34.01534652709961,-4.025173664093018,19.336885452270508,0.2786155343055725,1.796573281288147,-0.12485067546367645,0.0,0.0,0.0,0.0,0.0,0.0,0.0,-0.6277604858440782,0.022900541209069144,-0.4651818191498289,0.2815131316419142,0.22186096710651979,-0.11429572019172941,-0.10592971875435639,1.0547423771431572,0.32375925284101253,-0.3923622946655541,-2.153145447546976,0.8646262460748393,2.4659381490563166,0.5444908030026241,1.0544104758940245,0.3238615046091247,-0.39250456234122666,-2.153291787532338,0.8647539153680389,2.46587817577521,0.5445020185570556,0.00031095426481683757,-0.00020083089868605966,-0.0001604562925690894,-0.0008409339976336007,6.537686485382463e-05,-0.0002661034165033199,0.00047520469009295637,0.0,0.0,0.0,0.0,0.0,0.0,0.0,-0.0003319012491327378,0.00010225176811218262,-0.00014226767567254717,-0.00014633998536206505,0.00012766929319962816,-5.997328110662892e-05,1.1215554431509567e-05,-0.00031095426481683757,0.00020083089868605966,0.0001604562925690894,0.0008409339976336007,-6.537686485382463e-05,0.0002661034165033199,-0.00047520469009295637,0.6291133761405945,34.01534652709961,4.025173664093018,-19.336885452270508,-0.2786155343055725,-1.796573281288147,0.12485067546367645,0
43,0.20999383926391602,-0.6291133761405945,-34.01534652709961,-4.025173664093018,19.336885452270508,0.2786155343055725,1.796573281288147,-0.12485067546367645,0.0,0.0,0.0,0.0,0.0,0.0,0.0,-0.6277604858440782,0.022900541209069144,-0.4651818191498289,0.2815131316419142,0.22186096710651979,-0.11429572019172941,-0.10592971875435639,1.0547423771431572,0.32375925284101253,-0.3923622946655541,-2.153145447546976,0.8646262460748393,2.4659381490563166,0.5444908030026241,1.0544104758940245,0.3238615046091247,-0.39250456234122666,-2.153291787532338,0.8647539153680389,2.46587817577521,0.5445020185570556,0.00031095426481683757,-0.00020083089868605966,-0.0001604562925690894,-0.0008409339976336007,6.537686485382463e-05,-0.0002661034165033199,0.00047520469009295637,0.0,0.0,0.0,0.0,0.0,0.0,0.0,-0.0003319012491327378,0.00010225176811218262,-0.00014226767567254717,-0.00014633998536206505,0.00012766929319962816,-5.997328110662892e-05,1.1215554431509567e-05,-0.00031095426481683757,0.00020083089868605966,0.0001604562925690894,0.0008409339976336007,-6.537686485382463e-05,0.0002661034165033199,-0.00047520469009295637,0.6291133761405945,34.01534652709961,4.025173664093018,-19.336885452270508,-0.2786155343055725,-1.796573281288147,0.12485067546367645,0
44,0.21500945091247559,-0.6291133761405945,-34.06295394897461,-4.048977375030518,19.336885452270508,0.2841086983680725,1.790164589881897,-0.11844198405742645,0.0,0.0,0.0,0.0,0.0,0.0,0.0,-0.6432253823864806,0.024469635584995587,-0.47892715634734334,0.2798871858961347,0.2235982244601506,-0.11328758567579898,-0.10744183763932534,1.0547423771431572,0.32376259371272303,-0.39236062422969886,-2.153146189293666,0.8646254768329588,2.4659389265422362,0.5444900996291794,1.0544104758940245,0.3238615046091247,-0.39250456234122666,-2.153291787532338,0.8647539153680389,2.46587817577521,0.5445020185570556,-0.00028124048344982307,0.0002792902499662207,0.00012666471980007736,-0.0008584856879280511,-0.0002605352303471728,-0.00013999928091364358,0.0008960640599367919,0.0,0.0,0.0,0.0,0.0,0.0,0.0,-0.0003319012491327378,9.891089640168271e-05,-0.00014393811152779712,-0.00014559823867177357,0.00012843853508015535,-6.075076702627413e-05,1.1918927876219954e-05,0.00028124048344982307,-0.0002792902499662207,-0.00012666471980007736,0.0008584856879280511,0.0002605352303471728,0.00013999928091364358,-0.0008960640599367919,0.6291133761405945,34.06295394897461,4.048977375030518,-19.336885452270508,-0.2841086983680725,-1.790164589881897,0.11844198405742645,0
45,0.2199876308441162,-0.6291133761405945,-34.06295394897461,-4.048977375030518,19.336885452270508,0.2841086983680725,1.790164589881897,-0.11844198405742645,0.0,0.0,0.0,0.0,0.0,0.0,0.0,-0.6432253823864806,0.024469635584995587,-0.47892715634734334,0.2798871858961347,0.2235982244601506,-0.11328758567579898,-0.10744183763932534,1.0547423771431572,0.32376259371272303,-0.39236062422969886,-2.153146189293666,0.8646254768329588,2.4659389265422362,0.5444900996291794,1.0544104758940245,0.3238615046091247,-0.39250456234122666,-2.153291787532338,0.8647539153680389,2.46587817577521,0.5445020185570556,-0.00028124048344982307,0.0002792902499662207,0.00012666471980007736,-0.0008584856879280511,-0.0002605352303471728,-0.00013999928091364358,0.0008960640599367919,0.0,0.0,0.0,0.0,0.0,0.0,0.0,-0.0003319012491327378,9.891089640168271e-05,-0.00014393811152779712,-0.00014559823867177357,0.00012843853508015535,-6.075076702627413e-05,1.1918927876219954e-05,0.00028124048344982307,-0.0002792902499662207,-0.00012666471980007736,0.0008584856879280511,0.0002605352303471728,0.00013999928091364358,-0.0008960640599367919,0.6291133761405945,34.06295394897461,4.048977375030518,-19.336885452270508,-0.2841086983680725,-1.790164589881897,0.11844198405742645,0
46,0.22493696212768555,-0.6806880831718445,-33.99154281616211,-4.048977375030518,19.289278030395508,0.2722068428993225,1.796573281288147,-0.13217489421367645,0.0,0.0,0.0,0.0,0.0,0.0,0.0,-0.6534397940170772,0.03306262887743855,-0.4868928897136485,0.2764569544790432,0.22431647251381953,-0.1136487894284128,-0.10745032817319684,1.0547459696028416,0.32375758240515723,-0.39236062422969886,-2.153142106679452,0.8646267992059392,2.465938266793591,0.5444916124800178,1.0544104758940245,0.3238615046091247,-0.39250456234122666,-2.153291787532338,0.8647539153680389,2.46587817577521,0.5445020185570556,0.0002843060333855202,-0.0011289525928547656,-0.0003988315493683343,0.0009904864438443908,8.189767681360107e-05,-0.00024627724067657967,0.0016315039320610762,0.0,0.0,0.0,0.0,0.0,0.0,0.0,-0.00033549370881713614,0.00010392220396748808,-0.00014393811152779712,-0.00014968085288602495,0.00012711616209970522,-6.0091018381225325e-05,1.0406077037838912e-05,-0.0002843060333855202,0.0011289525928547656,0.0003988315493683343,-0.0009904864438443908,-8.189767681360107e-05,0.00024627724067657967,-0.0016315039320610762,0.6806880831718445,33.99154281616211,4.048977375030518,-19.289278030395508,-0.2722068428993225,-1.796573281288147,0.13217489421367645,0
47,0.22999310493469238,-0.6806880831718445,-33.99154281616211,-4.048977375030518,19.289278030395508,0.2722068428993225,1.796573281288147,-0.13217489421367645,0.0,0.0,0.0,0.0,0.0,0.0,0.0,-0.6534397940170772,0.03306262887743855,-0.4868928897136485,0.2764569544790432,0.22431647251381953,-0.1136487894284128,-0.10745032817319684,1.0547459696028416,0.32375758240515723,-0.39236062422969886,-2.153142106679452,0.8646267992059392,2.465938266793591,0.5444916124800178,1.0544104758940245,0.3238615046091247,-0.39250456234122666,-2.153291787532338,0.8647539153680389,2.46587817577521,0.5445020185570556,0.0002843060333855202,-0.0011289525928547656,-0.0003988315493683343,0.0009904864438443908,8.189767681360107e-05,-0.00024627724067657967,0.0016315039320610762,0.0,0.0,0.0,0.0,0.0,0.0,0.0,-0.00033549370881713614,0.00010392220396748808,-0.00014393811152779712,-0.00014968085288602495,0.00012711616209970522,-6.0091018381225325e-05,1.0406077037838912e-05,-0.0002843060333855202,0.0011289525928547656,0.0003988315493683343,-0.0009904864438443908,-8.189767681360107e-05,0.00024627724067657967,-0.0016315039320610762,0.6806880831718445,33.99154281616211,4.048977375030518,-19.289278030395508,-0.2722068428993225,-1.796573281288147,0.13217489421367645,0
48,0.23502087593078613,-0.6806880831718445,-34.03915023803711,-4.072781085968018,19.313081741333008,0.2786155343055725,1.790164589881897,-0.06991903483867645,0.0,0.0,0.0,0.0,0.0,0.0,0.0,-0.6536846675861501,0.02773694876662682,-0.48697629316107477,0.2799091954405403,0.22399980068950806,-0.11333934017235595,-0.10570355646592793,1.0547459964206922,0.3237609232768678,-0.3923589567372828,-2.1531437771111204,0.8646260890914088,2.465938978816874,0.5444890688410909,1.0544104758940245,0.3238615046091247,-0.39250456234122666,-2.153291787532338,0.8647539153680389,2.46587817577521,0.5445020185570556,3.619009222475385e-05,-0.0004062969250521923,-0.00018669762049731539,0.00021881867110414187,-0.00010747525079112921,0.00015011823869647917,-0.0009003952271746046,0.0,0.0,0.0,0.0,0.0,0.0,0.0,-0.000335520526667743,0.00010058133225693267,-0.00014560560394383248,-0.00014801042121748154,0.00012782627663010526,-6.080304166422579e-05,1.2949715964660768e-05,-3.619009222475385e-05,0.0004062969250521923,0.00018669762049731539,-0.00021881867110414187,0.00010747525079112921,-0.00015011823869647917,0.0009003952271746046,0.6806880831718445,34.03915023803711,4.072781085968018,-19.313081741333008,-0.2786155343055725,-1.790164589881897,0.06991903483867645,0
49,0.24003076553344727,-0.6806880831718445,-34.03915023803711,-4.072781085968018,19.313081741333008,0.2786155343055725,1.790164589881897,-0.06991903483867645,0.0,0.0,0.0,0.0,0.0,0.0,0.0,-0.6536846675861501,0.02773694876662682,-0.48697629316107477,0.2799091954405403,0.22399980068950806,-0.11333934017235595,-0.10570355646592793,1.0547459964206922,0.3237609232768678,-0.3923589567372828,-2.1531437771111204,0.8646260890914088,2.465938978816874,0.5444890688410909,1.0544104758940245,0.3238615046091247,-0.39250456234122666,-2.153291787532338,0.8647539153680389,2.46587817577521,0.5445020185570556,3.619009222475385e-05,-0.0004062969250521923,-0.00018669762049731539,0.00021881867110414187,-0.00010747525079112921,0.00015011823869647917,-0.0009003952271746046,0.0,0.0,0.0,0.0,0.0,0.0,0.0,-0.000335520526667743,0.00010058133225693267,-0.00014560560394383248,-0.00014801042121748154,0.00012782627663010526,-6.080304166422579e-05,1.2949715964660768e-05,-3.619009222475385e-05,0.0004062969250521923,0.00018669762049731539,-0.00021881867110414187,0.00010747525079112921,-0.00015011823869647917,0.0009003952271746046,0.6806880831718445,34.03915023803711,4.072781085968018,-19.313081741333008,-0.2786155343055725,-1.790164589881897,0.06991903483867645,0
50,0.24498796463012695,-0.7084590792655945,-34.03915023803711,-3.9974029064178467,19.289278030395508,0.2841086983680725,1.790164589881897,-0.06991903483867645,0.0,0.0,0.0,0.0,0.0,0.0,0.0,-0.6430179225362508,0.03324684810164434,-0.4804811475457546,0.27689111082702844,0.2231704932128611,-0.11401328871357062,-0.10296113834060804,1.0547472035159842,0.3237609232768678,-0.3923642434906707,-2.153142106675265,0.8646258476509098,2.4659386239891083,0.5444846951869254,1.0544104758940245,0.3238615046091247,-0.39250456234122666,-2.153291787532338,0.8647539153680389,2.46587817577521,0.5445020185570556,0.0008087759375056335,-0.00022041952256240735,-0.0016850405582344474,0.00028068585692658587,-0.0003382232761952022,-3.346227198411119e-07,-0.0007386185062651124,0.0,0.0,0.0,0.0,0.0,0.0,0.0,-0.0003367276219596871,0.00010058133225693267,-0.00014031885055593163,-0.00014968085707289802,0.00012806771712914333,-6.0448213898389724e-05,1.7323370130162274e-05,-0.0008087759375056335,0.00022041952256240735,0.0016850405582344474,-0.00028068585692658587,0.0003382232761952022,3.346227198411119e-07,0.0007386185062651124,0.7084590792655945,34.03915023803711,3.9974029064178467,-19.289278030395508,-0.2841086983680725,-1.790164589881897,0.06991903483867645,0
51,0.25008606910705566,-0.7084590792655945,-34.03915023803711,-3.9974029064178467,19.289278030395508,0.2841086983680725,1.790164589881897,-0.06991903483867645,0.0,0.0,0.0,0.0,0.0,0.0,0.0,-0.6430179225362508,0.03324684810164434,-0.4804811475457546,0.27689111082702844,0.2231704932128611,-0.11401328871357062,-0.10296113834060804,1.0547472035159842,0.3237609232768678,-0.3923642434906707,-2.153142106675265,0.8646258476509098,2.4659386239891083,0.5444846951869254,1.0544104758940245,0.3238615046091247,-0.39250456234122666,-2.153291787532338,0.8647539153680389,2.46587817577521,0.5445020185570556,0.0008087759375056335,-0.00022041952256240735,-0.0016850405582344474,0.00028068585692658587,-0.0003382232761952022,-3.346227198411119e-07,-0.0007386185062651124,0.0,0.0,0.0,0.0,0.0,0.0,0.0,-0.0003367276219596871,0.00010058133225693267,-0.00014031885055593163,-0.00014968085707289802,0.00012806771712914333,-6.0448213898389724e-05,1.7323370130162274e-05,-0.0008087759375056335,0.00022041952256240735,0.0016850405582344474,-0.00028068585692658587,0.0003382232761952022,3.346227198411119e-07,0.0007386185062651124,0.7084590792655945,34.03915023803711,3.9974029064178467,-19.289278030395508,-0.2841086983680725,-1.790164589881897,0.06991903483867645,0
52,0.25493741035461426,-0.6806880831718445,-34.03915023803711,-3.9974029064178467,19.313081741333008,0.2722068428993225,1.790164589881897,-0.11111776530742645,0.0,0.0,0.0,0.0,0.0,0.0,0.0,-0.6470263815596815,0.028753391118351512,-0.4837703736473187,0.27887364702214035,0.22299435564684014,-0.1139184645660305,-0.10132982161210828,1.0547459964166566,0.3237609232768678,-0.39236424349065413,-2.1531437771111204,0.8646267992080324,2.465938978868706,0.5444892729066251,1.0544104758940245,0.3238615046091247,-0.39250456234122666,-2.153291787532338,0.8647539153680389,2.46587817577521,0.5445020185570556,0.0004396664902653854,0.00010158345310653426,-0.0011119284211643153,-0.00011359789354366795,0.00021826118059723552,-0.00014796480370579137,0.00044195831249116077,0.0,0.0,0.0,0.0,0.0,0.0,0.0,-0.0003355205226320823,0.00010058133225693267,-0.00014031885057252946,-0.00014801042121748154,0.00012711616000649073,-6.0803093496097915e-05,1.2745650430523447e-05,-0.0004396664902653854,-0.00010158345310653426,0.0011119284211643153,0.00011359789354366795,-0.00021826118059723552,0.00014796480370579137,-0.00044195831249116077,0.6806880831718445,34.03915023803711,3.9974029064178467,-19.313081741333008,-0.2722068428993225,-1.790164589881897,0.11111776530742645,0
53,0.2599911689758301,-0.6806880831718445,-34.03915023803711,-3.9974029064178467,19.313081741333008,0.2722068428993225,1.790164589881897,-0.11111776530742645,0.0,0.0,0.0,0.0,0.0,0.0,0.0,-0.6470263815596815,0.028753391118351512,-0.4837703736473187,0.27887364702214035,0.22299435564684014,-0.1139184645660305,-0.10132982161210828,1.0547459964166566,0.3237609232768678,-0.39236424349065413,-2.1531437771111204,0.8646267992080324,2.465938978868706,0.5444892729066251,1.0544104758940245,0.3238615046091247,-0.39250456234122666,-2.153291787532338,0.8647539153680389,2.46587817577521,0.5445020185570556,0.0004396664902653854,0.00010158345310653426,-0.0011119284211643153,-0.00011359789354366795,0.00021826118059723552,-0.00014796480370579137,0.00044195831249116077,0.0,0.0,0.0,0.0,0.0,0.0,0.0,-0.0003355205226320823,0.00010058133225693267,-0.00014031885057252946,-0.00014801042121748154,0.00012711616000649073,-6.0803093496097915e-05,1.2745650430523447e-05,-0.0004396664902653854,-0.00010158345310653426,0.0011119284211643153,0.00011359789354366795,-0.00021826118059723552,0.00014796480370579137,-0.00044195831249116077,0.6806880831718445,34.03915023803711,3.9974029064178467,-19.313081741333008,-0.2722068428993225,-1.790164589881897,0.11111776530742645,0
54,0.26499414443969727,-0.6291133761405945,-34.03915023803711,-3.9735991954803467,19.336885452270508,0.2722068428993225,1.777347207069397,-0.05710165575146675,0.0,0.0,0.0,0.0,0.0,0.0,0.0,-0.6428188172097913,0.03519439575954875,-0.4750629281861386,0.27697806811024006,0.22256835719896556,-0.11538368984952505,-0.10134352229828646,1.0547423683128394,0.3237609232768678,-0.3923659139265094,-2.153145447546976,0.8646269189058017,2.4659372241099673,0.5444832709551695,1.0544104758940245,0.3238615046091247,-0.39250456234122666,-2.153291787532338,0.8647539153680389,2.46587817577521,0.5445020185570556,0.00010560630437501359,0.0004340806369356438,-0.0008878096750340409,-0.0003182535861020928,0.00018978538442942524,0.0004990910555568499,-0.002275691453037375,0.0,0.0,0.0,0.0,0.0,0.0,0.0,-0.0003318924188149275,0.00010058133225693267,-0.0001386484147172795,-0.00014633998536206505,0.00012699646223723882,-5.904833475733895e-05,1.8747601886137666e-05,-0.00010560630437501359,-0.0004340806369356438,0.0008878096750340409,0.0003182535861020928,-0.00018978538442942524,-0.0004990910555568499,0.002275691453037375,0.6291133761405945,34.03915023803711,3.9735991954803467,-19.336885452270508,-0.2722068428993225,-1.777347207069397,0.05710165575146675,0
55,0.2700374126434326,-0.6291133761405945,-34.03915023803711,-3.9735991954803467,19.336885452270508,0.2722068428993225,1.777347207069397,-0.05710165575146675,0.0,0.0,0.0,0.0,0.0,0.0,0.0,-0.6428188172097913,0.03519439575954875,-0.4750629281861386,0.27697806811024006,0.22256835719896556,-0.11538368984952505,-0.10134352229828646,1.0547423683128394,0.3237609232768678,-0.3923659139265094,-2.153145447546976,0.8646269189058017,2.4659372241099673,0.5444832709551695,1.0544104758940245,0.3238615046091247,-0.39250456234122666,-2.153291787532338,0.8647539153680389,2.46587817577521,0.5445020185570556,0.00010560630437501359,0.0004340806369356438,-0.0008878096750340409,-0.0003182535861020928,0.00018978538442942524,0.0004990910555568499,-0.002275691453037375,0.0,0.0,0.0,0.0,0.0,0.0,0.0,-0.0003318924188149275,0.00010058133225693267,-0.0001386484147172795,-0.00014633998536206505,0.00012699646223723882,-5.904833475733895e-05,1.8747601886137666e-05,-0.00010560630437501359,-0.0004340806369356438,0.0008878096750340409,0.0003182535861020928,-0.00018978538442942524,-0.0004990910555568499,0.002275691453037375,0.6291133761405945,34.03915023803711,3.9735991954803467,-19.336885452270508,-0.2722068428993225,-1.777347207069397,0.05710165575146675,0
56,0.2752366065979004,-0.6291133761405945,-34.03915023803711,-3.9735991954803467,19.336885452270508,0.2722068428993225,1.777347207069397,-0.05710165575146675,0.0,0.0,0.0,0.0,0.0,0.0,0.0,-0.6428188172097913,0.03519439575954875,-0.4750629281861386,0.27697806811024006,0.22256835719896556,-0.11538368984952505,-0.10134352229828646,1.0547423683128394,0.3237609232768678,-0.3923659139265094,-2.153145447546976,0.8646269189058017,2.4659372241099673,0.5444832709551695,1.0544104758940245,0.3238615046091247,-0.39250456234122666,-2.153291787532338,0.8647539153680389,2.46587817577521,0.5445020185570556,0.00010560630437501359,0.0004340806369356438,-0.0008878096750340409,-0.0003182535861020928,0.00018978538442942524,0.0004990910555568499,-0.002275691453037375,0.0,0.0,0.0,0.0,0.0,0.0,0.0,-0.0003318924188149275,0.00010058133225693267,-0.0001386484147172795,-0.00014633998536206505,0.00012699646223723882,-5.904833475733895e-05,1.8747601886137666e-05,-0.00010560630437501359,-0.0004340806369356438,0.0008878096750340409,0.0003182535861020928,-0.00018978538442942524,-0.0004990910555568499,0.002275691453037375,0.6291133761405945,34.03915023803711,3.9735991954803467,-19.336885452270508,-0.2722068428993225,-1.777347207069397,0.05710165575146675,0
57,0.2799947261810303,-0.6291133761405945,-34.03915023803711,-3.9735991954803467,19.336885452270508,0.2722068428993225,1.777347207069397,-0.05710165575146675,0.0,0.0,0.0,0.0,0.0,0.0,0.0,-0.6428188172097913,0.03519439575954875,-0.4750629281861386,0.27697806811024006,0.22256835719896556,-0.11538368984952505,-0.10134352229828646,1.0547423683128394,0.3237609232768678,-0.3923659139265094,-2.153145447546976,0.8646269189058017,2.4659372241099673,0.5444832709551695,1.0544104758940245,0.3238615046091247,-0.39250456234122666,-2.153291787532338,0.8647539153680389,2.46587817577521,0.5445020185570556,0.00010560630437501359,0.0004340806369356438,-0.0008878096750340409,-0.0003182535861020928,0.00018978538442942524,0.0004990910555568499,-0.002275691453037375,0.0,0.0,0.0,0.0,0.0,0.0,0.0,-0.0003318924188149275,0.00010058133225693267,-0.0001386484147172795,-0.00014633998536206505,0.00012699646223723882,-5.904833475733895e-05,1.8747601886137666e-05,-0.00010560630437501359,-0.0004340806369356438,0.0008878096750340409,0.0003182535861020928,-0.00018978538442942524,-0.0004990910555568499,0.002275691453037375,0.6291133761405945,34.03915023803711,3.9735991954803467,-19.336885452270508,-0.2722068428993225,-1.777347207069397,0.05710165575146675,0
58,0.28495359420776367,-0.6291133761405945,-34.03915023803711,-4.025173664093018,19.313081741333008,0.2841086983680725,1.790164589881897,-0.06351034343242645,0.0,0.0,0.0,0.0,0.0,0.0,0.0,-0.6384048604521416,0.03677880692382421,-0.46947374218856214,0.2759757407988374,0.22267986229936468,-0.11557957334375683,-0.10298415018857501,1.0547423771431075,0.3237609232768678,-0.3923622947018928,-2.1531437771111204,0.8646254767782291,2.4659389744921136,0.5444841013074994,1.0544104758940245,0.3238615046091247,-0.39250456234122666,-2.153291787532338,0.8647539153680389,2.46587817577521,0.5445020185570556,0.0007560179949189063,0.0004578400839417902,0.0007508098058015353,-0.00014237076497794263,-0.00030086501235632813,-4.95454329884919e-06,-0.001708953437498758,0.0,0.0,0.0,0.0,0.0,0.0,0.0,-0.0003319012490829998,0.00010058133225693267,-0.00014226763933383735,-0.00014801042121748154,0.0001284385898098206,-6.079871690367611e-05,1.7917249556242965e-05,-0.0007560179949189063,-0.0004578400839417902,-0.0007508098058015353,0.00014237076497794263,0.00030086501235632813,4.95454329884919e-06,0.001708953437498758,0.6291133761405945,34.03915023803711,4.025173664093018,-19.313081741333008,-0.2841086983680725,-1.790164589881897,0.06351034343242645,0
59,0.28998708724975586,-0.6291133761405945,-34.03915023803711,-4.025173664093018,19.313081741333008,0.2841086983680725,1.790164589881897,-0.06351034343242645,0.0,0.0,0.0,0.0,0.0,0.0,0.0,-0.6384048604521416,0.03677880692382421,-0.46947374218856214,0.2759757407988374,0.22267986229936468,-0.11557957334375683,-0.10298415018857501,1.0547423771431075,0.3237609232768678,-0.3923622947018928,-2.1531437771111204,0.8646254767782291,2.4659389744921136,0.5444841013074994,1.0544104758940245,0.3238615046091247,-0.39250456234122666,-2.153291787532338,0.8647539153680389,2.46587817577521,0.5445020185570556,0.0007560179949189063,0.0004578400839417902,0.0007508098058015353,-0.00014237076497794263,-0.00030086501235632813,-4.95454329884919e-06,-0.001708953437498758,0.0,0.0,0.0,0.0,0.0,0.0,0.0,-0.0003319012490829998,0.00010058133225693267,-0.00014226763933383735,-0.00014801042121748154,0.0001284385898098206,-6.079871690367611e-05,1.7917249556242965e-05,-0.0007560179949189063,-0.0004578400839417902,-0.0007508098058015353,0.00014237076497794263,0.00030086501235632813,4.95454329884919e-06,0.001708953437498758,0.6291133761405945,34.03915023803711,4.025173664093018,-19.313081741333008,-0.2841086983680725,-1.790164589881897,0.06351034343242645,0
60,0.29498720169067383,-0.6053096652030945,-34.09072494506836,-3.9974029064178467,19.336885452270508,0.2667136788368225,1.783755898475647,-0.11844198405742645,0.0,0.0,0.0,0.0,0.0,0.0,0.0,-0.645149895096859,0.027537694251426485,-0.47758390372172854,0.28291395124735536,0.22309708512220205,-0.11379504752977525,-0.103320127364188,1.0547406272344422,0.32376454255455417,-0.3923642434906543,-2.153145447546976,0.8646275292573642,2.4659396778655553,0.5444936230356187,1.0544104758940245,0.3238615046091247,-0.39250456234122666,-2.153291787532338,0.8647539153680389,2.46587817577521,0.5445020185570556,-1.6424278323379406e-05,0.001086942598788349,-0.0004877177902195858,-0.0004173713406248012,0.0002703926682595438,0.000394791569475204,0.0008231847525281055,0.0,0.0,0.0,0.0,0.0,0.0,0.0,-0.0003301513404176948,9.696205457054852e-05,-0.00014031885057236293,-0.00014633998536206505,0.0001263861106747255,-6.15020903453889e-05,8.395521436943554e-06,1.6424278323379406e-05,-0.001086942598788349,0.0004877177902195858,0.0004173713406248012,-0.0002703926682595438,-0.000394791569475204,-0.0008231847525281055,0.6053096652030945,34.09072494506836,3.9974029064178467,-19.336885452270508,-0.2667136788368225,-1.783755898475647,0.11844198405742645,0
61,0.3000004291534424,-0.6053096652030945,-34.09072494506836,-3.9974029064178467,19.336885452270508,0.2667136788368225,1.783755898475647,-0.11844198405742645,0.0,0.0,0.0,0.0,0.0,0.0,0.0,-0.645149895096859,0.027537694251426485,-0.47758390372172854,0.28291395124735536,0.22309708512220205,-0.11379504752977525,-0.103320127364188,1.0547406272344422,0.32376454255455417,-0.3923642434906543,-2.153145447546976,0.8646275292573642,2.4659396778655553,0.5444936230356187,1.0544104758940245,0.3238615046091247,-0.39250456234122666,-2.153291787532338,0.8647539153680389,2.46587817577521,0.5445020185570556,-1.6424278323379406e-05,0.001086942598788349,-0.0004877177902195858,-0.0004173713406248012,0.0002703926682595438,0.000394791569475204,0.0008231847525281055,0.0,0.0,0.0,0.0,0.0,0.0,0.0,-0.0003301513404176948,9.696205457054852e-05,-0.00014031885057236293,-0.00014633998536206505,0.0001263861106747255,-6.15020903453889e-05,8.395521436943554e-06,1.6424278323379406e-05,-0.001086942598788349,0.0004877177902195858,0.0004173713406248012,-0.0002703926682595438,-0.000394791569475204,-0.0008231847525281055,0.6053096652030945,34.09072494506836,3.9974029064178467,-19.336885452270508,-0.2667136788368225,-1.783755898475647,0.11844198405742645,0
62,0.305020809173584,-0.6568843722343445,-34.06295394897461,-3.9974029064178467,19.336885452270508,0.2786155343055725,1.790164589881897,-0.06351034343242645,0.0,0.0,0.0,0.0,0.0,0.0,0.0,-0.6299932540543294,0.03800784509546389,-0.4646656081069552,0.2784549690886262,0.22262491716880337,-0.1147132057264458,-0.1029804414836929,1.0547442190395802,0.32376259371272303,-0.39236424349065413,-2.153145447546976,0.864626087293316,2.465938926542827,0.544483983051541,1.0544104758940245,0.3238615046091247,-0.39250456234122666,-2.153291787532338,0.8647539153680389,2.46587817577521,0.5445020185570556,0.0012188057498998023,0.0007248669121641276,-0.00036939712481707344,-0.0004290938990863794,9.810278261110906e-05,0.00012458825150724523,-0.0015115803383671709,0.0,0.0,0.0,0.0,0.0,0.0,0.0,-0.0003337431455556761,9.891089640168271e-05,-0.00014031885057252946,-0.00014633998536206505,0.00012782807472289104,-6.075076761691278e-05,1.803550551460198e-05,-0.0012188057498998023,-0.0007248669121641276,0.00036939712481707344,0.0004290938990863794,-9.810278261110906e-05,-0.00012458825150724523,0.0015115803383671709,0.6568843722343445,34.06295394897461,3.9974029064178467,-19.336885452270508,-0.2786155343055725,-1.790164589881897,0.06351034343242645,0
63,0.30998969078063965,-0.6568843722343445,-34.06295394897461,-3.9974029064178467,19.336885452270508,0.2786155343055725,1.790164589881897,-0.06351034343242645,0.0,0.0,0.0,0.0,0.0,0.0,0.0,-0.6299932540543294,0.03800784509546389,-0.4646656081069552,0.2784549690886262,0.22262491716880337,-0.1147132057264458,-0.1029804414836929,1.0547442190395802,0.32376259371272303,-0.39236424349065413,-2.153145447546976,0.864626087293316,2.465938926542827,0.544483983051541,1.0544104758940245,0.3238615046091247,-0.39250456234122666,-2.153291787532338,0.8647539153680389,2.46587817577521,0.5445020185570556,0.0012188057498998023,0.0007248669121641276,-0.00036939712481707344,-0.0004290938990863794,9.810278261110906e-05,0.00012458825150724523,-0.0015115803383671709,0.0,0.0,0.0,0.0,0.0,0.0,0.0,-0.0003337431455556761,9.891089640168271e-05,-0.00014031885057252946,-0.00014633998536206505,0.00012782807472289104,-6.075076761691278e-05,1.803550551460198e-05,-0.0012188057498998023,-0.0007248669121641276,0.00036939712481707344,0.0004290938990863794,-9.810278261110906e-05,-0.00012458825150724523,0.0015115803383671709,0.6568843722343445,34.06295394897461,3.9974029064178467,-19.336885452270508,-0.2786155343055725,-1.790164589881897,0.06351034343242645,0
64,0.3149890899658203,-0.6053096652030945,-34.03915023803711,-4.048977375030518,19.313081741333008,0.2786155343055725,1.783755898475647,-0.12485067546367645,0.0,0.0,0.0,0.0,0.0,0.0,0.0,-0.637297943432339,0.03695892820771588,-0.47209928797449513,0.278902947401251,0.2230840336319994,-0.11356218614475556,-0.1031224122413516,1.0547407063796492,0.3237609232768678,-0.39236062422969886,-2.1531437771111204,0.8646260871291168,2.465939690947237,0.5444907986240256,1.0544104758940245,0.3238615046091247,-0.39250456234122666,-2.153291787532338,0.8647539153680389,2.46587817577521,0.5445020185570556,-0.0011759810854469332,0.00020941110735416002,0.0002222165883439891,-0.0001411156136963857,3.196177964625924e-05,0.0003394002026713888,0.0009527835194831309,0.0,0.0,0.0,0.0,0.0,0.0,0.0,-0.00033023048562474955,0.00010058133225693267,-0.00014393811152779712,-0.00014801042121748154,0.00012782823892210082,-6.151517202690471e-05,1.1219933029993356e-05,0.0011759810854469332,-0.00020941110735416002,-0.0002222165883439891,0.0001411156136963857,-3.196177964625924e-05,-0.0003394002026713888,-0.0009527835194831309,0.6053096652030945,34.03915023803711,4.048977375030518,-19.313081741333008,-0.2786155343055725,-1.783755898475647,0.12485067546367645,0
65,0.31995391845703125,-0.6053096652030945,-34.03915023803711,-4.048977375030518,19.313081741333008,0.2786155343055725,1.783755898475647,-0.12485067546367645,0.0,0.0,0.0,0.0,0.0,0.0,0.0,-0.637297943432339,0.03695892820771588,-0.47209928797449513,0.278902947401251,0.2230840336319994,-0.11356218614475556,-0.1031224122413516,1.0547407063796492,0.3237609232768678,-0.39236062422969886,-2.1531437771111204,0.8646260871291168,2.465939690947237,0.5444907986240256,1.0544104758940245,0.3238615046091247,-0.39250456234122666,-2.153291787532338,0.8647539153680389,2.46587817577521,0.5445020185570556,-0.0011759810854469332,0.00020941110735416002,0.0002222165883439891,-0.0001411156136963857,3.196177964625924e-05,0.0003394002026713888,0.0009527835194831309,0.0,0.0,0.0,0.0,0.0,0.0,0.0,-0.00033023048562474955,0.00010058133225693267,-0.00014393811152779712,-0.00014801042121748154,0.00012782823892210082,-6.151517202690471e-05,1.1219933029993356e-05,0.0011759810854469332,-0.00020941110735416002,-0.0002222165883439891,0.0001411156136963857,-3.196177964625924e-05,-0.0003394002026713888,-0.0009527835194831309,0.6053096652030945,34.03915023803711,4.048977375030518,-19.313081741333008,-0.2786155343055725,-1.783755898475647,0.12485067546367645,0
66,0.32498598098754883,-0.6568843722343445,-34.03915023803711,-4.025173664093018,19.336885452270508,0.2667136788368225,1.790164589881897,-0.09738485515117645,0.0,0.0,0.0,0.0,0.0,0.0,0.0,-0.6336417732563729,0.0346286297654452,-0.4695531263188549,0.27849825406859813,0.22319394575014773,-0.1141335082454467,-0.1031861326935683,1.0547443259849827,0.3237609232768678,-0.3923622946655541,-2.153145447546976,0.8646284824411073,2.4659389788707093,0.5444877861120695,1.0544104758940245,0.3238615046091247,-0.39250456234122666,-2.153291787532338,0.8647539153680389,2.46587817577521,0.5445020185570556,0.0001407548513608854,8.35761604922072e-05,-0.0002740007651938304,-0.0011443741865214542,0.0003536442316949952,-9.561967224182442e-06,-0.0002683748488319829,0.0,0.0,0.0,0.0,0.0,0.0,0.0,-0.00033385009095820983,0.00010058133225693267,-0.00014226767567254717,-0.00014633998536206505,0.00012543292693156793,-6.080309549938434e-05,1.423244498610643e-05,-0.0001407548513608854,-8.35761604922072e-05,0.0002740007651938304,0.0011443741865214542,-0.0003536442316949952,9.561967224182442e-06,0.0002683748488319829,0.6568843722343445,34.03915023803711,4.025173664093018,-19.336885452270508,-0.2667136788368225,-1.790164589881897,0.09738485515117645,0
67,0.3299891948699951,-0.6568843722343445,-34.03915023803711,-4.025173664093018,19.336885452270508,0.2667136788368225,1.790164589881897,-0.09738485515117645,0.0,0.0,0.0,0.0,0.0,0.0,0.0,-0.6336417732563729,0.0346286297654452,-0.4695531263188549,0.27849825406859813,0.22319394575014773,-0.1141335082454467,-0.1031861326935683,1.0547443259849827,0.3237609232768678,-0.3923622946655541,-2.153145447546976,0.8646284824411073,2.4659389788707093,0.5444877861120695,1.0544104758940245,0.3238615046091247,-0.39250456234122666,-2.153291787532338,0.8647539153680389,2.46587817577521,0.5445020185570556,0.0001407548513608854,8.35761604922072e-05,-0.0002740007651938304,-0.0011443741865214542,0.0003536442316949952,-9.561967224182442e-06,-0.0002683748488319829,0.0,0.0,0.0,0.0,0.0,0.0,0.0,-0.00033385009095820983,0.00010058133225693267,-0.00014226767567254717,-0.00014633998536206505,0.00012543292693156793,-6.080309549938434e-05,1.423244498610643e-05,-0.0001407548513608854,-8.35761604922072e-05,0.0002740007651938304,0.0011443741865214542,-0.0003536442316949952,9.561967224182442e-06,0.0002683748488319829,0.6568843722343445,34.03915023803711,4.025173664093018,-19.336885452270508,-0.2667136788368225,-1.790164589881897,0.09738485515117645,0
68,0.3349902629852295,-0.7084590792655945,-34.09072494506836,-4.048977375030518,19.313081741333008,0.2722068428993225,1.783755898475647,-0.08365194499492645,0.0,0.0,0.0,0.0,0.0,0.0,0.0,-0.6492558373827058,0.03489329690784974,-0.4790366768423925,0.27756413921609285,0.22372644072872538,-0.11351463398560792,-0.10234336811016408,1.0547479452626747,0.32376454255455417,-0.39236062422969886,-2.1531437771111204,0.8646268008472394,2.465939690947532,0.5444862210413633,1.0544104758940245,0.3238615046091247,-0.39250456234122666,-2.153291787532338,0.8647539153680389,2.46587817577521,0.5445020185570556,0.000578406524956906,0.0016025042752770883,-0.0004417413453617405,6.287664738230404e-05,0.0002180803705738319,0.00033671171577154073,-0.0007291933282570449,0.0,0.0,0.0,0.0,0.0,0.0,0.0,-0.0003374693686502006,9.696205457054852e-05,-0.00014393811152779712,-0.00014801042121748154,0.00012711452079949837,-6.151517232222403e-05,1.579751569225074e-05,-0.000578406524956906,-0.0016025042752770883,0.0004417413453617405,-6.287664738230404e-05,-0.0002180803705738319,-0.00033671171577154073,0.0007291933282570449,0.7084590792655945,34.09072494506836,4.048977375030518,-19.313081741333008,-0.2722068428993225,-1.783755898475647,0.08365194499492645,0
69,0.33999013900756836,-0.7084590792655945,-34.09072494506836,-4.048977375030518,19.313081741333008,0.2722068428993225,1.783755898475647,-0.08365194499492645,0.0,0.0,0.0,0.0,0.0,0.0,0.0,-0.6492558373827058,0.03489329690784974,-0.4790366768423925,0.27756413921609285,0.22372644072872538,-0.11351463398560792,-0.10234336811016408,1.0547479452626747,0.32376454255455417,-0.39236062422969886,-2.1531437771111204,0.8646268008472394,2.465939690947532,0.5444862210413633,1.0544104758940245,0.3238615046091247,-0.39250456234122666,-2.153291787532338,0.8647539153680389,2.46587817577521,0.5445020185570556,0.000578406524956906,0.0016025042752770883,-0.0004417413453617405,6.287664738230404e-05,0.0002180803705738319,0.00033671171577154073,-0.0007291933282570449,0.0,0.0,0.0,0.0,0.0,0.0,0.0,-0.0003374693686502006,9.696205457054852e-05,-0.00014393811152779712,-0.00014801042121748154,0.00012711452079949837,-6.151517232222403e-05,1.579751569225074e-05,-0.000578406524956906,-0.0016025042752770883,0.0004417413453617405,-6.287664738230404e-05,-0.0002180803705738319,-0.00033671171577154073,0.0007291933282570449,0.7084590792655945,34.09072494506836,4.048977375030518,-19.313081741333008,-0.2722068428993225,-1.783755898475647,0.08365194499492645,0
70,0.3450164794921875,-0.6568843722343445,-34.03915023803711,-4.048977375030518,19.313081741333008,0.2667136788368225,1.783755898475647,-0.11111776530742645,0.0,0.0,0.0,0.0,0.0,0.0,0.0,-0.6394130875819413,0.04101129317116363,-0.4649042550473208,0.27531771425040186,0.22312902603032123,-0.11527866896915444,-0.10171556454348112,1.054744299494035,0.3237609232768678,-0.39236062422969886,-2.1531437771111204,0.8646274095575045,2.4659386308248865,0.5444892727451192,1.0544104758940245,0.3238615046091247,-0.39250456234122666,-2.153291787532338,0.8647539153680389,2.46587817577521,0.5445020185570556,-3.854388615792882e-05,0.00036045531074619275,-3.143274431589442e-05,-4.281219241010822e-05,0.00032190806122127467,0.00029188854791645545,0.0006019055715206211,0.0,0.0,0.0,0.0,0.0,0.0,0.0,-0.0003338236000105521,0.00010058133225693267,-0.00014393811152779712,-0.00014801042121748154,0.00012650581053441634,-6.045504967655546e-05,1.2745811936443197e-05,3.854388615792882e-05,-0.00036045531074619275,3.143274431589442e-05,4.281219241010822e-05,-0.00032190806122127467,-0.00029188854791645545,-0.0006019055715206211,0.6568843722343445,34.03915023803711,4.048977375030518,-19.313081741333008,-0.2667136788368225,-1.783755898475647,0.11111776530742645,0
71,0.3499901294708252,-0.6568843722343445,-34.03915023803711,-4.048977375030518,19.313081741333008,0.2667136788368225,1.783755898475647,-0.11111776530742645,0.0,0.0,0.0,0.0,0.0,0.0,0.0,-0.6394130875819413,0.04101129317116363,-0.4649042550473208,0.27531771425040186,0.22312902603032123,-0.11527866896915444,-0.10171556454348112,1.054744299494035,0.3237609232768678,-0.39236062422969886,-2.1531437771111204,0.8646274095575045,2.4659386308248865,0.5444892727451192,1.0544104758940245,0.3238615046091247,-0.39250456234122666,-2.153291787532338,0.8647539153680389,2.46587817577521,0.5445020185570556,-3.854388615792882e-05,0.00036045531074619275,-3.143274431589442e-05,-4.281219241010822e-05,0.00032190806122127467,0.00029188854791645545,0.0006019055715206211,0.0,0.0,0.0,0.0,0.0,0.0,0.0,-0.0003338236000105521,0.00010058133225693267,-0.00014393811152779712,-0.00014801042121748154,0.00012650581053441634,-6.045504967655546e-05,1.2745811936443197e-05,3.854388615792882e-05,-0.00036045531074619275,3.143274431589442e-05,4.281219241010822e-05,-0.00032190806122127467,-0.00029188854791645545,-0.0006019055715206211,0.6568843722343445,34.03915023803711,4.048977375030518,-19.313081741333008,-0.2667136788368225,-1.783755898475647,0.11111776530742645,0
72,0.3549988269805908,-0.6291133761405945,-34.01534652709961,-4.096584796905518,19.261507034301758,0.2841086983680725,1.783755898475647,-0.08365194499492645,0.0,0.0,0.0,0.0,0.0,0.0,0.0,-0.6448294376521363,0.03555042633457838,-0.471748648706236,0.27940537700299906,0.22302581922070502,-0.11407308495821132,-0.10154987698853,1.0547423771430078,0.32375925284101253,-0.3923572833579883,-2.153140157833434,0.8646286954283713,2.4659396907800426,0.5444862254017926,1.0544104758940245,0.3238615046091247,-0.39250456234122666,-2.153291787532338,0.8647539153680389,2.46587817577521,0.5445020185570556,-0.00038113038206506674,-0.0004396585430363644,0.0013249832720445825,0.001367215835451946,-0.00013236230082451576,0.0003367076963566839,-0.0007178043364655881,0.0,0.0,0.0,0.0,0.0,0.0,0.0,-0.00033190124898330176,0.00010225176811218262,-0.00014727898323835253,-0.0001516296989039212,0.00012521993966763123,-6.151500483264627e-05,1.579315526301084e-05,0.00038113038206506674,0.0004396585430363644,-0.0013249832720445825,-0.001367215835451946,0.00013236230082451576,-0.0003367076963566839,0.0007178043364655881,0.6291133761405945,34.01534652709961,4.096584796905518,-19.261507034301758,-0.2841086983680725,-1.783755898475647,0.08365194499492645,0
73,0.35999393463134766,-0.6291133761405945,-34.01534652709961,-4.096584796905518,19.261507034301758,0.2841086983680725,1.783755898475647,-0.08365194499492645,0.0,0.0,0.0,0.0,0.0,0.0,0.0,-0.6448294376521363,0.03555042633457838,-0.471748648706236,0.27940537700299906,0.22302581922070502,-0.11407308495821132,-0.10154987698853,1.0547423771430078,0.32375925284101253,-0.3923572833579883,-2.153140157833434,0.8646286954283713,2.4659396907800426,0.5444862254017926,1.0544104758940245,0.3238615046091247,-0.39250456234122666,-2.153291787532338,0.8647539153680389,2.46587817577521,0.5445020185570556,-0.00038113038206506674,-0.0004396585430363644,0.0013249832720445825,0.001367215835451946,-0.00013236230082451576,0.0003367076963566839,-0.0007178043364655881,0.0,0.0,0.0,0.0,0.0,0.0,0.0,-0.00033190124898330176,0.00010225176811218262,-0.00014727898323835253,-0.0001516296989039212,0.00012521993966763123,-6.151500483264627e-05,1.579315526301084e-05,0.00038113038206506674,0.0004396585430363644,-0.0013249832720445825,-0.001367215835451946,0.00013236230082451576,-0.0003367076963566839,0.0007178043364655881,0.6291133761405945,34.01534652709961,4.096584796905518,-19.261507034301758,-0.2841086983680725,-1.783755898475647,0.08365194499492645,0
74,0.364990234375,-0.6568843722343445,-33.96377182006836,-4.025173664093018,19.313081741333008,0.2722068428993225,1.783755898475647,-0.05710165575146675,0.0,0.0,0.0,0.0,0.0,0.0,0.0,-0.6521976403594789,0.036099543616998256,-0.4821433951289234,0.27598118242508785,0.22404982847810156,-0.11341780205815799,-0.10184198202592326,1.0547443259849882,0.3237556335633261,-0.3923622946655541,-2.1531437771111204,0.8646268389968769,2.4659386313094003,0.5444833102011,1.0544104758940245,0.3238615046091247,-0.39250456234122666,-2.153291787532338,0.8647539153680389,2.46587817577521,0.5445020185570556,-1.1899422787326469e-05,-0.0019600871720867326,-0.0005707243680977583,-8.181770286678077e-05,0.00027931352179523696,0.00032096699719771,-0.0019785451603637734,0.0,0.0,0.0,0.0,0.0,0.0,0.0,-0.00033385009096376095,0.00010587104579862228,-0.00014226767567254717,-0.00014801042121748154,0.00012707637116204928,-6.0455534190317906e-05,1.870835595563225e-05,1.1899422787326469e-05,0.0019600871720867326,0.0005707243680977583,8.181770286678077e-05,-0.00027931352179523696,-0.00032096699719771,0.0019785451603637734,0.6568843722343445,33.96377182006836,4.025173664093018,-19.313081741333008,-0.2722068428993225,-1.783755898475647,0.05710165575146675,0
75,0.3699939250946045,-0.6568843722343445,-33.96377182006836,-4.025173664093018,19.313081741333008,0.2722068428993225,1.783755898475647,-0.05710165575146675,0.0,0.0,0.0,0.0,0.0,0.0,0.0,-0.6521976403594789,0.036099543616998256,-0.4821433951289234,0.27598118242508785,0.22404982847810156,-0.11341780205815799,-0.10184198202592326,1.0547443259849882,0.3237556335633261,-0.3923622946655541,-2.1531437771111204,0.8646268389968769,2.4659386313094003,0.5444833102011,1.0544104758940245,0.3238615046091247,-0.39250456234122666,-2.153291787532338,0.8647539153680389,2.46587817577521,0.5445020185570556,-1.1899422787326469e-05,-0.0019600871720867326,-0.0005707243680977583,-8.181770286678077e-05,0.00027931352179523696,0.00032096699719771,-0.0019785451603637734,0.0,0.0,0.0,0.0,0.0,0.0,0.0,-0.00033385009096376095,0.00010587104579862228,-0.00014226767567254717,-0.00014801042121748154,0.00012707637116204928,-6.0455534190317906e-05,1.870835595563225e-05,1.1899422787326469e-05,0.0019600871720867326,0.0005707243680977583,8.181770286678077e-05,-0.00027931352179523696,-0.00032096699719771,0.0019785451603637734,0.6568843722343445,33.96377182006836,4.025173664093018,-19.313081741333008,-0.2722068428993225,-1.783755898475647,0.05710165575146675,0
76,0.37502074241638184,-0.6291133761405945,-34.01534652709961,-3.9735991954803467,19.336885452270508,0.2722068428993225,1.777347207069397,-0.12485067546367645,0.0,0.0,0.0,0.0,0.0,0.0,0.0,-0.6323116356281274,0.03537261472148591,-0.46334628232677266,0.27812619086298873,0.22373899890262525,-0.1150749572637144,-0.1028714624908875,1.0547423771431572,0.32375925284101253,-0.3923659139265094,-2.153145447546976,0.8646271632113341,2.4659393433842323,0.5444907986240993,1.0544104758940245,0.3238615046091247,-0.39250456234122666,-2.153291787532338,0.8647539153680389,2.46587817577521,0.5445020185570556,0.0008437779270593141,-0.0006151655360233477,-0.00104026347707491,-0.00045040020004526957,0.00022795336266771295,0.00037746842471048244,0.0008845326739824912,0.0,0.0,0.0,0.0,0.0,0.0,0.0,-0.0003319012491327378,0.00010225176811218262,-0.0001386484147172795,-0.00014633998536206505,0.00012675215670476803,-6.116760902230567e-05,1.1219932956274548e-05,-0.0008437779270593141,0.0006151655360233477,0.00104026347707491,0.00045040020004526957,-0.00022795336266771295,-0.00037746842471048244,-0.0008845326739824912,0.6291133761405945,34.01534652709961,3.9735991954803467,-19.336885452270508,-0.2722068428993225,-1.777347207069397,0.12485067546367645,0
77,0.37995147705078125,-0.6291133761405945,-34.01534652709961,-3.9735991954803467,19.336885452270508,0.2722068428993225,1.777347207069397,-0.12485067546367645,0.0,0.0,0.0,0.0,0.0,0.0,0.0,-0.6323116356281274,0.03537261472148591,-0.46334628232677266,0.27812619086298873,0.22373899890262525,-0.1150749572637144,-0.1028714624908875,1.0547423771431572,0.32375925284101253,-0.3923659139265094,-2.153145447546976,0.8646271632113341,2.4659393433842323,0.5444907986240993,1.0544104758940245,0.3238615046091247,-0.39250456234122666,-2.153291787532338,0.8647539153680389,2.46587817577521,0.5445020185570556,0.0008437779270593141,-0.0006151655360233477,-0.00104026347707491,-0.00045040020004526957,0.00022795336266771295,0.00037746842471048244,0.0008845326739824912,0.0,0.0,0.0,0.0,0.0,0.0,0.0,-0.0003319012491327378,0.00010225176811218262,-0.0001386484147172795,-0.00014633998536206505,0.00012675215670476803,-6.116760902230567e-05,1.1219932956274548e-05,-0.0008437779270593141,0.0006151655360233477,0.00104026347707491,0.00045040020004526957,-0.00022795336266771295,-0.00037746842471048244,-0.0008845326739824912,0.6291133761405945,34.01534652709961,3.9735991954803467,-19.336885452270508,-0.2722068428993225,-1.777347207069397,0.12485067546367645,0
78,0.3849363327026367,-0.6291133761405945,-34.01534652709961,-3.9735991954803467,19.336885452270508,0.2722068428993225,1.777347207069397,-0.12485067546367645,0.0,0.0,0.0,0.0,0.0,0.0,0.0,-0.6323116356281274,0.03537261472148591,-0.46334628232677266,0.27812619086298873,0.22373899890262525,-0.1150749572637144,-0.1028714624908875,1.0547423771431572,0.32375925284101253,-0.3923659139265094,-2.153145447546976,0.8646271632113341,2.4659393433842323,0.5444907986240993,1.0544104758940245,0.3238615046091247,-0.39250456234122666,-2.153291787532338,0.8647539153680389,2.46587817577521,0.5445020185570556,0.0008437779270593141,-0.0006151655360233477,-0.00104026347707491,-0.00045040020004526957,0.00022795336266771295,0.00037746842471048244,0.0008845326739824912,0.0,0.0,0.0,0.0,0.0,0.0,0.0,-0.0003319012491327378,0.00010225176811218262,-0.0001386484147172795,-0.00014633998536206505,0.00012675215670476803,-6.116760902230567e-05,1.1219932956274548e-05,-0.0008437779270593141,0.0006151655360233477,0.00104026347707491,0.00045040020004526957,-0.00022795336266771295,-0.00037746842471048244,-0.0008845326739824912,0.6291133761405945,34.01534652709961,3.9735991954803467,-19.336885452270508,-0.2722068428993225,-1.777347207069397,0.12485067546367645,0
79,0.38994598388671875,-0.6291133761405945,-34.01534652709961,-3.9735991954803467,19.336885452270508,0.2722068428993225,1.777347207069397,-0.12485067546367645,0.0,0.0,0.0,0.0,0.0,0.0,0.0,-0.6323116356281274,0.03537261472148591,-0.46334628232677266,0.27812619086298873,0.22373899890262525,-0.1150749572637144,-0.1028714624908875,1.0547423771431572,0.32375925284101253,-0.3923659139265094,-2.153145447546976,0.8646271632113341,2.4659393433842323,0.5444907986240993,1.0544104758940245,0.3238615046091247,-0.39250456234122666,-2.153291787532338,0.8647539153680389,2.46587817577521,0.5445020185570556,0.0008437779270593141,-0.0006151655360233477,-0.00104026347707491,-0.00045040020004526957,0.00022795336266771295,0.00037746842471048244,0.0008845326739824912,0.0,0.0,0.0,0.0,0.0,0.0,0.0,-0.0003319012491327378,0.00010225176811218262,-0.0001386484147172795,-0.00014633998536206505,0.00012675215670476803,-6.116760902230567e-05,1.1219932956274548e-05,-0.0008437779270593141,0.0006151655360233477,0.00104026347707491,0.00045040020004526957,-0.00022795336266771295,-0.00037746842471048244,-0.0008845326739824912,0.6291133761405945,34.01534652709961,3.9735991954803467,-19.336885452270508,-0.2722068428993225,-1.777347207069397,0.12485067546367645,0
80,0.3950347900390625,-0.6053096652030945,-34.06295394897461,-4.025173664093018,19.336885452270508,0.2722068428993225,1.790164589881897,-0.12485067546367645,0.0,0.0,0.0,0.0,0.0,0.0,0.0,-0.6523480342163824,0.03611837038840161,-0.4816883684882991,0.27938745512802543,0.22458213769346808,-0.1139901243765233,-0.10317529822617601,1.0547407067073018,0.32376259371272303,-0.3923622946655541,-2.153145447546976,0.8646271568344924,2.4659347398316815,0.5444907986419705,1.0544104758940245,0.3238615046091247,-0.39250456234122666,-2.153291787532338,0.8647539153680389,2.46587817577521,0.5445020185570556,-0.000862554542662275,0.000834309790114793,0.0003143942281737693,-0.0003181296915033172,2.1765806355478668e-05,6.275104191774445e-06,0.0011163041915323876,0.0,0.0,0.0,0.0,0.0,0.0,0.0,-0.0003302308132773213,9.891089640168271e-05,-0.00014226767567254717,-0.00014633998536206505,0.00012675853354648936,-5.6564056471586355e-05,1.1219915085125542e-05,0.000862554542662275,-0.000834309790114793,-0.0003143942281737693,0.0003181296915033172,-2.1765806355478668e-05,-6.275104191774445e-06,-0.0011163041915323876,0.6053096652030945,34.06295394897461,4.025173664093018,-19.336885452270508,-0.2722068428993225,-1.790164589881897,0.12485067546367645,0
