rezayati/contactInterpretation/dataset/franka_main/labeled_data/link6/b9_4.csv
index,time,tau_J0,tau_J1,tau_J2,tau_J3,tau_J4,tau_J5,tau_J6,tau_J_d0,tau_J_d1,tau_J_d2,tau_J_d3,tau_J_d4,tau_J_d5,tau_J_d6,tau_ext0,tau_ext1,tau_ext2,tau_ext3,tau_ext4,tau_ext5,tau_ext6,q0,q1,q2,q3,q4,q5,q6,q_d0,q_d1,q_d2,q_d3,q_d4,q_d5,q_d6,dq0,dq1,dq2,dq3,dq4,dq5,dq6,dq_d0,dq_d1,dq_d2,dq_d3,dq_d4,dq_d5,dq_d6,e0,e1,e2,e3,e4,e5,e6,de0,de1,de2,de3,de4,de5,de6,etau_J0,etau_J1,etau_J2,etau_J3,etau_J4,etau_J5,etau_J6,label
1,0.0,-0.4505855441093445,-19.868005752563477,-0.4228789508342743,20.106538772583008,0.8444114327430725,2.4694857597351074,-0.28964561223983765,0.0,0.0,0.0,0.0,0.0,0.0,0.0,-0.4292927380943257,-0.06448367331911666,-0.2370022156454092,0.3642960404190207,0.2684443898695248,0.1024228862466282,-0.2708245939218325,1.2135447559482173,-0.22007390597450038,-0.007458065908154649,-2.6040846220056757,-0.10902453656586301,2.468131097846561,0.8264802996739773,1.2134413937687574,-0.2202432315892585,-0.0075118285948192216,-2.6038483821997875,-0.10888392708698907,2.4681821257803174,0.826474908251239,0.00012619936801094663,0.0011086092918497167,-0.0004665926549413776,0.0010981313647360083,0.0001758364013546243,0.0003511746853206347,0.0010861571711493455,0.0,0.0,0.0,0.0,0.0,0.0,0.0,-0.00010336217945994264,-0.00016932561475810348,-5.376268666457216e-05,0.00023623980588816096,0.00014060947887394037,5.102793375622028e-05,-5.391422738254548e-06,-0.00012619936801094663,-0.0011086092918497167,0.0004665926549413776,-0.0010981313647360083,-0.0001758364013546243,-0.0003511746853206347,-0.0010861571711493455,0.4505855441093445,19.868005752563477,0.4228789508342743,-20.106538772583008,-0.8444114327430725,-2.4694857597351074,0.28964561223983765,0
2,0.005051851272583008,-0.4505855441093445,-19.868005752563477,-0.4228789508342743,20.106538772583008,0.8444114327430725,2.4694857597351074,-0.28964561223983765,0.0,0.0,0.0,0.0,0.0,0.0,0.0,-0.4292927380943257,-0.06448367331911666,-0.2370022156454092,0.3642960404190207,0.2684443898695248,0.1024228862466282,-0.2708245939218325,1.2135447559482173,-0.22007390597450038,-0.007458065908154649,-2.6040846220056757,-0.10902453656586301,2.468131097846561,0.8264802996739773,1.2134413937687574,-0.2202432315892585,-0.0075118285948192216,-2.6038483821997875,-0.10888392708698907,2.4681821257803174,0.826474908251239,0.00012619936801094663,0.0011086092918497167,-0.0004665926549413776,0.0010981313647360083,0.0001758364013546243,0.0003511746853206347,0.0010861571711493455,0.0,0.0,0.0,0.0,0.0,0.0,0.0,-0.00010336217945994264,-0.00016932561475810348,-5.376268666457216e-05,0.00023623980588816096,0.00014060947887394037,5.102793375622028e-05,-5.391422738254548e-06,-0.00012619936801094663,-0.0011086092918497167,0.0004665926549413776,-0.0010981313647360083,-0.0001758364013546243,-0.0003511746853206347,-0.0010861571711493455,0.4505855441093445,19.868005752563477,0.4228789508342743,-20.106538772583008,-0.8444114327430725,-2.4694857597351074,0.28964561223983765,0
3,0.010044097900390625,-0.4267818331718445,-19.792627334594727,-0.4228789508342743,20.154146194458008,0.8444114327430725,2.4823031425476074,-0.30337852239608765,0.0,0.0,0.0,0.0,0.0,0.0,0.0,-0.42148276063492346,-0.05982399129481045,-0.22942724317245716,0.3588235360704839,0.2673815686530758,0.10168605920730653,-0.27088294800379226,1.2135431649852217,-0.2200792888005273,-0.007458068842737985,-2.6040909301222572,-0.1090256405465603,2.468129673692915,0.8264850059207889,1.2134413937687574,-0.2202432315892585,-0.0075118285948192216,-2.6038483821997875,-0.10888392708698907,2.4681821257803174,0.826474908251239,-0.00022271229702724085,-0.0004869835775192631,9.07552340196044e-05,-0.0006867651757519131,0.0003071431657966577,-0.00027457322663425245,0.001266190974456764,0.0,0.0,0.0,0.0,0.0,0.0,0.0,-0.0001017712164643747,-0.00016394278873119172,-5.3759752081236276e-05,0.0002425479224696936,0.00014171345957122994,5.245208740234375e-05,-1.00976695498467e-05,0.00022271229702724085,0.0004869835775192631,-9.07552340196044e-05,0.0006867651757519131,-0.0003071431657966577,0.00027457322663425245,-0.001266190974456764,0.4267818331718445,19.792627334594727,0.4228789508342743,-20.154146194458008,-0.8444114327430725,-2.4823031425476074,0.30337852239608765,0
4,0.015046358108520508,-0.4267818331718445,-19.792627334594727,-0.4228789508342743,20.154146194458008,0.8444114327430725,2.4823031425476074,-0.30337852239608765,0.0,0.0,0.0,0.0,0.0,0.0,0.0,-0.42148276063492346,-0.05982399129481045,-0.22942724317245716,0.3588235360704839,0.2673815686530758,0.10168605920730653,-0.27088294800379226,1.2135431649852217,-0.2200792888005273,-0.007458068842737985,-2.6040909301222572,-0.1090256405465603,2.468129673692915,0.8264850059207889,1.2134413937687574,-0.2202432315892585,-0.0075118285948192216,-2.6038483821997875,-0.10888392708698907,2.4681821257803174,0.826474908251239,-0.00022271229702724085,-0.0004869835775192631,9.07552340196044e-05,-0.0006867651757519131,0.0003071431657966577,-0.00027457322663425245,0.001266190974456764,0.0,0.0,0.0,0.0,0.0,0.0,0.0,-0.0001017712164643747,-0.00016394278873119172,-5.3759752081236276e-05,0.0002425479224696936,0.00014171345957122994,5.245208740234375e-05,-1.00976695498467e-05,0.00022271229702724085,0.0004869835775192631,-9.07552340196044e-05,0.0006867651757519131,-0.0003071431657966577,0.00027457322663425245,-0.001266190974456764,0.4267818331718445,19.792627334594727,0.4228789508342743,-20.154146194458008,-0.8444114327430725,-2.4823031425476074,0.30337852239608765,0
5,0.020041942596435547,-0.4267818331718445,-19.768823623657227,-0.4228789508342743,20.154146194458008,0.8499045968055725,2.4823031425476074,-0.28964561223983765,0.0,0.0,0.0,0.0,0.0,0.0,0.0,-0.4130434434417122,-0.06334753665687848,-0.22066236261844557,0.36227575327048517,0.26717540890419034,0.10258948775499685,-0.2714121467651453,1.21354308845625,-0.220081172442447,-0.007458068842754551,-2.6040900251182477,-0.10902483148486491,2.468129673692915,0.8264834839359698,1.2134413937687574,-0.2202432315892585,-0.0075118285948192216,-2.6038483821997875,-0.10888392708698907,2.4681821257803174,0.826474908251239,0.0008355852000241698,-0.0006151726333882325,0.0005172382025788338,-0.0003053323007628093,0.0002247070149200446,-7.330595662119046e-05,0.0004377285332829747,0.0,0.0,0.0,0.0,0.0,0.0,0.0,-0.0001016946874925484,-0.00016205914681149958,-5.3759752064670534e-05,0.00024164291846018315,0.00014090439787584064,5.245208740234375e-05,-8.57568473078274e-06,-0.0008355852000241698,0.0006151726333882325,-0.0005172382025788338,0.0003053323007628093,-0.0002247070149200446,7.330595662119046e-05,-0.0004377285332829747,0.4267818331718445,19.768823623657227,0.4228789508342743,-20.154146194458008,-0.8499045968055725,-2.4823031425476074,0.28964561223983765,0
6,0.02505183219909668,-0.4267818331718445,-19.768823623657227,-0.4228789508342743,20.154146194458008,0.8499045968055725,2.4823031425476074,-0.28964561223983765,0.0,0.0,0.0,0.0,0.0,0.0,0.0,-0.4130434434417122,-0.06334753665687848,-0.22066236261844557,0.36227575327048517,0.26717540890419034,0.10258948775499685,-0.2714121467651453,1.21354308845625,-0.220081172442447,-0.007458068842754551,-2.6040900251182477,-0.10902483148486491,2.468129673692915,0.8264834839359698,1.2134413937687574,-0.2202432315892585,-0.0075118285948192216,-2.6038483821997875,-0.10888392708698907,2.4681821257803174,0.826474908251239,0.0008355852000241698,-0.0006151726333882325,0.0005172382025788338,-0.0003053323007628093,0.0002247070149200446,-7.330595662119046e-05,0.0004377285332829747,0.0,0.0,0.0,0.0,0.0,0.0,0.0,-0.0001016946874925484,-0.00016205914681149958,-5.3759752064670534e-05,0.00024164291846018315,0.00014090439787584064,5.245208740234375e-05,-8.57568473078274e-06,-0.0008355852000241698,0.0006151726333882325,-0.0005172382025788338,0.0003053323007628093,-0.0002247070149200446,7.330595662119046e-05,-0.0004377285332829747,0.4267818331718445,19.768823623657227,0.4228789508342743,-20.154146194458008,-0.8499045968055725,-2.4823031425476074,0.28964561223983765,0
7,0.030040502548217773,-0.4029781222343445,-19.792627334594727,-0.4228789508342743,20.130342483520508,0.8499045968055725,2.4630770683288574,-0.28964561223983765,0.0,0.0,0.0,0.0,0.0,0.0,0.0,-0.41623508326900144,-0.059776734807210706,-0.224819992566234,0.3610159764201371,0.2680668809204575,0.10298103857206647,-0.2723067437375487,1.2135414150765231,-0.22007732322143989,-0.007457358657551264,-2.6040865011746126,-0.10902625095042973,2.468131809923384,0.8264833623222879,1.2134413937687574,-0.2202432315892585,-0.0075118285948192216,-2.6038483821997875,-0.10888392708698907,2.4681821257803174,0.826474908251239,0.00010828816695624892,0.00024058626729706707,0.0005473271116851206,-0.00022239234507284982,0.00010248265685533531,0.00039734344628452527,0.00047489064461294966,0.0,0.0,0.0,0.0,0.0,0.0,0.0,-0.00010002130776576301,-0.0001659083678186013,-5.446993726795739e-05,0.0002381189748250634,0.00014232386344065207,5.031585693338059e-05,-8.454071048880074e-06,-0.00010828816695624892,-0.00024058626729706707,-0.0005473271116851206,0.00022239234507284982,-0.00010248265685533531,-0.00039734344628452527,-0.00047489064461294966,0.4029781222343445,19.792627334594727,0.4228789508342743,-20.130342483520508,-0.8499045968055725,-2.4630770683288574,0.28964561223983765,0
8,0.03505277633666992,-0.4029781222343445,-19.792627334594727,-0.4228789508342743,20.130342483520508,0.8499045968055725,2.4630770683288574,-0.28964561223983765,0.0,0.0,0.0,0.0,0.0,0.0,0.0,-0.41623508326900144,-0.059776734807210706,-0.224819992566234,0.3610159764201371,0.2680668809204575,0.10298103857206647,-0.2723067437375487,1.2135414150765231,-0.22007732322143989,-0.007457358657551264,-2.6040865011746126,-0.10902625095042973,2.468131809923384,0.8264833623222879,1.2134413937687574,-0.2202432315892585,-0.0075118285948192216,-2.6038483821997875,-0.10888392708698907,2.4681821257803174,0.826474908251239,0.00010828816695624892,0.00024058626729706707,0.0005473271116851206,-0.00022239234507284982,0.00010248265685533531,0.00039734344628452527,0.00047489064461294966,0.0,0.0,0.0,0.0,0.0,0.0,0.0,-0.00010002130776576301,-0.0001659083678186013,-5.446993726795739e-05,0.0002381189748250634,0.00014232386344065207,5.031585693338059e-05,-8.454071048880074e-06,-0.00010828816695624892,-0.00024058626729706707,-0.0005473271116851206,0.00022239234507284982,-0.00010248265685533531,-0.00039734344628452527,-0.00047489064461294966,0.4029781222343445,19.792627334594727,0.4228789508342743,-20.130342483520508,-0.8499045968055725,-2.4630770683288574,0.28964561223983765,0
9,0.04076862335205078,-0.4029781222343445,-19.891809463500977,-0.4228789508342743,20.130342483520508,0.8563132882118225,2.4694857597351074,-0.22830526530742645,0.0,0.0,0.0,0.0,0.0,0.0,0.0,-0.4477412962489368,-0.06309104241865282,-0.25669159243364065,0.3643223715262402,0.2698013559814262,0.10264559361996249,-0.27284644188596124,1.2135414150765067,-0.22007010643544775,-0.007458068514015218,-2.6040862631775976,-0.10902696303526556,2.468131215584131,0.826476629095345,1.2134413937687574,-0.2202432315892585,-0.0075118285948192216,-2.6038483821997875,-0.10888392708698907,2.4681821257803174,0.826474908251239,-0.0005217169828840925,0.0018775155613695459,0.00031759910421454,-0.00016934403664128325,-0.00022955771977310196,-2.7993967865076544e-05,-0.002031821234291563,0.0,0.0,0.0,0.0,0.0,0.0,0.0,-0.00010002130774933171,-0.00017312515381073812,-5.3760080804003164e-05,0.00023788097781007878,0.0001430359482764848,5.0910196186304546e-05,-1.7208441059901602e-06,0.0005217169828840925,-0.0018775155613695459,-0.00031759910421454,0.00016934403664128325,0.00022955771977310196,2.7993967865076544e-05,0.002031821234291563,0.4029781222343445,19.891809463500977,0.4228789508342743,-20.130342483520508,-0.8563132882118225,-2.4694857597351074,0.22830526530742645,0
10,0.045044660568237305,-0.4029781222343445,-19.891809463500977,-0.4228789508342743,20.130342483520508,0.8563132882118225,2.4694857597351074,-0.22830526530742645,0.0,0.0,0.0,0.0,0.0,0.0,0.0,-0.4477412962489368,-0.06309104241865282,-0.25669159243364065,0.3643223715262402,0.2698013559814262,0.10264559361996249,-0.27284644188596124,1.2135414150765067,-0.22007010643544775,-0.007458068514015218,-2.6040862631775976,-0.10902696303526556,2.468131215584131,0.826476629095345,1.2134413937687574,-0.2202432315892585,-0.0075118285948192216,-2.6038483821997875,-0.10888392708698907,2.4681821257803174,0.826474908251239,-0.0005217169828840925,0.0018775155613695459,0.00031759910421454,-0.00016934403664128325,-0.00022955771977310196,-2.7993967865076544e-05,-0.002031821234291563,0.0,0.0,0.0,0.0,0.0,0.0,0.0,-0.00010002130774933171,-0.00017312515381073812,-5.3760080804003164e-05,0.00023788097781007878,0.0001430359482764848,5.0910196186304546e-05,-1.7208441059901602e-06,0.0005217169828840925,-0.0018775155613695459,-0.00031759910421454,0.00016934403664128325,0.00022955771977310196,2.7993967865076544e-05,0.002031821234291563,0.4029781222343445,19.891809463500977,0.4228789508342743,-20.130342483520508,-0.8563132882118225,-2.4694857597351074,0.22830526530742645,0
11,0.050024986267089844,-0.4267818331718445,-19.792627334594727,-0.4228789508342743,20.130342483520508,0.8563132882118225,2.4887118339538574,-0.24112264811992645,0.0,0.0,0.0,0.0,0.0,0.0,0.0,-0.41616315794116043,-0.05594294858795591,-0.21757004597668825,0.3595499907209902,0.26783242520411155,0.10223169466203791,-0.27201227279671325,1.2135430855123621,-0.22007851236320458,-0.007458068842752696,-2.6040872106783657,-0.1090269630352656,2.468128963070307,0.8264777354064688,1.2134413937687574,-0.2202432315892585,-0.0075118285948192216,-2.6038483821997875,-0.10888392708698907,2.4681821257803174,0.826474908251239,-0.00019183358720752756,-5.939850475273979e-05,9.816781325302641e-05,3.804282494755747e-05,-0.00018458701751136006,-0.0003709997678281207,-0.0010368087701151094,0.0,0.0,0.0,0.0,0.0,0.0,0.0,-0.0001016917436047482,-0.00016471922605390543,-5.375975206652582e-05,0.00023882847857814582,0.00014303594827652644,5.316271001021278e-05,-2.8271552298120284e-06,0.00019183358720752756,5.939850475273979e-05,-9.816781325302641e-05,-3.804282494755747e-05,0.00018458701751136006,0.0003709997678281207,0.0010368087701151094,0.4267818331718445,19.792627334594727,0.4228789508342743,-20.130342483520508,-0.8563132882118225,-2.4887118339538574,0.24112264811992645,0
12,0.05503964424133301,-0.4267818331718445,-19.792627334594727,-0.4228789508342743,20.130342483520508,0.8563132882118225,2.4887118339538574,-0.24112264811992645,0.0,0.0,0.0,0.0,0.0,0.0,0.0,-0.41616315794116043,-0.05594294858795591,-0.21757004597668825,0.3595499907209902,0.26783242520411155,0.10223169466203791,-0.27201227279671325,1.2135430855123621,-0.22007851236320458,-0.007458068842752696,-2.6040872106783657,-0.1090269630352656,2.468128963070307,0.8264777354064688,1.2134413937687574,-0.2202432315892585,-0.0075118285948192216,-2.6038483821997875,-0.10888392708698907,2.4681821257803174,0.826474908251239,-0.00019183358720752756,-5.939850475273979e-05,9.816781325302641e-05,3.804282494755747e-05,-0.00018458701751136006,-0.0003709997678281207,-0.0010368087701151094,0.0,0.0,0.0,0.0,0.0,0.0,0.0,-0.0001016917436047482,-0.00016471922605390543,-5.375975206652582e-05,0.00023882847857814582,0.00014303594827652644,5.316271001021278e-05,-2.8271552298120284e-06,0.00019183358720752756,5.939850475273979e-05,-9.816781325302641e-05,-3.804282494755747e-05,0.00018458701751136006,0.0003709997678281207,0.0010368087701151094,0.4267818331718445,19.792627334594727,0.4228789508342743,-20.130342483520508,-0.8563132882118225,-2.4887118339538574,0.24112264811992645,0
13,0.0600438117980957,-0.4505855441093445,-19.816431045532227,-0.4228789508342743,20.106538772583008,0.8563132882118225,2.4630770683288574,-0.23471395671367645,0.0,0.0,0.0,0.0,0.0,0.0,0.0,-0.4183886326260095,-0.056826065376850844,-0.21787699791700632,0.3600300585374531,0.2674806633149856,0.10289161361802777,-0.27041250532794925,1.2135447559482173,-0.22007562599429714,-0.007458068842754551,-2.6040852332203626,-0.10902660816687124,2.468131809923392,0.826476970784702,1.2134413937687574,-0.2202432315892585,-0.0075118285948192216,-2.6038483821997875,-0.10888392708698907,2.4681821257803174,0.826474908251239,0.00010052777575881246,0.000840275454454486,-0.00024238060582144717,0.0010594801345332984,-0.00013544660828935346,0.00025998969937378097,-0.001513203857948023,0.0,0.0,0.0,0.0,0.0,0.0,0.0,-0.00010336217945994264,-0.0001676055949613453,-5.3759752064670534e-05,0.00023685102057502405,0.00014268107988216205,5.031585692538698e-05,-2.0625334629098546e-06,-0.00010052777575881246,-0.000840275454454486,0.00024238060582144717,-0.0010594801345332984,0.00013544660828935346,-0.00025998969937378097,0.001513203857948023,0.4505855441093445,19.816431045532227,0.4228789508342743,-20.106538772583008,-0.8563132882118225,-2.4630770683288574,0.23471395671367645,0
14,0.06505346298217773,-0.4505855441093445,-19.816431045532227,-0.4228789508342743,20.106538772583008,0.8563132882118225,2.4630770683288574,-0.23471395671367645,0.0,0.0,0.0,0.0,0.0,0.0,0.0,-0.4183886326260095,-0.056826065376850844,-0.21787699791700632,0.3600300585374531,0.2674806633149856,0.10289161361802777,-0.27041250532794925,1.2135447559482173,-0.22007562599429714,-0.007458068842754551,-2.6040852332203626,-0.10902660816687124,2.468131809923392,0.826476970784702,1.2134413937687574,-0.2202432315892585,-0.0075118285948192216,-2.6038483821997875,-0.10888392708698907,2.4681821257803174,0.826474908251239,0.00010052777575881246,0.000840275454454486,-0.00024238060582144717,0.0010594801345332984,-0.00013544660828935346,0.00025998969937378097,-0.001513203857948023,0.0,0.0,0.0,0.0,0.0,0.0,0.0,-0.00010336217945994264,-0.0001676055949613453,-5.3759752064670534e-05,0.00023685102057502405,0.00014268107988216205,5.031585692538698e-05,-2.0625334629098546e-06,-0.00010052777575881246,-0.000840275454454486,0.00024238060582144717,-0.0010594801345332984,0.00013544660828935346,-0.00025998969937378097,0.001513203857948023,0.4505855441093445,19.816431045532227,0.4228789508342743,-20.106538772583008,-0.8563132882118225,-2.4630770683288574,0.23471395671367645,0
15,0.07007718086242676,-0.4505855441093445,-19.816431045532227,-0.4228789508342743,20.106538772583008,0.8563132882118225,2.4630770683288574,-0.23471395671367645,0.0,0.0,0.0,0.0,0.0,0.0,0.0,-0.4183886326260095,-0.056826065376850844,-0.21787699791700632,0.3600300585374531,0.2674806633149856,0.10289161361802777,-0.27041250532794925,1.2135447559482173,-0.22007562599429714,-0.007458068842754551,-2.6040852332203626,-0.10902660816687124,2.468131809923392,0.826476970784702,1.2134413937687574,-0.2202432315892585,-0.0075118285948192216,-2.6038483821997875,-0.10888392708698907,2.4681821257803174,0.826474908251239,0.00010052777575881246,0.000840275454454486,-0.00024238060582144717,0.0010594801345332984,-0.00013544660828935346,0.00025998969937378097,-0.001513203857948023,0.0,0.0,0.0,0.0,0.0,0.0,0.0,-0.00010336217945994264,-0.0001676055949613453,-5.3759752064670534e-05,0.00023685102057502405,0.00014268107988216205,5.031585692538698e-05,-2.0625334629098546e-06,-0.00010052777575881246,-0.000840275454454486,0.00024238060582144717,-0.0010594801345332984,0.00013544660828935346,-0.00025998969937378097,0.001513203857948023,0.4505855441093445,19.816431045532227,0.4228789508342743,-20.106538772583008,-0.8563132882118225,-2.4630770683288574,0.23471395671367645,0
16,0.07505536079406738,-0.4505855441093445,-19.816431045532227,-0.4228789508342743,20.106538772583008,0.8563132882118225,2.4630770683288574,-0.23471395671367645,0.0,0.0,0.0,0.0,0.0,0.0,0.0,-0.4183886326260095,-0.056826065376850844,-0.21787699791700632,0.3600300585374531,0.2674806633149856,0.10289161361802777,-0.27041250532794925,1.2135447559482173,-0.22007562599429714,-0.007458068842754551,-2.6040852332203626,-0.10902660816687124,2.468131809923392,0.826476970784702,1.2134413937687574,-0.2202432315892585,-0.0075118285948192216,-2.6038483821997875,-0.10888392708698907,2.4681821257803174,0.826474908251239,0.00010052777575881246,0.000840275454454486,-0.00024238060582144717,0.0010594801345332984,-0.00013544660828935346,0.00025998969937378097,-0.001513203857948023,0.0,0.0,0.0,0.0,0.0,0.0,0.0,-0.00010336217945994264,-0.0001676055949613453,-5.3759752064670534e-05,0.00023685102057502405,0.00014268107988216205,5.031585692538698e-05,-2.0625334629098546e-06,-0.00010052777575881246,-0.000840275454454486,0.00024238060582144717,-0.0010594801345332984,0.00013544660828935346,-0.00025998969937378097,0.001513203857948023,0.4505855441093445,19.816431045532227,0.4228789508342743,-20.106538772583008,-0.8563132882118225,-2.4630770683288574,0.23471395671367645,0
17,0.08002066612243652,-0.4029781222343445,-19.768823623657227,-0.3990752398967743,20.130342483520508,0.8499045968055725,2.4630770683288574,-0.25485557317733765,0.0,0.0,0.0,0.0,0.0,0.0,0.0,-0.4179062314525807,-0.0570418872090386,-0.21839460823024473,0.3588927914987764,0.2667988424013944,0.10235603105242874,-0.26974560024979616,1.2135414150765067,-0.22008117829957266,-0.007459739278609815,-2.60408826508733,-0.1090258960880451,2.468131809923384,0.8264763220448369,1.2134413937687574,-0.2202432315892585,-0.0075118285948192216,-2.6038483821997875,-0.10888392708698907,2.4681821257803174,0.826474908251239,-0.00017164573263334174,-0.00021490947279660888,-0.0009761122531845434,-0.00042200599892210853,7.75904975436153e-05,0.0004085567446538915,-0.0008549038845930955,0.0,0.0,0.0,0.0,0.0,0.0,0.0,-0.00010002130774933171,-0.00016205328968582622,-5.2089316209406704e-05,0.00023988288754228648,0.00014196900105602206,5.031585693338059e-05,-1.4137935978597582e-06,0.00017164573263334174,0.00021490947279660888,0.0009761122531845434,0.00042200599892210853,-7.75904975436153e-05,-0.0004085567446538915,0.0008549038845930955,0.4029781222343445,19.768823623657227,0.3990752398967743,-20.130342483520508,-0.8499045968055725,-2.4630770683288574,0.25485557317733765,0
18,0.08503866195678711,-0.4029781222343445,-19.768823623657227,-0.3990752398967743,20.130342483520508,0.8499045968055725,2.4630770683288574,-0.25485557317733765,0.0,0.0,0.0,0.0,0.0,0.0,0.0,-0.4179062314525807,-0.0570418872090386,-0.21839460823024473,0.3588927914987764,0.2667988424013944,0.10235603105242874,-0.26974560024979616,1.2135414150765067,-0.22008117829957266,-0.007459739278609815,-2.60408826508733,-0.1090258960880451,2.468131809923384,0.8264763220448369,1.2134413937687574,-0.2202432315892585,-0.0075118285948192216,-2.6038483821997875,-0.10888392708698907,2.4681821257803174,0.826474908251239,-0.00017164573263334174,-0.00021490947279660888,-0.0009761122531845434,-0.00042200599892210853,7.75904975436153e-05,0.0004085567446538915,-0.0008549038845930955,0.0,0.0,0.0,0.0,0.0,0.0,0.0,-0.00010002130774933171,-0.00016205328968582622,-5.2089316209406704e-05,0.00023988288754228648,0.00014196900105602206,5.031585693338059e-05,-1.4137935978597582e-06,0.00017164573263334174,0.00021490947279660888,0.0009761122531845434,0.00042200599892210853,-7.75904975436153e-05,-0.0004085567446538915,0.0008549038845930955,0.4029781222343445,19.768823623657227,0.3990752398967743,-20.130342483520508,-0.8499045968055725,-2.4630770683288574,0.25485557317733765,0
19,0.09004545211791992,-0.4267818331718445,-19.745019912719727,-0.4228789508342743,20.181917190551758,0.8499045968055725,2.4758944511413574,-0.25485557317733765,0.0,0.0,0.0,0.0,0.0,0.0,0.0,-0.41762795181660034,-0.05799732628991202,-0.22380966906668068,0.36088883895692864,0.26674099710153426,0.10280942897282869,-0.27036200153897083,1.2135430855123621,-0.2200828769377016,-0.007458068842754551,-2.6040900647781267,-0.10902305714089021,2.4681303857697383,0.8264785586655237,1.2134413937687574,-0.2202432315892585,-0.0075118285948192216,-2.6038483821997875,-0.10888392708698907,2.4681821257803174,0.826474908251239,0.00025383597051574605,-0.0007034100074723732,0.00018110930247982823,-0.001219112473134691,7.936548177008685e-05,-0.0002183938306590647,-0.0010856657774987964,0.0,0.0,0.0,0.0,0.0,0.0,0.0,-0.0001016917436047482,-0.0001603546515568932,-5.3759752064670534e-05,0.00024168257833911966,0.00013913005390113475,5.174001057905997e-05,-3.6504142846283116e-06,-0.00025383597051574605,0.0007034100074723732,-0.00018110930247982823,0.001219112473134691,-7.936548177008685e-05,0.0002183938306590647,0.0010856657774987964,0.4267818331718445,19.745019912719727,0.4228789508342743,-20.181917190551758,-0.8499045968055725,-2.4758944511413574,0.25485557317733765,0
20,0.09504127502441406,-0.4267818331718445,-19.745019912719727,-0.4228789508342743,20.181917190551758,0.8499045968055725,2.4758944511413574,-0.25485557317733765,0.0,0.0,0.0,0.0,0.0,0.0,0.0,-0.41762795181660034,-0.05799732628991202,-0.22380966906668068,0.36088883895692864,0.26674099710153426,0.10280942897282869,-0.27036200153897083,1.2135430855123621,-0.2200828769377016,-0.007458068842754551,-2.6040900647781267,-0.10902305714089021,2.4681303857697383,0.8264785586655237,1.2134413937687574,-0.2202432315892585,-0.0075118285948192216,-2.6038483821997875,-0.10888392708698907,2.4681821257803174,0.826474908251239,0.00025383597051574605,-0.0007034100074723732,0.00018110930247982823,-0.001219112473134691,7.936548177008685e-05,-0.0002183938306590647,-0.0010856657774987964,0.0,0.0,0.0,0.0,0.0,0.0,0.0,-0.0001016917436047482,-0.0001603546515568932,-5.3759752064670534e-05,0.00024168257833911966,0.00013913005390113475,5.174001057905997e-05,-3.6504142846283116e-06,-0.00025383597051574605,0.0007034100074723732,-0.00018110930247982823,0.001219112473134691,-7.936548177008685e-05,0.0002183938306590647,0.0010856657774987964,0.4267818331718445,19.745019912719727,0.4228789508342743,-20.181917190551758,-0.8499045968055725,-2.4758944511413574,0.25485557317733765,0
21,0.10003924369812012,-0.4267818331718445,-19.792627334594727,-0.4228789508342743,20.130342483520508,0.8444114327430725,2.4694857597351074,-0.26217979192733765,0.0,0.0,0.0,0.0,0.0,0.0,0.0,-0.41901545832399,-0.05918939717849271,-0.22522082748468153,0.3597108790009422,0.26658520183119533,0.10276780675346854,-0.2710958449614411,1.2135430855123621,-0.220077410131151,-0.007458068842754551,-2.604088976524911,-0.10902244174315992,2.468131097846561,0.8264804282422281,1.2134413937687574,-0.2202432315892585,-0.0075118285948192216,-2.6038483821997875,-0.10888392708698907,2.4681821257803174,0.826474908251239,-0.00022240596547278504,-0.0003003101304037458,0.00022777702191293002,-3.382417408221493e-05,0.00016345676453794101,0.00035554149190548565,-0.0002297698599403474,0.0,0.0,0.0,0.0,0.0,0.0,0.0,-0.0001016917436047482,-0.00016582145810747906,-5.3759752064670534e-05,0.0002405943251235776,0.00013851465617084613,5.102793375622028e-05,-5.519990989077961e-06,0.00022240596547278504,0.0003003101304037458,-0.00022777702191293002,3.382417408221493e-05,-0.00016345676453794101,-0.00035554149190548565,0.0002297698599403474,0.4267818331718445,19.792627334594727,0.4228789508342743,-20.130342483520508,-0.8444114327430725,-2.4694857597351074,0.26217979192733765,0
22,0.10561299324035645,-0.4267818331718445,-19.792627334594727,-0.4228789508342743,20.130342483520508,0.8444114327430725,2.4694857597351074,-0.26217979192733765,0.0,0.0,0.0,0.0,0.0,0.0,0.0,-0.41901545832399,-0.05918939717849271,-0.22522082748468153,0.3597108790009422,0.26658520183119533,0.10276780675346854,-0.2710958449614411,1.2135430855123621,-0.220077410131151,-0.007458068842754551,-2.604088976524911,-0.10902244174315992,2.468131097846561,0.8264804282422281,1.2134413937687574,-0.2202432315892585,-0.0075118285948192216,-2.6038483821997875,-0.10888392708698907,2.4681821257803174,0.826474908251239,-0.00022240596547278504,-0.0003003101304037458,0.00022777702191293002,-3.382417408221493e-05,0.00016345676453794101,0.00035554149190548565,-0.0002297698599403474,0.0,0.0,0.0,0.0,0.0,0.0,0.0,-0.0001016917436047482,-0.00016582145810747906,-5.3759752064670534e-05,0.0002405943251235776,0.00013851465617084613,5.102793375622028e-05,-5.519990989077961e-06,0.00022240596547278504,0.0003003101304037458,-0.00022777702191293002,3.382417408221493e-05,-0.00016345676453794101,-0.00035554149190548565,0.0002297698599403474,0.4267818331718445,19.792627334594727,0.4228789508342743,-20.130342483520508,-0.8444114327430725,-2.4694857597351074,0.26217979192733765,0
23,0.11003828048706055,-0.4505855441093445,-19.816431045532227,-0.4228789508342743,20.154146194458008,0.8499045968055725,2.4823031425476074,-0.27591270208358765,0.0,0.0,0.0,0.0,0.0,0.0,0.0,-0.4222490848226516,-0.06320837805918868,-0.22497960994503352,0.3623682330506633,0.26663525250840664,0.1033682274947614,-0.2710821030140275,1.213544764778535,-0.22007760410967658,-0.007458068842754551,-2.6040886342513057,-0.10902624928164326,2.468129673692915,0.8264819578955079,1.2134413937687574,-0.2202432315892585,-0.0075118285948192216,-2.6038483821997875,-0.10888392708698907,2.4681821257803174,0.826474908251239,0.0006366055996632249,-0.00014255082475293516,-0.00016120104901418825,-0.0005308917424007747,0.00021086584021782364,-0.00026129278002603827,0.00042701582046654767,0.0,0.0,0.0,0.0,0.0,0.0,0.0,-0.00010337100977753089,-0.0001656274795819035,-5.3759752064670534e-05,0.00024025205151811946,0.00014232219465418194,5.245208740234375e-05,-7.049644268897204e-06,-0.0006366055996632249,0.00014255082475293516,0.00016120104901418825,0.0005308917424007747,-0.00021086584021782364,0.00026129278002603827,-0.00042701582046654767,0.4505855441093445,19.816431045532227,0.4228789508342743,-20.154146194458008,-0.8499045968055725,-2.4823031425476074,0.27591270208358765,0
24,0.11506509780883789,-0.4505855441093445,-19.816431045532227,-0.4228789508342743,20.154146194458008,0.8499045968055725,2.4823031425476074,-0.27591270208358765,0.0,0.0,0.0,0.0,0.0,0.0,0.0,-0.4222490848226516,-0.06320837805918868,-0.22497960994503352,0.3623682330506633,0.26663525250840664,0.1033682274947614,-0.2710821030140275,1.213544764778535,-0.22007760410967658,-0.007458068842754551,-2.6040886342513057,-0.10902624928164326,2.468129673692915,0.8264819578955079,1.2134413937687574,-0.2202432315892585,-0.0075118285948192216,-2.6038483821997875,-0.10888392708698907,2.4681821257803174,0.826474908251239,0.0006366055996632249,-0.00014255082475293516,-0.00016120104901418825,-0.0005308917424007747,0.00021086584021782364,-0.00026129278002603827,0.00042701582046654767,0.0,0.0,0.0,0.0,0.0,0.0,0.0,-0.00010337100977753089,-0.0001656274795819035,-5.3759752064670534e-05,0.00024025205151811946,0.00014232219465418194,5.245208740234375e-05,-7.049644268897204e-06,-0.0006366055996632249,0.00014255082475293516,0.00016120104901418825,0.0005308917424007747,-0.00021086584021782364,0.00026129278002603827,-0.00042701582046654767,0.4505855441093445,19.816431045532227,0.4228789508342743,-20.154146194458008,-0.8499045968055725,-2.4823031425476074,0.27591270208358765,0
25,0.12003946304321289,-0.4783565402030945,-19.816431045532227,-0.4228789508342743,20.130342483520508,0.8444114327430725,2.4694857597351074,-0.26217979192733765,0.0,0.0,0.0,0.0,0.0,0.0,0.0,-0.4163263598552374,-0.05986391170996896,-0.22048210803177093,0.36004959741501474,0.26641521799611123,0.10287641365932583,-0.2700867220565052,1.2135467047900648,-0.22007712869901067,-0.007458068842754551,-2.6040862722754308,-0.10902564060687704,2.468131097846561,0.8264804326626977,1.2134413937687574,-0.2202432315892585,-0.0075118285948192216,-2.6038483821997875,-0.10888392708698907,2.4681821257803174,0.826474908251239,0.0017840427928175779,0.0001128398846518168,0.00020894153018475277,0.00018469001241950032,0.000229131885857216,0.0002801204440636653,-0.00058407938371139,0.0,0.0,0.0,0.0,0.0,0.0,0.0,-0.00010531102130739711,-0.0001661028902478212,-5.3759752064670534e-05,0.00023789007564323228,0.00014171351988796765,5.102793375622028e-05,-5.5244114586239235e-06,-0.0017840427928175779,-0.0001128398846518168,-0.00020894153018475277,-0.00018469001241950032,-0.000229131885857216,-0.0002801204440636653,0.00058407938371139,0.4783565402030945,19.816431045532227,0.4228789508342743,-20.130342483520508,-0.8444114327430725,-2.4694857597351074,0.26217979192733765,0
26,0.12504172325134277,-0.4783565402030945,-19.816431045532227,-0.4228789508342743,20.130342483520508,0.8444114327430725,2.4694857597351074,-0.26217979192733765,0.0,0.0,0.0,0.0,0.0,0.0,0.0,-0.4163263598552374,-0.05986391170996896,-0.22048210803177093,0.36004959741501474,0.26641521799611123,0.10287641365932583,-0.2700867220565052,1.2135467047900648,-0.22007712869901067,-0.007458068842754551,-2.6040862722754308,-0.10902564060687704,2.468131097846561,0.8264804326626977,1.2134413937687574,-0.2202432315892585,-0.0075118285948192216,-2.6038483821997875,-0.10888392708698907,2.4681821257803174,0.826474908251239,0.0017840427928175779,0.0001128398846518168,0.00020894153018475277,0.00018469001241950032,0.000229131885857216,0.0002801204440636653,-0.00058407938371139,0.0,0.0,0.0,0.0,0.0,0.0,0.0,-0.00010531102130739711,-0.0001661028902478212,-5.3759752064670534e-05,0.00023789007564323228,0.00014171351988796765,5.102793375622028e-05,-5.5244114586239235e-06,-0.0017840427928175779,-0.0001128398846518168,-0.00020894153018475277,-0.00018469001241950032,-0.000229131885857216,-0.0002801204440636653,0.00058407938371139,0.4783565402030945,19.816431045532227,0.4228789508342743,-20.130342483520508,-0.8444114327430725,-2.4694857597351074,0.26217979192733765,0
27,0.13004231452941895,-0.4505855441093445,-19.792627334594727,-0.4228789508342743,20.130342483520508,0.8618064522743225,2.4694857597351074,-0.28232139348983765,0.0,0.0,0.0,0.0,0.0,0.0,0.0,-0.41933517121058356,-0.05867085672992397,-0.22244205077764967,0.3608447622008761,0.2659989943456313,0.10261740944738301,-0.27124421683100824,1.213544756275266,-0.22007662376505616,-0.007458068842754551,-2.604086886749361,-0.10902650878164502,2.468131097846561,0.8264826706184281,1.2134413937687574,-0.2202432315892585,-0.0075118285948192216,-2.6038483821997875,-0.10888392708698907,2.4681821257803174,0.826474908251239,0.0007141139311151788,-0.00011595326918565057,0.00043167252766102975,0.0003253304908391131,-0.0003852641549952972,6.861478951017545e-05,0.0002871314448985777,0.0,0.0,0.0,0.0,0.0,0.0,0.0,-0.00010336250650855305,-0.00016660782420233056,-5.3759752064670534e-05,0.0002385045495736371,0.0001425816946559466,5.102793375622028e-05,-7.762367189023678e-06,-0.0007141139311151788,0.00011595326918565057,-0.00043167252766102975,-0.0003253304908391131,0.0003852641549952972,-6.861478951017545e-05,-0.0002871314448985777,0.4505855441093445,19.792627334594727,0.4228789508342743,-20.130342483520508,-0.8618064522743225,-2.4694857597351074,0.28232139348983765,0
28,0.13504958152770996,-0.4505855441093445,-19.792627334594727,-0.4228789508342743,20.130342483520508,0.8618064522743225,2.4694857597351074,-0.28232139348983765,0.0,0.0,0.0,0.0,0.0,0.0,0.0,-0.41933517121058356,-0.05867085672992397,-0.22244205077764967,0.3608447622008761,0.2659989943456313,0.10261740944738301,-0.27124421683100824,1.213544756275266,-0.22007662376505616,-0.007458068842754551,-2.604086886749361,-0.10902650878164502,2.468131097846561,0.8264826706184281,1.2134413937687574,-0.2202432315892585,-0.0075118285948192216,-2.6038483821997875,-0.10888392708698907,2.4681821257803174,0.826474908251239,0.0007141139311151788,-0.00011595326918565057,0.00043167252766102975,0.0003253304908391131,-0.0003852641549952972,6.861478951017545e-05,0.0002871314448985777,0.0,0.0,0.0,0.0,0.0,0.0,0.0,-0.00010336250650855305,-0.00016660782420233056,-5.3759752064670534e-05,0.0002385045495736371,0.0001425816946559466,5.102793375622028e-05,-7.762367189023678e-06,-0.0007141139311151788,0.00011595326918565057,-0.00043167252766102975,-0.0003253304908391131,0.0003852641549952972,-6.861478951017545e-05,-0.0002871314448985777,0.4505855441093445,19.792627334594727,0.4228789508342743,-20.130342483520508,-0.8618064522743225,-2.4694857597351074,0.28232139348983765,0
29,0.1400468349456787,-0.4505855441093445,-19.816431045532227,-0.3990752398967743,20.130342483520508,0.8499045968055725,2.4630770683288574,-0.29605430364608765,0.0,0.0,0.0,0.0,0.0,0.0,0.0,-0.4215292092704038,-0.05869925411330862,-0.22072367372764906,0.3610457956091032,0.2657995034177297,0.10203666050841038,-0.272054424582185,1.2135447559482178,-0.2200777868518165,-0.007459739278609815,-2.6040883385113167,-0.10902621152661786,2.468131809923384,0.8264827831619784,1.2134413937687574,-0.2202432315892585,-0.0075118285948192216,-2.6038483821997875,-0.10888392708698907,2.4681821257803174,0.826474908251239,0.0009025851310411946,0.0005608635921466331,-0.0003917851043498705,-0.00013692265070467164,9.399198379685236e-05,0.00025158823771853384,0.0008480570899086525,0.0,0.0,0.0,0.0,0.0,0.0,0.0,-0.00010336217946038673,-0.00016544473744198318,-5.2089316209406704e-05,0.00023995631152917696,0.00014228443962878423,5.031585693338059e-05,-7.874910739391616e-06,-0.0009025851310411946,-0.0005608635921466331,0.0003917851043498705,0.00013692265070467164,-9.399198379685236e-05,-0.00025158823771853384,-0.0008480570899086525,0.4505855441093445,19.816431045532227,0.3990752398967743,-20.130342483520508,-0.8499045968055725,-2.4630770683288574,0.29605430364608765,0
30,0.14499783515930176,-0.4505855441093445,-19.816431045532227,-0.3990752398967743,20.130342483520508,0.8499045968055725,2.4630770683288574,-0.29605430364608765,0.0,0.0,0.0,0.0,0.0,0.0,0.0,-0.4215292092704038,-0.05869925411330862,-0.22072367372764906,0.3610457956091032,0.2657995034177297,0.10203666050841038,-0.272054424582185,1.2135447559482178,-0.2200777868518165,-0.007459739278609815,-2.6040883385113167,-0.10902621152661786,2.468131809923384,0.8264827831619784,1.2134413937687574,-0.2202432315892585,-0.0075118285948192216,-2.6038483821997875,-0.10888392708698907,2.4681821257803174,0.826474908251239,0.0009025851310411946,0.0005608635921466331,-0.0003917851043498705,-0.00013692265070467164,9.399198379685236e-05,0.00025158823771853384,0.0008480570899086525,0.0,0.0,0.0,0.0,0.0,0.0,0.0,-0.00010336217946038673,-0.00016544473744198318,-5.2089316209406704e-05,0.00023995631152917696,0.00014228443962878423,5.031585693338059e-05,-7.874910739391616e-06,-0.0009025851310411946,-0.0005608635921466331,0.0003917851043498705,0.00013692265070467164,-9.399198379685236e-05,-0.00025158823771853384,-0.0008480570899086525,0.4505855441093445,19.816431045532227,0.3990752398967743,-20.130342483520508,-0.8499045968055725,-2.4630770683288574,0.29605430364608765,0
31,0.15005755424499512,-0.4505855441093445,-19.844202041625977,-0.4466826617717743,20.130342483520508,0.8618064522743225,2.4758944511413574,-0.28964561223983765,0.0,0.0,0.0,0.0,0.0,0.0,0.0,-0.42435477327910187,-0.06241507075505099,-0.22512462207971848,0.36401015026577876,0.26613753308460386,0.10253754952618123,-0.2722946993323477,1.2135447559482173,-0.2200759177240786,-0.007456398406899288,-2.6040882564171963,-0.10902650878142243,2.4681303857697383,0.826483484412533,1.2134413937687574,-0.2202432315892585,-0.0075118285948192216,-2.6038483821997875,-0.10888392708698907,2.4681821257803174,0.826474908251239,0.0008550493878208121,0.0010971138344907081,0.00024165067982888418,0.0003747075887010965,-0.00045372054336550695,-9.642205434044152e-05,0.0003190148702748402,0.0,0.0,0.0,0.0,0.0,0.0,0.0,-0.00010336217945994264,-0.00016731386517987445,-5.5430187919933496e-05,0.00023987421740878645,0.00014258169443336077,5.174001057905997e-05,-8.57616129401606e-06,-0.0008550493878208121,-0.0010971138344907081,-0.00024165067982888418,-0.0003747075887010965,0.00045372054336550695,9.642205434044152e-05,-0.0003190148702748402,0.4505855441093445,19.844202041625977,0.4466826617717743,-20.130342483520508,-0.8618064522743225,-2.4758944511413574,0.28964561223983765,0
32,0.15581178665161133,-0.4505855441093445,-19.844202041625977,-0.4466826617717743,20.130342483520508,0.8618064522743225,2.4758944511413574,-0.28964561223983765,0.0,0.0,0.0,0.0,0.0,0.0,0.0,-0.42435477327910187,-0.06241507075505099,-0.22512462207971848,0.36401015026577876,0.26613753308460386,0.10253754952618123,-0.2722946993323477,1.2135447559482173,-0.2200759177240786,-0.007456398406899288,-2.6040882564171963,-0.10902650878142243,2.4681303857697383,0.826483484412533,1.2134413937687574,-0.2202432315892585,-0.0075118285948192216,-2.6038483821997875,-0.10888392708698907,2.4681821257803174,0.826474908251239,0.0008550493878208121,0.0010971138344907081,0.00024165067982888418,0.0003747075887010965,-0.00045372054336550695,-9.642205434044152e-05,0.0003190148702748402,0.0,0.0,0.0,0.0,0.0,0.0,0.0,-0.00010336217945994264,-0.00016731386517987445,-5.5430187919933496e-05,0.00023987421740878645,0.00014258169443336077,5.174001057905997e-05,-8.57616129401606e-06,-0.0008550493878208121,-0.0010971138344907081,-0.00024165067982888418,-0.0003747075887010965,0.00045372054336550695,9.642205434044152e-05,-0.0003190148702748402,0.4505855441093445,19.844202041625977,0.4466826617717743,-20.130342483520508,-0.8618064522743225,-2.4758944511413574,0.28964561223983765,0
33,0.16003918647766113,-0.4505855441093445,-19.816431045532227,-0.4704863727092743,20.130342483520508,0.8499045968055725,2.4887118339538574,-0.26217979192733765,0.0,0.0,0.0,0.0,0.0,0.0,0.0,-0.4236496172380812,-0.05388876025138952,-0.22767784455523252,0.35662777751720875,0.2659948177505099,0.1016178688426243,-0.27309539267910005,1.2135447559482173,-0.22007471377415389,-0.007454727971044025,-2.604086298110397,-0.10902199101724935,2.468128961616092,0.8264804326626989,1.2134413937687574,-0.2202432315892585,-0.0075118285948192216,-2.6038483821997875,-0.10888392708698907,2.4681821257803174,0.826474908251239,0.00025581075745860883,0.0009093154819361397,0.0007022952845465398,-9.23408651938675e-05,6.165889737377919e-05,-0.000549819116342393,-0.00021395757214377737,0.0,0.0,0.0,0.0,0.0,0.0,0.0,-0.00010336217945994264,-0.00016851781510460184,-5.710062377519646e-05,0.00023791591060939865,0.0001380639302602793,5.316416422518344e-05,-5.524411459845169e-06,-0.00025581075745860883,-0.0009093154819361397,-0.0007022952845465398,9.23408651938675e-05,-6.165889737377919e-05,0.000549819116342393,0.00021395757214377737,0.4505855441093445,19.816431045532227,0.4704863727092743,-20.130342483520508,-0.8499045968055725,-2.4887118339538574,0.26217979192733765,0
34,0.16504144668579102,-0.4505855441093445,-19.816431045532227,-0.4704863727092743,20.130342483520508,0.8499045968055725,2.4887118339538574,-0.26217979192733765,0.0,0.0,0.0,0.0,0.0,0.0,0.0,-0.4236496172380812,-0.05388876025138952,-0.22767784455523252,0.35662777751720875,0.2659948177505099,0.1016178688426243,-0.27309539267910005,1.2135447559482173,-0.22007471377415389,-0.007454727971044025,-2.604086298110397,-0.10902199101724935,2.468128961616092,0.8264804326626989,1.2134413937687574,-0.2202432315892585,-0.0075118285948192216,-2.6038483821997875,-0.10888392708698907,2.4681821257803174,0.826474908251239,0.00025581075745860883,0.0009093154819361397,0.0007022952845465398,-9.23408651938675e-05,6.165889737377919e-05,-0.000549819116342393,-0.00021395757214377737,0.0,0.0,0.0,0.0,0.0,0.0,0.0,-0.00010336217945994264,-0.00016851781510460184,-5.710062377519646e-05,0.00023791591060939865,0.0001380639302602793,5.316416422518344e-05,-5.524411459845169e-06,-0.00025581075745860883,-0.0009093154819361397,-0.0007022952845465398,9.23408651938675e-05,-6.165889737377919e-05,0.000549819116342393,0.00021395757214377737,0.4505855441093445,19.816431045532227,0.4704863727092743,-20.130342483520508,-0.8499045968055725,-2.4887118339538574,0.26217979192733765,0
35,0.1700420379638672,-0.4267818331718445,-19.768823623657227,-0.4228789508342743,20.154146194458008,0.8444114327430725,2.4694857597351074,-0.30978721380233765,0.0,0.0,0.0,0.0,0.0,0.0,0.0,-0.4181312024141021,-0.05801828385353443,-0.22342912540245202,0.36002319886213363,0.26593508325140514,0.10314084671058756,-0.2732713985876509,1.2135430856213782,-0.22008117699834084,-0.007458068842754551,-2.604088189235268,-0.10902457159655833,2.468131097846561,0.8264856046386706,1.2134413937687574,-0.2202432315892585,-0.0075118285948192216,-2.6038483821997875,-0.10888392708698907,2.4681821257803174,0.826474908251239,0.0004256230518819722,-0.0004333728808263711,3.394708660218403e-05,-0.00035202061425314144,0.00012490015306672466,0.00029450158533732783,0.0013770771010062086,0.0,0.0,0.0,0.0,0.0,0.0,0.0,-0.00010169185262087765,-0.00016205459091764296,-5.3759752064670534e-05,0.00023980703548032167,0.00014064450956925711,5.102793375622028e-05,-1.0696387431563537e-05,-0.0004256230518819722,0.0004333728808263711,-3.394708660218403e-05,0.00035202061425314144,-0.00012490015306672466,-0.00029450158533732783,-0.0013770771010062086,0.4267818331718445,19.768823623657227,0.4228789508342743,-20.154146194458008,-0.8444114327430725,-2.4694857597351074,0.30978721380233765,0
36,0.17505836486816406,-0.4267818331718445,-19.768823623657227,-0.4228789508342743,20.154146194458008,0.8444114327430725,2.4694857597351074,-0.30978721380233765,0.0,0.0,0.0,0.0,0.0,0.0,0.0,-0.4181312024141021,-0.05801828385353443,-0.22342912540245202,0.36002319886213363,0.26593508325140514,0.10314084671058756,-0.2732713985876509,1.2135430856213782,-0.22008117699834084,-0.007458068842754551,-2.604088189235268,-0.10902457159655833,2.468131097846561,0.8264856046386706,1.2134413937687574,-0.2202432315892585,-0.0075118285948192216,-2.6038483821997875,-0.10888392708698907,2.4681821257803174,0.826474908251239,0.0004256230518819722,-0.0004333728808263711,3.394708660218403e-05,-0.00035202061425314144,0.00012490015306672466,0.00029450158533732783,0.0013770771010062086,0.0,0.0,0.0,0.0,0.0,0.0,0.0,-0.00010169185262087765,-0.00016205459091764296,-5.3759752064670534e-05,0.00023980703548032167,0.00014064450956925711,5.102793375622028e-05,-1.0696387431563537e-05,-0.0004256230518819722,0.0004333728808263711,-3.394708660218403e-05,0.00035202061425314144,-0.00012490015306672466,-0.00029450158533732783,-0.0013770771010062086,0.4267818331718445,19.768823623657227,0.4228789508342743,-20.154146194458008,-0.8444114327430725,-2.4694857597351074,0.30978721380233765,0
37,0.18180513381958008,-0.4267818331718445,-19.768823623657227,-0.4228789508342743,20.154146194458008,0.8444114327430725,2.4694857597351074,-0.30978721380233765,0.0,0.0,0.0,0.0,0.0,0.0,0.0,-0.4181312024141021,-0.05801828385353443,-0.22342912540245202,0.36002319886213363,0.26593508325140514,0.10314084671058756,-0.2732713985876509,1.2135430856213782,-0.22008117699834084,-0.007458068842754551,-2.604088189235268,-0.10902457159655833,2.468131097846561,0.8264856046386706,1.2134413937687574,-0.2202432315892585,-0.0075118285948192216,-2.6038483821997875,-0.10888392708698907,2.4681821257803174,0.826474908251239,0.0004256230518819722,-0.0004333728808263711,3.394708660218403e-05,-0.00035202061425314144,0.00012490015306672466,0.00029450158533732783,0.0013770771010062086,0.0,0.0,0.0,0.0,0.0,0.0,0.0,-0.00010169185262087765,-0.00016205459091764296,-5.3759752064670534e-05,0.00023980703548032167,0.00014064450956925711,5.102793375622028e-05,-1.0696387431563537e-05,-0.0004256230518819722,0.0004333728808263711,-3.394708660218403e-05,0.00035202061425314144,-0.00012490015306672466,-0.00029450158533732783,-0.0013770771010062086,0.4267818331718445,19.768823623657227,0.4228789508342743,-20.154146194458008,-0.8444114327430725,-2.4694857597351074,0.30978721380233765,0
38,0.18503713607788086,-0.4267818331718445,-19.768823623657227,-0.4228789508342743,20.154146194458008,0.8444114327430725,2.4694857597351074,-0.30978721380233765,0.0,0.0,0.0,0.0,0.0,0.0,0.0,-0.4181312024141021,-0.05801828385353443,-0.22342912540245202,0.36002319886213363,0.26593508325140514,0.10314084671058756,-0.2732713985876509,1.2135430856213782,-0.22008117699834084,-0.007458068842754551,-2.604088189235268,-0.10902457159655833,2.468131097846561,0.8264856046386706,1.2134413937687574,-0.2202432315892585,-0.0075118285948192216,-2.6038483821997875,-0.10888392708698907,2.4681821257803174,0.826474908251239,0.0004256230518819722,-0.0004333728808263711,3.394708660218403e-05,-0.00035202061425314144,0.00012490015306672466,0.00029450158533732783,0.0013770771010062086,0.0,0.0,0.0,0.0,0.0,0.0,0.0,-0.00010169185262087765,-0.00016205459091764296,-5.3759752064670534e-05,0.00023980703548032167,0.00014064450956925711,5.102793375622028e-05,-1.0696387431563537e-05,-0.0004256230518819722,0.0004333728808263711,-3.394708660218403e-05,0.00035202061425314144,-0.00012490015306672466,-0.00029450158533732783,-0.0013770771010062086,0.4267818331718445,19.768823623657227,0.4228789508342743,-20.154146194458008,-0.8444114327430725,-2.4694857597351074,0.30978721380233765,0
39,0.1900472640991211,-0.3752071261405945,-19.768823623657227,-0.4466826617717743,20.154146194458008,0.8563132882118225,2.4758944511413574,-0.28232139348983765,0.0,0.0,0.0,0.0,0.0,0.0,0.0,-0.4264105687754756,-0.06067974509368569,-0.23318441854906005,0.3633282176966763,0.2663339886622459,0.10370747384694182,-0.2737516135939774,1.2135394662346761,-0.22008112870089855,-0.007454267851289426,-2.604087959718238,-0.10902258631903392,2.4681303857697383,0.826482656082261,1.2134413937687574,-0.2202432315892585,-0.0075118285948192216,-2.6038483821997875,-0.10888392708698907,2.4681821257803174,0.826474908251239,-0.001282128845855061,-0.0006335441728761886,0.0002940980610297823,-0.00011164327058788766,-0.00018446058114758137,5.218373154986874e-05,0.00011040337156609257,0.0,0.0,0.0,0.0,0.0,0.0,0.0,-9.807246591875263e-05,-0.00016210288835993847,-5.7560743529795795e-05,0.00023957751845049557,0.00013865923204484099,5.174001057905997e-05,-7.747831021975848e-06,0.001282128845855061,0.0006335441728761886,-0.0002940980610297823,0.00011164327058788766,0.00018446058114758137,-5.218373154986874e-05,-0.00011040337156609257,0.3752071261405945,19.768823623657227,0.4466826617717743,-20.154146194458008,-0.8563132882118225,-2.4758944511413574,0.28232139348983765,0
40,0.19509005546569824,-0.3752071261405945,-19.768823623657227,-0.4466826617717743,20.154146194458008,0.8563132882118225,2.4758944511413574,-0.28232139348983765,0.0,0.0,0.0,0.0,0.0,0.0,0.0,-0.4264105687754756,-0.06067974509368569,-0.23318441854906005,0.3633282176966763,0.2663339886622459,0.10370747384694182,-0.2737516135939774,1.2135394662346761,-0.22008112870089855,-0.007454267851289426,-2.604087959718238,-0.10902258631903392,2.4681303857697383,0.826482656082261,1.2134413937687574,-0.2202432315892585,-0.0075118285948192216,-2.6038483821997875,-0.10888392708698907,2.4681821257803174,0.826474908251239,-0.001282128845855061,-0.0006335441728761886,0.0002940980610297823,-0.00011164327058788766,-0.00018446058114758137,5.218373154986874e-05,0.00011040337156609257,0.0,0.0,0.0,0.0,0.0,0.0,0.0,-9.807246591875263e-05,-0.00016210288835993847,-5.7560743529795795e-05,0.00023957751845049557,0.00013865923204484099,5.174001057905997e-05,-7.747831021975848e-06,0.001282128845855061,0.0006335441728761886,-0.0002940980610297823,0.00011164327058788766,0.00018446058114758137,-5.218373154986874e-05,-0.00011040337156609257,0.3752071261405945,19.768823623657227,0.4466826617717743,-20.154146194458008,-0.8563132882118225,-2.4758944511413574,0.28232139348983765,0
41,0.20007038116455078,-0.3752071261405945,-19.792627334594727,-0.4466826617717743,20.130342483520508,0.8618064522743225,2.4694857597351074,-0.21457235515117645,0.0,0.0,0.0,0.0,0.0,0.0,0.0,-0.41870338151139863,-0.05723035067362299,-0.22794573313197664,0.3610418057506967,0.2664024667415776,0.10291671727524293,-0.2733216150859029,1.2135394662346757,-0.22007942802285024,-0.007456161666471144,-2.604088588033117,-0.10902721849372705,2.468131097846561,0.8264709043949021,1.2134413937687574,-0.2202432315892585,-0.0075118285948192216,-2.6038483821997875,-0.10888392708698907,2.4681821257803174,0.826474908251239,-0.0006984997334670076,-0.00011622755202450304,0.0006119619955184531,0.00022811875609863973,-0.00019308641730915707,0.00014628104580679917,-0.002291408014497378,0.0,0.0,0.0,0.0,0.0,0.0,0.0,-9.807246591830854e-05,-0.00016380356640824378,-5.566692834807745e-05,0.0002402058333292878,0.00014329140673798035,5.102793375622028e-05,4.003856336920464e-06,0.0006984997334670076,0.00011622755202450304,-0.0006119619955184531,-0.00022811875609863973,0.00019308641730915707,-0.00014628104580679917,0.002291408014497378,0.3752071261405945,19.792627334594727,0.4466826617717743,-20.130342483520508,-0.8618064522743225,-2.4694857597351074,0.21457235515117645,0
42,0.20505189895629883,-0.3752071261405945,-19.792627334594727,-0.4466826617717743,20.130342483520508,0.8618064522743225,2.4694857597351074,-0.21457235515117645,0.0,0.0,0.0,0.0,0.0,0.0,0.0,-0.41870338151139863,-0.05723035067362299,-0.22794573313197664,0.3610418057506967,0.2664024667415776,0.10291671727524293,-0.2733216150859029,1.2135394662346757,-0.22007942802285024,-0.007456161666471144,-2.604088588033117,-0.10902721849372705,2.468131097846561,0.8264709043949021,1.2134413937687574,-0.2202432315892585,-0.0075118285948192216,-2.6038483821997875,-0.10888392708698907,2.4681821257803174,0.826474908251239,-0.0006984997334670076,-0.00011622755202450304,0.0006119619955184531,0.00022811875609863973,-0.00019308641730915707,0.00014628104580679917,-0.002291408014497378,0.0,0.0,0.0,0.0,0.0,0.0,0.0,-9.807246591830854e-05,-0.00016380356640824378,-5.566692834807745e-05,0.0002402058333292878,0.00014329140673798035,5.102793375622028e-05,4.003856336920464e-06,0.0006984997334670076,0.00011622755202450304,-0.0006119619955184531,-0.00022811875609863973,0.00019308641730915707,-0.00014628104580679917,0.002291408014497378,0.3752071261405945,19.792627334594727,0.4466826617717743,-20.130342483520508,-0.8618064522743225,-2.4694857597351074,0.21457235515117645,0
43,0.21005892753601074,-0.4029781222343445,-19.792627334594727,-0.4466826617717743,20.181917190551758,0.8444114327430725,2.4694857597351074,-0.26217979192733765,0.0,0.0,0.0,0.0,0.0,0.0,0.0,-0.41699224749102415,-0.058170774580804295,-0.22834637552964493,0.363284928646113,0.267626705970544,0.10285050094770384,-0.2722260135340383,1.2135414154035553,-0.22007929942251328,-0.007456398405562882,-2.6040908014499813,-0.10902516744701767,2.4681310993001113,0.8264803933929155,1.2134413937687574,-0.2202432315892585,-0.0075118285948192216,-2.6038483821997875,-0.10888392708698907,2.4681821257803174,0.826474908251239,-0.0004313287700586465,-0.0004931051561496806,0.0007739985250172437,-0.0012148024520364335,0.00038959491134220927,0.00025541427540016104,-0.0005277875214724094,0.0,0.0,0.0,0.0,0.0,0.0,0.0,-0.00010002163479794213,-0.0001639321667452065,-5.543018925633931e-05,0.00024241925019374833,0.00014124036002859108,5.102648020605116e-05,-5.485141676420113e-06,0.0004313287700586465,0.0004931051561496806,-0.0007739985250172437,0.0012148024520364335,-0.00038959491134220927,-0.00025541427540016104,0.0005277875214724094,0.4029781222343445,19.792627334594727,0.4466826617717743,-20.181917190551758,-0.8444114327430725,-2.4694857597351074,0.26217979192733765,0
44,0.21534490585327148,-0.4029781222343445,-19.792627334594727,-0.4466826617717743,20.181917190551758,0.8444114327430725,2.4694857597351074,-0.26217979192733765,0.0,0.0,0.0,0.0,0.0,0.0,0.0,-0.41699224749102415,-0.058170774580804295,-0.22834637552964493,0.363284928646113,0.267626705970544,0.10285050094770384,-0.2722260135340383,1.2135414154035553,-0.22007929942251328,-0.007456398405562882,-2.6040908014499813,-0.10902516744701767,2.4681310993001113,0.8264803933929155,1.2134413937687574,-0.2202432315892585,-0.0075118285948192216,-2.6038483821997875,-0.10888392708698907,2.4681821257803174,0.826474908251239,-0.0004313287700586465,-0.0004931051561496806,0.0007739985250172437,-0.0012148024520364335,0.00038959491134220927,0.00025541427540016104,-0.0005277875214724094,0.0,0.0,0.0,0.0,0.0,0.0,0.0,-0.00010002163479794213,-0.0001639321667452065,-5.543018925633931e-05,0.00024241925019374833,0.00014124036002859108,5.102648020605116e-05,-5.485141676420113e-06,0.0004313287700586465,0.0004931051561496806,-0.0007739985250172437,0.0012148024520364335,-0.00038959491134220927,-0.00025541427540016104,0.0005277875214724094,0.4029781222343445,19.792627334594727,0.4466826617717743,-20.181917190551758,-0.8444114327430725,-2.4694857597351074,0.26217979192733765,0
45,0.22005558013916016,-0.4267818331718445,-19.816431045532227,-0.4228789508342743,20.054964065551758,0.8563132882118225,2.4694857597351074,-0.25485557317733765,0.0,0.0,0.0,0.0,0.0,0.0,0.0,-0.41764980904801474,-0.05314895857159842,-0.22932700782126117,0.3593553818679195,0.26797799586579,0.10211834840562695,-0.2728935915621118,1.213543085512364,-0.2200777878280187,-0.007458068842754544,-2.604080926087546,-0.10902589680478512,2.468131097846569,0.8264781653101478,1.2134413937687574,-0.2202432315892585,-0.0075118285948192216,-2.6038483821997875,-0.10888392708698907,2.4681821257803174,0.826474908251239,-0.0003378315711144264,0.0004731844487896771,0.00011427750671772479,0.0016920560429536662,-0.00012588214195701115,0.00030250852361832464,-0.0009614671495913734,0.0,0.0,0.0,0.0,0.0,0.0,0.0,-0.00010169174360652455,-0.00016544376123978077,-5.375975206467747e-05,0.0002325438877583963,0.0001419697177960505,5.102793374822667e-05,-3.2570589088010138e-06,0.0003378315711144264,-0.0004731844487896771,-0.00011427750671772479,-0.0016920560429536662,0.00012588214195701115,-0.00030250852361832464,0.0009614671495913734,0.4267818331718445,19.816431045532227,0.4228789508342743,-20.054964065551758,-0.8563132882118225,-2.4694857597351074,0.25485557317733765,0
46,0.22504472732543945,-0.4267818331718445,-19.816431045532227,-0.4228789508342743,20.054964065551758,0.8563132882118225,2.4694857597351074,-0.25485557317733765,0.0,0.0,0.0,0.0,0.0,0.0,0.0,-0.41764980904801474,-0.05314895857159842,-0.22932700782126117,0.3593553818679195,0.26797799586579,0.10211834840562695,-0.2728935915621118,1.213543085512364,-0.2200777878280187,-0.007458068842754544,-2.604080926087546,-0.10902589680478512,2.468131097846569,0.8264781653101478,1.2134413937687574,-0.2202432315892585,-0.0075118285948192216,-2.6038483821997875,-0.10888392708698907,2.4681821257803174,0.826474908251239,-0.0003378315711144264,0.0004731844487896771,0.00011427750671772479,0.0016920560429536662,-0.00012588214195701115,0.00030250852361832464,-0.0009614671495913734,0.0,0.0,0.0,0.0,0.0,0.0,0.0,-0.00010169174360652455,-0.00016544376123978077,-5.375975206467747e-05,0.0002325438877583963,0.0001419697177960505,5.102793374822667e-05,-3.2570589088010138e-06,0.0003378315711144264,-0.0004731844487896771,-0.00011427750671772479,-0.0016920560429536662,0.00012588214195701115,-0.00030250852361832464,0.0009614671495913734,0.4267818331718445,19.816431045532227,0.4228789508342743,-20.054964065551758,-0.8563132882118225,-2.4694857597351074,0.25485557317733765,0
47,0.23003840446472168,-0.3752071261405945,-19.792627334594727,-0.4228789508342743,20.130342483520508,0.8563132882118225,2.4694857597351074,-0.24844686686992645,0.0,0.0,0.0,0.0,0.0,0.0,0.0,-0.42287770986026607,-0.058900929330837876,-0.22866934809849132,0.3635458709851284,0.26800710355215596,0.10365185200528983,-0.27377390267029883,1.2135394662346757,-0.2200788271086915,-0.007458068842754551,-2.6040864540271342,-0.10902694988597283,2.468131097846561,0.8264746289755577,1.2134413937687574,-0.2202432315892585,-0.0075118285948192216,-2.6038483821997875,-0.10888392708698907,2.4681821257803174,0.826474908251239,-0.0018092186645311606,-0.00032252920248368054,-8.681786090301747e-05,0.00025768279341465637,-0.00012463025050440005,9.301992345084824e-05,-0.0013313313384889019,0.0,0.0,0.0,0.0,0.0,0.0,0.0,-9.807246591830854e-05,-0.00016440448056698198,-5.3759752064670534e-05,0.00023807182734669752,0.0001430227989837607,5.102793375622028e-05,2.792756813585484e-07,0.0018092186645311606,0.00032252920248368054,8.681786090301747e-05,-0.00025768279341465637,0.00012463025050440005,-9.301992345084824e-05,0.0013313313384889019,0.3752071261405945,19.792627334594727,0.4228789508342743,-20.130342483520508,-0.8563132882118225,-2.4694857597351074,0.24844686686992645,0
48,0.23504161834716797,-0.3752071261405945,-19.792627334594727,-0.4228789508342743,20.130342483520508,0.8563132882118225,2.4694857597351074,-0.24844686686992645,0.0,0.0,0.0,0.0,0.0,0.0,0.0,-0.42287770986026607,-0.058900929330837876,-0.22866934809849132,0.3635458709851284,0.26800710355215596,0.10365185200528983,-0.27377390267029883,1.2135394662346757,-0.2200788271086915,-0.007458068842754551,-2.6040864540271342,-0.10902694988597283,2.468131097846561,0.8264746289755577,1.2134413937687574,-0.2202432315892585,-0.0075118285948192216,-2.6038483821997875,-0.10888392708698907,2.4681821257803174,0.826474908251239,-0.0018092186645311606,-0.00032252920248368054,-8.681786090301747e-05,0.00025768279341465637,-0.00012463025050440005,9.301992345084824e-05,-0.0013313313384889019,0.0,0.0,0.0,0.0,0.0,0.0,0.0,-9.807246591830854e-05,-0.00016440448056698198,-5.3759752064670534e-05,0.00023807182734669752,0.0001430227989837607,5.102793375622028e-05,2.792756813585484e-07,0.0018092186645311606,0.00032252920248368054,8.681786090301747e-05,-0.00025768279341465637,0.00012463025050440005,-9.301992345084824e-05,0.0013313313384889019,0.3752071261405945,19.792627334594727,0.4228789508342743,-20.130342483520508,-0.8563132882118225,-2.4694857597351074,0.24844686686992645,0
49,0.24004006385803223,-0.4029781222343445,-19.792627334594727,-0.4228789508342743,20.106538772583008,0.8444114327430725,2.4823031425476074,-0.28232139348983765,0.0,0.0,0.0,0.0,0.0,0.0,0.0,-0.4204391096961007,-0.0574078410106825,-0.22728978558307208,0.35963364237528506,0.2681336240754203,0.10310489402395599,-0.2751105890518637,1.2135414150765067,-0.22007882699712175,-0.007458068842754551,-2.604085208301163,-0.10902563427856299,2.468129673692915,0.8264816090180834,1.2134413937687574,-0.2202432315892585,-0.0075118285948192216,-2.6038483821997875,-0.10888392708698907,2.4681821257803174,0.826474908251239,-9.533371261562855e-05,-0.00010624802240572874,-7.741223229479893e-05,0.0006233563609808598,0.0002891589419121097,-0.0001988561602228761,-2.6399653127225777e-05,0.0,0.0,0.0,0.0,0.0,0.0,0.0,-0.00010002130774933171,-0.00016440459213673542,-5.3759752064670534e-05,0.00023682610137543136,0.00014170719157391432,5.245208740234375e-05,-6.700766844391914e-06,9.533371261562855e-05,0.00010624802240572874,7.741223229479893e-05,-0.0006233563609808598,-0.0002891589419121097,0.0001988561602228761,2.6399653127225777e-05,0.4029781222343445,19.792627334594727,0.4228789508342743,-20.106538772583008,-0.8444114327430725,-2.4823031425476074,0.28232139348983765,0
50,0.245039701461792,-0.4029781222343445,-19.792627334594727,-0.4228789508342743,20.106538772583008,0.8444114327430725,2.4823031425476074,-0.28232139348983765,0.0,0.0,0.0,0.0,0.0,0.0,0.0,-0.4204391096961007,-0.0574078410106825,-0.22728978558307208,0.35963364237528506,0.2681336240754203,0.10310489402395599,-0.2751105890518637,1.2135414150765067,-0.22007882699712175,-0.007458068842754551,-2.604085208301163,-0.10902563427856299,2.468129673692915,0.8264816090180834,1.2134413937687574,-0.2202432315892585,-0.0075118285948192216,-2.6038483821997875,-0.10888392708698907,2.4681821257803174,0.826474908251239,-9.533371261562855e-05,-0.00010624802240572874,-7.741223229479893e-05,0.0006233563609808598,0.0002891589419121097,-0.0001988561602228761,-2.6399653127225777e-05,0.0,0.0,0.0,0.0,0.0,0.0,0.0,-0.00010002130774933171,-0.00016440459213673542,-5.3759752064670534e-05,0.00023682610137543136,0.00014170719157391432,5.245208740234375e-05,-6.700766844391914e-06,9.533371261562855e-05,0.00010624802240572874,7.741223229479893e-05,-0.0006233563609808598,-0.0002891589419121097,0.0001988561602228761,2.6399653127225777e-05,0.4029781222343445,19.792627334594727,0.4228789508342743,-20.106538772583008,-0.8444114327430725,-2.4823031425476074,0.28232139348983765,0
51,0.2500441074371338,-0.4029781222343445,-19.792627334594727,-0.4466826617717743,20.154146194458008,0.8499045968055725,2.4823031425476074,-0.28232139348983765,0.0,0.0,0.0,0.0,0.0,0.0,0.0,-0.41648539542931856,-0.055611557592830145,-0.22803486311920187,0.3595486721122854,0.2683944066171547,0.10332264141644434,-0.27630577529368555,1.2135414151855228,-0.22007952439740683,-0.007456398406899288,-2.6040886488349826,-0.10902163620891654,2.468129673692915,0.8264826706124353,1.2134413937687574,-0.2202432315892585,-0.0075118285948192216,-2.6038483821997875,-0.10888392708698907,2.4681821257803174,0.826474908251239,-0.00012232985485895873,0.0001462703951979959,0.0006496100821554369,-0.0006702200884847976,0.0001874777125351436,-0.0003192840495052073,0.0005542056236808282,0.0,0.0,0.0,0.0,0.0,0.0,0.0,-0.00010002141676546117,-0.0001637071918516586,-5.5430187919933496e-05,0.0002402666351950522,0.00013770912192746787,5.245208740234375e-05,-7.762361196261836e-06,0.00012232985485895873,-0.0001462703951979959,-0.0006496100821554369,0.0006702200884847976,-0.0001874777125351436,0.0003192840495052073,-0.0005542056236808282,0.4029781222343445,19.792627334594727,0.4466826617717743,-20.154146194458008,-0.8499045968055725,-2.4823031425476074,0.28232139348983765,0
52,0.25504493713378906,-0.4029781222343445,-19.792627334594727,-0.4466826617717743,20.154146194458008,0.8499045968055725,2.4823031425476074,-0.28232139348983765,0.0,0.0,0.0,0.0,0.0,0.0,0.0,-0.41648539542931856,-0.055611557592830145,-0.22803486311920187,0.3595486721122854,0.2683944066171547,0.10332264141644434,-0.27630577529368555,1.2135414151855228,-0.22007952439740683,-0.007456398406899288,-2.6040886488349826,-0.10902163620891654,2.468129673692915,0.8264826706124353,1.2134413937687574,-0.2202432315892585,-0.0075118285948192216,-2.6038483821997875,-0.10888392708698907,2.4681821257803174,0.826474908251239,-0.00012232985485895873,0.0001462703951979959,0.0006496100821554369,-0.0006702200884847976,0.0001874777125351436,-0.0003192840495052073,0.0005542056236808282,0.0,0.0,0.0,0.0,0.0,0.0,0.0,-0.00010002141676546117,-0.0001637071918516586,-5.5430187919933496e-05,0.0002402666351950522,0.00013770912192746787,5.245208740234375e-05,-7.762361196261836e-06,0.00012232985485895873,-0.0001462703951979959,-0.0006496100821554369,0.0006702200884847976,-0.0001874777125351436,0.0003192840495052073,-0.0005542056236808282,0.4029781222343445,19.792627334594727,0.4466826617717743,-20.154146194458008,-0.8499045968055725,-2.4823031425476074,0.28232139348983765,0
53,0.2600405216217041,-0.4029781222343445,-19.792627334594727,-0.4466826617717743,20.130342483520508,0.8499045968055725,2.4823031425476074,-0.27591270208358765,0.0,0.0,0.0,0.0,0.0,0.0,0.0,-0.41843930553947223,-0.05660599455822581,-0.23147676093057049,0.36037163929249655,0.268669435292888,0.10369835222854601,-0.275597505018504,1.2135414150765085,-0.2200795279654273,-0.007456398406899288,-2.6040882638369522,-0.10902613113046296,2.468129673692915,0.8264818408040351,1.2134413937687574,-0.2202432315892585,-0.0075118285948192216,-2.6038483821997875,-0.10888392708698907,2.4681821257803174,0.826474908251239,-0.00040888859987814384,-9.743669541935094e-05,0.0002429189577622193,-1.2923934697463778e-05,-2.9587456797346517e-05,-0.0002529772086931263,8.159838095870385e-05,0.0,0.0,0.0,0.0,0.0,0.0,0.0,-0.00010002130775110807,-0.0001637036238311962,-5.5430187919933496e-05,0.00023988163716470723,0.00014220404347388416,5.245208740234375e-05,-6.93255279604621e-06,0.00040888859987814384,9.743669541935094e-05,-0.0002429189577622193,1.2923934697463778e-05,2.9587456797346517e-05,0.0002529772086931263,-8.159838095870385e-05,0.4029781222343445,19.792627334594727,0.4466826617717743,-20.130342483520508,-0.8499045968055725,-2.4823031425476074,0.27591270208358765,0
54,0.2650599479675293,-0.4029781222343445,-19.792627334594727,-0.4466826617717743,20.130342483520508,0.8499045968055725,2.4823031425476074,-0.27591270208358765,0.0,0.0,0.0,0.0,0.0,0.0,0.0,-0.41843930553947223,-0.05660599455822581,-0.23147676093057049,0.36037163929249655,0.268669435292888,0.10369835222854601,-0.275597505018504,1.2135414150765085,-0.2200795279654273,-0.007456398406899288,-2.6040882638369522,-0.10902613113046296,2.468129673692915,0.8264818408040351,1.2134413937687574,-0.2202432315892585,-0.0075118285948192216,-2.6038483821997875,-0.10888392708698907,2.4681821257803174,0.826474908251239,-0.00040888859987814384,-9.743669541935094e-05,0.0002429189577622193,-1.2923934697463778e-05,-2.9587456797346517e-05,-0.0002529772086931263,8.159838095870385e-05,0.0,0.0,0.0,0.0,0.0,0.0,0.0,-0.00010002130775110807,-0.0001637036238311962,-5.5430187919933496e-05,0.00023988163716470723,0.00014220404347388416,5.245208740234375e-05,-6.93255279604621e-06,0.00040888859987814384,9.743669541935094e-05,-0.0002429189577622193,1.2923934697463778e-05,2.9587456797346517e-05,0.0002529772086931263,-8.159838095870385e-05,0.4029781222343445,19.792627334594727,0.4466826617717743,-20.130342483520508,-0.8499045968055725,-2.4823031425476074,0.27591270208358765,0
55,0.27009153366088867,-0.4505855441093445,-19.844202041625977,-0.3990752398967743,20.181917190551758,0.8444114327430725,2.4694857597351074,-0.23471395671367645,0.0,0.0,0.0,0.0,0.0,0.0,0.0,-0.418232619145339,-0.05615495792245814,-0.22797948530680184,0.3615217357872066,0.2681806621641978,0.10380891813491444,-0.2753326872088909,1.21354475596033,-0.22007371312451718,-0.007459739278609815,-2.604090043891218,-0.10902564060665472,2.468131097846561,0.8264742018271156,1.2134413937687574,-0.2202432315892585,-0.0075118285948192216,-2.6038483821997875,-0.10888392708698907,2.4681821257803174,0.826474908251239,0.000765192909344032,0.0012146833849290303,-0.0003170639625298914,-0.0012010185836836488,0.00023541985022478926,0.0001696375765059551,-0.0014968887118492016,0.0,0.0,0.0,0.0,0.0,0.0,0.0,-0.00010336219157269788,-0.00016951846474130838,-5.2089316209406704e-05,0.00024166169143047256,0.0001417135196656455,5.102793375622028e-05,7.064241234200352e-07,-0.000765192909344032,-0.0012146833849290303,0.0003170639625298914,0.0012010185836836488,-0.00023541985022478926,-0.0001696375765059551,0.0014968887118492016,0.4505855441093445,19.844202041625977,0.3990752398967743,-20.181917190551758,-0.8444114327430725,-2.4694857597351074,0.23471395671367645,0
56,0.2750401496887207,-0.4505855441093445,-19.844202041625977,-0.3990752398967743,20.181917190551758,0.8444114327430725,2.4694857597351074,-0.23471395671367645,0.0,0.0,0.0,0.0,0.0,0.0,0.0,-0.418232619145339,-0.05615495792245814,-0.22797948530680184,0.3615217357872066,0.2681806621641978,0.10380891813491444,-0.2753326872088909,1.21354475596033,-0.22007371312451718,-0.007459739278609815,-2.604090043891218,-0.10902564060665472,2.468131097846561,0.8264742018271156,1.2134413937687574,-0.2202432315892585,-0.0075118285948192216,-2.6038483821997875,-0.10888392708698907,2.4681821257803174,0.826474908251239,0.000765192909344032,0.0012146833849290303,-0.0003170639625298914,-0.0012010185836836488,0.00023541985022478926,0.0001696375765059551,-0.0014968887118492016,0.0,0.0,0.0,0.0,0.0,0.0,0.0,-0.00010336219157269788,-0.00016951846474130838,-5.2089316209406704e-05,0.00024166169143047256,0.0001417135196656455,5.102793375622028e-05,7.064241234200352e-07,-0.000765192909344032,-0.0012146833849290303,0.0003170639625298914,0.0012010185836836488,-0.00023541985022478926,-0.0001696375765059551,0.0014968887118492016,0.4505855441093445,19.844202041625977,0.3990752398967743,-20.181917190551758,-0.8444114327430725,-2.4694857597351074,0.23471395671367645,0
57,0.28005504608154297,-0.4505855441093445,-19.844202041625977,-0.3990752398967743,20.181917190551758,0.8444114327430725,2.4694857597351074,-0.23471395671367645,0.0,0.0,0.0,0.0,0.0,0.0,0.0,-0.418232619145339,-0.05615495792245814,-0.22797948530680184,0.3615217357872066,0.2681806621641978,0.10380891813491444,-0.2753326872088909,1.21354475596033,-0.22007371312451718,-0.007459739278609815,-2.604090043891218,-0.10902564060665472,2.468131097846561,0.8264742018271156,1.2134413937687574,-0.2202432315892585,-0.0075118285948192216,-2.6038483821997875,-0.10888392708698907,2.4681821257803174,0.826474908251239,0.000765192909344032,0.0012146833849290303,-0.0003170639625298914,-0.0012010185836836488,0.00023541985022478926,0.0001696375765059551,-0.0014968887118492016,0.0,0.0,0.0,0.0,0.0,0.0,0.0,-0.00010336219157269788,-0.00016951846474130838,-5.2089316209406704e-05,0.00024166169143047256,0.0001417135196656455,5.102793375622028e-05,7.064241234200352e-07,-0.000765192909344032,-0.0012146833849290303,0.0003170639625298914,0.0012010185836836488,-0.00023541985022478926,-0.0001696375765059551,0.0014968887118492016,0.4505855441093445,19.844202041625977,0.3990752398967743,-20.181917190551758,-0.8444114327430725,-2.4694857597351074,0.23471395671367645,0
58,0.28503870964050293,-0.4505855441093445,-19.844202041625977,-0.3990752398967743,20.181917190551758,0.8444114327430725,2.4694857597351074,-0.23471395671367645,0.0,0.0,0.0,0.0,0.0,0.0,0.0,-0.418232619145339,-0.05615495792245814,-0.22797948530680184,0.3615217357872066,0.2681806621641978,0.10380891813491444,-0.2753326872088909,1.21354475596033,-0.22007371312451718,-0.007459739278609815,-2.604090043891218,-0.10902564060665472,2.468131097846561,0.8264742018271156,1.2134413937687574,-0.2202432315892585,-0.0075118285948192216,-2.6038483821997875,-0.10888392708698907,2.4681821257803174,0.826474908251239,0.000765192909344032,0.0012146833849290303,-0.0003170639625298914,-0.0012010185836836488,0.00023541985022478926,0.0001696375765059551,-0.0014968887118492016,0.0,0.0,0.0,0.0,0.0,0.0,0.0,-0.00010336219157269788,-0.00016951846474130838,-5.2089316209406704e-05,0.00024166169143047256,0.0001417135196656455,5.102793375622028e-05,7.064241234200352e-07,-0.000765192909344032,-0.0012146833849290303,0.0003170639625298914,0.0012010185836836488,-0.00023541985022478926,-0.0001696375765059551,0.0014968887118492016,0.4505855441093445,19.844202041625977,0.3990752398967743,-20.181917190551758,-0.8444114327430725,-2.4694857597351074,0.23471395671367645,0
59,0.2900526523590088,-0.4505855441093445,-19.844202041625977,-0.3990752398967743,20.181917190551758,0.8444114327430725,2.4694857597351074,-0.23471395671367645,0.0,0.0,0.0,0.0,0.0,0.0,0.0,-0.418232619145339,-0.05615495792245814,-0.22797948530680184,0.3615217357872066,0.2681806621641978,0.10380891813491444,-0.2753326872088909,1.21354475596033,-0.22007371312451718,-0.007459739278609815,-2.604090043891218,-0.10902564060665472,2.468131097846561,0.8264742018271156,1.2134413937687574,-0.2202432315892585,-0.0075118285948192216,-2.6038483821997875,-0.10888392708698907,2.4681821257803174,0.826474908251239,0.000765192909344032,0.0012146833849290303,-0.0003170639625298914,-0.0012010185836836488,0.00023541985022478926,0.0001696375765059551,-0.0014968887118492016,0.0,0.0,0.0,0.0,0.0,0.0,0.0,-0.00010336219157269788,-0.00016951846474130838,-5.2089316209406704e-05,0.00024166169143047256,0.0001417135196656455,5.102793375622028e-05,7.064241234200352e-07,-0.000765192909344032,-0.0012146833849290303,0.0003170639625298914,0.0012010185836836488,-0.00023541985022478926,-0.0001696375765059551,0.0014968887118492016,0.4505855441093445,19.844202041625977,0.3990752398967743,-20.181917190551758,-0.8444114327430725,-2.4694857597351074,0.23471395671367645,0
60,0.2950441837310791,-0.4505855441093445,-19.816431045532227,-0.4466826617717743,20.154146194458008,0.8563132882118225,2.4758944511413574,-0.25485557317733765,0.0,0.0,0.0,0.0,0.0,0.0,0.0,-0.42493427020107155,-0.062123391415139596,-0.23023584939568212,0.36613964012580186,0.2679466340856636,0.10421228292196869,-0.2744995049581417,1.2135447559482173,-0.2200769091091159,-0.007456398406899288,-2.604090878263561,-0.1090269630352656,2.4681303857697383,0.8264796187888344,1.2134413937687574,-0.2202432315892585,-0.0075118285948192216,-2.6038483821997875,-0.10888392708698907,2.4681821257803174,0.826474908251239,0.0005507217819157758,0.00014482606683111285,0.00021147523725786763,-7.368161261302506e-05,-0.0001621282751364336,-0.0001122061799962459,-0.00044573812744667853,0.0,0.0,0.0,0.0,0.0,0.0,0.0,-0.00010336217945994264,-0.00016632248014258888,-5.5430187919933496e-05,0.0002424960637732454,0.00014303594827652644,5.174001057905997e-05,-4.710537595320474e-06,-0.0005507217819157758,-0.00014482606683111285,-0.00021147523725786763,7.368161261302506e-05,0.0001621282751364336,0.0001122061799962459,0.00044573812744667853,0.4505855441093445,19.816431045532227,0.4466826617717743,-20.154146194458008,-0.8563132882118225,-2.4758944511413574,0.25485557317733765,0
61,0.30004286766052246,-0.4505855441093445,-19.816431045532227,-0.4466826617717743,20.154146194458008,0.8563132882118225,2.4758944511413574,-0.25485557317733765,0.0,0.0,0.0,0.0,0.0,0.0,0.0,-0.42493427020107155,-0.062123391415139596,-0.23023584939568212,0.36613964012580186,0.2679466340856636,0.10421228292196869,-0.2744995049581417,1.2135447559482173,-0.2200769091091159,-0.007456398406899288,-2.604090878263561,-0.1090269630352656,2.4681303857697383,0.8264796187888344,1.2134413937687574,-0.2202432315892585,-0.0075118285948192216,-2.6038483821997875,-0.10888392708698907,2.4681821257803174,0.826474908251239,0.0005507217819157758,0.00014482606683111285,0.00021147523725786763,-7.368161261302506e-05,-0.0001621282751364336,-0.0001122061799962459,-0.00044573812744667853,0.0,0.0,0.0,0.0,0.0,0.0,0.0,-0.00010336217945994264,-0.00016632248014258888,-5.5430187919933496e-05,0.0002424960637732454,0.00014303594827652644,5.174001057905997e-05,-4.710537595320474e-06,-0.0005507217819157758,-0.00014482606683111285,-0.00021147523725786763,7.368161261302506e-05,0.0001621282751364336,0.0001122061799962459,0.00044573812744667853,0.4505855441093445,19.816431045532227,0.4466826617717743,-20.154146194458008,-0.8563132882118225,-2.4758944511413574,0.25485557317733765,0
62,0.3050546646118164,-0.4267818331718445,-19.768823623657227,-0.3990752398967743,20.130342483520508,0.8563132882118225,2.4694857597351074,-0.28964561223983765,0.0,0.0,0.0,0.0,0.0,0.0,0.0,-0.4186732519866978,-0.049111992572820444,-0.2242349850517346,0.35432858839687104,0.2675592675968161,0.10214824072274133,-0.27344305168521604,1.2135430855123621,-0.22008049846724845,-0.007459739278609815,-2.604086187246964,-0.10902648985937727,2.468131097846561,0.8264834837744889,1.2134413937687574,-0.2202432315892585,-0.0075118285948192216,-2.6038483821997875,-0.10888392708698907,2.4681821257803174,0.826474908251239,0.00040674332426880906,-0.0006513407612930975,-0.00038205035090771016,-0.0008162643271381567,-5.796402286299671e-05,0.0001533011916240584,0.000737985505899158,0.0,0.0,0.0,0.0,0.0,0.0,0.0,-0.0001016917436047482,-0.0001627331220100392,-5.2089316209406704e-05,0.00023780504717629825,0.00014256277238819393,5.102793375622028e-05,-8.575523249843009e-06,-0.00040674332426880906,0.0006513407612930975,0.00038205035090771016,0.0008162643271381567,5.796402286299671e-05,-0.0001533011916240584,-0.000737985505899158,0.4267818331718445,19.768823623657227,0.3990752398967743,-20.130342483520508,-0.8563132882118225,-2.4694857597351074,0.28964561223983765,0
63,0.31008291244506836,-0.4267818331718445,-19.768823623657227,-0.3990752398967743,20.130342483520508,0.8563132882118225,2.4694857597351074,-0.28964561223983765,0.0,0.0,0.0,0.0,0.0,0.0,0.0,-0.4186732519866978,-0.049111992572820444,-0.2242349850517346,0.35432858839687104,0.2675592675968161,0.10214824072274133,-0.27344305168521604,1.2135430855123621,-0.22008049846724845,-0.007459739278609815,-2.604086187246964,-0.10902648985937727,2.468131097846561,0.8264834837744889,1.2134413937687574,-0.2202432315892585,-0.0075118285948192216,-2.6038483821997875,-0.10888392708698907,2.4681821257803174,0.826474908251239,0.00040674332426880906,-0.0006513407612930975,-0.00038205035090771016,-0.0008162643271381567,-5.796402286299671e-05,0.0001533011916240584,0.000737985505899158,0.0,0.0,0.0,0.0,0.0,0.0,0.0,-0.0001016917436047482,-0.0001627331220100392,-5.2089316209406704e-05,0.00023780504717629825,0.00014256277238819393,5.102793375622028e-05,-8.575523249843009e-06,-0.00040674332426880906,0.0006513407612930975,0.00038205035090771016,0.0008162643271381567,5.796402286299671e-05,-0.0001533011916240584,-0.000737985505899158,0.4267818331718445,19.768823623657227,0.3990752398967743,-20.130342483520508,-0.8563132882118225,-2.4694857597351074,0.28964561223983765,0
64,0.3150513172149658,-0.4267818331718445,-19.844202041625977,-0.3990752398967743,20.130342483520508,0.8499045968055725,2.4758944511413574,-0.24112264811992645,0.0,0.0,0.0,0.0,0.0,0.0,0.0,-0.42061377571591035,-0.05995405621197042,-0.2254654545564857,0.363460402919732,0.26817397744287996,0.10352807893991951,-0.2723466038809729,1.2135430855123621,-0.22007581244984165,-0.007459739278609815,-2.604087107483945,-0.10902305714022238,2.4681303857697383,0.8264777397673402,1.2134413937687574,-0.2202432315892585,-0.0075118285948192216,-2.6038483821997875,-0.10888392708698907,2.4681821257803174,0.826474908251239,0.0004288673021250707,0.0010214389736496533,-0.00017413661456086148,-0.00011748188437616336,3.474166266033951e-05,-0.0002549736094480136,-0.0012211849401801583,0.0,0.0,0.0,0.0,0.0,0.0,0.0,-0.0001016917436047482,-0.00016741913941684117,-5.2089316209406704e-05,0.00023872528415758154,0.00013913005323330785,5.174001057905997e-05,-2.8315161011427392e-06,-0.0004288673021250707,-0.0010214389736496533,0.00017413661456086148,0.00011748188437616336,-3.474166266033951e-05,0.0002549736094480136,0.0012211849401801583,0.4267818331718445,19.844202041625977,0.3990752398967743,-20.130342483520508,-0.8499045968055725,-2.4758944511413574,0.24112264811992645,0
65,0.3200798034667969,-0.4267818331718445,-19.844202041625977,-0.3990752398967743,20.130342483520508,0.8499045968055725,2.4758944511413574,-0.24112264811992645,0.0,0.0,0.0,0.0,0.0,0.0,0.0,-0.42061377571591035,-0.05995405621197042,-0.2254654545564857,0.363460402919732,0.26817397744287996,0.10352807893991951,-0.2723466038809729,1.2135430855123621,-0.22007581244984165,-0.007459739278609815,-2.604087107483945,-0.10902305714022238,2.4681303857697383,0.8264777397673402,1.2134413937687574,-0.2202432315892585,-0.0075118285948192216,-2.6038483821997875,-0.10888392708698907,2.4681821257803174,0.826474908251239,0.0004288673021250707,0.0010214389736496533,-0.00017413661456086148,-0.00011748188437616336,3.474166266033951e-05,-0.0002549736094480136,-0.0012211849401801583,0.0,0.0,0.0,0.0,0.0,0.0,0.0,-0.0001016917436047482,-0.00016741913941684117,-5.2089316209406704e-05,0.00023872528415758154,0.00013913005323330785,5.174001057905997e-05,-2.8315161011427392e-06,-0.0004288673021250707,-0.0010214389736496533,0.00017413661456086148,0.00011748188437616336,-3.474166266033951e-05,0.0002549736094480136,0.0012211849401801583,0.4267818331718445,19.844202041625977,0.3990752398967743,-20.130342483520508,-0.8499045968055725,-2.4758944511413574,0.24112264811992645,0
66,0.32503819465637207,-0.4267818331718445,-19.768823623657227,-0.4228789508342743,20.154146194458008,0.8563132882118225,2.4758944511413574,-0.23471395671367645,0.0,0.0,0.0,0.0,0.0,0.0,0.0,-0.4198199808878777,-0.05311002706825939,-0.22390096723118622,0.3578845407784814,0.2681708707667237,0.10251890544584762,-0.2712421585901829,1.2135430855123621,-0.22008119872492274,-0.007458068842754551,-2.6040881726532135,-0.10902696296314886,2.4681303857697383,0.8264762819634156,1.2134413937687574,-0.2202432315892585,-0.0075118285948192216,-2.6038483821997875,-0.10888392708698907,2.4681821257803174,0.826474908251239,0.0004102543296235212,-0.00042455489400425425,0.00014639078112251935,-0.000870546485652815,-0.0001473175301584322,-0.00016509017233223887,-0.0016275125247030662,0.0,0.0,0.0,0.0,0.0,0.0,0.0,-0.0001016917436047482,-0.00016203286433574826,-5.3759752064670534e-05,0.00023979045342592542,0.0001430358761597833,5.174001057905997e-05,-1.373712176566677e-06,-0.0004102543296235212,0.00042455489400425425,-0.00014639078112251935,0.000870546485652815,0.0001473175301584322,0.00016509017233223887,0.0016275125247030662,0.4267818331718445,19.768823623657227,0.4228789508342743,-20.154146194458008,-0.8563132882118225,-2.4758944511413574,0.23471395671367645,0
67,0.3300755023956299,-0.4267818331718445,-19.768823623657227,-0.4228789508342743,20.154146194458008,0.8563132882118225,2.4758944511413574,-0.23471395671367645,0.0,0.0,0.0,0.0,0.0,0.0,0.0,-0.4198199808878777,-0.05311002706825939,-0.22390096723118622,0.3578845407784814,0.2681708707667237,0.10251890544584762,-0.2712421585901829,1.2135430855123621,-0.22008119872492274,-0.007458068842754551,-2.6040881726532135,-0.10902696296314886,2.4681303857697383,0.8264762819634156,1.2134413937687574,-0.2202432315892585,-0.0075118285948192216,-2.6038483821997875,-0.10888392708698907,2.4681821257803174,0.826474908251239,0.0004102543296235212,-0.00042455489400425425,0.00014639078112251935,-0.000870546485652815,-0.0001473175301584322,-0.00016509017233223887,-0.0016275125247030662,0.0,0.0,0.0,0.0,0.0,0.0,0.0,-0.0001016917436047482,-0.00016203286433574826,-5.3759752064670534e-05,0.00023979045342592542,0.0001430358761597833,5.174001057905997e-05,-1.373712176566677e-06,-0.0004102543296235212,0.00042455489400425425,-0.00014639078112251935,0.000870546485652815,0.0001473175301584322,0.00016509017233223887,0.0016275125247030662,0.4267818331718445,19.768823623657227,0.4228789508342743,-20.154146194458008,-0.8563132882118225,-2.4758944511413574,0.23471395671367645,0
68,0.33501744270324707,-0.4505855441093445,-19.792627334594727,-0.3990752398967743,20.154146194458008,0.8499045968055725,2.4758944511413574,-0.24844686686992645,0.0,0.0,0.0,0.0,0.0,0.0,0.0,-0.42022230735975175,-0.06009568097249877,-0.2256729163507964,0.3631599268420346,0.26824462491436885,0.10402728980871082,-0.27062619577002933,1.2135447559482173,-0.22007880205149563,-0.007459730510891256,-2.6040886589108054,-0.10902588294677407,2.4681303857697383,0.8264789067759333,1.2134413937687574,-0.2202432315892585,-0.0075118285948192216,-2.6038483821997875,-0.10888392708698907,2.4681821257803174,0.826474908251239,0.0009028802877692747,-0.00032455802162375315,-0.0007108220593055515,-0.00027765927677733665,0.00014612227309249824,8.323655828258119e-05,-0.0011999373931602217,0.0,0.0,0.0,0.0,0.0,0.0,0.0,-0.00010336217945994264,-0.00016442953776285574,-5.2098083927965694e-05,0.00024027671101789494,0.00014195585978499237,5.174001057905997e-05,-3.99852469423756e-06,-0.0009028802877692747,0.00032455802162375315,0.0007108220593055515,0.00027765927677733665,-0.00014612227309249824,-8.323655828258119e-05,0.0011999373931602217,0.4505855441093445,19.792627334594727,0.3990752398967743,-20.154146194458008,-0.8499045968055725,-2.4758944511413574,0.24844686686992645,0
69,0.3400428295135498,-0.4505855441093445,-19.792627334594727,-0.3990752398967743,20.154146194458008,0.8499045968055725,2.4758944511413574,-0.24844686686992645,0.0,0.0,0.0,0.0,0.0,0.0,0.0,-0.42022230735975175,-0.06009568097249877,-0.2256729163507964,0.3631599268420346,0.26824462491436885,0.10402728980871082,-0.27062619577002933,1.2135447559482173,-0.22007880205149563,-0.007459730510891256,-2.6040886589108054,-0.10902588294677407,2.4681303857697383,0.8264789067759333,1.2134413937687574,-0.2202432315892585,-0.0075118285948192216,-2.6038483821997875,-0.10888392708698907,2.4681821257803174,0.826474908251239,0.0009028802877692747,-0.00032455802162375315,-0.0007108220593055515,-0.00027765927677733665,0.00014612227309249824,8.323655828258119e-05,-0.0011999373931602217,0.0,0.0,0.0,0.0,0.0,0.0,0.0,-0.00010336217945994264,-0.00016442953776285574,-5.2098083927965694e-05,0.00024027671101789494,0.00014195585978499237,5.174001057905997e-05,-3.99852469423756e-06,-0.0009028802877692747,0.00032455802162375315,0.0007108220593055515,0.00027765927677733665,-0.00014612227309249824,-8.323655828258119e-05,0.0011999373931602217,0.4505855441093445,19.792627334594727,0.3990752398967743,-20.154146194458008,-0.8499045968055725,-2.4758944511413574,0.24844686686992645,0
70,0.34503865242004395,-0.4505855441093445,-19.816431045532227,-0.4228789508342743,20.154146194458008,0.8563132882118225,2.4694857597351074,-0.28964561223983765,0.0,0.0,0.0,0.0,0.0,0.0,0.0,-0.41861387053386606,-0.05938790046922978,-0.22667283045421585,0.3642679168282829,0.2682153084589416,0.10433604061220368,-0.27038166221117566,1.2135447559482173,-0.220077604025242,-0.007458068842606069,-2.6040888122613923,-0.1090269630290333,2.468131097846561,0.8264834844205112,1.2134413937687574,-0.2202432315892585,-0.0075118285948192216,-2.6038483821997875,-0.10888392708698907,2.4681821257803174,0.826474908251239,0.0008338877219310625,0.0002066332981057851,-0.000415586121788772,0.00023424097098141068,-0.0001242345476701403,0.0001992124190335941,0.00017847456275797298,0.0,0.0,0.0,0.0,0.0,0.0,0.0,-0.00010336217945994264,-0.00016562756401647394,-5.3759752213152455e-05,0.00024043006160479052,0.0001430359420442201,5.102793375622028e-05,-8.576169272189738e-06,-0.0008338877219310625,-0.0002066332981057851,0.000415586121788772,-0.00023424097098141068,0.0001242345476701403,-0.0001992124190335941,-0.00017847456275797298,0.4505855441093445,19.816431045532227,0.4228789508342743,-20.154146194458008,-0.8563132882118225,-2.4694857597351074,0.28964561223983765,0
71,0.35004353523254395,-0.4505855441093445,-19.816431045532227,-0.4228789508342743,20.154146194458008,0.8563132882118225,2.4694857597351074,-0.28964561223983765,0.0,0.0,0.0,0.0,0.0,0.0,0.0,-0.41861387053386606,-0.05938790046922978,-0.22667283045421585,0.3642679168282829,0.2682153084589416,0.10433604061220368,-0.27038166221117566,1.2135447559482173,-0.220077604025242,-0.007458068842606069,-2.6040888122613923,-0.1090269630290333,2.468131097846561,0.8264834844205112,1.2134413937687574,-0.2202432315892585,-0.0075118285948192216,-2.6038483821997875,-0.10888392708698907,2.4681821257803174,0.826474908251239,0.0008338877219310625,0.0002066332981057851,-0.000415586121788772,0.00023424097098141068,-0.0001242345476701403,0.0001992124190335941,0.00017847456275797298,0.0,0.0,0.0,0.0,0.0,0.0,0.0,-0.00010336217945994264,-0.00016562756401647394,-5.3759752213152455e-05,0.00024043006160479052,0.0001430359420442201,5.102793375622028e-05,-8.576169272189738e-06,-0.0008338877219310625,-0.0002066332981057851,0.000415586121788772,-0.00023424097098141068,0.0001242345476701403,-0.0001992124190335941,-0.00017847456275797298,0.4505855441093445,19.816431045532227,0.4228789508342743,-20.154146194458008,-0.8563132882118225,-2.4694857597351074,0.28964561223983765,0
72,0.35504746437072754,-0.3514034152030945,-19.816431045532227,-0.4704863727092743,20.181917190551758,0.8563132882118225,2.4758944511413574,-0.24844686686992645,0.0,0.0,0.0,0.0,0.0,0.0,0.0,-0.4180465582086349,-0.054270835481403254,-0.22759634929448108,0.36224904041812017,0.2679112609637927,0.10397224474103506,-0.2718667820261762,1.2135377957988203,-0.22007571337713597,-0.007454727971044025,-2.604090811691134,-0.109026923605444,2.4681303857697383,0.826477807898151,1.2134413937687574,-0.2202432315892585,-0.0075118285948192216,-2.6038483821997875,-0.10888392708698907,2.4681821257803174,0.826474908251239,-0.001807661794861598,0.0007806301836110673,0.0008478834063214979,-0.0007914662835062164,-3.3854698571444226e-05,0.00018508938925777027,-0.0005147990521462846,0.0,0.0,0.0,0.0,0.0,0.0,0.0,-9.640203006289205e-05,-0.00016751821212251938,-5.710062377519646e-05,0.000242429491346563,0.00014299651845492423,5.174001057905997e-05,-2.899646911913578e-06,0.001807661794861598,-0.0007806301836110673,-0.0008478834063214979,0.0007914662835062164,3.3854698571444226e-05,-0.00018508938925777027,0.0005147990521462846,0.3514034152030945,19.816431045532227,0.4704863727092743,-20.181917190551758,-0.8563132882118225,-2.4758944511413574,0.24844686686992645,0
73,0.36004042625427246,-0.3514034152030945,-19.816431045532227,-0.4704863727092743,20.181917190551758,0.8563132882118225,2.4758944511413574,-0.24844686686992645,0.0,0.0,0.0,0.0,0.0,0.0,0.0,-0.4180465582086349,-0.054270835481403254,-0.22759634929448108,0.36224904041812017,0.2679112609637927,0.10397224474103506,-0.2718667820261762,1.2135377957988203,-0.22007571337713597,-0.007454727971044025,-2.604090811691134,-0.109026923605444,2.4681303857697383,0.826477807898151,1.2134413937687574,-0.2202432315892585,-0.0075118285948192216,-2.6038483821997875,-0.10888392708698907,2.4681821257803174,0.826474908251239,-0.001807661794861598,0.0007806301836110673,0.0008478834063214979,-0.0007914662835062164,-3.3854698571444226e-05,0.00018508938925777027,-0.0005147990521462846,0.0,0.0,0.0,0.0,0.0,0.0,0.0,-9.640203006289205e-05,-0.00016751821212251938,-5.710062377519646e-05,0.000242429491346563,0.00014299651845492423,5.174001057905997e-05,-2.899646911913578e-06,0.001807661794861598,-0.0007806301836110673,-0.0008478834063214979,0.0007914662835062164,3.3854698571444226e-05,-0.00018508938925777027,0.0005147990521462846,0.3514034152030945,19.816431045532227,0.4704863727092743,-20.181917190551758,-0.8563132882118225,-2.4758944511413574,0.24844686686992645,0
74,0.3649873733520508,-0.4029781222343445,-19.816431045532227,-0.3990752398967743,20.082735061645508,0.8563132882118225,2.4758944511413574,-0.23471395671367645,0.0,0.0,0.0,0.0,0.0,0.0,0.0,-0.4170188417414439,-0.05233236807696622,-0.22934221024087686,0.3606308805585982,0.26811233635929377,0.10397085817529869,-0.2712966364699997,1.2135414151128454,-0.22007762743512344,-0.007459739278609815,-2.6040835454591433,-0.10902696303519141,2.4681303857697383,0.8264773765405121,1.2134413937687574,-0.2202432315892585,-0.0075118285948192216,-2.6038483821997875,-0.10888392708698907,2.4681821257803174,0.826474908251239,-0.00011436024302098355,0.0009870814837633207,-0.0008883554519512129,0.0009371089002438895,0.00010913103642965798,-9.533687800183482e-05,-0.0014236020830158123,0.0,0.0,0.0,0.0,0.0,0.0,0.0,-0.00010002134408804153,-0.0001656041541350517,-5.2089316209406704e-05,0.0002351632593557973,0.00014303594820233578,5.174001057905997e-05,-2.4682892730831796e-06,0.00011436024302098355,-0.0009870814837633207,0.0008883554519512129,-0.0009371089002438895,-0.00010913103642965798,9.533687800183482e-05,0.0014236020830158123,0.4029781222343445,19.816431045532227,0.3990752398967743,-20.082735061645508,-0.8563132882118225,-2.4758944511413574,0.23471395671367645,0
75,0.37012457847595215,-0.4029781222343445,-19.816431045532227,-0.3990752398967743,20.082735061645508,0.8563132882118225,2.4758944511413574,-0.23471395671367645,0.0,0.0,0.0,0.0,0.0,0.0,0.0,-0.4170188417414439,-0.05233236807696622,-0.22934221024087686,0.3606308805585982,0.26811233635929377,0.10397085817529869,-0.2712966364699997,1.2135414151128454,-0.22007762743512344,-0.007459739278609815,-2.6040835454591433,-0.10902696303519141,2.4681303857697383,0.8264773765405121,1.2134413937687574,-0.2202432315892585,-0.0075118285948192216,-2.6038483821997875,-0.10888392708698907,2.4681821257803174,0.826474908251239,-0.00011436024302098355,0.0009870814837633207,-0.0008883554519512129,0.0009371089002438895,0.00010913103642965798,-9.533687800183482e-05,-0.0014236020830158123,0.0,0.0,0.0,0.0,0.0,0.0,0.0,-0.00010002134408804153,-0.0001656041541350517,-5.2089316209406704e-05,0.0002351632593557973,0.00014303594820233578,5.174001057905997e-05,-2.4682892730831796e-06,0.00011436024302098355,-0.0009870814837633207,0.0008883554519512129,-0.0009371089002438895,-0.00010913103642965798,9.533687800183482e-05,0.0014236020830158123,0.4029781222343445,19.816431045532227,0.3990752398967743,-20.082735061645508,-0.8563132882118225,-2.4758944511413574,0.23471395671367645,0
76,0.3750884532928467,-0.4029781222343445,-19.768823623657227,-0.4466826617717743,20.130342483520508,0.8499045968055725,2.4694857597351074,-0.28232139348983765,0.0,0.0,0.0,0.0,0.0,0.0,0.0,-0.4165005930116642,-0.05604335864152805,-0.23057037245473086,0.362274231547522,0.26830569762537776,0.10389573537528599,-0.2694081274704325,1.2135414150765067,-0.220078369701421,-0.007456398406899288,-2.604086453573377,-0.1090262509404135,2.468131097846561,0.8264779609361722,1.2134413937687574,-0.2202432315892585,-0.0075118285948192216,-2.6038483821997875,-0.10888392708698907,2.4681821257803174,0.826474908251239,0.00023488469024819146,-0.0006409547575552877,0.00036893763241627837,-0.00047028903717340106,-9.415618345123516e-06,0.00010260753172750731,0.0007181821010663474,0.0,0.0,0.0,0.0,0.0,0.0,0.0,-0.00010002130774933171,-0.00016486188783748634,-5.5430187919933496e-05,0.00023807137358966557,0.0001423238534244281,5.102793375622028e-05,-3.0526849331691253e-06,-0.00023488469024819146,0.0006409547575552877,-0.00036893763241627837,0.00047028903717340106,9.415618345123516e-06,-0.00010260753172750731,-0.0007181821010663474,0.4029781222343445,19.768823623657227,0.4466826617717743,-20.130342483520508,-0.8499045968055725,-2.4694857597351074,0.28232139348983765,0
77,0.3800678253173828,-0.4029781222343445,-19.768823623657227,-0.4466826617717743,20.130342483520508,0.8499045968055725,2.4694857597351074,-0.28232139348983765,0.0,0.0,0.0,0.0,0.0,0.0,0.0,-0.4165005930116642,-0.05604335864152805,-0.23057037245473086,0.362274231547522,0.26830569762537776,0.10389573537528599,-0.2694081274704325,1.2135414150765067,-0.220078369701421,-0.007456398406899288,-2.604086453573377,-0.1090262509404135,2.468131097846561,0.8264779609361722,1.2134413937687574,-0.2202432315892585,-0.0075118285948192216,-2.6038483821997875,-0.10888392708698907,2.4681821257803174,0.826474908251239,0.00023488469024819146,-0.0006409547575552877,0.00036893763241627837,-0.00047028903717340106,-9.415618345123516e-06,0.00010260753172750731,0.0007181821010663474,0.0,0.0,0.0,0.0,0.0,0.0,0.0,-0.00010002130774933171,-0.00016486188783748634,-5.5430187919933496e-05,0.00023807137358966557,0.0001423238534244281,5.102793375622028e-05,-3.0526849331691253e-06,-0.00023488469024819146,0.0006409547575552877,-0.00036893763241627837,0.00047028903717340106,9.415618345123516e-06,-0.00010260753172750731,-0.0007181821010663474,0.4029781222343445,19.768823623657227,0.4466826617717743,-20.130342483520508,-0.8499045968055725,-2.4694857597351074,0.28232139348983765,0
78,0.38504815101623535,-0.4029781222343445,-19.768823623657227,-0.4466826617717743,20.130342483520508,0.8499045968055725,2.4694857597351074,-0.28232139348983765,0.0,0.0,0.0,0.0,0.0,0.0,0.0,-0.4165005930116642,-0.05604335864152805,-0.23057037245473086,0.362274231547522,0.26830569762537776,0.10389573537528599,-0.2694081274704325,1.2135414150765067,-0.220078369701421,-0.007456398406899288,-2.604086453573377,-0.1090262509404135,2.468131097846561,0.8264779609361722,1.2134413937687574,-0.2202432315892585,-0.0075118285948192216,-2.6038483821997875,-0.10888392708698907,2.4681821257803174,0.826474908251239,0.00023488469024819146,-0.0006409547575552877,0.00036893763241627837,-0.00047028903717340106,-9.415618345123516e-06,0.00010260753172750731,0.0007181821010663474,0.0,0.0,0.0,0.0,0.0,0.0,0.0,-0.00010002130774933171,-0.00016486188783748634,-5.5430187919933496e-05,0.00023807137358966557,0.0001423238534244281,5.102793375622028e-05,-3.0526849331691253e-06,-0.00023488469024819146,0.0006409547575552877,-0.00036893763241627837,0.00047028903717340106,9.415618345123516e-06,-0.00010260753172750731,-0.0007181821010663474,0.4029781222343445,19.768823623657227,0.4466826617717743,-20.130342483520508,-0.8499045968055725,-2.4694857597351074,0.28232139348983765,0
79,0.3900477886199951,-0.4029781222343445,-19.768823623657227,-0.4466826617717743,20.130342483520508,0.8499045968055725,2.4694857597351074,-0.28232139348983765,0.0,0.0,0.0,0.0,0.0,0.0,0.0,-0.4165005930116642,-0.05604335864152805,-0.23057037245473086,0.362274231547522,0.26830569762537776,0.10389573537528599,-0.2694081274704325,1.2135414150765067,-0.220078369701421,-0.007456398406899288,-2.604086453573377,-0.1090262509404135,2.468131097846561,0.8264779609361722,1.2134413937687574,-0.2202432315892585,-0.0075118285948192216,-2.6038483821997875,-0.10888392708698907,2.4681821257803174,0.826474908251239,0.00023488469024819146,-0.0006409547575552877,0.00036893763241627837,-0.00047028903717340106,-9.415618345123516e-06,0.00010260753172750731,0.0007181821010663474,0.0,0.0,0.0,0.0,0.0,0.0,0.0,-0.00010002130774933171,-0.00016486188783748634,-5.5430187919933496e-05,0.00023807137358966557,0.0001423238534244281,5.102793375622028e-05,-3.0526849331691253e-06,-0.00023488469024819146,0.0006409547575552877,-0.00036893763241627837,0.00047028903717340106,9.415618345123516e-06,-0.00010260753172750731,-0.0007181821010663474,0.4029781222343445,19.768823623657227,0.4466826617717743,-20.130342483520508,-0.8499045968055725,-2.4694857597351074,0.28232139348983765,0
