rezayati/contactInterpretation/dataset/franka_main/labeled_data/link6/b9_6.csv
index,time,tau_J0,tau_J1,tau_J2,tau_J3,tau_J4,tau_J5,tau_J6,tau_J_d0,tau_J_d1,tau_J_d2,tau_J_d3,tau_J_d4,tau_J_d5,tau_J_d6,tau_ext0,tau_ext1,tau_ext2,tau_ext3,tau_ext4,tau_ext5,tau_ext6,q0,q1,q2,q3,q4,q5,q6,q_d0,q_d1,q_d2,q_d3,q_d4,q_d5,q_d6,dq0,dq1,dq2,dq3,dq4,dq5,dq6,dq_d0,dq_d1,dq_d2,dq_d3,dq_d4,dq_d5,dq_d6,e0,e1,e2,e3,e4,e5,e6,de0,de1,de2,de3,de4,de5,de6,etau_J0,etau_J1,etau_J2,etau_J3,etau_J4,etau_J5,etau_J6,label
1,0.0,-0.06972616910934448,-18.130334854125977,0.9180634021759033,18.297456741333008,0.7015891671180725,2.2753939628601074,-0.23471395671367645,0.0,0.0,0.0,0.0,0.0,0.0,0.0,-0.05871107834720673,0.5538875522234622,0.11151555321988543,0.6933910453230212,0.27418661305527264,0.09036037039682072,-0.22917339946978837,-0.6089056079387665,-0.057373700446726975,-0.6664832163191678,-2.5947312404565643,-0.055790627018094646,2.507930576562466,0.8763222419338093,-0.6090851748156966,-0.05753196718556838,-0.666603097082616,-2.5945565370258534,-0.05562143941554,2.507976027223799,0.8763108487046415,0.0001958428341301193,0.0003519913816988339,0.00037533971427121046,0.0004974841357793636,-0.00023360835542469941,-0.00020179767108519754,0.0003731356444483948,0.0,0.0,0.0,0.0,0.0,0.0,0.0,-0.00017956687693010398,-0.00015826673884140885,-0.00011988076344815468,0.00017470343071090966,0.00016918760255464627,4.545066133276876e-05,-1.1393229167766528e-05,-0.0001958428341301193,-0.0003519913816988339,-0.00037533971427121046,-0.0004974841357793636,0.00023360835542469941,0.00020179767108519754,-0.0003731356444483948,0.06972616910934448,18.130334854125977,-0.9180634021759033,-18.297456741333008,-0.7015891671180725,-2.2753939628601074,0.23471395671367645,0
2,0.004561901092529297,-0.06972616910934448,-18.130334854125977,0.9180634021759033,18.297456741333008,0.7015891671180725,2.2753939628601074,-0.23471395671367645,0.0,0.0,0.0,0.0,0.0,0.0,0.0,-0.05871107834720673,0.5538875522234622,0.11151555321988543,0.6933910453230212,0.27418661305527264,0.09036037039682072,-0.22917339946978837,-0.6089056079387665,-0.057373700446726975,-0.6664832163191678,-2.5947312404565643,-0.055790627018094646,2.507930576562466,0.8763222419338093,-0.6090851748156966,-0.05753196718556838,-0.666603097082616,-2.5945565370258534,-0.05562143941554,2.507976027223799,0.8763108487046415,0.0001958428341301193,0.0003519913816988339,0.00037533971427121046,0.0004974841357793636,-0.00023360835542469941,-0.00020179767108519754,0.0003731356444483948,0.0,0.0,0.0,0.0,0.0,0.0,0.0,-0.00017956687693010398,-0.00015826673884140885,-0.00011988076344815468,0.00017470343071090966,0.00016918760255464627,4.545066133276876e-05,-1.1393229167766528e-05,-0.0001958428341301193,-0.0003519913816988339,-0.00037533971427121046,-0.0004974841357793636,0.00023360835542469941,0.00020179767108519754,-0.0003731356444483948,0.06972616910934448,18.130334854125977,-0.9180634021759033,-18.297456741333008,-0.7015891671180725,-2.2753939628601074,0.23471395671367645,0
3,0.009466886520385742,-0.04592245817184448,-18.130334854125977,0.9696381092071533,18.321260452270508,0.6951804757118225,2.2753939628601074,-0.24844686686992645,0.0,0.0,0.0,0.0,0.0,0.0,0.0,-0.05318773035048557,0.5557859399476118,0.11839863746378651,0.6925148391529813,0.27392129881052757,0.09052957572015802,-0.22895726060327165,-0.6089072783746218,-0.057373700446726975,-0.6664868355968542,-2.5947329108924198,-0.055790928477259485,2.5079337552377763,0.8763237678127155,-0.6090851748156966,-0.05753196718556838,-0.666603097082616,-2.5945565370258534,-0.05562143941554,2.507976027223799,0.8763108487046415,0.00025027832687825617,0.00040304769384612033,-0.0004329658547473518,0.00017516468292284957,1.4526511318792954e-05,-8.679882758573615e-05,0.0008422702490780021,0.0,0.0,0.0,0.0,0.0,0.0,0.0,-0.00017789644107479852,-0.00015826673884140885,-0.00011626148576182604,0.00017637386656632614,0.00016948906171948552,4.2271986022690555e-05,-1.2919108073994323e-05,-0.00025027832687825617,-0.00040304769384612033,0.0004329658547473518,-0.00017516468292284957,-1.4526511318792954e-05,8.679882758573615e-05,-0.0008422702490780021,0.04592245817184448,18.130334854125977,-0.9696381092071533,-18.321260452270508,-0.6951804757118225,-2.2753939628601074,0.24844686686992645,0
4,0.014465093612670898,-0.04592245817184448,-18.130334854125977,0.9696381092071533,18.321260452270508,0.6951804757118225,2.2753939628601074,-0.24844686686992645,0.0,0.0,0.0,0.0,0.0,0.0,0.0,-0.05318773035048557,0.5557859399476118,0.11839863746378651,0.6925148391529813,0.27392129881052757,0.09052957572015802,-0.22895726060327165,-0.6089072783746218,-0.057373700446726975,-0.6664868355968542,-2.5947329108924198,-0.055790928477259485,2.5079337552377763,0.8763237678127155,-0.6090851748156966,-0.05753196718556838,-0.666603097082616,-2.5945565370258534,-0.05562143941554,2.507976027223799,0.8763108487046415,0.00025027832687825617,0.00040304769384612033,-0.0004329658547473518,0.00017516468292284957,1.4526511318792954e-05,-8.679882758573615e-05,0.0008422702490780021,0.0,0.0,0.0,0.0,0.0,0.0,0.0,-0.00017789644107479852,-0.00015826673884140885,-0.00011626148576182604,0.00017637386656632614,0.00016948906171948552,4.2271986022690555e-05,-1.2919108073994323e-05,-0.00025027832687825617,-0.00040304769384612033,0.0004329658547473518,-0.00017516468292284957,-1.4526511318792954e-05,8.679882758573615e-05,-0.0008422702490780021,0.04592245817184448,18.130334854125977,-0.9696381092071533,-18.321260452270508,-0.6951804757118225,-2.2753939628601074,0.24844686686992645,0
5,0.019469261169433594,-0.018151462078094482,-18.106531143188477,0.9934418201446533,18.321260452270508,0.6951804757118225,2.2625765800476074,-0.20724813640117645,0.0,0.0,0.0,0.0,0.0,0.0,0.0,-0.050766774000051224,0.5567743160655885,0.12193010997284724,0.6881097474933194,0.2738383205828127,0.09037504441908777,-0.2281006929289399,-0.6089092272164529,-0.05737537088258224,-0.6664885060327095,-2.5947329108924198,-0.055794131382630355,2.5079353772537045,0.8763191901759968,-0.6090851748156966,-0.05753196718556838,-0.666603097082616,-2.5945565370258534,-0.05562143941554,2.507976027223799,0.8763108487046415,-0.00040694309441270985,-0.00028560413001469775,-0.0007778415434423414,-0.00025746028210754673,0.00016280305833351946,0.0005043685892816667,-0.0012415319531292204,0.0,0.0,0.0,0.0,0.0,0.0,0.0,-0.00017594759924366432,-0.00015659630298614502,-0.00011459104990652058,0.00017637386656632614,0.00017269196709035484,4.0649970094452925e-05,-8.341471355310937e-06,0.00040694309441270985,0.00028560413001469775,0.0007778415434423414,0.00025746028210754673,-0.00016280305833351946,-0.0005043685892816667,0.0012415319531292204,0.018151462078094482,18.106531143188477,-0.9934418201446533,-18.321260452270508,-0.6951804757118225,-2.2625765800476074,0.20724813640117645,0
6,0.02446603775024414,-0.018151462078094482,-18.106531143188477,0.9934418201446533,18.321260452270508,0.6951804757118225,2.2625765800476074,-0.20724813640117645,0.0,0.0,0.0,0.0,0.0,0.0,0.0,-0.050766774000051224,0.5567743160655885,0.12193010997284724,0.6881097474933194,0.2738383205828127,0.09037504441908777,-0.2281006929289399,-0.6089092272164529,-0.05737537088258224,-0.6664885060327095,-2.5947329108924198,-0.055794131382630355,2.5079353772537045,0.8763191901759968,-0.6090851748156966,-0.05753196718556838,-0.666603097082616,-2.5945565370258534,-0.05562143941554,2.507976027223799,0.8763108487046415,-0.00040694309441270985,-0.00028560413001469775,-0.0007778415434423414,-0.00025746028210754673,0.00016280305833351946,0.0005043685892816667,-0.0012415319531292204,0.0,0.0,0.0,0.0,0.0,0.0,0.0,-0.00017594759924366432,-0.00015659630298614502,-0.00011459104990652058,0.00017637386656632614,0.00017269196709035484,4.0649970094452925e-05,-8.341471355310937e-06,0.00040694309441270985,0.00028560413001469775,0.0007778415434423414,0.00025746028210754673,-0.00016280305833351946,-0.0005043685892816667,0.0012415319531292204,0.018151462078094482,18.106531143188477,-0.9934418201446533,-18.321260452270508,-0.6951804757118225,-2.2625765800476074,0.20724813640117645,0
7,0.02946758270263672,-0.04592245817184448,-18.106531143188477,0.9418671131134033,18.345064163208008,0.7070823311805725,2.2753939628601074,-0.20724813640117645,0.0,0.0,0.0,0.0,0.0,0.0,0.0,-0.052793180771769095,0.5499071411881451,0.12174426476549328,0.6942437349124453,0.27440697803097946,0.09121954029572045,-0.22767525684419251,-0.6089072783746218,-0.05737537088258224,-0.666484886755023,-2.5947345813282747,-0.05579525810687329,2.507930421297089,0.8763191901759968,-0.6090851748156966,-0.05753196718556838,-0.666603097082616,-2.5945565370258534,-0.05562143941554,2.507976027223799,0.8763108487046415,6.0822025215591884e-05,-0.0005983982435382633,-8.100066319898816e-05,-0.0004830781768397132,-0.00024017464596300223,-4.7133053752880725e-05,-0.00115509006011362,0.0,0.0,0.0,0.0,0.0,0.0,0.0,-0.00017789644107479852,-0.00015659630298614502,-0.00011821032759296024,0.00017804430242129854,0.00017381869133328842,4.5605926709768596e-05,-8.341471355310937e-06,-6.0822025215591884e-05,0.0005983982435382633,8.100066319898816e-05,0.0004830781768397132,0.00024017464596300223,4.7133053752880725e-05,0.00115509006011362,0.04592245817184448,18.106531143188477,-0.9418671131134033,-18.345064163208008,-0.7070823311805725,-2.2753939628601074,0.20724813640117645,0
8,0.03449225425720215,-0.04592245817184448,-18.106531143188477,0.9418671131134033,18.345064163208008,0.7070823311805725,2.2753939628601074,-0.20724813640117645,0.0,0.0,0.0,0.0,0.0,0.0,0.0,-0.052793180771769095,0.5499071411881451,0.12174426476549328,0.6942437349124453,0.27440697803097946,0.09121954029572045,-0.22767525684419251,-0.6089072783746218,-0.05737537088258224,-0.666484886755023,-2.5947345813282747,-0.05579525810687329,2.507930421297089,0.8763191901759968,-0.6090851748156966,-0.05753196718556838,-0.666603097082616,-2.5945565370258534,-0.05562143941554,2.507976027223799,0.8763108487046415,6.0822025215591884e-05,-0.0005983982435382633,-8.100066319898816e-05,-0.0004830781768397132,-0.00024017464596300223,-4.7133053752880725e-05,-0.00115509006011362,0.0,0.0,0.0,0.0,0.0,0.0,0.0,-0.00017789644107479852,-0.00015659630298614502,-0.00011821032759296024,0.00017804430242129854,0.00017381869133328842,4.5605926709768596e-05,-8.341471355310937e-06,-6.0822025215591884e-05,0.0005983982435382633,8.100066319898816e-05,0.0004830781768397132,0.00024017464596300223,4.7133053752880725e-05,0.00115509006011362,0.04592245817184448,18.106531143188477,-0.9418671131134033,-18.345064163208008,-0.7070823311805725,-2.2753939628601074,0.20724813640117645,0
9,0.03948974609375,-0.04592245817184448,-18.078760147094727,0.8942596912384033,18.297456741333008,0.7070823311805725,2.2689852714538574,-0.19351522624492645,0.0,0.0,0.0,0.0,0.0,0.0,0.0,-0.055612443046686985,0.5577739322126326,0.11812282320230058,0.6890354272043793,0.27479895599038806,0.08987035502061601,-0.22787015136231947,-0.6089072783746218,-0.057377293448085925,-0.6664815458833125,-2.5947312404565643,-0.055792015010744225,2.5079311706617644,0.8763176642970906,-0.6090851748156966,-0.05753196718556838,-0.666603097082616,-2.5945565370258534,-0.05562143941554,2.507976027223799,0.8763108487046415,-0.0006480196762634573,-0.00015439482219360416,0.00011022980315481398,0.0003335056718380521,-0.00018237891143451802,3.0053008416488946e-05,-0.0017765857337463387,0.0,0.0,0.0,0.0,0.0,0.0,0.0,-0.00017789644107479852,-0.00015467373748245805,-0.00012155119930346014,0.00017470343071090966,0.00017057559520422538,4.485656203456756e-05,-6.815592449083141e-06,0.0006480196762634573,0.00015439482219360416,-0.00011022980315481398,-0.0003335056718380521,0.00018237891143451802,-3.0053008416488946e-05,0.0017765857337463387,0.04592245817184448,18.078760147094727,-0.8942596912384033,-18.297456741333008,-0.7070823311805725,-2.2689852714538574,0.19351522624492645,0
10,0.04447531700134277,-0.04592245817184448,-18.078760147094727,0.8942596912384033,18.297456741333008,0.7070823311805725,2.2689852714538574,-0.19351522624492645,0.0,0.0,0.0,0.0,0.0,0.0,0.0,-0.055612443046686985,0.5577739322126326,0.11812282320230058,0.6890354272043793,0.27479895599038806,0.08987035502061601,-0.22787015136231947,-0.6089072783746218,-0.057377293448085925,-0.6664815458833125,-2.5947312404565643,-0.055792015010744225,2.5079311706617644,0.8763176642970906,-0.6090851748156966,-0.05753196718556838,-0.666603097082616,-2.5945565370258534,-0.05562143941554,2.507976027223799,0.8763108487046415,-0.0006480196762634573,-0.00015439482219360416,0.00011022980315481398,0.0003335056718380521,-0.00018237891143451802,3.0053008416488946e-05,-0.0017765857337463387,0.0,0.0,0.0,0.0,0.0,0.0,0.0,-0.00017789644107479852,-0.00015467373748245805,-0.00012155119930346014,0.00017470343071090966,0.00017057559520422538,4.485656203456756e-05,-6.815592449083141e-06,0.0006480196762634573,0.00015439482219360416,-0.00011022980315481398,-0.0003335056718380521,0.00018237891143451802,-3.0053008416488946e-05,0.0017765857337463387,0.04592245817184448,18.078760147094727,-0.8942596912384033,-18.297456741333008,-0.7070823311805725,-2.2689852714538574,0.19351522624492645,0
11,0.0505979061126709,-0.09352988004684448,-18.078760147094727,0.9180634021759033,18.245882034301758,0.6896873116493225,2.2625765800476074,-0.22830526530742645,0.0,0.0,0.0,0.0,0.0,0.0,0.0,-0.05438975307404178,0.5584293845590659,0.11620698992164533,0.692475487485476,0.2751289241176781,0.09016428438069861,-0.22808347282244507,-0.6089039375029112,-0.05737731972426505,-0.6664832163191678,-2.594727621178878,-0.055788896015556616,2.5079333760194173,0.8763215298569863,-0.6090851748156966,-0.05753196718556838,-0.666603097082616,-2.5945565370258534,-0.05562143941554,2.507976027223799,0.8763108487046415,2.9288617681735395e-05,-0.0002870274404852207,-0.00030931031927123557,0.001735208691647066,0.0005175088091184912,0.00029919565128282995,6.584799839433194e-05,0.0,0.0,0.0,0.0,0.0,0.0,0.0,-0.00018123731278540944,-0.00015464746130333662,-0.00011988076344815468,0.00017108415302447,0.0001674566000166161,4.2651204381627394e-05,-1.0681152344815814e-05,-2.9288617681735395e-05,0.0002870274404852207,0.00030931031927123557,-0.001735208691647066,-0.0005175088091184912,-0.00029919565128282995,-6.584799839433194e-05,0.09352988004684448,18.078760147094727,-0.9180634021759033,-18.245882034301758,-0.6896873116493225,-2.2625765800476074,0.22830526530742645,0
12,0.05447220802307129,-0.09352988004684448,-18.078760147094727,0.9180634021759033,18.245882034301758,0.6896873116493225,2.2625765800476074,-0.22830526530742645,0.0,0.0,0.0,0.0,0.0,0.0,0.0,-0.05438975307404178,0.5584293845590659,0.11620698992164533,0.692475487485476,0.2751289241176781,0.09016428438069861,-0.22808347282244507,-0.6089039375029112,-0.05737731972426505,-0.6664832163191678,-2.594727621178878,-0.055788896015556616,2.5079333760194173,0.8763215298569863,-0.6090851748156966,-0.05753196718556838,-0.666603097082616,-2.5945565370258534,-0.05562143941554,2.507976027223799,0.8763108487046415,2.9288617681735395e-05,-0.0002870274404852207,-0.00030931031927123557,0.001735208691647066,0.0005175088091184912,0.00029919565128282995,6.584799839433194e-05,0.0,0.0,0.0,0.0,0.0,0.0,0.0,-0.00018123731278540944,-0.00015464746130333662,-0.00011988076344815468,0.00017108415302447,0.0001674566000166161,4.2651204381627394e-05,-1.0681152344815814e-05,-2.9288617681735395e-05,0.0002870274404852207,0.00030931031927123557,-0.001735208691647066,-0.0005175088091184912,-0.00029919565128282995,-6.584799839433194e-05,0.09352988004684448,18.078760147094727,-0.9180634021759033,-18.245882034301758,-0.6896873116493225,-2.2625765800476074,0.22830526530742645,0
13,0.05948591232299805,-0.06972616910934448,-18.154138565063477,0.8942596912384033,18.321260452270508,0.6951804757118225,2.2818026542663574,-0.22830526530742645,0.0,0.0,0.0,0.0,0.0,0.0,0.0,-0.09987625153147635,0.5497916203654615,0.07069101184035254,0.6942451438512066,0.2771421268219473,0.0893034141927608,-0.22856417300273366,-0.6089056079387665,-0.057372029037674396,-0.6664815458833125,-2.5947329017350533,-0.055793943019725865,2.5079308208518962,0.8763215298569863,-0.6090851748156966,-0.05753196718556838,-0.666603097082616,-2.5945565370258534,-0.05562143941554,2.507976027223799,0.8763108487046415,-0.00030657165802519683,0.00023881331821245556,0.0017549828804363453,-0.00042709051829347376,1.251321051179529e-05,-0.0004705996451536121,0.00048570858708054754,0.0,0.0,0.0,0.0,0.0,0.0,0.0,-0.00017956687693010398,-0.00015993814789398708,-0.00012155119930346014,0.00017636470919990543,0.00017250360418586547,4.5206371902750675e-05,-1.0681152344815814e-05,0.00030657165802519683,-0.00023881331821245556,-0.0017549828804363453,0.00042709051829347376,-1.251321051179529e-05,0.0004705996451536121,-0.00048570858708054754,0.06972616910934448,18.154138565063477,-0.8942596912384033,-18.321260452270508,-0.6951804757118225,-2.2818026542663574,0.22830526530742645,0
14,0.0644683837890625,-0.06972616910934448,-18.154138565063477,0.8942596912384033,18.321260452270508,0.6951804757118225,2.2818026542663574,-0.22830526530742645,0.0,0.0,0.0,0.0,0.0,0.0,0.0,-0.09987625153147635,0.5497916203654615,0.07069101184035254,0.6942451438512066,0.2771421268219473,0.0893034141927608,-0.22856417300273366,-0.6089056079387665,-0.057372029037674396,-0.6664815458833125,-2.5947329017350533,-0.055793943019725865,2.5079308208518962,0.8763215298569863,-0.6090851748156966,-0.05753196718556838,-0.666603097082616,-2.5945565370258534,-0.05562143941554,2.507976027223799,0.8763108487046415,-0.00030657165802519683,0.00023881331821245556,0.0017549828804363453,-0.00042709051829347376,1.251321051179529e-05,-0.0004705996451536121,0.00048570858708054754,0.0,0.0,0.0,0.0,0.0,0.0,0.0,-0.00017956687693010398,-0.00015993814789398708,-0.00012155119930346014,0.00017636470919990543,0.00017250360418586547,4.5206371902750675e-05,-1.0681152344815814e-05,0.00030657165802519683,-0.00023881331821245556,-0.0017549828804363453,0.00042709051829347376,-1.251321051179529e-05,0.0004705996451536121,-0.00048570858708054754,0.06972616910934448,18.154138565063477,-0.8942596912384033,-18.321260452270508,-0.6951804757118225,-2.2818026542663574,0.22830526530742645,0
15,0.06957173347473145,-0.04592245817184448,-18.130334854125977,0.9418671131134033,18.297456741333008,0.7015891671180725,2.2753939628601074,-0.19351522624492645,0.0,0.0,0.0,0.0,0.0,0.0,0.0,-0.06187174579962762,0.5558918914627208,0.1105635307033317,0.6918878196024437,0.27429034746097014,0.0889896323944101,-0.22814270662080005,-0.6089072783746218,-0.05737370044672148,-0.666484886755023,-2.594731240456513,-0.05579464163284942,2.5079314795218415,0.8763176642970906,-0.6090851748156966,-0.05753196718556838,-0.666603097082616,-2.5945565370258534,-0.05562143941554,2.507976027223799,0.8763108487046415,-0.00018052012671518315,-3.0940676788268594e-05,-0.00021402945604387862,0.0007410521745457651,-0.00018565652525884206,-2.6728913994824997e-05,-0.0009429637242051252,0.0,0.0,0.0,0.0,0.0,0.0,0.0,-0.00017789644107479852,-0.00015826673884690445,-0.00011821032759296024,0.0001747034306593953,0.00017320221730941776,4.454770195749802e-05,-6.815592449083141e-06,0.00018052012671518315,3.0940676788268594e-05,0.00021402945604387862,-0.0007410521745457651,0.00018565652525884206,2.6728913994824997e-05,0.0009429637242051252,0.04592245817184448,18.130334854125977,-0.9418671131134033,-18.297456741333008,-0.7015891671180725,-2.2753939628601074,0.19351522624492645,0
16,0.07446646690368652,-0.04592245817184448,-18.130334854125977,0.9418671131134033,18.297456741333008,0.7015891671180725,2.2753939628601074,-0.19351522624492645,0.0,0.0,0.0,0.0,0.0,0.0,0.0,-0.06187174579962762,0.5558918914627208,0.1105635307033317,0.6918878196024437,0.27429034746097014,0.0889896323944101,-0.22814270662080005,-0.6089072783746218,-0.05737370044672148,-0.666484886755023,-2.594731240456513,-0.05579464163284942,2.5079314795218415,0.8763176642970906,-0.6090851748156966,-0.05753196718556838,-0.666603097082616,-2.5945565370258534,-0.05562143941554,2.507976027223799,0.8763108487046415,-0.00018052012671518315,-3.0940676788268594e-05,-0.00021402945604387862,0.0007410521745457651,-0.00018565652525884206,-2.6728913994824997e-05,-0.0009429637242051252,0.0,0.0,0.0,0.0,0.0,0.0,0.0,-0.00017789644107479852,-0.00015826673884690445,-0.00011821032759296024,0.0001747034306593953,0.00017320221730941776,4.454770195749802e-05,-6.815592449083141e-06,0.00018052012671518315,3.0940676788268594e-05,0.00021402945604387862,-0.0007410521745457651,0.00018565652525884206,2.6728913994824997e-05,0.0009429637242051252,0.04592245817184448,18.130334854125977,-0.9418671131134033,-18.297456741333008,-0.7015891671180725,-2.2753939628601074,0.19351522624492645,0
17,0.0794670581817627,0.005652248859405518,-18.078760147094727,0.9180634021759033,18.269685745239258,0.7015891671180725,2.2818026542663574,-0.21457235515117645,0.0,0.0,0.0,0.0,0.0,0.0,0.0,-0.05237718289725498,0.5524232628764703,0.1235937883285563,0.6899745939126485,0.27317656146721664,0.08869866579482252,-0.2270311362022125,-0.6089108976523081,-0.05737731972441338,-0.6664832163191678,-2.594729209198434,-0.05579145585136989,2.5079339458207532,0.8763200039780801,-0.6090851748156966,-0.05753196718556838,-0.666603097082616,-2.5945565370258534,-0.05562143941554,2.507976027223799,0.8763108487046415,-0.0014426419029070906,-0.0013831559487168577,0.0010365906120308182,0.001238727666884609,-6.952564660976539e-05,-0.0003951957625336523,-0.0008864740154827013,0.0,0.0,0.0,0.0,0.0,0.0,0.0,-0.00017427716338846988,-0.00015464746115500388,-0.00011988076344815468,0.00017267217258076784,0.00017001643582988807,4.2081403045735044e-05,-9.155273438588019e-06,0.0014426419029070906,0.0013831559487168577,-0.0010365906120308182,-0.001238727666884609,6.952564660976539e-05,0.0003951957625336523,0.0008864740154827013,-0.005652248859405518,18.078760147094727,-0.9180634021759033,-18.269685745239258,-0.7015891671180725,-2.2818026542663574,0.21457235515117645,0
18,0.08446574211120605,0.005652248859405518,-18.078760147094727,0.9180634021759033,18.269685745239258,0.7015891671180725,2.2818026542663574,-0.21457235515117645,0.0,0.0,0.0,0.0,0.0,0.0,0.0,-0.05237718289725498,0.5524232628764703,0.1235937883285563,0.6899745939126485,0.27317656146721664,0.08869866579482252,-0.2270311362022125,-0.6089108976523081,-0.05737731972441338,-0.6664832163191678,-2.594729209198434,-0.05579145585136989,2.5079339458207532,0.8763200039780801,-0.6090851748156966,-0.05753196718556838,-0.666603097082616,-2.5945565370258534,-0.05562143941554,2.507976027223799,0.8763108487046415,-0.0014426419029070906,-0.0013831559487168577,0.0010365906120308182,0.001238727666884609,-6.952564660976539e-05,-0.0003951957625336523,-0.0008864740154827013,0.0,0.0,0.0,0.0,0.0,0.0,0.0,-0.00017427716338846988,-0.00015464746115500388,-0.00011988076344815468,0.00017267217258076784,0.00017001643582988807,4.2081403045735044e-05,-9.155273438588019e-06,0.0014426419029070906,0.0013831559487168577,-0.0010365906120308182,-0.001238727666884609,6.952564660976539e-05,0.0003951957625336523,0.0008864740154827013,-0.005652248859405518,18.078760147094727,-0.9180634021759033,-18.269685745239258,-0.7015891671180725,-2.2818026542663574,0.21457235515117645,0
19,0.08946490287780762,-0.06972616910934448,-18.106531143188477,0.9418671131134033,18.269685745239258,0.6951804757118225,2.2818026542663574,-0.26217979192733765,0.0,0.0,0.0,0.0,0.0,0.0,0.0,-0.05678215236391827,0.5560415980040965,0.11918998314622972,0.6869861807110734,0.2734281615063769,0.08808714379294645,-0.22654852301758518,-0.6089056079387665,-0.05737537088258224,-0.666484886755023,-2.594729291614268,-0.055790614069598905,2.5079328863620716,0.876325293531772,-0.6090851748156966,-0.05753196718556838,-0.666603097082616,-2.5945565370258534,-0.05562143941554,2.507976027223799,0.8763108487046415,0.000679562053899741,0.0006610604155356765,-0.0002889346650058024,0.0009066857614454518,9.431022404893885e-05,-0.0003426291938660181,0.0010247726265310475,0.0,0.0,0.0,0.0,0.0,0.0,0.0,-0.00017956687693010398,-0.00015659630298614502,-0.00011821032759296024,0.000172754588414481,0.00016917465405890536,4.314086172740872e-05,-1.4444827130533078e-05,-0.000679562053899741,-0.0006610604155356765,0.0002889346650058024,-0.0009066857614454518,-9.431022404893885e-05,0.0003426291938660181,-0.0010247726265310475,0.06972616910934448,18.106531143188477,-0.9418671131134033,-18.269685745239258,-0.6951804757118225,-2.2818026542663574,0.26217979192733765,0
20,0.09631490707397461,-0.06972616910934448,-18.106531143188477,0.9418671131134033,18.269685745239258,0.6951804757118225,2.2818026542663574,-0.26217979192733765,0.0,0.0,0.0,0.0,0.0,0.0,0.0,-0.05678215236391827,0.5560415980040965,0.11918998314622972,0.6869861807110734,0.2734281615063769,0.08808714379294645,-0.22654852301758518,-0.6089056079387665,-0.05737537088258224,-0.666484886755023,-2.594729291614268,-0.055790614069598905,2.5079328863620716,0.876325293531772,-0.6090851748156966,-0.05753196718556838,-0.666603097082616,-2.5945565370258534,-0.05562143941554,2.507976027223799,0.8763108487046415,0.000679562053899741,0.0006610604155356765,-0.0002889346650058024,0.0009066857614454518,9.431022404893885e-05,-0.0003426291938660181,0.0010247726265310475,0.0,0.0,0.0,0.0,0.0,0.0,0.0,-0.00017956687693010398,-0.00015659630298614502,-0.00011821032759296024,0.000172754588414481,0.00016917465405890536,4.314086172740872e-05,-1.4444827130533078e-05,-0.000679562053899741,-0.0006610604155356765,0.0002889346650058024,-0.0009066857614454518,-9.431022404893885e-05,0.0003426291938660181,-0.0010247726265310475,0.06972616910934448,18.106531143188477,-0.9418671131134033,-18.269685745239258,-0.6951804757118225,-2.2818026542663574,0.26217979192733765,0
21,0.09947967529296875,-0.09352988004684448,-18.106531143188477,0.9696381092071533,18.269685745239258,0.7070823311805725,2.2753939628601074,-0.26217979192733765,0.0,0.0,0.0,0.0,0.0,0.0,0.0,-0.054624989704242864,0.5500619345297455,0.11874811774293613,0.6942356530482224,0.2738236572690056,0.09008988847440284,-0.226479760713411,-0.6089039375029112,-0.05737537088258224,-0.6664868355968542,-2.5947292916147333,-0.055795139342729894,2.5079307783839306,0.8763252936932766,-0.6090851748156966,-0.05753196718556838,-0.666603097082616,-2.5945565370258534,-0.05562143941554,2.507976027223799,0.8763108487046415,0.000868004805657888,6.190079223583392e-05,-0.0008649484474135404,0.0011757036397361106,-0.00029254204472751837,5.914002143478708e-05,0.001944888038672942,0.0,0.0,0.0,0.0,0.0,0.0,0.0,-0.00018123731278540944,-0.00015659630298614502,-0.00011626148576182604,0.00017275458887988648,0.0001736999271898937,4.5248839868339275e-05,-1.444498863512056e-05,-0.000868004805657888,-6.190079223583392e-05,0.0008649484474135404,-0.0011757036397361106,0.00029254204472751837,-5.914002143478708e-05,-0.001944888038672942,0.09352988004684448,18.106531143188477,-0.9696381092071533,-18.269685745239258,-0.7070823311805725,-2.2753939628601074,0.26217979192733765,0
22,0.10448813438415527,-0.09352988004684448,-18.106531143188477,0.9696381092071533,18.269685745239258,0.7070823311805725,2.2753939628601074,-0.26217979192733765,0.0,0.0,0.0,0.0,0.0,0.0,0.0,-0.054624989704242864,0.5500619345297455,0.11874811774293613,0.6942356530482224,0.2738236572690056,0.09008988847440284,-0.226479760713411,-0.6089039375029112,-0.05737537088258224,-0.6664868355968542,-2.5947292916147333,-0.055795139342729894,2.5079307783839306,0.8763252936932766,-0.6090851748156966,-0.05753196718556838,-0.666603097082616,-2.5945565370258534,-0.05562143941554,2.507976027223799,0.8763108487046415,0.000868004805657888,6.190079223583392e-05,-0.0008649484474135404,0.0011757036397361106,-0.00029254204472751837,5.914002143478708e-05,0.001944888038672942,0.0,0.0,0.0,0.0,0.0,0.0,0.0,-0.00018123731278540944,-0.00015659630298614502,-0.00011626148576182604,0.00017275458887988648,0.0001736999271898937,4.5248839868339275e-05,-1.444498863512056e-05,-0.000868004805657888,-6.190079223583392e-05,0.0008649484474135404,-0.0011757036397361106,0.00029254204472751837,-5.914002143478708e-05,-0.001944888038672942,0.09352988004684448,18.106531143188477,-0.9696381092071533,-18.269685745239258,-0.7070823311805725,-2.2753939628601074,0.26217979192733765,0
23,0.10947561264038086,-0.09352988004684448,-18.106531143188477,0.9696381092071533,18.269685745239258,0.7070823311805725,2.2753939628601074,-0.26217979192733765,0.0,0.0,0.0,0.0,0.0,0.0,0.0,-0.054624989704242864,0.5500619345297455,0.11874811774293613,0.6942356530482224,0.2738236572690056,0.09008988847440284,-0.226479760713411,-0.6089039375029112,-0.05737537088258224,-0.6664868355968542,-2.5947292916147333,-0.055795139342729894,2.5079307783839306,0.8763252936932766,-0.6090851748156966,-0.05753196718556838,-0.666603097082616,-2.5945565370258534,-0.05562143941554,2.507976027223799,0.8763108487046415,0.000868004805657888,6.190079223583392e-05,-0.0008649484474135404,0.0011757036397361106,-0.00029254204472751837,5.914002143478708e-05,0.001944888038672942,0.0,0.0,0.0,0.0,0.0,0.0,0.0,-0.00018123731278540944,-0.00015659630298614502,-0.00011626148576182604,0.00017275458887988648,0.0001736999271898937,4.5248839868339275e-05,-1.444498863512056e-05,-0.000868004805657888,-6.190079223583392e-05,0.0008649484474135404,-0.0011757036397361106,0.00029254204472751837,-5.914002143478708e-05,-0.001944888038672942,0.09352988004684448,18.106531143188477,-0.9696381092071533,-18.269685745239258,-0.7070823311805725,-2.2753939628601074,0.26217979192733765,0
24,0.1144721508026123,-0.09352988004684448,-18.106531143188477,0.9696381092071533,18.269685745239258,0.7070823311805725,2.2753939628601074,-0.26217979192733765,0.0,0.0,0.0,0.0,0.0,0.0,0.0,-0.054624989704242864,0.5500619345297455,0.11874811774293613,0.6942356530482224,0.2738236572690056,0.09008988847440284,-0.226479760713411,-0.6089039375029112,-0.05737537088258224,-0.6664868355968542,-2.5947292916147333,-0.055795139342729894,2.5079307783839306,0.8763252936932766,-0.6090851748156966,-0.05753196718556838,-0.666603097082616,-2.5945565370258534,-0.05562143941554,2.507976027223799,0.8763108487046415,0.000868004805657888,6.190079223583392e-05,-0.0008649484474135404,0.0011757036397361106,-0.00029254204472751837,5.914002143478708e-05,0.001944888038672942,0.0,0.0,0.0,0.0,0.0,0.0,0.0,-0.00018123731278540944,-0.00015659630298614502,-0.00011626148576182604,0.00017275458887988648,0.0001736999271898937,4.5248839868339275e-05,-1.444498863512056e-05,-0.000868004805657888,-6.190079223583392e-05,0.0008649484474135404,-0.0011757036397361106,0.00029254204472751837,-5.914002143478708e-05,-0.001944888038672942,0.09352988004684448,18.106531143188477,-0.9696381092071533,-18.269685745239258,-0.7070823311805725,-2.2753939628601074,0.26217979192733765,0
25,0.11946988105773926,-0.06972616910934448,-18.106531143188477,0.9418671131134033,18.297456741333008,0.6951804757118225,2.2625765800476074,-0.24112264811992645,0.0,0.0,0.0,0.0,0.0,0.0,0.0,-0.055544858010766786,0.5611935319546978,0.11885784471291753,0.6904735873628244,0.2740438972660123,0.08995047093456976,-0.2262066495303226,-0.6089056079387665,-0.05737537088258224,-0.666484886755023,-2.5947312374041087,-0.05579108808900915,2.5079353820820676,0.8763229540106322,-0.6090851748156966,-0.05753196718556838,-0.666603097082616,-2.5945565370258534,-0.05562143941554,2.507976027223799,0.8763108487046415,0.0003208790247241541,0.0006336752300808647,-0.0006969439326965853,0.0005518970070036971,0.00010414416941951296,0.0002518204499849378,0.0006819840878248084,0.0,0.0,0.0,0.0,0.0,0.0,0.0,-0.00017956687693010398,-0.00015659630298614502,-0.00011821032759296024,0.00017470037825528806,0.0001696486734691499,4.0645141731410206e-05,-1.2105305990717241e-05,-0.0003208790247241541,-0.0006336752300808647,0.0006969439326965853,-0.0005518970070036971,-0.00010414416941951296,-0.0002518204499849378,-0.0006819840878248084,0.06972616910934448,18.106531143188477,-0.9418671131134033,-18.297456741333008,-0.6951804757118225,-2.2625765800476074,0.24112264811992645,0
26,0.1244659423828125,-0.06972616910934448,-18.106531143188477,0.9418671131134033,18.297456741333008,0.6951804757118225,2.2625765800476074,-0.24112264811992645,0.0,0.0,0.0,0.0,0.0,0.0,0.0,-0.055544858010766786,0.5611935319546978,0.11885784471291753,0.6904735873628244,0.2740438972660123,0.08995047093456976,-0.2262066495303226,-0.6089056079387665,-0.05737537088258224,-0.666484886755023,-2.5947312374041087,-0.05579108808900915,2.5079353820820676,0.8763229540106322,-0.6090851748156966,-0.05753196718556838,-0.666603097082616,-2.5945565370258534,-0.05562143941554,2.507976027223799,0.8763108487046415,0.0003208790247241541,0.0006336752300808647,-0.0006969439326965853,0.0005518970070036971,0.00010414416941951296,0.0002518204499849378,0.0006819840878248084,0.0,0.0,0.0,0.0,0.0,0.0,0.0,-0.00017956687693010398,-0.00015659630298614502,-0.00011821032759296024,0.00017470037825528806,0.0001696486734691499,4.0645141731410206e-05,-1.2105305990717241e-05,-0.0003208790247241541,-0.0006336752300808647,0.0006969439326965853,-0.0005518970070036971,-0.00010414416941951296,-0.0002518204499849378,-0.0006819840878248084,0.06972616910934448,18.106531143188477,-0.9418671131134033,-18.297456741333008,-0.6951804757118225,-2.2625765800476074,0.24112264811992645,0
27,0.13000082969665527,-0.06972616910934448,-18.054956436157227,0.9180634021759033,18.368867874145508,0.7070823311805725,2.2753939628601074,-0.20083944499492645,0.0,0.0,0.0,0.0,0.0,0.0,0.0,-0.047729348089744626,0.5613554246043488,0.12382122653542378,0.6933774856589039,0.27369038006268825,0.08930912397618943,-0.22736067756152673,-0.6089056079387665,-0.05737899016026864,-0.6664832163191678,-2.594736251764113,-0.055790834594105256,2.5079318341479557,0.8763184780991738,-0.6090851748156966,-0.05753196718556838,-0.666603097082616,-2.5945565370258534,-0.05562143941554,2.507976027223799,0.8763108487046415,0.0011642131435019743,-0.0010354545128568168,-8.524856750010494e-05,-0.0011784184795681051,-0.0002674092014323302,-0.0002459990932580217,-0.0010813735613980793,0.0,0.0,0.0,0.0,0.0,0.0,0.0,-0.00017956687693010398,-0.00015297702529974005,-0.00011988076344815468,0.00017971473825939555,0.0001693951785652556,4.419307584324628e-05,-7.629394532360223e-06,-0.0011642131435019743,0.0010354545128568168,8.524856750010494e-05,0.0011784184795681051,0.0002674092014323302,0.0002459990932580217,0.0010813735613980793,0.06972616910934448,18.054956436157227,-0.9180634021759033,-18.368867874145508,-0.7070823311805725,-2.2753939628601074,0.20083944499492645,0
28,0.13447141647338867,-0.06972616910934448,-18.054956436157227,0.9180634021759033,18.368867874145508,0.7070823311805725,2.2753939628601074,-0.20083944499492645,0.0,0.0,0.0,0.0,0.0,0.0,0.0,-0.047729348089744626,0.5613554246043488,0.12382122653542378,0.6933774856589039,0.27369038006268825,0.08930912397618943,-0.22736067756152673,-0.6089056079387665,-0.05737899016026864,-0.6664832163191678,-2.594736251764113,-0.055790834594105256,2.5079318341479557,0.8763184780991738,-0.6090851748156966,-0.05753196718556838,-0.666603097082616,-2.5945565370258534,-0.05562143941554,2.507976027223799,0.8763108487046415,0.0011642131435019743,-0.0010354545128568168,-8.524856750010494e-05,-0.0011784184795681051,-0.0002674092014323302,-0.0002459990932580217,-0.0010813735613980793,0.0,0.0,0.0,0.0,0.0,0.0,0.0,-0.00017956687693010398,-0.00015297702529974005,-0.00011988076344815468,0.00017971473825939555,0.0001693951785652556,4.419307584324628e-05,-7.629394532360223e-06,-0.0011642131435019743,0.0010354545128568168,8.524856750010494e-05,0.0011784184795681051,0.0002674092014323302,0.0002459990932580217,0.0010813735613980793,0.06972616910934448,18.054956436157227,-0.9180634021759033,-18.368867874145508,-0.7070823311805725,-2.2753939628601074,0.20083944499492645,0
29,0.1394665241241455,-0.06972616910934448,-18.130334854125977,0.8942596912384033,18.269685745239258,0.6951804757118225,2.2753939628601074,-0.18710653483867645,0.0,0.0,0.0,0.0,0.0,0.0,0.0,-0.05497977804362745,0.5600203663839376,0.11379474316638843,0.6951817578711137,0.27408177095125685,0.08911531531807743,-0.2279323212355578,-0.6089056079387665,-0.057373700446726975,-0.6664815458833125,-2.5947292916147333,-0.05579319214632028,2.5079339689705966,0.8763169522202676,-0.6090851748156966,-0.05753196718556838,-0.666603097082616,-2.5945565370258534,-0.05562143941554,2.507976027223799,0.8763108487046415,0.00043908130817331127,0.00038924851988071825,0.0006085476167497141,0.001287655118779191,-5.00489769649923e-06,5.8102607699086474e-05,-0.0016747066158405404,0.0,0.0,0.0,0.0,0.0,0.0,0.0,-0.00017956687693010398,-0.00015826673884140885,-0.00012155119930346014,0.00017275458887988648,0.00017175273078028075,4.205825320235945e-05,-6.1035156261324275e-06,-0.00043908130817331127,-0.00038924851988071825,-0.0006085476167497141,-0.001287655118779191,5.00489769649923e-06,-5.8102607699086474e-05,0.0016747066158405404,0.06972616910934448,18.130334854125977,-0.8942596912384033,-18.269685745239258,-0.6951804757118225,-2.2753939628601074,0.18710653483867645,0
30,0.14446663856506348,-0.06972616910934448,-18.130334854125977,0.8942596912384033,18.269685745239258,0.6951804757118225,2.2753939628601074,-0.18710653483867645,0.0,0.0,0.0,0.0,0.0,0.0,0.0,-0.05497977804362745,0.5600203663839376,0.11379474316638843,0.6951817578711137,0.27408177095125685,0.08911531531807743,-0.2279323212355578,-0.6089056079387665,-0.057373700446726975,-0.6664815458833125,-2.5947292916147333,-0.05579319214632028,2.5079339689705966,0.8763169522202676,-0.6090851748156966,-0.05753196718556838,-0.666603097082616,-2.5945565370258534,-0.05562143941554,2.507976027223799,0.8763108487046415,0.00043908130817331127,0.00038924851988071825,0.0006085476167497141,0.001287655118779191,-5.00489769649923e-06,5.8102607699086474e-05,-0.0016747066158405404,0.0,0.0,0.0,0.0,0.0,0.0,0.0,-0.00017956687693010398,-0.00015826673884140885,-0.00012155119930346014,0.00017275458887988648,0.00017175273078028075,4.205825320235945e-05,-6.1035156261324275e-06,-0.00043908130817331127,-0.00038924851988071825,-0.0006085476167497141,-0.001287655118779191,5.00489769649923e-06,-5.8102607699086474e-05,0.0016747066158405404,0.06972616910934448,18.130334854125977,-0.8942596912384033,-18.269685745239258,-0.6951804757118225,-2.2753939628601074,0.18710653483867645,0
31,0.14948701858520508,-0.04592245817184448,-18.130334854125977,0.9180634021759033,18.321260452270508,0.7015891671180725,2.2689852714538574,-0.24844686686992645,0.0,0.0,0.0,0.0,0.0,0.0,0.0,-0.05420151547564406,0.5585240260021836,0.1134996560883704,0.6942354405217172,0.27355910617637347,0.08926383688866552,-0.22836001710329415,-0.6089072783746218,-0.057373700446726975,-0.6664832163191678,-2.5947321416736293,-0.055793588314770826,2.5079313073693497,0.8763237678127155,-0.6090851748156966,-0.05753196718556838,-0.666603097082616,-2.5945565370258534,-0.05562143941554,2.507976027223799,0.8763108487046415,-0.00027980320922294113,0.00040320967907376464,-4.871271461132863e-05,5.619165744418007e-05,-4.575145191483587e-05,8.457595734518871e-05,0.001118342475993535,0.0,0.0,0.0,0.0,0.0,0.0,0.0,-0.00017789644107479852,-0.00015826673884140885,-0.00011988076344815468,0.00017560464777588436,0.00017214889923082566,4.471985444931548e-05,-1.2919108073994323e-05,0.00027980320922294113,-0.00040320967907376464,4.871271461132863e-05,-5.619165744418007e-05,4.575145191483587e-05,-8.457595734518871e-05,-0.001118342475993535,0.04592245817184448,18.130334854125977,-0.9180634021759033,-18.321260452270508,-0.7015891671180725,-2.2689852714538574,0.24844686686992645,0
32,0.1544637680053711,-0.04592245817184448,-18.130334854125977,0.9180634021759033,18.321260452270508,0.7015891671180725,2.2689852714538574,-0.24844686686992645,0.0,0.0,0.0,0.0,0.0,0.0,0.0,-0.05420151547564406,0.5585240260021836,0.1134996560883704,0.6942354405217172,0.27355910617637347,0.08926383688866552,-0.22836001710329415,-0.6089072783746218,-0.057373700446726975,-0.6664832163191678,-2.5947321416736293,-0.055793588314770826,2.5079313073693497,0.8763237678127155,-0.6090851748156966,-0.05753196718556838,-0.666603097082616,-2.5945565370258534,-0.05562143941554,2.507976027223799,0.8763108487046415,-0.00027980320922294113,0.00040320967907376464,-4.871271461132863e-05,5.619165744418007e-05,-4.575145191483587e-05,8.457595734518871e-05,0.001118342475993535,0.0,0.0,0.0,0.0,0.0,0.0,0.0,-0.00017789644107479852,-0.00015826673884140885,-0.00011988076344815468,0.00017560464777588436,0.00017214889923082566,4.471985444931548e-05,-1.2919108073994323e-05,0.00027980320922294113,-0.00040320967907376464,4.871271461132863e-05,-5.619165744418007e-05,4.575145191483587e-05,-8.457595734518871e-05,-0.001118342475993535,0.04592245817184448,18.130334854125977,-0.9180634021759033,-18.321260452270508,-0.7015891671180725,-2.2689852714538574,0.24844686686992645,0
33,0.15946722030639648,-0.06972616910934448,-18.177942276000977,0.9418671131134033,18.297456741333008,0.6951804757118225,2.2753939628601074,-0.24844686686992645,0.0,0.0,0.0,0.0,0.0,0.0,0.0,-0.057195225339947926,0.5547230997896184,0.11094500064692835,0.6904783161576065,0.2738636132300112,0.08794879615492843,-0.2275339664319098,-0.6089056079387665,-0.0573682311924926,-0.666484886755023,-2.594731240452222,-0.055792838261827946,2.507930896158383,0.8763237678127155,-0.6090851748156966,-0.05753196718556838,-0.666603097082616,-2.5945565370258534,-0.05562143941554,2.507976027223799,0.8763108487046415,-2.78556509033779e-05,0.0013731408204361848,-0.0006055418201017215,0.0004111321316754233,2.5084559953617127e-05,-0.00029024506304282114,0.000847611771480335,0.0,0.0,0.0,0.0,0.0,0.0,0.0,-0.00017956687693010398,-0.00016373599307578646,-0.00011821032759296024,0.00017470342636860536,0.00017139884628794566,4.5131065415926486e-05,-1.2919108073994323e-05,2.78556509033779e-05,-0.0013731408204361848,0.0006055418201017215,-0.0004111321316754233,-2.5084559953617127e-05,0.00029024506304282114,-0.000847611771480335,0.06972616910934448,18.177942276000977,-0.9418671131134033,-18.297456741333008,-0.6951804757118225,-2.2753939628601074,0.24844686686992645,0
34,0.16448235511779785,-0.06972616910934448,-18.177942276000977,0.9418671131134033,18.297456741333008,0.6951804757118225,2.2753939628601074,-0.24844686686992645,0.0,0.0,0.0,0.0,0.0,0.0,0.0,-0.057195225339947926,0.5547230997896184,0.11094500064692835,0.6904783161576065,0.2738636132300112,0.08794879615492843,-0.2275339664319098,-0.6089056079387665,-0.0573682311924926,-0.666484886755023,-2.594731240452222,-0.055792838261827946,2.507930896158383,0.8763237678127155,-0.6090851748156966,-0.05753196718556838,-0.666603097082616,-2.5945565370258534,-0.05562143941554,2.507976027223799,0.8763108487046415,-2.78556509033779e-05,0.0013731408204361848,-0.0006055418201017215,0.0004111321316754233,2.5084559953617127e-05,-0.00029024506304282114,0.000847611771480335,0.0,0.0,0.0,0.0,0.0,0.0,0.0,-0.00017956687693010398,-0.00016373599307578646,-0.00011821032759296024,0.00017470342636860536,0.00017139884628794566,4.5131065415926486e-05,-1.2919108073994323e-05,2.78556509033779e-05,-0.0013731408204361848,0.0006055418201017215,-0.0004111321316754233,-2.5084559953617127e-05,0.00029024506304282114,-0.000847611771480335,0.06972616910934448,18.177942276000977,-0.9418671131134033,-18.297456741333008,-0.6951804757118225,-2.2753939628601074,0.24844686686992645,0
35,0.1694796085357666,-0.04592245817184448,-18.078760147094727,0.9180634021759033,18.321260452270508,0.6896873116493225,2.2689852714538574,-0.25485557317733765,0.0,0.0,0.0,0.0,0.0,0.0,0.0,-0.05510091801299035,0.552377702692854,0.11420979281430453,0.6932510702606345,0.27376251139297636,0.08844832669922119,-0.22684069526148654,-0.6089072783746218,-0.057377319712398595,-0.6664832163191678,-2.5947329108924198,-0.05579262731773167,2.507931137394295,0.8763244798911941,-0.6090851748156966,-0.05753196718556838,-0.666603097082616,-2.5945565370258534,-0.05562143941554,2.507976027223799,0.8763108487046415,-0.00028989744704864567,-0.0006379870968153527,0.0003688938274472073,-9.089633072279224e-06,0.00027489715610266245,0.0002166383317374528,-0.00043699027985880676,0.0,0.0,0.0,0.0,0.0,0.0,0.0,-0.00017789644107479852,-0.00015464747316978888,-0.00011988076344815468,0.00017637386656632614,0.0001711879021916718,4.488982950379139e-05,-1.3631186552620633e-05,0.00028989744704864567,0.0006379870968153527,-0.0003688938274472073,9.089633072279224e-06,-0.00027489715610266245,-0.0002166383317374528,0.00043699027985880676,0.04592245817184448,18.078760147094727,-0.9180634021759033,-18.321260452270508,-0.6896873116493225,-2.2689852714538574,0.25485557317733765,0
36,0.17447328567504883,-0.04592245817184448,-18.078760147094727,0.9180634021759033,18.321260452270508,0.6896873116493225,2.2689852714538574,-0.25485557317733765,0.0,0.0,0.0,0.0,0.0,0.0,0.0,-0.05510091801299035,0.552377702692854,0.11420979281430453,0.6932510702606345,0.27376251139297636,0.08844832669922119,-0.22684069526148654,-0.6089072783746218,-0.057377319712398595,-0.6664832163191678,-2.5947329108924198,-0.05579262731773167,2.507931137394295,0.8763244798911941,-0.6090851748156966,-0.05753196718556838,-0.666603097082616,-2.5945565370258534,-0.05562143941554,2.507976027223799,0.8763108487046415,-0.00028989744704864567,-0.0006379870968153527,0.0003688938274472073,-9.089633072279224e-06,0.00027489715610266245,0.0002166383317374528,-0.00043699027985880676,0.0,0.0,0.0,0.0,0.0,0.0,0.0,-0.00017789644107479852,-0.00015464747316978888,-0.00011988076344815468,0.00017637386656632614,0.0001711879021916718,4.488982950379139e-05,-1.3631186552620633e-05,0.00028989744704864567,0.0006379870968153527,-0.0003688938274472073,9.089633072279224e-06,-0.00027489715610266245,-0.0002166383317374528,0.00043699027985880676,0.04592245817184448,18.078760147094727,-0.9180634021759033,-18.321260452270508,-0.6896873116493225,-2.2689852714538574,0.25485557317733765,0
37,0.17957162857055664,-0.06972616910934448,-18.130334854125977,0.9418671131134033,18.345064163208008,0.7015891671180725,2.2689852714538574,-0.20724813640117645,0.0,0.0,0.0,0.0,0.0,0.0,0.0,-0.057631305914582764,0.5565697293857813,0.11180111076247976,0.6908390039277521,0.2730725866856741,0.08785860086541267,-0.2281505381649217,-0.6089056079387665,-0.057373700446726905,-0.666484886755023,-2.5947345813282747,-0.055791640085294324,2.5079357411082777,0.8763191901759968,-0.6090851748156966,-0.05753196718556838,-0.666603097082616,-2.5945565370258534,-0.05562143941554,2.507976027223799,0.8763108487046415,0.00019221962362671826,0.0010327643586766958,-0.0004349781707587547,-0.0008328571571549731,-7.51054590289637e-05,3.545660951264875e-06,-0.0008182902375295495,0.0,0.0,0.0,0.0,0.0,0.0,0.0,-0.00017956687693010398,-0.00015826673884147824,-0.00011821032759296024,0.00017804430242129854,0.00017020066975432374,4.0286115521315224e-05,-8.341471355310937e-06,-0.00019221962362671826,-0.0010327643586766958,0.0004349781707587547,0.0008328571571549731,7.51054590289637e-05,-3.545660951264875e-06,0.0008182902375295495,0.06972616910934448,18.130334854125977,-0.9418671131134033,-18.345064163208008,-0.7015891671180725,-2.2689852714538574,0.20724813640117645,0
38,0.18446779251098633,-0.06972616910934448,-18.130334854125977,0.9418671131134033,18.345064163208008,0.7015891671180725,2.2689852714538574,-0.20724813640117645,0.0,0.0,0.0,0.0,0.0,0.0,0.0,-0.057631305914582764,0.5565697293857813,0.11180111076247976,0.6908390039277521,0.2730725866856741,0.08785860086541267,-0.2281505381649217,-0.6089056079387665,-0.057373700446726905,-0.666484886755023,-2.5947345813282747,-0.055791640085294324,2.5079357411082777,0.8763191901759968,-0.6090851748156966,-0.05753196718556838,-0.666603097082616,-2.5945565370258534,-0.05562143941554,2.507976027223799,0.8763108487046415,0.00019221962362671826,0.0010327643586766958,-0.0004349781707587547,-0.0008328571571549731,-7.51054590289637e-05,3.545660951264875e-06,-0.0008182902375295495,0.0,0.0,0.0,0.0,0.0,0.0,0.0,-0.00017956687693010398,-0.00015826673884147824,-0.00011821032759296024,0.00017804430242129854,0.00017020066975432374,4.0286115521315224e-05,-8.341471355310937e-06,-0.00019221962362671826,-0.0010327643586766958,0.0004349781707587547,0.0008328571571549731,7.51054590289637e-05,-3.545660951264875e-06,0.0008182902375295495,0.06972616910934448,18.130334854125977,-0.9418671131134033,-18.345064163208008,-0.7015891671180725,-2.2689852714538574,0.20724813640117645,0
39,0.1894698143005371,-0.04592245817184448,-18.130334854125977,0.9696381092071533,18.321260452270508,0.7070823311805725,2.2689852714538574,-0.20724813640117645,0.0,0.0,0.0,0.0,0.0,0.0,0.0,-0.05642996427864764,0.5561364330264271,0.11376003796923374,0.6926951869054873,0.27319183298710864,0.087590822534719,-0.2274636175858854,-0.6089072783746218,-0.057373700446726975,-0.6664868355968542,-2.5947329108924198,-0.05579242371897269,2.50793164169189,0.8763191901759968,-0.6090851748156966,-0.05753196718556838,-0.666603097082616,-2.5945565370258534,-0.05562143941554,2.507976027223799,0.8763108487046415,-0.00020426842435584635,0.0006913844802435347,-0.0010251151894319374,-0.00018432254631723172,-0.0002794503523403096,-0.0001228135060172304,-0.000739894072808237,0.0,0.0,0.0,0.0,0.0,0.0,0.0,-0.00017789644107479852,-0.00015826673884140885,-0.00011626148576182604,0.00017637386656632614,0.00017098430343268772,4.438553190899697e-05,-8.341471355310937e-06,0.00020426842435584635,-0.0006913844802435347,0.0010251151894319374,0.00018432254631723172,0.0002794503523403096,0.0001228135060172304,0.000739894072808237,0.04592245817184448,18.130334854125977,-0.9696381092071533,-18.321260452270508,-0.7070823311805725,-2.2689852714538574,0.20724813640117645,0
40,0.19446730613708496,-0.04592245817184448,-18.130334854125977,0.9696381092071533,18.321260452270508,0.7070823311805725,2.2689852714538574,-0.20724813640117645,0.0,0.0,0.0,0.0,0.0,0.0,0.0,-0.05642996427864764,0.5561364330264271,0.11376003796923374,0.6926951869054873,0.27319183298710864,0.087590822534719,-0.2274636175858854,-0.6089072783746218,-0.057373700446726975,-0.6664868355968542,-2.5947329108924198,-0.05579242371897269,2.50793164169189,0.8763191901759968,-0.6090851748156966,-0.05753196718556838,-0.666603097082616,-2.5945565370258534,-0.05562143941554,2.507976027223799,0.8763108487046415,-0.00020426842435584635,0.0006913844802435347,-0.0010251151894319374,-0.00018432254631723172,-0.0002794503523403096,-0.0001228135060172304,-0.000739894072808237,0.0,0.0,0.0,0.0,0.0,0.0,0.0,-0.00017789644107479852,-0.00015826673884140885,-0.00011626148576182604,0.00017637386656632614,0.00017098430343268772,4.438553190899697e-05,-8.341471355310937e-06,0.00020426842435584635,-0.0006913844802435347,0.0010251151894319374,0.00018432254631723172,0.0002794503523403096,0.0001228135060172304,0.000739894072808237,0.04592245817184448,18.130334854125977,-0.9696381092071533,-18.321260452270508,-0.7070823311805725,-2.2689852714538574,0.20724813640117645,0
41,0.19946742057800293,-0.06972616910934448,-18.130334854125977,0.9418671131134033,18.321260452270508,0.7015891671180725,2.2689852714538574,-0.23471395671367645,0.0,0.0,0.0,0.0,0.0,0.0,0.0,-0.059330667206466646,0.5565338356988283,0.11221764611865874,0.6944685051481769,0.2740690898771946,0.08769203772784506,-0.22762460170863447,-0.6089056079387665,-0.057373700446726975,-0.666484886755023,-2.5947329108924198,-0.05579461509069975,2.507931137400245,0.8763222419338093,-0.6090851748156966,-0.05753196718556838,-0.666603097082616,-2.5945565370258534,-0.05562143941554,2.507976027223799,0.8763108487046415,0.0002680601497034868,0.0006746023937001188,-0.0003559057887514959,0.0002134971356650738,1.1392320680977204e-05,0.00017358313191683354,0.00044713715388919534,0.0,0.0,0.0,0.0,0.0,0.0,0.0,-0.00017956687693010398,-0.00015826673884140885,-0.00011821032759296024,0.00017637386656632614,0.00017317567515975213,4.4889823553884156e-05,-1.1393229167766528e-05,-0.0002680601497034868,-0.0006746023937001188,0.0003559057887514959,-0.0002134971356650738,-1.1392320680977204e-05,-0.00017358313191683354,-0.00044713715388919534,0.06972616910934448,18.130334854125977,-0.9418671131134033,-18.321260452270508,-0.7015891671180725,-2.2689852714538574,0.23471395671367645,0
42,0.20446562767028809,-0.06972616910934448,-18.130334854125977,0.9418671131134033,18.321260452270508,0.7015891671180725,2.2689852714538574,-0.23471395671367645,0.0,0.0,0.0,0.0,0.0,0.0,0.0,-0.059330667206466646,0.5565338356988283,0.11221764611865874,0.6944685051481769,0.2740690898771946,0.08769203772784506,-0.22762460170863447,-0.6089056079387665,-0.057373700446726975,-0.666484886755023,-2.5947329108924198,-0.05579461509069975,2.507931137400245,0.8763222419338093,-0.6090851748156966,-0.05753196718556838,-0.666603097082616,-2.5945565370258534,-0.05562143941554,2.507976027223799,0.8763108487046415,0.0002680601497034868,0.0006746023937001188,-0.0003559057887514959,0.0002134971356650738,1.1392320680977204e-05,0.00017358313191683354,0.00044713715388919534,0.0,0.0,0.0,0.0,0.0,0.0,0.0,-0.00017956687693010398,-0.00015826673884140885,-0.00011821032759296024,0.00017637386656632614,0.00017317567515975213,4.4889823553884156e-05,-1.1393229167766528e-05,-0.0002680601497034868,-0.0006746023937001188,0.0003559057887514959,-0.0002134971356650738,-1.1392320680977204e-05,-0.00017358313191683354,-0.00044713715388919534,0.06972616910934448,18.130334854125977,-0.9418671131134033,-18.321260452270508,-0.7015891671180725,-2.2689852714538574,0.23471395671367645,0
43,0.20946764945983887,-0.06972616910934448,-18.106531143188477,0.9696381092071533,18.297456741333008,0.7015891671180725,2.2689852714538574,-0.22830526530742645,0.0,0.0,0.0,0.0,0.0,0.0,0.0,-0.06176850642951213,0.5583272143271519,0.10998463142989329,0.6884417153433912,0.274631290208156,0.08744685215899238,-0.22769645884336967,-0.6089056079387665,-0.05737537088258224,-0.6664868355968542,-2.5947312404565643,-0.05579353564737967,2.5079315240898152,0.8763215298569863,-0.6090851748156966,-0.05753196718556838,-0.666603097082616,-2.5945565370258534,-0.05562143941554,2.507976027223799,0.8763108487046415,2.4391274743890525e-05,4.85292028190791e-05,-0.0011946169249759271,-3.9709846022443144e-05,-0.00011402213462981446,0.00015480310217143913,-0.00034716212251667555,0.0,0.0,0.0,0.0,0.0,0.0,0.0,-0.00017956687693010398,-0.00015659630298614502,-0.00011626148576182604,0.00017470343071090966,0.00017209623183966904,4.450313398374206e-05,-1.0681152344815814e-05,-2.4391274743890525e-05,-4.85292028190791e-05,0.0011946169249759271,3.9709846022443144e-05,0.00011402213462981446,-0.00015480310217143913,0.00034716212251667555,0.06972616910934448,18.106531143188477,-0.9696381092071533,-18.297456741333008,-0.7015891671180725,-2.2689852714538574,0.22830526530742645,0
44,0.21446776390075684,-0.06972616910934448,-18.106531143188477,0.9696381092071533,18.297456741333008,0.7015891671180725,2.2689852714538574,-0.22830526530742645,0.0,0.0,0.0,0.0,0.0,0.0,0.0,-0.06176850642951213,0.5583272143271519,0.10998463142989329,0.6884417153433912,0.274631290208156,0.08744685215899238,-0.22769645884336967,-0.6089056079387665,-0.05737537088258224,-0.6664868355968542,-2.5947312404565643,-0.05579353564737967,2.5079315240898152,0.8763215298569863,-0.6090851748156966,-0.05753196718556838,-0.666603097082616,-2.5945565370258534,-0.05562143941554,2.507976027223799,0.8763108487046415,2.4391274743890525e-05,4.85292028190791e-05,-0.0011946169249759271,-3.9709846022443144e-05,-0.00011402213462981446,0.00015480310217143913,-0.00034716212251667555,0.0,0.0,0.0,0.0,0.0,0.0,0.0,-0.00017956687693010398,-0.00015659630298614502,-0.00011626148576182604,0.00017470343071090966,0.00017209623183966904,4.450313398374206e-05,-1.0681152344815814e-05,-2.4391274743890525e-05,-4.85292028190791e-05,0.0011946169249759271,3.9709846022443144e-05,0.00011402213462981446,-0.00015480310217143913,0.00034716212251667555,0.06972616910934448,18.106531143188477,-0.9696381092071533,-18.297456741333008,-0.7015891671180725,-2.2689852714538574,0.22830526530742645,0
45,0.2194681167602539,-0.04592245817184448,-18.078760147094727,0.9696381092071533,18.345064163208008,0.7015891671180725,2.2689852714538574,-0.25485557317733765,0.0,0.0,0.0,0.0,0.0,0.0,0.0,-0.05467481094616147,0.5564221583908958,0.11925078825016411,0.6877102600773176,0.27426899522784703,0.08814925629424265,-0.2293725196585074,-0.6089072783746218,-0.05737731972441338,-0.6664868355968542,-2.5947345813282747,-0.05579132567061735,2.507931131579619,0.8763244798911941,-0.6090851748156966,-0.05753196718556838,-0.666603097082616,-2.5945565370258534,-0.05562143941554,2.507976027223799,0.8763108487046415,-6.0331861939271316e-05,-0.0010697445732323542,-0.0008591029370741519,-0.0011582137953346876,-6.43676947644058e-05,-4.893484323831797e-05,0.000937929256138404,0.0,0.0,0.0,0.0,0.0,0.0,0.0,-0.00017789644107479852,-0.00015464746115500388,-0.00011626148576182604,0.00017804430242129854,0.00016988625507734917,4.48956441800874e-05,-1.3631186552620633e-05,6.0331861939271316e-05,0.0010697445732323542,0.0008591029370741519,0.0011582137953346876,6.43676947644058e-05,4.893484323831797e-05,-0.000937929256138404,0.04592245817184448,18.078760147094727,-0.9696381092071533,-18.345064163208008,-0.7015891671180725,-2.2689852714538574,0.25485557317733765,0
46,0.22446775436401367,-0.04592245817184448,-18.078760147094727,0.9696381092071533,18.345064163208008,0.7015891671180725,2.2689852714538574,-0.25485557317733765,0.0,0.0,0.0,0.0,0.0,0.0,0.0,-0.05467481094616147,0.5564221583908958,0.11925078825016411,0.6877102600773176,0.27426899522784703,0.08814925629424265,-0.2293725196585074,-0.6089072783746218,-0.05737731972441338,-0.6664868355968542,-2.5947345813282747,-0.05579132567061735,2.507931131579619,0.8763244798911941,-0.6090851748156966,-0.05753196718556838,-0.666603097082616,-2.5945565370258534,-0.05562143941554,2.507976027223799,0.8763108487046415,-6.0331861939271316e-05,-0.0010697445732323542,-0.0008591029370741519,-0.0011582137953346876,-6.43676947644058e-05,-4.893484323831797e-05,0.000937929256138404,0.0,0.0,0.0,0.0,0.0,0.0,0.0,-0.00017789644107479852,-0.00015464746115500388,-0.00011626148576182604,0.00017804430242129854,0.00016988625507734917,4.48956441800874e-05,-1.3631186552620633e-05,6.0331861939271316e-05,0.0010697445732323542,0.0008591029370741519,0.0011582137953346876,6.43676947644058e-05,4.893484323831797e-05,-0.000937929256138404,0.04592245817184448,18.078760147094727,-0.9696381092071533,-18.345064163208008,-0.7015891671180725,-2.2689852714538574,0.25485557317733765,0
47,0.22947144508361816,-0.04592245817184448,-18.078760147094727,0.9696381092071533,18.345064163208008,0.7015891671180725,2.2689852714538574,-0.25485557317733765,0.0,0.0,0.0,0.0,0.0,0.0,0.0,-0.05467481094616147,0.5564221583908958,0.11925078825016411,0.6877102600773176,0.27426899522784703,0.08814925629424265,-0.2293725196585074,-0.6089072783746218,-0.05737731972441338,-0.6664868355968542,-2.5947345813282747,-0.05579132567061735,2.507931131579619,0.8763244798911941,-0.6090851748156966,-0.05753196718556838,-0.666603097082616,-2.5945565370258534,-0.05562143941554,2.507976027223799,0.8763108487046415,-6.0331861939271316e-05,-0.0010697445732323542,-0.0008591029370741519,-0.0011582137953346876,-6.43676947644058e-05,-4.893484323831797e-05,0.000937929256138404,0.0,0.0,0.0,0.0,0.0,0.0,0.0,-0.00017789644107479852,-0.00015464746115500388,-0.00011626148576182604,0.00017804430242129854,0.00016988625507734917,4.48956441800874e-05,-1.3631186552620633e-05,6.0331861939271316e-05,0.0010697445732323542,0.0008591029370741519,0.0011582137953346876,6.43676947644058e-05,4.893484323831797e-05,-0.000937929256138404,0.04592245817184448,18.078760147094727,-0.9696381092071533,-18.345064163208008,-0.7015891671180725,-2.2689852714538574,0.25485557317733765,0
48,0.2344648838043213,-0.04592245817184448,-18.078760147094727,0.9696381092071533,18.345064163208008,0.7015891671180725,2.2689852714538574,-0.25485557317733765,0.0,0.0,0.0,0.0,0.0,0.0,0.0,-0.05467481094616147,0.5564221583908958,0.11925078825016411,0.6877102600773176,0.27426899522784703,0.08814925629424265,-0.2293725196585074,-0.6089072783746218,-0.05737731972441338,-0.6664868355968542,-2.5947345813282747,-0.05579132567061735,2.507931131579619,0.8763244798911941,-0.6090851748156966,-0.05753196718556838,-0.666603097082616,-2.5945565370258534,-0.05562143941554,2.507976027223799,0.8763108487046415,-6.0331861939271316e-05,-0.0010697445732323542,-0.0008591029370741519,-0.0011582137953346876,-6.43676947644058e-05,-4.893484323831797e-05,0.000937929256138404,0.0,0.0,0.0,0.0,0.0,0.0,0.0,-0.00017789644107479852,-0.00015464746115500388,-0.00011626148576182604,0.00017804430242129854,0.00016988625507734917,4.48956441800874e-05,-1.3631186552620633e-05,6.0331861939271316e-05,0.0010697445732323542,0.0008591029370741519,0.0011582137953346876,6.43676947644058e-05,4.893484323831797e-05,-0.000937929256138404,0.04592245817184448,18.078760147094727,-0.9696381092071533,-18.345064163208008,-0.7015891671180725,-2.2689852714538574,0.25485557317733765,0
49,0.2394721508026123,-0.018151462078094482,-18.106531143188477,0.9418671131134033,18.321260452270508,0.7134910225868225,2.2689852714538574,-0.25485557317733765,0.0,0.0,0.0,0.0,0.0,0.0,0.0,-0.060796195666008725,0.5516623747512716,0.11314659585604181,0.6897929501864531,0.27495898713795447,0.08812233787771621,-0.229696399399744,-0.6089092272164529,-0.05737537088258224,-0.666484886755023,-2.59473288342032,-0.055792766993330446,2.507934314852442,0.8763244798911941,-0.6090851748156966,-0.05753196718556838,-0.666603097082616,-2.5945565370258534,-0.05562143941554,2.507976027223799,0.8763108487046415,-0.0008215729137018841,-0.0006285798572240481,-0.0009240464215385536,-4.1603673400016977e-05,-0.0005044865294596578,6.911164789403955e-05,0.0007455463727796315,0.0,0.0,0.0,0.0,0.0,0.0,0.0,-0.00017594759924366432,-0.00015659630298614502,-0.00011821032759296024,0.00017634639446661993,0.00017132757779044633,4.1712371356972255e-05,-1.3631186552620633e-05,0.0008215729137018841,0.0006285798572240481,0.0009240464215385536,4.1603673400016977e-05,0.0005044865294596578,-6.911164789403955e-05,-0.0007455463727796315,0.018151462078094482,18.106531143188477,-0.9418671131134033,-18.321260452270508,-0.7134910225868225,-2.2689852714538574,0.25485557317733765,0
50,0.24447250366210938,-0.018151462078094482,-18.106531143188477,0.9418671131134033,18.321260452270508,0.7134910225868225,2.2689852714538574,-0.25485557317733765,0.0,0.0,0.0,0.0,0.0,0.0,0.0,-0.060796195666008725,0.5516623747512716,0.11314659585604181,0.6897929501864531,0.27495898713795447,0.08812233787771621,-0.229696399399744,-0.6089092272164529,-0.05737537088258224,-0.666484886755023,-2.59473288342032,-0.055792766993330446,2.507934314852442,0.8763244798911941,-0.6090851748156966,-0.05753196718556838,-0.666603097082616,-2.5945565370258534,-0.05562143941554,2.507976027223799,0.8763108487046415,-0.0008215729137018841,-0.0006285798572240481,-0.0009240464215385536,-4.1603673400016977e-05,-0.0005044865294596578,6.911164789403955e-05,0.0007455463727796315,0.0,0.0,0.0,0.0,0.0,0.0,0.0,-0.00017594759924366432,-0.00015659630298614502,-0.00011821032759296024,0.00017634639446661993,0.00017132757779044633,4.1712371356972255e-05,-1.3631186552620633e-05,0.0008215729137018841,0.0006285798572240481,0.0009240464215385536,4.1603673400016977e-05,0.0005044865294596578,-6.911164789403955e-05,-0.0007455463727796315,0.018151462078094482,18.106531143188477,-0.9418671131134033,-18.321260452270508,-0.7134910225868225,-2.2689852714538574,0.25485557317733765,0
51,0.25131893157958984,-0.018151462078094482,-18.078760147094727,0.9180634021759033,18.321260452270508,0.6951804757118225,2.2753939628601074,-0.21457235515117645,0.0,0.0,0.0,0.0,0.0,0.0,0.0,-0.05219328626578661,0.5527730641026407,0.11829152730398067,0.6858262860337151,0.2752778146368455,0.08693529776427926,-0.23038580088623592,-0.6089092272164529,-0.05737731972441338,-0.6664832163191678,-2.5947329108922648,-0.05579109186361397,2.5079304237715303,0.8763200039780801,-0.6090851748156966,-0.05753196718556838,-0.666603097082616,-2.5945565370258534,-0.05562143941554,2.507976027223799,0.8763108487046415,-0.0007941574585482308,-0.0010119453591010876,0.0006151494238610979,-0.00030425745511030876,0.0001400004151766727,-0.00028982089205668225,-0.0006081903811304467,0.0,0.0,0.0,0.0,0.0,0.0,0.0,-0.00017594759924366432,-0.00015464746115500388,-0.00011988076344815468,0.000176373866411339,0.00016965244807397306,4.560345226867213e-05,-9.155273438588019e-06,0.0007941574585482308,0.0010119453591010876,-0.0006151494238610979,0.00030425745511030876,-0.0001400004151766727,0.00028982089205668225,0.0006081903811304467,0.018151462078094482,18.078760147094727,-0.9180634021759033,-18.321260452270508,-0.6951804757118225,-2.2753939628601074,0.21457235515117645,0
52,0.25446510314941406,-0.018151462078094482,-18.078760147094727,0.9180634021759033,18.321260452270508,0.6951804757118225,2.2753939628601074,-0.21457235515117645,0.0,0.0,0.0,0.0,0.0,0.0,0.0,-0.05219328626578661,0.5527730641026407,0.11829152730398067,0.6858262860337151,0.2752778146368455,0.08693529776427926,-0.23038580088623592,-0.6089092272164529,-0.05737731972441338,-0.6664832163191678,-2.5947329108922648,-0.05579109186361397,2.5079304237715303,0.8763200039780801,-0.6090851748156966,-0.05753196718556838,-0.666603097082616,-2.5945565370258534,-0.05562143941554,2.507976027223799,0.8763108487046415,-0.0007941574585482308,-0.0010119453591010876,0.0006151494238610979,-0.00030425745511030876,0.0001400004151766727,-0.00028982089205668225,-0.0006081903811304467,0.0,0.0,0.0,0.0,0.0,0.0,0.0,-0.00017594759924366432,-0.00015464746115500388,-0.00011988076344815468,0.000176373866411339,0.00016965244807397306,4.560345226867213e-05,-9.155273438588019e-06,0.0007941574585482308,0.0010119453591010876,-0.0006151494238610979,0.00030425745511030876,-0.0001400004151766727,0.00028982089205668225,0.0006081903811304467,0.018151462078094482,18.078760147094727,-0.9180634021759033,-18.321260452270508,-0.6951804757118225,-2.2753939628601074,0.21457235515117645,0
53,0.25946831703186035,-0.06972616910934448,-18.078760147094727,0.9180634021759033,18.269685745239258,0.7070823311805725,2.2818026542663574,-0.21457235515117645,0.0,0.0,0.0,0.0,0.0,0.0,0.0,-0.054110045128878556,0.5515809189495899,0.11966216673700066,0.6857472678886845,0.27530086231114365,0.08681878627522652,-0.23128233797113024,-0.6089056079387665,-0.057377293448085925,-0.6664832163191678,-2.5947292916147333,-0.05579095160492137,2.507930806146262,0.8763200039780801,-0.6090851748156966,-0.05753196718556838,-0.666603097082616,-2.5945565370258534,-0.05562143941554,2.507976027223799,0.8763108487046415,0.0002578886835769623,-0.0009171145751275552,0.0006378710947093398,0.0008776699901917235,-0.00022317540259190018,-0.0003596241887002438,-0.0007923849961504582,0.0,0.0,0.0,0.0,0.0,0.0,0.0,-0.00017956687693010398,-0.00015467373748245805,-0.00011988076344815468,0.00017275458887988648,0.00016951218938136836,4.5221077536794496e-05,-9.155273438588019e-06,-0.0002578886835769623,0.0009171145751275552,-0.0006378710947093398,-0.0008776699901917235,0.00022317540259190018,0.0003596241887002438,0.0007923849961504582,0.06972616910934448,18.078760147094727,-0.9180634021759033,-18.269685745239258,-0.7070823311805725,-2.2818026542663574,0.21457235515117645,0
54,0.2644674777984619,-0.06972616910934448,-18.078760147094727,0.9180634021759033,18.269685745239258,0.7070823311805725,2.2818026542663574,-0.21457235515117645,0.0,0.0,0.0,0.0,0.0,0.0,0.0,-0.054110045128878556,0.5515809189495899,0.11966216673700066,0.6857472678886845,0.27530086231114365,0.08681878627522652,-0.23128233797113024,-0.6089056079387665,-0.057377293448085925,-0.6664832163191678,-2.5947292916147333,-0.05579095160492137,2.507930806146262,0.8763200039780801,-0.6090851748156966,-0.05753196718556838,-0.666603097082616,-2.5945565370258534,-0.05562143941554,2.507976027223799,0.8763108487046415,0.0002578886835769623,-0.0009171145751275552,0.0006378710947093398,0.0008776699901917235,-0.00022317540259190018,-0.0003596241887002438,-0.0007923849961504582,0.0,0.0,0.0,0.0,0.0,0.0,0.0,-0.00017956687693010398,-0.00015467373748245805,-0.00011988076344815468,0.00017275458887988648,0.00016951218938136836,4.5221077536794496e-05,-9.155273438588019e-06,-0.0002578886835769623,0.0009171145751275552,-0.0006378710947093398,-0.0008776699901917235,0.00022317540259190018,0.0003596241887002438,0.0007923849961504582,0.06972616910934448,18.078760147094727,-0.9180634021759033,-18.269685745239258,-0.7070823311805725,-2.2818026542663574,0.21457235515117645,0
55,0.26946401596069336,-0.12130087614059448,-18.130334854125977,0.8942596912384033,18.321260452270508,0.6951804757118225,2.2753939628601074,-0.20083944499492645,0.0,0.0,0.0,0.0,0.0,0.0,0.0,-0.06347047137555076,0.5468102758584705,0.11168346948209801,0.6929596652785397,0.2760568494435402,0.08870419441770537,-0.23172514509478268,-0.60890198866108,-0.05737370012217954,-0.6664815459203243,-2.5947329108924198,-0.055792759911271674,2.507930432911746,0.8763184780991738,-0.6090851748156966,-0.05753196718556838,-0.666603097082616,-2.5945565370258534,-0.05562143941554,2.507976027223799,0.8763108487046415,0.0011787609589708045,0.00025464096321633654,0.0003924942989648095,-1.2160670413206156e-05,9.761247304482128e-05,-5.690405374502865e-05,-0.0010984400127579477,0.0,0.0,0.0,0.0,0.0,0.0,0.0,-0.00018318615461654364,-0.00015826706338884639,-0.00012155116229173313,0.00017637386656632614,0.00017132049573167357,4.5594312052976704e-05,-7.629394532360223e-06,-0.0011787609589708045,-0.00025464096321633654,-0.0003924942989648095,1.2160670413206156e-05,-9.761247304482128e-05,5.690405374502865e-05,0.0010984400127579477,0.12130087614059448,18.130334854125977,-0.8942596912384033,-18.321260452270508,-0.6951804757118225,-2.2753939628601074,0.20083944499492645,0
56,0.27446913719177246,-0.12130087614059448,-18.130334854125977,0.8942596912384033,18.321260452270508,0.6951804757118225,2.2753939628601074,-0.20083944499492645,0.0,0.0,0.0,0.0,0.0,0.0,0.0,-0.06347047137555076,0.5468102758584705,0.11168346948209801,0.6929596652785397,0.2760568494435402,0.08870419441770537,-0.23172514509478268,-0.60890198866108,-0.05737370012217954,-0.6664815459203243,-2.5947329108924198,-0.055792759911271674,2.507930432911746,0.8763184780991738,-0.6090851748156966,-0.05753196718556838,-0.666603097082616,-2.5945565370258534,-0.05562143941554,2.507976027223799,0.8763108487046415,0.0011787609589708045,0.00025464096321633654,0.0003924942989648095,-1.2160670413206156e-05,9.761247304482128e-05,-5.690405374502865e-05,-0.0010984400127579477,0.0,0.0,0.0,0.0,0.0,0.0,0.0,-0.00018318615461654364,-0.00015826706338884639,-0.00012155116229173313,0.00017637386656632614,0.00017132049573167357,4.5594312052976704e-05,-7.629394532360223e-06,-0.0011787609589708045,-0.00025464096321633654,-0.0003924942989648095,1.2160670413206156e-05,-9.761247304482128e-05,5.690405374502865e-05,0.0010984400127579477,0.12130087614059448,18.130334854125977,-0.8942596912384033,-18.321260452270508,-0.6951804757118225,-2.2753939628601074,0.20083944499492645,0
57,0.279465913772583,-0.06972616910934448,-18.106531143188477,0.9696381092071533,18.321260452270508,0.6951804757118225,2.2753939628601074,-0.23471395671367645,0.0,0.0,0.0,0.0,0.0,0.0,0.0,-0.05565288872521824,0.5585218813878743,0.11679593060714533,0.6876721877608438,0.2752563908524222,0.08841194219868018,-0.23186035089370938,-0.6089056079387665,-0.057375370882580407,-0.6664868355968544,-2.5947329108924198,-0.0557896252855923,2.5079351332025985,0.8763222419338093,-0.6090851748156966,-0.05753196718556838,-0.666603097082616,-2.5945565370258534,-0.05562143941554,2.507976027223799,0.8763108487046415,0.00014530972780103785,0.0009142434713036814,-0.0009026568826177979,-0.00022702762206807393,0.00032217001521866946,2.780960760174327e-05,0.00042700374396566676,0.0,0.0,0.0,0.0,0.0,0.0,0.0,-0.00017956687693010398,-0.0001565963029879769,-0.000116261485761604,0.00017637386656632614,0.0001681858700523023,4.089402120044383e-05,-1.1393229167766528e-05,-0.00014530972780103785,-0.0009142434713036814,0.0009026568826177979,0.00022702762206807393,-0.00032217001521866946,-2.780960760174327e-05,-0.00042700374396566676,0.06972616910934448,18.106531143188477,-0.9696381092071533,-18.321260452270508,-0.6951804757118225,-2.2753939628601074,0.23471395671367645,0
58,0.2845771312713623,-0.06972616910934448,-18.106531143188477,0.9696381092071533,18.321260452270508,0.6951804757118225,2.2753939628601074,-0.23471395671367645,0.0,0.0,0.0,0.0,0.0,0.0,0.0,-0.05565288872521824,0.5585218813878743,0.11679593060714533,0.6876721877608438,0.2752563908524222,0.08841194219868018,-0.23186035089370938,-0.6089056079387665,-0.057375370882580407,-0.6664868355968544,-2.5947329108924198,-0.0557896252855923,2.5079351332025985,0.8763222419338093,-0.6090851748156966,-0.05753196718556838,-0.666603097082616,-2.5945565370258534,-0.05562143941554,2.507976027223799,0.8763108487046415,0.00014530972780103785,0.0009142434713036814,-0.0009026568826177979,-0.00022702762206807393,0.00032217001521866946,2.780960760174327e-05,0.00042700374396566676,0.0,0.0,0.0,0.0,0.0,0.0,0.0,-0.00017956687693010398,-0.0001565963029879769,-0.000116261485761604,0.00017637386656632614,0.0001681858700523023,4.089402120044383e-05,-1.1393229167766528e-05,-0.00014530972780103785,-0.0009142434713036814,0.0009026568826177979,0.00022702762206807393,-0.00032217001521866946,-2.780960760174327e-05,-0.00042700374396566676,0.06972616910934448,18.106531143188477,-0.9696381092071533,-18.321260452270508,-0.6951804757118225,-2.2753939628601074,0.23471395671367645,0
59,0.28946709632873535,-0.06972616910934448,-18.106531143188477,0.9696381092071533,18.321260452270508,0.6951804757118225,2.2753939628601074,-0.23471395671367645,0.0,0.0,0.0,0.0,0.0,0.0,0.0,-0.05565288872521824,0.5585218813878743,0.11679593060714533,0.6876721877608438,0.2752563908524222,0.08841194219868018,-0.23186035089370938,-0.6089056079387665,-0.057375370882580407,-0.6664868355968544,-2.5947329108924198,-0.0557896252855923,2.5079351332025985,0.8763222419338093,-0.6090851748156966,-0.05753196718556838,-0.666603097082616,-2.5945565370258534,-0.05562143941554,2.507976027223799,0.8763108487046415,0.00014530972780103785,0.0009142434713036814,-0.0009026568826177979,-0.00022702762206807393,0.00032217001521866946,2.780960760174327e-05,0.00042700374396566676,0.0,0.0,0.0,0.0,0.0,0.0,0.0,-0.00017956687693010398,-0.0001565963029879769,-0.000116261485761604,0.00017637386656632614,0.0001681858700523023,4.089402120044383e-05,-1.1393229167766528e-05,-0.00014530972780103785,-0.0009142434713036814,0.0009026568826177979,0.00022702762206807393,-0.00032217001521866946,-2.780960760174327e-05,-0.00042700374396566676,0.06972616910934448,18.106531143188477,-0.9696381092071533,-18.321260452270508,-0.6951804757118225,-2.2753939628601074,0.23471395671367645,0
60,0.2944650650024414,-0.04592245817184448,-18.106531143188477,0.9180634021759033,18.321260452270508,0.7015891671180725,2.2753939628601074,-0.24844686686992645,0.0,0.0,0.0,0.0,0.0,0.0,0.0,-0.06349211451446658,0.5561782501848217,0.1102281639072265,0.692195526048197,0.2754226128409555,0.08909199591226956,-0.2314479210970677,-0.6089072783746218,-0.05737537088258224,-0.6664832163191678,-2.5947329108924198,-0.055794961708839796,2.5079304586115403,0.8763237678127155,-0.6090851748156966,-0.05753196718556838,-0.666603097082616,-2.5945565370258534,-0.05562143941554,2.507976027223799,0.8763108487046415,-0.0005647031272784174,0.0004438420007162732,-0.00023325848338086268,-0.00020375930364476154,-0.0002576445365362105,-0.00029067968250436293,0.001084878593608316,0.0,0.0,0.0,0.0,0.0,0.0,0.0,-0.00017789644107479852,-0.00015659630298614502,-0.00011988076344815468,0.00017637386656632614,0.00017352229329979652,4.556861225868403e-05,-1.2919108073994323e-05,0.0005647031272784174,-0.0004438420007162732,0.00023325848338086268,0.00020375930364476154,0.0002576445365362105,0.00029067968250436293,-0.001084878593608316,0.04592245817184448,18.106531143188477,-0.9180634021759033,-18.321260452270508,-0.7015891671180725,-2.2753939628601074,0.24844686686992645,0
61,0.2994823455810547,-0.04592245817184448,-18.106531143188477,0.9180634021759033,18.321260452270508,0.7015891671180725,2.2753939628601074,-0.24844686686992645,0.0,0.0,0.0,0.0,0.0,0.0,0.0,-0.06349211451446658,0.5561782501848217,0.1102281639072265,0.692195526048197,0.2754226128409555,0.08909199591226956,-0.2314479210970677,-0.6089072783746218,-0.05737537088258224,-0.6664832163191678,-2.5947329108924198,-0.055794961708839796,2.5079304586115403,0.8763237678127155,-0.6090851748156966,-0.05753196718556838,-0.666603097082616,-2.5945565370258534,-0.05562143941554,2.507976027223799,0.8763108487046415,-0.0005647031272784174,0.0004438420007162732,-0.00023325848338086268,-0.00020375930364476154,-0.0002576445365362105,-0.00029067968250436293,0.001084878593608316,0.0,0.0,0.0,0.0,0.0,0.0,0.0,-0.00017789644107479852,-0.00015659630298614502,-0.00011988076344815468,0.00017637386656632614,0.00017352229329979652,4.556861225868403e-05,-1.2919108073994323e-05,0.0005647031272784174,-0.0004438420007162732,0.00023325848338086268,0.00020375930364476154,0.0002576445365362105,0.00029067968250436293,-0.001084878593608316,0.04592245817184448,18.106531143188477,-0.9180634021759033,-18.321260452270508,-0.7015891671180725,-2.2753939628601074,0.24844686686992645,0
62,0.3044710159301758,-0.018151462078094482,-18.106531143188477,0.9418671131134033,18.321260452270508,0.6951804757118225,2.2753939628601074,-0.24112264811992645,0.0,0.0,0.0,0.0,0.0,0.0,0.0,-0.056115795926324326,0.5601031904455676,0.11569878815061628,0.6925678283651672,0.2744923753542484,0.08892474183999126,-0.23017703363229935,-0.6089092272164529,-0.05737537088258224,-0.666484886755023,-2.5947329108924198,-0.05579429846679095,2.5079336375533754,0.8763229540106322,-0.6090851748156966,-0.05753196718556838,-0.666603097082616,-2.5945565370258534,-0.05562143941554,2.507976027223799,0.8763108487046415,-0.0005114820845742838,0.00016861326943252945,-0.00025111165046552654,-0.0002540929931521363,-6.082261183004745e-05,-0.0002153977161501005,0.0003028904499321245,0.0,0.0,0.0,0.0,0.0,0.0,0.0,-0.00017594759924366432,-0.00015659630298614502,-0.00011821032759296024,0.00017637386656632614,0.0001728590512509523,4.238967042358155e-05,-1.2105305990717241e-05,0.0005114820845742838,-0.00016861326943252945,0.00025111165046552654,0.0002540929931521363,6.082261183004745e-05,0.0002153977161501005,-0.0003028904499321245,0.018151462078094482,18.106531143188477,-0.9418671131134033,-18.321260452270508,-0.6951804757118225,-2.2753939628601074,0.24112264811992645,0
63,0.30947208404541016,-0.018151462078094482,-18.106531143188477,0.9418671131134033,18.321260452270508,0.6951804757118225,2.2753939628601074,-0.24112264811992645,0.0,0.0,0.0,0.0,0.0,0.0,0.0,-0.056115795926324326,0.5601031904455676,0.11569878815061628,0.6925678283651672,0.2744923753542484,0.08892474183999126,-0.23017703363229935,-0.6089092272164529,-0.05737537088258224,-0.666484886755023,-2.5947329108924198,-0.05579429846679095,2.5079336375533754,0.8763229540106322,-0.6090851748156966,-0.05753196718556838,-0.666603097082616,-2.5945565370258534,-0.05562143941554,2.507976027223799,0.8763108487046415,-0.0005114820845742838,0.00016861326943252945,-0.00025111165046552654,-0.0002540929931521363,-6.082261183004745e-05,-0.0002153977161501005,0.0003028904499321245,0.0,0.0,0.0,0.0,0.0,0.0,0.0,-0.00017594759924366432,-0.00015659630298614502,-0.00011821032759296024,0.00017637386656632614,0.0001728590512509523,4.238967042358155e-05,-1.2105305990717241e-05,0.0005114820845742838,-0.00016861326943252945,0.00025111165046552654,0.0002540929931521363,6.082261183004745e-05,0.0002153977161501005,-0.0003028904499321245,0.018151462078094482,18.106531143188477,-0.9418671131134033,-18.321260452270508,-0.6951804757118225,-2.2753939628601074,0.24112264811992645,0
64,0.31441426277160645,-0.04592245817184448,-18.177942276000977,0.9934418201446533,18.345064163208008,0.6951804757118225,2.2753939628601074,-0.21457235515117645,0.0,0.0,0.0,0.0,0.0,0.0,0.0,-0.0596734087333349,0.5558061745687816,0.11204921616023387,0.6932945295766323,0.2742914171460646,0.08846623153552476,-0.22994927802740603,-0.6089072783746218,-0.05737035957501645,-0.6664885060327095,-2.594732356088203,-0.05578963818713359,2.507933650599438,0.8763200039780801,-0.6090851748156966,-0.05753196718556838,-0.666603097082616,-2.5945565370258534,-0.05562143941554,2.507976027223799,0.8763108487046415,-0.0003136721882356662,0.0008849646403625361,-0.0017500225230652048,-0.0007474688967359607,0.00019144109723952886,-0.00018718714052199815,-0.0006701640844936046,0.0,0.0,0.0,0.0,0.0,0.0,0.0,-0.00017789644107479852,-0.0001616076105519365,-0.00011459104990652058,0.00017581906234953593,0.00016819877159358898,4.237662436112899e-05,-9.155273438588019e-06,0.0003136721882356662,-0.0008849646403625361,0.0017500225230652048,0.0007474688967359607,-0.00019144109723952886,0.00018718714052199815,0.0006701640844936046,0.04592245817184448,18.177942276000977,-0.9934418201446533,-18.345064163208008,-0.6951804757118225,-2.2753939628601074,0.21457235515117645,0
65,0.31948280334472656,-0.04592245817184448,-18.177942276000977,0.9934418201446533,18.345064163208008,0.6951804757118225,2.2753939628601074,-0.21457235515117645,0.0,0.0,0.0,0.0,0.0,0.0,0.0,-0.0596734087333349,0.5558061745687816,0.11204921616023387,0.6932945295766323,0.2742914171460646,0.08846623153552476,-0.22994927802740603,-0.6089072783746218,-0.05737035957501645,-0.6664885060327095,-2.594732356088203,-0.05578963818713359,2.507933650599438,0.8763200039780801,-0.6090851748156966,-0.05753196718556838,-0.666603097082616,-2.5945565370258534,-0.05562143941554,2.507976027223799,0.8763108487046415,-0.0003136721882356662,0.0008849646403625361,-0.0017500225230652048,-0.0007474688967359607,0.00019144109723952886,-0.00018718714052199815,-0.0006701640844936046,0.0,0.0,0.0,0.0,0.0,0.0,0.0,-0.00017789644107479852,-0.0001616076105519365,-0.00011459104990652058,0.00017581906234953593,0.00016819877159358898,4.237662436112899e-05,-9.155273438588019e-06,0.0003136721882356662,-0.0008849646403625361,0.0017500225230652048,0.0007474688967359607,-0.00019144109723952886,0.00018718714052199815,0.0006701640844936046,0.04592245817184448,18.177942276000977,-0.9934418201446533,-18.345064163208008,-0.6951804757118225,-2.2753939628601074,0.21457235515117645,0
66,0.32441258430480957,-0.06972616910934448,-18.106531143188477,0.9418671131134033,18.297456741333008,0.6896873116493225,2.2689852714538574,-0.25485557317733765,0.0,0.0,0.0,0.0,0.0,0.0,0.0,-0.056216133493516285,0.5559817143896755,0.11479520784929713,0.6897150935305972,0.2746547101629607,0.08775524117700258,-0.22951893010272348,-0.6089056079387665,-0.05737537088258224,-0.666484886755023,-2.59473124041888,-0.05579214804444238,2.5079316025824037,0.8763244798911941,-0.6090851748156966,-0.05753196718556838,-0.666603097082616,-2.5945565370258534,-0.05562143941554,2.507976027223799,0.8763108487046415,0.00037489632239848383,-0.0005254254605070245,-0.00042403634353442706,9.314498699145799e-05,0.0004927929135121598,5.387776724858546e-05,0.0006098693531243106,0.0,0.0,0.0,0.0,0.0,0.0,0.0,-0.00017956687693010398,-0.00015659630298614502,-0.00011821032759296024,0.0001747033930263875,0.00017070862890238014,4.44246413953131e-05,-1.3631186552620633e-05,-0.00037489632239848383,0.0005254254605070245,0.00042403634353442706,-9.314498699145799e-05,-0.0004927929135121598,-5.387776724858546e-05,-0.0006098693531243106,0.06972616910934448,18.106531143188477,-0.9418671131134033,-18.297456741333008,-0.6896873116493225,-2.2689852714538574,0.25485557317733765,0
67,0.3295745849609375,-0.06972616910934448,-18.106531143188477,0.9418671131134033,18.297456741333008,0.6896873116493225,2.2689852714538574,-0.25485557317733765,0.0,0.0,0.0,0.0,0.0,0.0,0.0,-0.056216133493516285,0.5559817143896755,0.11479520784929713,0.6897150935305972,0.2746547101629607,0.08775524117700258,-0.22951893010272348,-0.6089056079387665,-0.05737537088258224,-0.666484886755023,-2.59473124041888,-0.05579214804444238,2.5079316025824037,0.8763244798911941,-0.6090851748156966,-0.05753196718556838,-0.666603097082616,-2.5945565370258534,-0.05562143941554,2.507976027223799,0.8763108487046415,0.00037489632239848383,-0.0005254254605070245,-0.00042403634353442706,9.314498699145799e-05,0.0004927929135121598,5.387776724858546e-05,0.0006098693531243106,0.0,0.0,0.0,0.0,0.0,0.0,0.0,-0.00017956687693010398,-0.00015659630298614502,-0.00011821032759296024,0.0001747033930263875,0.00017070862890238014,4.44246413953131e-05,-1.3631186552620633e-05,-0.00037489632239848383,0.0005254254605070245,0.00042403634353442706,-9.314498699145799e-05,-0.0004927929135121598,-5.387776724858546e-05,-0.0006098693531243106,0.06972616910934448,18.106531143188477,-0.9418671131134033,-18.297456741333008,-0.6896873116493225,-2.2689852714538574,0.25485557317733765,0
68,0.33446741104125977,-0.06972616910934448,-18.130334854125977,0.8942596912384033,18.321260452270508,0.6951804757118225,2.2818026542663574,-0.20724813640117645,0.0,0.0,0.0,0.0,0.0,0.0,0.0,-0.05408359191239765,0.5527960632045641,0.11567943595082197,0.6882868317435759,0.27482283142967157,0.0881369347820384,-0.22906247822634335,-0.6089056079387665,-0.057373700446726975,-0.6664815458833125,-2.5947329108924198,-0.05579271096357018,2.5079297203450897,0.8763191901759968,-0.6090851748156966,-0.05753196718556838,-0.666603097082616,-2.5945565370258534,-0.05562143941554,2.507976027223799,0.8763108487046415,-6.896769114657479e-05,0.0003621386097191905,-0.00571441796354044,-0.00015017760282881758,0.0001358925610496116,-0.00034612260886210757,-0.0008327291928970073,0.0,0.0,0.0,0.0,0.0,0.0,0.0,-0.00017956687693010398,-0.00015826673884140885,-0.00012155119930346014,0.00017637386656632614,0.0001712715480301774,4.6306878709323485e-05,-8.341471355310937e-06,6.896769114657479e-05,-0.0003621386097191905,0.00571441796354044,0.00015017760282881758,-0.0001358925610496116,0.00034612260886210757,0.0008327291928970073,0.06972616910934448,18.130334854125977,-0.8942596912384033,-18.321260452270508,-0.6951804757118225,-2.2818026542663574,0.20724813640117645,0
69,0.33946752548217773,-0.06972616910934448,-18.130334854125977,0.8942596912384033,18.321260452270508,0.6951804757118225,2.2818026542663574,-0.20724813640117645,0.0,0.0,0.0,0.0,0.0,0.0,0.0,-0.05408359191239765,0.5527960632045641,0.11567943595082197,0.6882868317435759,0.27482283142967157,0.0881369347820384,-0.22906247822634335,-0.6089056079387665,-0.057373700446726975,-0.6664815458833125,-2.5947329108924198,-0.05579271096357018,2.5079297203450897,0.8763191901759968,-0.6090851748156966,-0.05753196718556838,-0.666603097082616,-2.5945565370258534,-0.05562143941554,2.507976027223799,0.8763108487046415,-6.896769114657479e-05,0.0003621386097191905,-0.00571441796354044,-0.00015017760282881758,0.0001358925610496116,-0.00034612260886210757,-0.0008327291928970073,0.0,0.0,0.0,0.0,0.0,0.0,0.0,-0.00017956687693010398,-0.00015826673884140885,-0.00012155119930346014,0.00017637386656632614,0.0001712715480301774,4.6306878709323485e-05,-8.341471355310937e-06,6.896769114657479e-05,-0.0003621386097191905,0.00571441796354044,0.00015017760282881758,-0.0001358925610496116,0.00034612260886210757,0.0008327291928970073,0.06972616910934448,18.130334854125977,-0.8942596912384033,-18.321260452270508,-0.6951804757118225,-2.2818026542663574,0.20724813640117645,0
70,0.3444821834564209,-0.06972616910934448,-18.130334854125977,0.8942596912384033,18.321260452270508,0.7015891671180725,2.2625765800476074,-0.23471395671367645,0.0,0.0,0.0,0.0,0.0,0.0,0.0,-0.03108409582462942,0.5529520624470857,0.13880849673054188,0.6891927733862828,0.27373745485625456,0.0888166508280312,-0.22762706624805704,-0.6089056079387665,-0.057373700446726975,-0.6664815458833125,-2.5947329108924198,-0.055790615425291554,2.507936082045311,0.8763222419338093,-0.6090851748156966,-0.05753196718556838,-0.666603097082616,-2.5945565370258534,-0.05562143941554,2.507976027223799,0.8763108487046415,3.7854775649021023e-06,0.0007024010994131301,0.0002316800081939819,-5.0468685501834155e-05,-0.0002124300138228043,0.00038886331230453145,0.000462532427526503,0.0,0.0,0.0,0.0,0.0,0.0,0.0,-0.00017956687693010398,-0.00015826673884140885,-0.00012155119930346014,0.00017637386656632614,0.00016917600975155378,3.9945178488043354e-05,-1.1393229167766528e-05,-3.7854775649021023e-06,-0.0007024010994131301,-0.0002316800081939819,5.0468685501834155e-05,0.0002124300138228043,-0.00038886331230453145,-0.000462532427526503,0.06972616910934448,18.130334854125977,-0.8942596912384033,-18.321260452270508,-0.7015891671180725,-2.2625765800476074,0.23471395671367645,0
71,0.3494751453399658,-0.06972616910934448,-18.130334854125977,0.8942596912384033,18.321260452270508,0.7015891671180725,2.2625765800476074,-0.23471395671367645,0.0,0.0,0.0,0.0,0.0,0.0,0.0,-0.03108409582462942,0.5529520624470857,0.13880849673054188,0.6891927733862828,0.27373745485625456,0.0888166508280312,-0.22762706624805704,-0.6089056079387665,-0.057373700446726975,-0.6664815458833125,-2.5947329108924198,-0.055790615425291554,2.507936082045311,0.8763222419338093,-0.6090851748156966,-0.05753196718556838,-0.666603097082616,-2.5945565370258534,-0.05562143941554,2.507976027223799,0.8763108487046415,3.7854775649021023e-06,0.0007024010994131301,0.0002316800081939819,-5.0468685501834155e-05,-0.0002124300138228043,0.00038886331230453145,0.000462532427526503,0.0,0.0,0.0,0.0,0.0,0.0,0.0,-0.00017956687693010398,-0.00015826673884140885,-0.00012155119930346014,0.00017637386656632614,0.00016917600975155378,3.9945178488043354e-05,-1.1393229167766528e-05,-3.7854775649021023e-06,-0.0007024010994131301,-0.0002316800081939819,5.0468685501834155e-05,0.0002124300138228043,-0.00038886331230453145,-0.000462532427526503,0.06972616910934448,18.130334854125977,-0.8942596912384033,-18.321260452270508,-0.7015891671180725,-2.2625765800476074,0.23471395671367645,0
72,0.3565678596496582,-0.06972616910934448,-18.106531143188477,0.9180634021759033,18.297456741333008,0.6896873116493225,2.2689852714538574,-0.24844686686992645,0.0,0.0,0.0,0.0,0.0,0.0,0.0,-0.06234940169568878,0.5517667637165657,0.1074055408728215,0.6897719378319495,0.2750552118907505,0.0880827611133276,-0.22690737681270562,-0.6089056079387665,-0.05737537088258224,-0.6664832163191678,-2.5947312404565643,-0.0557936487620653,2.5079314847063685,0.8763237678127155,-0.6090851748156966,-0.05753196718556838,-0.666603097082616,-2.5945565370258534,-0.05562143941554,2.507976027223799,0.8763108487046415,9.482126956314763e-05,0.00021844745210061102,0.0001780819109755165,0.0002117347392233428,0.000319723181390157,7.241069218117402e-05,0.001039433846374213,0.0,0.0,0.0,0.0,0.0,0.0,0.0,-0.00017956687693010398,-0.00015659630298614502,-0.00011988076344815468,0.00017470343071090966,0.00017220934652530107,4.454251743046811e-05,-1.2919108073994323e-05,-9.482126956314763e-05,-0.00021844745210061102,-0.0001780819109755165,-0.0002117347392233428,-0.000319723181390157,-7.241069218117402e-05,-0.001039433846374213,0.06972616910934448,18.106531143188477,-0.9180634021759033,-18.297456741333008,-0.6896873116493225,-2.2689852714538574,0.24844686686992645,0
73,0.3594639301300049,-0.06972616910934448,-18.106531143188477,0.9180634021759033,18.297456741333008,0.6896873116493225,2.2689852714538574,-0.24844686686992645,0.0,0.0,0.0,0.0,0.0,0.0,0.0,-0.06234940169568878,0.5517667637165657,0.1074055408728215,0.6897719378319495,0.2750552118907505,0.0880827611133276,-0.22690737681270562,-0.6089056079387665,-0.05737537088258224,-0.6664832163191678,-2.5947312404565643,-0.0557936487620653,2.5079314847063685,0.8763237678127155,-0.6090851748156966,-0.05753196718556838,-0.666603097082616,-2.5945565370258534,-0.05562143941554,2.507976027223799,0.8763108487046415,9.482126956314763e-05,0.00021844745210061102,0.0001780819109755165,0.0002117347392233428,0.000319723181390157,7.241069218117402e-05,0.001039433846374213,0.0,0.0,0.0,0.0,0.0,0.0,0.0,-0.00017956687693010398,-0.00015659630298614502,-0.00011988076344815468,0.00017470343071090966,0.00017220934652530107,4.454251743046811e-05,-1.2919108073994323e-05,-9.482126956314763e-05,-0.00021844745210061102,-0.0001780819109755165,-0.0002117347392233428,-0.000319723181390157,-7.241069218117402e-05,-0.001039433846374213,0.06972616910934448,18.106531143188477,-0.9180634021759033,-18.297456741333008,-0.6896873116493225,-2.2689852714538574,0.24844686686992645,0
74,0.3644752502441406,-0.06972616910934448,-18.106531143188477,0.9418671131134033,18.321260452270508,0.6951804757118225,2.2753939628601074,-0.24112264811992645,0.0,0.0,0.0,0.0,0.0,0.0,0.0,-0.06914942550926763,0.5543218575135103,0.10052027693477553,0.6898512729856755,0.2748968226462929,0.08771577602516314,-0.22660424235545568,-0.6089056079387665,-0.05737537088258224,-0.666484886755023,-2.5947329108924198,-0.05579381108438112,2.5079307770759343,0.8763229540106322,-0.6090851748156966,-0.05753196718556838,-0.666603097082616,-2.5945565370258534,-0.05562143941554,2.507976027223799,0.8763108487046415,0.0001800994529996323,-3.335437826987905e-05,-0.00018806810696986334,-6.893465132580685e-05,0.00020106045518351027,-0.00026778296370044154,0.000721822441199128,0.0,0.0,0.0,0.0,0.0,0.0,0.0,-0.00017956687693010398,-0.00015659630298614502,-0.00011821032759296024,0.00017637386656632614,0.00017237166884111893,4.525014786471715e-05,-1.2105305990717241e-05,-0.0001800994529996323,3.335437826987905e-05,0.00018806810696986334,6.893465132580685e-05,-0.00020106045518351027,0.00026778296370044154,-0.000721822441199128,0.06972616910934448,18.106531143188477,-0.9418671131134033,-18.321260452270508,-0.6951804757118225,-2.2753939628601074,0.24112264811992645,0
75,0.36946845054626465,-0.06972616910934448,-18.106531143188477,0.9418671131134033,18.321260452270508,0.6951804757118225,2.2753939628601074,-0.24112264811992645,0.0,0.0,0.0,0.0,0.0,0.0,0.0,-0.06914942550926763,0.5543218575135103,0.10052027693477553,0.6898512729856755,0.2748968226462929,0.08771577602516314,-0.22660424235545568,-0.6089056079387665,-0.05737537088258224,-0.666484886755023,-2.5947329108924198,-0.05579381108438112,2.5079307770759343,0.8763229540106322,-0.6090851748156966,-0.05753196718556838,-0.666603097082616,-2.5945565370258534,-0.05562143941554,2.507976027223799,0.8763108487046415,0.0001800994529996323,-3.335437826987905e-05,-0.00018806810696986334,-6.893465132580685e-05,0.00020106045518351027,-0.00026778296370044154,0.000721822441199128,0.0,0.0,0.0,0.0,0.0,0.0,0.0,-0.00017956687693010398,-0.00015659630298614502,-0.00011821032759296024,0.00017637386656632614,0.00017237166884111893,4.525014786471715e-05,-1.2105305990717241e-05,-0.0001800994529996323,3.335437826987905e-05,0.00018806810696986334,6.893465132580685e-05,-0.00020106045518351027,0.00026778296370044154,-0.000721822441199128,0.06972616910934448,18.106531143188477,-0.9418671131134033,-18.321260452270508,-0.6951804757118225,-2.2753939628601074,0.24112264811992645,0
76,0.374469518661499,-0.06972616910934448,-18.106531143188477,0.9418671131134033,18.321260452270508,0.6951804757118225,2.2753939628601074,-0.24112264811992645,0.0,0.0,0.0,0.0,0.0,0.0,0.0,-0.06914942550926763,0.5543218575135103,0.10052027693477553,0.6898512729856755,0.2748968226462929,0.08771577602516314,-0.22660424235545568,-0.6089056079387665,-0.05737537088258224,-0.666484886755023,-2.5947329108924198,-0.05579381108438112,2.5079307770759343,0.8763229540106322,-0.6090851748156966,-0.05753196718556838,-0.666603097082616,-2.5945565370258534,-0.05562143941554,2.507976027223799,0.8763108487046415,0.0001800994529996323,-3.335437826987905e-05,-0.00018806810696986334,-6.893465132580685e-05,0.00020106045518351027,-0.00026778296370044154,0.000721822441199128,0.0,0.0,0.0,0.0,0.0,0.0,0.0,-0.00017956687693010398,-0.00015659630298614502,-0.00011821032759296024,0.00017637386656632614,0.00017237166884111893,4.525014786471715e-05,-1.2105305990717241e-05,-0.0001800994529996323,3.335437826987905e-05,0.00018806810696986334,6.893465132580685e-05,-0.00020106045518351027,0.00026778296370044154,-0.000721822441199128,0.06972616910934448,18.106531143188477,-0.9418671131134033,-18.321260452270508,-0.6951804757118225,-2.2753939628601074,0.24112264811992645,0
77,0.379467248916626,-0.06972616910934448,-18.106531143188477,0.9418671131134033,18.321260452270508,0.6951804757118225,2.2753939628601074,-0.24112264811992645,0.0,0.0,0.0,0.0,0.0,0.0,0.0,-0.06914942550926763,0.5543218575135103,0.10052027693477553,0.6898512729856755,0.2748968226462929,0.08771577602516314,-0.22660424235545568,-0.6089056079387665,-0.05737537088258224,-0.666484886755023,-2.5947329108924198,-0.05579381108438112,2.5079307770759343,0.8763229540106322,-0.6090851748156966,-0.05753196718556838,-0.666603097082616,-2.5945565370258534,-0.05562143941554,2.507976027223799,0.8763108487046415,0.0001800994529996323,-3.335437826987905e-05,-0.00018806810696986334,-6.893465132580685e-05,0.00020106045518351027,-0.00026778296370044154,0.000721822441199128,0.0,0.0,0.0,0.0,0.0,0.0,0.0,-0.00017956687693010398,-0.00015659630298614502,-0.00011821032759296024,0.00017637386656632614,0.00017237166884111893,4.525014786471715e-05,-1.2105305990717241e-05,-0.0001800994529996323,3.335437826987905e-05,0.00018806810696986334,6.893465132580685e-05,-0.00020106045518351027,0.00026778296370044154,-0.000721822441199128,0.06972616910934448,18.106531143188477,-0.9418671131134033,-18.321260452270508,-0.6951804757118225,-2.2753939628601074,0.24112264811992645,0
78,0.3844764232635498,-0.06972616910934448,-18.130334854125977,0.9418671131134033,18.269685745239258,0.6951804757118225,2.2689852714538574,-0.20083944499492645,0.0,0.0,0.0,0.0,0.0,0.0,0.0,-0.0652803073386945,0.5526063200125524,0.10657910169180854,0.6905711653573091,0.2743559831047617,0.08767067285004795,-0.22752069747333986,-0.6089056079387665,-0.057373700446726975,-0.666484886755023,-2.5947292916147333,-0.05579098570453079,2.507931170663773,0.8763184780991738,-0.6090851748156966,-0.05753196718556838,-0.666603097082616,-2.5945565370258534,-0.05562143941554,2.507976027223799,0.8763108487046415,0.00020217950362369923,0.00013811722510349337,0.0002556981819675727,0.0009960547627411236,7.648782759532098e-05,4.324721379276955e-05,-0.0014112901448163958,0.0,0.0,0.0,0.0,0.0,0.0,0.0,-0.00017956687693010398,-0.00015826673884140885,-0.00011821032759296024,0.00017275458887988648,0.00016954628899078922,4.4856560025952064e-05,-7.629394532360223e-06,-0.00020217950362369923,-0.00013811722510349337,-0.0002556981819675727,-0.0009960547627411236,-7.648782759532098e-05,-4.324721379276955e-05,0.0014112901448163958,0.06972616910934448,18.130334854125977,-0.9418671131134033,-18.269685745239258,-0.6951804757118225,-2.2689852714538574,0.20083944499492645,0
79,0.3894684314727783,-0.06972616910934448,-18.130334854125977,0.9418671131134033,18.269685745239258,0.6951804757118225,2.2689852714538574,-0.20083944499492645,0.0,0.0,0.0,0.0,0.0,0.0,0.0,-0.0652803073386945,0.5526063200125524,0.10657910169180854,0.6905711653573091,0.2743559831047617,0.08767067285004795,-0.22752069747333986,-0.6089056079387665,-0.057373700446726975,-0.666484886755023,-2.5947292916147333,-0.05579098570453079,2.507931170663773,0.8763184780991738,-0.6090851748156966,-0.05753196718556838,-0.666603097082616,-2.5945565370258534,-0.05562143941554,2.507976027223799,0.8763108487046415,0.00020217950362369923,0.00013811722510349337,0.0002556981819675727,0.0009960547627411236,7.648782759532098e-05,4.324721379276955e-05,-0.0014112901448163958,0.0,0.0,0.0,0.0,0.0,0.0,0.0,-0.00017956687693010398,-0.00015826673884140885,-0.00011821032759296024,0.00017275458887988648,0.00016954628899078922,4.4856560025952064e-05,-7.629394532360223e-06,-0.00020217950362369923,-0.00013811722510349337,-0.0002556981819675727,-0.0009960547627411236,-7.648782759532098e-05,-4.324721379276955e-05,0.0014112901448163958,0.06972616910934448,18.130334854125977,-0.9418671131134033,-18.269685745239258,-0.6951804757118225,-2.2689852714538574,0.20083944499492645,0
