rezayati/contactInterpretation/dataset/franka_main/labeled_data/link6/b9_7.csv
index,time,tau_J0,tau_J1,tau_J2,tau_J3,tau_J4,tau_J5,tau_J6,tau_J_d0,tau_J_d1,tau_J_d2,tau_J_d3,tau_J_d4,tau_J_d5,tau_J_d6,tau_ext0,tau_ext1,tau_ext2,tau_ext3,tau_ext4,tau_ext5,tau_ext6,q0,q1,q2,q3,q4,q5,q6,q_d0,q_d1,q_d2,q_d3,q_d4,q_d5,q_d6,dq0,dq1,dq2,dq3,dq4,dq5,dq6,dq_d0,dq_d1,dq_d2,dq_d3,dq_d4,dq_d5,dq_d6,e0,e1,e2,e3,e4,e5,e6,de0,de1,de2,de3,de4,de5,de6,etau_J0,etau_J1,etau_J2,etau_J3,etau_J4,etau_J5,etau_J6,label
1,0.0,-0.3236324191093445,-11.774744033813477,0.9418671131134033,21.741060256958008,0.4745383858680725,2.5335726737976074,-0.32352012395858765,0.0,0.0,0.0,0.0,0.0,0.0,0.0,-0.27843528554794905,0.5127043359720815,-0.18868094256485626,0.47520800256098095,-0.06325568727157782,0.13695169919638,-0.31327383757370136,0.17287039924504463,-0.4874941422270055,-0.11132196639501497,-1.9464024784857765,0.13343716545356413,2.5953963445557484,0.9452610170240363,0.1728802376190821,-0.48752024683155326,-0.11147110072896137,-1.9463801863486305,0.1336059019074957,2.595550359778934,0.9452445589611904,0.00035030346855695235,-0.0011921648756645115,0.0012020231319015873,0.0002412923173849599,-0.00025637907514623385,7.841931654169202e-06,0.0004247070110474566,0.0,0.0,0.0,0.0,0.0,0.0,0.0,9.838374037479669e-06,-2.610460454777197e-05,-0.00014913433394639353,2.2292137145996094e-05,0.00016873645393156167,0.00015401522318558847,-1.645806284589213e-05,-0.00035030346855695235,0.0011921648756645115,-0.0012020231319015873,-0.0002412923173849599,0.00025637907514623385,-7.841931654169202e-06,-0.0004247070110474566,0.3236324191093445,11.774744033813477,-0.9418671131134033,-21.741060256958008,-0.4745383858680725,-2.5335726737976074,0.32352012395858765,0
2,0.005001068115234375,-0.24825400114059448,-11.774744033813477,1.0172455310821533,21.741060256958008,0.4626365303993225,2.5399813652038574,-0.26858848333358765,0.0,0.0,0.0,0.0,0.0,0.0,0.0,-0.2768530507206783,0.49576122476632917,-0.18021727748671948,0.4902628812100416,-0.06426166933091655,0.13971108019122627,-0.314262163511619,0.17286510953150297,-0.4874941422270055,-0.11132663471308289,-1.9464024784857765,0.13343860678875288,2.5953956324789256,0.9452577269724718,0.1728802376190821,-0.48752024683155326,-0.11147110072896137,-1.9463801863486305,0.1336059019074957,2.595550359778934,0.9452445589611904,-0.0009595921638037984,-0.0010056020646797249,-1.4747548319775423e-05,0.000763994117112879,0.0003610830749214547,-0.001219595798951373,-0.0014716116054096895,0.0,0.0,0.0,0.0,0.0,0.0,0.0,1.5128087579141525e-05,-2.610460454777197e-05,-0.00014446601587847496,2.2292137145996094e-05,0.00016729511874280512,0.00015472730000842816,-1.3168011281372571e-05,0.0009595921638037984,0.0010056020646797249,1.4747548319775423e-05,-0.000763994117112879,-0.0003610830749214547,0.001219595798951373,0.0014716116054096895,0.24825400114059448,11.774744033813477,-1.0172455310821533,-21.741060256958008,-0.4626365303993225,-2.5399813652038574,0.26858848333358765,0
3,0.01002049446105957,-0.24825400114059448,-11.774744033813477,1.0172455310821533,21.741060256958008,0.4626365303993225,2.5399813652038574,-0.26858848333358765,0.0,0.0,0.0,0.0,0.0,0.0,0.0,-0.2768530507206783,0.49576122476632917,-0.18021727748671948,0.4902628812100416,-0.06426166933091655,0.13971108019122627,-0.314262163511619,0.17286510953150297,-0.4874941422270055,-0.11132663471308289,-1.9464024784857765,0.13343860678875288,2.5953956324789256,0.9452577269724718,0.1728802376190821,-0.48752024683155326,-0.11147110072896137,-1.9463801863486305,0.1336059019074957,2.595550359778934,0.9452445589611904,-0.0009595921638037984,-0.0010056020646797249,-1.4747548319775423e-05,0.000763994117112879,0.0003610830749214547,-0.001219595798951373,-0.0014716116054096895,0.0,0.0,0.0,0.0,0.0,0.0,0.0,1.5128087579141525e-05,-2.610460454777197e-05,-0.00014446601587847496,2.2292137145996094e-05,0.00016729511874280512,0.00015472730000842816,-1.3168011281372571e-05,0.0009595921638037984,0.0010056020646797249,1.4747548319775423e-05,-0.000763994117112879,-0.0003610830749214547,0.001219595798951373,0.0014716116054096895,0.24825400114059448,11.774744033813477,-1.0172455310821533,-21.741060256958008,-0.4626365303993225,-2.5399813652038574,0.26858848333358765,0
4,0.015030384063720703,-0.2720577120780945,-11.802515029907227,0.9934418201446533,21.792634963989258,0.4745383858680725,2.5335726737976074,-0.30337852239608765,0.0,0.0,0.0,0.0,0.0,0.0,0.0,-0.2744186170814512,0.5107362718054409,-0.1779454682494081,0.4786488117331106,-0.0646639746411172,0.1368297012243467,-0.3134666730941831,0.17286677996735825,-0.48749219338517435,-0.11132513913682385,-1.9464060977634627,0.13343716588760893,2.5953963445557484,0.9452615643507208,0.1728802376190821,-0.48752024683155326,-0.11147110072896137,-1.9463801863486305,0.1336059019074957,2.595550359778934,0.9452445589611904,0.0005074525301885222,-0.0002372209545167565,0.0008096109249810611,-0.0002872084591451614,-0.0002319682076321056,5.452342741465955e-05,6.715160671990231e-05,0.0,0.0,0.0,0.0,0.0,0.0,0.0,1.3457651723863817e-05,-2.8053446378906166e-05,-0.00014596159213751958,2.591141483221371e-05,0.00016873601988676157,0.00015401522318558847,-1.70053895304223e-05,-0.0005074525301885222,0.0002372209545167565,-0.0008096109249810611,0.0002872084591451614,0.0002319682076321056,-5.452342741465955e-05,-6.715160671990231e-05,0.2720577120780945,11.802515029907227,-0.9934418201446533,-21.792634963989258,-0.4745383858680725,-2.5335726737976074,0.30337852239608765,0
5,0.02000713348388672,-0.2720577120780945,-11.802515029907227,0.9934418201446533,21.792634963989258,0.4745383858680725,2.5335726737976074,-0.30337852239608765,0.0,0.0,0.0,0.0,0.0,0.0,0.0,-0.2744186170814512,0.5107362718054409,-0.1779454682494081,0.4786488117331106,-0.0646639746411172,0.1368297012243467,-0.3134666730941831,0.17286677996735825,-0.48749219338517435,-0.11132513913682385,-1.9464060977634627,0.13343716588760893,2.5953963445557484,0.9452615643507208,0.1728802376190821,-0.48752024683155326,-0.11147110072896137,-1.9463801863486305,0.1336059019074957,2.595550359778934,0.9452445589611904,0.0005074525301885222,-0.0002372209545167565,0.0008096109249810611,-0.0002872084591451614,-0.0002319682076321056,5.452342741465955e-05,6.715160671990231e-05,0.0,0.0,0.0,0.0,0.0,0.0,0.0,1.3457651723863817e-05,-2.8053446378906166e-05,-0.00014596159213751958,2.591141483221371e-05,0.00016873601988676157,0.00015401522318558847,-1.70053895304223e-05,-0.0005074525301885222,0.0002372209545167565,-0.0008096109249810611,0.0002872084591451614,0.0002319682076321056,-5.452342741465955e-05,-6.715160671990231e-05,0.2720577120780945,11.802515029907227,-0.9934418201446533,-21.792634963989258,-0.4745383858680725,-2.5335726737976074,0.30337852239608765,0
6,0.02524256706237793,-0.3236324191093445,-11.850122451782227,0.9696381092071533,21.816438674926758,0.4626365303993225,2.5399813652038574,-0.33725303411483765,0.0,0.0,0.0,0.0,0.0,0.0,0.0,-0.282974233176422,0.5007809872219764,-0.19251932140334663,0.4823425335803059,-0.0639402656440702,0.13764246782626613,-0.3137661373067931,0.17287039924504463,-0.4874888525134638,-0.11132323389504517,-1.9464077680943395,0.1334385058669448,2.5953959856916358,0.9452621764077848,0.1728802376190821,-0.48752024683155326,-0.11147110072896137,-1.9463801863486305,0.1336059019074957,2.595550359778934,0.9452445589611904,0.0011460114891001377,-0.0003210783843512973,0.0007225659224445608,-0.0007445387916661857,0.00038485753263349477,0.000153663583852565,0.00118793109570512,0.0,0.0,0.0,0.0,0.0,0.0,0.0,9.838374037479669e-06,-3.139431808946158e-05,-0.00014786683391619648,2.7581745708937788e-05,0.0001673960405508823,0.00015437408729823687,-1.761744659434239e-05,-0.0011460114891001377,0.0003210783843512973,-0.0007225659224445608,0.0007445387916661857,-0.00038485753263349477,-0.000153663583852565,-0.00118793109570512,0.3236324191093445,11.850122451782227,-0.9696381092071533,-21.816438674926758,-0.4626365303993225,-2.5399813652038574,0.33725303411483765,0
7,0.03000497817993164,-0.3236324191093445,-11.850122451782227,0.9696381092071533,21.816438674926758,0.4626365303993225,2.5399813652038574,-0.33725303411483765,0.0,0.0,0.0,0.0,0.0,0.0,0.0,-0.282974233176422,0.5007809872219764,-0.19251932140334663,0.4823425335803059,-0.0639402656440702,0.13764246782626613,-0.3137661373067931,0.17287039924504463,-0.4874888525134638,-0.11132323389504517,-1.9464077680943395,0.1334385058669448,2.5953959856916358,0.9452621764077848,0.1728802376190821,-0.48752024683155326,-0.11147110072896137,-1.9463801863486305,0.1336059019074957,2.595550359778934,0.9452445589611904,0.0011460114891001377,-0.0003210783843512973,0.0007225659224445608,-0.0007445387916661857,0.00038485753263349477,0.000153663583852565,0.00118793109570512,0.0,0.0,0.0,0.0,0.0,0.0,0.0,9.838374037479669e-06,-3.139431808946158e-05,-0.00014786683391619648,2.7581745708937788e-05,0.0001673960405508823,0.00015437408729823687,-1.761744659434239e-05,-0.0011460114891001377,0.0003210783843512973,-0.0007225659224445608,0.0007445387916661857,-0.00038485753263349477,-0.000153663583852565,-0.00118793109570512,0.3236324191093445,11.850122451782227,-0.9696381092071533,-21.816438674926758,-0.4626365303993225,-2.5399813652038574,0.33725303411483765,0
8,0.035004615783691406,-0.2998287081718445,-11.826318740844727,0.9934418201446533,21.741060256958008,0.4626365303993225,2.5537142753601074,-0.29605430364608765,0.0,0.0,0.0,0.0,0.0,0.0,0.0,-0.28151526476579775,0.5018093108150435,-0.18599719129480283,0.4790723496539384,-0.06420528147163625,0.13803282994082866,-0.31489466809947414,0.17286872880918938,-0.4874905229493191,-0.11132511289081883,-1.9464024784857759,0.13343848782787968,2.595394106602013,0.945257478072265,0.1728802376190821,-0.48752024683155326,-0.11147110072896137,-1.9463801863486305,0.1336059019074957,2.595550359778934,0.9452445589611904,-0.0005740866972132972,-0.0008752105353769906,0.0003386368455328841,0.0006457070010529271,0.0002892062272464751,-0.0003433969253140099,-0.0008130973666268109,0.0,0.0,0.0,0.0,0.0,0.0,0.0,1.1508809892729621e-05,-2.9723882234156118e-05,-0.00014598783814254168,2.229213714532996e-05,0.00016741407961601285,0.00015625317692080642,-1.2919111074594092e-05,0.0005740866972132972,0.0008752105353769906,-0.0003386368455328841,-0.0006457070010529271,-0.0002892062272464751,0.0003433969253140099,0.0008130973666268109,0.2998287081718445,11.826318740844727,-0.9934418201446533,-21.741060256958008,-0.4626365303993225,-2.5537142753601074,0.29605430364608765,0
9,0.039998769760131836,-0.2998287081718445,-11.826318740844727,0.9934418201446533,21.741060256958008,0.4626365303993225,2.5537142753601074,-0.29605430364608765,0.0,0.0,0.0,0.0,0.0,0.0,0.0,-0.28151526476579775,0.5018093108150435,-0.18599719129480283,0.4790723496539384,-0.06420528147163625,0.13803282994082866,-0.31489466809947414,0.17286872880918938,-0.4874905229493191,-0.11132511289081883,-1.9464024784857759,0.13343848782787968,2.595394106602013,0.945257478072265,0.1728802376190821,-0.48752024683155326,-0.11147110072896137,-1.9463801863486305,0.1336059019074957,2.595550359778934,0.9452445589611904,-0.0005740866972132972,-0.0008752105353769906,0.0003386368455328841,0.0006457070010529271,0.0002892062272464751,-0.0003433969253140099,-0.0008130973666268109,0.0,0.0,0.0,0.0,0.0,0.0,0.0,1.1508809892729621e-05,-2.9723882234156118e-05,-0.00014598783814254168,2.229213714532996e-05,0.00016741407961601285,0.00015625317692080642,-1.2919111074594092e-05,0.0005740866972132972,0.0008752105353769906,-0.0003386368455328841,-0.0006457070010529271,-0.0002892062272464751,0.0003433969253140099,0.0008130973666268109,0.2998287081718445,11.826318740844727,-0.9934418201446533,-21.741060256958008,-0.4626365303993225,-2.5537142753601074,0.29605430364608765,0
10,0.04500126838684082,-0.2720577120780945,-11.826318740844727,1.0172455310821533,21.768831253051758,0.4745383858680725,2.5463900566101074,-0.32352012395858765,0.0,0.0,0.0,0.0,0.0,0.0,0.0,-0.28135713393022854,0.5186396208343108,-0.18387318881309087,0.46890675276687316,-0.06400037951841758,0.137662651432707,-0.31585589046500184,0.17286677996735825,-0.4874905229493191,-0.11132654808891346,-1.9464044273276075,0.1334382711514033,2.595394920402103,0.9452605700563992,0.1728802376190821,-0.48752024683155326,-0.11147110072896137,-1.9463801863486305,0.1336059019074957,2.595550359778934,0.9452445589611904,-0.00015344267850179408,0.0005355760569901092,-0.0009916495818011162,5.2966280838811266e-05,-0.0001806700562023539,-0.00019037230113304313,0.001280283719086834,0.0,0.0,0.0,0.0,0.0,0.0,0.0,1.3457651723863817e-05,-2.9723882234156118e-05,-0.00014455264004790969,2.4240978977019267e-05,0.0001676307560923851,0.00015543937683082376,-1.6011095208767756e-05,0.00015344267850179408,-0.0005355760569901092,0.0009916495818011162,-5.2966280838811266e-05,0.0001806700562023539,0.00019037230113304313,-0.001280283719086834,0.2720577120780945,11.826318740844727,-1.0172455310821533,-21.768831253051758,-0.4745383858680725,-2.5463900566101074,0.32352012395858765,0
11,0.05000138282775879,-0.2720577120780945,-11.826318740844727,1.0172455310821533,21.768831253051758,0.4745383858680725,2.5463900566101074,-0.32352012395858765,0.0,0.0,0.0,0.0,0.0,0.0,0.0,-0.28135713393022854,0.5186396208343108,-0.18387318881309087,0.46890675276687316,-0.06400037951841758,0.137662651432707,-0.31585589046500184,0.17286677996735825,-0.4874905229493191,-0.11132654808891346,-1.9464044273276075,0.1334382711514033,2.595394920402103,0.9452605700563992,0.1728802376190821,-0.48752024683155326,-0.11147110072896137,-1.9463801863486305,0.1336059019074957,2.595550359778934,0.9452445589611904,-0.00015344267850179408,0.0005355760569901092,-0.0009916495818011162,5.2966280838811266e-05,-0.0001806700562023539,-0.00019037230113304313,0.001280283719086834,0.0,0.0,0.0,0.0,0.0,0.0,0.0,1.3457651723863817e-05,-2.9723882234156118e-05,-0.00014455264004790969,2.4240978977019267e-05,0.0001676307560923851,0.00015543937683082376,-1.6011095208767756e-05,0.00015344267850179408,-0.0005355760569901092,0.0009916495818011162,-5.2966280838811266e-05,0.0001806700562023539,0.00019037230113304313,-0.001280283719086834,0.2720577120780945,11.826318740844727,-1.0172455310821533,-21.768831253051758,-0.4745383858680725,-2.5463900566101074,0.32352012395858765,0
12,0.055004119873046875,-0.2998287081718445,-11.750940322875977,0.9696381092071533,21.768831253051758,0.4745383858680725,2.5399813652038574,-0.34457725286483765,0.0,0.0,0.0,0.0,0.0,0.0,0.0,-0.2791914740252512,0.5132655666280512,-0.1823121914513932,0.47269988489359327,-0.06394732403757639,0.1396493396678515,-0.31498426175661637,0.17286880791411915,-0.48749580974667556,-0.11132557746238836,-1.9464044273276075,0.1334371655681494,2.595395632478926,0.9452628710556829,0.1728802376190821,-0.48752024683155326,-0.11147110072896137,-1.9463801863486305,0.1336059019074957,2.595550359778934,0.9452445589611904,0.00024406355041317292,-0.001084701904300049,0.0012567351129217036,-0.00023636442353221072,-0.00012023329411859878,0.00017933128608779375,0.0014020128904356402,0.0,0.0,0.0,0.0,0.0,0.0,0.0,1.1429704962956366e-05,-2.443708487770424e-05,-0.0001455232665730083,2.4240978977019267e-05,0.00016873633934627597,0.00015472730000798407,-1.8312094492434206e-05,-0.00024406355041317292,0.001084701904300049,-0.0012567351129217036,0.00023636442353221072,0.00012023329411859878,-0.00017933128608779375,-0.0014020128904356402,0.2998287081718445,11.750940322875977,-0.9696381092071533,-21.768831253051758,-0.4745383858680725,-2.5399813652038574,0.34457725286483765,0
13,0.060003042221069336,-0.2998287081718445,-11.750940322875977,0.9696381092071533,21.768831253051758,0.4745383858680725,2.5399813652038574,-0.34457725286483765,0.0,0.0,0.0,0.0,0.0,0.0,0.0,-0.2791914740252512,0.5132655666280512,-0.1823121914513932,0.47269988489359327,-0.06394732403757639,0.1396493396678515,-0.31498426175661637,0.17286880791411915,-0.48749580974667556,-0.11132557746238836,-1.9464044273276075,0.1334371655681494,2.595395632478926,0.9452628710556829,0.1728802376190821,-0.48752024683155326,-0.11147110072896137,-1.9463801863486305,0.1336059019074957,2.595550359778934,0.9452445589611904,0.00024406355041317292,-0.001084701904300049,0.0012567351129217036,-0.00023636442353221072,-0.00012023329411859878,0.00017933128608779375,0.0014020128904356402,0.0,0.0,0.0,0.0,0.0,0.0,0.0,1.1429704962956366e-05,-2.443708487770424e-05,-0.0001455232665730083,2.4240978977019267e-05,0.00016873633934627597,0.00015472730000798407,-1.8312094492434206e-05,-0.00024406355041317292,0.001084701904300049,-0.0012567351129217036,0.00023636442353221072,0.00012023329411859878,-0.00017933128608779375,-0.0014020128904356402,0.2998287081718445,11.750940322875977,-0.9696381092071533,-21.768831253051758,-0.4745383858680725,-2.5399813652038574,0.34457725286483765,0
14,0.0650019645690918,-0.2720577120780945,-11.774744033813477,1.0172455310821533,21.741060256958008,0.4626365303993225,2.5399813652038574,-0.28232139348983765,0.0,0.0,0.0,0.0,0.0,0.0,0.0,-0.2788830066195669,0.5280276034032579,-0.1822581527208049,0.46295498130271945,-0.06356942931596718,0.13777964212534888,-0.3154361721964543,0.17286677996780478,-0.487494142226989,-0.11132736171663116,-1.946402477540969,0.13343852899824366,2.595395632478926,0.9452564355788957,0.1728802376190821,-0.48752024683155326,-0.11147110072896137,-1.9463801863486305,0.1336059019074957,2.595550359778934,0.9452445589611904,-0.00043019933255583875,-0.00010028638331544943,0.00017270224473148212,0.00020926498647243439,0.00045212282542211483,0.0021962180298526453,-0.0012220536001049053,0.0,0.0,0.0,0.0,0.0,0.0,0.0,1.3457651277332117e-05,-2.6104604564258782e-05,-0.00014373901233021014,2.2291192338430577e-05,0.00016737290925203374,0.00015472730000798407,-1.1876617705297576e-05,0.00043019933255583875,0.00010028638331544943,-0.00017270224473148212,-0.00020926498647243439,-0.00045212282542211483,-0.0021962180298526453,0.0012220536001049053,0.2720577120780945,11.774744033813477,-1.0172455310821533,-21.741060256958008,-0.4626365303993225,-2.5399813652038574,0.28232139348983765,0
15,0.07000088691711426,-0.2720577120780945,-11.774744033813477,1.0172455310821533,21.741060256958008,0.4626365303993225,2.5399813652038574,-0.28232139348983765,0.0,0.0,0.0,0.0,0.0,0.0,0.0,-0.2788830066195669,0.5280276034032579,-0.1822581527208049,0.46295498130271945,-0.06356942931596718,0.13777964212534888,-0.3154361721964543,0.17286677996780478,-0.487494142226989,-0.11132736171663116,-1.946402477540969,0.13343852899824366,2.595395632478926,0.9452564355788957,0.1728802376190821,-0.48752024683155326,-0.11147110072896137,-1.9463801863486305,0.1336059019074957,2.595550359778934,0.9452445589611904,-0.00043019933255583875,-0.00010028638331544943,0.00017270224473148212,0.00020926498647243439,0.00045212282542211483,0.0021962180298526453,-0.0012220536001049053,0.0,0.0,0.0,0.0,0.0,0.0,0.0,1.3457651277332117e-05,-2.6104604564258782e-05,-0.00014373901233021014,2.2291192338430577e-05,0.00016737290925203374,0.00015472730000798407,-1.1876617705297576e-05,0.00043019933255583875,0.00010028638331544943,-0.00017270224473148212,-0.00020926498647243439,-0.00045212282542211483,-0.0021962180298526453,0.0012220536001049053,0.2720577120780945,11.774744033813477,-1.0172455310821533,-21.741060256958008,-0.4626365303993225,-2.5399813652038574,0.28232139348983765,0
16,0.0750126838684082,-0.2720577120780945,-11.774744033813477,1.0172455310821533,21.741060256958008,0.4626365303993225,2.5399813652038574,-0.28232139348983765,0.0,0.0,0.0,0.0,0.0,0.0,0.0,-0.2788830066195669,0.5280276034032579,-0.1822581527208049,0.46295498130271945,-0.06356942931596718,0.13777964212534888,-0.3154361721964543,0.17286677996780478,-0.487494142226989,-0.11132736171663116,-1.946402477540969,0.13343852899824366,2.595395632478926,0.9452564355788957,0.1728802376190821,-0.48752024683155326,-0.11147110072896137,-1.9463801863486305,0.1336059019074957,2.595550359778934,0.9452445589611904,-0.00043019933255583875,-0.00010028638331544943,0.00017270224473148212,0.00020926498647243439,0.00045212282542211483,0.0021962180298526453,-0.0012220536001049053,0.0,0.0,0.0,0.0,0.0,0.0,0.0,1.3457651277332117e-05,-2.6104604564258782e-05,-0.00014373901233021014,2.2291192338430577e-05,0.00016737290925203374,0.00015472730000798407,-1.1876617705297576e-05,0.00043019933255583875,0.00010028638331544943,-0.00017270224473148212,-0.00020926498647243439,-0.00045212282542211483,-0.0021962180298526453,0.0012220536001049053,0.2720577120780945,11.774744033813477,-1.0172455310821533,-21.741060256958008,-0.4626365303993225,-2.5399813652038574,0.28232139348983765,0
17,0.08002090454101562,-0.2720577120780945,-11.802515029907227,1.0410492420196533,21.792634963989258,0.4809470772743225,2.5463900566101074,-0.26858848333358765,0.0,0.0,0.0,0.0,0.0,0.0,0.0,-0.2798557910063474,0.517698500029231,-0.18162359092272687,0.47656663045566583,-0.06325611459714181,0.14110161013580536,-0.3158683247392485,0.17286677996735825,-0.48749219338517435,-0.11132821856403603,-1.9464060977634574,0.13344000757986577,2.595394920402103,0.9452545605720533,0.1728802376190821,-0.48752024683155326,-0.11147110072896137,-1.9463801863486305,0.1336059019074957,2.595550359778934,0.9452445589611904,-7.695956212723502e-05,0.0004473340425465644,-9.42613479952595e-05,-0.00041097380362348516,-0.0003232905720110751,-0.00024376392349782149,-0.0017722483879154404,0.0,0.0,0.0,0.0,0.0,0.0,0.0,1.3457651723863817e-05,-2.8053446378906166e-05,-0.00014288216492533423,2.5911414826884638e-05,0.00016589432762992296,0.00015543937683082376,-1.0001610862842014e-05,7.695956212723502e-05,-0.0004473340425465644,9.42613479952595e-05,0.00041097380362348516,0.0003232905720110751,0.00024376392349782149,0.0017722483879154404,0.2720577120780945,11.802515029907227,-1.0410492420196533,-21.792634963989258,-0.4809470772743225,-2.5463900566101074,0.26858848333358765,0
18,0.0850057601928711,-0.2720577120780945,-11.802515029907227,1.0410492420196533,21.792634963989258,0.4809470772743225,2.5463900566101074,-0.26858848333358765,0.0,0.0,0.0,0.0,0.0,0.0,0.0,-0.2798557910063474,0.517698500029231,-0.18162359092272687,0.47656663045566583,-0.06325611459714181,0.14110161013580536,-0.3158683247392485,0.17286677996735825,-0.48749219338517435,-0.11132821856403603,-1.9464060977634574,0.13344000757986577,2.595394920402103,0.9452545605720533,0.1728802376190821,-0.48752024683155326,-0.11147110072896137,-1.9463801863486305,0.1336059019074957,2.595550359778934,0.9452445589611904,-7.695956212723502e-05,0.0004473340425465644,-9.42613479952595e-05,-0.00041097380362348516,-0.0003232905720110751,-0.00024376392349782149,-0.0017722483879154404,0.0,0.0,0.0,0.0,0.0,0.0,0.0,1.3457651723863817e-05,-2.8053446378906166e-05,-0.00014288216492533423,2.5911414826884638e-05,0.00016589432762992296,0.00015543937683082376,-1.0001610862842014e-05,7.695956212723502e-05,-0.0004473340425465644,9.42613479952595e-05,0.00041097380362348516,0.0003232905720110751,0.00024376392349782149,0.0017722483879154404,0.2720577120780945,11.802515029907227,-1.0410492420196533,-21.792634963989258,-0.4809470772743225,-2.5463900566101074,0.26858848333358765,0
19,0.09001708030700684,-0.2720577120780945,-11.774744033813477,1.0172455310821533,21.768831253051758,0.4745383858680725,2.5463900566101074,-0.31711143255233765,0.0,0.0,0.0,0.0,0.0,0.0,0.0,-0.28059523174912454,0.5075958589577227,-0.18469454377150146,0.4843859779029386,-0.06269973223118777,0.14153988435235137,-0.3156718467251626,0.17286677996735825,-0.4874941422270055,-0.11132663460107946,-1.9464044273276075,0.1334371654194563,2.595394920402103,0.945260300642911,0.1728802376190821,-0.48752024683155326,-0.11147110072896137,-1.9463801863486305,0.1336059019074957,2.595550359778934,0.9452445589611904,0.00020422421796839705,-0.001189061708210978,-0.0003245553601460166,-0.00013845913032410853,-4.186264842792717e-05,-0.00016798893379686394,0.0006120943453785158,0.0,0.0,0.0,0.0,0.0,0.0,0.0,1.3457651723863817e-05,-2.610460454777197e-05,-0.00014446612788190927,2.4240978977019267e-05,0.00016873648803938934,0.00015543937683082376,-1.5741681720582434e-05,-0.00020422421796839705,0.001189061708210978,0.0003245553601460166,0.00013845913032410853,4.186264842792717e-05,0.00016798893379686394,-0.0006120943453785158,0.2720577120780945,11.774744033813477,-1.0172455310821533,-21.768831253051758,-0.4745383858680725,-2.5463900566101074,0.31711143255233765,0
20,0.0950016975402832,-0.2720577120780945,-11.774744033813477,1.0172455310821533,21.768831253051758,0.4745383858680725,2.5463900566101074,-0.31711143255233765,0.0,0.0,0.0,0.0,0.0,0.0,0.0,-0.28059523174912454,0.5075958589577227,-0.18469454377150146,0.4843859779029386,-0.06269973223118777,0.14153988435235137,-0.3156718467251626,0.17286677996735825,-0.4874941422270055,-0.11132663460107946,-1.9464044273276075,0.1334371654194563,2.595394920402103,0.945260300642911,0.1728802376190821,-0.48752024683155326,-0.11147110072896137,-1.9463801863486305,0.1336059019074957,2.595550359778934,0.9452445589611904,0.00020422421796839705,-0.001189061708210978,-0.0003245553601460166,-0.00013845913032410853,-4.186264842792717e-05,-0.00016798893379686394,0.0006120943453785158,0.0,0.0,0.0,0.0,0.0,0.0,0.0,1.3457651723863817e-05,-2.610460454777197e-05,-0.00014446612788190927,2.4240978977019267e-05,0.00016873648803938934,0.00015543937683082376,-1.5741681720582434e-05,-0.00020422421796839705,0.001189061708210978,0.0003245553601460166,0.00013845913032410853,4.186264842792717e-05,0.00016798893379686394,-0.0006120943453785158,0.2720577120780945,11.774744033813477,-1.0172455310821533,-21.768831253051758,-0.4745383858680725,-2.5463900566101074,0.31711143255233765,0
21,0.10000085830688477,-0.2720577120780945,-11.774744033813477,1.0172455310821533,21.768831253051758,0.4745383858680725,2.5463900566101074,-0.31711143255233765,0.0,0.0,0.0,0.0,0.0,0.0,0.0,-0.28059523174912454,0.5075958589577227,-0.18469454377150146,0.4843859779029386,-0.06269973223118777,0.14153988435235137,-0.3156718467251626,0.17286677996735825,-0.4874941422270055,-0.11132663460107946,-1.9464044273276075,0.1334371654194563,2.595394920402103,0.945260300642911,0.1728802376190821,-0.48752024683155326,-0.11147110072896137,-1.9463801863486305,0.1336059019074957,2.595550359778934,0.9452445589611904,0.00020422421796839705,-0.001189061708210978,-0.0003245553601460166,-0.00013845913032410853,-4.186264842792717e-05,-0.00016798893379686394,0.0006120943453785158,0.0,0.0,0.0,0.0,0.0,0.0,0.0,1.3457651723863817e-05,-2.610460454777197e-05,-0.00014446612788190927,2.4240978977019267e-05,0.00016873648803938934,0.00015543937683082376,-1.5741681720582434e-05,-0.00020422421796839705,0.001189061708210978,0.0003245553601460166,0.00013845913032410853,4.186264842792717e-05,0.00016798893379686394,-0.0006120943453785158,0.2720577120780945,11.774744033813477,-1.0172455310821533,-21.768831253051758,-0.4745383858680725,-2.5463900566101074,0.31711143255233765,0
22,0.10500192642211914,-0.2720577120780945,-11.774744033813477,1.0172455310821533,21.768831253051758,0.4745383858680725,2.5463900566101074,-0.31711143255233765,0.0,0.0,0.0,0.0,0.0,0.0,0.0,-0.28059523174912454,0.5075958589577227,-0.18469454377150146,0.4843859779029386,-0.06269973223118777,0.14153988435235137,-0.3156718467251626,0.17286677996735825,-0.4874941422270055,-0.11132663460107946,-1.9464044273276075,0.1334371654194563,2.595394920402103,0.945260300642911,0.1728802376190821,-0.48752024683155326,-0.11147110072896137,-1.9463801863486305,0.1336059019074957,2.595550359778934,0.9452445589611904,0.00020422421796839705,-0.001189061708210978,-0.0003245553601460166,-0.00013845913032410853,-4.186264842792717e-05,-0.00016798893379686394,0.0006120943453785158,0.0,0.0,0.0,0.0,0.0,0.0,0.0,1.3457651723863817e-05,-2.610460454777197e-05,-0.00014446612788190927,2.4240978977019267e-05,0.00016873648803938934,0.00015543937683082376,-1.5741681720582434e-05,-0.00020422421796839705,0.001189061708210978,0.0003245553601460166,0.00013845913032410853,4.186264842792717e-05,0.00016798893379686394,-0.0006120943453785158,0.2720577120780945,11.774744033813477,-1.0172455310821533,-21.768831253051758,-0.4745383858680725,-2.5463900566101074,0.31711143255233765,0
23,0.11146354675292969,-0.3514034152030945,-11.802515029907227,0.9696381092071533,21.792634963989258,0.4745383858680725,2.5335726737976074,-0.30337852239608765,0.0,0.0,0.0,0.0,0.0,0.0,0.0,-0.2826601230116621,0.5067771214830069,-0.19058005224146352,0.48426676733806795,-0.06237523216551624,0.14168656069035027,-0.3166173275220573,0.17287242719180557,-0.48749219338517435,-0.11132320919648912,-1.946406097658484,0.1334371660494525,2.595396344555749,0.9452588287330633,0.1728802376190821,-0.48752024683155326,-0.11147110072896137,-1.9463801863486305,0.1336059019074957,2.595550359778934,0.9452445589611904,0.0012547533815717804,-0.000770121740773122,0.0006222074523785326,-0.0006863244372583606,-8.55717197635837e-05,0.00024539723751313645,-0.0001511266817964518,0.0,0.0,0.0,0.0,0.0,0.0,0.0,7.810427276544463e-06,-2.8053446378906166e-05,-0.00014789153247224407,2.5911309853521303e-05,0.00016873585804319524,0.00015401522318514438,-1.426977187291012e-05,-0.0012547533815717804,0.000770121740773122,-0.0006222074523785326,0.0006863244372583606,8.55717197635837e-05,-0.00024539723751313645,0.0001511266817964518,0.3514034152030945,11.802515029907227,-0.9696381092071533,-21.792634963989258,-0.4745383858680725,-2.5335726737976074,0.30337852239608765,0
24,0.11499929428100586,-0.3514034152030945,-11.802515029907227,0.9696381092071533,21.792634963989258,0.4745383858680725,2.5335726737976074,-0.30337852239608765,0.0,0.0,0.0,0.0,0.0,0.0,0.0,-0.2826601230116621,0.5067771214830069,-0.19058005224146352,0.48426676733806795,-0.06237523216551624,0.14168656069035027,-0.3166173275220573,0.17287242719180557,-0.48749219338517435,-0.11132320919648912,-1.946406097658484,0.1334371660494525,2.595396344555749,0.9452588287330633,0.1728802376190821,-0.48752024683155326,-0.11147110072896137,-1.9463801863486305,0.1336059019074957,2.595550359778934,0.9452445589611904,0.0012547533815717804,-0.000770121740773122,0.0006222074523785326,-0.0006863244372583606,-8.55717197635837e-05,0.00024539723751313645,-0.0001511266817964518,0.0,0.0,0.0,0.0,0.0,0.0,0.0,7.810427276544463e-06,-2.8053446378906166e-05,-0.00014789153247224407,2.5911309853521303e-05,0.00016873585804319524,0.00015401522318514438,-1.426977187291012e-05,-0.0012547533815717804,0.000770121740773122,-0.0006222074523785326,0.0006863244372583606,8.55717197635837e-05,-0.00024539723751313645,0.0001511266817964518,0.3514034152030945,11.802515029907227,-0.9696381092071533,-21.792634963989258,-0.4745383858680725,-2.5335726737976074,0.30337852239608765,0
25,0.12000226974487305,-0.22445029020309448,-11.802515029907227,1.0172455310821533,21.768831253051758,0.4690452218055725,2.5399813652038574,-0.33084434270858765,0.0,0.0,0.0,0.0,0.0,0.0,0.0,-0.27476262724145695,0.5208771751443478,-0.1769483641222243,0.4750505689037663,-0.06350437173169608,0.13887291036015553,-0.31714964599999573,0.17286344202590648,-0.48749219338517435,-0.11132725675659799,-1.9464044273276069,0.13344098769727597,2.595395632478926,0.9452613481041771,0.1728802376190821,-0.48752024683155326,-0.11147110072896137,-1.9463801863486305,0.1336059019074957,2.595550359778934,0.9452445589611904,-0.00115008183991349,-0.00033673492788013513,-5.161943226137089e-05,-0.0002292251400299936,0.00012600663494223262,-9.792351396307455e-05,0.0012039630601468677,0.0,0.0,0.0,0.0,0.0,0.0,0.0,1.6795593175633616e-05,-2.8053446378906166e-05,-0.00014384397236337498,2.4240978976353134e-05,0.00016491421021971875,0.00015472730000798407,-1.6789142986639582e-05,0.00115008183991349,0.00033673492788013513,5.161943226137089e-05,0.0002292251400299936,-0.00012600663494223262,9.792351396307455e-05,-0.0012039630601468677,0.22445029020309448,11.802515029907227,-1.0172455310821533,-21.768831253051758,-0.4690452218055725,-2.5399813652038574,0.33084434270858765,0
26,0.12500214576721191,-0.22445029020309448,-11.802515029907227,1.0172455310821533,21.768831253051758,0.4690452218055725,2.5399813652038574,-0.33084434270858765,0.0,0.0,0.0,0.0,0.0,0.0,0.0,-0.27476262724145695,0.5208771751443478,-0.1769483641222243,0.4750505689037663,-0.06350437173169608,0.13887291036015553,-0.31714964599999573,0.17286344202590648,-0.48749219338517435,-0.11132725675659799,-1.9464044273276069,0.13344098769727597,2.595395632478926,0.9452613481041771,0.1728802376190821,-0.48752024683155326,-0.11147110072896137,-1.9463801863486305,0.1336059019074957,2.595550359778934,0.9452445589611904,-0.00115008183991349,-0.00033673492788013513,-5.161943226137089e-05,-0.0002292251400299936,0.00012600663494223262,-9.792351396307455e-05,0.0012039630601468677,0.0,0.0,0.0,0.0,0.0,0.0,0.0,1.6795593175633616e-05,-2.8053446378906166e-05,-0.00014384397236337498,2.4240978976353134e-05,0.00016491421021971875,0.00015472730000798407,-1.6789142986639582e-05,0.00115008183991349,0.00033673492788013513,5.161943226137089e-05,0.0002292251400299936,-0.00012600663494223262,9.792351396307455e-05,-0.0012039630601468677,0.22445029020309448,11.802515029907227,-1.0172455310821533,-21.768831253051758,-0.4690452218055725,-2.5399813652038574,0.33084434270858765,0
27,0.1300036907196045,-0.2720577120780945,-11.826318740844727,1.0172455310821533,21.741060256958008,0.4690452218055725,2.5271639823913574,-0.33725303411483765,0.0,0.0,0.0,0.0,0.0,0.0,0.0,-0.2777162043191737,0.5081146265028291,-0.18313982570539972,0.4811569510990447,-0.06367822625900532,0.13892448446636596,-0.31814022705566736,0.17286677996737476,-0.4874905229493191,-0.11132657631737836,-1.9464024784857765,0.13343777576908647,2.5953970566325717,0.9452633027454224,0.1728802376190821,-0.48752024683155326,-0.11147110072896137,-1.9463801863486305,0.1336059019074957,2.595550359778934,0.9452445589611904,0.00023373895192179165,-2.6976805173007305e-05,-0.00011479937701662117,0.0005919245175985478,-4.0199903203464574e-05,0.0002762632198936629,0.0012112378802738308,0.0,0.0,0.0,0.0,0.0,0.0,0.0,1.345765170734925e-05,-2.9723882234156118e-05,-0.00014452441158301077,2.2292137145996094e-05,0.0001681261384092192,0.0001533031463623047,-1.8743784231944893e-05,-0.00023373895192179165,2.6976805173007305e-05,0.00011479937701662117,-0.0005919245175985478,4.0199903203464574e-05,-0.0002762632198936629,-0.0012112378802738308,0.2720577120780945,11.826318740844727,-1.0172455310821533,-21.741060256958008,-0.4690452218055725,-2.5271639823913574,0.33725303411483765,0
28,0.13500118255615234,-0.2720577120780945,-11.826318740844727,1.0172455310821533,21.741060256958008,0.4690452218055725,2.5271639823913574,-0.33725303411483765,0.0,0.0,0.0,0.0,0.0,0.0,0.0,-0.2777162043191737,0.5081146265028291,-0.18313982570539972,0.4811569510990447,-0.06367822625900532,0.13892448446636596,-0.31814022705566736,0.17286677996737476,-0.4874905229493191,-0.11132657631737836,-1.9464024784857765,0.13343777576908647,2.5953970566325717,0.9452633027454224,0.1728802376190821,-0.48752024683155326,-0.11147110072896137,-1.9463801863486305,0.1336059019074957,2.595550359778934,0.9452445589611904,0.00023373895192179165,-2.6976805173007305e-05,-0.00011479937701662117,0.0005919245175985478,-4.0199903203464574e-05,0.0002762632198936629,0.0012112378802738308,0.0,0.0,0.0,0.0,0.0,0.0,0.0,1.345765170734925e-05,-2.9723882234156118e-05,-0.00014452441158301077,2.2292137145996094e-05,0.0001681261384092192,0.0001533031463623047,-1.8743784231944893e-05,-0.00023373895192179165,2.6976805173007305e-05,0.00011479937701662117,-0.0005919245175985478,4.0199903203464574e-05,-0.0002762632198936629,-0.0012112378802738308,0.2720577120780945,11.826318740844727,-1.0172455310821533,-21.741060256958008,-0.4690452218055725,-2.5271639823913574,0.33725303411483765,0
29,0.14026331901550293,-0.2998287081718445,-11.826318740844727,1.0172455310821533,21.768831253051758,0.4809470772743225,2.5399813652038574,-0.26858848333358765,0.0,0.0,0.0,0.0,0.0,0.0,0.0,-0.28178827341814267,0.5066092571543483,-0.19240841205774512,0.4811684201180893,-0.0638356581789691,0.137982679973993,-0.3190905256644561,0.17286872880918938,-0.4874905229493191,-0.11132654808774489,-1.9464044273276075,0.1334365059774273,2.595395632478926,0.9452591462891694,0.1728802376190821,-0.48752024683155326,-0.11147110072896137,-1.9463801863486305,0.1336059019074957,2.595550359778934,0.9452445589611904,0.00038882952113683826,-0.0002525144036868307,-0.0005589312410224635,0.00016287896673967413,-0.00036746228617358433,2.564388759797671e-05,-0.0016669090614500907,0.0,0.0,0.0,0.0,0.0,0.0,0.0,1.1508809892729621e-05,-2.9723882234156118e-05,-0.00014455264121647493,2.4240978977019267e-05,0.00016939593006840004,0.00015472730000798407,-1.4587327978987652e-05,-0.00038882952113683826,0.0002525144036868307,0.0005589312410224635,-0.00016287896673967413,0.00036746228617358433,-2.564388759797671e-05,0.0016669090614500907,0.2998287081718445,11.826318740844727,-1.0172455310821533,-21.768831253051758,-0.4809470772743225,-2.5399813652038574,0.26858848333358765,0
30,0.14500880241394043,-0.2998287081718445,-11.826318740844727,1.0172455310821533,21.768831253051758,0.4809470772743225,2.5399813652038574,-0.26858848333358765,0.0,0.0,0.0,0.0,0.0,0.0,0.0,-0.28178827341814267,0.5066092571543483,-0.19240841205774512,0.4811684201180893,-0.0638356581789691,0.137982679973993,-0.3190905256644561,0.17286872880918938,-0.4874905229493191,-0.11132654808774489,-1.9464044273276075,0.1334365059774273,2.595395632478926,0.9452591462891694,0.1728802376190821,-0.48752024683155326,-0.11147110072896137,-1.9463801863486305,0.1336059019074957,2.595550359778934,0.9452445589611904,0.00038882952113683826,-0.0002525144036868307,-0.0005589312410224635,0.00016287896673967413,-0.00036746228617358433,2.564388759797671e-05,-0.0016669090614500907,0.0,0.0,0.0,0.0,0.0,0.0,0.0,1.1508809892729621e-05,-2.9723882234156118e-05,-0.00014455264121647493,2.4240978977019267e-05,0.00016939593006840004,0.00015472730000798407,-1.4587327978987652e-05,-0.00038882952113683826,0.0002525144036868307,0.0005589312410224635,-0.00016287896673967413,0.00036746228617358433,-2.564388759797671e-05,0.0016669090614500907,0.2998287081718445,11.826318740844727,-1.0172455310821533,-21.768831253051758,-0.4809470772743225,-2.5399813652038574,0.26858848333358765,0
31,0.15001440048217773,-0.3236324191093445,-11.850122451782227,0.9934418201446533,21.768831253051758,0.4690452218055725,2.5537142753601074,-0.26858848333358765,0.0,0.0,0.0,0.0,0.0,0.0,0.0,-0.2768201470961519,0.49888306847301944,-0.18434828214230928,0.48199949563928424,-0.06411179012035956,0.13791516010928065,-0.31752258079319173,0.17287039924504463,-0.4874888525134638,-0.1113249583328646,-1.9464044244931846,0.1334410145131378,2.5953941066000197,0.9452544800297084,0.1728802376190821,-0.48752024683155326,-0.11147110072896137,-1.9463801863486305,0.1336059019074957,2.595550359778934,0.9452445589611904,0.0010392764471679747,-8.075922638124002e-05,0.0003359514386484109,-0.0003580720649219853,0.00020600188441132083,-0.0007164902061135192,-0.0013144532931824964,0.0,0.0,0.0,0.0,0.0,0.0,0.0,9.838374037479669e-06,-3.139431808946158e-05,-0.00014614239609676838,2.423814455410067e-05,0.00016488739435788213,0.0001562531789143229,-9.921068517937393e-06,-0.0010392764471679747,8.075922638124002e-05,-0.0003359514386484109,0.0003580720649219853,-0.00020600188441132083,0.0007164902061135192,0.0013144532931824964,0.3236324191093445,11.850122451782227,-0.9934418201446533,-21.768831253051758,-0.4690452218055725,-2.5537142753601074,0.26858848333358765,0
32,0.15501022338867188,-0.3236324191093445,-11.850122451782227,0.9934418201446533,21.768831253051758,0.4690452218055725,2.5537142753601074,-0.26858848333358765,0.0,0.0,0.0,0.0,0.0,0.0,0.0,-0.2768201470961519,0.49888306847301944,-0.18434828214230928,0.48199949563928424,-0.06411179012035956,0.13791516010928065,-0.31752258079319173,0.17287039924504463,-0.4874888525134638,-0.1113249583328646,-1.9464044244931846,0.1334410145131378,2.5953941066000197,0.9452544800297084,0.1728802376190821,-0.48752024683155326,-0.11147110072896137,-1.9463801863486305,0.1336059019074957,2.595550359778934,0.9452445589611904,0.0010392764471679747,-8.075922638124002e-05,0.0003359514386484109,-0.0003580720649219853,0.00020600188441132083,-0.0007164902061135192,-0.0013144532931824964,0.0,0.0,0.0,0.0,0.0,0.0,0.0,9.838374037479669e-06,-3.139431808946158e-05,-0.00014614239609676838,2.423814455410067e-05,0.00016488739435788213,0.0001562531789143229,-9.921068517937393e-06,-0.0010392764471679747,8.075922638124002e-05,-0.0003359514386484109,0.0003580720649219853,-0.00020600188441132083,0.0007164902061135192,0.0013144532931824964,0.3236324191093445,11.850122451782227,-0.9934418201446533,-21.768831253051758,-0.4690452218055725,-2.5537142753601074,0.26858848333358765,0
33,0.1599571704864502,-0.2998287081718445,-11.826318740844727,0.9934418201446533,21.768831253051758,0.4690452218055725,2.5399813652038574,-0.30978721380233765,0.0,0.0,0.0,0.0,0.0,0.0,0.0,-0.28052189777889325,0.5023429181499516,-0.18811237706871883,0.47626742336399736,-0.06385066822838001,0.13755968882204886,-0.3157176978627463,0.17287086464229384,-0.4874905229493191,-0.11132495574083717,-1.9464044273276022,0.13343777575704924,2.595395632478926,0.9452604582478003,0.1728802376190821,-0.48752024683155326,-0.11147110072896137,-1.9463801863486305,0.1336059019074957,2.595550359778934,0.9452445589611904,0.00027836625388034117,-0.0004136069410873993,-7.986417056368459e-05,0.00017323013687354854,-4.6110349924374616e-05,2.4826961326840764e-06,-0.0001308628545187568,0.0,0.0,0.0,0.0,0.0,0.0,0.0,9.372976788268872e-06,-2.9723882234156118e-05,-0.0001461449881241944,2.4240978971690197e-05,0.00016812615044645152,0.00015472730000798407,-1.5899286609832863e-05,-0.00027836625388034117,0.0004136069410873993,7.986417056368459e-05,-0.00017323013687354854,4.6110349924374616e-05,-2.4826961326840764e-06,0.0001308628545187568,0.2998287081718445,11.826318740844727,-0.9934418201446533,-21.768831253051758,-0.4690452218055725,-2.5399813652038574,0.30978721380233765,0
34,0.16508913040161133,-0.2998287081718445,-11.826318740844727,0.9934418201446533,21.768831253051758,0.4690452218055725,2.5399813652038574,-0.30978721380233765,0.0,0.0,0.0,0.0,0.0,0.0,0.0,-0.28052189777889325,0.5023429181499516,-0.18811237706871883,0.47626742336399736,-0.06385066822838001,0.13755968882204886,-0.3157176978627463,0.17287086464229384,-0.4874905229493191,-0.11132495574083717,-1.9464044273276022,0.13343777575704924,2.595395632478926,0.9452604582478003,0.1728802376190821,-0.48752024683155326,-0.11147110072896137,-1.9463801863486305,0.1336059019074957,2.595550359778934,0.9452445589611904,0.00027836625388034117,-0.0004136069410873993,-7.986417056368459e-05,0.00017323013687354854,-4.6110349924374616e-05,2.4826961326840764e-06,-0.0001308628545187568,0.0,0.0,0.0,0.0,0.0,0.0,0.0,9.372976788268872e-06,-2.9723882234156118e-05,-0.0001461449881241944,2.4240978971690197e-05,0.00016812615044645152,0.00015472730000798407,-1.5899286609832863e-05,-0.00027836625388034117,0.0004136069410873993,7.986417056368459e-05,-0.00017323013687354854,4.6110349924374616e-05,-2.4826961326840764e-06,0.0001308628545187568,0.2998287081718445,11.826318740844727,-0.9934418201446533,-21.768831253051758,-0.4690452218055725,-2.5399813652038574,0.30978721380233765,0
35,0.17000699043273926,-0.2998287081718445,-11.774744033813477,1.0410492420196533,21.768831253051758,0.4690452218055725,2.5399813652038574,-0.26217979192733765,0.0,0.0,0.0,0.0,0.0,0.0,0.0,-0.28246402124216813,0.5100390150564832,-0.19003068980344495,0.47219202515798836,-0.06405127010578371,0.13707969384532034,-0.3166800128316554,0.1728687288212462,-0.4874941422270055,-0.11132924113281843,-1.9464044273276075,0.1334378942243847,2.595395632478926,0.9452553233804613,0.1728802376190821,-0.48752024683155326,-0.11147110072896137,-1.9463801863486305,0.1336059019074957,2.595550359778934,0.9452445589611904,0.0005731735230155865,-0.0003691814719195722,-0.0008958262674126792,0.0003644002399015448,-6.027550517148962e-05,-0.00019808194130098552,-0.0021656727885010535,0.0,0.0,0.0,0.0,0.0,0.0,0.0,1.1508797835901863e-05,-2.610460454777197e-05,-0.00014185959614293475,2.4240978977019267e-05,0.00016800768311098224,0.00015472730000798407,-1.0764419270836711e-05,-0.0005731735230155865,0.0003691814719195722,0.0008958262674126792,-0.0003644002399015448,6.027550517148962e-05,0.00019808194130098552,0.0021656727885010535,0.2998287081718445,11.774744033813477,-1.0410492420196533,-21.768831253051758,-0.4690452218055725,-2.5399813652038574,0.26217979192733765,0
36,0.1750032901763916,-0.2998287081718445,-11.774744033813477,1.0410492420196533,21.768831253051758,0.4690452218055725,2.5399813652038574,-0.26217979192733765,0.0,0.0,0.0,0.0,0.0,0.0,0.0,-0.28246402124216813,0.5100390150564832,-0.19003068980344495,0.47219202515798836,-0.06405127010578371,0.13707969384532034,-0.3166800128316554,0.1728687288212462,-0.4874941422270055,-0.11132924113281843,-1.9464044273276075,0.1334378942243847,2.595395632478926,0.9452553233804613,0.1728802376190821,-0.48752024683155326,-0.11147110072896137,-1.9463801863486305,0.1336059019074957,2.595550359778934,0.9452445589611904,0.0005731735230155865,-0.0003691814719195722,-0.0008958262674126792,0.0003644002399015448,-6.027550517148962e-05,-0.00019808194130098552,-0.0021656727885010535,0.0,0.0,0.0,0.0,0.0,0.0,0.0,1.1508797835901863e-05,-2.610460454777197e-05,-0.00014185959614293475,2.4240978977019267e-05,0.00016800768311098224,0.00015472730000798407,-1.0764419270836711e-05,-0.0005731735230155865,0.0003691814719195722,0.0008958262674126792,-0.0003644002399015448,6.027550517148962e-05,0.00019808194130098552,0.0021656727885010535,0.2998287081718445,11.774744033813477,-1.0410492420196533,-21.768831253051758,-0.4690452218055725,-2.5399813652038574,0.26217979192733765,0
37,0.18000268936157227,-0.24825400114059448,-11.774744033813477,0.9934418201446533,21.768831253051758,0.4626365303993225,2.5271639823913574,-0.26858848333358765,0.0,0.0,0.0,0.0,0.0,0.0,0.0,-0.27822180496439064,0.5072166481254766,-0.18461765376379063,0.4779320107662996,-0.06433630171694231,0.13687118111277394,-0.31782199036124903,0.17286510953150303,-0.4874941422270055,-0.11132511584862835,-1.9464041977393463,0.13343860630187637,2.5953970566325717,0.9452555141625506,0.1728802376190821,-0.48752024683155326,-0.11147110072896137,-1.9463801863486305,0.1336059019074957,2.595550359778934,0.9452445589611904,-0.000990561571603916,-0.00019905658643195955,0.0010425402323003634,3.4255732957299736e-05,0.00013990862210182102,0.0003028369413999622,-0.0016955919887788942,0.0,0.0,0.0,0.0,0.0,0.0,0.0,1.5128087579086014e-05,-2.610460454777197e-05,-0.0001459848803330166,2.4011390715727998e-05,0.00016729560561931645,0.0001533031463623047,-1.0955201360185463e-05,0.000990561571603916,0.00019905658643195955,-0.0010425402323003634,-3.4255732957299736e-05,-0.00013990862210182102,-0.0003028369413999622,0.0016955919887788942,0.24825400114059448,11.774744033813477,-0.9934418201446533,-21.768831253051758,-0.4626365303993225,-2.5271639823913574,0.26858848333358765,0
38,0.18501758575439453,-0.24825400114059448,-11.774744033813477,0.9934418201446533,21.768831253051758,0.4626365303993225,2.5271639823913574,-0.26858848333358765,0.0,0.0,0.0,0.0,0.0,0.0,0.0,-0.27822180496439064,0.5072166481254766,-0.18461765376379063,0.4779320107662996,-0.06433630171694231,0.13687118111277394,-0.31782199036124903,0.17286510953150303,-0.4874941422270055,-0.11132511584862835,-1.9464041977393463,0.13343860630187637,2.5953970566325717,0.9452555141625506,0.1728802376190821,-0.48752024683155326,-0.11147110072896137,-1.9463801863486305,0.1336059019074957,2.595550359778934,0.9452445589611904,-0.000990561571603916,-0.00019905658643195955,0.0010425402323003634,3.4255732957299736e-05,0.00013990862210182102,0.0003028369413999622,-0.0016955919887788942,0.0,0.0,0.0,0.0,0.0,0.0,0.0,1.5128087579086014e-05,-2.610460454777197e-05,-0.0001459848803330166,2.4011390715727998e-05,0.00016729560561931645,0.0001533031463623047,-1.0955201360185463e-05,0.000990561571603916,0.00019905658643195955,-0.0010425402323003634,-3.4255732957299736e-05,-0.00013990862210182102,-0.0003028369413999622,0.0016955919887788942,0.24825400114059448,11.774744033813477,-0.9934418201446533,-21.768831253051758,-0.4626365303993225,-2.5271639823913574,0.26858848333358765,0
39,0.1900019645690918,-0.24825400114059448,-11.774744033813477,1.0172455310821533,21.792634963989258,0.4745383858680725,2.5271639823913574,-0.30337852239608765,0.0,0.0,0.0,0.0,0.0,0.0,0.0,-0.28014679484611504,0.5062184156919664,-0.18687391544777138,0.4815685662394581,-0.06388338092524246,0.1368669490472256,-0.31730491852698334,0.17286510953150297,-0.4874941422270055,-0.11132689263080896,-1.9464060977621667,0.13343720944162427,2.5953970566325717,0.9452583058406197,0.1728802376190821,-0.48752024683155326,-0.11147110072896137,-1.9463801863486305,0.1336059019074957,2.595550359778934,0.9452445589611904,-0.00031759522078058614,-0.000551055605051875,-6.304497821337445e-05,-0.00084338245545032,-0.0001719563679150064,0.00018019883507910478,0.00018064175454361107,0.0,0.0,0.0,0.0,0.0,0.0,0.0,1.5128087579141525e-05,-2.610460454777197e-05,-0.00014420809815240965,2.591141353613935e-05,0.00016869246587142284,0.0001533031463623047,-1.3746879429232806e-05,0.00031759522078058614,0.000551055605051875,6.304497821337445e-05,0.00084338245545032,0.0001719563679150064,-0.00018019883507910478,-0.00018064175454361107,0.24825400114059448,11.774744033813477,-1.0172455310821533,-21.792634963989258,-0.4745383858680725,-2.5271639823913574,0.30337852239608765,0
40,0.19500017166137695,-0.24825400114059448,-11.774744033813477,1.0172455310821533,21.792634963989258,0.4745383858680725,2.5271639823913574,-0.30337852239608765,0.0,0.0,0.0,0.0,0.0,0.0,0.0,-0.28014679484611504,0.5062184156919664,-0.18687391544777138,0.4815685662394581,-0.06388338092524246,0.1368669490472256,-0.31730491852698334,0.17286510953150297,-0.4874941422270055,-0.11132689263080896,-1.9464060977621667,0.13343720944162427,2.5953970566325717,0.9452583058406197,0.1728802376190821,-0.48752024683155326,-0.11147110072896137,-1.9463801863486305,0.1336059019074957,2.595550359778934,0.9452445589611904,-0.00031759522078058614,-0.000551055605051875,-6.304497821337445e-05,-0.00084338245545032,-0.0001719563679150064,0.00018019883507910478,0.00018064175454361107,0.0,0.0,0.0,0.0,0.0,0.0,0.0,1.5128087579141525e-05,-2.610460454777197e-05,-0.00014420809815240965,2.591141353613935e-05,0.00016869246587142284,0.0001533031463623047,-1.3746879429232806e-05,0.00031759522078058614,0.000551055605051875,6.304497821337445e-05,0.00084338245545032,0.0001719563679150064,-0.00018019883507910478,-0.00018064175454361107,0.24825400114059448,11.774744033813477,-1.0172455310821533,-21.792634963989258,-0.4745383858680725,-2.5271639823913574,0.30337852239608765,0
41,0.19999909400939941,-0.24825400114059448,-11.826318740844727,1.0172455310821533,21.768831253051758,0.4745383858680725,2.5537142753601074,-0.31711143255233765,0.0,0.0,0.0,0.0,0.0,0.0,0.0,-0.27547295350771456,0.5123120255127698,-0.18247151565387917,0.48044422356349403,-0.06404551799298781,0.13652996624312008,-0.31671966100713067,0.17286510953150297,-0.4874905229493191,-0.11132940821915195,-1.9464041977393463,0.1334382316605087,2.5953941066000197,0.9452603138856898,0.1728802376190821,-0.48752024683155326,-0.11147110072896137,-1.9463801863486305,0.1336059019074957,2.595550359778934,0.9452445589611904,-0.000431938560916332,0.0008087714181507436,-3.349693030319715e-05,6.462764791727654e-05,-0.00010045902159076885,-0.0007631562974201727,0.0004289713459903305,0.0,0.0,0.0,0.0,0.0,0.0,0.0,1.5128087579141525e-05,-2.9723882234156118e-05,-0.00014169250980941572,2.4011390715727998e-05,0.00016767024698699506,0.0001562531789143229,-1.5754924499344902e-05,0.000431938560916332,-0.0008087714181507436,3.349693030319715e-05,-6.462764791727654e-05,0.00010045902159076885,0.0007631562974201727,-0.0004289713459903305,0.24825400114059448,11.826318740844727,-1.0172455310821533,-21.768831253051758,-0.4745383858680725,-2.5537142753601074,0.31711143255233765,0
42,0.20499873161315918,-0.24825400114059448,-11.826318740844727,1.0172455310821533,21.768831253051758,0.4745383858680725,2.5537142753601074,-0.31711143255233765,0.0,0.0,0.0,0.0,0.0,0.0,0.0,-0.27547295350771456,0.5123120255127698,-0.18247151565387917,0.48044422356349403,-0.06404551799298781,0.13652996624312008,-0.31671966100713067,0.17286510953150297,-0.4874905229493191,-0.11132940821915195,-1.9464041977393463,0.1334382316605087,2.5953941066000197,0.9452603138856898,0.1728802376190821,-0.48752024683155326,-0.11147110072896137,-1.9463801863486305,0.1336059019074957,2.595550359778934,0.9452445589611904,-0.000431938560916332,0.0008087714181507436,-3.349693030319715e-05,6.462764791727654e-05,-0.00010045902159076885,-0.0007631562974201727,0.0004289713459903305,0.0,0.0,0.0,0.0,0.0,0.0,0.0,1.5128087579141525e-05,-2.9723882234156118e-05,-0.00014169250980941572,2.4011390715727998e-05,0.00016767024698699506,0.0001562531789143229,-1.5754924499344902e-05,0.000431938560916332,-0.0008087714181507436,3.349693030319715e-05,-6.462764791727654e-05,0.00010045902159076885,0.0007631562974201727,-0.0004289713459903305,0.24825400114059448,11.826318740844727,-1.0172455310821533,-21.768831253051758,-0.4745383858680725,-2.5537142753601074,0.31711143255233765,0
43,0.21105623245239258,-0.2998287081718445,-11.873926162719727,1.0410492420196533,21.741060256958008,0.4690452218055725,2.5399813652038574,-0.26217979192733765,0.0,0.0,0.0,0.0,0.0,0.0,0.0,-0.2762972753081957,0.5112033017682199,-0.18361549276664188,0.48133482715208886,-0.06408180582778354,0.13718942268208087,-0.316315156047478,0.17286872880918938,-0.48748718207760855,-0.11132916338358498,-1.9464024784844804,0.13344097502712193,2.595395632478926,0.9452580587560792,0.1728802376190821,-0.48752024683155326,-0.11147110072896137,-1.9463801863486305,0.1336059019074957,2.595550359778934,0.9452445589611904,0.0006534936027934571,0.0012165980699317361,-0.0009723588202474002,0.000879501826126527,4.2778121585393594e-06,0.0001267861229716596,-0.0020187041717182348,0.0,0.0,0.0,0.0,0.0,0.0,0.0,1.1508809892729621e-05,-3.3064753944711534e-05,-0.0001419373453763889,2.2292135849921735e-05,0.0001649268803737558,0.00015472730000798407,-1.3499794888738315e-05,-0.0006534936027934571,-0.0012165980699317361,0.0009723588202474002,-0.000879501826126527,-4.2778121585393594e-06,-0.0001267861229716596,0.0020187041717182348,0.2998287081718445,11.873926162719727,-1.0410492420196533,-21.741060256958008,-0.4690452218055725,-2.5399813652038574,0.26217979192733765,0
44,0.2158041000366211,-0.2998287081718445,-11.873926162719727,1.0410492420196533,21.741060256958008,0.4690452218055725,2.5399813652038574,-0.26217979192733765,0.0,0.0,0.0,0.0,0.0,0.0,0.0,-0.2762972753081957,0.5112033017682199,-0.18361549276664188,0.48133482715208886,-0.06408180582778354,0.13718942268208087,-0.316315156047478,0.17286872880918938,-0.48748718207760855,-0.11132916338358498,-1.9464024784844804,0.13344097502712193,2.595395632478926,0.9452580587560792,0.1728802376190821,-0.48752024683155326,-0.11147110072896137,-1.9463801863486305,0.1336059019074957,2.595550359778934,0.9452445589611904,0.0006534936027934571,0.0012165980699317361,-0.0009723588202474002,0.000879501826126527,4.2778121585393594e-06,0.0001267861229716596,-0.0020187041717182348,0.0,0.0,0.0,0.0,0.0,0.0,0.0,1.1508809892729621e-05,-3.3064753944711534e-05,-0.0001419373453763889,2.2292135849921735e-05,0.0001649268803737558,0.00015472730000798407,-1.3499794888738315e-05,-0.0006534936027934571,-0.0012165980699317361,0.0009723588202474002,-0.000879501826126527,-4.2778121585393594e-06,-0.0001267861229716596,0.0020187041717182348,0.2998287081718445,11.873926162719727,-1.0410492420196533,-21.741060256958008,-0.4690452218055725,-2.5399813652038574,0.26217979192733765,0
45,0.22000789642333984,-0.2720577120780945,-11.826318740844727,0.9696381092071533,21.792634963989258,0.4690452218055725,2.5463900566101074,-0.33084434270858765,0.0,0.0,0.0,0.0,0.0,0.0,0.0,-0.2751712558566794,0.5188863622903583,-0.17851705857887665,0.4722242132429299,-0.06477745790652456,0.13658567380448663,-0.3164097880686522,0.17286677996735825,-0.4874905229493191,-0.11132345218076399,-1.9464060977634627,0.13343777576901494,2.595394920402103,0.9452613570650055,0.1728802376190821,-0.48752024683155326,-0.11147110072896137,-1.9463801863486305,0.1336059019074957,2.595550359778934,0.9452445589611904,-0.00011897211585519393,-0.0004089305421383062,0.0008085071118434149,-0.0010542535747609272,6.797655062737836e-05,-0.00019845372943326424,0.001208958793253674,0.0,0.0,0.0,0.0,0.0,0.0,0.0,1.3457651723863817e-05,-2.9723882234156118e-05,-0.0001476485481973766,2.591141483221371e-05,0.0001681261384807453,0.00015543937683082376,-1.67981038150522e-05,0.00011897211585519393,0.0004089305421383062,-0.0008085071118434149,0.0010542535747609272,-6.797655062737836e-05,0.00019845372943326424,-0.001208958793253674,0.2720577120780945,11.826318740844727,-0.9696381092071533,-21.792634963989258,-0.4690452218055725,-2.5463900566101074,0.33084434270858765,0
46,0.22512006759643555,-0.2720577120780945,-11.826318740844727,0.9696381092071533,21.792634963989258,0.4690452218055725,2.5463900566101074,-0.33084434270858765,0.0,0.0,0.0,0.0,0.0,0.0,0.0,-0.2751712558566794,0.5188863622903583,-0.17851705857887665,0.4722242132429299,-0.06477745790652456,0.13658567380448663,-0.3164097880686522,0.17286677996735825,-0.4874905229493191,-0.11132345218076399,-1.9464060977634627,0.13343777576901494,2.595394920402103,0.9452613570650055,0.1728802376190821,-0.48752024683155326,-0.11147110072896137,-1.9463801863486305,0.1336059019074957,2.595550359778934,0.9452445589611904,-0.00011897211585519393,-0.0004089305421383062,0.0008085071118434149,-0.0010542535747609272,6.797655062737836e-05,-0.00019845372943326424,0.001208958793253674,0.0,0.0,0.0,0.0,0.0,0.0,0.0,1.3457651723863817e-05,-2.9723882234156118e-05,-0.0001476485481973766,2.591141483221371e-05,0.0001681261384807453,0.00015543937683082376,-1.67981038150522e-05,0.00011897211585519393,0.0004089305421383062,-0.0008085071118434149,0.0010542535747609272,-6.797655062737836e-05,0.00019845372943326424,-0.001208958793253674,0.2720577120780945,11.826318740844727,-0.9696381092071533,-21.792634963989258,-0.4690452218055725,-2.5463900566101074,0.33084434270858765,0
47,0.23000288009643555,-0.2720577120780945,-11.850122451782227,0.9418671131134033,21.792634963989258,0.4690452218055725,2.5335726737976074,-0.29605430364608765,0.0,0.0,0.0,0.0,0.0,0.0,0.0,-0.2752916415991697,0.5095897184474173,-0.17694090670837465,0.4759185779550119,-0.06448434899091016,0.13842624275976204,-0.3164480766962319,0.17286677996735825,-0.4874888525134638,-0.11132338330236197,-1.9464060977634627,0.13343778891466945,2.595396344555749,0.945258698842563,0.1728802376190821,-0.48752024683155326,-0.11147110072896137,-1.9463801863486305,0.1336059019074957,2.595550359778934,0.9452445589611904,0.0003171930274234807,0.0008631923319158929,0.0016794954174994346,-0.0004676502202474564,-1.3517917526313632e-05,0.0002599258497350003,-0.0009932719363015476,0.0,0.0,0.0,0.0,0.0,0.0,0.0,1.3457651723863817e-05,-3.139431808946158e-05,-0.00014771742659940024,2.591141483221371e-05,0.00016811299282623593,0.00015401522318514438,-1.4139881372554619e-05,-0.0003171930274234807,-0.0008631923319158929,-0.0016794954174994346,0.0004676502202474564,1.3517917526313632e-05,-0.0002599258497350003,0.0009932719363015476,0.2720577120780945,11.850122451782227,-0.9418671131134033,-21.792634963989258,-0.4690452218055725,-2.5335726737976074,0.29605430364608765,0
48,0.2350013256072998,-0.2720577120780945,-11.850122451782227,0.9418671131134033,21.792634963989258,0.4690452218055725,2.5335726737976074,-0.29605430364608765,0.0,0.0,0.0,0.0,0.0,0.0,0.0,-0.2752916415991697,0.5095897184474173,-0.17694090670837465,0.4759185779550119,-0.06448434899091016,0.13842624275976204,-0.3164480766962319,0.17286677996735825,-0.4874888525134638,-0.11132338330236197,-1.9464060977634627,0.13343778891466945,2.595396344555749,0.945258698842563,0.1728802376190821,-0.48752024683155326,-0.11147110072896137,-1.9463801863486305,0.1336059019074957,2.595550359778934,0.9452445589611904,0.0003171930274234807,0.0008631923319158929,0.0016794954174994346,-0.0004676502202474564,-1.3517917526313632e-05,0.0002599258497350003,-0.0009932719363015476,0.0,0.0,0.0,0.0,0.0,0.0,0.0,1.3457651723863817e-05,-3.139431808946158e-05,-0.00014771742659940024,2.591141483221371e-05,0.00016811299282623593,0.00015401522318514438,-1.4139881372554619e-05,-0.0003171930274234807,-0.0008631923319158929,-0.0016794954174994346,0.0004676502202474564,1.3517917526313632e-05,-0.0002599258497350003,0.0009932719363015476,0.2720577120780945,11.850122451782227,-0.9418671131134033,-21.792634963989258,-0.4690452218055725,-2.5335726737976074,0.29605430364608765,0
49,0.24000859260559082,-0.2720577120780945,-11.850122451782227,0.9418671131134033,21.792634963989258,0.4690452218055725,2.5335726737976074,-0.29605430364608765,0.0,0.0,0.0,0.0,0.0,0.0,0.0,-0.2752916415991697,0.5095897184474173,-0.17694090670837465,0.4759185779550119,-0.06448434899091016,0.13842624275976204,-0.3164480766962319,0.17286677996735825,-0.4874888525134638,-0.11132338330236197,-1.9464060977634627,0.13343778891466945,2.595396344555749,0.945258698842563,0.1728802376190821,-0.48752024683155326,-0.11147110072896137,-1.9463801863486305,0.1336059019074957,2.595550359778934,0.9452445589611904,0.0003171930274234807,0.0008631923319158929,0.0016794954174994346,-0.0004676502202474564,-1.3517917526313632e-05,0.0002599258497350003,-0.0009932719363015476,0.0,0.0,0.0,0.0,0.0,0.0,0.0,1.3457651723863817e-05,-3.139431808946158e-05,-0.00014771742659940024,2.591141483221371e-05,0.00016811299282623593,0.00015401522318514438,-1.4139881372554619e-05,-0.0003171930274234807,-0.0008631923319158929,-0.0016794954174994346,0.0004676502202474564,1.3517917526313632e-05,-0.0002599258497350003,0.0009932719363015476,0.2720577120780945,11.850122451782227,-0.9418671131134033,-21.792634963989258,-0.4690452218055725,-2.5335726737976074,0.29605430364608765,0
50,0.24500155448913574,-0.2720577120780945,-11.850122451782227,0.9418671131134033,21.792634963989258,0.4690452218055725,2.5335726737976074,-0.29605430364608765,0.0,0.0,0.0,0.0,0.0,0.0,0.0,-0.2752916415991697,0.5095897184474173,-0.17694090670837465,0.4759185779550119,-0.06448434899091016,0.13842624275976204,-0.3164480766962319,0.17286677996735825,-0.4874888525134638,-0.11132338330236197,-1.9464060977634627,0.13343778891466945,2.595396344555749,0.945258698842563,0.1728802376190821,-0.48752024683155326,-0.11147110072896137,-1.9463801863486305,0.1336059019074957,2.595550359778934,0.9452445589611904,0.0003171930274234807,0.0008631923319158929,0.0016794954174994346,-0.0004676502202474564,-1.3517917526313632e-05,0.0002599258497350003,-0.0009932719363015476,0.0,0.0,0.0,0.0,0.0,0.0,0.0,1.3457651723863817e-05,-3.139431808946158e-05,-0.00014771742659940024,2.591141483221371e-05,0.00016811299282623593,0.00015401522318514438,-1.4139881372554619e-05,-0.0003171930274234807,-0.0008631923319158929,-0.0016794954174994346,0.0004676502202474564,1.3517917526313632e-05,-0.0002599258497350003,0.0009932719363015476,0.2720577120780945,11.850122451782227,-0.9418671131134033,-21.792634963989258,-0.4690452218055725,-2.5335726737976074,0.29605430364608765,0
51,0.24999737739562988,-0.2998287081718445,-11.774744033813477,0.9418671131134033,21.768831253051758,0.4745383858680725,2.5399813652038574,-0.28964561223983765,0.0,0.0,0.0,0.0,0.0,0.0,0.0,-0.2771562094168414,0.5089021801810876,-0.1835614423519095,0.47552178790634325,-0.06430983932441381,0.1389861820514473,-0.31710024061748526,0.17286872880918938,-0.4874941422270055,-0.11132199240064991,-1.9464044273276075,0.13344144799455654,2.595395632478926,0.945256766001652,0.1728802376190821,-0.48752024683155326,-0.11147110072896137,-1.9463801863486305,0.1336059019074957,2.595550359778934,0.9452445589611904,0.00037756249565164946,-0.0013122332981955853,0.0017019869351842776,0.00015915047084698347,-0.0002425088309487797,6.24608836349366e-05,-0.0008887419402199266,0.0,0.0,0.0,0.0,0.0,0.0,0.0,1.1508809892729621e-05,-2.610460454777197e-05,-0.00014910832831145637,2.4240978977019267e-05,0.0001644539129391498,0.00015472730000798407,-1.2207040461564844e-05,-0.00037756249565164946,0.0013122332981955853,-0.0017019869351842776,-0.00015915047084698347,0.0002425088309487797,-6.24608836349366e-05,0.0008887419402199266,0.2998287081718445,11.774744033813477,-0.9418671131134033,-21.768831253051758,-0.4745383858680725,-2.5399813652038574,0.28964561223983765,0
52,0.25499820709228516,-0.2998287081718445,-11.774744033813477,0.9418671131134033,21.768831253051758,0.4745383858680725,2.5399813652038574,-0.28964561223983765,0.0,0.0,0.0,0.0,0.0,0.0,0.0,-0.2771562094168414,0.5089021801810876,-0.1835614423519095,0.47552178790634325,-0.06430983932441381,0.1389861820514473,-0.31710024061748526,0.17286872880918938,-0.4874941422270055,-0.11132199240064991,-1.9464044273276075,0.13344144799455654,2.595395632478926,0.945256766001652,0.1728802376190821,-0.48752024683155326,-0.11147110072896137,-1.9463801863486305,0.1336059019074957,2.595550359778934,0.9452445589611904,0.00037756249565164946,-0.0013122332981955853,0.0017019869351842776,0.00015915047084698347,-0.0002425088309487797,6.24608836349366e-05,-0.0008887419402199266,0.0,0.0,0.0,0.0,0.0,0.0,0.0,1.1508809892729621e-05,-2.610460454777197e-05,-0.00014910832831145637,2.4240978977019267e-05,0.0001644539129391498,0.00015472730000798407,-1.2207040461564844e-05,-0.00037756249565164946,0.0013122332981955853,-0.0017019869351842776,-0.00015915047084698347,0.0002425088309487797,-6.24608836349366e-05,0.0008887419402199266,0.2998287081718445,11.774744033813477,-0.9418671131134033,-21.768831253051758,-0.4745383858680725,-2.5399813652038574,0.28964561223983765,0
53,0.26000118255615234,-0.2998287081718445,-11.901697158813477,0.9696381092071533,21.768831253051758,0.4571433663368225,2.5463900566101074,-0.33084434270858765,0.0,0.0,0.0,0.0,0.0,0.0,0.0,-0.27917300753532354,0.5018600423017251,-0.18766107977717295,0.4798460981407135,-0.0641325414481674,0.13993714586054137,-0.3172679581808648,0.17286873173900158,-0.4874852332357774,-0.11132533214695388,-1.9464041892360773,0.1334390982035157,2.5953949247627537,0.9452627937901082,0.1728802376190821,-0.48752024683155326,-0.11147110072896137,-1.9463801863486305,0.1336059019074957,2.595550359778934,0.9452445589611904,0.00018718724196817708,0.001725564781591338,0.0006850460376886586,0.00014000959620831242,0.00058260456016577,-0.0002511605599484058,0.0008426297597221071,0.0,0.0,0.0,0.0,0.0,0.0,0.0,1.1505880080531217e-05,-3.501359577584573e-05,-0.00014576858200748832,2.4002887446750165e-05,0.00016680370397997857,0.0001554350161803164,-1.8234828917829127e-05,-0.00018718724196817708,-0.001725564781591338,-0.0006850460376886586,-0.00014000959620831242,-0.00058260456016577,0.0002511605599484058,-0.0008426297597221071,0.2998287081718445,11.901697158813477,-0.9696381092071533,-21.768831253051758,-0.4571433663368225,-2.5463900566101074,0.33084434270858765,0
54,0.2649977207183838,-0.2998287081718445,-11.901697158813477,0.9696381092071533,21.768831253051758,0.4571433663368225,2.5463900566101074,-0.33084434270858765,0.0,0.0,0.0,0.0,0.0,0.0,0.0,-0.27917300753532354,0.5018600423017251,-0.18766107977717295,0.4798460981407135,-0.0641325414481674,0.13993714586054137,-0.3172679581808648,0.17286873173900158,-0.4874852332357774,-0.11132533214695388,-1.9464041892360773,0.1334390982035157,2.5953949247627537,0.9452627937901082,0.1728802376190821,-0.48752024683155326,-0.11147110072896137,-1.9463801863486305,0.1336059019074957,2.595550359778934,0.9452445589611904,0.00018718724196817708,0.001725564781591338,0.0006850460376886586,0.00014000959620831242,0.00058260456016577,-0.0002511605599484058,0.0008426297597221071,0.0,0.0,0.0,0.0,0.0,0.0,0.0,1.1505880080531217e-05,-3.501359577584573e-05,-0.00014576858200748832,2.4002887446750165e-05,0.00016680370397997857,0.0001554350161803164,-1.8234828917829127e-05,-0.00018718724196817708,-0.001725564781591338,-0.0006850460376886586,-0.00014000959620831242,-0.00058260456016577,0.0002511605599484058,-0.0008426297597221071,0.2998287081718445,11.901697158813477,-0.9696381092071533,-21.768831253051758,-0.4571433663368225,-2.5463900566101074,0.33084434270858765,0
55,0.26999974250793457,-0.24825400114059448,-11.873926162719727,0.9934418201446533,21.792634963989258,0.4626365303993225,2.5335726737976074,-0.26858848333358765,0.0,0.0,0.0,0.0,0.0,0.0,0.0,-0.27727967403616505,0.5067984152962086,-0.18468120737670354,0.47828504855931875,-0.0640153732384058,0.1399673668772698,-0.31723979960617543,0.17286510953150847,-0.48748718207760855,-0.11132567420630692,-1.9464060977630147,0.1334384893445845,2.595396344555757,0.9452555586873226,0.1728802376190821,-0.48752024683155326,-0.11147110072896137,-1.9463801863486305,0.1336059019074957,2.595550359778934,0.9452445589611904,-0.0005439195329310855,0.0013603756000763148,7.000821189521875e-05,-0.0002529339163995859,0.00020665819075038326,0.0002566890661478909,-0.0016825007985148933,0.0,0.0,0.0,0.0,0.0,0.0,0.0,1.512808757364592e-05,-3.3064753944711534e-05,-0.00014542652265445155,2.5911414384127696e-05,0.00016741256291119555,0.00015401522317715077,-1.0999726132165932e-05,0.0005439195329310855,-0.0013603756000763148,-7.000821189521875e-05,0.0002529339163995859,-0.00020665819075038326,-0.0002566890661478909,0.0016825007985148933,0.24825400114059448,11.873926162719727,-0.9934418201446533,-21.792634963989258,-0.4626365303993225,-2.5335726737976074,0.26858848333358765,0
56,0.27500176429748535,-0.24825400114059448,-11.873926162719727,0.9934418201446533,21.792634963989258,0.4626365303993225,2.5335726737976074,-0.26858848333358765,0.0,0.0,0.0,0.0,0.0,0.0,0.0,-0.27727967403616505,0.5067984152962086,-0.18468120737670354,0.47828504855931875,-0.0640153732384058,0.1399673668772698,-0.31723979960617543,0.17286510953150847,-0.48748718207760855,-0.11132567420630692,-1.9464060977630147,0.1334384893445845,2.595396344555757,0.9452555586873226,0.1728802376190821,-0.48752024683155326,-0.11147110072896137,-1.9463801863486305,0.1336059019074957,2.595550359778934,0.9452445589611904,-0.0005439195329310855,0.0013603756000763148,7.000821189521875e-05,-0.0002529339163995859,0.00020665819075038326,0.0002566890661478909,-0.0016825007985148933,0.0,0.0,0.0,0.0,0.0,0.0,0.0,1.512808757364592e-05,-3.3064753944711534e-05,-0.00014542652265445155,2.5911414384127696e-05,0.00016741256291119555,0.00015401522317715077,-1.0999726132165932e-05,0.0005439195329310855,-0.0013603756000763148,-7.000821189521875e-05,0.0002529339163995859,-0.00020665819075038326,-0.0002566890661478909,0.0016825007985148933,0.24825400114059448,11.873926162719727,-0.9934418201446533,-21.792634963989258,-0.4626365303993225,-2.5335726737976074,0.26858848333358765,0
57,0.28000736236572266,-0.24825400114059448,-11.826318740844727,0.9696381092071533,21.741060256958008,0.4745383858680725,2.5335726737976074,-0.30337852239608765,0.0,0.0,0.0,0.0,0.0,0.0,0.0,-0.27653098532823384,0.5138962708662338,-0.1865798971269211,0.4722223744120062,-0.06414201769857564,0.13898959582572654,-0.3172700216738849,0.17286510953150297,-0.48749044421231924,-0.11132556835830652,-1.9464024784857765,0.13343716539940098,2.595396344555749,0.9452615508191177,0.1728802376190821,-0.48752024683155326,-0.11147110072896137,-1.9463801863486305,0.1336059019074957,2.595550359778934,0.9452445589611904,-0.0004895237280575477,0.0003128653235118498,0.0010003909703200009,0.0005494228340258697,-4.8461104538941565e-05,0.00027599729744471897,-5.062760164518589e-05,0.0,0.0,0.0,0.0,0.0,0.0,0.0,1.5128087579141525e-05,-2.980261923402061e-05,-0.00014553237065484392,2.2292137145996094e-05,0.00016873650809470786,0.00015401522318514438,-1.6991857927250997e-05,0.0004895237280575477,-0.0003128653235118498,-0.0010003909703200009,-0.0005494228340258697,4.8461104538941565e-05,-0.00027599729744471897,5.062760164518589e-05,0.24825400114059448,11.826318740844727,-0.9696381092071533,-21.741060256958008,-0.4745383858680725,-2.5335726737976074,0.30337852239608765,0
58,0.28501152992248535,-0.24825400114059448,-11.826318740844727,0.9696381092071533,21.741060256958008,0.4745383858680725,2.5335726737976074,-0.30337852239608765,0.0,0.0,0.0,0.0,0.0,0.0,0.0,-0.27653098532823384,0.5138962708662338,-0.1865798971269211,0.4722223744120062,-0.06414201769857564,0.13898959582572654,-0.3172700216738849,0.17286510953150297,-0.48749044421231924,-0.11132556835830652,-1.9464024784857765,0.13343716539940098,2.595396344555749,0.9452615508191177,0.1728802376190821,-0.48752024683155326,-0.11147110072896137,-1.9463801863486305,0.1336059019074957,2.595550359778934,0.9452445589611904,-0.0004895237280575477,0.0003128653235118498,0.0010003909703200009,0.0005494228340258697,-4.8461104538941565e-05,0.00027599729744471897,-5.062760164518589e-05,0.0,0.0,0.0,0.0,0.0,0.0,0.0,1.5128087579141525e-05,-2.980261923402061e-05,-0.00014553237065484392,2.2292137145996094e-05,0.00016873650809470786,0.00015401522318514438,-1.6991857927250997e-05,0.0004895237280575477,-0.0003128653235118498,-0.0010003909703200009,-0.0005494228340258697,4.8461104538941565e-05,-0.00027599729744471897,5.062760164518589e-05,0.24825400114059448,11.826318740844727,-0.9696381092071533,-21.741060256958008,-0.4745383858680725,-2.5335726737976074,0.30337852239608765,0
59,0.29038381576538086,-0.2998287081718445,-11.774744033813477,0.9696381092071533,21.792634963989258,0.4745383858680725,2.5271639823913574,-0.30337852239608765,0.0,0.0,0.0,0.0,0.0,0.0,0.0,-0.27371544072965315,0.5203837878092231,-0.18375307573760036,0.46870126369116255,-0.06422341815566704,0.13812667480074192,-0.31724207301029794,0.17286872880918938,-0.48749414222685733,-0.11132324160249757,-1.9464060977634627,0.13344050020704432,2.5953970566325717,0.9452584170304754,0.1728802376190821,-0.48752024683155326,-0.11147110072896137,-1.9463801863486305,0.1336059019074957,2.595550359778934,0.9452445589611904,0.00031693607003239636,-9.847342008881838e-05,0.0011496012388306838,-0.0010317072541326047,-0.0003019346253483725,0.00030257793290361373,-0.0004127000322224056,0.0,0.0,0.0,0.0,0.0,0.0,0.0,1.1508809892729621e-05,-2.6104604695931233e-05,-0.00014785912646379795,2.591141483221371e-05,0.00016540170045137303,0.0001533031463623047,-1.3858069284999885e-05,-0.00031693607003239636,9.847342008881838e-05,-0.0011496012388306838,0.0010317072541326047,0.0003019346253483725,-0.00030257793290361373,0.0004127000322224056,0.2998287081718445,11.774744033813477,-0.9696381092071533,-21.792634963989258,-0.4745383858680725,-2.5271639823913574,0.30337852239608765,0
60,0.29500627517700195,-0.2998287081718445,-11.774744033813477,0.9696381092071533,21.792634963989258,0.4745383858680725,2.5271639823913574,-0.30337852239608765,0.0,0.0,0.0,0.0,0.0,0.0,0.0,-0.27371544072965315,0.5203837878092231,-0.18375307573760036,0.46870126369116255,-0.06422341815566704,0.13812667480074192,-0.31724207301029794,0.17286872880918938,-0.48749414222685733,-0.11132324160249757,-1.9464060977634627,0.13344050020704432,2.5953970566325717,0.9452584170304754,0.1728802376190821,-0.48752024683155326,-0.11147110072896137,-1.9463801863486305,0.1336059019074957,2.595550359778934,0.9452445589611904,0.00031693607003239636,-9.847342008881838e-05,0.0011496012388306838,-0.0010317072541326047,-0.0003019346253483725,0.00030257793290361373,-0.0004127000322224056,0.0,0.0,0.0,0.0,0.0,0.0,0.0,1.1508809892729621e-05,-2.6104604695931233e-05,-0.00014785912646379795,2.591141483221371e-05,0.00016540170045137303,0.0001533031463623047,-1.3858069284999885e-05,-0.00031693607003239636,9.847342008881838e-05,-0.0011496012388306838,0.0010317072541326047,0.0003019346253483725,-0.00030257793290361373,0.0004127000322224056,0.2998287081718445,11.774744033813477,-0.9696381092071533,-21.792634963989258,-0.4745383858680725,-2.5271639823913574,0.30337852239608765,0
61,0.3000051975250244,-0.2998287081718445,-11.802515029907227,0.9934418201446533,21.768831253051758,0.4690452218055725,2.5335726737976074,-0.31711143255233765,0.0,0.0,0.0,0.0,0.0,0.0,0.0,-0.2806514644722229,0.5124024648620313,-0.1870386591014021,0.4753552967982499,-0.06401702626174163,0.1386216742847079,-0.317581310942709,0.17286872880918938,-0.48749219338517435,-0.11132487667986267,-1.9464044273276075,0.1334377758239517,2.595396344555749,0.945259992070293,0.1728802376190821,-0.48752024683155326,-0.11147110072896137,-1.9463801863486305,0.1336059019074957,2.595550359778934,0.9452445589611904,0.0001887054518067314,0.0004314707411669044,0.0004624943859407613,-4.340379087047474e-05,9.884615599847321e-05,8.86038198985832e-06,0.0005412835928232636,0.0,0.0,0.0,0.0,0.0,0.0,0.0,1.1508809892729621e-05,-2.8053446378906166e-05,-0.00014622404909869768,2.4240978977019267e-05,0.00016812608354399572,0.00015401522318514438,-1.5433109102569453e-05,-0.0001887054518067314,-0.0004314707411669044,-0.0004624943859407613,4.340379087047474e-05,-9.884615599847321e-05,-8.86038198985832e-06,-0.0005412835928232636,0.2998287081718445,11.802515029907227,-0.9934418201446533,-21.768831253051758,-0.4690452218055725,-2.5335726737976074,0.31711143255233765,0
62,0.30500078201293945,-0.2998287081718445,-11.802515029907227,0.9934418201446533,21.768831253051758,0.4690452218055725,2.5335726737976074,-0.31711143255233765,0.0,0.0,0.0,0.0,0.0,0.0,0.0,-0.2806514644722229,0.5124024648620313,-0.1870386591014021,0.4753552967982499,-0.06401702626174163,0.1386216742847079,-0.317581310942709,0.17286872880918938,-0.48749219338517435,-0.11132487667986267,-1.9464044273276075,0.1334377758239517,2.595396344555749,0.945259992070293,0.1728802376190821,-0.48752024683155326,-0.11147110072896137,-1.9463801863486305,0.1336059019074957,2.595550359778934,0.9452445589611904,0.0001887054518067314,0.0004314707411669044,0.0004624943859407613,-4.340379087047474e-05,9.884615599847321e-05,8.86038198985832e-06,0.0005412835928232636,0.0,0.0,0.0,0.0,0.0,0.0,0.0,1.1508809892729621e-05,-2.8053446378906166e-05,-0.00014622404909869768,2.4240978977019267e-05,0.00016812608354399572,0.00015401522318514438,-1.5433109102569453e-05,-0.0001887054518067314,-0.0004314707411669044,-0.0004624943859407613,4.340379087047474e-05,-9.884615599847321e-05,-8.86038198985832e-06,-0.0005412835928232636,0.2998287081718445,11.802515029907227,-0.9934418201446533,-21.768831253051758,-0.4690452218055725,-2.5335726737976074,0.31711143255233765,0
63,0.3100008964538574,-0.2720577120780945,-11.802515029907227,0.9934418201446533,21.816438674926758,0.4690452218055725,2.5271639823913574,-0.27591270208358765,0.0,0.0,0.0,0.0,0.0,0.0,0.0,-0.28045955821051627,0.5084571530102036,-0.1859944245745977,0.48217412499381074,-0.06397415326676685,0.13841803214766266,-0.31801977114353197,0.17286677996735825,-0.48749219338517435,-0.11132558628472379,-1.9464077681993182,0.133438842011823,2.5953970566325717,0.9452553743723919,0.1728802376190821,-0.48752024683155326,-0.11147110072896137,-1.9463801863486305,0.1336059019074957,2.595550359778934,0.9452445589611904,-0.0004919152318964172,-0.00017046942867207323,0.0002760724252006071,-0.0007267835807093905,2.0812850332195163e-05,0.000127808129555554,-0.001356149902334067,0.0,0.0,0.0,0.0,0.0,0.0,0.0,1.3457651723863817e-05,-2.8053446378906166e-05,-0.00014551444423757665,2.7581850687630194e-05,0.00016705989567269985,0.0001533031463623047,-1.0815411201514635e-05,0.0004919152318964172,0.00017046942867207323,-0.0002760724252006071,0.0007267835807093905,-2.0812850332195163e-05,-0.000127808129555554,0.001356149902334067,0.2720577120780945,11.802515029907227,-0.9934418201446533,-21.816438674926758,-0.4690452218055725,-2.5271639823913574,0.27591270208358765,0
64,0.3150007724761963,-0.2720577120780945,-11.802515029907227,0.9934418201446533,21.816438674926758,0.4690452218055725,2.5271639823913574,-0.27591270208358765,0.0,0.0,0.0,0.0,0.0,0.0,0.0,-0.28045955821051627,0.5084571530102036,-0.1859944245745977,0.48217412499381074,-0.06397415326676685,0.13841803214766266,-0.31801977114353197,0.17286677996735825,-0.48749219338517435,-0.11132558628472379,-1.9464077681993182,0.133438842011823,2.5953970566325717,0.9452553743723919,0.1728802376190821,-0.48752024683155326,-0.11147110072896137,-1.9463801863486305,0.1336059019074957,2.595550359778934,0.9452445589611904,-0.0004919152318964172,-0.00017046942867207323,0.0002760724252006071,-0.0007267835807093905,2.0812850332195163e-05,0.000127808129555554,-0.001356149902334067,0.0,0.0,0.0,0.0,0.0,0.0,0.0,1.3457651723863817e-05,-2.8053446378906166e-05,-0.00014551444423757665,2.7581850687630194e-05,0.00016705989567269985,0.0001533031463623047,-1.0815411201514635e-05,0.0004919152318964172,0.00017046942867207323,-0.0002760724252006071,0.0007267835807093905,-2.0812850332195163e-05,-0.000127808129555554,0.001356149902334067,0.2720577120780945,11.802515029907227,-0.9934418201446533,-21.816438674926758,-0.4690452218055725,-2.5271639823913574,0.27591270208358765,0
65,0.3200042247772217,-0.2720577120780945,-11.850122451782227,0.9696381092071533,21.768831253051758,0.4690452218055725,2.5335726737976074,-0.29605430364608765,0.0,0.0,0.0,0.0,0.0,0.0,0.0,-0.28040890374086175,0.5147866084348769,-0.1878127046903781,0.4795435239646317,-0.06405072975750871,0.13629530689988206,-0.31760401498105173,0.17286677996735825,-0.4874888525134638,-0.11132320721987526,-1.9464044273276075,0.13343884201784165,2.595396344555749,0.9452585644221484,0.1728802376190821,-0.48752024683155326,-0.11147110072896137,-1.9463801863486305,0.1336059019074957,2.595550359778934,0.9452445589611904,-0.0004602390533283474,0.000543132657664136,0.0005067637741843174,1.4107726356323692e-06,4.016135241571455e-05,3.527920344818726e-05,-0.0008486269385823224,0.0,0.0,0.0,0.0,0.0,0.0,0.0,1.3457651723863817e-05,-3.139431808946158e-05,-0.00014789350908610277,2.4240978977019267e-05,0.00016705988965404206,0.00015401522318514438,-1.4005460957977611e-05,0.0004602390533283474,-0.000543132657664136,-0.0005067637741843174,-1.4107726356323692e-06,-4.016135241571455e-05,-3.527920344818726e-05,0.0008486269385823224,0.2720577120780945,11.850122451782227,-0.9696381092071533,-21.768831253051758,-0.4690452218055725,-2.5335726737976074,0.29605430364608765,0
66,0.32500147819519043,-0.2720577120780945,-11.850122451782227,0.9696381092071533,21.768831253051758,0.4690452218055725,2.5335726737976074,-0.29605430364608765,0.0,0.0,0.0,0.0,0.0,0.0,0.0,-0.28040890374086175,0.5147866084348769,-0.1878127046903781,0.4795435239646317,-0.06405072975750871,0.13629530689988206,-0.31760401498105173,0.17286677996735825,-0.4874888525134638,-0.11132320721987526,-1.9464044273276075,0.13343884201784165,2.595396344555749,0.9452585644221484,0.1728802376190821,-0.48752024683155326,-0.11147110072896137,-1.9463801863486305,0.1336059019074957,2.595550359778934,0.9452445589611904,-0.0004602390533283474,0.000543132657664136,0.0005067637741843174,1.4107726356323692e-06,4.016135241571455e-05,3.527920344818726e-05,-0.0008486269385823224,0.0,0.0,0.0,0.0,0.0,0.0,0.0,1.3457651723863817e-05,-3.139431808946158e-05,-0.00014789350908610277,2.4240978977019267e-05,0.00016705988965404206,0.00015401522318514438,-1.4005460957977611e-05,0.0004602390533283474,-0.000543132657664136,-0.0005067637741843174,-1.4107726356323692e-06,-4.016135241571455e-05,-3.527920344818726e-05,0.0008486269385823224,0.2720577120780945,11.850122451782227,-0.9696381092071533,-21.768831253051758,-0.4690452218055725,-2.5335726737976074,0.29605430364608765,0
67,0.3300027847290039,-0.2998287081718445,-11.802515029907227,0.9934418201446533,21.768831253051758,0.4745383858680725,2.5463900566101074,-0.33084434270858765,0.0,0.0,0.0,0.0,0.0,0.0,0.0,-0.28176521079226563,0.5118715413329278,-0.19070468575153238,0.4800322948385173,-0.06417740100510948,0.13568211658811621,-0.31756196554641425,0.17286872978579343,-0.48749219338517435,-0.11132495844087152,-1.9464044273276075,0.13344036436256768,2.595394920402103,0.9452613482850872,0.1728802376190821,-0.48752024683155326,-0.11147110072896137,-1.9463801863486305,0.1336059019074957,2.595550359778934,0.9452445589611904,0.00041552832380837326,-0.0008068031277491543,-0.00032482385707384843,-0.00018120887187868611,-0.00021185005596731206,-0.00043708470016854463,0.0014137525855653433,0.0,0.0,0.0,0.0,0.0,0.0,0.0,1.150783328868199e-05,-2.8053446378906166e-05,-0.00014614228808984553,2.4240978977019267e-05,0.00016553754492801276,0.00015543937683082376,-1.678932389681531e-05,-0.00041552832380837326,0.0008068031277491543,0.00032482385707384843,0.00018120887187868611,0.00021185005596731206,0.00043708470016854463,-0.0014137525855653433,0.2998287081718445,11.802515029907227,-0.9934418201446533,-21.768831253051758,-0.4745383858680725,-2.5463900566101074,0.33084434270858765,0
68,0.3350036144256592,-0.2998287081718445,-11.802515029907227,0.9934418201446533,21.768831253051758,0.4745383858680725,2.5463900566101074,-0.33084434270858765,0.0,0.0,0.0,0.0,0.0,0.0,0.0,-0.28176521079226563,0.5118715413329278,-0.19070468575153238,0.4800322948385173,-0.06417740100510948,0.13568211658811621,-0.31756196554641425,0.17286872978579343,-0.48749219338517435,-0.11132495844087152,-1.9464044273276075,0.13344036436256768,2.595394920402103,0.9452613482850872,0.1728802376190821,-0.48752024683155326,-0.11147110072896137,-1.9463801863486305,0.1336059019074957,2.595550359778934,0.9452445589611904,0.00041552832380837326,-0.0008068031277491543,-0.00032482385707384843,-0.00018120887187868611,-0.00021185005596731206,-0.00043708470016854463,0.0014137525855653433,0.0,0.0,0.0,0.0,0.0,0.0,0.0,1.150783328868199e-05,-2.8053446378906166e-05,-0.00014614228808984553,2.4240978977019267e-05,0.00016553754492801276,0.00015543937683082376,-1.678932389681531e-05,-0.00041552832380837326,0.0008068031277491543,0.00032482385707384843,0.00018120887187868611,0.00021185005596731206,0.00043708470016854463,-0.0014137525855653433,0.2998287081718445,11.802515029907227,-0.9934418201446533,-21.768831253051758,-0.4745383858680725,-2.5463900566101074,0.33084434270858765,0
69,0.34001588821411133,-0.2998287081718445,-11.802515029907227,0.9934418201446533,21.768831253051758,0.4745383858680725,2.5463900566101074,-0.33084434270858765,0.0,0.0,0.0,0.0,0.0,0.0,0.0,-0.28176521079226563,0.5118715413329278,-0.19070468575153238,0.4800322948385173,-0.06417740100510948,0.13568211658811621,-0.31756196554641425,0.17286872978579343,-0.48749219338517435,-0.11132495844087152,-1.9464044273276075,0.13344036436256768,2.595394920402103,0.9452613482850872,0.1728802376190821,-0.48752024683155326,-0.11147110072896137,-1.9463801863486305,0.1336059019074957,2.595550359778934,0.9452445589611904,0.00041552832380837326,-0.0008068031277491543,-0.00032482385707384843,-0.00018120887187868611,-0.00021185005596731206,-0.00043708470016854463,0.0014137525855653433,0.0,0.0,0.0,0.0,0.0,0.0,0.0,1.150783328868199e-05,-2.8053446378906166e-05,-0.00014614228808984553,2.4240978977019267e-05,0.00016553754492801276,0.00015543937683082376,-1.678932389681531e-05,-0.00041552832380837326,0.0008068031277491543,0.00032482385707384843,0.00018120887187868611,0.00021185005596731206,0.00043708470016854463,-0.0014137525855653433,0.2998287081718445,11.802515029907227,-0.9934418201446533,-21.768831253051758,-0.4745383858680725,-2.5463900566101074,0.33084434270858765,0
70,0.34500837326049805,-0.2998287081718445,-11.802515029907227,0.9934418201446533,21.768831253051758,0.4745383858680725,2.5463900566101074,-0.33084434270858765,0.0,0.0,0.0,0.0,0.0,0.0,0.0,-0.28176521079226563,0.5118715413329278,-0.19070468575153238,0.4800322948385173,-0.06417740100510948,0.13568211658811621,-0.31756196554641425,0.17286872978579343,-0.48749219338517435,-0.11132495844087152,-1.9464044273276075,0.13344036436256768,2.595394920402103,0.9452613482850872,0.1728802376190821,-0.48752024683155326,-0.11147110072896137,-1.9463801863486305,0.1336059019074957,2.595550359778934,0.9452445589611904,0.00041552832380837326,-0.0008068031277491543,-0.00032482385707384843,-0.00018120887187868611,-0.00021185005596731206,-0.00043708470016854463,0.0014137525855653433,0.0,0.0,0.0,0.0,0.0,0.0,0.0,1.150783328868199e-05,-2.8053446378906166e-05,-0.00014614228808984553,2.4240978977019267e-05,0.00016553754492801276,0.00015543937683082376,-1.678932389681531e-05,-0.00041552832380837326,0.0008068031277491543,0.00032482385707384843,0.00018120887187868611,0.00021185005596731206,0.00043708470016854463,-0.0014137525855653433,0.2998287081718445,11.802515029907227,-0.9934418201446533,-21.768831253051758,-0.4745383858680725,-2.5463900566101074,0.33084434270858765,0
71,0.35019373893737793,-0.22445029020309448,-11.873926162719727,0.9934418201446533,21.768831253051758,0.4626365303993225,2.5399813652038574,-0.26217979192733765,0.0,0.0,0.0,0.0,0.0,0.0,0.0,-0.27591903711915283,0.5155154229736515,-0.18115879115329597,0.4769708116976233,-0.0649366512868807,0.13466522950954377,-0.31745336165784926,0.17286343909564955,-0.48748718207760855,-0.11132585759810633,-1.9464041977393463,0.13343884525843805,2.595395632478926,0.9452584615383413,0.1728802376190821,-0.48752024683155326,-0.11147110072896137,-1.9463801863486305,0.1336059019074957,2.595550359778934,0.9452445589611904,-0.0009349803760057455,0.0012802103851756778,0.0007824150232782769,0.0002380066938322473,0.00029023549364718125,-4.899631564495702e-05,-0.0015996128903574853,0.0,0.0,0.0,0.0,0.0,0.0,0.0,1.679852343255961e-05,-3.3064753944711534e-05,-0.00014524313085503837,2.4011390715727998e-05,0.00016705664905763973,0.00015472730000798407,-1.3902577150837203e-05,0.0009349803760057455,-0.0012802103851756778,-0.0007824150232782769,-0.0002380066938322473,-0.00029023549364718125,4.899631564495702e-05,0.0015996128903574853,0.22445029020309448,11.873926162719727,-0.9934418201446533,-21.768831253051758,-0.4626365303993225,-2.5399813652038574,0.26217979192733765,0
72,0.35500526428222656,-0.22445029020309448,-11.873926162719727,0.9934418201446533,21.768831253051758,0.4626365303993225,2.5399813652038574,-0.26217979192733765,0.0,0.0,0.0,0.0,0.0,0.0,0.0,-0.27591903711915283,0.5155154229736515,-0.18115879115329597,0.4769708116976233,-0.0649366512868807,0.13466522950954377,-0.31745336165784926,0.17286343909564955,-0.48748718207760855,-0.11132585759810633,-1.9464041977393463,0.13343884525843805,2.595395632478926,0.9452584615383413,0.1728802376190821,-0.48752024683155326,-0.11147110072896137,-1.9463801863486305,0.1336059019074957,2.595550359778934,0.9452445589611904,-0.0009349803760057455,0.0012802103851756778,0.0007824150232782769,0.0002380066938322473,0.00029023549364718125,-4.899631564495702e-05,-0.0015996128903574853,0.0,0.0,0.0,0.0,0.0,0.0,0.0,1.679852343255961e-05,-3.3064753944711534e-05,-0.00014524313085503837,2.4011390715727998e-05,0.00016705664905763973,0.00015472730000798407,-1.3902577150837203e-05,0.0009349803760057455,-0.0012802103851756778,-0.0007824150232782769,-0.0002380066938322473,-0.00029023549364718125,4.899631564495702e-05,0.0015996128903574853,0.22445029020309448,11.873926162719727,-0.9934418201446533,-21.768831253051758,-0.4626365303993225,-2.5399813652038574,0.26217979192733765,0
73,0.36079955101013184,-0.3236324191093445,-11.826318740844727,1.0172455310821533,21.741060256958008,0.4745383858680725,2.5335726737976074,-0.27591270208358765,0.0,0.0,0.0,0.0,0.0,0.0,0.0,-0.28524664832495383,0.5083284750807672,-0.19655774448471505,0.4774562572590973,-0.06421183988370305,0.1353906063670474,-0.3164144129352306,0.17287039924504463,-0.4874905229493191,-0.11132725579005691,-1.9464024784844804,0.13343720505506837,2.595396344555749,0.9452599483574431,0.1728802376190821,-0.48752024683155326,-0.11147110072896137,-1.9463801863486305,0.1336059019074957,2.595550359778934,0.9452445589611904,0.0004444923426615552,-7.314675123624974e-05,-6.041939184672281e-06,0.00025676461902315943,-7.101696944692679e-05,0.0001723889481910196,-0.00142657836068864,0.0,0.0,0.0,0.0,0.0,0.0,0.0,9.838374037479669e-06,-2.9723882234156118e-05,-0.00014384493890445826,2.2292135849921735e-05,0.00016869685242731913,0.00015401522318514438,-1.5389396252674103e-05,-0.0004444923426615552,7.314675123624974e-05,6.041939184672281e-06,-0.00025676461902315943,7.101696944692679e-05,-0.0001723889481910196,0.00142657836068864,0.3236324191093445,11.826318740844727,-1.0172455310821533,-21.741060256958008,-0.4745383858680725,-2.5335726737976074,0.27591270208358765,0
74,0.3649475574493408,-0.3236324191093445,-11.826318740844727,1.0172455310821533,21.741060256958008,0.4745383858680725,2.5335726737976074,-0.27591270208358765,0.0,0.0,0.0,0.0,0.0,0.0,0.0,-0.28524664832495383,0.5083284750807672,-0.19655774448471505,0.4774562572590973,-0.06421183988370305,0.1353906063670474,-0.3164144129352306,0.17287039924504463,-0.4874905229493191,-0.11132725579005691,-1.9464024784844804,0.13343720505506837,2.595396344555749,0.9452599483574431,0.1728802376190821,-0.48752024683155326,-0.11147110072896137,-1.9463801863486305,0.1336059019074957,2.595550359778934,0.9452445589611904,0.0004444923426615552,-7.314675123624974e-05,-6.041939184672281e-06,0.00025676461902315943,-7.101696944692679e-05,0.0001723889481910196,-0.00142657836068864,0.0,0.0,0.0,0.0,0.0,0.0,0.0,9.838374037479669e-06,-2.9723882234156118e-05,-0.00014384493890445826,2.2292135849921735e-05,0.00016869685242731913,0.00015401522318514438,-1.5389396252674103e-05,-0.0004444923426615552,7.314675123624974e-05,6.041939184672281e-06,-0.00025676461902315943,7.101696944692679e-05,-0.0001723889481910196,0.00142657836068864,0.3236324191093445,11.826318740844727,-1.0172455310821533,-21.741060256958008,-0.4745383858680725,-2.5335726737976074,0.27591270208358765,0
75,0.37079286575317383,-0.2720577120780945,-11.826318740844727,1.0172455310821533,21.792634963989258,0.4745383858680725,2.5463900566101074,-0.32352012395858765,0.0,0.0,0.0,0.0,0.0,0.0,0.0,-0.28225086031582,0.5018279608749776,-0.18590577978964487,0.4803089475173115,-0.06431241003683394,0.1359476236475318,-0.3163803936578881,0.17286677996735825,-0.4874905229493191,-0.11132725877670985,-1.9464060977634627,0.13343716539961628,2.595394920402103,0.9452648805525848,0.1728802376190821,-0.48752024683155326,-0.11147110072896137,-1.9463801863486305,0.1336059019074957,2.595550359778934,0.9452445589611904,-0.00041607152302340633,5.155810887634155e-05,0.00030074571021411484,-0.0005755945716484903,-0.00031121494756291277,-0.00032468356086029894,0.0010432302727270484,0.0,0.0,0.0,0.0,0.0,0.0,0.0,1.3457651723863817e-05,-2.9723882234156118e-05,-0.0001438419522515194,2.591141483221371e-05,0.00016873650787940786,0.00015543937683082376,-2.0321591394423244e-05,0.00041607152302340633,-5.155810887634155e-05,-0.00030074571021411484,0.0005755945716484903,0.00031121494756291277,0.00032468356086029894,-0.0010432302727270484,0.2720577120780945,11.826318740844727,-1.0172455310821533,-21.792634963989258,-0.4745383858680725,-2.5463900566101074,0.32352012395858765,0
76,0.3750138282775879,-0.2720577120780945,-11.826318740844727,1.0172455310821533,21.792634963989258,0.4745383858680725,2.5463900566101074,-0.32352012395858765,0.0,0.0,0.0,0.0,0.0,0.0,0.0,-0.28225086031582,0.5018279608749776,-0.18590577978964487,0.4803089475173115,-0.06431241003683394,0.1359476236475318,-0.3163803936578881,0.17286677996735825,-0.4874905229493191,-0.11132725877670985,-1.9464060977634627,0.13343716539961628,2.595394920402103,0.9452648805525848,0.1728802376190821,-0.48752024683155326,-0.11147110072896137,-1.9463801863486305,0.1336059019074957,2.595550359778934,0.9452445589611904,-0.00041607152302340633,5.155810887634155e-05,0.00030074571021411484,-0.0005755945716484903,-0.00031121494756291277,-0.00032468356086029894,0.0010432302727270484,0.0,0.0,0.0,0.0,0.0,0.0,0.0,1.3457651723863817e-05,-2.9723882234156118e-05,-0.0001438419522515194,2.591141483221371e-05,0.00016873650787940786,0.00015543937683082376,-2.0321591394423244e-05,0.00041607152302340633,-5.155810887634155e-05,-0.00030074571021411484,0.0005755945716484903,0.00031121494756291277,0.00032468356086029894,-0.0010432302727270484,0.2720577120780945,11.826318740844727,-1.0172455310821533,-21.792634963989258,-0.4745383858680725,-2.5463900566101074,0.32352012395858765,0
77,0.3800172805786133,-0.24825400114059448,-11.826318740844727,1.0688202381134033,21.768831253051758,0.4809470772743225,2.5399813652038574,-0.29605430364608765,0.0,0.0,0.0,0.0,0.0,0.0,0.0,-0.2830124899096434,0.5095431564098447,-0.18394150874009105,0.47591719291450413,-0.06431074444161797,0.13495384192447482,-0.3156315642612605,0.17286510964001453,-0.4874905229493191,-0.11133048134522162,-1.9464044273276075,0.13343965210517247,2.595395632478926,0.9452578403598955,0.1728802376190821,-0.48752024683155326,-0.11147110072896137,-1.9463801863486305,0.1336059019074957,2.595550359778934,0.9452445589611904,-0.0004188696940716407,-1.4679983734116703e-05,-0.0015742040844467478,-7.475545975628511e-05,-0.00039233974682369784,-0.0003331113622874895,-0.0006501413702049994,0.0,0.0,0.0,0.0,0.0,0.0,0.0,1.5127979067580677e-05,-2.9723882234156118e-05,-0.00014061938373974292,2.4240978977019267e-05,0.00016624980232321507,0.00015472730000798407,-1.3281398705045078e-05,0.0004188696940716407,1.4679983734116703e-05,0.0015742040844467478,7.475545975628511e-05,0.00039233974682369784,0.0003331113622874895,0.0006501413702049994,0.24825400114059448,11.826318740844727,-1.0688202381134033,-21.768831253051758,-0.4809470772743225,-2.5399813652038574,0.29605430364608765,0
78,0.38500428199768066,-0.24825400114059448,-11.826318740844727,1.0688202381134033,21.768831253051758,0.4809470772743225,2.5399813652038574,-0.29605430364608765,0.0,0.0,0.0,0.0,0.0,0.0,0.0,-0.2830124899096434,0.5095431564098447,-0.18394150874009105,0.47591719291450413,-0.06431074444161797,0.13495384192447482,-0.3156315642612605,0.17286510964001453,-0.4874905229493191,-0.11133048134522162,-1.9464044273276075,0.13343965210517247,2.595395632478926,0.9452578403598955,0.1728802376190821,-0.48752024683155326,-0.11147110072896137,-1.9463801863486305,0.1336059019074957,2.595550359778934,0.9452445589611904,-0.0004188696940716407,-1.4679983734116703e-05,-0.0015742040844467478,-7.475545975628511e-05,-0.00039233974682369784,-0.0003331113622874895,-0.0006501413702049994,0.0,0.0,0.0,0.0,0.0,0.0,0.0,1.5127979067580677e-05,-2.9723882234156118e-05,-0.00014061938373974292,2.4240978977019267e-05,0.00016624980232321507,0.00015472730000798407,-1.3281398705045078e-05,0.0004188696940716407,1.4679983734116703e-05,0.0015742040844467478,7.475545975628511e-05,0.00039233974682369784,0.0003331113622874895,0.0006501413702049994,0.24825400114059448,11.826318740844727,-1.0688202381134033,-21.768831253051758,-0.4809470772743225,-2.5399813652038574,0.29605430364608765,0
79,0.3900003433227539,-0.24825400114059448,-11.826318740844727,1.0688202381134033,21.768831253051758,0.4809470772743225,2.5399813652038574,-0.29605430364608765,0.0,0.0,0.0,0.0,0.0,0.0,0.0,-0.2830124899096434,0.5095431564098447,-0.18394150874009105,0.47591719291450413,-0.06431074444161797,0.13495384192447482,-0.3156315642612605,0.17286510964001453,-0.4874905229493191,-0.11133048134522162,-1.9464044273276075,0.13343965210517247,2.595395632478926,0.9452578403598955,0.1728802376190821,-0.48752024683155326,-0.11147110072896137,-1.9463801863486305,0.1336059019074957,2.595550359778934,0.9452445589611904,-0.0004188696940716407,-1.4679983734116703e-05,-0.0015742040844467478,-7.475545975628511e-05,-0.00039233974682369784,-0.0003331113622874895,-0.0006501413702049994,0.0,0.0,0.0,0.0,0.0,0.0,0.0,1.5127979067580677e-05,-2.9723882234156118e-05,-0.00014061938373974292,2.4240978977019267e-05,0.00016624980232321507,0.00015472730000798407,-1.3281398705045078e-05,0.0004188696940716407,1.4679983734116703e-05,0.0015742040844467478,7.475545975628511e-05,0.00039233974682369784,0.0003331113622874895,0.0006501413702049994,0.24825400114059448,11.826318740844727,-1.0688202381134033,-21.768831253051758,-0.4809470772743225,-2.5399813652038574,0.29605430364608765,0
