rezayati/contactInterpretation/dataset/franka_main/labeled_data/link6/b9_8.csv
index,time,tau_J0,tau_J1,tau_J2,tau_J3,tau_J4,tau_J5,tau_J6,tau_J_d0,tau_J_d1,tau_J_d2,tau_J_d3,tau_J_d4,tau_J_d5,tau_J_d6,tau_ext0,tau_ext1,tau_ext2,tau_ext3,tau_ext4,tau_ext5,tau_ext6,q0,q1,q2,q3,q4,q5,q6,q_d0,q_d1,q_d2,q_d3,q_d4,q_d5,q_d6,dq0,dq1,dq2,dq3,dq4,dq5,dq6,dq_d0,dq_d1,dq_d2,dq_d3,dq_d4,dq_d5,dq_d6,e0,e1,e2,e3,e4,e5,e6,de0,de1,de2,de3,de4,de5,de6,etau_J0,etau_J1,etau_J2,etau_J3,etau_J4,etau_J5,etau_J6,label
1,0.0,-0.4505855441093445,-22.720483779907227,-0.1491362750530243,14.131807327270508,0.2007957100868225,2.1325716972351074,-0.39950889348983765,0.0,0.0,0.0,0.0,0.0,0.0,0.0,-0.4336666816310678,0.01667869038516199,-0.2103042323131607,0.2373491170894498,-0.027252598310230233,-0.05130391541360125,-0.4127496937620346,1.6757300195819451,0.05229248791977947,0.029993401340748155,-2.7527138797036232,0.03429571552100222,2.7663405298127066,0.7691935540721078,1.6754973547542302,0.052104326824870026,0.029969505109285054,-2.752394845125968,0.0342448039870148,2.7663679543071322,0.7691630533470046,-9.903451717395802e-05,0.0003704940949239505,0.00014704008305824198,-0.0004518750163521754,0.0001036189002086743,1.910643635551577e-05,-0.0010514887292864784,0.0,0.0,0.0,0.0,0.0,0.0,0.0,-0.00023266482771489017,-0.00018816109490944755,-2.3896231463101103e-05,0.00031903457765514176,-5.091153398741749e-05,2.742449442560968e-05,-3.0500725103133064e-05,9.903451717395802e-05,-0.0003704940949239505,-0.00014704008305824198,0.0004518750163521754,-0.0001036189002086743,-1.910643635551577e-05,0.0010514887292864784,0.4505855441093445,22.720483779907227,0.1491362750530243,-14.131807327270508,-0.2007957100868225,-2.1325716972351074,0.39950889348983765,0
2,0.004986286163330078,-0.4505855441093445,-22.795862197875977,-0.1253325641155243,14.131807327270508,0.1888938546180725,2.1197543144226074,-0.43338340520858765,0.0,0.0,0.0,0.0,0.0,0.0,0.0,-0.43897198224742023,0.018240099668550603,-0.21682339477568185,0.24244073189129398,-0.027103208766436387,-0.050509746824813115,-0.41515452649017603,1.6757300195819451,0.052297777620846836,0.02999173090489287,-2.7527138063239938,0.034297051112879125,2.7663419539663523,0.769200379013996,1.6754973547542302,0.052104326824870026,0.029969505109285054,-2.752394845125968,0.0342448039870148,2.7663679543071322,0.7691630533470046,-0.00018016230692823303,0.0007374833049413162,-0.00018082685142172355,-0.0007892610162702381,0.0007525850784034133,0.0005909551947111125,0.0005361266031978646,0.0,0.0,0.0,0.0,0.0,0.0,0.0,-0.00023266482771489017,-0.00019345079597681003,-2.2225795607816456e-05,0.0003189611980256579,-5.224712586432423e-05,2.6000340779930298e-05,-3.7325666991328e-05,0.00018016230692823303,-0.0007374833049413162,0.00018082685142172355,0.0007892610162702381,-0.0007525850784034133,-0.0005909551947111125,-0.0005361266031978646,0.4505855441093445,22.795862197875977,0.1253325641155243,-14.131807327270508,-0.1888938546180725,-2.1197543144226074,0.43338340520858765,0
3,0.009984493255615234,-0.4505855441093445,-22.795862197875977,-0.1253325641155243,14.131807327270508,0.1888938546180725,2.1197543144226074,-0.43338340520858765,0.0,0.0,0.0,0.0,0.0,0.0,0.0,-0.43897198224742023,0.018240099668550603,-0.21682339477568185,0.24244073189129398,-0.027103208766436387,-0.050509746824813115,-0.41515452649017603,1.6757300195819451,0.052297777620846836,0.02999173090489287,-2.7527138063239938,0.034297051112879125,2.7663419539663523,0.769200379013996,1.6754973547542302,0.052104326824870026,0.029969505109285054,-2.752394845125968,0.0342448039870148,2.7663679543071322,0.7691630533470046,-0.00018016230692823303,0.0007374833049413162,-0.00018082685142172355,-0.0007892610162702381,0.0007525850784034133,0.0005909551947111125,0.0005361266031978646,0.0,0.0,0.0,0.0,0.0,0.0,0.0,-0.00023266482771489017,-0.00019345079597681003,-2.2225795607816456e-05,0.0003189611980256579,-5.224712586432423e-05,2.6000340779930298e-05,-3.7325666991328e-05,0.00018016230692823303,-0.0007374833049413162,0.00018082685142172355,0.0007892610162702381,-0.0007525850784034133,-0.0005909551947111125,-0.0005361266031978646,0.4505855441093445,22.795862197875977,0.1253325641155243,-14.131807327270508,-0.1888938546180725,-2.1197543144226074,0.43338340520858765,0
4,0.014984846115112305,-0.4267818331718445,-22.819665908813477,-0.09756157547235489,14.108003616333008,0.2126975655555725,2.1453890800476074,-0.42605918645858765,0.0,0.0,0.0,0.0,0.0,0.0,0.0,-0.4326870431383597,0.021608303800070214,-0.21124555603944845,0.2423009769088407,-0.02745601176298583,-0.0505908125449959,-0.4158081249985847,1.67572834914609,0.05229952697766687,0.029989782063584578,-2.7527121327383655,0.034297593337706066,2.7663391056590605,0.7691996699386454,1.6754973547542302,0.052104326824870026,0.029969505109285054,-2.752394845125968,0.0342448039870148,2.7663679543071322,0.7691630533470046,5.9888860868095125e-05,0.0007186737007591899,-0.0001151332710596082,-0.00013825755996571713,-0.00034089332869883854,-0.000369503814081857,0.000785001347850792,0.0,0.0,0.0,0.0,0.0,0.0,0.0,-0.00023099439185969572,-0.00019520015279684416,-2.0276954299524447e-05,0.0003172876123973545,-5.2789350691265224e-05,2.8848648071733152e-05,-3.661659164078124e-05,-5.9888860868095125e-05,-0.0007186737007591899,0.0001151332710596082,0.00013825755996571713,0.00034089332869883854,0.000369503814081857,-0.000785001347850792,0.4267818331718445,22.819665908813477,0.09756157547235489,-14.108003616333008,-0.2126975655555725,-2.1453890800476074,0.42605918645858765,0
5,0.01998448371887207,-0.4267818331718445,-22.819665908813477,-0.09756157547235489,14.108003616333008,0.2126975655555725,2.1453890800476074,-0.42605918645858765,0.0,0.0,0.0,0.0,0.0,0.0,0.0,-0.4326870431383597,0.021608303800070214,-0.21124555603944845,0.2423009769088407,-0.02745601176298583,-0.0505908125449959,-0.4158081249985847,1.67572834914609,0.05229952697766687,0.029989782063584578,-2.7527121327383655,0.034297593337706066,2.7663391056590605,0.7691996699386454,1.6754973547542302,0.052104326824870026,0.029969505109285054,-2.752394845125968,0.0342448039870148,2.7663679543071322,0.7691630533470046,5.9888860868095125e-05,0.0007186737007591899,-0.0001151332710596082,-0.00013825755996571713,-0.00034089332869883854,-0.000369503814081857,0.000785001347850792,0.0,0.0,0.0,0.0,0.0,0.0,0.0,-0.00023099439185969572,-0.00019520015279684416,-2.0276954299524447e-05,0.0003172876123973545,-5.2789350691265224e-05,2.8848648071733152e-05,-3.661659164078124e-05,-5.9888860868095125e-05,-0.0007186737007591899,0.0001151332710596082,0.00013825755996571713,0.00034089332869883854,0.000369503814081857,-0.000785001347850792,0.4267818331718445,22.819665908813477,0.09756157547235489,-14.108003616333008,-0.2126975655555725,-2.1453890800476074,0.42605918645858765,0
6,0.024986743927001953,-0.4029781222343445,-22.847436904907227,-0.09756157547235489,14.080232620239258,0.2126975655555725,2.1517977714538574,-0.35831016302108765,0.0,0.0,0.0,0.0,0.0,0.0,0.0,-0.42965957689247636,0.014298349791972314,-0.20875478782264298,0.24205748298146934,-0.02714670773286433,-0.050376572967233336,-0.4150556263064888,1.6757266787102345,0.05230139700723789,0.029989782063584578,-2.7527101838965167,0.034294393110459356,2.7663383935822377,0.7691889765990357,1.6754973547542302,0.052104326824870026,0.029969505109285054,-2.752394845125968,0.0342448039870148,2.7663679543071322,0.7691630533470046,-0.00017781107415352059,0.00022143776039003024,-0.00016660779112223677,0.0006914029793348937,-0.0004329774254070432,0.006626073484567009,-0.002498850461197524,0.0,0.0,0.0,0.0,0.0,0.0,0.0,-0.00022932395600427924,-0.00019707018236786444,-2.0276954299524447e-05,0.00031533877054856774,-4.958912344455585e-05,2.9560724894572843e-05,-2.5923252031101462e-05,0.00017781107415352059,-0.00022143776039003024,0.00016660779112223677,-0.0006914029793348937,0.0004329774254070432,-0.006626073484567009,0.002498850461197524,0.4029781222343445,22.847436904907227,0.09756157547235489,-14.080232620239258,-0.2126975655555725,-2.1517977714538574,0.35831016302108765,0
7,0.02998495101928711,-0.4029781222343445,-22.847436904907227,-0.09756157547235489,14.080232620239258,0.2126975655555725,2.1517977714538574,-0.35831016302108765,0.0,0.0,0.0,0.0,0.0,0.0,0.0,-0.42965957689247636,0.014298349791972314,-0.20875478782264298,0.24205748298146934,-0.02714670773286433,-0.050376572967233336,-0.4150556263064888,1.6757266787102345,0.05230139700723789,0.029989782063584578,-2.7527101838965167,0.034294393110459356,2.7663383935822377,0.7691889765990357,1.6754973547542302,0.052104326824870026,0.029969505109285054,-2.752394845125968,0.0342448039870148,2.7663679543071322,0.7691630533470046,-0.00017781107415352059,0.00022143776039003024,-0.00016660779112223677,0.0006914029793348937,-0.0004329774254070432,0.006626073484567009,-0.002498850461197524,0.0,0.0,0.0,0.0,0.0,0.0,0.0,-0.00022932395600427924,-0.00019707018236786444,-2.0276954299524447e-05,0.00031533877054856774,-4.958912344455585e-05,2.9560724894572843e-05,-2.5923252031101462e-05,0.00017781107415352059,-0.00022143776039003024,0.00016660779112223677,-0.0006914029793348937,0.0004329774254070432,-0.006626073484567009,0.002498850461197524,0.4029781222343445,22.847436904907227,0.09756157547235489,-14.080232620239258,-0.2126975655555725,-2.1517977714538574,0.35831016302108765,0
8,0.035016775131225586,-0.4267818331718445,-22.772058486938477,-0.09756157547235489,14.080232620239258,0.2072044014930725,2.1325716972351074,-0.41324180364608765,0.0,0.0,0.0,0.0,0.0,0.0,0.0,-0.43149669415851455,0.01905752919951412,-0.21019290713473104,0.22709760423266653,-0.0266736515243058,-0.05201055574259966,-0.41444622672225506,1.67572834914609,0.05229642286885148,0.029989782063584578,-2.7527101923997854,0.034298562522298424,2.7663405298127066,0.7691982575576282,1.6754973547542302,0.052104326824870026,0.029969505109285054,-2.752394845125968,0.0342448039870148,2.7663679543071322,0.7691630533470046,0.00029823182289843384,-0.0008018999042545455,-0.00046363046235559167,0.0001207940513488092,-0.0001433905349752741,0.00033137304049135705,0.00010190585683399459,0.0,0.0,0.0,0.0,0.0,0.0,0.0,-0.00023099439185969572,-0.00019209604398145314,-2.0276954299524447e-05,0.0003153472738173235,-5.3758535283623954e-05,2.742449442560968e-05,-3.520421062352952e-05,-0.00029823182289843384,0.0008018999042545455,0.00046363046235559167,-0.0001207940513488092,0.0001433905349752741,-0.00033137304049135705,-0.00010190585683399459,0.4267818331718445,22.772058486938477,0.09756157547235489,-14.080232620239258,-0.2072044014930725,-2.1325716972351074,0.41324180364608765,0
9,0.03998589515686035,-0.4267818331718445,-22.772058486938477,-0.09756157547235489,14.080232620239258,0.2072044014930725,2.1325716972351074,-0.41324180364608765,0.0,0.0,0.0,0.0,0.0,0.0,0.0,-0.43149669415851455,0.01905752919951412,-0.21019290713473104,0.22709760423266653,-0.0266736515243058,-0.05201055574259966,-0.41444622672225506,1.67572834914609,0.05229642286885148,0.029989782063584578,-2.7527101923997854,0.034298562522298424,2.7663405298127066,0.7691982575576282,1.6754973547542302,0.052104326824870026,0.029969505109285054,-2.752394845125968,0.0342448039870148,2.7663679543071322,0.7691630533470046,0.00029823182289843384,-0.0008018999042545455,-0.00046363046235559167,0.0001207940513488092,-0.0001433905349752741,0.00033137304049135705,0.00010190585683399459,0.0,0.0,0.0,0.0,0.0,0.0,0.0,-0.00023099439185969572,-0.00019209604398145314,-2.0276954299524447e-05,0.0003153472738173235,-5.3758535283623954e-05,2.742449442560968e-05,-3.520421062352952e-05,-0.00029823182289843384,0.0008018999042545455,0.00046363046235559167,-0.0001207940513488092,0.0001433905349752741,-0.00033137304049135705,-0.00010190585683399459,0.4267818331718445,22.772058486938477,0.09756157547235489,-14.080232620239258,-0.2072044014930725,-2.1325716972351074,0.41324180364608765,0
10,0.044997215270996094,-0.4267818331718445,-22.772058486938477,-0.1253325641155243,14.131807327270508,0.2007957100868225,2.1389803886413574,-0.44711631536483765,0.0,0.0,0.0,0.0,0.0,0.0,0.0,-0.4347662183836237,0.012661749548746621,-0.2126458981191699,0.23195692827242406,-0.02620337219654623,-0.04967418734170689,-0.41290380304146784,1.67572834914609,0.05229613381853946,0.02999173090489287,-2.752713803174251,0.03429571700350533,2.7663398177358833,0.7692016694895352,1.6754973547542302,0.052104326824870026,0.029969505109285054,-2.752394845125968,0.0342448039870148,2.7663679543071322,0.7691630533470046,-1.593008580032284e-05,0.0005131229145388315,-0.0005977532435412071,-0.0013209199057757828,6.881037509188346e-05,-0.0002684114727999431,0.0018497219397032325,0.0,0.0,0.0,0.0,0.0,0.0,0.0,-0.00023099439185969572,-0.00019180699366943416,-2.2225795607816456e-05,0.00031895804828296903,-5.0913016490530816e-05,2.813657124889346e-05,-3.861614253053425e-05,1.593008580032284e-05,-0.0005131229145388315,0.0005977532435412071,0.0013209199057757828,-6.881037509188346e-05,0.0002684114727999431,-0.0018497219397032325,0.4267818331718445,22.772058486938477,0.1253325641155243,-14.131807327270508,-0.2007957100868225,-2.1389803886413574,0.44711631536483765,0
11,0.049993038177490234,-0.4267818331718445,-22.772058486938477,-0.1253325641155243,14.131807327270508,0.2007957100868225,2.1389803886413574,-0.44711631536483765,0.0,0.0,0.0,0.0,0.0,0.0,0.0,-0.4347662183836237,0.012661749548746621,-0.2126458981191699,0.23195692827242406,-0.02620337219654623,-0.04967418734170689,-0.41290380304146784,1.67572834914609,0.05229613381853946,0.02999173090489287,-2.752713803174251,0.03429571700350533,2.7663398177358833,0.7692016694895352,1.6754973547542302,0.052104326824870026,0.029969505109285054,-2.752394845125968,0.0342448039870148,2.7663679543071322,0.7691630533470046,-1.593008580032284e-05,0.0005131229145388315,-0.0005977532435412071,-0.0013209199057757828,6.881037509188346e-05,-0.0002684114727999431,0.0018497219397032325,0.0,0.0,0.0,0.0,0.0,0.0,0.0,-0.00023099439185969572,-0.00019180699366943416,-2.2225795607816456e-05,0.00031895804828296903,-5.0913016490530816e-05,2.813657124889346e-05,-3.861614253053425e-05,1.593008580032284e-05,-0.0005131229145388315,0.0005977532435412071,0.0013209199057757828,-6.881037509188346e-05,0.0002684114727999431,-0.0018497219397032325,0.4267818331718445,22.772058486938477,0.1253325641155243,-14.131807327270508,-0.2007957100868225,-2.1389803886413574,0.44711631536483765,0
12,0.05500316619873047,-0.4029781222343445,-22.772058486938477,-0.1253325641155243,14.080232620239258,0.2072044014930725,2.1261630058288574,-0.41965049505233765,0.0,0.0,0.0,0.0,0.0,0.0,0.0,-0.43532559790208786,0.013973665338906545,-0.2172162067654842,0.23717941790178404,-0.02656598961030841,-0.04874789501985483,-0.4115390674909807,1.6757266787102345,0.05229610718514185,0.02999173090489287,-2.7527101867309396,0.03429551688299861,2.7663412418895295,0.7691988519128314,1.6754973547542302,0.052104326824870026,0.029969505109285054,-2.752394845125968,0.0342448039870148,2.7663679543071322,0.7691630533470046,-0.001076127153002624,0.0011468691359075437,-0.0006834981212990298,0.000604997662610142,-8.448172661534482e-05,0.0005195986340317347,0.0004075228432869414,0.0,0.0,0.0,0.0,0.0,0.0,0.0,-0.00022932395600427924,-0.00019178036027182183,-2.2225795607816456e-05,0.00031534160497148633,-5.071289598380935e-05,2.671241760276999e-05,-3.579856582680563e-05,0.001076127153002624,-0.0011468691359075437,0.0006834981212990298,-0.000604997662610142,8.448172661534482e-05,-0.0005195986340317347,-0.0004075228432869414,0.4029781222343445,22.772058486938477,0.1253325641155243,-14.080232620239258,-0.2072044014930725,-2.1261630058288574,0.41965049505233765,0
13,0.05999016761779785,-0.4029781222343445,-22.772058486938477,-0.1253325641155243,14.080232620239258,0.2072044014930725,2.1261630058288574,-0.41965049505233765,0.0,0.0,0.0,0.0,0.0,0.0,0.0,-0.43532559790208786,0.013973665338906545,-0.2172162067654842,0.23717941790178404,-0.02656598961030841,-0.04874789501985483,-0.4115390674909807,1.6757266787102345,0.05229610718514185,0.02999173090489287,-2.7527101867309396,0.03429551688299861,2.7663412418895295,0.7691988519128314,1.6754973547542302,0.052104326824870026,0.029969505109285054,-2.752394845125968,0.0342448039870148,2.7663679543071322,0.7691630533470046,-0.001076127153002624,0.0011468691359075437,-0.0006834981212990298,0.000604997662610142,-8.448172661534482e-05,0.0005195986340317347,0.0004075228432869414,0.0,0.0,0.0,0.0,0.0,0.0,0.0,-0.00022932395600427924,-0.00019178036027182183,-2.2225795607816456e-05,0.00031534160497148633,-5.071289598380935e-05,2.671241760276999e-05,-3.579856582680563e-05,0.001076127153002624,-0.0011468691359075437,0.0006834981212990298,-0.000604997662610142,8.448172661534482e-05,-0.0005195986340317347,-0.0004075228432869414,0.4029781222343445,22.772058486938477,0.1253325641155243,-14.080232620239258,-0.2072044014930725,-2.1261630058288574,0.41965049505233765,0
14,0.06498885154724121,-0.4505855441093445,-22.795862197875977,-0.1491362750530243,14.080232620239258,0.2072044014930725,2.1389803886413574,-0.37845176458358765,0.0,0.0,0.0,0.0,0.0,0.0,0.0,-0.43515633259839714,0.009812842823920713,-0.2172254909747423,0.24271573046345862,-0.02692045586525386,-0.04748150912713859,-0.41073229348497575,1.6757300195819451,0.052297777656933164,0.029993401340748134,-2.7527101923998014,0.034295042937998,2.7663398177358833,0.7691942756771496,1.6754973547542302,0.052104326824870026,0.029969505109285054,-2.752394845125968,0.0342448039870148,2.7663679543071322,0.7691630533470046,-0.00012965179252412073,0.0002979152453336457,0.0007407422073386857,0.0004708629049493272,3.52866919519059e-05,-0.00029319476871946735,-0.0008831817127763855,0.0,0.0,0.0,0.0,0.0,0.0,0.0,-0.00023266482771489017,-0.0001934508320631384,-2.3896231463080286e-05,0.00031534727383331074,-5.023895098320297e-05,2.813657124889346e-05,-3.122233014496434e-05,0.00012965179252412073,-0.0002979152453336457,-0.0007407422073386857,-0.0004708629049493272,-3.52866919519059e-05,0.00029319476871946735,0.0008831817127763855,0.4505855441093445,22.795862197875977,0.1491362750530243,-14.080232620239258,-0.2072044014930725,-2.1389803886413574,0.37845176458358765,0
15,0.06999039649963379,-0.4505855441093445,-22.795862197875977,-0.1491362750530243,14.080232620239258,0.2072044014930725,2.1389803886413574,-0.37845176458358765,0.0,0.0,0.0,0.0,0.0,0.0,0.0,-0.43515633259839714,0.009812842823920713,-0.2172254909747423,0.24271573046345862,-0.02692045586525386,-0.04748150912713859,-0.41073229348497575,1.6757300195819451,0.052297777656933164,0.029993401340748134,-2.7527101923998014,0.034295042937998,2.7663398177358833,0.7691942756771496,1.6754973547542302,0.052104326824870026,0.029969505109285054,-2.752394845125968,0.0342448039870148,2.7663679543071322,0.7691630533470046,-0.00012965179252412073,0.0002979152453336457,0.0007407422073386857,0.0004708629049493272,3.52866919519059e-05,-0.00029319476871946735,-0.0008831817127763855,0.0,0.0,0.0,0.0,0.0,0.0,0.0,-0.00023266482771489017,-0.0001934508320631384,-2.3896231463080286e-05,0.00031534727383331074,-5.023895098320297e-05,2.813657124889346e-05,-3.122233014496434e-05,0.00012965179252412073,-0.0002979152453336457,-0.0007407422073386857,-0.0004708629049493272,-3.52866919519059e-05,0.00029319476871946735,0.0008831817127763855,0.4505855441093445,22.795862197875977,0.1491362750530243,-14.080232620239258,-0.2072044014930725,-2.1389803886413574,0.37845176458358765,0
16,0.07498741149902344,-0.4505855441093445,-22.871240615844727,-0.1729399859905243,14.131807327270508,0.2072044014930725,2.1261630058288574,-0.37845176458358765,0.0,0.0,0.0,0.0,0.0,0.0,0.0,-0.43672189111194126,0.018105293653481028,-0.21561359933754567,0.23820870873587588,-0.026696074992055084,-0.048984904928460166,-0.41012611602240867,1.6757300195819451,0.05230306733438863,0.029995071776603398,-2.752713803174251,0.03429516146292397,2.7663412418895295,0.7691942755694872,1.6754973547542302,0.052104326824870026,0.029969505109285054,-2.752394845125968,0.0342448039870148,2.7663679543071322,0.7691630533470046,0.0001668016521513062,0.0017998461630582441,0.000980648445261713,-0.0007523300520105598,-8.623139678068213e-05,0.00021996537729556586,-0.0010078165415358042,0.0,0.0,0.0,0.0,0.0,0.0,0.0,-0.00023266482771489017,-0.00019874050951860373,-2.5566667318344116e-05,0.00031895804828296903,-5.0357475909167115e-05,2.671241760276999e-05,-3.1222222482529816e-05,-0.0001668016521513062,-0.0017998461630582441,-0.000980648445261713,0.0007523300520105598,8.623139678068213e-05,-0.00021996537729556586,0.0010078165415358042,0.4505855441093445,22.871240615844727,0.1729399859905243,-14.131807327270508,-0.2072044014930725,-2.1261630058288574,0.37845176458358765,0
17,0.07998871803283691,-0.4505855441093445,-22.871240615844727,-0.1729399859905243,14.131807327270508,0.2072044014930725,2.1261630058288574,-0.37845176458358765,0.0,0.0,0.0,0.0,0.0,0.0,0.0,-0.43672189111194126,0.018105293653481028,-0.21561359933754567,0.23820870873587588,-0.026696074992055084,-0.048984904928460166,-0.41012611602240867,1.6757300195819451,0.05230306733438863,0.029995071776603398,-2.752713803174251,0.03429516146292397,2.7663412418895295,0.7691942755694872,1.6754973547542302,0.052104326824870026,0.029969505109285054,-2.752394845125968,0.0342448039870148,2.7663679543071322,0.7691630533470046,0.0001668016521513062,0.0017998461630582441,0.000980648445261713,-0.0007523300520105598,-8.623139678068213e-05,0.00021996537729556586,-0.0010078165415358042,0.0,0.0,0.0,0.0,0.0,0.0,0.0,-0.00023266482771489017,-0.00019874050951860373,-2.5566667318344116e-05,0.00031895804828296903,-5.0357475909167115e-05,2.671241760276999e-05,-3.1222222482529816e-05,-0.0001668016521513062,-0.0017998461630582441,-0.000980648445261713,0.0007523300520105598,8.623139678068213e-05,-0.00021996537729556586,0.0010078165415358042,0.4505855441093445,22.871240615844727,0.1729399859905243,-14.131807327270508,-0.2072044014930725,-2.1261630058288574,0.37845176458358765,0
18,0.08498549461364746,-0.4267818331718445,-22.795862197875977,-0.1253325641155243,14.108003616333008,0.2007957100868225,2.1517977714538574,-0.39218467473983765,0.0,0.0,0.0,0.0,0.0,0.0,0.0,-0.4355083385371564,0.016688198519758807,-0.21222897155972734,0.23479790063534325,-0.027081401268176108,-0.051093506101614394,-0.4087203839154675,1.67572834914609,0.052297777945624395,0.02999173090489287,-2.7527121327383477,0.03429571606338796,2.7663383935822377,0.7691927404330803,1.6754973547542302,0.052104326824870026,0.029969505109285054,-2.752394845125968,0.0342448039870148,2.7663679543071322,0.7691630533470046,-0.0004643242498706312,2.0877208221882858e-05,0.00014500583263974404,2.729530679617415e-05,5.0436791051460985e-05,-0.000332128672362095,-0.00016511700676928814,0.0,0.0,0.0,0.0,0.0,0.0,0.0,-0.00023099439185969572,-0.00019345112075436904,-2.2225795607816456e-05,0.0003172876123795909,-5.091207637315798e-05,2.9560724894572843e-05,-2.9687086075647073e-05,0.0004643242498706312,-2.0877208221882858e-05,-0.00014500583263974404,-2.729530679617415e-05,-5.0436791051460985e-05,0.000332128672362095,0.00016511700676928814,0.4267818331718445,22.795862197875977,0.1253325641155243,-14.108003616333008,-0.2007957100868225,-2.1517977714538574,0.39218467473983765,0
19,0.08998799324035645,-0.4267818331718445,-22.795862197875977,-0.1253325641155243,14.108003616333008,0.2007957100868225,2.1517977714538574,-0.39218467473983765,0.0,0.0,0.0,0.0,0.0,0.0,0.0,-0.4355083385371564,0.016688198519758807,-0.21222897155972734,0.23479790063534325,-0.027081401268176108,-0.051093506101614394,-0.4087203839154675,1.67572834914609,0.052297777945624395,0.02999173090489287,-2.7527121327383477,0.03429571606338796,2.7663383935822377,0.7691927404330803,1.6754973547542302,0.052104326824870026,0.029969505109285054,-2.752394845125968,0.0342448039870148,2.7663679543071322,0.7691630533470046,-0.0004643242498706312,2.0877208221882858e-05,0.00014500583263974404,2.729530679617415e-05,5.0436791051460985e-05,-0.000332128672362095,-0.00016511700676928814,0.0,0.0,0.0,0.0,0.0,0.0,0.0,-0.00023099439185969572,-0.00019345112075436904,-2.2225795607816456e-05,0.0003172876123795909,-5.091207637315798e-05,2.9560724894572843e-05,-2.9687086075647073e-05,0.0004643242498706312,-2.0877208221882858e-05,-0.00014500583263974404,-2.729530679617415e-05,-5.0436791051460985e-05,0.000332128672362095,0.00016511700676928814,0.4267818331718445,22.795862197875977,0.1253325641155243,-14.108003616333008,-0.2007957100868225,-2.1517977714538574,0.39218467473983765,0
20,0.09498858451843262,-0.4029781222343445,-22.819665908813477,-0.1253325641155243,14.032625198364258,0.2007957100868225,2.1389803886413574,-0.38577598333358765,0.0,0.0,0.0,0.0,0.0,0.0,0.0,-0.43658366177145985,0.014924926756153091,-0.20973969754030972,0.23267654006577562,-0.027471762295654994,-0.051505265575239954,-0.40634207670852196,1.6757266787102345,0.0523004740292468,0.02999173090489287,-2.7527068458592288,0.034298914303385296,2.7663398177358833,0.769195202892715,1.6754973547542302,0.052104326824870026,0.029969505109285054,-2.752394845125968,0.0342448039870148,2.7663679543071322,0.7691630533470046,-0.0007470139087432141,0.0009373797619502536,0.00022760155444063426,0.0013725855899179786,0.00044103251277335145,-0.00014109221394549256,-0.000586953635373382,0.0,0.0,0.0,0.0,0.0,0.0,0.0,-0.00022932395600427924,-0.00019614720437677313,-2.2225795607816456e-05,0.00031200073326065336,-5.411031637049535e-05,2.813657124889346e-05,-3.214954571040263e-05,0.0007470139087432141,-0.0009373797619502536,-0.00022760155444063426,-0.0013725855899179786,-0.00044103251277335145,0.00014109221394549256,0.000586953635373382,0.4029781222343445,22.819665908813477,0.1253325641155243,-14.032625198364258,-0.2007957100868225,-2.1389803886413574,0.38577598333358765,0
21,0.09998703002929688,-0.4029781222343445,-22.819665908813477,-0.1253325641155243,14.032625198364258,0.2007957100868225,2.1389803886413574,-0.38577598333358765,0.0,0.0,0.0,0.0,0.0,0.0,0.0,-0.43658366177145985,0.014924926756153091,-0.20973969754030972,0.23267654006577562,-0.027471762295654994,-0.051505265575239954,-0.40634207670852196,1.6757266787102345,0.0523004740292468,0.02999173090489287,-2.7527068458592288,0.034298914303385296,2.7663398177358833,0.769195202892715,1.6754973547542302,0.052104326824870026,0.029969505109285054,-2.752394845125968,0.0342448039870148,2.7663679543071322,0.7691630533470046,-0.0007470139087432141,0.0009373797619502536,0.00022760155444063426,0.0013725855899179786,0.00044103251277335145,-0.00014109221394549256,-0.000586953635373382,0.0,0.0,0.0,0.0,0.0,0.0,0.0,-0.00022932395600427924,-0.00019614720437677313,-2.2225795607816456e-05,0.00031200073326065336,-5.411031637049535e-05,2.813657124889346e-05,-3.214954571040263e-05,0.0007470139087432141,-0.0009373797619502536,-0.00022760155444063426,-0.0013725855899179786,-0.00044103251277335145,0.00014109221394549256,0.000586953635373382,0.4029781222343445,22.819665908813477,0.1253325641155243,-14.032625198364258,-0.2007957100868225,-2.1389803886413574,0.38577598333358765,0
22,0.10499191284179688,-0.4029781222343445,-22.819665908813477,-0.1253325641155243,14.032625198364258,0.2007957100868225,2.1389803886413574,-0.38577598333358765,0.0,0.0,0.0,0.0,0.0,0.0,0.0,-0.43658366177145985,0.014924926756153091,-0.20973969754030972,0.23267654006577562,-0.027471762295654994,-0.051505265575239954,-0.40634207670852196,1.6757266787102345,0.0523004740292468,0.02999173090489287,-2.7527068458592288,0.034298914303385296,2.7663398177358833,0.769195202892715,1.6754973547542302,0.052104326824870026,0.029969505109285054,-2.752394845125968,0.0342448039870148,2.7663679543071322,0.7691630533470046,-0.0007470139087432141,0.0009373797619502536,0.00022760155444063426,0.0013725855899179786,0.00044103251277335145,-0.00014109221394549256,-0.000586953635373382,0.0,0.0,0.0,0.0,0.0,0.0,0.0,-0.00022932395600427924,-0.00019614720437677313,-2.2225795607816456e-05,0.00031200073326065336,-5.411031637049535e-05,2.813657124889346e-05,-3.214954571040263e-05,0.0007470139087432141,-0.0009373797619502536,-0.00022760155444063426,-0.0013725855899179786,-0.00044103251277335145,0.00014109221394549256,0.000586953635373382,0.4029781222343445,22.819665908813477,0.1253325641155243,-14.032625198364258,-0.2007957100868225,-2.1389803886413574,0.38577598333358765,0
23,0.10998773574829102,-0.4029781222343445,-22.819665908813477,-0.1253325641155243,14.032625198364258,0.2007957100868225,2.1389803886413574,-0.38577598333358765,0.0,0.0,0.0,0.0,0.0,0.0,0.0,-0.43658366177145985,0.014924926756153091,-0.20973969754030972,0.23267654006577562,-0.027471762295654994,-0.051505265575239954,-0.40634207670852196,1.6757266787102345,0.0523004740292468,0.02999173090489287,-2.7527068458592288,0.034298914303385296,2.7663398177358833,0.769195202892715,1.6754973547542302,0.052104326824870026,0.029969505109285054,-2.752394845125968,0.0342448039870148,2.7663679543071322,0.7691630533470046,-0.0007470139087432141,0.0009373797619502536,0.00022760155444063426,0.0013725855899179786,0.00044103251277335145,-0.00014109221394549256,-0.000586953635373382,0.0,0.0,0.0,0.0,0.0,0.0,0.0,-0.00022932395600427924,-0.00019614720437677313,-2.2225795607816456e-05,0.00031200073326065336,-5.411031637049535e-05,2.813657124889346e-05,-3.214954571040263e-05,0.0007470139087432141,-0.0009373797619502536,-0.00022760155444063426,-0.0013725855899179786,-0.00044103251277335145,0.00014109221394549256,0.000586953635373382,0.4029781222343445,22.819665908813477,0.1253325641155243,-14.032625198364258,-0.2007957100868225,-2.1389803886413574,0.38577598333358765,0
24,0.1168060302734375,-0.4267818331718445,-22.795862197875977,-0.09756157547235489,14.080232620239258,0.2072044014930725,2.1325716972351074,-0.39218467473983765,0.0,0.0,0.0,0.0,0.0,0.0,0.0,-0.43640715141074315,0.011610467098393204,-0.20893354886789273,0.23312508029266135,-0.026758810454812872,-0.05066293691587556,-0.40471959310828737,1.67572834914609,0.05229777860097131,0.02998978303734968,-2.7527122586941535,0.034295004924648535,2.7663405298127066,0.7691926222116344,1.6754973547542302,0.052104326824870026,0.029969505109285054,-2.752394845125968,0.0342448039870148,2.7663679543071322,0.7691630533470046,0.0001938656906787595,0.00033934753666803276,-0.0002301649227361091,1.825733640132406e-05,-0.00016069351428496162,0.00013962089514494053,-0.0005359222888714066,0.0,0.0,0.0,0.0,0.0,0.0,0.0,-0.00023099439185969572,-0.00019345177610128467,-2.027792806462772e-05,0.00031741356818537625,-5.020093763373479e-05,2.742449442560968e-05,-2.9568864629792024e-05,-0.0001938656906787595,-0.00033934753666803276,0.0002301649227361091,-1.825733640132406e-05,0.00016069351428496162,-0.00013962089514494053,0.0005359222888714066,0.4267818331718445,22.795862197875977,0.09756157547235489,-14.080232620239258,-0.2072044014930725,-2.1325716972351074,0.39218467473983765,0
25,0.1199941635131836,-0.4267818331718445,-22.795862197875977,-0.09756157547235489,14.080232620239258,0.2072044014930725,2.1325716972351074,-0.39218467473983765,0.0,0.0,0.0,0.0,0.0,0.0,0.0,-0.43640715141074315,0.011610467098393204,-0.20893354886789273,0.23312508029266135,-0.026758810454812872,-0.05066293691587556,-0.40471959310828737,1.67572834914609,0.05229777860097131,0.02998978303734968,-2.7527122586941535,0.034295004924648535,2.7663405298127066,0.7691926222116344,1.6754973547542302,0.052104326824870026,0.029969505109285054,-2.752394845125968,0.0342448039870148,2.7663679543071322,0.7691630533470046,0.0001938656906787595,0.00033934753666803276,-0.0002301649227361091,1.825733640132406e-05,-0.00016069351428496162,0.00013962089514494053,-0.0005359222888714066,0.0,0.0,0.0,0.0,0.0,0.0,0.0,-0.00023099439185969572,-0.00019345177610128467,-2.027792806462772e-05,0.00031741356818537625,-5.020093763373479e-05,2.742449442560968e-05,-2.9568864629792024e-05,-0.0001938656906787595,-0.00033934753666803276,0.0002301649227361091,-1.825733640132406e-05,0.00016069351428496162,-0.00013962089514494053,0.0005359222888714066,0.4267818331718445,22.795862197875977,0.09756157547235489,-14.080232620239258,-0.2072044014930725,-2.1325716972351074,0.39218467473983765,0
26,0.12499189376831055,-0.4029781222343445,-22.748254776000977,-0.1253325641155243,14.108003616333008,0.2072044014930725,2.1517977714538574,-0.42605918645858765,0.0,0.0,0.0,0.0,0.0,0.0,0.0,-0.4354898279921934,0.010994886476895085,-0.20980405404726715,0.23784313027656093,-0.026240925676191528,-0.049212814188323725,-0.40418062769787977,1.6757266787102345,0.05229443674914177,0.029991730904898366,-2.752712159204674,0.03429500344396474,2.7663383935822377,0.7691986230415108,1.6754973547542302,0.052104326824870026,0.029969505109285054,-2.752394845125968,0.0342448039870148,2.7663679543071322,0.7691630533470046,-0.0003825642514243473,-0.0003639560944655311,0.0003350763323336338,0.00035608641525163563,1.1685144114272703e-05,-0.00047233596033798963,0.0011620744215744064,0.0,0.0,0.0,0.0,0.0,0.0,0.0,-0.00022932395600427924,-0.00019010992427174328,-2.222579561331206e-05,0.00031731407870605466,-5.0199456949936994e-05,2.9560724894572843e-05,-3.556969450613234e-05,0.0003825642514243473,0.0003639560944655311,-0.0003350763323336338,-0.00035608641525163563,-1.1685144114272703e-05,0.00047233596033798963,-0.0011620744215744064,0.4029781222343445,22.748254776000977,0.1253325641155243,-14.108003616333008,-0.2072044014930725,-2.1517977714538574,0.42605918645858765,0
27,0.1299433708190918,-0.4029781222343445,-22.748254776000977,-0.1253325641155243,14.108003616333008,0.2072044014930725,2.1517977714538574,-0.42605918645858765,0.0,0.0,0.0,0.0,0.0,0.0,0.0,-0.4354898279921934,0.010994886476895085,-0.20980405404726715,0.23784313027656093,-0.026240925676191528,-0.049212814188323725,-0.40418062769787977,1.6757266787102345,0.05229443674914177,0.029991730904898366,-2.752712159204674,0.03429500344396474,2.7663383935822377,0.7691986230415108,1.6754973547542302,0.052104326824870026,0.029969505109285054,-2.752394845125968,0.0342448039870148,2.7663679543071322,0.7691630533470046,-0.0003825642514243473,-0.0003639560944655311,0.0003350763323336338,0.00035608641525163563,1.1685144114272703e-05,-0.00047233596033798963,0.0011620744215744064,0.0,0.0,0.0,0.0,0.0,0.0,0.0,-0.00022932395600427924,-0.00019010992427174328,-2.222579561331206e-05,0.00031731407870605466,-5.0199456949936994e-05,2.9560724894572843e-05,-3.556969450613234e-05,0.0003825642514243473,0.0003639560944655311,-0.0003350763323336338,-0.00035608641525163563,-1.1685144114272703e-05,0.00047233596033798963,-0.0011620744215744064,0.4029781222343445,22.748254776000977,0.1253325641155243,-14.108003616333008,-0.2072044014930725,-2.1517977714538574,0.42605918645858765,0
28,0.13493990898132324,-0.4267818331718445,-22.795862197875977,-0.09756157547235489,14.080232620239258,0.2007957100868225,2.1389803886413574,-0.40591758489608765,0.0,0.0,0.0,0.0,0.0,0.0,0.0,-0.4337182693459993,0.009962816027465687,-0.20948358117136473,0.2369845803113252,-0.025922525210384822,-0.04884776941487589,-0.40339637727224753,1.67572834914609,0.05229778963761919,0.029989782063584578,-2.752710183896666,0.034296070941068506,2.7663398177358833,0.7691974447365387,1.6754973547542302,0.052104326824870026,0.029969505109285054,-2.752394845125968,0.0342448039870148,2.7663679543071322,0.7691630533470046,-0.00018671700644585812,0.00034954596481301945,-0.00043768874007259396,0.000507614951854604,0.0003117607603924412,-1.4275875512496402e-05,0.00044306258573399384,0.0,0.0,0.0,0.0,0.0,0.0,0.0,-0.00023099439185969572,-0.000193462812749165,-2.0276954299524447e-05,0.0003153387706977817,-5.1266954053705294e-05,2.813657124889346e-05,-3.439138953409415e-05,0.00018671700644585812,-0.00034954596481301945,0.00043768874007259396,-0.000507614951854604,-0.0003117607603924412,1.4275875512496402e-05,-0.00044306258573399384,0.4267818331718445,22.795862197875977,0.09756157547235489,-14.080232620239258,-0.2007957100868225,-2.1389803886413574,0.40591758489608765,0
29,0.1399846076965332,-0.4267818331718445,-22.795862197875977,-0.09756157547235489,14.080232620239258,0.2007957100868225,2.1389803886413574,-0.40591758489608765,0.0,0.0,0.0,0.0,0.0,0.0,0.0,-0.4337182693459993,0.009962816027465687,-0.20948358117136473,0.2369845803113252,-0.025922525210384822,-0.04884776941487589,-0.40339637727224753,1.67572834914609,0.05229778963761919,0.029989782063584578,-2.752710183896666,0.034296070941068506,2.7663398177358833,0.7691974447365387,1.6754973547542302,0.052104326824870026,0.029969505109285054,-2.752394845125968,0.0342448039870148,2.7663679543071322,0.7691630533470046,-0.00018671700644585812,0.00034954596481301945,-0.00043768874007259396,0.000507614951854604,0.0003117607603924412,-1.4275875512496402e-05,0.00044306258573399384,0.0,0.0,0.0,0.0,0.0,0.0,0.0,-0.00023099439185969572,-0.000193462812749165,-2.0276954299524447e-05,0.0003153387706977817,-5.1266954053705294e-05,2.813657124889346e-05,-3.439138953409415e-05,0.00018671700644585812,-0.00034954596481301945,0.00043768874007259396,-0.000507614951854604,-0.0003117607603924412,1.4275875512496402e-05,-0.00044306258573399384,0.4267818331718445,22.795862197875977,0.09756157547235489,-14.080232620239258,-0.2007957100868225,-2.1389803886413574,0.40591758489608765,0
30,0.14498400688171387,-0.4505855441093445,-22.819665908813477,-0.1253325641155243,14.108003616333008,0.2072044014930725,2.1389803886413574,-0.38577598333358765,0.0,0.0,0.0,0.0,0.0,0.0,0.0,-0.435139202690126,0.021432247426271818,-0.2108435019893848,0.22709887979458734,-0.026014884931447685,-0.051098732688337,-0.4028311946529359,1.6757300195819451,0.05229955328472299,0.02999173090489287,-2.7527121327383477,0.03429500783386754,2.7663398177358833,0.7691941083873222,1.6754973547542302,0.052104326824870026,0.029969505109285054,-2.752394845125968,0.0342448039870148,2.7663679543071322,0.7691630533470046,4.478220493882974e-05,0.0012842776614757812,-0.0004009203717306186,-3.2151839698232656e-05,-6.505900072401986e-05,0.0008620025092291648,-0.0005750396786325417,0.0,0.0,0.0,0.0,0.0,0.0,0.0,-0.00023266482771489017,-0.000195226459852961,-2.2225795607816456e-05,0.0003172876123795909,-5.0203846852739376e-05,2.813657124889346e-05,-3.105504031752915e-05,-4.478220493882974e-05,-0.0012842776614757812,0.0004009203717306186,3.2151839698232656e-05,6.505900072401986e-05,-0.0008620025092291648,0.0005750396786325417,0.4505855441093445,22.819665908813477,0.1253325641155243,-14.108003616333008,-0.2072044014930725,-2.1389803886413574,0.38577598333358765,0
31,0.15072250366210938,-0.4505855441093445,-22.819665908813477,-0.1253325641155243,14.108003616333008,0.2072044014930725,2.1389803886413574,-0.38577598333358765,0.0,0.0,0.0,0.0,0.0,0.0,0.0,-0.435139202690126,0.021432247426271818,-0.2108435019893848,0.22709887979458734,-0.026014884931447685,-0.051098732688337,-0.4028311946529359,1.6757300195819451,0.05229955328472299,0.02999173090489287,-2.7527121327383477,0.03429500783386754,2.7663398177358833,0.7691941083873222,1.6754973547542302,0.052104326824870026,0.029969505109285054,-2.752394845125968,0.0342448039870148,2.7663679543071322,0.7691630533470046,4.478220493882974e-05,0.0012842776614757812,-0.0004009203717306186,-3.2151839698232656e-05,-6.505900072401986e-05,0.0008620025092291648,-0.0005750396786325417,0.0,0.0,0.0,0.0,0.0,0.0,0.0,-0.00023266482771489017,-0.000195226459852961,-2.2225795607816456e-05,0.0003172876123795909,-5.0203846852739376e-05,2.813657124889346e-05,-3.105504031752915e-05,-4.478220493882974e-05,-0.0012842776614757812,0.0004009203717306186,3.2151839698232656e-05,6.505900072401986e-05,-0.0008620025092291648,0.0005750396786325417,0.4505855441093445,22.819665908813477,0.1253325641155243,-14.108003616333008,-0.2072044014930725,-2.1389803886413574,0.38577598333358765,0
32,0.15578174591064453,-0.4267818331718445,-22.772058486938477,-0.1253325641155243,14.108003616333008,0.2126975655555725,2.1453890800476074,-0.40591758489608765,0.0,0.0,0.0,0.0,0.0,0.0,0.0,-0.42757970995548666,0.012318300361052175,-0.204058382288482,0.23784205342293316,-0.02726102198505851,-0.04788421705350275,-0.40297995742754794,1.67572834914609,0.052296107546449554,0.029991731013088992,-2.7527121355727706,0.03429439910547339,2.7663391056590605,0.7691974451670016,1.6754973547542302,0.052104326824870026,0.029969505109285054,-2.752394845125968,0.0342448039870148,2.7663679543071322,0.7691630533470046,0.00018042619766792838,-0.00041030748900939667,0.0003129510607105871,-4.297019392850739e-05,-0.00017882691205458063,-0.00013372703293899207,-0.0005655452210291563,0.0,0.0,0.0,0.0,0.0,0.0,0.0,-0.00023099439185969572,-0.0001917807215795278,-2.2225903803938657e-05,0.0003172904468025095,-4.959511845858966e-05,2.8848648071733152e-05,-3.439181999698171e-05,-0.00018042619766792838,0.00041030748900939667,-0.0003129510607105871,4.297019392850739e-05,0.00017882691205458063,0.00013372703293899207,0.0005655452210291563,0.4267818331718445,22.772058486938477,0.1253325641155243,-14.108003616333008,-0.2126975655555725,-2.1453890800476074,0.40591758489608765,0
33,0.15998506546020508,-0.4267818331718445,-22.772058486938477,-0.1253325641155243,14.108003616333008,0.2126975655555725,2.1453890800476074,-0.40591758489608765,0.0,0.0,0.0,0.0,0.0,0.0,0.0,-0.42757970995548666,0.012318300361052175,-0.204058382288482,0.23784205342293316,-0.02726102198505851,-0.04788421705350275,-0.40297995742754794,1.67572834914609,0.052296107546449554,0.029991731013088992,-2.7527121355727706,0.03429439910547339,2.7663391056590605,0.7691974451670016,1.6754973547542302,0.052104326824870026,0.029969505109285054,-2.752394845125968,0.0342448039870148,2.7663679543071322,0.7691630533470046,0.00018042619766792838,-0.00041030748900939667,0.0003129510607105871,-4.297019392850739e-05,-0.00017882691205458063,-0.00013372703293899207,-0.0005655452210291563,0.0,0.0,0.0,0.0,0.0,0.0,0.0,-0.00023099439185969572,-0.0001917807215795278,-2.2225903803938657e-05,0.0003172904468025095,-4.959511845858966e-05,2.8848648071733152e-05,-3.439181999698171e-05,-0.00018042619766792838,0.00041030748900939667,-0.0003129510607105871,4.297019392850739e-05,0.00017882691205458063,0.00013372703293899207,0.0005655452210291563,0.4267818331718445,22.772058486938477,0.1253325641155243,-14.108003616333008,-0.2126975655555725,-2.1453890800476074,0.40591758489608765,0
34,0.16501164436340332,-0.4267818331718445,-22.795862197875977,-0.1253325641155243,14.080232620239258,0.2007957100868225,2.1325716972351074,-0.39950889348983765,0.0,0.0,0.0,0.0,0.0,0.0,0.0,-0.4353746297577844,0.013658242825834388,-0.2134680353162097,0.2340929357690687,-0.026209283243991764,-0.04753397341709266,-0.40377817078213074,1.67572834914609,0.05229801730674202,0.02999173090489348,-2.7527108726613165,0.034295756962136395,2.7663405298127066,0.7691967331502169,1.6754973547542302,0.052104326824870026,0.029969505109285054,-2.752394845125968,0.0342448039870148,2.7663679543071322,0.7691630533470046,-0.00015350346751013668,0.0004069647814479132,-0.00017460254444831997,0.00017315196827200763,0.000147883836652362,0.00012857994693594817,0.0003042432527822291,0.0,0.0,0.0,0.0,0.0,0.0,0.0,-0.00023099439185969572,-0.000193690481871997,-2.222579560842708e-05,0.00031602753534842876,-5.0952975121594524e-05,2.742449442560968e-05,-3.367980321222763e-05,0.00015350346751013668,-0.0004069647814479132,0.00017460254444831997,-0.00017315196827200763,-0.000147883836652362,-0.00012857994693594817,-0.0003042432527822291,0.4267818331718445,22.795862197875977,0.1253325641155243,-14.080232620239258,-0.2007957100868225,-2.1325716972351074,0.39950889348983765,0
35,0.17001008987426758,-0.4267818331718445,-22.795862197875977,-0.1253325641155243,14.080232620239258,0.2007957100868225,2.1325716972351074,-0.39950889348983765,0.0,0.0,0.0,0.0,0.0,0.0,0.0,-0.4353746297577844,0.013658242825834388,-0.2134680353162097,0.2340929357690687,-0.026209283243991764,-0.04753397341709266,-0.40377817078213074,1.67572834914609,0.05229801730674202,0.02999173090489348,-2.7527108726613165,0.034295756962136395,2.7663405298127066,0.7691967331502169,1.6754973547542302,0.052104326824870026,0.029969505109285054,-2.752394845125968,0.0342448039870148,2.7663679543071322,0.7691630533470046,-0.00015350346751013668,0.0004069647814479132,-0.00017460254444831997,0.00017315196827200763,0.000147883836652362,0.00012857994693594817,0.0003042432527822291,0.0,0.0,0.0,0.0,0.0,0.0,0.0,-0.00023099439185969572,-0.000193690481871997,-2.222579560842708e-05,0.00031602753534842876,-5.0952975121594524e-05,2.742449442560968e-05,-3.367980321222763e-05,0.00015350346751013668,-0.0004069647814479132,0.00017460254444831997,-0.00017315196827200763,-0.000147883836652362,-0.00012857994693594817,-0.0003042432527822291,0.4267818331718445,22.795862197875977,0.1253325641155243,-14.080232620239258,-0.2007957100868225,-2.1325716972351074,0.39950889348983765,0
36,0.17499542236328125,-0.4505855441093445,-22.772058486938477,-0.1491362750530243,14.056428909301758,0.2072044014930725,2.1389803886413574,-0.43338340520858765,0.0,0.0,0.0,0.0,0.0,0.0,0.0,-0.43194914868642115,0.00815494310656271,-0.21281522533355435,0.23795854155269064,-0.026713458458787455,-0.04674412033844202,-0.4027089730998773,1.6757300195819451,0.05229618610730937,0.029993401340748134,-2.7527085134645493,0.03429535908116619,2.7663398177358833,0.7691994242109359,1.6754973547542302,0.052104326824870026,0.029969505109285054,-2.752394845125968,0.0342448039870148,2.7663679543071322,0.7691630533470046,0.0003281879814273324,-0.00035195307558814486,0.0005242176364950022,0.0010160988062204756,-9.986914070326318e-05,-3.8800848815773916e-05,0.0009431060231429152,0.0,0.0,0.0,0.0,0.0,0.0,0.0,-0.00023266482771489017,-0.0001918592824393453,-2.3896231463080286e-05,0.0003136683385811523,-5.055509415138881e-05,2.813657124889346e-05,-3.637086393126765e-05,-0.0003281879814273324,0.00035195307558814486,-0.0005242176364950022,-0.0010160988062204756,9.986914070326318e-05,3.8800848815773916e-05,-0.0009431060231429152,0.4505855441093445,22.772058486938477,0.1491362750530243,-14.056428909301758,-0.2072044014930725,-2.1389803886413574,0.43338340520858765,0
37,0.18005013465881348,-0.4505855441093445,-22.772058486938477,-0.1491362750530243,14.056428909301758,0.2072044014930725,2.1389803886413574,-0.43338340520858765,0.0,0.0,0.0,0.0,0.0,0.0,0.0,-0.43194914868642115,0.00815494310656271,-0.21281522533355435,0.23795854155269064,-0.026713458458787455,-0.04674412033844202,-0.4027089730998773,1.6757300195819451,0.05229618610730937,0.029993401340748134,-2.7527085134645493,0.03429535908116619,2.7663398177358833,0.7691994242109359,1.6754973547542302,0.052104326824870026,0.029969505109285054,-2.752394845125968,0.0342448039870148,2.7663679543071322,0.7691630533470046,0.0003281879814273324,-0.00035195307558814486,0.0005242176364950022,0.0010160988062204756,-9.986914070326318e-05,-3.8800848815773916e-05,0.0009431060231429152,0.0,0.0,0.0,0.0,0.0,0.0,0.0,-0.00023266482771489017,-0.0001918592824393453,-2.3896231463080286e-05,0.0003136683385811523,-5.055509415138881e-05,2.813657124889346e-05,-3.637086393126765e-05,-0.0003281879814273324,0.00035195307558814486,-0.0005242176364950022,-0.0010160988062204756,9.986914070326318e-05,3.8800848815773916e-05,-0.0009431060231429152,0.4505855441093445,22.772058486938477,0.1491362750530243,-14.056428909301758,-0.2072044014930725,-2.1389803886413574,0.43338340520858765,0
38,0.18499469757080078,-0.4505855441093445,-22.772058486938477,-0.1491362750530243,14.108003616333008,0.2007957100868225,2.1389803886413574,-0.39950889348983765,0.0,0.0,0.0,0.0,0.0,0.0,0.0,-0.43100921001124676,0.008591255072664061,-0.21095226868238554,0.23631202648223937,-0.027136217803378746,-0.04721444408176709,-0.4042867682664441,1.6757300195819451,0.05229618610640186,0.029993401340748134,-2.7527121327733406,0.03429571568530187,2.7663398177358833,0.7691935542297734,1.6754973547542302,0.052104326824870026,0.029969505109285054,-2.752394845125968,0.0342448039870148,2.7663679543071322,0.7691630533470046,0.0003194048844271768,-0.00023937665459218253,0.0009991119190887545,-6.206823440340768e-05,0.00021650325482153786,-0.00019468211251271838,4.124621865351027e-05,0.0,0.0,0.0,0.0,0.0,0.0,0.0,-0.00023266482771489017,-0.00019185928153183512,-2.3896231463080286e-05,0.0003172876473724884,-5.0911698287067764e-05,2.813657124889346e-05,-3.050088276879137e-05,-0.0003194048844271768,0.00023937665459218253,-0.0009991119190887545,6.206823440340768e-05,-0.00021650325482153786,0.00019468211251271838,-4.124621865351027e-05,0.4505855441093445,22.772058486938477,0.1491362750530243,-14.108003616333008,-0.2007957100868225,-2.1389803886413574,0.39950889348983765,0
39,0.19002795219421387,-0.4505855441093445,-22.772058486938477,-0.1491362750530243,14.108003616333008,0.2007957100868225,2.1389803886413574,-0.39950889348983765,0.0,0.0,0.0,0.0,0.0,0.0,0.0,-0.43100921001124676,0.008591255072664061,-0.21095226868238554,0.23631202648223937,-0.027136217803378746,-0.04721444408176709,-0.4042867682664441,1.6757300195819451,0.05229618610640186,0.029993401340748134,-2.7527121327733406,0.03429571568530187,2.7663398177358833,0.7691935542297734,1.6754973547542302,0.052104326824870026,0.029969505109285054,-2.752394845125968,0.0342448039870148,2.7663679543071322,0.7691630533470046,0.0003194048844271768,-0.00023937665459218253,0.0009991119190887545,-6.206823440340768e-05,0.00021650325482153786,-0.00019468211251271838,4.124621865351027e-05,0.0,0.0,0.0,0.0,0.0,0.0,0.0,-0.00023266482771489017,-0.00019185928153183512,-2.3896231463080286e-05,0.0003172876473724884,-5.0911698287067764e-05,2.813657124889346e-05,-3.050088276879137e-05,-0.0003194048844271768,0.00023937665459218253,-0.0009991119190887545,6.206823440340768e-05,-0.00021650325482153786,0.00019468211251271838,-4.124621865351027e-05,0.4505855441093445,22.772058486938477,0.1491362750530243,-14.108003616333008,-0.2007957100868225,-2.1389803886413574,0.39950889348983765,0
40,0.19500517845153809,-0.4267818331718445,-22.748254776000977,-0.1491362750530243,14.108003616333008,0.2126975655555725,2.1325716972351074,-0.42605918645858765,0.0,0.0,0.0,0.0,0.0,0.0,0.0,-0.43064011635837157,0.005811613610391253,-0.20593641095707688,0.2381128206622249,-0.027316189804476938,-0.04755884439340386,-0.40523399946943156,1.67572834914609,0.05229451567054659,0.029993401340748134,-2.7527121327733406,0.03429439357993978,2.766340647550277,0.7691996831648241,1.6754973547542302,0.052104326824870026,0.029969505109285054,-2.752394845125968,0.0342448039870148,2.7663679543071322,0.7691630533470046,0.0002951917040483715,-0.00111837785667825,0.0009731857220793564,-8.611256667807711e-05,-0.00022877184776720554,0.00013676648073361576,0.0006102690990778508,0.0,0.0,0.0,0.0,0.0,0.0,0.0,-0.00023099439185969572,-0.00019018884567656436,-2.3896231463080286e-05,0.0003172876473724884,-4.9589592924982606e-05,2.730675685524986e-05,-3.662981781948904e-05,-0.0002951917040483715,0.00111837785667825,-0.0009731857220793564,8.611256667807711e-05,0.00022877184776720554,-0.00013676648073361576,-0.0006102690990778508,0.4267818331718445,22.748254776000977,0.1491362750530243,-14.108003616333008,-0.2126975655555725,-2.1325716972351074,0.42605918645858765,0
41,0.20000433921813965,-0.4267818331718445,-22.748254776000977,-0.1491362750530243,14.108003616333008,0.2126975655555725,2.1325716972351074,-0.42605918645858765,0.0,0.0,0.0,0.0,0.0,0.0,0.0,-0.43064011635837157,0.005811613610391253,-0.20593641095707688,0.2381128206622249,-0.027316189804476938,-0.04755884439340386,-0.40523399946943156,1.67572834914609,0.05229451567054659,0.029993401340748134,-2.7527121327733406,0.03429439357993978,2.766340647550277,0.7691996831648241,1.6754973547542302,0.052104326824870026,0.029969505109285054,-2.752394845125968,0.0342448039870148,2.7663679543071322,0.7691630533470046,0.0002951917040483715,-0.00111837785667825,0.0009731857220793564,-8.611256667807711e-05,-0.00022877184776720554,0.00013676648073361576,0.0006102690990778508,0.0,0.0,0.0,0.0,0.0,0.0,0.0,-0.00023099439185969572,-0.00019018884567656436,-2.3896231463080286e-05,0.0003172876473724884,-4.9589592924982606e-05,2.730675685524986e-05,-3.662981781948904e-05,-0.0002951917040483715,0.00111837785667825,-0.0009731857220793564,8.611256667807711e-05,0.00022877184776720554,-0.00013676648073361576,-0.0006102690990778508,0.4267818331718445,22.748254776000977,0.1491362750530243,-14.108003616333008,-0.2126975655555725,-2.1325716972351074,0.42605918645858765,0
42,0.2050182819366455,-0.4029781222343445,-22.748254776000977,-0.1253325641155243,14.108003616333008,0.2007957100868225,2.1197543144226074,-0.36471885442733765,0.0,0.0,0.0,0.0,0.0,0.0,0.0,-0.43435298146246426,0.012835984071279227,-0.20872771746956856,0.23646541983437325,-0.026308272633083826,-0.04849696995935506,-0.4064615848312213,1.6757266787102345,0.05229443967258045,0.02999173090489287,-2.752712362326609,0.03429682566069774,2.766341953967017,0.7691896886759333,1.6754973547542302,0.052104326824870026,0.029969505109285054,-2.752394845125968,0.0342448039870148,2.7663679543071322,0.7691630533470046,-0.0006424152183284353,-0.0006349947827867946,0.00012821649623338013,0.00020296483824639233,0.0001170708544112955,0.0005940680554233534,-0.001852537462551317,0.0,0.0,0.0,0.0,0.0,0.0,0.0,-0.00022932395600427924,-0.00019011284771042192,-2.2225795607816456e-05,0.0003175172006408822,-5.202167368294208e-05,2.600034011512875e-05,-2.6635328928659163e-05,0.0006424152183284353,0.0006349947827867946,-0.00012821649623338013,-0.00020296483824639233,-0.0001170708544112955,-0.0005940680554233534,0.001852537462551317,0.4029781222343445,22.748254776000977,0.1253325641155243,-14.108003616333008,-0.2007957100868225,-2.1197543144226074,0.36471885442733765,0
43,0.2099905014038086,-0.4029781222343445,-22.748254776000977,-0.1253325641155243,14.108003616333008,0.2007957100868225,2.1197543144226074,-0.36471885442733765,0.0,0.0,0.0,0.0,0.0,0.0,0.0,-0.43435298146246426,0.012835984071279227,-0.20872771746956856,0.23646541983437325,-0.026308272633083826,-0.04849696995935506,-0.4064615848312213,1.6757266787102345,0.05229443967258045,0.02999173090489287,-2.752712362326609,0.03429682566069774,2.766341953967017,0.7691896886759333,1.6754973547542302,0.052104326824870026,0.029969505109285054,-2.752394845125968,0.0342448039870148,2.7663679543071322,0.7691630533470046,-0.0006424152183284353,-0.0006349947827867946,0.00012821649623338013,0.00020296483824639233,0.0001170708544112955,0.0005940680554233534,-0.001852537462551317,0.0,0.0,0.0,0.0,0.0,0.0,0.0,-0.00022932395600427924,-0.00019011284771042192,-2.2225795607816456e-05,0.0003175172006408822,-5.202167368294208e-05,2.600034011512875e-05,-2.6635328928659163e-05,0.0006424152183284353,0.0006349947827867946,-0.00012821649623338013,-0.00020296483824639233,-0.0001170708544112955,-0.0005940680554233534,0.001852537462551317,0.4029781222343445,22.748254776000977,0.1253325641155243,-14.108003616333008,-0.2007957100868225,-2.1197543144226074,0.36471885442733765,0
44,0.21498703956604004,-0.4029781222343445,-22.748254776000977,-0.1253325641155243,14.108003616333008,0.2007957100868225,2.1197543144226074,-0.36471885442733765,0.0,0.0,0.0,0.0,0.0,0.0,0.0,-0.43435298146246426,0.012835984071279227,-0.20872771746956856,0.23646541983437325,-0.026308272633083826,-0.04849696995935506,-0.4064615848312213,1.6757266787102345,0.05229443967258045,0.02999173090489287,-2.752712362326609,0.03429682566069774,2.766341953967017,0.7691896886759333,1.6754973547542302,0.052104326824870026,0.029969505109285054,-2.752394845125968,0.0342448039870148,2.7663679543071322,0.7691630533470046,-0.0006424152183284353,-0.0006349947827867946,0.00012821649623338013,0.00020296483824639233,0.0001170708544112955,0.0005940680554233534,-0.001852537462551317,0.0,0.0,0.0,0.0,0.0,0.0,0.0,-0.00022932395600427924,-0.00019011284771042192,-2.2225795607816456e-05,0.0003175172006408822,-5.202167368294208e-05,2.600034011512875e-05,-2.6635328928659163e-05,0.0006424152183284353,0.0006349947827867946,-0.00012821649623338013,-0.00020296483824639233,-0.0001170708544112955,-0.0005940680554233534,0.001852537462551317,0.4029781222343445,22.748254776000977,0.1253325641155243,-14.108003616333008,-0.2007957100868225,-2.1197543144226074,0.36471885442733765,0
45,0.2200026512145996,-0.4783565402030945,-22.795862197875977,-0.1253325641155243,14.080232620239258,0.2072044014930725,2.1389803886413574,-0.39218467473983765,0.0,0.0,0.0,0.0,0.0,0.0,0.0,-0.4336663939462692,0.01740799038464919,-0.20718569317041463,0.23372293120661705,-0.02642082166416053,-0.04947737584815673,-0.40726330809162514,1.6757319684237761,0.05229777762086327,0.02999173090489287,-2.7527101838978125,0.03429500345022315,2.7663398177358838,0.7691959062482365,1.6754973547542302,0.052104326824870026,0.029969505109285054,-2.752394845125968,0.0342448039870148,2.7663679543071322,0.7691630533470046,0.0008863444218771485,0.000823260922058249,0.0004483018875699199,0.0003558376901723116,-9.248516131029269e-05,-0.0002983714893233126,-0.0009790083723538508,0.0,0.0,0.0,0.0,0.0,0.0,0.0,-0.00023461366954591334,-0.00019345079599324133,-2.2225795607816456e-05,0.00031533877184442005,-5.019946320834745e-05,2.813657124844937e-05,-3.285290123189455e-05,-0.0008863444218771485,-0.000823260922058249,-0.0004483018875699199,-0.0003558376901723116,9.248516131029269e-05,0.0002983714893233126,0.0009790083723538508,0.4783565402030945,22.795862197875977,0.1253325641155243,-14.080232620239258,-0.2072044014930725,-2.1389803886413574,0.39218467473983765,0
46,0.22500824928283691,-0.4783565402030945,-22.795862197875977,-0.1253325641155243,14.080232620239258,0.2072044014930725,2.1389803886413574,-0.39218467473983765,0.0,0.0,0.0,0.0,0.0,0.0,0.0,-0.4336663939462692,0.01740799038464919,-0.20718569317041463,0.23372293120661705,-0.02642082166416053,-0.04947737584815673,-0.40726330809162514,1.6757319684237761,0.05229777762086327,0.02999173090489287,-2.7527101838978125,0.03429500345022315,2.7663398177358838,0.7691959062482365,1.6754973547542302,0.052104326824870026,0.029969505109285054,-2.752394845125968,0.0342448039870148,2.7663679543071322,0.7691630533470046,0.0008863444218771485,0.000823260922058249,0.0004483018875699199,0.0003558376901723116,-9.248516131029269e-05,-0.0002983714893233126,-0.0009790083723538508,0.0,0.0,0.0,0.0,0.0,0.0,0.0,-0.00023461366954591334,-0.00019345079599324133,-2.2225795607816456e-05,0.00031533877184442005,-5.019946320834745e-05,2.813657124844937e-05,-3.285290123189455e-05,-0.0008863444218771485,-0.000823260922058249,-0.0004483018875699199,-0.0003558376901723116,9.248516131029269e-05,0.0002983714893233126,0.0009790083723538508,0.4783565402030945,22.795862197875977,0.1253325641155243,-14.080232620239258,-0.2072044014930725,-2.1389803886413574,0.39218467473983765,0
47,0.2299973964691162,-0.4783565402030945,-22.795862197875977,-0.1253325641155243,14.080232620239258,0.2072044014930725,2.1389803886413574,-0.39218467473983765,0.0,0.0,0.0,0.0,0.0,0.0,0.0,-0.4336663939462692,0.01740799038464919,-0.20718569317041463,0.23372293120661705,-0.02642082166416053,-0.04947737584815673,-0.40726330809162514,1.6757319684237761,0.05229777762086327,0.02999173090489287,-2.7527101838978125,0.03429500345022315,2.7663398177358838,0.7691959062482365,1.6754973547542302,0.052104326824870026,0.029969505109285054,-2.752394845125968,0.0342448039870148,2.7663679543071322,0.7691630533470046,0.0008863444218771485,0.000823260922058249,0.0004483018875699199,0.0003558376901723116,-9.248516131029269e-05,-0.0002983714893233126,-0.0009790083723538508,0.0,0.0,0.0,0.0,0.0,0.0,0.0,-0.00023461366954591334,-0.00019345079599324133,-2.2225795607816456e-05,0.00031533877184442005,-5.019946320834745e-05,2.813657124844937e-05,-3.285290123189455e-05,-0.0008863444218771485,-0.000823260922058249,-0.0004483018875699199,-0.0003558376901723116,9.248516131029269e-05,0.0002983714893233126,0.0009790083723538508,0.4783565402030945,22.795862197875977,0.1253325641155243,-14.080232620239258,-0.2072044014930725,-2.1389803886413574,0.39218467473983765,0
48,0.2350316047668457,-0.4783565402030945,-22.795862197875977,-0.1253325641155243,14.080232620239258,0.2072044014930725,2.1389803886413574,-0.39218467473983765,0.0,0.0,0.0,0.0,0.0,0.0,0.0,-0.4336663939462692,0.01740799038464919,-0.20718569317041463,0.23372293120661705,-0.02642082166416053,-0.04947737584815673,-0.40726330809162514,1.6757319684237761,0.05229777762086327,0.02999173090489287,-2.7527101838978125,0.03429500345022315,2.7663398177358838,0.7691959062482365,1.6754973547542302,0.052104326824870026,0.029969505109285054,-2.752394845125968,0.0342448039870148,2.7663679543071322,0.7691630533470046,0.0008863444218771485,0.000823260922058249,0.0004483018875699199,0.0003558376901723116,-9.248516131029269e-05,-0.0002983714893233126,-0.0009790083723538508,0.0,0.0,0.0,0.0,0.0,0.0,0.0,-0.00023461366954591334,-0.00019345079599324133,-2.2225795607816456e-05,0.00031533877184442005,-5.019946320834745e-05,2.813657124844937e-05,-3.285290123189455e-05,-0.0008863444218771485,-0.000823260922058249,-0.0004483018875699199,-0.0003558376901723116,9.248516131029269e-05,0.0002983714893233126,0.0009790083723538508,0.4783565402030945,22.795862197875977,0.1253325641155243,-14.080232620239258,-0.2072044014930725,-2.1389803886413574,0.39218467473983765,0
49,0.23999428749084473,-0.4267818331718445,-22.795862197875977,-0.1253325641155243,14.080232620239258,0.2007957100868225,2.1197543144226074,-0.41965049505233765,0.0,0.0,0.0,0.0,0.0,0.0,0.0,-0.4320418628195956,0.01219816202492512,-0.20567847744185483,0.24011241430978778,-0.026583190018937664,-0.0495513736925696,-0.4076759229543,1.67572834914609,0.052297777729105974,0.029991967529813677,-2.752710413484778,0.0342992828873859,2.7663419539663527,0.7691989711058724,1.6754973547542302,0.052104326824870026,0.029969505109285054,-2.752394845125968,0.0342448039870148,2.7663679543071322,0.7691630533470046,0.00047533984454292536,0.0001682377612049019,-0.00020070122504203415,0.000521352661542783,8.351204054783986e-05,0.0003978125057827452,0.00037416060583414095,0.0,0.0,0.0,0.0,0.0,0.0,0.0,-0.00023099439185969572,-0.0001934509042359478,-2.246242052862321e-05,0.000315568358809859,-5.447890037110076e-05,2.600034077948621e-05,-3.5917758867798355e-05,-0.00047533984454292536,-0.0001682377612049019,0.00020070122504203415,-0.000521352661542783,-8.351204054783986e-05,-0.0003978125057827452,-0.00037416060583414095,0.4267818331718445,22.795862197875977,0.1253325641155243,-14.080232620239258,-0.2007957100868225,-2.1197543144226074,0.41965049505233765,0
50,0.24503350257873535,-0.4267818331718445,-22.795862197875977,-0.1253325641155243,14.080232620239258,0.2007957100868225,2.1197543144226074,-0.41965049505233765,0.0,0.0,0.0,0.0,0.0,0.0,0.0,-0.4320418628195956,0.01219816202492512,-0.20567847744185483,0.24011241430978778,-0.026583190018937664,-0.0495513736925696,-0.4076759229543,1.67572834914609,0.052297777729105974,0.029991967529813677,-2.752710413484778,0.0342992828873859,2.7663419539663527,0.7691989711058724,1.6754973547542302,0.052104326824870026,0.029969505109285054,-2.752394845125968,0.0342448039870148,2.7663679543071322,0.7691630533470046,0.00047533984454292536,0.0001682377612049019,-0.00020070122504203415,0.000521352661542783,8.351204054783986e-05,0.0003978125057827452,0.00037416060583414095,0.0,0.0,0.0,0.0,0.0,0.0,0.0,-0.00023099439185969572,-0.0001934509042359478,-2.246242052862321e-05,0.000315568358809859,-5.447890037110076e-05,2.600034077948621e-05,-3.5917758867798355e-05,-0.00047533984454292536,-0.0001682377612049019,0.00020070122504203415,-0.000521352661542783,-8.351204054783986e-05,-0.0003978125057827452,-0.00037416060583414095,0.4267818331718445,22.795862197875977,0.1253325641155243,-14.080232620239258,-0.2007957100868225,-2.1197543144226074,0.41965049505233765,0
51,0.24999642372131348,-0.4505855441093445,-22.795862197875977,-0.1253325641155243,14.108003616333008,0.2072044014930725,2.1389803886413574,-0.43338340520858765,0.0,0.0,0.0,0.0,0.0,0.0,0.0,-0.43016383550828896,0.014246537344287543,-0.2062608310449313,0.23423216297530602,-0.027110340208603038,-0.051961443543506285,-0.4076628554971172,1.6757300195819451,0.052297778595180276,0.029991730906228625,-2.7527121412429123,0.03429512340015894,2.7663398177358838,0.7691973137098139,1.6754973547542302,0.052104326824870026,0.029969505109285054,-2.752394845125968,0.0342448039870148,2.7663679543071322,0.7691630533470046,0.0004147897751546528,-0.0001970113813682971,0.000127865528501543,-0.0008135624704408705,-6.980468289030263e-05,-9.024959328494447e-05,0.0013955476896860281,0.0,0.0,0.0,0.0,0.0,0.0,0.0,-0.00023266482771489017,-0.00019345177031025035,-2.222579694357088e-05,0.000317296116944199,-5.0319413144137015e-05,2.813657124844937e-05,-3.426036280929079e-05,-0.0004147897751546528,0.0001970113813682971,-0.000127865528501543,0.0008135624704408705,6.980468289030263e-05,9.024959328494447e-05,-0.0013955476896860281,0.4505855441093445,22.795862197875977,0.1253325641155243,-14.108003616333008,-0.2072044014930725,-2.1389803886413574,0.43338340520858765,0
52,0.25498533248901367,-0.4505855441093445,-22.795862197875977,-0.1253325641155243,14.108003616333008,0.2072044014930725,2.1389803886413574,-0.43338340520858765,0.0,0.0,0.0,0.0,0.0,0.0,0.0,-0.43016383550828896,0.014246537344287543,-0.2062608310449313,0.23423216297530602,-0.027110340208603038,-0.051961443543506285,-0.4076628554971172,1.6757300195819451,0.052297778595180276,0.029991730906228625,-2.7527121412429123,0.03429512340015894,2.7663398177358838,0.7691973137098139,1.6754973547542302,0.052104326824870026,0.029969505109285054,-2.752394845125968,0.0342448039870148,2.7663679543071322,0.7691630533470046,0.0004147897751546528,-0.0001970113813682971,0.000127865528501543,-0.0008135624704408705,-6.980468289030263e-05,-9.024959328494447e-05,0.0013955476896860281,0.0,0.0,0.0,0.0,0.0,0.0,0.0,-0.00023266482771489017,-0.00019345177031025035,-2.222579694357088e-05,0.000317296116944199,-5.0319413144137015e-05,2.813657124844937e-05,-3.426036280929079e-05,-0.0004147897751546528,0.0001970113813682971,-0.000127865528501543,0.0008135624704408705,6.980468289030263e-05,9.024959328494447e-05,-0.0013955476896860281,0.4505855441093445,22.795862197875977,0.1253325641155243,-14.108003616333008,-0.2072044014930725,-2.1389803886413574,0.43338340520858765,0
53,0.25998544692993164,-0.4267818331718445,-22.795862197875977,-0.1491362750530243,14.131807327270508,0.2007957100868225,2.1453890800476074,-0.37204307317733765,0.0,0.0,0.0,0.0,0.0,0.0,0.0,-0.4329614682006017,0.010529145337481656,-0.20809784774828197,0.23912873255631217,-0.02692615595659513,-0.051203440468736636,-0.4064800636605619,1.67572834914609,0.05229777870345537,0.029993401340748155,-2.752713803174347,0.0342958339962405,2.766339105659061,0.7691926197622992,1.6754973547542302,0.052104326824870026,0.029969505109285054,-2.752394845125968,0.0342448039870148,2.7663679543071322,0.7691630533470046,-0.0005425749069658393,0.0001434598944267503,0.00033868646105880717,-0.0005817833371826321,7.436203371231796e-05,-0.000518405326710161,-0.0010094382439377863,0.0,0.0,0.0,0.0,0.0,0.0,0.0,-0.00023099439185969572,-0.00019345187858534757,-2.3896231463101103e-05,0.0003189580483788923,-5.1030009225697115e-05,2.8848648071289062e-05,-2.9566415294612902e-05,0.0005425749069658393,-0.0001434598944267503,-0.00033868646105880717,0.0005817833371826321,-7.436203371231796e-05,0.000518405326710161,0.0010094382439377863,0.4267818331718445,22.795862197875977,0.1491362750530243,-14.131807327270508,-0.2007957100868225,-2.1453890800476074,0.37204307317733765,0
54,0.2649877071380615,-0.4267818331718445,-22.795862197875977,-0.1491362750530243,14.131807327270508,0.2007957100868225,2.1453890800476074,-0.37204307317733765,0.0,0.0,0.0,0.0,0.0,0.0,0.0,-0.4329614682006017,0.010529145337481656,-0.20809784774828197,0.23912873255631217,-0.02692615595659513,-0.051203440468736636,-0.4064800636605619,1.67572834914609,0.05229777870345537,0.029993401340748155,-2.752713803174347,0.0342958339962405,2.766339105659061,0.7691926197622992,1.6754973547542302,0.052104326824870026,0.029969505109285054,-2.752394845125968,0.0342448039870148,2.7663679543071322,0.7691630533470046,-0.0005425749069658393,0.0001434598944267503,0.00033868646105880717,-0.0005817833371826321,7.436203371231796e-05,-0.000518405326710161,-0.0010094382439377863,0.0,0.0,0.0,0.0,0.0,0.0,0.0,-0.00023099439185969572,-0.00019345187858534757,-2.3896231463101103e-05,0.0003189580483788923,-5.1030009225697115e-05,2.8848648071289062e-05,-2.9566415294612902e-05,0.0005425749069658393,-0.0001434598944267503,-0.00033868646105880717,0.0005817833371826321,-7.436203371231796e-05,0.000518405326710161,0.0010094382439377863,0.4267818331718445,22.795862197875977,0.1491362750530243,-14.131807327270508,-0.2007957100868225,-2.1453890800476074,0.37204307317733765,0
55,0.27000856399536133,-0.4267818331718445,-22.772058486938477,-0.1253325641155243,14.056428909301758,0.2126975655555725,2.1325716972351074,-0.37204307317733765,0.0,0.0,0.0,0.0,0.0,0.0,0.0,-0.43202327501250787,0.00942213401196828,-0.20824321868676873,0.23841183629597607,-0.027554987476755388,-0.05194958374541557,-0.40540063369582024,1.67572834914609,0.05229610729325682,0.02999173090489287,-2.7527085134606613,0.03429451600856888,2.766340529812707,0.7691925693666384,1.6754973547542302,0.052104326824870026,0.029969505109285054,-2.752394845125968,0.0342448039870148,2.7663679543071322,0.7691630533470046,-0.00014168262680736888,-0.0003207037899836877,-0.00039253560483993807,0.0010836302104323332,-0.00024992329694617374,-0.00015864923263170445,-0.0016217122570337725,0.0,0.0,0.0,0.0,0.0,0.0,0.0,-0.00023099439185969572,-0.00019178046838679713,-2.2225795607816456e-05,0.00031366833469315125,-4.9712021554078334e-05,2.742449442516559e-05,-2.9516019633746282e-05,0.00014168262680736888,0.0003207037899836877,0.00039253560483993807,-0.0010836302104323332,0.00024992329694617374,0.00015864923263170445,0.0016217122570337725,0.4267818331718445,22.772058486938477,0.1253325641155243,-14.056428909301758,-0.2126975655555725,-2.1325716972351074,0.37204307317733765,0
56,0.2750563621520996,-0.4267818331718445,-22.772058486938477,-0.1253325641155243,14.056428909301758,0.2126975655555725,2.1325716972351074,-0.37204307317733765,0.0,0.0,0.0,0.0,0.0,0.0,0.0,-0.43202327501250787,0.00942213401196828,-0.20824321868676873,0.23841183629597607,-0.027554987476755388,-0.05194958374541557,-0.40540063369582024,1.67572834914609,0.05229610729325682,0.02999173090489287,-2.7527085134606613,0.03429451600856888,2.766340529812707,0.7691925693666384,1.6754973547542302,0.052104326824870026,0.029969505109285054,-2.752394845125968,0.0342448039870148,2.7663679543071322,0.7691630533470046,-0.00014168262680736888,-0.0003207037899836877,-0.00039253560483993807,0.0010836302104323332,-0.00024992329694617374,-0.00015864923263170445,-0.0016217122570337725,0.0,0.0,0.0,0.0,0.0,0.0,0.0,-0.00023099439185969572,-0.00019178046838679713,-2.2225795607816456e-05,0.00031366833469315125,-4.9712021554078334e-05,2.742449442516559e-05,-2.9516019633746282e-05,0.00014168262680736888,0.0003207037899836877,0.00039253560483993807,-0.0010836302104323332,0.00024992329694617374,0.00015864923263170445,0.0016217122570337725,0.4267818331718445,22.772058486938477,0.1253325641155243,-14.056428909301758,-0.2126975655555725,-2.1325716972351074,0.37204307317733765,0
57,0.2799961566925049,-0.4783565402030945,-22.795862197875977,-0.1253325641155243,14.080232620239258,0.2126975655555725,2.1325716972351074,-0.41965049505233765,0.0,0.0,0.0,0.0,0.0,0.0,0.0,-0.4344739077524896,0.01762759182308982,-0.21152150155136354,0.2344375701445709,-0.02763097269872152,-0.052664132846821414,-0.40502776762868425,1.6757319684237761,0.052297778595180276,0.02999173090489287,-2.7527101838965167,0.03429796484759912,2.766340529812707,0.7691985786411025,1.6754973547542302,0.052104326824870026,0.029969505109285054,-2.752394845125968,0.0342448039870148,2.7663679543071322,0.7691630533470046,0.0009049875985842601,0.0012569859218027606,-7.087262339319778e-05,0.00022600907049072117,-0.00038537191423830406,-9.769023900304418e-06,0.000695275430037689,0.0,0.0,0.0,0.0,0.0,0.0,0.0,-0.00023461366954591334,-0.00019345177031025035,-2.2225795607816456e-05,0.00031533877054856774,-5.316086058432257e-05,2.742449442516559e-05,-3.55252940978934e-05,-0.0009049875985842601,-0.0012569859218027606,7.087262339319778e-05,-0.00022600907049072117,0.00038537191423830406,9.769023900304418e-06,-0.000695275430037689,0.4783565402030945,22.795862197875977,0.1253325641155243,-14.080232620239258,-0.2126975655555725,-2.1325716972351074,0.41965049505233765,0
58,0.2850351333618164,-0.4783565402030945,-22.795862197875977,-0.1253325641155243,14.080232620239258,0.2126975655555725,2.1325716972351074,-0.41965049505233765,0.0,0.0,0.0,0.0,0.0,0.0,0.0,-0.4344739077524896,0.01762759182308982,-0.21152150155136354,0.2344375701445709,-0.02763097269872152,-0.052664132846821414,-0.40502776762868425,1.6757319684237761,0.052297778595180276,0.02999173090489287,-2.7527101838965167,0.03429796484759912,2.766340529812707,0.7691985786411025,1.6754973547542302,0.052104326824870026,0.029969505109285054,-2.752394845125968,0.0342448039870148,2.7663679543071322,0.7691630533470046,0.0009049875985842601,0.0012569859218027606,-7.087262339319778e-05,0.00022600907049072117,-0.00038537191423830406,-9.769023900304418e-06,0.000695275430037689,0.0,0.0,0.0,0.0,0.0,0.0,0.0,-0.00023461366954591334,-0.00019345177031025035,-2.2225795607816456e-05,0.00031533877054856774,-5.316086058432257e-05,2.742449442516559e-05,-3.55252940978934e-05,-0.0009049875985842601,-0.0012569859218027606,7.087262339319778e-05,-0.00022600907049072117,0.00038537191423830406,9.769023900304418e-06,-0.000695275430037689,0.4783565402030945,22.795862197875977,0.1253325641155243,-14.080232620239258,-0.2126975655555725,-2.1325716972351074,0.41965049505233765,0
59,0.2900052070617676,-0.4267818331718445,-22.795862197875977,-0.09756157547235489,14.108003616333008,0.2007957100868225,2.1389803886413574,-0.43338340520858765,0.0,0.0,0.0,0.0,0.0,0.0,0.0,-0.43552383858333493,0.013097397778196972,-0.21026625276236724,0.24068992396290284,-0.027425086935094833,-0.05107950211617122,-0.403799032414544,1.67572834914609,0.05230061881167296,0.029989782063584578,-2.7527123878364157,0.03429571992884676,2.7663398177358838,0.7692004562832302,1.6754973547542302,0.052104326824870026,0.029969505109285054,-2.752394845125968,0.0342448039870148,2.7663679543071322,0.7691630533470046,-0.00016408984354731234,0.0008442383310843652,-0.0008710494638400026,7.109108117713576e-05,0.0001278317053707182,-7.292166649413994e-05,0.0009074556497613241,0.0,0.0,0.0,0.0,0.0,0.0,0.0,-0.00023099439185969572,-0.00019629198680293225,-2.0276954299524447e-05,0.00031754271044759363,-5.0915941831958245e-05,2.813657124844937e-05,-3.7402936225561234e-05,0.00016408984354731234,-0.0008442383310843652,0.0008710494638400026,-7.109108117713576e-05,-0.0001278317053707182,7.292166649413994e-05,-0.0009074556497613241,0.4267818331718445,22.795862197875977,0.09756157547235489,-14.108003616333008,-0.2007957100868225,-2.1389803886413574,0.43338340520858765,0
60,0.29499173164367676,-0.4267818331718445,-22.795862197875977,-0.09756157547235489,14.108003616333008,0.2007957100868225,2.1389803886413574,-0.43338340520858765,0.0,0.0,0.0,0.0,0.0,0.0,0.0,-0.43552383858333493,0.013097397778196972,-0.21026625276236724,0.24068992396290284,-0.027425086935094833,-0.05107950211617122,-0.403799032414544,1.67572834914609,0.05230061881167296,0.029989782063584578,-2.7527123878364157,0.03429571992884676,2.7663398177358838,0.7692004562832302,1.6754973547542302,0.052104326824870026,0.029969505109285054,-2.752394845125968,0.0342448039870148,2.7663679543071322,0.7691630533470046,-0.00016408984354731234,0.0008442383310843652,-0.0008710494638400026,7.109108117713576e-05,0.0001278317053707182,-7.292166649413994e-05,0.0009074556497613241,0.0,0.0,0.0,0.0,0.0,0.0,0.0,-0.00023099439185969572,-0.00019629198680293225,-2.0276954299524447e-05,0.00031754271044759363,-5.0915941831958245e-05,2.813657124844937e-05,-3.7402936225561234e-05,0.00016408984354731234,-0.0008442383310843652,0.0008710494638400026,-7.109108117713576e-05,-0.0001278317053707182,7.292166649413994e-05,-0.0009074556497613241,0.4267818331718445,22.795862197875977,0.09756157547235489,-14.108003616333008,-0.2007957100868225,-2.1389803886413574,0.43338340520858765,0
61,0.2999858856201172,-0.4267818331718445,-22.772058486938477,-0.07375786453485489,14.108003616333008,0.1953025460243225,2.1325716972351074,-0.44711631536483765,0.0,0.0,0.0,0.0,0.0,0.0,0.0,-0.43253791431203176,0.014532483214094975,-0.20734959963146948,0.2416856544963458,-0.027471791853029556,-0.05077871466670595,-0.4043138523317388,1.67572834914609,0.052296107201030104,0.029988111627729314,-2.7527121327397874,0.03429636980558639,2.766340529812707,0.7692020228096939,1.6754973547542302,0.052104326824870026,0.029969505109285054,-2.752394845125968,0.0342448039870148,2.7663679543071322,0.7691630533470046,6.696461266321299e-05,-7.903884540495956e-05,-0.0007847575446089249,-0.00017068318625378733,0.00035878161876033314,-5.350104688867627e-05,0.001872288998200369,0.0,0.0,0.0,0.0,0.0,0.0,0.0,-0.00023099439185969572,-0.00019178037616007781,-1.8606518444260617e-05,0.00031728761381932813,-5.156581857158893e-05,2.742449442516559e-05,-3.896946268922008e-05,-6.696461266321299e-05,7.903884540495956e-05,0.0007847575446089249,0.00017068318625378733,-0.00035878161876033314,5.350104688867627e-05,-0.001872288998200369,0.4267818331718445,22.772058486938477,0.07375786453485489,-14.108003616333008,-0.1953025460243225,-2.1325716972351074,0.44711631536483765,0
62,0.30498695373535156,-0.4267818331718445,-22.772058486938477,-0.07375786453485489,14.108003616333008,0.1953025460243225,2.1325716972351074,-0.44711631536483765,0.0,0.0,0.0,0.0,0.0,0.0,0.0,-0.43253791431203176,0.014532483214094975,-0.20734959963146948,0.2416856544963458,-0.027471791853029556,-0.05077871466670595,-0.4043138523317388,1.67572834914609,0.052296107201030104,0.029988111627729314,-2.7527121327397874,0.03429636980558639,2.766340529812707,0.7692020228096939,1.6754973547542302,0.052104326824870026,0.029969505109285054,-2.752394845125968,0.0342448039870148,2.7663679543071322,0.7691630533470046,6.696461266321299e-05,-7.903884540495956e-05,-0.0007847575446089249,-0.00017068318625378733,0.00035878161876033314,-5.350104688867627e-05,0.001872288998200369,0.0,0.0,0.0,0.0,0.0,0.0,0.0,-0.00023099439185969572,-0.00019178037616007781,-1.8606518444260617e-05,0.00031728761381932813,-5.156581857158893e-05,2.742449442516559e-05,-3.896946268922008e-05,-6.696461266321299e-05,7.903884540495956e-05,0.0007847575446089249,0.00017068318625378733,-0.00035878161876033314,5.350104688867627e-05,-0.001872288998200369,0.4267818331718445,22.772058486938477,0.07375786453485489,-14.108003616333008,-0.1953025460243225,-2.1325716972351074,0.44711631536483765,0
63,0.3099839687347412,-0.4267818331718445,-22.819665908813477,-0.1491362750530243,14.131807327270508,0.2072044014930725,2.1453890800476074,-0.37204307317733765,0.0,0.0,0.0,0.0,0.0,0.0,0.0,-0.43492396686012375,0.01819729416076979,-0.20819045868849242,0.2296769930699777,-0.026897445659740473,-0.05392218851285675,-0.4050722917580697,1.67572834914609,0.052299474363690396,0.029993401340748134,-2.7527138034891387,0.03429500344420438,2.766339105659061,0.7691936813924043,1.6754973547542302,0.052104326824870026,0.029969505109285054,-2.752394845125968,0.0342448039870148,2.7663679543071322,0.7691630533470046,9.108202629787422e-05,0.00013253476868530008,0.0006526788488952488,-0.0010695930107449687,-0.000257964338299299,0.000545328162388931,-0.001368655930968632,0.0,0.0,0.0,0.0,0.0,0.0,0.0,-0.00023099439185969572,-0.00019514753882036995,-2.3896231463080286e-05,0.0003189583631706405,-5.0199457189578633e-05,2.8848648071289062e-05,-3.062804539966102e-05,-9.108202629787422e-05,-0.00013253476868530008,-0.0006526788488952488,0.0010695930107449687,0.000257964338299299,-0.000545328162388931,0.001368655930968632,0.4267818331718445,22.819665908813477,0.1491362750530243,-14.131807327270508,-0.2072044014930725,-2.1453890800476074,0.37204307317733765,0
64,0.31499743461608887,-0.4267818331718445,-22.819665908813477,-0.1491362750530243,14.131807327270508,0.2072044014930725,2.1453890800476074,-0.37204307317733765,0.0,0.0,0.0,0.0,0.0,0.0,0.0,-0.43492396686012375,0.01819729416076979,-0.20819045868849242,0.2296769930699777,-0.026897445659740473,-0.05392218851285675,-0.4050722917580697,1.67572834914609,0.052299474363690396,0.029993401340748134,-2.7527138034891387,0.03429500344420438,2.766339105659061,0.7691936813924043,1.6754973547542302,0.052104326824870026,0.029969505109285054,-2.752394845125968,0.0342448039870148,2.7663679543071322,0.7691630533470046,9.108202629787422e-05,0.00013253476868530008,0.0006526788488952488,-0.0010695930107449687,-0.000257964338299299,0.000545328162388931,-0.001368655930968632,0.0,0.0,0.0,0.0,0.0,0.0,0.0,-0.00023099439185969572,-0.00019514753882036995,-2.3896231463080286e-05,0.0003189583631706405,-5.0199457189578633e-05,2.8848648071289062e-05,-3.062804539966102e-05,-9.108202629787422e-05,-0.00013253476868530008,-0.0006526788488952488,0.0010695930107449687,0.000257964338299299,-0.000545328162388931,0.001368655930968632,0.4267818331718445,22.819665908813477,0.1491362750530243,-14.131807327270508,-0.2072044014930725,-2.1453890800476074,0.37204307317733765,0
65,0.3200526237487793,-0.4505855441093445,-22.819665908813477,-0.1253325641155243,14.080232620239258,0.2007957100868225,2.1453890800476074,-0.41324180364608765,0.0,0.0,0.0,0.0,0.0,0.0,0.0,-0.4333778873742497,0.009391124146994183,-0.20944398696413336,0.2384826328056859,-0.027415861083966098,-0.050951135154030346,-0.40559603973122166,1.6757300195819451,0.052299449355961064,0.02999173090489287,-2.7527101838965184,0.034295719908684096,2.766339105659061,0.7691982585446067,1.6754973547542302,0.052104326824870026,0.029969505109285054,-2.752394845125968,0.0342448039870148,2.7663679543071322,0.7691630533470046,0.0003940057632948023,0.0006005796328440525,3.094057577219161e-05,0.0006721098080007494,5.858158749046526e-05,-0.00024096204387875913,4.17286304755678e-05,0.0,0.0,0.0,0.0,0.0,0.0,0.0,-0.00023266482771489017,-0.00019512253109103816,-2.2225795607816456e-05,0.0003153387705503441,-5.091592166929504e-05,2.8848648071289062e-05,-3.520519760202845e-05,-0.0003940057632948023,-0.0006005796328440525,-3.094057577219161e-05,-0.0006721098080007494,-5.858158749046526e-05,0.00024096204387875913,-4.17286304755678e-05,0.4505855441093445,22.819665908813477,0.1253325641155243,-14.080232620239258,-0.2007957100868225,-2.1453890800476074,0.41324180364608765,0
66,0.32503581047058105,-0.4505855441093445,-22.819665908813477,-0.1253325641155243,14.080232620239258,0.2007957100868225,2.1453890800476074,-0.41324180364608765,0.0,0.0,0.0,0.0,0.0,0.0,0.0,-0.4333778873742497,0.009391124146994183,-0.20944398696413336,0.2384826328056859,-0.027415861083966098,-0.050951135154030346,-0.40559603973122166,1.6757300195819451,0.052299449355961064,0.02999173090489287,-2.7527101838965184,0.034295719908684096,2.766339105659061,0.7691982585446067,1.6754973547542302,0.052104326824870026,0.029969505109285054,-2.752394845125968,0.0342448039870148,2.7663679543071322,0.7691630533470046,0.0003940057632948023,0.0006005796328440525,3.094057577219161e-05,0.0006721098080007494,5.858158749046526e-05,-0.00024096204387875913,4.17286304755678e-05,0.0,0.0,0.0,0.0,0.0,0.0,0.0,-0.00023266482771489017,-0.00019512253109103816,-2.2225795607816456e-05,0.0003153387705503441,-5.091592166929504e-05,2.8848648071289062e-05,-3.520519760202845e-05,-0.0003940057632948023,-0.0006005796328440525,-3.094057577219161e-05,-0.0006721098080007494,-5.858158749046526e-05,0.00024096204387875913,-4.17286304755678e-05,0.4505855441093445,22.819665908813477,0.1253325641155243,-14.080232620239258,-0.2007957100868225,-2.1453890800476074,0.41324180364608765,0
67,0.33002614974975586,-0.4783565402030945,-22.819665908813477,-0.09756157547235489,14.108003616333008,0.2072044014930725,2.1389803886413574,-0.37845176458358765,0.0,0.0,0.0,0.0,0.0,0.0,0.0,-0.4276809865771227,0.008529059387800108,-0.20638190657039276,0.23819456251648102,-0.02792929424495673,-0.050455419375889994,-0.4076177392602072,1.6757319684237761,0.052299684819603884,0.029989782063584578,-2.7527121327383477,0.034296071167483726,2.7663398177358838,0.7691943542233682,1.6754973547542302,0.052104326824870026,0.029969505109285054,-2.752394845125968,0.0342448039870148,2.7663679543071322,0.7691630533470046,0.0015588128463974022,0.0010478645434517891,-0.00031300551823833033,-8.745671111317346e-05,4.084205042006812e-05,-0.00027669044471211263,-0.0011676390756184872,0.0,0.0,0.0,0.0,0.0,0.0,0.0,-0.00023461366954591334,-0.00019535799473385795,-2.0276954299524447e-05,0.0003172876123795909,-5.12671804689252e-05,2.813657124844937e-05,-3.130087636360468e-05,-0.0015588128463974022,-0.0010478645434517891,0.00031300551823833033,8.745671111317346e-05,-4.084205042006812e-05,0.00027669044471211263,0.0011676390756184872,0.4783565402030945,22.819665908813477,0.09756157547235489,-14.108003616333008,-0.2072044014930725,-2.1389803886413574,0.37845176458358765,0
68,0.33498692512512207,-0.4783565402030945,-22.819665908813477,-0.09756157547235489,14.108003616333008,0.2072044014930725,2.1389803886413574,-0.37845176458358765,0.0,0.0,0.0,0.0,0.0,0.0,0.0,-0.4276809865771227,0.008529059387800108,-0.20638190657039276,0.23819456251648102,-0.02792929424495673,-0.050455419375889994,-0.4076177392602072,1.6757319684237761,0.052299684819603884,0.029989782063584578,-2.7527121327383477,0.034296071167483726,2.7663398177358838,0.7691943542233682,1.6754973547542302,0.052104326824870026,0.029969505109285054,-2.752394845125968,0.0342448039870148,2.7663679543071322,0.7691630533470046,0.0015588128463974022,0.0010478645434517891,-0.00031300551823833033,-8.745671111317346e-05,4.084205042006812e-05,-0.00027669044471211263,-0.0011676390756184872,0.0,0.0,0.0,0.0,0.0,0.0,0.0,-0.00023461366954591334,-0.00019535799473385795,-2.0276954299524447e-05,0.0003172876123795909,-5.12671804689252e-05,2.813657124844937e-05,-3.130087636360468e-05,-0.0015588128463974022,-0.0010478645434517891,0.00031300551823833033,8.745671111317346e-05,-4.084205042006812e-05,0.00027669044471211263,0.0011676390756184872,0.4783565402030945,22.819665908813477,0.09756157547235489,-14.108003616333008,-0.2072044014930725,-2.1389803886413574,0.37845176458358765,0
69,0.3399851322174072,-0.4505855441093445,-22.748254776000977,-0.1729399859905243,14.108003616333008,0.2191062569618225,2.1389803886413574,-0.38577598333358765,0.0,0.0,0.0,0.0,0.0,0.0,0.0,-0.4349117706316735,0.002308770021577728,-0.21070503015738273,0.24824425601174893,-0.02691690684178837,-0.04711639837997498,-0.40822562095041415,1.6757300195819451,0.052294437724805666,0.029995308401524205,-2.7527121327383477,0.03429794752770382,2.7663398177358838,0.7691951936507851,1.6754973547542302,0.052104326824870026,0.029969505109285054,-2.752394845125968,0.0342448039870148,2.7663679543071322,0.7691630533470046,0.0001274746650714554,-0.00011054662523369794,0.0009239077182464264,-0.0003368154007917929,-0.0005770821250119376,-0.0017753338048367225,-0.001312439834807874,0.0,0.0,0.0,0.0,0.0,0.0,0.0,-0.00023266482771489017,-0.00019011089993564018,-2.580329223915087e-05,0.0003172876123795909,-5.3143540689019886e-05,2.813657124844937e-05,-3.214030378051458e-05,-0.0001274746650714554,0.00011054662523369794,-0.0009239077182464264,0.0003368154007917929,0.0005770821250119376,0.0017753338048367225,0.001312439834807874,0.4505855441093445,22.748254776000977,0.1729399859905243,-14.108003616333008,-0.2191062569618225,-2.1389803886413574,0.38577598333358765,0
70,0.3450162410736084,-0.4505855441093445,-22.748254776000977,-0.1729399859905243,14.108003616333008,0.2191062569618225,2.1389803886413574,-0.38577598333358765,0.0,0.0,0.0,0.0,0.0,0.0,0.0,-0.4349117706316735,0.002308770021577728,-0.21070503015738273,0.24824425601174893,-0.02691690684178837,-0.04711639837997498,-0.40822562095041415,1.6757300195819451,0.052294437724805666,0.029995308401524205,-2.7527121327383477,0.03429794752770382,2.7663398177358838,0.7691951936507851,1.6754973547542302,0.052104326824870026,0.029969505109285054,-2.752394845125968,0.0342448039870148,2.7663679543071322,0.7691630533470046,0.0001274746650714554,-0.00011054662523369794,0.0009239077182464264,-0.0003368154007917929,-0.0005770821250119376,-0.0017753338048367225,-0.001312439834807874,0.0,0.0,0.0,0.0,0.0,0.0,0.0,-0.00023266482771489017,-0.00019011089993564018,-2.580329223915087e-05,0.0003172876123795909,-5.3143540689019886e-05,2.813657124844937e-05,-3.214030378051458e-05,-0.0001274746650714554,0.00011054662523369794,-0.0009239077182464264,0.0003368154007917929,0.0005770821250119376,0.0017753338048367225,0.001312439834807874,0.4505855441093445,22.748254776000977,0.1729399859905243,-14.108003616333008,-0.2191062569618225,-2.1389803886413574,0.38577598333358765,0
71,0.34998393058776855,-0.4505855441093445,-22.748254776000977,-0.1729399859905243,14.108003616333008,0.2191062569618225,2.1389803886413574,-0.38577598333358765,0.0,0.0,0.0,0.0,0.0,0.0,0.0,-0.4349117706316735,0.002308770021577728,-0.21070503015738273,0.24824425601174893,-0.02691690684178837,-0.04711639837997498,-0.40822562095041415,1.6757300195819451,0.052294437724805666,0.029995308401524205,-2.7527121327383477,0.03429794752770382,2.7663398177358838,0.7691951936507851,1.6754973547542302,0.052104326824870026,0.029969505109285054,-2.752394845125968,0.0342448039870148,2.7663679543071322,0.7691630533470046,0.0001274746650714554,-0.00011054662523369794,0.0009239077182464264,-0.0003368154007917929,-0.0005770821250119376,-0.0017753338048367225,-0.001312439834807874,0.0,0.0,0.0,0.0,0.0,0.0,0.0,-0.00023266482771489017,-0.00019011089993564018,-2.580329223915087e-05,0.0003172876123795909,-5.3143540689019886e-05,2.813657124844937e-05,-3.214030378051458e-05,-0.0001274746650714554,0.00011054662523369794,-0.0009239077182464264,0.0003368154007917929,0.0005770821250119376,0.0017753338048367225,0.001312439834807874,0.4505855441093445,22.748254776000977,0.1729399859905243,-14.108003616333008,-0.2191062569618225,-2.1389803886413574,0.38577598333358765,0
72,0.35500550270080566,-0.4505855441093445,-22.748254776000977,-0.1729399859905243,14.108003616333008,0.2191062569618225,2.1389803886413574,-0.38577598333358765,0.0,0.0,0.0,0.0,0.0,0.0,0.0,-0.4349117706316735,0.002308770021577728,-0.21070503015738273,0.24824425601174893,-0.02691690684178837,-0.04711639837997498,-0.40822562095041415,1.6757300195819451,0.052294437724805666,0.029995308401524205,-2.7527121327383477,0.03429794752770382,2.7663398177358838,0.7691951936507851,1.6754973547542302,0.052104326824870026,0.029969505109285054,-2.752394845125968,0.0342448039870148,2.7663679543071322,0.7691630533470046,0.0001274746650714554,-0.00011054662523369794,0.0009239077182464264,-0.0003368154007917929,-0.0005770821250119376,-0.0017753338048367225,-0.001312439834807874,0.0,0.0,0.0,0.0,0.0,0.0,0.0,-0.00023266482771489017,-0.00019011089993564018,-2.580329223915087e-05,0.0003172876123795909,-5.3143540689019886e-05,2.813657124844937e-05,-3.214030378051458e-05,-0.0001274746650714554,0.00011054662523369794,-0.0009239077182464264,0.0003368154007917929,0.0005770821250119376,0.0017753338048367225,0.001312439834807874,0.4505855441093445,22.748254776000977,0.1729399859905243,-14.108003616333008,-0.2191062569618225,-2.1389803886413574,0.38577598333358765,0
73,0.36007094383239746,-0.3752071261405945,-22.772058486938477,-0.04995415359735489,14.108003616333008,0.1953025460243225,2.1389803886413574,-0.37204307317733765,0.0,0.0,0.0,0.0,0.0,0.0,0.0,-0.42662034333925436,0.011418341431210271,-0.20271364276131296,0.24038448225619435,-0.028097211903572325,-0.04914974834959884,-0.4085823309729263,1.6757247298684035,0.052296110108039764,0.029986441203895844,-2.7527121327383477,0.034296327551738,2.7663398177358838,0.7691926198155163,1.6754973547542302,0.052104326824870026,0.029969505109285054,-2.752394845125968,0.0342448039870148,2.7663679543071322,0.7691630533470046,-0.0012553880180266694,0.0006345175338532892,-0.001283766436084288,-0.0004229544112593222,0.0001960468494075965,-0.0001166771951937256,-0.001173655778535346,0.0,0.0,0.0,0.0,0.0,0.0,0.0,-0.00022737511417325607,-0.00019178328316973858,-1.693609461079007e-05,0.0003172876123795909,-5.1523564723196524e-05,2.813657124844937e-05,-2.9566468511710298e-05,0.0012553880180266694,-0.0006345175338532892,0.001283766436084288,0.0004229544112593222,-0.0001960468494075965,0.0001166771951937256,0.001173655778535346,0.3752071261405945,22.772058486938477,0.04995415359735489,-14.108003616333008,-0.1953025460243225,-2.1389803886413574,0.37204307317733765,0
74,0.3650341033935547,-0.3752071261405945,-22.772058486938477,-0.04995415359735489,14.108003616333008,0.1953025460243225,2.1389803886413574,-0.37204307317733765,0.0,0.0,0.0,0.0,0.0,0.0,0.0,-0.42662034333925436,0.011418341431210271,-0.20271364276131296,0.24038448225619435,-0.028097211903572325,-0.04914974834959884,-0.4085823309729263,1.6757247298684035,0.052296110108039764,0.029986441203895844,-2.7527121327383477,0.034296327551738,2.7663398177358838,0.7691926198155163,1.6754973547542302,0.052104326824870026,0.029969505109285054,-2.752394845125968,0.0342448039870148,2.7663679543071322,0.7691630533470046,-0.0012553880180266694,0.0006345175338532892,-0.001283766436084288,-0.0004229544112593222,0.0001960468494075965,-0.0001166771951937256,-0.001173655778535346,0.0,0.0,0.0,0.0,0.0,0.0,0.0,-0.00022737511417325607,-0.00019178328316973858,-1.693609461079007e-05,0.0003172876123795909,-5.1523564723196524e-05,2.813657124844937e-05,-2.9566468511710298e-05,0.0012553880180266694,-0.0006345175338532892,0.001283766436084288,0.0004229544112593222,-0.0001960468494075965,0.0001166771951937256,0.001173655778535346,0.3752071261405945,22.772058486938477,0.04995415359735489,-14.108003616333008,-0.1953025460243225,-2.1389803886413574,0.37204307317733765,0
75,0.369983434677124,-0.4783565402030945,-22.795862197875977,-0.1253325641155243,14.080232620239258,0.2126975655555725,2.1325716972351074,-0.36471885442733765,0.0,0.0,0.0,0.0,0.0,0.0,0.0,-0.43431273288240624,0.020674263990307768,-0.20844183919260137,0.23226072586907162,-0.02801343609632254,-0.050041352822555195,-0.4075455937659572,1.6757319684237761,0.05229777763332128,0.02999173090489287,-2.7527101838969483,0.034294393092393995,2.766340529812707,0.7691927366092196,1.6754973547542302,0.052104326824870026,0.029969505109285054,-2.752394845125968,0.0342448039870148,2.7663679543071322,0.7691630533470046,0.0009387170251923107,0.0004090300953362429,2.1248217183860503e-05,-0.00010214286794311701,-0.000319175738389416,-1.8643140149165457e-05,-0.0015425508904410624,0.0,0.0,0.0,0.0,0.0,0.0,0.0,-0.00023461366954591334,-0.00019345080845125512,-2.2225795607816456e-05,0.00031533877098022245,-4.958910537919414e-05,2.742449442516559e-05,-2.9683262214974526e-05,-0.0009387170251923107,-0.0004090300953362429,-2.1248217183860503e-05,0.00010214286794311701,0.000319175738389416,1.8643140149165457e-05,0.0015425508904410624,0.4783565402030945,22.795862197875977,0.1253325641155243,-14.080232620239258,-0.2126975655555725,-2.1325716972351074,0.36471885442733765,0
76,0.3749985694885254,-0.4783565402030945,-22.795862197875977,-0.1253325641155243,14.080232620239258,0.2126975655555725,2.1325716972351074,-0.36471885442733765,0.0,0.0,0.0,0.0,0.0,0.0,0.0,-0.43431273288240624,0.020674263990307768,-0.20844183919260137,0.23226072586907162,-0.02801343609632254,-0.050041352822555195,-0.4075455937659572,1.6757319684237761,0.05229777763332128,0.02999173090489287,-2.7527101838969483,0.034294393092393995,2.766340529812707,0.7691927366092196,1.6754973547542302,0.052104326824870026,0.029969505109285054,-2.752394845125968,0.0342448039870148,2.7663679543071322,0.7691630533470046,0.0009387170251923107,0.0004090300953362429,2.1248217183860503e-05,-0.00010214286794311701,-0.000319175738389416,-1.8643140149165457e-05,-0.0015425508904410624,0.0,0.0,0.0,0.0,0.0,0.0,0.0,-0.00023461366954591334,-0.00019345080845125512,-2.2225795607816456e-05,0.00031533877098022245,-4.958910537919414e-05,2.742449442516559e-05,-2.9683262214974526e-05,-0.0009387170251923107,-0.0004090300953362429,-2.1248217183860503e-05,0.00010214286794311701,0.000319175738389416,1.8643140149165457e-05,0.0015425508904410624,0.4783565402030945,22.795862197875977,0.1253325641155243,-14.080232620239258,-0.2126975655555725,-2.1325716972351074,0.36471885442733765,0
77,0.3799934387207031,-0.4029781222343445,-22.772058486938477,-0.1491362750530243,14.108003616333008,0.2007957100868225,2.1261630058288574,-0.39218467473983765,0.0,0.0,0.0,0.0,0.0,0.0,0.0,-0.43873462355487297,0.010944685703083512,-0.21176482741815447,0.23998418210974154,-0.027889254456737227,-0.04843392501990882,-0.4059411100619083,1.6757266787102345,0.0522961075097692,0.029993401340748134,-2.7527121327383477,0.03429892746709665,2.76634124188953,0.7691959193473944,1.6754973547542302,0.052104326824870026,0.029969505109285054,-2.752394845125968,0.0342448039870148,2.7663679543071322,0.7691630533470046,-0.0015391775810757696,-0.0007139149594981112,-0.00012069916671484198,0.00012829148961691369,7.800397712462045e-05,0.0005343404818827949,-0.00043833772373090546,0.0,0.0,0.0,0.0,0.0,0.0,0.0,-0.00022932395600427924,-0.0001917806848991746,-2.3896231463080286e-05,0.0003172876123795909,-5.4123480081852415e-05,2.67124176023259e-05,-3.286600038976406e-05,0.0015391775810757696,0.0007139149594981112,0.00012069916671484198,-0.00012829148961691369,-7.800397712462045e-05,-0.0005343404818827949,0.00043833772373090546,0.4029781222343445,22.772058486938477,0.1491362750530243,-14.108003616333008,-0.2007957100868225,-2.1261630058288574,0.39218467473983765,0
78,0.3849830627441406,-0.4029781222343445,-22.772058486938477,-0.1491362750530243,14.108003616333008,0.2007957100868225,2.1261630058288574,-0.39218467473983765,0.0,0.0,0.0,0.0,0.0,0.0,0.0,-0.43873462355487297,0.010944685703083512,-0.21176482741815447,0.23998418210974154,-0.027889254456737227,-0.04843392501990882,-0.4059411100619083,1.6757266787102345,0.0522961075097692,0.029993401340748134,-2.7527121327383477,0.03429892746709665,2.76634124188953,0.7691959193473944,1.6754973547542302,0.052104326824870026,0.029969505109285054,-2.752394845125968,0.0342448039870148,2.7663679543071322,0.7691630533470046,-0.0015391775810757696,-0.0007139149594981112,-0.00012069916671484198,0.00012829148961691369,7.800397712462045e-05,0.0005343404818827949,-0.00043833772373090546,0.0,0.0,0.0,0.0,0.0,0.0,0.0,-0.00022932395600427924,-0.0001917806848991746,-2.3896231463080286e-05,0.0003172876123795909,-5.4123480081852415e-05,2.67124176023259e-05,-3.286600038976406e-05,0.0015391775810757696,0.0007139149594981112,0.00012069916671484198,-0.00012829148961691369,-7.800397712462045e-05,-0.0005343404818827949,0.00043833772373090546,0.4029781222343445,22.772058486938477,0.1491362750530243,-14.108003616333008,-0.2007957100868225,-2.1261630058288574,0.39218467473983765,0
79,0.3899827003479004,-0.4783565402030945,-22.795862197875977,-0.2007109820842743,14.080232620239258,0.2007957100868225,2.1389803886413574,-0.39218467473983765,0.0,0.0,0.0,0.0,0.0,0.0,0.0,-0.4415994716743029,0.017096473551383037,-0.21400625900057776,0.2328661185942494,-0.028452605678019105,-0.0493715971191513,-0.40459455617451046,1.6757319684237761,0.05229801438374679,0.02999702061843454,-2.7527101838965167,0.03429678232358651,2.7663398177358838,0.7691959057816649,1.6754973547542302,0.052104326824870026,0.029969505109285054,-2.752394845125968,0.0342448039870148,2.7663679543071322,0.7691630533470046,-0.0001251844854120501,0.0003223348087342312,0.001360629390084391,0.000384097683204882,3.114898096059678e-05,0.00018473525328374012,-0.00019421920971153948,0.0,0.0,0.0,0.0,0.0,0.0,0.0,-0.00023461366954591334,-0.00019368755887676226,-2.751550914948525e-05,0.00031533877054856774,-5.197833657170914e-05,2.813657124844937e-05,-3.285243466022436e-05,0.0001251844854120501,-0.0003223348087342312,-0.001360629390084391,-0.000384097683204882,-3.114898096059678e-05,-0.00018473525328374012,0.00019421920971153948,0.4783565402030945,22.795862197875977,0.2007109820842743,-14.080232620239258,-0.2007957100868225,-2.1389803886413574,0.39218467473983765,0
