rezayati/contactInterpretation/dataset/franka_main/labeled_data/link5/c10_3.csv
index,time,tau_J0,tau_J1,tau_J2,tau_J3,tau_J4,tau_J5,tau_J6,tau_J_d0,tau_J_d1,tau_J_d2,tau_J_d3,tau_J_d4,tau_J_d5,tau_J_d6,tau_ext0,tau_ext1,tau_ext2,tau_ext3,tau_ext4,tau_ext5,tau_ext6,q0,q1,q2,q3,q4,q5,q6,q_d0,q_d1,q_d2,q_d3,q_d4,q_d5,q_d6,dq0,dq1,dq2,dq3,dq4,dq5,dq6,dq_d0,dq_d1,dq_d2,dq_d3,dq_d4,dq_d5,dq_d6,e0,e1,e2,e3,e4,e5,e6,de0,de1,de2,de3,de4,de5,de6,etau_J0,etau_J1,etau_J2,etau_J3,etau_J4,etau_J5,etau_J6,label
1,0.0,-0.7084590792655945,-34.03915023803711,-3.9974029064178467,19.586824417114258,0.3674216866493225,1.777347207069397,-0.03604452684521675,0.0,0.0,0.0,0.0,0.0,0.0,0.0,-0.6520121226546081,0.0029802548679066392,-0.472350977322085,0.5197186797503,0.3152582893867882,-0.11546382928067404,-0.07020420243326127,1.0546678763565078,0.32375132692905895,-0.3924281694721758,-2.1532006834349713,0.8645972014010082,2.4659306278626123,0.544480931274179,1.0544104758940245,0.3238615046091247,-0.39250456234122666,-2.153291787532338,0.8647539153680389,2.46587817577521,0.5445020185570556,0.0011770230162189007,8.626317815875038e-05,-0.0003735073077356103,-0.0007621165441760267,0.00021472973186822752,0.0005078817488757956,-0.001146601076153089,0.0,0.0,0.0,0.0,0.0,0.0,0.0,-0.00025740046248334814,0.00011017768006577056,-7.639286905086751e-05,-9.110409736656777e-05,0.0001567139670307638,-5.245208740234375e-05,2.1087282876641744e-05,-0.0011770230162189007,-8.626317815875038e-05,0.0003735073077356103,0.0007621165441760267,-0.00021472973186822752,-0.0005078817488757956,0.001146601076153089,0.7084590792655945,34.03915023803711,3.9974029064178467,-19.586824417114258,-0.3674216866493225,-1.777347207069397,0.03604452684521675,0
2,0.0037517547607421875,-0.6806880831718445,-34.01534652709961,-4.025173664093018,19.586824417114258,0.3857322335243225,1.783755898475647,-0.04977743700146675,0.0,0.0,0.0,0.0,0.0,0.0,0.0,-0.6449347413243808,-0.008784219013321314,-0.46552509478515963,0.5332376218553424,0.3156220755508347,-0.11521400015537583,-0.07072698399306877,1.0546656537380579,0.3237496564932037,-0.3924283465460727,-2.1532013725108015,0.8645949940689026,2.4659299157857895,0.5444824571530852,1.0544104758940245,0.3238615046091247,-0.39250456234122666,-2.153291787532338,0.8647539153680389,2.46587817577521,0.5445020185570556,0.001226429934255038,-0.00047739761472786254,0.00036187188897059326,-0.00040690748588485755,-0.0005680419346072077,0.00037076539040989306,-0.0009810001145398668,0.0,0.0,0.0,0.0,0.0,0.0,0.0,-0.00025517784403339405,0.00011184811592102051,-7.621579515393329e-05,-9.041502153639414e-05,0.00015892129913630537,-5.174001057950406e-05,1.956140397041395e-05,-0.001226429934255038,0.00047739761472786254,-0.00036187188897059326,0.00040690748588485755,0.0005680419346072077,-0.00037076539040989306,0.0009810001145398668,0.6806880831718445,34.01534652709961,4.025173664093018,-19.586824417114258,-0.3857322335243225,-1.783755898475647,0.04977743700146675,0
3,0.008749961853027344,-0.6806880831718445,-34.01534652709961,-4.025173664093018,19.586824417114258,0.3857322335243225,1.783755898475647,-0.04977743700146675,0.0,0.0,0.0,0.0,0.0,0.0,0.0,-0.6449347413243808,-0.008784219013321314,-0.46552509478515963,0.5332376218553424,0.3156220755508347,-0.11521400015537583,-0.07072698399306877,1.0546656537380579,0.3237496564932037,-0.3924283465460727,-2.1532013725108015,0.8645949940689026,2.4659299157857895,0.5444824571530852,1.0544104758940245,0.3238615046091247,-0.39250456234122666,-2.153291787532338,0.8647539153680389,2.46587817577521,0.5445020185570556,0.001226429934255038,-0.00047739761472786254,0.00036187188897059326,-0.00040690748588485755,-0.0005680419346072077,0.00037076539040989306,-0.0009810001145398668,0.0,0.0,0.0,0.0,0.0,0.0,0.0,-0.00025517784403339405,0.00011184811592102051,-7.621579515393329e-05,-9.041502153639414e-05,0.00015892129913630537,-5.174001057950406e-05,1.956140397041395e-05,-0.001226429934255038,0.00047739761472786254,-0.00036187188897059326,0.00040690748588485755,0.0005680419346072077,-0.00037076539040989306,0.0009810001145398668,0.6806880831718445,34.01534652709961,4.025173664093018,-19.586824417114258,-0.3857322335243225,-1.783755898475647,0.04977743700146675,0
4,0.013751745223999023,-0.6291133761405945,-34.03915023803711,-4.025173664093018,19.559053421020508,0.3793235421180725,1.783755898475647,-0.04977743700146675,0.0,0.0,0.0,0.0,0.0,0.0,0.0,-0.6606891246276025,0.0034872831663414774,-0.4745665340182011,0.5295224906831468,0.3171793265357054,-0.11469737369855464,-0.07034041623291126,1.0546623875625194,0.32375132692905895,-0.3924270080290753,-2.153199346793511,0.8645971991790733,2.4659299157857895,0.5444824571530852,1.0544104758940245,0.3238615046091247,-0.39250456234122666,-2.153291787532338,0.8647539153680389,2.46587817577521,0.5445020185570556,-0.0010105250070300844,7.297328063273929e-05,0.00012615266333083694,7.865549422462712e-05,-0.00036736056707460554,0.00022129458585138083,4.37744328345143e-05,0.0,0.0,0.0,0.0,0.0,0.0,0.0,-0.00025191166849491964,0.00011017768006577056,-7.755431215134001e-05,-9.244073882674897e-05,0.00015671618896562212,-5.174001057950406e-05,1.956140397041395e-05,0.0010105250070300844,-7.297328063273929e-05,-0.00012615266333083694,-7.865549422462712e-05,0.00036736056707460554,-0.00022129458585138083,-4.37744328345143e-05,0.6291133761405945,34.03915023803711,4.025173664093018,-19.559053421020508,-0.3793235421180725,-1.783755898475647,0.04977743700146675,0
5,0.018750905990600586,-0.6291133761405945,-34.03915023803711,-4.025173664093018,19.559053421020508,0.3793235421180725,1.783755898475647,-0.04977743700146675,0.0,0.0,0.0,0.0,0.0,0.0,0.0,-0.6606891246276025,0.0034872831663414774,-0.4745665340182011,0.5295224906831468,0.3171793265357054,-0.11469737369855464,-0.07034041623291126,1.0546623875625194,0.32375132692905895,-0.3924270080290753,-2.153199346793511,0.8645971991790733,2.4659299157857895,0.5444824571530852,1.0544104758940245,0.3238615046091247,-0.39250456234122666,-2.153291787532338,0.8647539153680389,2.46587817577521,0.5445020185570556,-0.0010105250070300844,7.297328063273929e-05,0.00012615266333083694,7.865549422462712e-05,-0.00036736056707460554,0.00022129458585138083,4.37744328345143e-05,0.0,0.0,0.0,0.0,0.0,0.0,0.0,-0.00025191166849491964,0.00011017768006577056,-7.755431215134001e-05,-9.244073882674897e-05,0.00015671618896562212,-5.174001057950406e-05,1.956140397041395e-05,0.0010105250070300844,-7.297328063273929e-05,-0.00012615266333083694,-7.865549422462712e-05,0.00036736056707460554,-0.00022129458585138083,-4.37744328345143e-05,0.6291133761405945,34.03915023803711,4.025173664093018,-19.559053421020508,-0.3793235421180725,-1.783755898475647,0.04977743700146675,0
6,0.02375483512878418,-0.5815059542655945,-33.99154281616211,-3.9974029064178467,19.559053421020508,0.3619285225868225,1.790164589881897,-0.09738485515117645,0.0,0.0,0.0,0.0,0.0,0.0,0.0,-0.6420493144807262,0.004953692265452408,-0.4579159595536604,0.5321369498988293,0.3160977395026143,-0.11609709622124838,-0.06868170789938984,1.0546589633316954,0.3237479860573484,-0.39242816958462734,-2.1531994236374334,0.8645987285937974,2.4659292037089666,0.5444877468662129,1.0544104758940245,0.3238615046091247,-0.39250456234122666,-2.153291787532338,0.8647539153680389,2.46587817577521,0.5445020185570556,-0.0012080424339297022,-0.001416698177057834,-0.0004680194368972572,-0.0001988108461464301,0.00035769828969452845,-0.00016792887265800784,0.0015243710626469803,0.0,0.0,0.0,0.0,0.0,0.0,0.0,-0.00024848743767091896,0.00011351855177632597,-7.639275659931943e-05,-9.236389490441255e-05,0.0001551867742415336,-5.102793375666437e-05,1.4271690842670992e-05,0.0012080424339297022,0.001416698177057834,0.0004680194368972572,0.0001988108461464301,-0.00035769828969452845,0.00016792887265800784,-0.0015243710626469803,0.5815059542655945,33.99154281616211,3.9974029064178467,-19.559053421020508,-0.3619285225868225,-1.790164589881897,0.09738485515117645,0
7,0.028756141662597656,-0.5815059542655945,-33.99154281616211,-3.9974029064178467,19.559053421020508,0.3619285225868225,1.790164589881897,-0.09738485515117645,0.0,0.0,0.0,0.0,0.0,0.0,0.0,-0.6420493144807262,0.004953692265452408,-0.4579159595536604,0.5321369498988293,0.3160977395026143,-0.11609709622124838,-0.06868170789938984,1.0546589633316954,0.3237479860573484,-0.39242816958462734,-2.1531994236374334,0.8645987285937974,2.4659292037089666,0.5444877468662129,1.0544104758940245,0.3238615046091247,-0.39250456234122666,-2.153291787532338,0.8647539153680389,2.46587817577521,0.5445020185570556,-0.0012080424339297022,-0.001416698177057834,-0.0004680194368972572,-0.0001988108461464301,0.00035769828969452845,-0.00016792887265800784,0.0015243710626469803,0.0,0.0,0.0,0.0,0.0,0.0,0.0,-0.00024848743767091896,0.00011351855177632597,-7.639275659931943e-05,-9.236389490441255e-05,0.0001551867742415336,-5.102793375666437e-05,1.4271690842670992e-05,0.0012080424339297022,0.001416698177057834,0.0004680194368972572,0.0001988108461464301,-0.00035769828969452845,0.00016792887265800784,-0.0015243710626469803,0.5815059542655945,33.99154281616211,3.9974029064178467,-19.559053421020508,-0.3619285225868225,-1.790164589881897,0.09738485515117645,0
8,0.03371548652648926,-0.5815059542655945,-34.09072494506836,-3.9735991954803467,19.535249710083008,0.3619285225868225,1.790164589881897,-0.03604452684521675,0.0,0.0,0.0,0.0,0.0,0.0,0.0,-0.6240674404304458,-0.004215117273844869,-0.4469597673305781,0.540781450287868,0.31589487455288656,-0.11555990681436452,-0.069705898257553,1.05465592046914,0.32375494620674533,-0.3924298399080316,-2.1531977277271976,0.8645988448028625,2.4659292037089666,0.544480931274179,1.0544104758940245,0.3238615046091247,-0.39250456234122666,-2.153291787532338,0.8647539153680389,2.46587817577521,0.5445020185570556,0.0001353524522763811,3.041149354604544e-05,-0.0002701381020804909,0.0012986157686735956,0.00034984344075619767,-0.00018366377667745532,-0.001018350585177916,0.0,0.0,0.0,0.0,0.0,0.0,0.0,-0.0002454445751154388,0.00010655840237938641,-7.472243319506244e-05,-9.405980514021195e-05,0.00015507056517638507,-5.102793375666437e-05,2.1087282876641744e-05,-0.0001353524522763811,-3.041149354604544e-05,0.0002701381020804909,-0.0012986157686735956,-0.00034984344075619767,0.00018366377667745532,0.001018350585177916,0.5815059542655945,34.09072494506836,3.9735991954803467,-19.535249710083008,-0.3619285225868225,-1.790164589881897,0.03604452684521675,0
9,0.03875851631164551,-0.5815059542655945,-34.09072494506836,-3.9735991954803467,19.535249710083008,0.3619285225868225,1.790164589881897,-0.03604452684521675,0.0,0.0,0.0,0.0,0.0,0.0,0.0,-0.6240674404304458,-0.004215117273844869,-0.4469597673305781,0.540781450287868,0.31589487455288656,-0.11555990681436452,-0.069705898257553,1.05465592046914,0.32375494620674533,-0.3924298399080316,-2.1531977277271976,0.8645988448028625,2.4659292037089666,0.544480931274179,1.0544104758940245,0.3238615046091247,-0.39250456234122666,-2.153291787532338,0.8647539153680389,2.46587817577521,0.5445020185570556,0.0001353524522763811,3.041149354604544e-05,-0.0002701381020804909,0.0012986157686735956,0.00034984344075619767,-0.00018366377667745532,-0.001018350585177916,0.0,0.0,0.0,0.0,0.0,0.0,0.0,-0.0002454445751154388,0.00010655840237938641,-7.472243319506244e-05,-9.405980514021195e-05,0.00015507056517638507,-5.102793375666437e-05,2.1087282876641744e-05,-0.0001353524522763811,-3.041149354604544e-05,0.0002701381020804909,-0.0012986157686735956,-0.00034984344075619767,0.00018366377667745532,0.001018350585177916,0.5815059542655945,34.09072494506836,3.9735991954803467,-19.535249710083008,-0.3619285225868225,-1.790164589881897,0.03604452684521675,0
10,0.04375123977661133,-0.6053096652030945,-34.11452865600586,-3.9497954845428467,19.535249710083008,0.3674216866493225,1.770938515663147,-0.04336874559521675,0.0,0.0,0.0,0.0,0.0,0.0,0.0,-0.6368113236889689,-0.004337905776837424,-0.45987059426502674,0.5336606282516132,0.3169111920813376,-0.11488191260368379,-0.06980800860872918,1.054660448385908,0.32375661664260064,-0.39243151045189306,-2.1531977447335917,0.8645981595712383,2.465931339939435,0.5444817450762622,1.0544104758940245,0.3238615046091247,-0.39250456234122666,-2.153291787532338,0.8647539153680389,2.46587817577521,0.5445020185570556,9.356056848949965e-05,-0.00019313559120596132,-0.0008328576527368604,0.0009501479203303653,0.00023275655084037988,0.0004603545716542516,-0.001272399883725466,0.0,0.0,0.0,0.0,0.0,0.0,0.0,-0.0002499724918834101,0.00010488796652408094,-7.305188933359741e-05,-9.404279874614119e-05,0.00015575579680060514,-5.316416422518344e-05,2.0273480793364662e-05,-9.356056848949965e-05,0.00019313559120596132,0.0008328576527368604,-0.0009501479203303653,-0.00023275655084037988,-0.0004603545716542516,0.001272399883725466,0.6053096652030945,34.11452865600586,3.9497954845428467,-19.535249710083008,-0.3674216866493225,-1.770938515663147,0.04336874559521675,0
11,0.04875373840332031,-0.6053096652030945,-34.11452865600586,-3.9497954845428467,19.535249710083008,0.3674216866493225,1.770938515663147,-0.04336874559521675,0.0,0.0,0.0,0.0,0.0,0.0,0.0,-0.6368113236889689,-0.004337905776837424,-0.45987059426502674,0.5336606282516132,0.3169111920813376,-0.11488191260368379,-0.06980800860872918,1.054660448385908,0.32375661664260064,-0.39243151045189306,-2.1531977447335917,0.8645981595712383,2.465931339939435,0.5444817450762622,1.0544104758940245,0.3238615046091247,-0.39250456234122666,-2.153291787532338,0.8647539153680389,2.46587817577521,0.5445020185570556,9.356056848949965e-05,-0.00019313559120596132,-0.0008328576527368604,0.0009501479203303653,0.00023275655084037988,0.0004603545716542516,-0.001272399883725466,0.0,0.0,0.0,0.0,0.0,0.0,0.0,-0.0002499724918834101,0.00010488796652408094,-7.305188933359741e-05,-9.404279874614119e-05,0.00015575579680060514,-5.316416422518344e-05,2.0273480793364662e-05,-9.356056848949965e-05,0.00019313559120596132,0.0008328576527368604,-0.0009501479203303653,-0.00023275655084037988,-0.0004603545716542516,0.001272399883725466,0.6053096652030945,34.11452865600586,3.9497954845428467,-19.535249710083008,-0.3674216866493225,-1.770938515663147,0.04336874559521675,0
12,0.053755998611450195,-0.6291133761405945,-34.03915023803711,-3.9974029064178467,19.535249710083008,0.3674216866493225,1.777347207069397,-0.03604452684521675,0.0,0.0,0.0,0.0,0.0,0.0,0.0,-0.6366010425721799,-0.00041978788317639906,-0.45625208120341587,0.5235063469880898,0.31718783255102595,-0.11673273456632381,-0.0699736231016178,1.0546623872359469,0.32375132692905895,-0.39243032161683994,-2.153197752292149,0.8646017922512893,2.4659306278626123,0.544480931274179,1.0544104758940245,0.3238615046091247,-0.39250456234122666,-2.153291787532338,0.8647539153680389,2.46587817577521,0.5445020185570556,0.00023285325142835976,-0.0015116902710176712,-0.00028735218623597244,0.00044345714333728927,0.0001226919917422998,0.00042184693294676864,-0.0013420721594950317,0.0,0.0,0.0,0.0,0.0,0.0,0.0,-0.00025191134192237286,0.00011017768006577056,-7.424072438672047e-05,-9.40352401888056e-05,0.00015212311674961398,-5.245208740234375e-05,2.1087282876641744e-05,-0.00023285325142835976,0.0015116902710176712,0.00028735218623597244,-0.00044345714333728927,-0.0001226919917422998,-0.00042184693294676864,0.0013420721594950317,0.6291133761405945,34.03915023803711,3.9974029064178467,-19.535249710083008,-0.3674216866493225,-1.777347207069397,0.03604452684521675,0
13,0.05874919891357422,-0.6291133761405945,-34.03915023803711,-3.9974029064178467,19.535249710083008,0.3674216866493225,1.777347207069397,-0.03604452684521675,0.0,0.0,0.0,0.0,0.0,0.0,0.0,-0.6366010425721799,-0.00041978788317639906,-0.45625208120341587,0.5235063469880898,0.31718783255102595,-0.11673273456632381,-0.0699736231016178,1.0546623872359469,0.32375132692905895,-0.39243032161683994,-2.153197752292149,0.8646017922512893,2.4659306278626123,0.544480931274179,1.0544104758940245,0.3238615046091247,-0.39250456234122666,-2.153291787532338,0.8647539153680389,2.46587817577521,0.5445020185570556,0.00023285325142835976,-0.0015116902710176712,-0.00028735218623597244,0.00044345714333728927,0.0001226919917422998,0.00042184693294676864,-0.0013420721594950317,0.0,0.0,0.0,0.0,0.0,0.0,0.0,-0.00025191134192237286,0.00011017768006577056,-7.424072438672047e-05,-9.40352401888056e-05,0.00015212311674961398,-5.245208740234375e-05,2.1087282876641744e-05,-0.00023285325142835976,0.0015116902710176712,0.00028735218623597244,-0.00044345714333728927,-0.0001226919917422998,-0.00042184693294676864,0.0013420721594950317,0.6291133761405945,34.03915023803711,3.9974029064178467,-19.535249710083008,-0.3674216866493225,-1.777347207069397,0.03604452684521675,0
14,0.063751220703125,-0.6568843722343445,-34.03915023803711,-4.025173664093018,19.559053421020508,0.3738303780555725,1.796573281288147,-0.11111776530742645,0.0,0.0,0.0,0.0,0.0,0.0,0.0,-0.6314821661939312,-0.0013742142288561158,-0.45095301548473454,0.5223588388208303,0.31695413524856986,-0.11690599826035183,-0.07023377276622256,1.0546619493134504,0.32375132692905895,-0.3924270080292235,-2.1531991940496007,0.8645967217730122,2.465928491632144,0.5444892727451192,1.0544104758940245,0.3238615046091247,-0.39250456234122666,-2.153291787532338,0.8647539153680389,2.46587817577521,0.5445020185570556,0.0004987455347759046,-0.00031476869320890287,-0.00025417347448781846,-0.00018183503797833368,-0.000124571414626549,-0.00015156550973144666,0.0015148020957317335,0.0,0.0,0.0,0.0,0.0,0.0,0.0,-0.00025147341942588497,0.00011017768006577056,-7.755431200318075e-05,-9.259348273715773e-05,0.00015719359502675,-5.0315856933824676e-05,1.2745811936443197e-05,-0.0004987455347759046,0.00031476869320890287,0.00025417347448781846,0.00018183503797833368,0.000124571414626549,0.00015156550973144666,-0.0015148020957317335,0.6568843722343445,34.03915023803711,4.025173664093018,-19.559053421020508,-0.3738303780555725,-1.796573281288147,0.11111776530742645,0
15,0.0687556266784668,-0.6568843722343445,-34.03915023803711,-4.025173664093018,19.559053421020508,0.3738303780555725,1.796573281288147,-0.11111776530742645,0.0,0.0,0.0,0.0,0.0,0.0,0.0,-0.6314821661939312,-0.0013742142288561158,-0.45095301548473454,0.5223588388208303,0.31695413524856986,-0.11690599826035183,-0.07023377276622256,1.0546619493134504,0.32375132692905895,-0.3924270080292235,-2.1531991940496007,0.8645967217730122,2.465928491632144,0.5444892727451192,1.0544104758940245,0.3238615046091247,-0.39250456234122666,-2.153291787532338,0.8647539153680389,2.46587817577521,0.5445020185570556,0.0004987455347759046,-0.00031476869320890287,-0.00025417347448781846,-0.00018183503797833368,-0.000124571414626549,-0.00015156550973144666,0.0015148020957317335,0.0,0.0,0.0,0.0,0.0,0.0,0.0,-0.00025147341942588497,0.00011017768006577056,-7.755431200318075e-05,-9.259348273715773e-05,0.00015719359502675,-5.0315856933824676e-05,1.2745811936443197e-05,-0.0004987455347759046,0.00031476869320890287,0.00025417347448781846,0.00018183503797833368,0.000124571414626549,0.00015156550973144666,-0.0015148020957317335,0.6568843722343445,34.03915023803711,4.025173664093018,-19.559053421020508,-0.3738303780555725,-1.796573281288147,0.11111776530742645,0
16,0.07376766204833984,-0.6568843722343445,-34.03915023803711,-4.025173664093018,19.559053421020508,0.3738303780555725,1.796573281288147,-0.11111776530742645,0.0,0.0,0.0,0.0,0.0,0.0,0.0,-0.6314821661939312,-0.0013742142288561158,-0.45095301548473454,0.5223588388208303,0.31695413524856986,-0.11690599826035183,-0.07023377276622256,1.0546619493134504,0.32375132692905895,-0.3924270080292235,-2.1531991940496007,0.8645967217730122,2.465928491632144,0.5444892727451192,1.0544104758940245,0.3238615046091247,-0.39250456234122666,-2.153291787532338,0.8647539153680389,2.46587817577521,0.5445020185570556,0.0004987455347759046,-0.00031476869320890287,-0.00025417347448781846,-0.00018183503797833368,-0.000124571414626549,-0.00015156550973144666,0.0015148020957317335,0.0,0.0,0.0,0.0,0.0,0.0,0.0,-0.00025147341942588497,0.00011017768006577056,-7.755431200318075e-05,-9.259348273715773e-05,0.00015719359502675,-5.0315856933824676e-05,1.2745811936443197e-05,-0.0004987455347759046,0.00031476869320890287,0.00025417347448781846,0.00018183503797833368,0.000124571414626549,0.00015156550973144666,-0.0015148020957317335,0.6568843722343445,34.03915023803711,4.025173664093018,-19.559053421020508,-0.3738303780555725,-1.796573281288147,0.11111776530742645,0
17,0.07924699783325195,-0.6568843722343445,-34.03915023803711,-4.025173664093018,19.559053421020508,0.3738303780555725,1.796573281288147,-0.11111776530742645,0.0,0.0,0.0,0.0,0.0,0.0,0.0,-0.6314821661939312,-0.0013742142288561158,-0.45095301548473454,0.5223588388208303,0.31695413524856986,-0.11690599826035183,-0.07023377276622256,1.0546619493134504,0.32375132692905895,-0.3924270080292235,-2.1531991940496007,0.8645967217730122,2.465928491632144,0.5444892727451192,1.0544104758940245,0.3238615046091247,-0.39250456234122666,-2.153291787532338,0.8647539153680389,2.46587817577521,0.5445020185570556,0.0004987455347759046,-0.00031476869320890287,-0.00025417347448781846,-0.00018183503797833368,-0.000124571414626549,-0.00015156550973144666,0.0015148020957317335,0.0,0.0,0.0,0.0,0.0,0.0,0.0,-0.00025147341942588497,0.00011017768006577056,-7.755431200318075e-05,-9.259348273715773e-05,0.00015719359502675,-5.0315856933824676e-05,1.2745811936443197e-05,-0.0004987455347759046,0.00031476869320890287,0.00025417347448781846,0.00018183503797833368,0.000124571414626549,0.00015156550973144666,-0.0015148020957317335,0.6568843722343445,34.03915023803711,4.025173664093018,-19.559053421020508,-0.3738303780555725,-1.796573281288147,0.11111776530742645,0
18,0.08377671241760254,-0.6568843722343445,-34.06295394897461,-4.025173664093018,19.586824417114258,0.3674216866493225,1.790164589881897,-0.06351034343242645,0.0,0.0,0.0,0.0,0.0,0.0,0.0,-0.6409807927912906,-0.002828473302398698,-0.46149360318253807,0.5216041822049063,0.31713185763892343,-0.11591625504744808,-0.07183321961645914,1.0546635329793088,0.3237529973649142,-0.39242693803307505,-2.153201141980326,0.8645974294107457,2.4659292037089666,0.5444839830315775,1.0544104758940245,0.3238615046091247,-0.39250456234122666,-2.153291787532338,0.8647539153680389,2.46587817577521,0.5445020185570556,-0.000700394460215792,0.00010731661057335429,-0.0004421437456256282,-0.0010504587151938451,-2.4904852175317712e-05,3.734329689895084e-05,9.567327749654312e-05,0.0,0.0,0.0,0.0,0.0,0.0,0.0,-0.0002530570852843361,0.0001085072442105206,-7.76243081516137e-05,-9.064555201199198e-05,0.00015648595729322867,-5.102793375666437e-05,1.8035525478077297e-05,0.000700394460215792,-0.00010731661057335429,0.0004421437456256282,0.0010504587151938451,2.4904852175317712e-05,-3.734329689895084e-05,-9.567327749654312e-05,0.6568843722343445,34.06295394897461,4.025173664093018,-19.586824417114258,-0.3674216866493225,-1.790164589881897,0.06351034343242645,0
19,0.08875131607055664,-0.6568843722343445,-34.06295394897461,-4.025173664093018,19.586824417114258,0.3674216866493225,1.790164589881897,-0.06351034343242645,0.0,0.0,0.0,0.0,0.0,0.0,0.0,-0.6409807927912906,-0.002828473302398698,-0.46149360318253807,0.5216041822049063,0.31713185763892343,-0.11591625504744808,-0.07183321961645914,1.0546635329793088,0.3237529973649142,-0.39242693803307505,-2.153201141980326,0.8645974294107457,2.4659292037089666,0.5444839830315775,1.0544104758940245,0.3238615046091247,-0.39250456234122666,-2.153291787532338,0.8647539153680389,2.46587817577521,0.5445020185570556,-0.000700394460215792,0.00010731661057335429,-0.0004421437456256282,-0.0010504587151938451,-2.4904852175317712e-05,3.734329689895084e-05,9.567327749654312e-05,0.0,0.0,0.0,0.0,0.0,0.0,0.0,-0.0002530570852843361,0.0001085072442105206,-7.76243081516137e-05,-9.064555201199198e-05,0.00015648595729322867,-5.102793375666437e-05,1.8035525478077297e-05,0.000700394460215792,-0.00010731661057335429,0.0004421437456256282,0.0010504587151938451,2.4904852175317712e-05,-3.734329689895084e-05,-9.567327749654312e-05,0.6568843722343445,34.06295394897461,4.025173664093018,-19.586824417114258,-0.3674216866493225,-1.790164589881897,0.06351034343242645,0
20,0.09370255470275879,-0.6291133761405945,-34.06295394897461,-4.025173664093018,19.559053421020508,0.3674216866493225,1.796573281288147,-0.06991903483867645,0.0,0.0,0.0,0.0,0.0,0.0,0.0,-0.63109593041395,-0.0070540366138651805,-0.4523251410888873,0.5258743909330292,0.31633995419588606,-0.11615682007523177,-0.07123546886106366,1.054660000576102,0.3237529973649142,-0.39242622065112537,-2.1531994208371357,0.8645970275821387,2.465928491632144,0.5444846951084005,1.0544104758940245,0.3238615046091247,-0.39250456234122666,-2.153291787532338,0.8647539153680389,2.46587817577521,0.5445020185570556,-0.000642020264968476,-0.00039329468384889627,-0.00012222882734294448,-0.00029561250546571226,2.201563660309394e-05,-0.00036302503107166933,0.00030165227633812016,0.0,0.0,0.0,0.0,0.0,0.0,0.0,-0.00024952468207750655,0.0001085072442105206,-7.834169010129122e-05,-9.236669520218399e-05,0.00015688778590017272,-5.0315856933824676e-05,1.7323448655126583e-05,0.000642020264968476,0.00039329468384889627,0.00012222882734294448,0.00029561250546571226,-2.201563660309394e-05,0.00036302503107166933,-0.00030165227633812016,0.6291133761405945,34.06295394897461,4.025173664093018,-19.559053421020508,-0.3674216866493225,-1.796573281288147,0.06991903483867645,0
21,0.09874916076660156,-0.6291133761405945,-34.06295394897461,-4.025173664093018,19.559053421020508,0.3674216866493225,1.796573281288147,-0.06991903483867645,0.0,0.0,0.0,0.0,0.0,0.0,0.0,-0.63109593041395,-0.0070540366138651805,-0.4523251410888873,0.5258743909330292,0.31633995419588606,-0.11615682007523177,-0.07123546886106366,1.054660000576102,0.3237529973649142,-0.39242622065112537,-2.1531994208371357,0.8645970275821387,2.465928491632144,0.5444846951084005,1.0544104758940245,0.3238615046091247,-0.39250456234122666,-2.153291787532338,0.8647539153680389,2.46587817577521,0.5445020185570556,-0.000642020264968476,-0.00039329468384889627,-0.00012222882734294448,-0.00029561250546571226,2.201563660309394e-05,-0.00036302503107166933,0.00030165227633812016,0.0,0.0,0.0,0.0,0.0,0.0,0.0,-0.00024952468207750655,0.0001085072442105206,-7.834169010129122e-05,-9.236669520218399e-05,0.00015688778590017272,-5.0315856933824676e-05,1.7323448655126583e-05,0.000642020264968476,0.00039329468384889627,0.00012222882734294448,0.00029561250546571226,-2.201563660309394e-05,0.00036302503107166933,-0.00030165227633812016,0.6291133761405945,34.06295394897461,4.025173664093018,-19.559053421020508,-0.3674216866493225,-1.796573281288147,0.06991903483867645,0
22,0.103759765625,-0.5815059542655945,-34.06295394897461,-3.9735991954803467,19.586824417114258,0.3674216866493225,1.783755898475647,-0.02963583543896675,0.0,0.0,0.0,0.0,0.0,0.0,0.0,-0.625652587735413,0.004422842893907017,-0.4438308027367284,0.5160646759092838,0.316510780695168,-0.11908535242813985,-0.07006958334261612,1.0546580928233174,0.3237529973649142,-0.39243015485603056,-2.1532013696452594,0.8645984759175237,2.4659299157857895,0.544480219197356,1.0544104758940245,0.3238615046091247,-0.39250456234122666,-2.153291787532338,0.8647539153680389,2.46587817577521,0.5445020185570556,-0.0014547006622874098,-0.00031294860978075693,-0.0007573021193847858,-0.0007604164858447345,0.00016891745929529695,0.0015315248303224703,-0.001445699647877717,0.0,0.0,0.0,0.0,0.0,0.0,0.0,-0.00024761692929287094,0.0001085072442105206,-7.440748519610407e-05,-9.041788707842002e-05,0.00015543945051521568,-5.174001057950406e-05,2.1799359699592458e-05,0.0014547006622874098,0.00031294860978075693,0.0007573021193847858,0.0007604164858447345,-0.00016891745929529695,-0.0015315248303224703,0.001445699647877717,0.5815059542655945,34.06295394897461,3.9735991954803467,-19.586824417114258,-0.3674216866493225,-1.783755898475647,0.02963583543896675,0
23,0.10875058174133301,-0.5815059542655945,-34.06295394897461,-3.9735991954803467,19.586824417114258,0.3674216866493225,1.783755898475647,-0.02963583543896675,0.0,0.0,0.0,0.0,0.0,0.0,0.0,-0.625652587735413,0.004422842893907017,-0.4438308027367284,0.5160646759092838,0.316510780695168,-0.11908535242813985,-0.07006958334261612,1.0546580928233174,0.3237529973649142,-0.39243015485603056,-2.1532013696452594,0.8645984759175237,2.4659299157857895,0.544480219197356,1.0544104758940245,0.3238615046091247,-0.39250456234122666,-2.153291787532338,0.8647539153680389,2.46587817577521,0.5445020185570556,-0.0014547006622874098,-0.00031294860978075693,-0.0007573021193847858,-0.0007604164858447345,0.00016891745929529695,0.0015315248303224703,-0.001445699647877717,0.0,0.0,0.0,0.0,0.0,0.0,0.0,-0.00024761692929287094,0.0001085072442105206,-7.440748519610407e-05,-9.041788707842002e-05,0.00015543945051521568,-5.174001057950406e-05,2.1799359699592458e-05,0.0014547006622874098,0.00031294860978075693,0.0007573021193847858,0.0007604164858447345,-0.00016891745929529695,-0.0015315248303224703,0.001445699647877717,0.5815059542655945,34.06295394897461,3.9735991954803467,-19.586824417114258,-0.3674216866493225,-1.783755898475647,0.02963583543896675,0
24,0.11377429962158203,-0.6568843722343445,-34.11452865600586,-3.9974029064178467,19.535249710083008,0.3555198311805725,1.783755898475647,-0.08365194499492645,0.0,0.0,0.0,0.0,0.0,0.0,0.0,-0.6360335910088808,-0.00328223419074489,-0.45491745037161985,0.5214822497675383,0.31675879488822156,-0.11576466082504856,-0.06963463008257299,1.0546640186548752,0.32375661664260064,-0.39242896656456977,-2.1531977267823743,0.8645983897468051,2.4659299157857895,0.5444862209873067,1.0544104758940245,0.3238615046091247,-0.39250456234122666,-2.153291787532338,0.8647539153680389,2.46587817577521,0.5445020185570556,0.000979722715494074,0.0009976907981279605,-0.0005790168681597564,0.0003468358373014104,0.000595279291650386,0.00024225685069198907,-0.006630373875633998,0.0,0.0,0.0,0.0,0.0,0.0,0.0,-0.00025354276085076677,0.00010488796652408094,-7.559577665688932e-05,-9.406074996354263e-05,0.00015552562123377633,-5.174001057950406e-05,1.5797569748898788e-05,-0.000979722715494074,-0.0009976907981279605,0.0005790168681597564,-0.0003468358373014104,-0.000595279291650386,-0.00024225685069198907,0.006630373875633998,0.6568843722343445,34.11452865600586,3.9974029064178467,-19.535249710083008,-0.3555198311805725,-1.783755898475647,0.08365194499492645,0
25,0.11875271797180176,-0.6568843722343445,-34.11452865600586,-3.9974029064178467,19.535249710083008,0.3555198311805725,1.783755898475647,-0.08365194499492645,0.0,0.0,0.0,0.0,0.0,0.0,0.0,-0.6360335910088808,-0.00328223419074489,-0.45491745037161985,0.5214822497675383,0.31675879488822156,-0.11576466082504856,-0.06963463008257299,1.0546640186548752,0.32375661664260064,-0.39242896656456977,-2.1531977267823743,0.8645983897468051,2.4659299157857895,0.5444862209873067,1.0544104758940245,0.3238615046091247,-0.39250456234122666,-2.153291787532338,0.8647539153680389,2.46587817577521,0.5445020185570556,0.000979722715494074,0.0009976907981279605,-0.0005790168681597564,0.0003468358373014104,0.000595279291650386,0.00024225685069198907,-0.006630373875633998,0.0,0.0,0.0,0.0,0.0,0.0,0.0,-0.00025354276085076677,0.00010488796652408094,-7.559577665688932e-05,-9.406074996354263e-05,0.00015552562123377633,-5.174001057950406e-05,1.5797569748898788e-05,-0.000979722715494074,-0.0009976907981279605,0.0005790168681597564,-0.0003468358373014104,-0.000595279291650386,-0.00024225685069198907,0.006630373875633998,0.6568843722343445,34.11452865600586,3.9974029064178467,-19.535249710083008,-0.3555198311805725,-1.783755898475647,0.08365194499492645,0
26,0.12410187721252441,-0.6291133761405945,-34.09072494506836,-4.025173664093018,19.559053421020508,0.3738303780555725,1.802981972694397,-0.08365194499492645,0.0,0.0,0.0,0.0,0.0,0.0,0.0,-0.6487692334153888,-0.00725093295563526,-0.46698853892105163,0.5239885442692008,0.31675251694757217,-0.11427907837757077,-0.07111499894602757,1.0546616459613836,0.32375494620674533,-0.3924262472212625,-2.1531985053196654,0.8645963164965311,2.465927779555321,0.5444862209873067,1.0544104758940245,0.3238615046091247,-0.39250456234122666,-2.153291787532338,0.8647539153680389,2.46587817577521,0.5445020185570556,-0.0001806235507708567,0.00011079091696199235,-6.092849868166376e-05,2.417038760659735e-05,-9.150860093872138e-05,-0.00042754191170254856,0.0007156339434776867,0.0,0.0,0.0,0.0,0.0,0.0,0.0,-0.00025117006735908554,0.00010655840237938641,-7.83151199641452e-05,-9.328221267246306e-05,0.0001575988715077914,-4.9603780110984985e-05,1.5797569748898788e-05,0.0001806235507708567,-0.00011079091696199235,6.092849868166376e-05,-2.417038760659735e-05,9.150860093872138e-05,0.00042754191170254856,-0.0007156339434776867,0.6291133761405945,34.09072494506836,4.025173664093018,-19.559053421020508,-0.3738303780555725,-1.802981972694397,0.08365194499492645,0
27,0.12874817848205566,-0.6291133761405945,-34.09072494506836,-4.025173664093018,19.559053421020508,0.3738303780555725,1.802981972694397,-0.08365194499492645,0.0,0.0,0.0,0.0,0.0,0.0,0.0,-0.6487692334153888,-0.00725093295563526,-0.46698853892105163,0.5239885442692008,0.31675251694757217,-0.11427907837757077,-0.07111499894602757,1.0546616459613836,0.32375494620674533,-0.3924262472212625,-2.1531985053196654,0.8645963164965311,2.465927779555321,0.5444862209873067,1.0544104758940245,0.3238615046091247,-0.39250456234122666,-2.153291787532338,0.8647539153680389,2.46587817577521,0.5445020185570556,-0.0001806235507708567,0.00011079091696199235,-6.092849868166376e-05,2.417038760659735e-05,-9.150860093872138e-05,-0.00042754191170254856,0.0007156339434776867,0.0,0.0,0.0,0.0,0.0,0.0,0.0,-0.00025117006735908554,0.00010655840237938641,-7.83151199641452e-05,-9.328221267246306e-05,0.0001575988715077914,-4.9603780110984985e-05,1.5797569748898788e-05,0.0001806235507708567,-0.00011079091696199235,6.092849868166376e-05,-2.417038760659735e-05,9.150860093872138e-05,0.00042754191170254856,-0.0007156339434776867,0.6291133761405945,34.09072494506836,4.025173664093018,-19.559053421020508,-0.3738303780555725,-1.802981972694397,0.08365194499492645,0
28,0.1337735652923584,-0.6291133761405945,-34.09072494506836,-4.025173664093018,19.559053421020508,0.3738303780555725,1.802981972694397,-0.08365194499492645,0.0,0.0,0.0,0.0,0.0,0.0,0.0,-0.6487692334153888,-0.00725093295563526,-0.46698853892105163,0.5239885442692008,0.31675251694757217,-0.11427907837757077,-0.07111499894602757,1.0546616459613836,0.32375494620674533,-0.3924262472212625,-2.1531985053196654,0.8645963164965311,2.465927779555321,0.5444862209873067,1.0544104758940245,0.3238615046091247,-0.39250456234122666,-2.153291787532338,0.8647539153680389,2.46587817577521,0.5445020185570556,-0.0001806235507708567,0.00011079091696199235,-6.092849868166376e-05,2.417038760659735e-05,-9.150860093872138e-05,-0.00042754191170254856,0.0007156339434776867,0.0,0.0,0.0,0.0,0.0,0.0,0.0,-0.00025117006735908554,0.00010655840237938641,-7.83151199641452e-05,-9.328221267246306e-05,0.0001575988715077914,-4.9603780110984985e-05,1.5797569748898788e-05,0.0001806235507708567,-0.00011079091696199235,6.092849868166376e-05,-2.417038760659735e-05,9.150860093872138e-05,0.00042754191170254856,-0.0007156339434776867,0.6291133761405945,34.09072494506836,4.025173664093018,-19.559053421020508,-0.3738303780555725,-1.802981972694397,0.08365194499492645,0
29,0.13914966583251953,-0.6291133761405945,-34.09072494506836,-4.025173664093018,19.559053421020508,0.3738303780555725,1.802981972694397,-0.08365194499492645,0.0,0.0,0.0,0.0,0.0,0.0,0.0,-0.6487692334153888,-0.00725093295563526,-0.46698853892105163,0.5239885442692008,0.31675251694757217,-0.11427907837757077,-0.07111499894602757,1.0546616459613836,0.32375494620674533,-0.3924262472212625,-2.1531985053196654,0.8645963164965311,2.465927779555321,0.5444862209873067,1.0544104758940245,0.3238615046091247,-0.39250456234122666,-2.153291787532338,0.8647539153680389,2.46587817577521,0.5445020185570556,-0.0001806235507708567,0.00011079091696199235,-6.092849868166376e-05,2.417038760659735e-05,-9.150860093872138e-05,-0.00042754191170254856,0.0007156339434776867,0.0,0.0,0.0,0.0,0.0,0.0,0.0,-0.00025117006735908554,0.00010655840237938641,-7.83151199641452e-05,-9.328221267246306e-05,0.0001575988715077914,-4.9603780110984985e-05,1.5797569748898788e-05,0.0001806235507708567,-0.00011079091696199235,6.092849868166376e-05,-2.417038760659735e-05,9.150860093872138e-05,0.00042754191170254856,-0.0007156339434776867,0.6291133761405945,34.09072494506836,4.025173664093018,-19.559053421020508,-0.3738303780555725,-1.802981972694397,0.08365194499492645,0
30,0.1437699794769287,-0.6291133761405945,-34.09072494506836,-4.025173664093018,19.559053421020508,0.3738303780555725,1.802981972694397,-0.08365194499492645,0.0,0.0,0.0,0.0,0.0,0.0,0.0,-0.6487692334153888,-0.00725093295563526,-0.46698853892105163,0.5239885442692008,0.31675251694757217,-0.11427907837757077,-0.07111499894602757,1.0546616459613836,0.32375494620674533,-0.3924262472212625,-2.1531985053196654,0.8645963164965311,2.465927779555321,0.5444862209873067,1.0544104758940245,0.3238615046091247,-0.39250456234122666,-2.153291787532338,0.8647539153680389,2.46587817577521,0.5445020185570556,-0.0001806235507708567,0.00011079091696199235,-6.092849868166376e-05,2.417038760659735e-05,-9.150860093872138e-05,-0.00042754191170254856,0.0007156339434776867,0.0,0.0,0.0,0.0,0.0,0.0,0.0,-0.00025117006735908554,0.00010655840237938641,-7.83151199641452e-05,-9.328221267246306e-05,0.0001575988715077914,-4.9603780110984985e-05,1.5797569748898788e-05,0.0001806235507708567,-0.00011079091696199235,6.092849868166376e-05,-2.417038760659735e-05,9.150860093872138e-05,0.00042754191170254856,-0.0007156339434776867,0.6291133761405945,34.09072494506836,4.025173664093018,-19.559053421020508,-0.3738303780555725,-1.802981972694397,0.08365194499492645,0
31,0.1488494873046875,-0.6053096652030945,-34.06295394897461,-3.9974029064178467,19.535249710083008,0.3674216866493225,1.783755898475647,-0.04336874559521675,0.0,0.0,0.0,0.0,0.0,0.0,0.0,-0.6253261238997959,-0.006051038993203413,-0.450903962626865,0.5259200461142347,0.3156234603426992,-0.11535318490810119,-0.07179557391197398,1.0546585714888554,0.3237529973649142,-0.3924291144366759,-2.1531977532369884,0.8646007816103638,2.4659299157857895,0.5444817450762631,1.0544104758940245,0.3238615046091247,-0.39250456234122666,-2.153291787532338,0.8647539153680389,2.46587817577521,0.5445020185570556,0.00014083359560877555,-0.00036104838210288394,-5.5390726085464455e-05,0.0004146226007063458,-0.00014240258269893137,1.9891069768044508e-05,-0.001374228931875771,0.0,0.0,0.0,0.0,0.0,0.0,0.0,-0.000248095594830966,0.0001085072442105206,-7.544790455077388e-05,-9.40342953494877e-05,0.00015313375767511683,-5.174001057950406e-05,2.0273480792476484e-05,-0.00014083359560877555,0.00036104838210288394,5.5390726085464455e-05,-0.0004146226007063458,0.00014240258269893137,-1.9891069768044508e-05,0.001374228931875771,0.6053096652030945,34.06295394897461,3.9974029064178467,-19.535249710083008,-0.3674216866493225,-1.783755898475647,0.04336874559521675,0
32,0.15375447273254395,-0.6053096652030945,-34.06295394897461,-3.9974029064178467,19.535249710083008,0.3674216866493225,1.783755898475647,-0.04336874559521675,0.0,0.0,0.0,0.0,0.0,0.0,0.0,-0.6253261238997959,-0.006051038993203413,-0.450903962626865,0.5259200461142347,0.3156234603426992,-0.11535318490810119,-0.07179557391197398,1.0546585714888554,0.3237529973649142,-0.3924291144366759,-2.1531977532369884,0.8646007816103638,2.4659299157857895,0.5444817450762631,1.0544104758940245,0.3238615046091247,-0.39250456234122666,-2.153291787532338,0.8647539153680389,2.46587817577521,0.5445020185570556,0.00014083359560877555,-0.00036104838210288394,-5.5390726085464455e-05,0.0004146226007063458,-0.00014240258269893137,1.9891069768044508e-05,-0.001374228931875771,0.0,0.0,0.0,0.0,0.0,0.0,0.0,-0.000248095594830966,0.0001085072442105206,-7.544790455077388e-05,-9.40342953494877e-05,0.00015313375767511683,-5.174001057950406e-05,2.0273480792476484e-05,-0.00014083359560877555,0.00036104838210288394,5.5390726085464455e-05,-0.0004146226007063458,0.00014240258269893137,-1.9891069768044508e-05,0.001374228931875771,0.6053096652030945,34.06295394897461,3.9974029064178467,-19.535249710083008,-0.3674216866493225,-1.783755898475647,0.04336874559521675,0
33,0.1587533950805664,-0.5537349581718445,-34.06295394897461,-3.9497954845428467,19.586824417114258,0.3674216866493225,1.790164589881897,-0.09097616374492645,0.0,0.0,0.0,0.0,0.0,0.0,0.0,-0.6180432278541469,-0.010013050172176716,-0.445167081962069,0.5299815648531879,0.31494590186297566,-0.11582988064296529,-0.07397400172168278,1.0546568291581713,0.3237529973649142,-0.3924315145699326,-2.153201361165335,0.8646013721584437,2.4659292037089666,0.54448703478939,1.0544104758940245,0.3238615046091247,-0.39250456234122666,-2.153291787532338,0.8647539153680389,2.46587817577521,0.5445020185570556,-0.0008484058352471683,-0.0006158902666507383,-0.0007854271925780814,-0.00047216920109331126,0.000207426403478084,-5.463103586976326e-05,0.0005324679262448861,0.0,0.0,0.0,0.0,0.0,0.0,0.0,-0.0002463532641467925,0.0001085072442105206,-7.304777129407691e-05,-9.042636700273832e-05,0.00015254320959523504,-5.102793375666437e-05,1.4983767665621706e-05,0.0008484058352471683,0.0006158902666507383,0.0007854271925780814,0.00047216920109331126,-0.000207426403478084,5.463103586976326e-05,-0.0005324679262448861,0.5537349581718445,34.06295394897461,3.9497954845428467,-19.586824417114258,-0.3674216866493225,-1.790164589881897,0.09097616374492645,0
34,0.16376018524169922,-0.5537349581718445,-34.06295394897461,-3.9497954845428467,19.586824417114258,0.3674216866493225,1.790164589881897,-0.09097616374492645,0.0,0.0,0.0,0.0,0.0,0.0,0.0,-0.6180432278541469,-0.010013050172176716,-0.445167081962069,0.5299815648531879,0.31494590186297566,-0.11582988064296529,-0.07397400172168278,1.0546568291581713,0.3237529973649142,-0.3924315145699326,-2.153201361165335,0.8646013721584437,2.4659292037089666,0.54448703478939,1.0544104758940245,0.3238615046091247,-0.39250456234122666,-2.153291787532338,0.8647539153680389,2.46587817577521,0.5445020185570556,-0.0008484058352471683,-0.0006158902666507383,-0.0007854271925780814,-0.00047216920109331126,0.000207426403478084,-5.463103586976326e-05,0.0005324679262448861,0.0,0.0,0.0,0.0,0.0,0.0,0.0,-0.0002463532641467925,0.0001085072442105206,-7.304777129407691e-05,-9.042636700273832e-05,0.00015254320959523504,-5.102793375666437e-05,1.4983767665621706e-05,0.0008484058352471683,0.0006158902666507383,0.0007854271925780814,0.00047216920109331126,-0.000207426403478084,5.463103586976326e-05,-0.0005324679262448861,0.5537349581718445,34.06295394897461,3.9497954845428467,-19.586824417114258,-0.3674216866493225,-1.790164589881897,0.09097616374492645,0
35,0.16877317428588867,-0.5537349581718445,-34.06295394897461,-3.9497954845428467,19.586824417114258,0.3674216866493225,1.790164589881897,-0.09097616374492645,0.0,0.0,0.0,0.0,0.0,0.0,0.0,-0.6180432278541469,-0.010013050172176716,-0.445167081962069,0.5299815648531879,0.31494590186297566,-0.11582988064296529,-0.07397400172168278,1.0546568291581713,0.3237529973649142,-0.3924315145699326,-2.153201361165335,0.8646013721584437,2.4659292037089666,0.54448703478939,1.0544104758940245,0.3238615046091247,-0.39250456234122666,-2.153291787532338,0.8647539153680389,2.46587817577521,0.5445020185570556,-0.0008484058352471683,-0.0006158902666507383,-0.0007854271925780814,-0.00047216920109331126,0.000207426403478084,-5.463103586976326e-05,0.0005324679262448861,0.0,0.0,0.0,0.0,0.0,0.0,0.0,-0.0002463532641467925,0.0001085072442105206,-7.304777129407691e-05,-9.042636700273832e-05,0.00015254320959523504,-5.102793375666437e-05,1.4983767665621706e-05,0.0008484058352471683,0.0006158902666507383,0.0007854271925780814,0.00047216920109331126,-0.000207426403478084,5.463103586976326e-05,-0.0005324679262448861,0.5537349581718445,34.06295394897461,3.9497954845428467,-19.586824417114258,-0.3674216866493225,-1.790164589881897,0.09097616374492645,0
36,0.1737840175628662,-0.5537349581718445,-34.06295394897461,-3.9497954845428467,19.586824417114258,0.3674216866493225,1.790164589881897,-0.09097616374492645,0.0,0.0,0.0,0.0,0.0,0.0,0.0,-0.6180432278541469,-0.010013050172176716,-0.445167081962069,0.5299815648531879,0.31494590186297566,-0.11582988064296529,-0.07397400172168278,1.0546568291581713,0.3237529973649142,-0.3924315145699326,-2.153201361165335,0.8646013721584437,2.4659292037089666,0.54448703478939,1.0544104758940245,0.3238615046091247,-0.39250456234122666,-2.153291787532338,0.8647539153680389,2.46587817577521,0.5445020185570556,-0.0008484058352471683,-0.0006158902666507383,-0.0007854271925780814,-0.00047216920109331126,0.000207426403478084,-5.463103586976326e-05,0.0005324679262448861,0.0,0.0,0.0,0.0,0.0,0.0,0.0,-0.0002463532641467925,0.0001085072442105206,-7.304777129407691e-05,-9.042636700273832e-05,0.00015254320959523504,-5.102793375666437e-05,1.4983767665621706e-05,0.0008484058352471683,0.0006158902666507383,0.0007854271925780814,0.00047216920109331126,-0.000207426403478084,5.463103586976326e-05,-0.0005324679262448861,0.5537349581718445,34.06295394897461,3.9497954845428467,-19.586824417114258,-0.3674216866493225,-1.790164589881897,0.09097616374492645,0
37,0.1788191795349121,-0.5815059542655945,-34.06295394897461,-4.025173664093018,19.535249710083008,0.3619285225868225,1.790164589881897,-0.09097616374492645,0.0,0.0,0.0,0.0,0.0,0.0,0.0,-0.6381660430678269,-0.006054337386561219,-0.4610382870074526,0.5233575554311701,0.31648643888210803,-0.11487982768772628,-0.07529145947627551,1.0546568656028024,0.3237529973649142,-0.39242695563377206,-2.153197753201948,0.8645980398949022,2.4659292037089666,0.54448703478939,1.0544104758940245,0.3238615046091247,-0.39250456234122666,-2.153291787532338,0.8647539153680389,2.46587817577521,0.5445020185570556,-0.0010674751704197484,-0.00021778833798221205,0.00039116275272824954,0.0002296320783514634,0.00026911512771614224,0.0002256450556873274,0.0010235061885959546,0.0,0.0,0.0,0.0,0.0,0.0,0.0,-0.00024638970877788324,0.0001085072442105206,-7.760670745460274e-05,-9.403433038990272e-05,0.0001558754731366685,-5.102793375666437e-05,1.4983767665621706e-05,0.0010674751704197484,0.00021778833798221205,-0.00039116275272824954,-0.0002296320783514634,-0.00026911512771614224,-0.0002256450556873274,-0.0010235061885959546,0.5815059542655945,34.06295394897461,4.025173664093018,-19.535249710083008,-0.3619285225868225,-1.790164589881897,0.09097616374492645,0
38,0.18375372886657715,-0.5815059542655945,-34.06295394897461,-4.025173664093018,19.535249710083008,0.3619285225868225,1.790164589881897,-0.09097616374492645,0.0,0.0,0.0,0.0,0.0,0.0,0.0,-0.6381660430678269,-0.006054337386561219,-0.4610382870074526,0.5233575554311701,0.31648643888210803,-0.11487982768772628,-0.07529145947627551,1.0546568656028024,0.3237529973649142,-0.39242695563377206,-2.153197753201948,0.8645980398949022,2.4659292037089666,0.54448703478939,1.0544104758940245,0.3238615046091247,-0.39250456234122666,-2.153291787532338,0.8647539153680389,2.46587817577521,0.5445020185570556,-0.0010674751704197484,-0.00021778833798221205,0.00039116275272824954,0.0002296320783514634,0.00026911512771614224,0.0002256450556873274,0.0010235061885959546,0.0,0.0,0.0,0.0,0.0,0.0,0.0,-0.00024638970877788324,0.0001085072442105206,-7.760670745460274e-05,-9.403433038990272e-05,0.0001558754731366685,-5.102793375666437e-05,1.4983767665621706e-05,0.0010674751704197484,0.00021778833798221205,-0.00039116275272824954,-0.0002296320783514634,-0.00026911512771614224,-0.0002256450556873274,-0.0010235061885959546,0.5815059542655945,34.06295394897461,4.025173664093018,-19.535249710083008,-0.3619285225868225,-1.790164589881897,0.09097616374492645,0
39,0.1887493133544922,-0.6291133761405945,-34.06295394897461,-3.9735991954803467,19.535249710083008,0.3793235421180725,1.790164589881897,-0.04977743700146675,0.0,0.0,0.0,0.0,0.0,0.0,0.0,-0.6025884238940762,0.008019041306181,-0.4276845059938563,0.5165260220170452,0.3159295008091315,-0.11963666724263305,-0.07653634859878962,1.0546622954778622,0.3237529973649142,-0.39242986712620403,-2.1531956858928663,0.8645968103977669,2.4659292037089666,0.5444824571530852,1.0544104758940245,0.3238615046091247,-0.39250456234122666,-2.153291787532338,0.8647539153680389,2.46587817577521,0.5445020185570556,0.00026063268971791744,6.557801646562651e-05,-0.0007159533159413745,0.0006221915065246058,-0.0003702907115114252,0.0010655888489950632,-0.0011247681684790596,0.0,0.0,0.0,0.0,0.0,0.0,0.0,-0.0002518195838376869,0.0001085072442105206,-7.469521502262433e-05,-9.610163947160189e-05,0.00015710497027199288,-5.102793375666437e-05,1.956140397041395e-05,-0.00026063268971791744,-6.557801646562651e-05,0.0007159533159413745,-0.0006221915065246058,0.0003702907115114252,-0.0010655888489950632,0.0011247681684790596,0.6291133761405945,34.06295394897461,3.9735991954803467,-19.535249710083008,-0.3793235421180725,-1.790164589881897,0.04977743700146675,0
40,0.19374942779541016,-0.6291133761405945,-34.06295394897461,-3.9735991954803467,19.535249710083008,0.3793235421180725,1.790164589881897,-0.04977743700146675,0.0,0.0,0.0,0.0,0.0,0.0,0.0,-0.6025884238940762,0.008019041306181,-0.4276845059938563,0.5165260220170452,0.3159295008091315,-0.11963666724263305,-0.07653634859878962,1.0546622954778622,0.3237529973649142,-0.39242986712620403,-2.1531956858928663,0.8645968103977669,2.4659292037089666,0.5444824571530852,1.0544104758940245,0.3238615046091247,-0.39250456234122666,-2.153291787532338,0.8647539153680389,2.46587817577521,0.5445020185570556,0.00026063268971791744,6.557801646562651e-05,-0.0007159533159413745,0.0006221915065246058,-0.0003702907115114252,0.0010655888489950632,-0.0011247681684790596,0.0,0.0,0.0,0.0,0.0,0.0,0.0,-0.0002518195838376869,0.0001085072442105206,-7.469521502262433e-05,-9.610163947160189e-05,0.00015710497027199288,-5.102793375666437e-05,1.956140397041395e-05,-0.00026063268971791744,-6.557801646562651e-05,0.0007159533159413745,-0.0006221915065246058,0.0003702907115114252,-0.0010655888489950632,0.0011247681684790596,0.6291133761405945,34.06295394897461,3.9735991954803467,-19.535249710083008,-0.3793235421180725,-1.790164589881897,0.04977743700146675,0
41,0.19877099990844727,-0.6291133761405945,-34.06295394897461,-3.9735991954803467,19.535249710083008,0.3793235421180725,1.790164589881897,-0.04977743700146675,0.0,0.0,0.0,0.0,0.0,0.0,0.0,-0.6025884238940762,0.008019041306181,-0.4276845059938563,0.5165260220170452,0.3159295008091315,-0.11963666724263305,-0.07653634859878962,1.0546622954778622,0.3237529973649142,-0.39242986712620403,-2.1531956858928663,0.8645968103977669,2.4659292037089666,0.5444824571530852,1.0544104758940245,0.3238615046091247,-0.39250456234122666,-2.153291787532338,0.8647539153680389,2.46587817577521,0.5445020185570556,0.00026063268971791744,6.557801646562651e-05,-0.0007159533159413745,0.0006221915065246058,-0.0003702907115114252,0.0010655888489950632,-0.0011247681684790596,0.0,0.0,0.0,0.0,0.0,0.0,0.0,-0.0002518195838376869,0.0001085072442105206,-7.469521502262433e-05,-9.610163947160189e-05,0.00015710497027199288,-5.102793375666437e-05,1.956140397041395e-05,-0.00026063268971791744,-6.557801646562651e-05,0.0007159533159413745,-0.0006221915065246058,0.0003702907115114252,-0.0010655888489950632,0.0011247681684790596,0.6291133761405945,34.06295394897461,3.9735991954803467,-19.535249710083008,-0.3793235421180725,-1.790164589881897,0.04977743700146675,0
42,0.2038884162902832,-0.6291133761405945,-34.06295394897461,-3.9735991954803467,19.535249710083008,0.3793235421180725,1.790164589881897,-0.04977743700146675,0.0,0.0,0.0,0.0,0.0,0.0,0.0,-0.6025884238940762,0.008019041306181,-0.4276845059938563,0.5165260220170452,0.3159295008091315,-0.11963666724263305,-0.07653634859878962,1.0546622954778622,0.3237529973649142,-0.39242986712620403,-2.1531956858928663,0.8645968103977669,2.4659292037089666,0.5444824571530852,1.0544104758940245,0.3238615046091247,-0.39250456234122666,-2.153291787532338,0.8647539153680389,2.46587817577521,0.5445020185570556,0.00026063268971791744,6.557801646562651e-05,-0.0007159533159413745,0.0006221915065246058,-0.0003702907115114252,0.0010655888489950632,-0.0011247681684790596,0.0,0.0,0.0,0.0,0.0,0.0,0.0,-0.0002518195838376869,0.0001085072442105206,-7.469521502262433e-05,-9.610163947160189e-05,0.00015710497027199288,-5.102793375666437e-05,1.956140397041395e-05,-0.00026063268971791744,-6.557801646562651e-05,0.0007159533159413745,-0.0006221915065246058,0.0003702907115114252,-0.0010655888489950632,0.0011247681684790596,0.6291133761405945,34.06295394897461,3.9735991954803467,-19.535249710083008,-0.3793235421180725,-1.790164589881897,0.04977743700146675,0
43,0.20875287055969238,-0.6053096652030945,-34.06295394897461,-3.9974029064178467,19.586824417114258,0.3793235421180725,1.790164589881897,-0.06351034343242645,0.0,0.0,0.0,0.0,0.0,0.0,0.0,-0.6147102042454865,0.0010157189576626732,-0.4390951071218949,0.5241278152073766,0.31647552052635,-0.11545281432576862,-0.07467998544955956,1.0546583287879625,0.3237529973649142,-0.39242888987797353,-2.153201372510801,0.8645989811435731,2.4659292037089666,0.5444839830315775,1.0544104758940245,0.3238615046091247,-0.39250456234122666,-2.153291787532338,0.8647539153680389,2.46587817577521,0.5445020185570556,-0.00018319286530560483,4.5931244551523825e-05,0.00018566005152842718,-0.0008595947046622796,-0.00022088104046881648,0.00010825157574912449,-0.0005201489097346771,0.0,0.0,0.0,0.0,0.0,0.0,0.0,-0.00024785289393802756,0.0001085072442105206,-7.567246325312915e-05,-9.041502153683822e-05,0.00015493422446577476,-5.102793375666437e-05,1.8035525478077297e-05,0.00018319286530560483,-4.5931244551523825e-05,-0.00018566005152842718,0.0008595947046622796,0.00022088104046881648,-0.00010825157574912449,0.0005201489097346771,0.6053096652030945,34.06295394897461,3.9974029064178467,-19.586824417114258,-0.3793235421180725,-1.790164589881897,0.06351034343242645,0
44,0.21376538276672363,-0.6053096652030945,-34.06295394897461,-3.9974029064178467,19.586824417114258,0.3793235421180725,1.790164589881897,-0.06351034343242645,0.0,0.0,0.0,0.0,0.0,0.0,0.0,-0.6147102042454865,0.0010157189576626732,-0.4390951071218949,0.5241278152073766,0.31647552052635,-0.11545281432576862,-0.07467998544955956,1.0546583287879625,0.3237529973649142,-0.39242888987797353,-2.153201372510801,0.8645989811435731,2.4659292037089666,0.5444839830315775,1.0544104758940245,0.3238615046091247,-0.39250456234122666,-2.153291787532338,0.8647539153680389,2.46587817577521,0.5445020185570556,-0.00018319286530560483,4.5931244551523825e-05,0.00018566005152842718,-0.0008595947046622796,-0.00022088104046881648,0.00010825157574912449,-0.0005201489097346771,0.0,0.0,0.0,0.0,0.0,0.0,0.0,-0.00024785289393802756,0.0001085072442105206,-7.567246325312915e-05,-9.041502153683822e-05,0.00015493422446577476,-5.102793375666437e-05,1.8035525478077297e-05,0.00018319286530560483,-4.5931244551523825e-05,-0.00018566005152842718,0.0008595947046622796,0.00022088104046881648,-0.00010825157574912449,0.0005201489097346771,0.6053096652030945,34.06295394897461,3.9974029064178467,-19.586824417114258,-0.3793235421180725,-1.790164589881897,0.06351034343242645,0
45,0.2188119888305664,-0.6053096652030945,-34.03915023803711,-3.9974029064178467,19.586824417114258,0.3738303780555725,1.777347207069397,-0.04977743700146675,0.0,0.0,0.0,0.0,0.0,0.0,0.0,-0.6125784349741483,0.0059939646838918096,-0.4335279516821296,0.5237303883497325,0.31676330840269934,-0.11523726103528259,-0.07214911176085313,1.0546578294195788,0.32375132692905895,-0.39243029667132173,-2.153198613676324,0.8645964362577309,2.4659306278626123,0.5444824571530852,1.0544104758940245,0.3238615046091247,-0.39250456234122666,-2.153291787532338,0.8647539153680389,2.46587817577521,0.5445020185570556,0.00025954729103810605,-0.00043050814403344497,0.00036785689602534204,-0.0008621291058881793,-0.0003089559724309409,0.0002603654147268907,-0.0008739492250633173,0.0,0.0,0.0,0.0,0.0,0.0,0.0,-0.0002473535255542725,0.00011017768006577056,-7.426566990492711e-05,-9.317385601370631e-05,0.0001574791103080564,-5.245208740234375e-05,1.956140397041395e-05,-0.00025954729103810605,0.00043050814403344497,-0.00036785689602534204,0.0008621291058881793,0.0003089559724309409,-0.0002603654147268907,0.0008739492250633173,0.6053096652030945,34.03915023803711,3.9974029064178467,-19.586824417114258,-0.3738303780555725,-1.777347207069397,0.04977743700146675,0
46,0.2237849235534668,-0.6053096652030945,-34.03915023803711,-3.9974029064178467,19.586824417114258,0.3738303780555725,1.777347207069397,-0.04977743700146675,0.0,0.0,0.0,0.0,0.0,0.0,0.0,-0.6125784349741483,0.0059939646838918096,-0.4335279516821296,0.5237303883497325,0.31676330840269934,-0.11523726103528259,-0.07214911176085313,1.0546578294195788,0.32375132692905895,-0.39243029667132173,-2.153198613676324,0.8645964362577309,2.4659306278626123,0.5444824571530852,1.0544104758940245,0.3238615046091247,-0.39250456234122666,-2.153291787532338,0.8647539153680389,2.46587817577521,0.5445020185570556,0.00025954729103810605,-0.00043050814403344497,0.00036785689602534204,-0.0008621291058881793,-0.0003089559724309409,0.0002603654147268907,-0.0008739492250633173,0.0,0.0,0.0,0.0,0.0,0.0,0.0,-0.0002473535255542725,0.00011017768006577056,-7.426566990492711e-05,-9.317385601370631e-05,0.0001574791103080564,-5.245208740234375e-05,1.956140397041395e-05,-0.00025954729103810605,0.00043050814403344497,-0.00036785689602534204,0.0008621291058881793,0.0003089559724309409,-0.0002603654147268907,0.0008739492250633173,0.6053096652030945,34.03915023803711,3.9974029064178467,-19.586824417114258,-0.3738303780555725,-1.777347207069397,0.04977743700146675,0
47,0.2287914752960205,-0.6291133761405945,-34.06295394897461,-4.025173664093018,19.586824417114258,0.3674216866493225,1.796573281288147,-0.06991903483867645,0.0,0.0,0.0,0.0,0.0,0.0,0.0,-0.6186813901342957,-0.0026366549845892352,-0.4386274083928463,0.5289410762229279,0.31706750994699157,-0.11480591602399835,-0.07175009147780843,1.0546623863853712,0.3237529973289119,-0.39242646691472133,-2.1532006808999102,0.8645971894818236,2.465928491632144,0.5444846951084005,1.0544104758940245,0.3238615046091247,-0.39250456234122666,-2.153291787532338,0.8647539153680389,2.46587817577521,0.5445020185570556,0.000589525439603349,-0.0003840195563403149,0.0008189472941100758,-0.0004666219173320212,-5.310079915401607e-05,-0.0003879260929274527,-4.236127281746065e-05,0.0,0.0,0.0,0.0,0.0,0.0,0.0,-0.0002519104913467629,0.00010850728021283285,-7.80954265053313e-05,-9.110663242761774e-05,0.00015672588621529204,-5.0315856933824676e-05,1.7323448655126583e-05,-0.000589525439603349,0.0003840195563403149,-0.0008189472941100758,0.0004666219173320212,5.310079915401607e-05,0.0003879260929274527,4.236127281746065e-05,0.6291133761405945,34.06295394897461,4.025173664093018,-19.586824417114258,-0.3674216866493225,-1.796573281288147,0.06991903483867645,0
48,0.23375320434570312,-0.6291133761405945,-34.06295394897461,-4.025173664093018,19.586824417114258,0.3674216866493225,1.796573281288147,-0.06991903483867645,0.0,0.0,0.0,0.0,0.0,0.0,0.0,-0.6186813901342957,-0.0026366549845892352,-0.4386274083928463,0.5289410762229279,0.31706750994699157,-0.11480591602399835,-0.07175009147780843,1.0546623863853712,0.3237529973289119,-0.39242646691472133,-2.1532006808999102,0.8645971894818236,2.465928491632144,0.5444846951084005,1.0544104758940245,0.3238615046091247,-0.39250456234122666,-2.153291787532338,0.8647539153680389,2.46587817577521,0.5445020185570556,0.000589525439603349,-0.0003840195563403149,0.0008189472941100758,-0.0004666219173320212,-5.310079915401607e-05,-0.0003879260929274527,-4.236127281746065e-05,0.0,0.0,0.0,0.0,0.0,0.0,0.0,-0.0002519104913467629,0.00010850728021283285,-7.80954265053313e-05,-9.110663242761774e-05,0.00015672588621529204,-5.0315856933824676e-05,1.7323448655126583e-05,-0.000589525439603349,0.0003840195563403149,-0.0008189472941100758,0.0004666219173320212,5.310079915401607e-05,0.0003879260929274527,4.236127281746065e-05,0.6291133761405945,34.06295394897461,4.025173664093018,-19.586824417114258,-0.3674216866493225,-1.796573281288147,0.06991903483867645,0
49,0.23874974250793457,-0.6291133761405945,-34.09072494506836,-3.9974029064178467,19.559053421020508,0.3674216866493225,1.796573281288147,-0.09097616374492645,0.0,0.0,0.0,0.0,0.0,0.0,0.0,-0.6258749292783333,-0.006866235633226218,-0.4445161408351036,0.5277248668473109,0.3171019552147598,-0.11502649226325173,-0.07248049778675984,1.0546594163261094,0.3237549462067451,-0.39242817951820375,-2.153197276751017,0.8645973907826143,2.465928491632144,0.54448703478939,1.0544104758940245,0.3238615046091247,-0.39250456234122666,-2.153291787532338,0.8647539153680389,2.46587817577521,0.5445020185570556,-9.846663067229755e-05,0.00013187078219993348,-0.0003823097620947082,-7.469633467671868e-05,0.000207579286712032,-0.00020214761479194412,0.0009613444054021665,0.0,0.0,0.0,0.0,0.0,0.0,0.0,-0.0002489404320848987,0.00010655840237960845,-7.638282302291355e-05,-9.45107813210555e-05,0.0001565245854245889,-5.0315856933824676e-05,1.4983767665621706e-05,9.846663067229755e-05,-0.00013187078219993348,0.0003823097620947082,7.469633467671868e-05,-0.000207579286712032,0.00020214761479194412,-0.0009613444054021665,0.6291133761405945,34.09072494506836,3.9974029064178467,-19.559053421020508,-0.3674216866493225,-1.796573281288147,0.09097616374492645,0
50,0.24374985694885254,-0.6291133761405945,-34.09072494506836,-3.9974029064178467,19.559053421020508,0.3674216866493225,1.796573281288147,-0.09097616374492645,0.0,0.0,0.0,0.0,0.0,0.0,0.0,-0.6258749292783333,-0.006866235633226218,-0.4445161408351036,0.5277248668473109,0.3171019552147598,-0.11502649226325173,-0.07248049778675984,1.0546594163261094,0.3237549462067451,-0.39242817951820375,-2.153197276751017,0.8645973907826143,2.465928491632144,0.54448703478939,1.0544104758940245,0.3238615046091247,-0.39250456234122666,-2.153291787532338,0.8647539153680389,2.46587817577521,0.5445020185570556,-9.846663067229755e-05,0.00013187078219993348,-0.0003823097620947082,-7.469633467671868e-05,0.000207579286712032,-0.00020214761479194412,0.0009613444054021665,0.0,0.0,0.0,0.0,0.0,0.0,0.0,-0.0002489404320848987,0.00010655840237960845,-7.638282302291355e-05,-9.45107813210555e-05,0.0001565245854245889,-5.0315856933824676e-05,1.4983767665621706e-05,9.846663067229755e-05,-0.00013187078219993348,0.0003823097620947082,7.469633467671868e-05,-0.000207579286712032,0.00020214761479194412,-0.0009613444054021665,0.6291133761405945,34.09072494506836,3.9974029064178467,-19.559053421020508,-0.3674216866493225,-1.796573281288147,0.09097616374492645,0
51,0.2487478256225586,-0.6568843722343445,-34.06295394897461,-3.9974029064178467,19.586824417114258,0.3674216866493225,1.796573281288147,-0.10470907390117645,0.0,0.0,0.0,0.0,0.0,0.0,0.0,-0.6318571819158166,-0.011653593744131963,-0.449432764655863,0.5260549090866149,0.31755222283482143,-0.114787614141425,-0.07184558596069125,1.0546632999719068,0.3237529963928525,-0.3924281723884176,-2.153201372467579,0.8645981581317679,2.465928491632144,0.5444885606682963,1.0544104758940245,0.3238615046091247,-0.39250456234122666,-2.153291787532338,0.8647539153680389,2.46587817577521,0.5445020185570556,0.0002658262812506803,-0.0009695936166588113,-0.0013899378732851171,-0.0007277252784791177,0.00010132680707100359,-0.00033669917114457435,0.0015378956531895511,0.0,0.0,0.0,0.0,0.0,0.0,0.0,-0.00025282407788229655,0.00010850821627222951,-7.638995280906391e-05,-9.041506475870875e-05,0.00015575723627103688,-5.0315856933824676e-05,1.3457888759282888e-05,-0.0002658262812506803,0.0009695936166588113,0.0013899378732851171,0.0007277252784791177,-0.00010132680707100359,0.00033669917114457435,-0.0015378956531895511,0.6568843722343445,34.06295394897461,3.9974029064178467,-19.586824417114258,-0.3674216866493225,-1.796573281288147,0.10470907390117645,0
52,0.2537565231323242,-0.6568843722343445,-34.06295394897461,-3.9974029064178467,19.586824417114258,0.3674216866493225,1.796573281288147,-0.10470907390117645,0.0,0.0,0.0,0.0,0.0,0.0,0.0,-0.6318571819158166,-0.011653593744131963,-0.449432764655863,0.5260549090866149,0.31755222283482143,-0.114787614141425,-0.07184558596069125,1.0546632999719068,0.3237529963928525,-0.3924281723884176,-2.153201372467579,0.8645981581317679,2.465928491632144,0.5444885606682963,1.0544104758940245,0.3238615046091247,-0.39250456234122666,-2.153291787532338,0.8647539153680389,2.46587817577521,0.5445020185570556,0.0002658262812506803,-0.0009695936166588113,-0.0013899378732851171,-0.0007277252784791177,0.00010132680707100359,-0.00033669917114457435,0.0015378956531895511,0.0,0.0,0.0,0.0,0.0,0.0,0.0,-0.00025282407788229655,0.00010850821627222951,-7.638995280906391e-05,-9.041506475870875e-05,0.00015575723627103688,-5.0315856933824676e-05,1.3457888759282888e-05,-0.0002658262812506803,0.0009695936166588113,0.0013899378732851171,0.0007277252784791177,-0.00010132680707100359,0.00033669917114457435,-0.0015378956531895511,0.6568843722343445,34.06295394897461,3.9974029064178467,-19.586824417114258,-0.3674216866493225,-1.796573281288147,0.10470907390117645,0
53,0.258777379989624,-0.6291133761405945,-34.09072494506836,-3.9974029064178467,19.559053421020508,0.3619285225868225,1.783755898475647,-0.07724325358867645,0.0,0.0,0.0,0.0,0.0,0.0,0.0,-0.6127369054128484,-0.005860874681163882,-0.43554545673917777,0.5217244202260449,0.3168285203798391,-0.11685110884280317,-0.07369533606962372,1.0546594462270618,0.32375494620673984,-0.3924288897699319,-2.1531994142247832,0.8646012729358936,2.4659299157857895,0.5444855089104838,1.0544104758940245,0.3238615046091247,-0.39250456234122666,-2.153291787532338,0.8647539153680389,2.46587817577521,0.5445020185570556,9.237523968960955e-05,0.0003188395854805581,-0.000444968621834731,7.452689348742998e-05,0.00019968577721554557,0.0004129376784781628,-9.771542837320587e-05,0.0,0.0,0.0,0.0,0.0,0.0,0.0,-0.00024897033303727945,0.00010655840238488201,-7.567257129476035e-05,-9.237330755462736e-05,0.00015264243214530016,-5.174001057950406e-05,1.65096465718495e-05,-9.237523968960955e-05,-0.0003188395854805581,0.000444968621834731,-7.452689348742998e-05,-0.00019968577721554557,-0.0004129376784781628,9.771542837320587e-05,0.6291133761405945,34.09072494506836,3.9974029064178467,-19.559053421020508,-0.3619285225868225,-1.783755898475647,0.07724325358867645,0
54,0.26375436782836914,-0.6291133761405945,-34.09072494506836,-3.9974029064178467,19.559053421020508,0.3619285225868225,1.783755898475647,-0.07724325358867645,0.0,0.0,0.0,0.0,0.0,0.0,0.0,-0.6127369054128484,-0.005860874681163882,-0.43554545673917777,0.5217244202260449,0.3168285203798391,-0.11685110884280317,-0.07369533606962372,1.0546594462270618,0.32375494620673984,-0.3924288897699319,-2.1531994142247832,0.8646012729358936,2.4659299157857895,0.5444855089104838,1.0544104758940245,0.3238615046091247,-0.39250456234122666,-2.153291787532338,0.8647539153680389,2.46587817577521,0.5445020185570556,9.237523968960955e-05,0.0003188395854805581,-0.000444968621834731,7.452689348742998e-05,0.00019968577721554557,0.0004129376784781628,-9.771542837320587e-05,0.0,0.0,0.0,0.0,0.0,0.0,0.0,-0.00024897033303727945,0.00010655840238488201,-7.567257129476035e-05,-9.237330755462736e-05,0.00015264243214530016,-5.174001057950406e-05,1.65096465718495e-05,-9.237523968960955e-05,-0.0003188395854805581,0.000444968621834731,-7.452689348742998e-05,-0.00019968577721554557,-0.0004129376784781628,9.771542837320587e-05,0.6291133761405945,34.09072494506836,3.9974029064178467,-19.559053421020508,-0.3619285225868225,-1.783755898475647,0.07724325358867645,0
55,0.2687511444091797,-0.6806880831718445,-34.13833236694336,-3.9735991954803467,19.535249710083008,0.3555198311805725,1.790164589881897,-0.07724325358867645,0.0,0.0,0.0,0.0,0.0,0.0,0.0,-0.6206447374986681,-0.012440673784155788,-0.44494813230099167,0.5247600560216596,0.31662595742306054,-0.1156751394799519,-0.07448516447041738,1.0546652033030193,0.3237582870784559,-0.3924298429362891,-2.15319752364869,0.8645983674659949,2.4659291993483157,0.5444855089104838,1.0544104758940245,0.3238615046091247,-0.39250456234122666,-2.153291787532338,0.8647539153680389,2.46587817577521,0.5445020185570556,0.0013237143982762535,0.0012430262320462723,-0.0006390079130600795,0.0007698126038327024,0.0005109417642411031,-0.0001434120571564226,0.0003731629613312474,0.0,0.0,0.0,0.0,0.0,0.0,0.0,-0.0002547274089947926,0.00010321753066883099,-7.471940493758433e-05,-9.426388364763838e-05,0.00015554790204397317,-5.102357310571293e-05,1.65096465718495e-05,-0.0013237143982762535,-0.0012430262320462723,0.0006390079130600795,-0.0007698126038327024,-0.0005109417642411031,0.0001434120571564226,-0.0003731629613312474,0.6806880831718445,34.13833236694336,3.9735991954803467,-19.535249710083008,-0.3555198311805725,-1.790164589881897,0.07724325358867645,0
56,0.2751009464263916,-0.6806880831718445,-34.13833236694336,-3.9735991954803467,19.535249710083008,0.3555198311805725,1.790164589881897,-0.07724325358867645,0.0,0.0,0.0,0.0,0.0,0.0,0.0,-0.6206447374986681,-0.012440673784155788,-0.44494813230099167,0.5247600560216596,0.31662595742306054,-0.1156751394799519,-0.07448516447041738,1.0546652033030193,0.3237582870784559,-0.3924298429362891,-2.15319752364869,0.8645983674659949,2.4659291993483157,0.5444855089104838,1.0544104758940245,0.3238615046091247,-0.39250456234122666,-2.153291787532338,0.8647539153680389,2.46587817577521,0.5445020185570556,0.0013237143982762535,0.0012430262320462723,-0.0006390079130600795,0.0007698126038327024,0.0005109417642411031,-0.0001434120571564226,0.0003731629613312474,0.0,0.0,0.0,0.0,0.0,0.0,0.0,-0.0002547274089947926,0.00010321753066883099,-7.471940493758433e-05,-9.426388364763838e-05,0.00015554790204397317,-5.102357310571293e-05,1.65096465718495e-05,-0.0013237143982762535,-0.0012430262320462723,0.0006390079130600795,-0.0007698126038327024,-0.0005109417642411031,0.0001434120571564226,-0.0003731629613312474,0.6806880831718445,34.13833236694336,3.9735991954803467,-19.535249710083008,-0.3555198311805725,-1.790164589881897,0.07724325358867645,0
57,0.2787470817565918,-0.6053096652030945,-34.09072494506836,-4.025173664093018,19.535249710083008,0.3674216866493225,1.783755898475647,-0.09738485515117645,0.0,0.0,0.0,0.0,0.0,0.0,0.0,-0.6289334315002377,-0.007723300353287447,-0.44967215471578176,0.5231377236153371,0.31623138881180596,-0.11625327043701134,-0.07304526257840645,1.054660636770043,0.32375494620674533,-0.39242692932808343,-2.1531976672590756,0.8645970464518287,2.4659299157857815,0.5444877468662129,1.0544104758940245,0.3238615046091247,-0.39250456234122666,-2.153291787532338,0.8647539153680389,2.46587817577521,0.5445020185570556,-0.00046353851861291237,0.0008534474547252618,0.0002137125147644927,0.0008385611271223255,6.086415324321493e-05,0.00021930524259933313,0.0009428513403892087,0.0,0.0,0.0,0.0,0.0,0.0,0.0,-0.00025016087601859027,0.00010655840237938641,-7.763301314323012e-05,-9.412027326227701e-05,0.000156868916210251,-5.174001057151045e-05,1.4271690842670992e-05,0.00046353851861291237,-0.0008534474547252618,-0.0002137125147644927,-0.0008385611271223255,-6.086415324321493e-05,-0.00021930524259933313,-0.0009428513403892087,0.6053096652030945,34.09072494506836,4.025173664093018,-19.535249710083008,-0.3674216866493225,-1.783755898475647,0.09738485515117645,0
58,0.28374624252319336,-0.6053096652030945,-34.09072494506836,-4.025173664093018,19.535249710083008,0.3674216866493225,1.783755898475647,-0.09738485515117645,0.0,0.0,0.0,0.0,0.0,0.0,0.0,-0.6289334315002377,-0.007723300353287447,-0.44967215471578176,0.5231377236153371,0.31623138881180596,-0.11625327043701134,-0.07304526257840645,1.054660636770043,0.32375494620674533,-0.39242692932808343,-2.1531976672590756,0.8645970464518287,2.4659299157857815,0.5444877468662129,1.0544104758940245,0.3238615046091247,-0.39250456234122666,-2.153291787532338,0.8647539153680389,2.46587817577521,0.5445020185570556,-0.00046353851861291237,0.0008534474547252618,0.0002137125147644927,0.0008385611271223255,6.086415324321493e-05,0.00021930524259933313,0.0009428513403892087,0.0,0.0,0.0,0.0,0.0,0.0,0.0,-0.00025016087601859027,0.00010655840237938641,-7.763301314323012e-05,-9.412027326227701e-05,0.000156868916210251,-5.174001057151045e-05,1.4271690842670992e-05,0.00046353851861291237,-0.0008534474547252618,-0.0002137125147644927,-0.0008385611271223255,-6.086415324321493e-05,-0.00021930524259933313,-0.0009428513403892087,0.6053096652030945,34.09072494506836,4.025173664093018,-19.535249710083008,-0.3674216866493225,-1.783755898475647,0.09738485515117645,0
59,0.2887721061706543,-0.5815059542655945,-34.03915023803711,-4.025173664093018,19.511445999145508,0.3674216866493225,1.790164589881897,-0.10470907390117645,0.0,0.0,0.0,0.0,0.0,0.0,0.0,-0.6281861257737071,0.0022002514983289092,-0.44943707173415726,0.5191518579119723,0.3164313624017064,-0.11741492624585052,-0.07389209758436627,1.054658798498644,0.32375132692905895,-0.3924262998201035,-2.153195853212403,0.8645970717800173,2.4659292037089666,0.5444885606682963,1.0544104758940245,0.3238615046091247,-0.39250456234122666,-2.153291787532338,0.8647539153680389,2.46587817577521,0.5445020185570556,-0.0010864222680190122,1.8441426564736067e-05,0.00045940498949934364,0.0008901230510398541,0.00011843131594045963,-6.899909117146692e-05,0.001272754702799203,0.0,0.0,0.0,0.0,0.0,0.0,0.0,-0.00024832260461948863,0.00011017768006577056,-7.826252112314025e-05,-9.593431993470958e-05,0.00015684358802159348,-5.102793375666437e-05,1.3457888759282888e-05,0.0010864222680190122,-1.8441426564736067e-05,-0.00045940498949934364,-0.0008901230510398541,-0.00011843131594045963,6.899909117146692e-05,-0.001272754702799203,0.5815059542655945,34.03915023803711,4.025173664093018,-19.511445999145508,-0.3674216866493225,-1.790164589881897,0.10470907390117645,0
60,0.29377174377441406,-0.5815059542655945,-34.03915023803711,-4.025173664093018,19.511445999145508,0.3674216866493225,1.790164589881897,-0.10470907390117645,0.0,0.0,0.0,0.0,0.0,0.0,0.0,-0.6281861257737071,0.0022002514983289092,-0.44943707173415726,0.5191518579119723,0.3164313624017064,-0.11741492624585052,-0.07389209758436627,1.054658798498644,0.32375132692905895,-0.3924262998201035,-2.153195853212403,0.8645970717800173,2.4659292037089666,0.5444885606682963,1.0544104758940245,0.3238615046091247,-0.39250456234122666,-2.153291787532338,0.8647539153680389,2.46587817577521,0.5445020185570556,-0.0010864222680190122,1.8441426564736067e-05,0.00045940498949934364,0.0008901230510398541,0.00011843131594045963,-6.899909117146692e-05,0.001272754702799203,0.0,0.0,0.0,0.0,0.0,0.0,0.0,-0.00024832260461948863,0.00011017768006577056,-7.826252112314025e-05,-9.593431993470958e-05,0.00015684358802159348,-5.102793375666437e-05,1.3457888759282888e-05,0.0010864222680190122,-1.8441426564736067e-05,-0.00045940498949934364,-0.0008901230510398541,-0.00011843131594045963,6.899909117146692e-05,-0.001272754702799203,0.5815059542655945,34.03915023803711,4.025173664093018,-19.511445999145508,-0.3674216866493225,-1.790164589881897,0.10470907390117645,0
61,0.29876112937927246,-0.6291133761405945,-34.09072494506836,-4.048977375030518,19.586824417114258,0.3738303780555725,1.790164589881897,-0.11111776530742645,0.0,0.0,0.0,0.0,0.0,0.0,0.0,-0.6345705524908859,-0.0050108865357483155,-0.45567174513799336,0.5278900607170792,0.3165145706344247,-0.11614906879726608,-0.07328514389324245,1.0546623864002713,0.32375494620674533,-0.39242463006473816,-2.1532013721984593,0.8646006778982953,2.4659292037089666,0.5444892727451192,1.0544104758940245,0.3238615046091247,-0.39250456234122666,-2.153291787532338,0.8647539153680389,2.46587817577521,0.5445020185570556,-0.00044367002802052314,0.0008594406135087342,0.000776446316616062,-0.0006768501141451593,-0.00023598975416665364,0.00011193865228766464,0.0019374622092984868,0.0,0.0,0.0,0.0,0.0,0.0,0.0,-0.0002519105062468441,0.00010655840237938641,-7.993227648850354e-05,-9.041533387854628e-05,0.00015323746974360564,-5.102793375666437e-05,1.2745811936443197e-05,0.00044367002802052314,-0.0008594406135087342,-0.000776446316616062,0.0006768501141451593,0.00023598975416665364,-0.00011193865228766464,-0.0019374622092984868,0.6291133761405945,34.09072494506836,4.048977375030518,-19.586824417114258,-0.3738303780555725,-1.790164589881897,0.11111776530742645,0
62,0.3037712574005127,-0.6291133761405945,-34.09072494506836,-4.048977375030518,19.586824417114258,0.3738303780555725,1.790164589881897,-0.11111776530742645,0.0,0.0,0.0,0.0,0.0,0.0,0.0,-0.6345705524908859,-0.0050108865357483155,-0.45567174513799336,0.5278900607170792,0.3165145706344247,-0.11614906879726608,-0.07328514389324245,1.0546623864002713,0.32375494620674533,-0.39242463006473816,-2.1532013721984593,0.8646006778982953,2.4659292037089666,0.5444892727451192,1.0544104758940245,0.3238615046091247,-0.39250456234122666,-2.153291787532338,0.8647539153680389,2.46587817577521,0.5445020185570556,-0.00044367002802052314,0.0008594406135087342,0.000776446316616062,-0.0006768501141451593,-0.00023598975416665364,0.00011193865228766464,0.0019374622092984868,0.0,0.0,0.0,0.0,0.0,0.0,0.0,-0.0002519105062468441,0.00010655840237938641,-7.993227648850354e-05,-9.041533387854628e-05,0.00015323746974360564,-5.102793375666437e-05,1.2745811936443197e-05,0.00044367002802052314,-0.0008594406135087342,-0.000776446316616062,0.0006768501141451593,0.00023598975416665364,-0.00011193865228766464,-0.0019374622092984868,0.6291133761405945,34.09072494506836,4.048977375030518,-19.586824417114258,-0.3738303780555725,-1.790164589881897,0.11111776530742645,0
63,0.30870580673217773,-0.6568843722343445,-34.09072494506836,-4.025173664093018,19.559053421020508,0.3738303780555725,1.790164589881897,-0.09738485515117645,0.0,0.0,0.0,0.0,0.0,0.0,0.0,-0.6313379752070554,-0.006277258643726729,-0.4554572186106298,0.5275172948847879,0.3158119500377231,-0.11651102505360615,-0.07300112186773872,1.0546643001402585,0.32375494620674533,-0.39242622194360877,-2.1531994208034426,0.8645963165209327,2.4659292037089666,0.5444877468662129,1.0544104758940245,0.3238615046091247,-0.39250456234122666,-2.153291787532338,0.8647539153680389,2.46587817577521,0.5445020185570556,0.000254447239831024,-0.00010089706206904735,-5.3657075852456435e-05,-0.00029479161257650117,-0.00020168191341808154,-9.205317061949358e-06,0.0009600191423116207,0.0,0.0,0.0,0.0,0.0,0.0,0.0,-0.00025382424623399125,0.00010655840237938641,-7.834039761789313e-05,-9.236672889523234e-05,0.00015759884710619954,-5.102793375666437e-05,1.4271690842670992e-05,-0.000254447239831024,0.00010089706206904735,5.3657075852456435e-05,0.00029479161257650117,0.00020168191341808154,9.205317061949358e-06,-0.0009600191423116207,0.6568843722343445,34.09072494506836,4.025173664093018,-19.559053421020508,-0.3738303780555725,-1.790164589881897,0.09738485515117645,0
64,0.3137848377227783,-0.6568843722343445,-34.09072494506836,-4.025173664093018,19.559053421020508,0.3738303780555725,1.790164589881897,-0.09738485515117645,0.0,0.0,0.0,0.0,0.0,0.0,0.0,-0.6313379752070554,-0.006277258643726729,-0.4554572186106298,0.5275172948847879,0.3158119500377231,-0.11651102505360615,-0.07300112186773872,1.0546643001402585,0.32375494620674533,-0.39242622194360877,-2.1531994208034426,0.8645963165209327,2.4659292037089666,0.5444877468662129,1.0544104758940245,0.3238615046091247,-0.39250456234122666,-2.153291787532338,0.8647539153680389,2.46587817577521,0.5445020185570556,0.000254447239831024,-0.00010089706206904735,-5.3657075852456435e-05,-0.00029479161257650117,-0.00020168191341808154,-9.205317061949358e-06,0.0009600191423116207,0.0,0.0,0.0,0.0,0.0,0.0,0.0,-0.00025382424623399125,0.00010655840237938641,-7.834039761789313e-05,-9.236672889523234e-05,0.00015759884710619954,-5.102793375666437e-05,1.4271690842670992e-05,-0.000254447239831024,0.00010089706206904735,5.3657075852456435e-05,0.00029479161257650117,0.00020168191341808154,9.205317061949358e-06,-0.0009600191423116207,0.6568843722343445,34.09072494506836,4.025173664093018,-19.559053421020508,-0.3738303780555725,-1.790164589881897,0.09738485515117645,0
65,0.3187994956970215,-0.6568843722343445,-34.09072494506836,-4.025173664093018,19.559053421020508,0.3738303780555725,1.790164589881897,-0.09738485515117645,0.0,0.0,0.0,0.0,0.0,0.0,0.0,-0.6313379752070554,-0.006277258643726729,-0.4554572186106298,0.5275172948847879,0.3158119500377231,-0.11651102505360615,-0.07300112186773872,1.0546643001402585,0.32375494620674533,-0.39242622194360877,-2.1531994208034426,0.8645963165209327,2.4659292037089666,0.5444877468662129,1.0544104758940245,0.3238615046091247,-0.39250456234122666,-2.153291787532338,0.8647539153680389,2.46587817577521,0.5445020185570556,0.000254447239831024,-0.00010089706206904735,-5.3657075852456435e-05,-0.00029479161257650117,-0.00020168191341808154,-9.205317061949358e-06,0.0009600191423116207,0.0,0.0,0.0,0.0,0.0,0.0,0.0,-0.00025382424623399125,0.00010655840237938641,-7.834039761789313e-05,-9.236672889523234e-05,0.00015759884710619954,-5.102793375666437e-05,1.4271690842670992e-05,-0.000254447239831024,0.00010089706206904735,5.3657075852456435e-05,0.00029479161257650117,0.00020168191341808154,9.205317061949358e-06,-0.0009600191423116207,0.6568843722343445,34.09072494506836,4.025173664093018,-19.559053421020508,-0.3738303780555725,-1.790164589881897,0.09738485515117645,0
66,0.32376623153686523,-0.6568843722343445,-34.09072494506836,-4.025173664093018,19.559053421020508,0.3738303780555725,1.790164589881897,-0.09738485515117645,0.0,0.0,0.0,0.0,0.0,0.0,0.0,-0.6313379752070554,-0.006277258643726729,-0.4554572186106298,0.5275172948847879,0.3158119500377231,-0.11651102505360615,-0.07300112186773872,1.0546643001402585,0.32375494620674533,-0.39242622194360877,-2.1531994208034426,0.8645963165209327,2.4659292037089666,0.5444877468662129,1.0544104758940245,0.3238615046091247,-0.39250456234122666,-2.153291787532338,0.8647539153680389,2.46587817577521,0.5445020185570556,0.000254447239831024,-0.00010089706206904735,-5.3657075852456435e-05,-0.00029479161257650117,-0.00020168191341808154,-9.205317061949358e-06,0.0009600191423116207,0.0,0.0,0.0,0.0,0.0,0.0,0.0,-0.00025382424623399125,0.00010655840237938641,-7.834039761789313e-05,-9.236672889523234e-05,0.00015759884710619954,-5.102793375666437e-05,1.4271690842670992e-05,-0.000254447239831024,0.00010089706206904735,5.3657075852456435e-05,0.00029479161257650117,0.00020168191341808154,9.205317061949358e-06,-0.0009600191423116207,0.6568843722343445,34.09072494506836,4.025173664093018,-19.559053421020508,-0.3738303780555725,-1.790164589881897,0.09738485515117645,0
67,0.328768253326416,-0.6568843722343445,-34.09072494506836,-4.025173664093018,19.559053421020508,0.3738303780555725,1.790164589881897,-0.09738485515117645,0.0,0.0,0.0,0.0,0.0,0.0,0.0,-0.6313379752070554,-0.006277258643726729,-0.4554572186106298,0.5275172948847879,0.3158119500377231,-0.11651102505360615,-0.07300112186773872,1.0546643001402585,0.32375494620674533,-0.39242622194360877,-2.1531994208034426,0.8645963165209327,2.4659292037089666,0.5444877468662129,1.0544104758940245,0.3238615046091247,-0.39250456234122666,-2.153291787532338,0.8647539153680389,2.46587817577521,0.5445020185570556,0.000254447239831024,-0.00010089706206904735,-5.3657075852456435e-05,-0.00029479161257650117,-0.00020168191341808154,-9.205317061949358e-06,0.0009600191423116207,0.0,0.0,0.0,0.0,0.0,0.0,0.0,-0.00025382424623399125,0.00010655840237938641,-7.834039761789313e-05,-9.236672889523234e-05,0.00015759884710619954,-5.102793375666437e-05,1.4271690842670992e-05,-0.000254447239831024,0.00010089706206904735,5.3657075852456435e-05,0.00029479161257650117,0.00020168191341808154,9.205317061949358e-06,-0.0009600191423116207,0.6568843722343445,34.09072494506836,4.025173664093018,-19.559053421020508,-0.3738303780555725,-1.790164589881897,0.09738485515117645,0
68,0.3337059020996094,-0.6053096652030945,-34.13833236694336,-3.9974029064178467,19.535249710083008,0.3738303780555725,1.783755898475647,-0.08365194499492645,0.0,0.0,0.0,0.0,0.0,0.0,0.0,-0.6341768320944188,-0.013388349737712682,-0.45709036766502037,0.5280928160349131,0.31567242671559514,-0.11613490104765192,-0.07344436073611542,1.0546599721476126,0.3237582870784559,-0.392428169472183,-2.1531970644722045,0.8645995889547342,2.4659299157857895,0.5444862209873067,1.0544104758940245,0.3238615046091247,-0.39250456234122666,-2.153291787532338,0.8647539153680389,2.46587817577521,0.5445020185570556,-0.000747731504381467,0.0001409102036621144,-0.0006231734500659409,0.0008331394178799907,-0.00010997447359709863,0.0001688051600446995,0.0011428247400162347,0.0,0.0,0.0,0.0,0.0,0.0,0.0,-0.0002494962535881662,0.00010321753066883099,-7.639286904365106e-05,-9.472306013336151e-05,0.0001543264133047062,-5.174001057950406e-05,1.5797569748898788e-05,0.000747731504381467,-0.0001409102036621144,0.0006231734500659409,-0.0008331394178799907,0.00010997447359709863,-0.0001688051600446995,-0.0011428247400162347,0.6053096652030945,34.13833236694336,3.9974029064178467,-19.535249710083008,-0.3738303780555725,-1.783755898475647,0.08365194499492645,0
69,0.33875298500061035,-0.6053096652030945,-34.13833236694336,-3.9974029064178467,19.535249710083008,0.3738303780555725,1.783755898475647,-0.08365194499492645,0.0,0.0,0.0,0.0,0.0,0.0,0.0,-0.6341768320944188,-0.013388349737712682,-0.45709036766502037,0.5280928160349131,0.31567242671559514,-0.11613490104765192,-0.07344436073611542,1.0546599721476126,0.3237582870784559,-0.392428169472183,-2.1531970644722045,0.8645995889547342,2.4659299157857895,0.5444862209873067,1.0544104758940245,0.3238615046091247,-0.39250456234122666,-2.153291787532338,0.8647539153680389,2.46587817577521,0.5445020185570556,-0.000747731504381467,0.0001409102036621144,-0.0006231734500659409,0.0008331394178799907,-0.00010997447359709863,0.0001688051600446995,0.0011428247400162347,0.0,0.0,0.0,0.0,0.0,0.0,0.0,-0.0002494962535881662,0.00010321753066883099,-7.639286904365106e-05,-9.472306013336151e-05,0.0001543264133047062,-5.174001057950406e-05,1.5797569748898788e-05,0.000747731504381467,-0.0001409102036621144,0.0006231734500659409,-0.0008331394178799907,0.00010997447359709863,-0.0001688051600446995,-0.0011428247400162347,0.6053096652030945,34.13833236694336,3.9974029064178467,-19.535249710083008,-0.3738303780555725,-1.783755898475647,0.08365194499492645,0
70,0.34375452995300293,-0.6053096652030945,-34.11452865600586,-4.025173664093018,19.586824417114258,0.3674216866493225,1.783755898475647,-0.06351034343242645,0.0,0.0,0.0,0.0,0.0,0.0,0.0,-0.629514079600856,-0.007461663789385635,-0.4530685712395965,0.5196779301937751,0.31602727505672584,-0.11752897111315803,-0.07202819373013707,1.0546599656753135,0.32375661664260064,-0.39242630230026077,-2.1532013723708316,0.8646007682130038,2.4659299157857895,0.5444839830315775,1.0544104758940245,0.3238615046091247,-0.39250456234122666,-2.153291787532338,0.8647539153680389,2.46587817577521,0.5445020185570556,-0.0006228595415520551,0.00021904243361727343,0.0005764159379969725,-0.0007223689355542151,0.000147179346531119,5.6329987119105655e-05,-0.0003325820091425413,0.0,0.0,0.0,0.0,0.0,0.0,0.0,-0.0002494897812890251,0.00010488796652408094,-7.8260040965894e-05,-9.041516150620765e-05,0.000153147155035116,-5.174001057950406e-05,1.8035525478077297e-05,0.0006228595415520551,-0.00021904243361727343,-0.0005764159379969725,0.0007223689355542151,-0.000147179346531119,-5.6329987119105655e-05,0.0003325820091425413,0.6053096652030945,34.11452865600586,4.025173664093018,-19.586824417114258,-0.3674216866493225,-1.783755898475647,0.06351034343242645,0
71,0.3487563133239746,-0.6053096652030945,-34.11452865600586,-4.025173664093018,19.586824417114258,0.3674216866493225,1.783755898475647,-0.06351034343242645,0.0,0.0,0.0,0.0,0.0,0.0,0.0,-0.629514079600856,-0.007461663789385635,-0.4530685712395965,0.5196779301937751,0.31602727505672584,-0.11752897111315803,-0.07202819373013707,1.0546599656753135,0.32375661664260064,-0.39242630230026077,-2.1532013723708316,0.8646007682130038,2.4659299157857895,0.5444839830315775,1.0544104758940245,0.3238615046091247,-0.39250456234122666,-2.153291787532338,0.8647539153680389,2.46587817577521,0.5445020185570556,-0.0006228595415520551,0.00021904243361727343,0.0005764159379969725,-0.0007223689355542151,0.000147179346531119,5.6329987119105655e-05,-0.0003325820091425413,0.0,0.0,0.0,0.0,0.0,0.0,0.0,-0.0002494897812890251,0.00010488796652408094,-7.8260040965894e-05,-9.041516150620765e-05,0.000153147155035116,-5.174001057950406e-05,1.8035525478077297e-05,0.0006228595415520551,-0.00021904243361727343,-0.0005764159379969725,0.0007223689355542151,-0.000147179346531119,-5.6329987119105655e-05,0.0003325820091425413,0.6053096652030945,34.11452865600586,4.025173664093018,-19.586824417114258,-0.3674216866493225,-1.783755898475647,0.06351034343242645,0
72,0.3537607192993164,-0.6053096652030945,-34.06295394897461,-3.9497954845428467,19.559053421020508,0.3793235421180725,1.790164589881897,-0.05710165575146675,0.0,0.0,0.0,0.0,0.0,0.0,0.0,-0.6304232101873374,-0.011149901007084077,-0.45421506584840077,0.5190838356885232,0.3164287955997638,-0.11792934910238577,-0.07307501447752072,1.0546599990342551,0.3237508714659172,-0.3924315220090879,-2.1531994236728593,0.8645989826525003,2.4659292037089666,0.5444832709551686,1.0544104758940245,0.3238615046091247,-0.39250456234122666,-2.153291787532338,0.8647539153680389,2.46587817577521,0.5445020185570556,-0.00037781479088274983,-0.0003803683914193725,-0.0012000360787001796,-1.4027976566825568e-05,-0.0004669712922866914,-8.064306961476479e-05,-0.0007524618634242639,0.0,0.0,0.0,0.0,0.0,0.0,0.0,-0.00024952314023063416,0.00011063314320752804,-7.304033213878514e-05,-9.23638594785281e-05,0.00015493271553856935,-5.102793375666437e-05,1.8747601887025844e-05,0.00037781479088274983,0.0003803683914193725,0.0012000360787001796,1.4027976566825568e-05,0.0004669712922866914,8.064306961476479e-05,0.0007524618634242639,0.6053096652030945,34.06295394897461,3.9497954845428467,-19.559053421020508,-0.3793235421180725,-1.790164589881897,0.05710165575146675,0
73,0.35875678062438965,-0.6053096652030945,-34.06295394897461,-3.9497954845428467,19.559053421020508,0.3793235421180725,1.790164589881897,-0.05710165575146675,0.0,0.0,0.0,0.0,0.0,0.0,0.0,-0.6304232101873374,-0.011149901007084077,-0.45421506584840077,0.5190838356885232,0.3164287955997638,-0.11792934910238577,-0.07307501447752072,1.0546599990342551,0.3237508714659172,-0.3924315220090879,-2.1531994236728593,0.8645989826525003,2.4659292037089666,0.5444832709551686,1.0544104758940245,0.3238615046091247,-0.39250456234122666,-2.153291787532338,0.8647539153680389,2.46587817577521,0.5445020185570556,-0.00037781479088274983,-0.0003803683914193725,-0.0012000360787001796,-1.4027976566825568e-05,-0.0004669712922866914,-8.064306961476479e-05,-0.0007524618634242639,0.0,0.0,0.0,0.0,0.0,0.0,0.0,-0.00024952314023063416,0.00011063314320752804,-7.304033213878514e-05,-9.23638594785281e-05,0.00015493271553856935,-5.102793375666437e-05,1.8747601887025844e-05,0.00037781479088274983,0.0003803683914193725,0.0012000360787001796,1.4027976566825568e-05,0.0004669712922866914,8.064306961476479e-05,0.0007524618634242639,0.6053096652030945,34.06295394897461,3.9497954845428467,-19.559053421020508,-0.3793235421180725,-1.790164589881897,0.05710165575146675,0
74,0.36377382278442383,-0.6806880831718445,-34.09072494506836,-3.9735991954803467,19.535249710083008,0.3674216866493225,1.790164589881897,-0.04977743700146675,0.0,0.0,0.0,0.0,0.0,0.0,0.0,-0.6364443831233446,-0.010096251927860693,-0.4586234393242043,0.5199277216014959,0.3163391822925237,-0.11745807905100705,-0.07329702858255839,1.0546659242038139,0.32375494619474454,-0.3924305573976582,-2.153197750402582,0.8645982493073537,2.4659292037089666,0.5444824571530852,1.0544104758940245,0.3238615046091247,-0.39250456234122666,-2.153291787532338,0.8647539153680389,2.46587817577521,0.5445020185570556,0.0010065151263195017,0.0008239462594457574,-0.0011609453759820357,0.0004708964524020287,0.00023807825158925796,-0.0003371154465747856,-0.000926794498662394,0.0,0.0,0.0,0.0,0.0,0.0,0.0,-0.0002554483097894078,0.00010655841438017566,-7.400494356846199e-05,-9.4037129755975e-05,0.00015566606068517785,-5.102793375666437e-05,1.956140397041395e-05,-0.0010065151263195017,-0.0008239462594457574,0.0011609453759820357,-0.0004708964524020287,-0.00023807825158925796,0.0003371154465747856,0.000926794498662394,0.6806880831718445,34.09072494506836,3.9735991954803467,-19.535249710083008,-0.3674216866493225,-1.790164589881897,0.04977743700146675,0
75,0.36875128746032715,-0.6806880831718445,-34.09072494506836,-3.9735991954803467,19.535249710083008,0.3674216866493225,1.790164589881897,-0.04977743700146675,0.0,0.0,0.0,0.0,0.0,0.0,0.0,-0.6364443831233446,-0.010096251927860693,-0.4586234393242043,0.5199277216014959,0.3163391822925237,-0.11745807905100705,-0.07329702858255839,1.0546659242038139,0.32375494619474454,-0.3924305573976582,-2.153197750402582,0.8645982493073537,2.4659292037089666,0.5444824571530852,1.0544104758940245,0.3238615046091247,-0.39250456234122666,-2.153291787532338,0.8647539153680389,2.46587817577521,0.5445020185570556,0.0010065151263195017,0.0008239462594457574,-0.0011609453759820357,0.0004708964524020287,0.00023807825158925796,-0.0003371154465747856,-0.000926794498662394,0.0,0.0,0.0,0.0,0.0,0.0,0.0,-0.0002554483097894078,0.00010655841438017566,-7.400494356846199e-05,-9.4037129755975e-05,0.00015566606068517785,-5.102793375666437e-05,1.956140397041395e-05,-0.0010065151263195017,-0.0008239462594457574,0.0011609453759820357,-0.0004708964524020287,-0.00023807825158925796,0.0003371154465747856,0.000926794498662394,0.6806880831718445,34.09072494506836,3.9735991954803467,-19.535249710083008,-0.3674216866493225,-1.790164589881897,0.04977743700146675,0
76,0.3737506866455078,-0.6291133761405945,-34.03915023803711,-4.025173664093018,19.535249710083008,0.3738303780555725,1.790164589881897,-0.02963583543896675,0.0,0.0,0.0,0.0,0.0,0.0,0.0,-0.6287166132906529,-0.008235900404295334,-0.4513261114089213,0.523099057295498,0.3164142168902759,-0.1179953525863527,-0.07310016482419728,1.0546614218252628,0.3237513269290589,-0.3924262206511259,-2.153197752292181,0.8645974165379168,2.4659292037089666,0.544480219197356,1.0544104758940245,0.3238615046091247,-0.39250456234122666,-2.153291787532338,0.8647539153680389,2.46587817577521,0.5445020185570556,0.0004001037290164391,-0.0002328888788170761,-0.00025705644095776675,0.0004099607109663163,-0.00012666393422179858,0.00010884297345006459,-0.0018364489015860542,0.0,0.0,0.0,0.0,0.0,0.0,0.0,-0.0002509459312383111,0.00011017768006582607,-7.83416901007361e-05,-9.403524015683118e-05,0.0001564988301221426,-5.102793375666437e-05,2.1799359699592458e-05,-0.0004001037290164391,0.0002328888788170761,0.00025705644095776675,-0.0004099607109663163,0.00012666393422179858,-0.00010884297345006459,0.0018364489015860542,0.6291133761405945,34.03915023803711,4.025173664093018,-19.535249710083008,-0.3738303780555725,-1.790164589881897,0.02963583543896675,0
77,0.37874865531921387,-0.6291133761405945,-34.03915023803711,-4.025173664093018,19.535249710083008,0.3738303780555725,1.790164589881897,-0.02963583543896675,0.0,0.0,0.0,0.0,0.0,0.0,0.0,-0.6287166132906529,-0.008235900404295334,-0.4513261114089213,0.523099057295498,0.3164142168902759,-0.1179953525863527,-0.07310016482419728,1.0546614218252628,0.3237513269290589,-0.3924262206511259,-2.153197752292181,0.8645974165379168,2.4659292037089666,0.544480219197356,1.0544104758940245,0.3238615046091247,-0.39250456234122666,-2.153291787532338,0.8647539153680389,2.46587817577521,0.5445020185570556,0.0004001037290164391,-0.0002328888788170761,-0.00025705644095776675,0.0004099607109663163,-0.00012666393422179858,0.00010884297345006459,-0.0018364489015860542,0.0,0.0,0.0,0.0,0.0,0.0,0.0,-0.0002509459312383111,0.00011017768006582607,-7.83416901007361e-05,-9.403524015683118e-05,0.0001564988301221426,-5.102793375666437e-05,2.1799359699592458e-05,-0.0004001037290164391,0.0002328888788170761,0.00025705644095776675,-0.0004099607109663163,0.00012666393422179858,-0.00010884297345006459,0.0018364489015860542,0.6291133761405945,34.03915023803711,4.025173664093018,-19.535249710083008,-0.3738303780555725,-1.790164589881897,0.02963583543896675,0
78,0.3837580680847168,-0.6291133761405945,-34.03915023803711,-4.025173664093018,19.586824417114258,0.3857322335243225,1.777347207069397,-0.06991903483867645,0.0,0.0,0.0,0.0,0.0,0.0,0.0,-0.6285387961695129,-0.005315751138417822,-0.45452174601605416,0.5267242439283079,0.3168268870684058,-0.11702742442599487,-0.0724577757013714,1.0546592084629793,0.32375132692905895,-0.39242908142473837,-2.153201361176994,0.8645984299237189,2.4659309987359577,0.5444836354702711,1.0544104758940245,0.3238615046091247,-0.39250456234122666,-2.153291787532338,0.8647539153680389,2.46587817577521,0.5445020185570556,-3.9536630510950954e-05,-0.0003918073238115891,0.00047297637463906983,-0.0005098227993241127,-0.0005924180295607532,0.0002967460790317076,4.201231174283622e-05,0.0,0.0,0.0,0.0,0.0,0.0,0.0,-0.00024873256895485696,0.00011017768006577056,-7.54809164882908e-05,-9.042635534406429e-05,0.00015548544431998046,-5.2822960747711534e-05,1.8383086784479197e-05,3.9536630510950954e-05,0.0003918073238115891,-0.00047297637463906983,0.0005098227993241127,0.0005924180295607532,-0.0002967460790317076,-4.201231174283622e-05,0.6291133761405945,34.03915023803711,4.025173664093018,-19.586824417114258,-0.3857322335243225,-1.777347207069397,0.06991903483867645,0
79,0.3890256881713867,-0.6291133761405945,-34.03915023803711,-4.025173664093018,19.586824417114258,0.3857322335243225,1.777347207069397,-0.06991903483867645,0.0,0.0,0.0,0.0,0.0,0.0,0.0,-0.6285387961695129,-0.005315751138417822,-0.45452174601605416,0.5267242439283079,0.3168268870684058,-0.11702742442599487,-0.0724577757013714,1.0546592084629793,0.32375132692905895,-0.39242908142473837,-2.153201361176994,0.8645984299237189,2.4659309987359577,0.5444836354702711,1.0544104758940245,0.3238615046091247,-0.39250456234122666,-2.153291787532338,0.8647539153680389,2.46587817577521,0.5445020185570556,-3.9536630510950954e-05,-0.0003918073238115891,0.00047297637463906983,-0.0005098227993241127,-0.0005924180295607532,0.0002967460790317076,4.201231174283622e-05,0.0,0.0,0.0,0.0,0.0,0.0,0.0,-0.00024873256895485696,0.00011017768006577056,-7.54809164882908e-05,-9.042635534406429e-05,0.00015548544431998046,-5.2822960747711534e-05,1.8383086784479197e-05,3.9536630510950954e-05,0.0003918073238115891,-0.00047297637463906983,0.0005098227993241127,0.0005924180295607532,-0.0002967460790317076,-4.201231174283622e-05,0.6291133761405945,34.03915023803711,4.025173664093018,-19.586824417114258,-0.3857322335243225,-1.777347207069397,0.06991903483867645,0
80,0.39375734329223633,-0.6291133761405945,-34.09072494506836,-3.9974029064178467,19.535249710083008,0.3674216866493225,1.796573281288147,-0.10470907390117645,0.0,0.0,0.0,0.0,0.0,0.0,0.0,-0.6307363845670689,-0.00728614568959437,-0.4551713721095003,0.5281388745470877,0.317632797796513,-0.11689050821913743,-0.07145645610822864,1.0546621374632468,0.32375494609873845,-0.39242827738717656,-2.153197727377205,0.8646004464530828,2.4659318294943446,0.5444885606623145,1.0544104758940245,0.3238615046091247,-0.39250456234122666,-2.153291787532338,0.8647539153680389,2.46587817577521,0.5445020185570556,-1.9074374443415145e-05,0.0003171112714634318,-0.0003664359121575168,0.0005490288051246368,9.543159584590053e-05,-9.388611668814919e-05,0.0015865255768370752,0.0,0.0,0.0,0.0,0.0,0.0,0.0,-0.00025166156922229455,0.00010655851038626762,-7.628495405009872e-05,-9.406015513269139e-05,0.00015346891495615633,-5.365371913468309e-05,1.3457894741053522e-05,1.9074374443415145e-05,-0.0003171112714634318,0.0003664359121575168,-0.0005490288051246368,-9.543159584590053e-05,9.388611668814919e-05,-0.0015865255768370752,0.6291133761405945,34.09072494506836,3.9974029064178467,-19.535249710083008,-0.3674216866493225,-1.796573281288147,0.10470907390117645,0
