rezayati/contactInterpretation/dataset/franka_main/labeled_data/link5/c10_8.csv
index,time,tau_J0,tau_J1,tau_J2,tau_J3,tau_J4,tau_J5,tau_J6,tau_J_d0,tau_J_d1,tau_J_d2,tau_J_d3,tau_J_d4,tau_J_d5,tau_J_d6,tau_ext0,tau_ext1,tau_ext2,tau_ext3,tau_ext4,tau_ext5,tau_ext6,q0,q1,q2,q3,q4,q5,q6,q_d0,q_d1,q_d2,q_d3,q_d4,q_d5,q_d6,dq0,dq1,dq2,dq3,dq4,dq5,dq6,dq_d0,dq_d1,dq_d2,dq_d3,dq_d4,dq_d5,dq_d6,e0,e1,e2,e3,e4,e5,e6,de0,de1,de2,de3,de4,de5,de6,etau_J0,etau_J1,etau_J2,etau_J3,etau_J4,etau_J5,etau_J6,label
1,0.0,-0.4505855441093445,-22.720483779907227,-0.1253325641155243,14.080232620239258,0.2841086983680725,2.1453890800476074,-0.38577598333358765,0.0,0.0,0.0,0.0,0.0,0.0,0.0,-0.43391326539557484,0.06505946047674623,-0.19507057836150596,0.19732985753412088,0.04904190818160314,-0.04256360824799498,-0.41319327867643785,1.6756756601459102,0.05194414719137642,0.029994912341109223,-2.7524927462654296,0.034253396390216385,2.7663248592512875,0.7691948393612966,1.6754973547542302,0.052104326824870026,0.029969505109285054,-2.752394845125968,0.0342448039870148,2.7663679543071322,0.7691630533470046,5.26347506696245e-05,0.0008296081701374984,0.00019543320981200613,-0.0003802948596270668,-2.050137312559649e-05,-0.0001845734854066909,-0.0011066254374631896,0.0,0.0,0.0,0.0,0.0,0.0,0.0,-0.00017830539167995596,0.00016017963349360814,-2.5407231824169096e-05,9.790113946150925e-05,-8.592403201584942e-06,4.309505584476625e-05,-3.178601429199013e-05,-5.26347506696245e-05,-0.0008296081701374984,-0.00019543320981200613,0.0003802948596270668,2.050137312559649e-05,0.0001845734854066909,0.0011066254374631896,0.4505855441093445,22.720483779907227,0.1253325641155243,-14.080232620239258,-0.2841086983680725,-2.1453890800476074,0.38577598333358765,0
2,0.0050046443939208984,-0.4505855441093445,-22.720483779907227,-0.1253325641155243,14.080232620239258,0.2841086983680725,2.1453890800476074,-0.38577598333358765,0.0,0.0,0.0,0.0,0.0,0.0,0.0,-0.43391326539557484,0.06505946047674623,-0.19507057836150596,0.19732985753412088,0.04904190818160314,-0.04256360824799498,-0.41319327867643785,1.6756756601459102,0.05194414719137642,0.029994912341109223,-2.7524927462654296,0.034253396390216385,2.7663248592512875,0.7691948393612966,1.6754973547542302,0.052104326824870026,0.029969505109285054,-2.752394845125968,0.0342448039870148,2.7663679543071322,0.7691630533470046,5.26347506696245e-05,0.0008296081701374984,0.00019543320981200613,-0.0003802948596270668,-2.050137312559649e-05,-0.0001845734854066909,-0.0011066254374631896,0.0,0.0,0.0,0.0,0.0,0.0,0.0,-0.00017830539167995596,0.00016017963349360814,-2.5407231824169096e-05,9.790113946150925e-05,-8.592403201584942e-06,4.309505584476625e-05,-3.178601429199013e-05,-5.26347506696245e-05,-0.0008296081701374984,-0.00019543320981200613,0.0003802948596270668,2.050137312559649e-05,0.0001845734854066909,0.0011066254374631896,0.4505855441093445,22.720483779907227,0.1253325641155243,-14.080232620239258,-0.2841086983680725,-2.1453890800476074,0.38577598333358765,0
3,0.009975433349609375,-0.4267818331718445,-22.772058486938477,-0.1253325641155243,14.056428909301758,0.2841086983680725,2.1389803886413574,-0.39950889348983765,0.0,0.0,0.0,0.0,0.0,0.0,0.0,-0.43653578054703385,0.060969159253471315,-0.1957168408480544,0.2004446553913429,0.04931319070357562,-0.04187458805031232,-0.4127143917758917,1.675673989710055,0.051947766465053245,0.029994109217895287,-2.752491075716521,0.03425722426939891,2.766329099068278,0.7691934305204758,1.6754973547542302,0.052104326824870026,0.029969505109285054,-2.752394845125968,0.0342448039870148,2.7663679543071322,0.7691630533470046,-0.00025828592778218287,8.885683264059616e-05,-0.0001683137361031342,-8.155949847377975e-05,-0.0002228976576681653,0.00010195211183080303,-0.0008495528516605538,0.0,0.0,0.0,0.0,0.0,0.0,0.0,-0.00017663495582476152,0.00015656035981678057,-2.4604108610232905e-05,9.623059055297034e-05,-1.242028238410825e-05,3.885523885438502e-05,-3.037717347120772e-05,0.00025828592778218287,-8.885683264059616e-05,0.0001683137361031342,8.155949847377975e-05,0.0002228976576681653,-0.00010195211183080303,0.0008495528516605538,0.4267818331718445,22.772058486938477,0.1253325641155243,-14.056428909301758,-0.2841086983680725,-2.1389803886413574,0.39950889348983765,0
4,0.014974594116210938,-0.4267818331718445,-22.772058486938477,-0.1253325641155243,14.056428909301758,0.2841086983680725,2.1389803886413574,-0.39950889348983765,0.0,0.0,0.0,0.0,0.0,0.0,0.0,-0.43653578054703385,0.060969159253471315,-0.1957168408480544,0.2004446553913429,0.04931319070357562,-0.04187458805031232,-0.4127143917758917,1.675673989710055,0.051947766465053245,0.029994109217895287,-2.752491075716521,0.03425722426939891,2.766329099068278,0.7691934305204758,1.6754973547542302,0.052104326824870026,0.029969505109285054,-2.752394845125968,0.0342448039870148,2.7663679543071322,0.7691630533470046,-0.00025828592778218287,8.885683264059616e-05,-0.0001683137361031342,-8.155949847377975e-05,-0.0002228976576681653,0.00010195211183080303,-0.0008495528516605538,0.0,0.0,0.0,0.0,0.0,0.0,0.0,-0.00017663495582476152,0.00015656035981678057,-2.4604108610232905e-05,9.623059055297034e-05,-1.242028238410825e-05,3.885523885438502e-05,-3.037717347120772e-05,0.00025828592778218287,-8.885683264059616e-05,0.0001683137361031342,8.155949847377975e-05,0.0002228976576681653,-0.00010195211183080303,0.0008495528516605538,0.4267818331718445,22.772058486938477,0.1253325641155243,-14.056428909301758,-0.2841086983680725,-2.1389803886413574,0.39950889348983765,0
5,0.019978761672973633,-0.4267818331718445,-22.795862197875977,-0.09756157547235489,14.056428909301758,0.2786155343055725,2.1517977714538574,-0.39950889348983765,0.0,0.0,0.0,0.0,0.0,0.0,0.0,-0.44042542496496406,0.06335158441203377,-0.198149503849347,0.19572009066324786,0.04930743525535436,-0.04255916345387815,-0.413929871229367,1.675673989710055,0.05195156776695921,0.02998979185072666,-2.7524910757165206,0.03425688304410494,2.7663273131620407,0.769196379380512,1.6754973547542302,0.052104326824870026,0.029969505109285054,-2.752394845125968,0.0342448039870148,2.7663679543071322,0.7691630533470046,-0.0009235141040424901,0.00034763326234796987,-9.812834003786286e-05,0.00023890990285807477,0.0002143832155651555,-0.00020768465621049477,-0.0006336823047169322,0.0,0.0,0.0,0.0,0.0,0.0,0.0,-0.00017663495582476152,0.00015275905791081734,-2.028674144160733e-05,9.623059055252625e-05,-1.2079057090136347e-05,4.0641145091502295e-05,-3.332603350736374e-05,0.0009235141040424901,-0.00034763326234796987,9.812834003786286e-05,-0.00023890990285807477,-0.0002143832155651555,0.00020768465621049477,0.0006336823047169322,0.4267818331718445,22.795862197875977,0.09756157547235489,-14.056428909301758,-0.2786155343055725,-2.1517977714538574,0.39950889348983765,0
6,0.02497267723083496,-0.4267818331718445,-22.795862197875977,-0.09756157547235489,14.056428909301758,0.2786155343055725,2.1517977714538574,-0.39950889348983765,0.0,0.0,0.0,0.0,0.0,0.0,0.0,-0.44042542496496406,0.06335158441203377,-0.198149503849347,0.19572009066324786,0.04930743525535436,-0.04255916345387815,-0.413929871229367,1.675673989710055,0.05195156776695921,0.02998979185072666,-2.7524910757165206,0.03425688304410494,2.7663273131620407,0.769196379380512,1.6754973547542302,0.052104326824870026,0.029969505109285054,-2.752394845125968,0.0342448039870148,2.7663679543071322,0.7691630533470046,-0.0009235141040424901,0.00034763326234796987,-9.812834003786286e-05,0.00023890990285807477,0.0002143832155651555,-0.00020768465621049477,-0.0006336823047169322,0.0,0.0,0.0,0.0,0.0,0.0,0.0,-0.00017663495582476152,0.00015275905791081734,-2.028674144160733e-05,9.623059055252625e-05,-1.2079057090136347e-05,4.0641145091502295e-05,-3.332603350736374e-05,0.0009235141040424901,-0.00034763326234796987,9.812834003786286e-05,-0.00023890990285807477,-0.0002143832155651555,0.00020768465621049477,0.0006336823047169322,0.4267818331718445,22.795862197875977,0.09756157547235489,-14.056428909301758,-0.2786155343055725,-2.1517977714538574,0.39950889348983765,0
7,0.029974699020385742,-0.3514034152030945,-22.795862197875977,-0.07375786453485489,14.056428909301758,0.2841086983680725,2.1453890800476074,-0.41324180364608765,0.0,0.0,0.0,0.0,0.0,0.0,0.0,-0.4372593182078364,0.054445081975441255,-0.19163583861678343,0.19208257044767804,0.048806611938187985,-0.04274942766572349,-0.4137730460727779,1.6756686999965131,0.05194943691293728,0.02999121732536202,-2.7524910757165206,0.034253976779952816,2.7663294505235902,0.7691949224832896,1.6754973547542302,0.052104326824870026,0.029969505109285054,-2.752394845125968,0.0342448039870148,2.7663679543071322,0.7691630533470046,-0.0016322151219603748,0.0004079195916937655,-0.0003365788168271864,-3.0270054361256507e-05,-0.00010000419707950683,6.703113677522339e-05,7.16070045542576e-05,0.0,0.0,0.0,0.0,0.0,0.0,0.0,-0.00017134524228290537,0.00015488991193274293,-2.1712216076965468e-05,9.623059055252625e-05,-9.172792938015595e-06,3.850378354197659e-05,-3.1869136284945476e-05,0.0016322151219603748,-0.0004079195916937655,0.0003365788168271864,3.0270054361256507e-05,0.00010000419707950683,-6.703113677522339e-05,-7.16070045542576e-05,0.3514034152030945,22.795862197875977,0.07375786453485489,-14.056428909301758,-0.2841086983680725,-2.1453890800476074,0.41324180364608765,0
8,0.03497672080993652,-0.3514034152030945,-22.795862197875977,-0.07375786453485489,14.056428909301758,0.2841086983680725,2.1453890800476074,-0.41324180364608765,0.0,0.0,0.0,0.0,0.0,0.0,0.0,-0.4372593182078364,0.054445081975441255,-0.19163583861678343,0.19208257044767804,0.048806611938187985,-0.04274942766572349,-0.4137730460727779,1.6756686999965131,0.05194943691293728,0.02999121732536202,-2.7524910757165206,0.034253976779952816,2.7663294505235902,0.7691949224832896,1.6754973547542302,0.052104326824870026,0.029969505109285054,-2.752394845125968,0.0342448039870148,2.7663679543071322,0.7691630533470046,-0.0016322151219603748,0.0004079195916937655,-0.0003365788168271864,-3.0270054361256507e-05,-0.00010000419707950683,6.703113677522339e-05,7.16070045542576e-05,0.0,0.0,0.0,0.0,0.0,0.0,0.0,-0.00017134524228290537,0.00015488991193274293,-2.1712216076965468e-05,9.623059055252625e-05,-9.172792938015595e-06,3.850378354197659e-05,-3.1869136284945476e-05,0.0016322151219603748,-0.0004079195916937655,0.0003365788168271864,3.0270054361256507e-05,0.00010000419707950683,-6.703113677522339e-05,-7.16070045542576e-05,0.3514034152030945,22.795862197875977,0.07375786453485489,-14.056428909301758,-0.2841086983680725,-2.1453890800476074,0.41324180364608765,0
9,0.03997302055358887,-0.3514034152030945,-22.795862197875977,-0.07375786453485489,14.056428909301758,0.2841086983680725,2.1453890800476074,-0.41324180364608765,0.0,0.0,0.0,0.0,0.0,0.0,0.0,-0.4372593182078364,0.054445081975441255,-0.19163583861678343,0.19208257044767804,0.048806611938187985,-0.04274942766572349,-0.4137730460727779,1.6756686999965131,0.05194943691293728,0.02999121732536202,-2.7524910757165206,0.034253976779952816,2.7663294505235902,0.7691949224832896,1.6754973547542302,0.052104326824870026,0.029969505109285054,-2.752394845125968,0.0342448039870148,2.7663679543071322,0.7691630533470046,-0.0016322151219603748,0.0004079195916937655,-0.0003365788168271864,-3.0270054361256507e-05,-0.00010000419707950683,6.703113677522339e-05,7.16070045542576e-05,0.0,0.0,0.0,0.0,0.0,0.0,0.0,-0.00017134524228290537,0.00015488991193274293,-2.1712216076965468e-05,9.623059055252625e-05,-9.172792938015595e-06,3.850378354197659e-05,-3.1869136284945476e-05,0.0016322151219603748,-0.0004079195916937655,0.0003365788168271864,3.0270054361256507e-05,0.00010000419707950683,-6.703113677522339e-05,-7.16070045542576e-05,0.3514034152030945,22.795862197875977,0.07375786453485489,-14.056428909301758,-0.2841086983680725,-2.1453890800476074,0.41324180364608765,0
10,0.04497408866882324,-0.3514034152030945,-22.795862197875977,-0.07375786453485489,14.056428909301758,0.2841086983680725,2.1453890800476074,-0.41324180364608765,0.0,0.0,0.0,0.0,0.0,0.0,0.0,-0.4372593182078364,0.054445081975441255,-0.19163583861678343,0.19208257044767804,0.048806611938187985,-0.04274942766572349,-0.4137730460727779,1.6756686999965131,0.05194943691293728,0.02999121732536202,-2.7524910757165206,0.034253976779952816,2.7663294505235902,0.7691949224832896,1.6754973547542302,0.052104326824870026,0.029969505109285054,-2.752394845125968,0.0342448039870148,2.7663679543071322,0.7691630533470046,-0.0016322151219603748,0.0004079195916937655,-0.0003365788168271864,-3.0270054361256507e-05,-0.00010000419707950683,6.703113677522339e-05,7.16070045542576e-05,0.0,0.0,0.0,0.0,0.0,0.0,0.0,-0.00017134524228290537,0.00015488991193274293,-2.1712216076965468e-05,9.623059055252625e-05,-9.172792938015595e-06,3.850378354197659e-05,-3.1869136284945476e-05,0.0016322151219603748,-0.0004079195916937655,0.0003365788168271864,3.0270054361256507e-05,0.00010000419707950683,-6.703113677522339e-05,-7.16070045542576e-05,0.3514034152030945,22.795862197875977,0.07375786453485489,-14.056428909301758,-0.2841086983680725,-2.1453890800476074,0.41324180364608765,0
11,0.0499727725982666,-0.3752071261405945,-22.672876358032227,-0.07375786453485489,14.056428909301758,0.2722068428993225,2.1453890800476074,-0.45352500677108765,0.0,0.0,0.0,0.0,0.0,0.0,0.0,-0.4375463964293651,0.05308951370192105,-0.1959010641262334,0.18860894049455504,0.04942575991197438,-0.04322110102383081,-0.4146792415099529,1.6756703704323685,0.051940806315656354,0.029988149946688577,-2.7524910757165206,0.034258613767641874,2.7663284699774073,0.7691983393858031,1.6754973547542302,0.052104326824870026,0.029969505109285054,-2.752394845125968,0.0342448039870148,2.7663679543071322,0.7691630533470046,-0.0007433350791708833,-0.0015904570630591026,-0.000624994503071801,-4.659307000328122e-06,0.0003131707524004071,-0.0002790962817742173,0.0014667897641713406,0.0,0.0,0.0,0.0,0.0,0.0,0.0,-0.00017301567813832186,0.00016352050921367156,-1.8644837403523212e-05,9.623059055252625e-05,-1.3809780627073442e-05,3.9484329724892575e-05,-3.528603879843217e-05,0.0007433350791708833,0.0015904570630591026,0.000624994503071801,4.659307000328122e-06,-0.0003131707524004071,0.0002790962817742173,-0.0014667897641713406,0.3752071261405945,22.672876358032227,0.07375786453485489,-14.056428909301758,-0.2722068428993225,-2.1453890800476074,0.45352500677108765,0
12,0.05499148368835449,-0.3752071261405945,-22.672876358032227,-0.07375786453485489,14.056428909301758,0.2722068428993225,2.1453890800476074,-0.45352500677108765,0.0,0.0,0.0,0.0,0.0,0.0,0.0,-0.4375463964293651,0.05308951370192105,-0.1959010641262334,0.18860894049455504,0.04942575991197438,-0.04322110102383081,-0.4146792415099529,1.6756703704323685,0.051940806315656354,0.029988149946688577,-2.7524910757165206,0.034258613767641874,2.7663284699774073,0.7691983393858031,1.6754973547542302,0.052104326824870026,0.029969505109285054,-2.752394845125968,0.0342448039870148,2.7663679543071322,0.7691630533470046,-0.0007433350791708833,-0.0015904570630591026,-0.000624994503071801,-4.659307000328122e-06,0.0003131707524004071,-0.0002790962817742173,0.0014667897641713406,0.0,0.0,0.0,0.0,0.0,0.0,0.0,-0.00017301567813832186,0.00016352050921367156,-1.8644837403523212e-05,9.623059055252625e-05,-1.3809780627073442e-05,3.9484329724892575e-05,-3.528603879843217e-05,0.0007433350791708833,0.0015904570630591026,0.000624994503071801,4.659307000328122e-06,-0.0003131707524004071,0.0002790962817742173,-0.0014667897641713406,0.3752071261405945,22.672876358032227,0.07375786453485489,-14.056428909301758,-0.2722068428993225,-2.1453890800476074,0.45352500677108765,0
13,0.059983015060424805,-0.4505855441093445,-22.672876358032227,-0.1253325641155243,14.080232620239258,0.2722068428993225,2.1261630058288574,-0.43979209661483765,0.0,0.0,0.0,0.0,0.0,0.0,0.0,-0.4381703633386549,0.05054882439773512,-0.19982154681332737,0.1932405824981576,0.049686372433008316,-0.042521754381153604,-0.41474875597261934,1.6756756601459102,0.05194083262264457,0.029991765996718378,-2.752492746152376,0.03425424628500204,2.766331699272126,0.7691979849009113,1.6754973547542302,0.052104326824870026,0.029969505109285054,-2.752394845125968,0.0342448039870148,2.7663679543071322,0.7691630533470046,0.0002633262302163173,-0.0008421434825835266,0.00023761547566916586,-0.000153323548534178,0.0004010179086811812,0.00068396023684649,0.0016463028543475548,0.0,0.0,0.0,0.0,0.0,0.0,0.0,-0.00017830539167995596,0.00016349420222545874,-2.2260887433324383e-05,9.790102640794274e-05,-9.442297987237447e-06,3.625503500614968e-05,-3.4931553906658586e-05,-0.0002633262302163173,0.0008421434825835266,-0.00023761547566916586,0.000153323548534178,-0.0004010179086811812,-0.00068396023684649,-0.0016463028543475548,0.4505855441093445,22.672876358032227,0.1253325641155243,-14.080232620239258,-0.2722068428993225,-2.1261630058288574,0.43979209661483765,0
14,0.06525540351867676,-0.4505855441093445,-22.672876358032227,-0.1253325641155243,14.080232620239258,0.2722068428993225,2.1261630058288574,-0.43979209661483765,0.0,0.0,0.0,0.0,0.0,0.0,0.0,-0.4381703633386549,0.05054882439773512,-0.19982154681332737,0.1932405824981576,0.049686372433008316,-0.042521754381153604,-0.41474875597261934,1.6756756601459102,0.05194083262264457,0.029991765996718378,-2.752492746152376,0.03425424628500204,2.766331699272126,0.7691979849009113,1.6754973547542302,0.052104326824870026,0.029969505109285054,-2.752394845125968,0.0342448039870148,2.7663679543071322,0.7691630533470046,0.0002633262302163173,-0.0008421434825835266,0.00023761547566916586,-0.000153323548534178,0.0004010179086811812,0.00068396023684649,0.0016463028543475548,0.0,0.0,0.0,0.0,0.0,0.0,0.0,-0.00017830539167995596,0.00016349420222545874,-2.2260887433324383e-05,9.790102640794274e-05,-9.442297987237447e-06,3.625503500614968e-05,-3.4931553906658586e-05,-0.0002633262302163173,0.0008421434825835266,-0.00023761547566916586,0.000153323548534178,-0.0004010179086811812,-0.00068396023684649,-0.0016463028543475548,0.4505855441093445,22.672876358032227,0.1253325641155243,-14.080232620239258,-0.2722068428993225,-2.1261630058288574,0.43979209661483765,0
15,0.0699775218963623,-0.4267818331718445,-22.720483779907227,-0.1253325641155243,14.080232620239258,0.2841086983680725,2.1453890800476074,-0.43979209661483765,0.0,0.0,0.0,0.0,0.0,0.0,0.0,-0.42748258931756494,0.05957200665436905,-0.18899375933806295,0.19383939828156574,0.04821523682795591,-0.04284856357676315,-0.4132145544251249,1.675673989710055,0.05194414718751532,0.0299920814605292,-2.752492746152376,0.034253423827128204,2.7663295645552126,0.7691979761862223,1.6754973547542302,0.052104326824870026,0.029969505109285054,-2.752394845125968,0.0342448039870148,2.7663679543071322,0.7691630533470046,9.217345946265184e-05,0.0008597917053813795,0.0005962292592249666,-0.00023764607422621114,-4.9392537834927233e-05,-0.0001682156369062538,0.001053241189974085,0.0,0.0,0.0,0.0,0.0,0.0,0.0,-0.00017663495582476152,0.00016017963735470708,-2.2576351244144727e-05,9.790102640794274e-05,-8.619840113403832e-06,3.8389751919609694e-05,-3.492283921768813e-05,-9.217345946265184e-05,-0.0008597917053813795,-0.0005962292592249666,0.00023764607422621114,4.9392537834927233e-05,0.0001682156369062538,-0.001053241189974085,0.4267818331718445,22.720483779907227,0.1253325641155243,-14.080232620239258,-0.2841086983680725,-2.1453890800476074,0.43979209661483765,0
16,0.07497620582580566,-0.4267818331718445,-22.720483779907227,-0.1253325641155243,14.080232620239258,0.2841086983680725,2.1453890800476074,-0.43979209661483765,0.0,0.0,0.0,0.0,0.0,0.0,0.0,-0.42748258931756494,0.05957200665436905,-0.18899375933806295,0.19383939828156574,0.04821523682795591,-0.04284856357676315,-0.4132145544251249,1.675673989710055,0.05194414718751532,0.0299920814605292,-2.752492746152376,0.034253423827128204,2.7663295645552126,0.7691979761862223,1.6754973547542302,0.052104326824870026,0.029969505109285054,-2.752394845125968,0.0342448039870148,2.7663679543071322,0.7691630533470046,9.217345946265184e-05,0.0008597917053813795,0.0005962292592249666,-0.00023764607422621114,-4.9392537834927233e-05,-0.0001682156369062538,0.001053241189974085,0.0,0.0,0.0,0.0,0.0,0.0,0.0,-0.00017663495582476152,0.00016017963735470708,-2.2576351244144727e-05,9.790102640794274e-05,-8.619840113403832e-06,3.8389751919609694e-05,-3.492283921768813e-05,-9.217345946265184e-05,-0.0008597917053813795,-0.0005962292592249666,0.00023764607422621114,4.9392537834927233e-05,0.0001682156369062538,-0.001053241189974085,0.4267818331718445,22.720483779907227,0.1253325641155243,-14.080232620239258,-0.2841086983680725,-2.1453890800476074,0.43979209661483765,0
17,0.0799722671508789,-0.4267818331718445,-22.720483779907227,-0.1491362750530243,14.032625198364258,0.2786155343055725,2.1389803886413574,-0.43979209661483765,0.0,0.0,0.0,0.0,0.0,0.0,0.0,-0.43218333412265314,0.05983449627255278,-0.19389766938469802,0.19739122285412963,0.04876537579844173,-0.04265596151412808,-0.41446021875306116,1.675673989710055,0.05194414718736682,0.02999625057942781,-2.752489405280665,0.034255054362188196,2.7663271020783067,0.769200798496234,1.6754973547542302,0.052104326824870026,0.029969505109285054,-2.752394845125968,0.0342448039870148,2.7663679543071322,0.7691630533470046,-0.0003162141271207526,-0.0002790632722622226,0.0005953886168448215,0.0009258759867818548,0.00021860453763160862,8.132322738931364e-05,0.0006083977302250758,0.0,0.0,0.0,0.0,0.0,0.0,0.0,-0.00017663495582476152,0.00016017963750320635,-2.6745470142756217e-05,9.456015469710977e-05,-1.0250375173395665e-05,4.085222882554973e-05,-3.7745149229384545e-05,0.0003162141271207526,0.0002790632722622226,-0.0005953886168448215,-0.0009258759867818548,-0.00021860453763160862,-8.132322738931364e-05,-0.0006083977302250758,0.4267818331718445,22.720483779907227,0.1491362750530243,-14.032625198364258,-0.2786155343055725,-2.1389803886413574,0.43979209661483765,0
18,0.08498144149780273,-0.4267818331718445,-22.720483779907227,-0.1491362750530243,14.032625198364258,0.2786155343055725,2.1389803886413574,-0.43979209661483765,0.0,0.0,0.0,0.0,0.0,0.0,0.0,-0.43218333412265314,0.05983449627255278,-0.19389766938469802,0.19739122285412963,0.04876537579844173,-0.04265596151412808,-0.41446021875306116,1.675673989710055,0.05194414718736682,0.02999625057942781,-2.752489405280665,0.034255054362188196,2.7663271020783067,0.769200798496234,1.6754973547542302,0.052104326824870026,0.029969505109285054,-2.752394845125968,0.0342448039870148,2.7663679543071322,0.7691630533470046,-0.0003162141271207526,-0.0002790632722622226,0.0005953886168448215,0.0009258759867818548,0.00021860453763160862,8.132322738931364e-05,0.0006083977302250758,0.0,0.0,0.0,0.0,0.0,0.0,0.0,-0.00017663495582476152,0.00016017963750320635,-2.6745470142756217e-05,9.456015469710977e-05,-1.0250375173395665e-05,4.085222882554973e-05,-3.7745149229384545e-05,0.0003162141271207526,0.0002790632722622226,-0.0005953886168448215,-0.0009258759867818548,-0.00021860453763160862,-8.132322738931364e-05,-0.0006083977302250758,0.4267818331718445,22.720483779907227,0.1491362750530243,-14.032625198364258,-0.2786155343055725,-2.1389803886413574,0.43979209661483765,0
19,0.09007692337036133,-0.4267818331718445,-22.748254776000977,-0.1491362750530243,14.108003616333008,0.2603049874305725,2.1453890800476074,-0.44711631536483765,0.0,0.0,0.0,0.0,0.0,0.0,0.0,-0.4318293548630341,0.052816332257460505,-0.19470425594946472,0.20354207854174458,0.04888910162892707,-0.041849550453286026,-0.415901798451546,1.675673989710055,0.05194609602919796,0.02999419414199282,-2.7524947224663063,0.0342603265446276,2.766329450962986,0.7692016303982394,1.6754973547542302,0.052104326824870026,0.029969505109285054,-2.752394845125968,0.0342448039870148,2.7663679543071322,0.7691630533470046,-0.0005483774113791412,-0.000717683908205407,0.0006282976307619852,-0.00048289074136292437,0.0007905427733953543,7.454861074423346e-05,0.001321036994716437,0.0,0.0,0.0,0.0,0.0,0.0,0.0,-0.00017663495582476152,0.00015823079567206522,-2.468903270776493e-05,9.987734033822804e-05,-1.5522557612800136e-05,3.85033441463456e-05,-3.857705123477828e-05,0.0005483774113791412,0.000717683908205407,-0.0006282976307619852,0.00048289074136292437,-0.0007905427733953543,-7.454861074423346e-05,-0.001321036994716437,0.4267818331718445,22.748254776000977,0.1491362750530243,-14.108003616333008,-0.2603049874305725,-2.1453890800476074,0.44711631536483765,0
20,0.09497570991516113,-0.4267818331718445,-22.748254776000977,-0.1491362750530243,14.108003616333008,0.2603049874305725,2.1453890800476074,-0.44711631536483765,0.0,0.0,0.0,0.0,0.0,0.0,0.0,-0.4318293548630341,0.052816332257460505,-0.19470425594946472,0.20354207854174458,0.04888910162892707,-0.041849550453286026,-0.415901798451546,1.675673989710055,0.05194609602919796,0.02999419414199282,-2.7524947224663063,0.0342603265446276,2.766329450962986,0.7692016303982394,1.6754973547542302,0.052104326824870026,0.029969505109285054,-2.752394845125968,0.0342448039870148,2.7663679543071322,0.7691630533470046,-0.0005483774113791412,-0.000717683908205407,0.0006282976307619852,-0.00048289074136292437,0.0007905427733953543,7.454861074423346e-05,0.001321036994716437,0.0,0.0,0.0,0.0,0.0,0.0,0.0,-0.00017663495582476152,0.00015823079567206522,-2.468903270776493e-05,9.987734033822804e-05,-1.5522557612800136e-05,3.85033441463456e-05,-3.857705123477828e-05,0.0005483774113791412,0.000717683908205407,-0.0006282976307619852,0.00048289074136292437,-0.0007905427733953543,-7.454861074423346e-05,-0.001321036994716437,0.4267818331718445,22.748254776000977,0.1491362750530243,-14.108003616333008,-0.2603049874305725,-2.1453890800476074,0.44711631536483765,0
21,0.09993553161621094,-0.4029781222343445,-22.772058486938477,-0.1491362750530243,14.056428909301758,0.2905173897743225,2.1453890800476074,-0.41965049505233765,0.0,0.0,0.0,0.0,0.0,0.0,0.0,-0.4331648207496542,0.05583269528819107,-0.19819765355880997,0.19639406008267632,0.048364191739608806,-0.042552991209176994,-0.4156432900682327,1.6756723192741996,0.051949897331103945,0.0299956108513313,-2.7524910757542567,0.034256862814287754,2.7663292154696792,0.769198486516679,1.6754973547542302,0.052104326824870026,0.029969505109285054,-2.752394845125968,0.0342448039870148,2.7663679543071322,0.7691630533470046,-0.0008523803833686117,-0.0001075320632528429,0.0005462589268412448,0.0004990864866399163,-0.00027187482184721926,-3.885193164380343e-05,-4.699884716860588e-05,0.0,0.0,0.0,0.0,0.0,0.0,0.0,-0.00017496451996934503,0.00015442949376608117,-2.6105742046245856e-05,9.623062828856277e-05,-1.205882727295382e-05,3.873883745297846e-05,-3.543316967435928e-05,0.0008523803833686117,0.0001075320632528429,-0.0005462589268412448,-0.0004990864866399163,0.00027187482184721926,3.885193164380343e-05,4.699884716860588e-05,0.4029781222343445,22.772058486938477,0.1491362750530243,-14.056428909301758,-0.2905173897743225,-2.1453890800476074,0.41965049505233765,0
22,0.10512137413024902,-0.4029781222343445,-22.772058486938477,-0.1491362750530243,14.056428909301758,0.2905173897743225,2.1453890800476074,-0.41965049505233765,0.0,0.0,0.0,0.0,0.0,0.0,0.0,-0.4331648207496542,0.05583269528819107,-0.19819765355880997,0.19639406008267632,0.048364191739608806,-0.042552991209176994,-0.4156432900682327,1.6756723192741996,0.051949897331103945,0.0299956108513313,-2.7524910757542567,0.034256862814287754,2.7663292154696792,0.769198486516679,1.6754973547542302,0.052104326824870026,0.029969505109285054,-2.752394845125968,0.0342448039870148,2.7663679543071322,0.7691630533470046,-0.0008523803833686117,-0.0001075320632528429,0.0005462589268412448,0.0004990864866399163,-0.00027187482184721926,-3.885193164380343e-05,-4.699884716860588e-05,0.0,0.0,0.0,0.0,0.0,0.0,0.0,-0.00017496451996934503,0.00015442949376608117,-2.6105742046245856e-05,9.623062828856277e-05,-1.205882727295382e-05,3.873883745297846e-05,-3.543316967435928e-05,0.0008523803833686117,0.0001075320632528429,-0.0005462589268412448,-0.0004990864866399163,0.00027187482184721926,3.885193164380343e-05,4.699884716860588e-05,0.4029781222343445,22.772058486938477,0.1491362750530243,-14.056428909301758,-0.2905173897743225,-2.1453890800476074,0.41965049505233765,0
23,0.11000776290893555,-0.4505855441093445,-22.772058486938477,-0.1491362750530243,14.056428909301758,0.2786155343055725,2.1453890800476074,-0.43979209661483765,0.0,0.0,0.0,0.0,0.0,0.0,0.0,-0.4338441918047048,0.05421085139005563,-0.20149180418504695,0.19493013697778416,0.048591622377177894,-0.04248659338656455,-0.4160140374872864,1.6756756601459102,0.05194776938805192,0.02999371987152126,-2.752491075716572,0.03425474486499692,2.7663295684310594,0.7692008421022819,1.6754973547542302,0.052104326824870026,0.029969505109285054,-2.752394845125968,0.0342448039870148,2.7663679543071322,0.7691630533470046,0.0003422043636794287,4.0970557980257236e-05,0.0005360265976219107,-5.013214666781192e-05,-3.0767143979955027e-06,-7.56930158038913e-05,0.0004913833655977951,0.0,0.0,0.0,0.0,0.0,0.0,0.0,-0.00017830539167995596,0.00015655743681810413,-2.4214762236206278e-05,9.62305906040406e-05,-9.940877982117513e-06,3.838587607285504e-05,-3.7788755277268216e-05,-0.0003422043636794287,-4.0970557980257236e-05,-0.0005360265976219107,5.013214666781192e-05,3.0767143979955027e-06,7.56930158038913e-05,-0.0004913833655977951,0.4505855441093445,22.772058486938477,0.1491362750530243,-14.056428909301758,-0.2786155343055725,-2.1453890800476074,0.43979209661483765,0
24,0.11498808860778809,-0.4505855441093445,-22.772058486938477,-0.1491362750530243,14.056428909301758,0.2786155343055725,2.1453890800476074,-0.43979209661483765,0.0,0.0,0.0,0.0,0.0,0.0,0.0,-0.4338441918047048,0.05421085139005563,-0.20149180418504695,0.19493013697778416,0.048591622377177894,-0.04248659338656455,-0.4160140374872864,1.6756756601459102,0.05194776938805192,0.02999371987152126,-2.752491075716572,0.03425474486499692,2.7663295684310594,0.7692008421022819,1.6754973547542302,0.052104326824870026,0.029969505109285054,-2.752394845125968,0.0342448039870148,2.7663679543071322,0.7691630533470046,0.0003422043636794287,4.0970557980257236e-05,0.0005360265976219107,-5.013214666781192e-05,-3.0767143979955027e-06,-7.56930158038913e-05,0.0004913833655977951,0.0,0.0,0.0,0.0,0.0,0.0,0.0,-0.00017830539167995596,0.00015655743681810413,-2.4214762236206278e-05,9.62305906040406e-05,-9.940877982117513e-06,3.838587607285504e-05,-3.7788755277268216e-05,-0.0003422043636794287,-4.0970557980257236e-05,-0.0005360265976219107,5.013214666781192e-05,3.0767143979955027e-06,7.56930158038913e-05,-0.0004913833655977951,0.4505855441093445,22.772058486938477,0.1491362750530243,-14.056428909301758,-0.2786155343055725,-2.1453890800476074,0.43979209661483765,0
25,0.11998748779296875,-0.4267818331718445,-22.720483779907227,-0.09756157547235489,14.080232620239258,0.2722068428993225,2.1517977714538574,-0.42605918645858765,0.0,0.0,0.0,0.0,0.0,0.0,0.0,-0.43173866207820033,0.053518679726833135,-0.20055925913083295,0.1945132312187548,0.04855550007033679,-0.04193911905132155,-0.41667826211999337,1.675673989710055,0.05194414718736688,0.029991916015724183,-2.7524927461900606,0.03425889725930237,2.7663284973094795,0.769196486610429,1.6754973547542302,0.052104326824870026,0.029969505109285054,-2.752394845125968,0.0342448039870148,2.7663679543071322,0.7691630533470046,0.00044571761055944576,0.00022225083720718193,-0.00014371833735664125,-0.00012552430003553663,0.0005423371778492627,-0.0003234530458912929,0.0009729289176448662,0.0,0.0,0.0,0.0,0.0,0.0,0.0,-0.00017663495582476152,0.0001601796375031439,-2.2410906439129102e-05,9.79010640924649e-05,-1.4093272287567238e-05,3.9456997652731474e-05,-3.3433263424420545e-05,-0.00044571761055944576,-0.00022225083720718193,0.00014371833735664125,0.00012552430003553663,-0.0005423371778492627,0.0003234530458912929,-0.0009729289176448662,0.4267818331718445,22.720483779907227,0.09756157547235489,-14.080232620239258,-0.2722068428993225,-2.1517977714538574,0.42605918645858765,0
26,0.12498807907104492,-0.4267818331718445,-22.720483779907227,-0.09756157547235489,14.080232620239258,0.2722068428993225,2.1517977714538574,-0.42605918645858765,0.0,0.0,0.0,0.0,0.0,0.0,0.0,-0.43173866207820033,0.053518679726833135,-0.20055925913083295,0.1945132312187548,0.04855550007033679,-0.04193911905132155,-0.41667826211999337,1.675673989710055,0.05194414718736688,0.029991916015724183,-2.7524927461900606,0.03425889725930237,2.7663284973094795,0.769196486610429,1.6754973547542302,0.052104326824870026,0.029969505109285054,-2.752394845125968,0.0342448039870148,2.7663679543071322,0.7691630533470046,0.00044571761055944576,0.00022225083720718193,-0.00014371833735664125,-0.00012552430003553663,0.0005423371778492627,-0.0003234530458912929,0.0009729289176448662,0.0,0.0,0.0,0.0,0.0,0.0,0.0,-0.00017663495582476152,0.0001601796375031439,-2.2410906439129102e-05,9.79010640924649e-05,-1.4093272287567238e-05,3.9456997652731474e-05,-3.3433263424420545e-05,-0.00044571761055944576,-0.00022225083720718193,0.00014371833735664125,0.00012552430003553663,-0.0005423371778492627,0.0003234530458912929,-0.0009729289176448662,0.4267818331718445,22.720483779907227,0.09756157547235489,-14.080232620239258,-0.2722068428993225,-2.1517977714538574,0.42605918645858765,0
27,0.12997961044311523,-0.4267818331718445,-22.696680068969727,-0.1253325641155243,14.108003616333008,0.2786155343055725,2.1517977714538574,-0.41324180364608765,0.0,0.0,0.0,0.0,0.0,0.0,0.0,-0.4319872269301813,0.059827304765695366,-0.20066790287174419,0.19145793296742025,0.0487747605003775,-0.04272190522519142,-0.4147859787876296,1.675673989710055,0.051942476751511556,0.029991730941031535,-2.7524946949942075,0.034254585242924684,2.766327679457286,0.769197862155772,1.6754973547542302,0.052104326824870026,0.029969505109285054,-2.752394845125968,0.0342448039870148,2.7663679543071322,0.7691630533470046,0.0006364378143323158,-0.00010132425024248108,-0.0001072181359742771,-0.0012297628343317158,6.655123048077548e-05,-0.0005417922013300215,-0.0002739964640824145,0.0,0.0,0.0,0.0,0.0,0.0,0.0,-0.00017663495582476152,0.00016185007335847018,-2.2225831746481434e-05,9.984986823941e-05,-9.781255909883935e-06,4.0274849846255734e-05,-3.480880876738368e-05,-0.0006364378143323158,0.00010132425024248108,0.0001072181359742771,0.0012297628343317158,-6.655123048077548e-05,0.0005417922013300215,0.0002739964640824145,0.4267818331718445,22.696680068969727,0.1253325641155243,-14.108003616333008,-0.2786155343055725,-2.1517977714538574,0.41324180364608765,0
28,0.1350412368774414,-0.4267818331718445,-22.696680068969727,-0.1253325641155243,14.108003616333008,0.2786155343055725,2.1517977714538574,-0.41324180364608765,0.0,0.0,0.0,0.0,0.0,0.0,0.0,-0.4319872269301813,0.059827304765695366,-0.20066790287174419,0.19145793296742025,0.0487747605003775,-0.04272190522519142,-0.4147859787876296,1.675673989710055,0.051942476751511556,0.029991730941031535,-2.7524946949942075,0.034254585242924684,2.766327679457286,0.769197862155772,1.6754973547542302,0.052104326824870026,0.029969505109285054,-2.752394845125968,0.0342448039870148,2.7663679543071322,0.7691630533470046,0.0006364378143323158,-0.00010132425024248108,-0.0001072181359742771,-0.0012297628343317158,6.655123048077548e-05,-0.0005417922013300215,-0.0002739964640824145,0.0,0.0,0.0,0.0,0.0,0.0,0.0,-0.00017663495582476152,0.00016185007335847018,-2.2225831746481434e-05,9.984986823941e-05,-9.781255909883935e-06,4.0274849846255734e-05,-3.480880876738368e-05,-0.0006364378143323158,0.00010132425024248108,0.0001072181359742771,0.0012297628343317158,-6.655123048077548e-05,0.0005417922013300215,0.0002739964640824145,0.4267818331718445,22.696680068969727,0.1253325641155243,-14.108003616333008,-0.2786155343055725,-2.1517977714538574,0.41324180364608765,0
29,0.14002490043640137,-0.4267818331718445,-22.720483779907227,-0.1253325641155243,14.108003616333008,0.2722068428993225,2.1453890800476074,-0.43338340520858765,0.0,0.0,0.0,0.0,0.0,0.0,0.0,-0.4288820834057967,0.064180848522806,-0.20064426251355094,0.19294059397562244,0.04851738011021268,-0.04330041987402361,-0.41468283284223034,1.675673989710055,0.05194414718736682,0.02999174065456579,-2.7524946980466622,0.03425849096157249,2.7663251683710643,0.769195730146827,1.6754973547542302,0.052104326824870026,0.029969505109285054,-2.752394845125968,0.0342448039870148,2.7663679543071322,0.7691630533470046,-0.00024017159825335884,-3.826907551875963e-05,0.0006958509048635142,-0.0012001565728799182,0.0002505251070275936,-0.00011450567534166904,0.001293337175814679,0.0,0.0,0.0,0.0,0.0,0.0,0.0,-0.00017663495582476152,0.00016017963750320635,-2.2235545280736152e-05,9.985292069414342e-05,-1.3686974557690357e-05,4.2785936067879504e-05,-3.267679982232874e-05,0.00024017159825335884,3.826907551875963e-05,-0.0006958509048635142,0.0012001565728799182,-0.0002505251070275936,0.00011450567534166904,-0.001293337175814679,0.4267818331718445,22.720483779907227,0.1253325641155243,-14.108003616333008,-0.2722068428993225,-2.1453890800476074,0.43338340520858765,0
30,0.14504623413085938,-0.4267818331718445,-22.720483779907227,-0.1253325641155243,14.108003616333008,0.2722068428993225,2.1453890800476074,-0.43338340520858765,0.0,0.0,0.0,0.0,0.0,0.0,0.0,-0.4288820834057967,0.064180848522806,-0.20064426251355094,0.19294059397562244,0.04851738011021268,-0.04330041987402361,-0.41468283284223034,1.675673989710055,0.05194414718736682,0.02999174065456579,-2.7524946980466622,0.03425849096157249,2.7663251683710643,0.769195730146827,1.6754973547542302,0.052104326824870026,0.029969505109285054,-2.752394845125968,0.0342448039870148,2.7663679543071322,0.7691630533470046,-0.00024017159825335884,-3.826907551875963e-05,0.0006958509048635142,-0.0012001565728799182,0.0002505251070275936,-0.00011450567534166904,0.001293337175814679,0.0,0.0,0.0,0.0,0.0,0.0,0.0,-0.00017663495582476152,0.00016017963750320635,-2.2235545280736152e-05,9.985292069414342e-05,-1.3686974557690357e-05,4.2785936067879504e-05,-3.267679982232874e-05,0.00024017159825335884,3.826907551875963e-05,-0.0006958509048635142,0.0012001565728799182,-0.0002505251070275936,0.00011450567534166904,-0.001293337175814679,0.4267818331718445,22.720483779907227,0.1253325641155243,-14.108003616333008,-0.2722068428993225,-2.1453890800476074,0.43338340520858765,0
31,0.1500415802001953,-0.4267818331718445,-22.748254776000977,-0.09756157547235489,14.008821487426758,0.2841086983680725,2.1389803886413574,-0.45352500677108765,0.0,0.0,0.0,0.0,0.0,0.0,0.0,-0.4309434367130801,0.0652390801787122,-0.2005457335476227,0.19513932994233124,0.04865478791085634,-0.04302227964622377,-0.41147378485374453,1.675673989710055,0.05194609602919796,0.02998988820403619,-2.752487734844827,0.0342572864856095,2.7663270976928396,0.7692013162486327,1.6754973547542302,0.052104326824870026,0.029969505109285054,-2.752394845125968,0.0342448039870148,2.7663679543071322,0.7691630533470046,-0.0004604640018748879,0.0005079906551922649,-0.0007941566616205437,0.0012212280269212228,-9.763393690500916e-05,0.00016489056548800956,0.0019378191039029129,0.0,0.0,0.0,0.0,0.0,0.0,0.0,-0.00017663495582476152,0.00015823079567206522,-2.038309475113631e-05,9.288971885901276e-05,-1.2482498594701408e-05,4.0856614292650306e-05,-3.826290162811663e-05,0.0004604640018748879,-0.0005079906551922649,0.0007941566616205437,-0.0012212280269212228,9.763393690500916e-05,-0.00016489056548800956,-0.0019378191039029129,0.4267818331718445,22.748254776000977,0.09756157547235489,-14.008821487426758,-0.2841086983680725,-2.1389803886413574,0.45352500677108765,0
32,0.15501999855041504,-0.4267818331718445,-22.748254776000977,-0.09756157547235489,14.008821487426758,0.2841086983680725,2.1389803886413574,-0.45352500677108765,0.0,0.0,0.0,0.0,0.0,0.0,0.0,-0.4309434367130801,0.0652390801787122,-0.2005457335476227,0.19513932994233124,0.04865478791085634,-0.04302227964622377,-0.41147378485374453,1.675673989710055,0.05194609602919796,0.02998988820403619,-2.752487734844827,0.0342572864856095,2.7663270976928396,0.7692013162486327,1.6754973547542302,0.052104326824870026,0.029969505109285054,-2.752394845125968,0.0342448039870148,2.7663679543071322,0.7691630533470046,-0.0004604640018748879,0.0005079906551922649,-0.0007941566616205437,0.0012212280269212228,-9.763393690500916e-05,0.00016489056548800956,0.0019378191039029129,0.0,0.0,0.0,0.0,0.0,0.0,0.0,-0.00017663495582476152,0.00015823079567206522,-2.038309475113631e-05,9.288971885901276e-05,-1.2482498594701408e-05,4.0856614292650306e-05,-3.826290162811663e-05,0.0004604640018748879,-0.0005079906551922649,0.0007941566616205437,-0.0012212280269212228,9.763393690500916e-05,-0.00016489056548800956,-0.0019378191039029129,0.4267818331718445,22.748254776000977,0.09756157547235489,-14.008821487426758,-0.2841086983680725,-2.1389803886413574,0.45352500677108765,0
33,0.16002368927001953,-0.4267818331718445,-22.772058486938477,-0.09756157547235489,14.108003616333008,0.2786155343055725,2.1453890800476074,-0.45352500677108765,0.0,0.0,0.0,0.0,0.0,0.0,0.0,-0.423954499641866,0.06233486302920198,-0.19317147686414787,0.19596363566488834,0.048335950752669124,-0.04291482901105079,-0.4106441647624882,1.675673989710055,0.05194989736719034,0.029989782496968233,-2.752494694994207,0.034257818512298664,2.7663294511065217,0.7692016745945863,1.6754973547542302,0.052104326824870026,0.029969505109285054,-2.752394845125968,0.0342448039870148,2.7663679543071322,0.7691630533470046,0.0002534547065439836,0.0007395192426234594,6.159776932055183e-05,-0.0009506250861426462,0.00012906800872139265,-0.00012555017032702908,0.0013310887894455326,0.0,0.0,0.0,0.0,0.0,0.0,0.0,-0.00017663495582476152,0.0001544294576796834,-2.02773876831798e-05,9.984986823896591e-05,-1.301452528386371e-05,3.8503200610495725e-05,-3.862124758169383e-05,-0.0002534547065439836,-0.0007395192426234594,-6.159776932055183e-05,0.0009506250861426462,-0.00012906800872139265,0.00012555017032702908,-0.0013310887894455326,0.4267818331718445,22.772058486938477,0.09756157547235489,-14.108003616333008,-0.2786155343055725,-2.1453890800476074,0.45352500677108765,0
34,0.16498684883117676,-0.4267818331718445,-22.772058486938477,-0.09756157547235489,14.108003616333008,0.2786155343055725,2.1453890800476074,-0.45352500677108765,0.0,0.0,0.0,0.0,0.0,0.0,0.0,-0.423954499641866,0.06233486302920198,-0.19317147686414787,0.19596363566488834,0.048335950752669124,-0.04291482901105079,-0.4106441647624882,1.675673989710055,0.05194989736719034,0.029989782496968233,-2.752494694994207,0.034257818512298664,2.7663294511065217,0.7692016745945863,1.6754973547542302,0.052104326824870026,0.029969505109285054,-2.752394845125968,0.0342448039870148,2.7663679543071322,0.7691630533470046,0.0002534547065439836,0.0007395192426234594,6.159776932055183e-05,-0.0009506250861426462,0.00012906800872139265,-0.00012555017032702908,0.0013310887894455326,0.0,0.0,0.0,0.0,0.0,0.0,0.0,-0.00017663495582476152,0.0001544294576796834,-2.02773876831798e-05,9.984986823896591e-05,-1.301452528386371e-05,3.8503200610495725e-05,-3.862124758169383e-05,-0.0002534547065439836,-0.0007395192426234594,-6.159776932055183e-05,0.0009506250861426462,-0.00012906800872139265,0.00012555017032702908,-0.0013310887894455326,0.4267818331718445,22.772058486938477,0.09756157547235489,-14.108003616333008,-0.2786155343055725,-2.1453890800476074,0.45352500677108765,0
35,0.1699819564819336,-0.4267818331718445,-22.772058486938477,-0.09756157547235489,14.108003616333008,0.2786155343055725,2.1453890800476074,-0.45352500677108765,0.0,0.0,0.0,0.0,0.0,0.0,0.0,-0.423954499641866,0.06233486302920198,-0.19317147686414787,0.19596363566488834,0.048335950752669124,-0.04291482901105079,-0.4106441647624882,1.675673989710055,0.05194989736719034,0.029989782496968233,-2.752494694994207,0.034257818512298664,2.7663294511065217,0.7692016745945863,1.6754973547542302,0.052104326824870026,0.029969505109285054,-2.752394845125968,0.0342448039870148,2.7663679543071322,0.7691630533470046,0.0002534547065439836,0.0007395192426234594,6.159776932055183e-05,-0.0009506250861426462,0.00012906800872139265,-0.00012555017032702908,0.0013310887894455326,0.0,0.0,0.0,0.0,0.0,0.0,0.0,-0.00017663495582476152,0.0001544294576796834,-2.02773876831798e-05,9.984986823896591e-05,-1.301452528386371e-05,3.8503200610495725e-05,-3.862124758169383e-05,-0.0002534547065439836,-0.0007395192426234594,-6.159776932055183e-05,0.0009506250861426462,-0.00012906800872139265,0.00012555017032702908,-0.0013310887894455326,0.4267818331718445,22.772058486938477,0.09756157547235489,-14.108003616333008,-0.2786155343055725,-2.1453890800476074,0.45352500677108765,0
36,0.17499113082885742,-0.4267818331718445,-22.772058486938477,-0.09756157547235489,14.108003616333008,0.2786155343055725,2.1453890800476074,-0.45352500677108765,0.0,0.0,0.0,0.0,0.0,0.0,0.0,-0.423954499641866,0.06233486302920198,-0.19317147686414787,0.19596363566488834,0.048335950752669124,-0.04291482901105079,-0.4106441647624882,1.675673989710055,0.05194989736719034,0.029989782496968233,-2.752494694994207,0.034257818512298664,2.7663294511065217,0.7692016745945863,1.6754973547542302,0.052104326824870026,0.029969505109285054,-2.752394845125968,0.0342448039870148,2.7663679543071322,0.7691630533470046,0.0002534547065439836,0.0007395192426234594,6.159776932055183e-05,-0.0009506250861426462,0.00012906800872139265,-0.00012555017032702908,0.0013310887894455326,0.0,0.0,0.0,0.0,0.0,0.0,0.0,-0.00017663495582476152,0.0001544294576796834,-2.02773876831798e-05,9.984986823896591e-05,-1.301452528386371e-05,3.8503200610495725e-05,-3.862124758169383e-05,-0.0002534547065439836,-0.0007395192426234594,-6.159776932055183e-05,0.0009506250861426462,-0.00012906800872139265,0.00012555017032702908,-0.0013310887894455326,0.4267818331718445,22.772058486938477,0.09756157547235489,-14.108003616333008,-0.2786155343055725,-2.1453890800476074,0.45352500677108765,0
37,0.17999053001403809,-0.4267818331718445,-22.696680068969727,-0.1491362750530243,14.131807327270508,0.2841086983680725,2.1453890800476074,-0.42605918645858765,0.0,0.0,0.0,0.0,0.0,0.0,0.0,-0.4274655627656448,0.06214078202565605,-0.19532264177459543,0.19452407598325935,0.048833537122750646,-0.043745022176146744,-0.41170911510012087,1.675673989710055,0.051942476787598564,0.029993413025936746,-2.7524963664475472,0.03425752779006981,2.7663295291835284,0.7691985012669565,1.6754973547542302,0.052104326824870026,0.029969505109285054,-2.752394845125968,0.0342448039870148,2.7663679543071322,0.7691630533470046,-5.509642812100767e-05,-0.0009502880015904657,0.0011525001668575522,-0.0011993040367910249,-1.4212075916409144e-05,-1.315099804008609e-05,0.0008121985326994767,0.0,0.0,0.0,0.0,0.0,0.0,0.0,-0.00017663495582476152,0.0001618500372714618,-2.3907916651692146e-05,0.00010152132157914551,-1.2723803055010585e-05,3.842512360385797e-05,-3.544791995191421e-05,5.509642812100767e-05,0.0009502880015904657,-0.0011525001668575522,0.0011993040367910249,1.4212075916409144e-05,1.315099804008609e-05,-0.0008121985326994767,0.4267818331718445,22.696680068969727,0.1491362750530243,-14.131807327270508,-0.2841086983680725,-2.1453890800476074,0.42605918645858765,0
38,0.18497920036315918,-0.4267818331718445,-22.696680068969727,-0.1491362750530243,14.131807327270508,0.2841086983680725,2.1453890800476074,-0.42605918645858765,0.0,0.0,0.0,0.0,0.0,0.0,0.0,-0.4274655627656448,0.06214078202565605,-0.19532264177459543,0.19452407598325935,0.048833537122750646,-0.043745022176146744,-0.41170911510012087,1.675673989710055,0.051942476787598564,0.029993413025936746,-2.7524963664475472,0.03425752779006981,2.7663295291835284,0.7691985012669565,1.6754973547542302,0.052104326824870026,0.029969505109285054,-2.752394845125968,0.0342448039870148,2.7663679543071322,0.7691630533470046,-5.509642812100767e-05,-0.0009502880015904657,0.0011525001668575522,-0.0011993040367910249,-1.4212075916409144e-05,-1.315099804008609e-05,0.0008121985326994767,0.0,0.0,0.0,0.0,0.0,0.0,0.0,-0.00017663495582476152,0.0001618500372714618,-2.3907916651692146e-05,0.00010152132157914551,-1.2723803055010585e-05,3.842512360385797e-05,-3.544791995191421e-05,5.509642812100767e-05,0.0009502880015904657,-0.0011525001668575522,0.0011993040367910249,1.4212075916409144e-05,1.315099804008609e-05,-0.0008121985326994767,0.4267818331718445,22.696680068969727,0.1491362750530243,-14.131807327270508,-0.2841086983680725,-2.1453890800476074,0.42605918645858765,0
39,0.18999648094177246,-0.4783565402030945,-22.720483779907227,-0.1491362750530243,14.080232620239258,0.2841086983680725,2.1389803886413574,-0.44711631536483765,0.0,0.0,0.0,0.0,0.0,0.0,0.0,-0.4368367370023263,0.062172922714948245,-0.20201674634440267,0.19606010279917013,0.049799224026215366,-0.043574637929996,-0.4114851918323169,1.6756776089877412,0.05194414718736702,0.029993480251853073,-2.7524927461523814,0.034257290980394775,2.7663270977174563,0.7692009616039017,1.6754973547542302,0.052104326824870026,0.029969505109285054,-2.752394845125968,0.0342448039870148,2.7663679543071322,0.7691630533470046,-0.00011231242594383988,0.00011226877811584425,0.0003859402027941823,-2.7437600834467698e-05,-0.00014198946467433436,4.6050329718358595e-05,0.001939955513920053,0.0,0.0,0.0,0.0,0.0,0.0,0.0,-0.00018025423351097913,0.00016017963750300512,-2.3975142568018887e-05,9.790102641327181e-05,-1.2486993379974554e-05,4.0856589675897226e-05,-3.79082568970901e-05,0.00011231242594383988,-0.00011226877811584425,-0.0003859402027941823,2.7437600834467698e-05,0.00014198946467433436,-4.6050329718358595e-05,-0.001939955513920053,0.4783565402030945,22.720483779907227,0.1491362750530243,-14.080232620239258,-0.2841086983680725,-2.1389803886413574,0.44711631536483765,0
40,0.1950387954711914,-0.4783565402030945,-22.720483779907227,-0.1491362750530243,14.080232620239258,0.2841086983680725,2.1389803886413574,-0.44711631536483765,0.0,0.0,0.0,0.0,0.0,0.0,0.0,-0.4368367370023263,0.062172922714948245,-0.20201674634440267,0.19606010279917013,0.049799224026215366,-0.043574637929996,-0.4114851918323169,1.6756776089877412,0.05194414718736702,0.029993480251853073,-2.7524927461523814,0.034257290980394775,2.7663270977174563,0.7692009616039017,1.6754973547542302,0.052104326824870026,0.029969505109285054,-2.752394845125968,0.0342448039870148,2.7663679543071322,0.7691630533470046,-0.00011231242594383988,0.00011226877811584425,0.0003859402027941823,-2.7437600834467698e-05,-0.00014198946467433436,4.6050329718358595e-05,0.001939955513920053,0.0,0.0,0.0,0.0,0.0,0.0,0.0,-0.00018025423351097913,0.00016017963750300512,-2.3975142568018887e-05,9.790102641327181e-05,-1.2486993379974554e-05,4.0856589675897226e-05,-3.79082568970901e-05,0.00011231242594383988,-0.00011226877811584425,-0.0003859402027941823,2.7437600834467698e-05,0.00014198946467433436,-4.6050329718358595e-05,-0.001939955513920053,0.4783565402030945,22.720483779907227,0.1491362750530243,-14.080232620239258,-0.2841086983680725,-2.1389803886413574,0.44711631536483765,0
41,0.19998693466186523,-0.5021602511405945,-22.720483779907227,-0.09756157547235489,14.080232620239258,0.2841086983680725,2.1325716972351074,-0.43338340520858765,0.0,0.0,0.0,0.0,0.0,0.0,0.0,-0.44069342496397595,0.06208802524401419,-0.2024111135169144,0.19667204792239196,0.04922787257626383,-0.04421587659722244,-0.41077527807963793,1.6756792794235966,0.05194414718736682,0.029990100520988168,-2.7524934878990663,0.034256627983143,2.7663309916100025,0.7691962128678189,1.6754973547542302,0.052104326824870026,0.029969505109285054,-2.752394845125968,0.0342448039870148,2.7663679543071322,0.7691630533470046,0.00031367218015115737,-0.0001218522916862299,-0.0011768217884129668,-0.00046210447238373355,4.007420063952335e-05,0.00021632909204595646,-5.961221033128456e-06,0.0,0.0,0.0,0.0,0.0,0.0,0.0,-0.00018192466936639562,0.00016017963750320635,-2.0595411703114297e-05,9.864277309823422e-05,-1.1823996128201841e-05,3.696269712971656e-05,-3.3159520814285415e-05,-0.00031367218015115737,0.0001218522916862299,0.0011768217884129668,0.00046210447238373355,-4.007420063952335e-05,-0.00021632909204595646,5.961221033128456e-06,0.5021602511405945,22.720483779907227,0.09756157547235489,-14.080232620239258,-0.2841086983680725,-2.1325716972351074,0.43338340520858765,0
42,0.20498204231262207,-0.5021602511405945,-22.720483779907227,-0.09756157547235489,14.080232620239258,0.2841086983680725,2.1325716972351074,-0.43338340520858765,0.0,0.0,0.0,0.0,0.0,0.0,0.0,-0.44069342496397595,0.06208802524401419,-0.2024111135169144,0.19667204792239196,0.04922787257626383,-0.04421587659722244,-0.41077527807963793,1.6756792794235966,0.05194414718736682,0.029990100520988168,-2.7524934878990663,0.034256627983143,2.7663309916100025,0.7691962128678189,1.6754973547542302,0.052104326824870026,0.029969505109285054,-2.752394845125968,0.0342448039870148,2.7663679543071322,0.7691630533470046,0.00031367218015115737,-0.0001218522916862299,-0.0011768217884129668,-0.00046210447238373355,4.007420063952335e-05,0.00021632909204595646,-5.961221033128456e-06,0.0,0.0,0.0,0.0,0.0,0.0,0.0,-0.00018192466936639562,0.00016017963750320635,-2.0595411703114297e-05,9.864277309823422e-05,-1.1823996128201841e-05,3.696269712971656e-05,-3.3159520814285415e-05,-0.00031367218015115737,0.0001218522916862299,0.0011768217884129668,0.00046210447238373355,-4.007420063952335e-05,-0.00021632909204595646,5.961221033128456e-06,0.5021602511405945,22.720483779907227,0.09756157547235489,-14.080232620239258,-0.2841086983680725,-2.1325716972351074,0.43338340520858765,0
43,0.2099900245666504,-0.4267818331718445,-22.720483779907227,-0.09756157547235489,14.080232620239258,0.2841086983680725,2.1453890800476074,-0.40591758489608765,0.0,0.0,0.0,0.0,0.0,0.0,0.0,-0.43627709729749964,0.06318964769209534,-0.196751795735352,0.19752955860997695,0.04842688294752508,-0.04485752442373585,-0.41259589541859915,1.675673989710055,0.05194414816169972,0.029989786299412683,-2.7524927736621603,0.0342545009788078,2.766327993267356,0.7691970481901672,1.6754973547542302,0.052104326824870026,0.029969505109285054,-2.752394845125968,0.0342448039870148,2.7663679543071322,0.7691630533470046,0.00012988680509254266,-0.00018672269076368869,-0.0006415546175627666,-0.00026348112223772844,-0.00012358303810191862,-0.00027543384352548156,-7.770875389836214e-05,0.0,0.0,0.0,0.0,0.0,0.0,0.0,-0.00017663495582476152,0.00016017866317030727,-2.0281190127629384e-05,9.792853619217112e-05,-9.696991792998433e-06,3.9961039776326146e-05,-3.399484316257695e-05,-0.00012988680509254266,0.00018672269076368869,0.0006415546175627666,0.00026348112223772844,0.00012358303810191862,0.00027543384352548156,7.770875389836214e-05,0.4267818331718445,22.720483779907227,0.09756157547235489,-14.080232620239258,-0.2841086983680725,-2.1453890800476074,0.40591758489608765,0
44,0.21497392654418945,-0.4267818331718445,-22.720483779907227,-0.09756157547235489,14.080232620239258,0.2841086983680725,2.1453890800476074,-0.40591758489608765,0.0,0.0,0.0,0.0,0.0,0.0,0.0,-0.43627709729749964,0.06318964769209534,-0.196751795735352,0.19752955860997695,0.04842688294752508,-0.04485752442373585,-0.41259589541859915,1.675673989710055,0.05194414816169972,0.029989786299412683,-2.7524927736621603,0.0342545009788078,2.766327993267356,0.7691970481901672,1.6754973547542302,0.052104326824870026,0.029969505109285054,-2.752394845125968,0.0342448039870148,2.7663679543071322,0.7691630533470046,0.00012988680509254266,-0.00018672269076368869,-0.0006415546175627666,-0.00026348112223772844,-0.00012358303810191862,-0.00027543384352548156,-7.770875389836214e-05,0.0,0.0,0.0,0.0,0.0,0.0,0.0,-0.00017663495582476152,0.00016017866317030727,-2.0281190127629384e-05,9.792853619217112e-05,-9.696991792998433e-06,3.9961039776326146e-05,-3.399484316257695e-05,-0.00012988680509254266,0.00018672269076368869,0.0006415546175627666,0.00026348112223772844,0.00012358303810191862,0.00027543384352548156,7.770875389836214e-05,0.4267818331718445,22.720483779907227,0.09756157547235489,-14.080232620239258,-0.2841086983680725,-2.1453890800476074,0.40591758489608765,0
45,0.2199859619140625,-0.4029781222343445,-22.720483779907227,-0.09756157547235489,14.056428909301758,0.2667136788368225,2.1389803886413574,-0.38577598333358765,0.0,0.0,0.0,0.0,0.0,0.0,0.0,-0.4369757176616059,0.05859345549676996,-0.19970474175689326,0.20265008833429468,0.04866621046177582,-0.04429615735693495,-0.412638311620863,1.6756723192741996,0.05194414718736702,0.029989818130295522,-2.752491075716526,0.03425603612230287,2.766327088491594,0.7691951927357253,1.6754973547542302,0.052104326824870026,0.029969505109285054,-2.752394845125968,0.0342448039870148,2.7663679543071322,0.7691630533470046,-1.9614404435458118e-05,-0.0004972526230331402,0.00016026190927023837,0.0009022791218737582,0.0006092135541997072,0.0001558487088007974,-0.0008303795772227996,0.0,0.0,0.0,0.0,0.0,0.0,0.0,-0.00017496451996934503,0.00016017963750300512,-2.031302101046864e-05,9.623059055785532e-05,-1.123213528807232e-05,4.086581553819357e-05,-3.213938872070887e-05,1.9614404435458118e-05,0.0004972526230331402,-0.00016026190927023837,-0.0009022791218737582,-0.0006092135541997072,-0.0001558487088007974,0.0008303795772227996,0.4029781222343445,22.720483779907227,0.09756157547235489,-14.056428909301758,-0.2667136788368225,-2.1389803886413574,0.38577598333358765,0
46,0.22499585151672363,-0.4029781222343445,-22.720483779907227,-0.09756157547235489,14.056428909301758,0.2667136788368225,2.1389803886413574,-0.38577598333358765,0.0,0.0,0.0,0.0,0.0,0.0,0.0,-0.4369757176616059,0.05859345549676996,-0.19970474175689326,0.20265008833429468,0.04866621046177582,-0.04429615735693495,-0.412638311620863,1.6756723192741996,0.05194414718736702,0.029989818130295522,-2.752491075716526,0.03425603612230287,2.766327088491594,0.7691951927357253,1.6754973547542302,0.052104326824870026,0.029969505109285054,-2.752394845125968,0.0342448039870148,2.7663679543071322,0.7691630533470046,-1.9614404435458118e-05,-0.0004972526230331402,0.00016026190927023837,0.0009022791218737582,0.0006092135541997072,0.0001558487088007974,-0.0008303795772227996,0.0,0.0,0.0,0.0,0.0,0.0,0.0,-0.00017496451996934503,0.00016017963750300512,-2.031302101046864e-05,9.623059055785532e-05,-1.123213528807232e-05,4.086581553819357e-05,-3.213938872070887e-05,1.9614404435458118e-05,0.0004972526230331402,-0.00016026190927023837,-0.0009022791218737582,-0.0006092135541997072,-0.0001558487088007974,0.0008303795772227996,0.4029781222343445,22.720483779907227,0.09756157547235489,-14.056428909301758,-0.2667136788368225,-2.1389803886413574,0.38577598333358765,0
47,0.23002862930297852,-0.4267818331718445,-22.720483779907227,-0.09756157547235489,14.080232620239258,0.2722068428993225,2.1325716972351074,-0.41324180364608765,0.0,0.0,0.0,0.0,0.0,0.0,0.0,-0.4316362856255442,0.060502712071946886,-0.19647148426342334,0.19814324254905155,0.048909459479629845,-0.04513463066022587,-0.410838658005586,1.675673989710055,0.05194414718736682,0.029990519203837846,-2.752492837726041,0.03425793867744912,2.7663265925209184,0.7691947118640341,1.6754973547542302,0.052104326824870026,0.029969505109285054,-2.752394845125968,0.0342448039870148,2.7663679543071322,0.7691630533470046,0.0005439831236873084,-0.0004673557829296936,0.00047682006217822327,-0.00015865421343287908,0.00015834556278556777,0.0002232852818642461,0.00018648157225350826,0.0,0.0,0.0,0.0,0.0,0.0,0.0,-0.00017663495582476152,0.00016017963750320635,-2.1014094552792434e-05,9.7992600073038e-05,-1.3134690434318808e-05,4.1361786213833796e-05,-3.165851702946476e-05,-0.0005439831236873084,0.0004673557829296936,-0.00047682006217822327,0.00015865421343287908,-0.00015834556278556777,-0.0002232852818642461,-0.00018648157225350826,0.4267818331718445,22.720483779907227,0.09756157547235489,-14.080232620239258,-0.2722068428993225,-2.1325716972351074,0.41324180364608765,0
48,0.23504281044006348,-0.4267818331718445,-22.720483779907227,-0.09756157547235489,14.080232620239258,0.2722068428993225,2.1325716972351074,-0.41324180364608765,0.0,0.0,0.0,0.0,0.0,0.0,0.0,-0.4316362856255442,0.060502712071946886,-0.19647148426342334,0.19814324254905155,0.048909459479629845,-0.04513463066022587,-0.410838658005586,1.675673989710055,0.05194414718736682,0.029990519203837846,-2.752492837726041,0.03425793867744912,2.7663265925209184,0.7691947118640341,1.6754973547542302,0.052104326824870026,0.029969505109285054,-2.752394845125968,0.0342448039870148,2.7663679543071322,0.7691630533470046,0.0005439831236873084,-0.0004673557829296936,0.00047682006217822327,-0.00015865421343287908,0.00015834556278556777,0.0002232852818642461,0.00018648157225350826,0.0,0.0,0.0,0.0,0.0,0.0,0.0,-0.00017663495582476152,0.00016017963750320635,-2.1014094552792434e-05,9.7992600073038e-05,-1.3134690434318808e-05,4.1361786213833796e-05,-3.165851702946476e-05,-0.0005439831236873084,0.0004673557829296936,-0.00047682006217822327,0.00015865421343287908,-0.00015834556278556777,-0.0002232852818642461,-0.00018648157225350826,0.4267818331718445,22.720483779907227,0.09756157547235489,-14.080232620239258,-0.2722068428993225,-2.1325716972351074,0.41324180364608765,0
49,0.23998641967773438,-0.4267818331718445,-22.720483779907227,-0.09756157547235489,14.080232620239258,0.2722068428993225,2.1325716972351074,-0.41324180364608765,0.0,0.0,0.0,0.0,0.0,0.0,0.0,-0.4316362856255442,0.060502712071946886,-0.19647148426342334,0.19814324254905155,0.048909459479629845,-0.04513463066022587,-0.410838658005586,1.675673989710055,0.05194414718736682,0.029990519203837846,-2.752492837726041,0.03425793867744912,2.7663265925209184,0.7691947118640341,1.6754973547542302,0.052104326824870026,0.029969505109285054,-2.752394845125968,0.0342448039870148,2.7663679543071322,0.7691630533470046,0.0005439831236873084,-0.0004673557829296936,0.00047682006217822327,-0.00015865421343287908,0.00015834556278556777,0.0002232852818642461,0.00018648157225350826,0.0,0.0,0.0,0.0,0.0,0.0,0.0,-0.00017663495582476152,0.00016017963750320635,-2.1014094552792434e-05,9.7992600073038e-05,-1.3134690434318808e-05,4.1361786213833796e-05,-3.165851702946476e-05,-0.0005439831236873084,0.0004673557829296936,-0.00047682006217822327,0.00015865421343287908,-0.00015834556278556777,-0.0002232852818642461,-0.00018648157225350826,0.4267818331718445,22.720483779907227,0.09756157547235489,-14.080232620239258,-0.2722068428993225,-2.1325716972351074,0.41324180364608765,0
50,0.24498414993286133,-0.4505855441093445,-22.720483779907227,-0.1253325641155243,14.080232620239258,0.2905173897743225,2.1389803886413574,-0.39950889348983765,0.0,0.0,0.0,0.0,0.0,0.0,0.0,-0.4290702393276041,0.061259992654844324,-0.1935729202276691,0.19977800712211508,0.04862975483864562,-0.04536197222140053,-0.41136608359144183,1.6756756601459102,0.05194414718736682,0.029992678743156136,-2.752492746152893,0.03425650880058704,2.766327084557052,0.7691963779794165,1.6754973547542302,0.052104326824870026,0.029969505109285054,-2.752394845125968,0.0342448039870148,2.7663679543071322,0.7691630533470046,0.0007067146625706543,0.00020257431267982215,0.0007949555716673372,4.463515648374678e-05,-0.0003434559538045413,0.0002844986601844541,-0.0002499845889843829,0.0,0.0,0.0,0.0,0.0,0.0,0.0,-0.00017830539167995596,0.00016017963750320635,-2.3173633871081956e-05,9.790102692486258e-05,-1.1704813572238626e-05,4.086975008021909e-05,-3.332463241190187e-05,-0.0007067146625706543,-0.00020257431267982215,-0.0007949555716673372,-4.463515648374678e-05,0.0003434559538045413,-0.0002844986601844541,0.0002499845889843829,0.4505855441093445,22.720483779907227,0.1253325641155243,-14.080232620239258,-0.2905173897743225,-2.1389803886413574,0.39950889348983765,0
51,0.24999141693115234,-0.4505855441093445,-22.720483779907227,-0.1253325641155243,14.080232620239258,0.2905173897743225,2.1389803886413574,-0.39950889348983765,0.0,0.0,0.0,0.0,0.0,0.0,0.0,-0.4290702393276041,0.061259992654844324,-0.1935729202276691,0.19977800712211508,0.04862975483864562,-0.04536197222140053,-0.41136608359144183,1.6756756601459102,0.05194414718736682,0.029992678743156136,-2.752492746152893,0.03425650880058704,2.766327084557052,0.7691963779794165,1.6754973547542302,0.052104326824870026,0.029969505109285054,-2.752394845125968,0.0342448039870148,2.7663679543071322,0.7691630533470046,0.0007067146625706543,0.00020257431267982215,0.0007949555716673372,4.463515648374678e-05,-0.0003434559538045413,0.0002844986601844541,-0.0002499845889843829,0.0,0.0,0.0,0.0,0.0,0.0,0.0,-0.00017830539167995596,0.00016017963750320635,-2.3173633871081956e-05,9.790102692486258e-05,-1.1704813572238626e-05,4.086975008021909e-05,-3.332463241190187e-05,-0.0007067146625706543,-0.00020257431267982215,-0.0007949555716673372,-4.463515648374678e-05,0.0003434559538045413,-0.0002844986601844541,0.0002499845889843829,0.4505855441093445,22.720483779907227,0.1253325641155243,-14.080232620239258,-0.2905173897743225,-2.1389803886413574,0.39950889348983765,0
52,0.2549769878387451,-0.4505855441093445,-22.720483779907227,-0.1729399859905243,14.056428909301758,0.2786155343055725,2.1517977714538574,-0.40591758489608765,0.0,0.0,0.0,0.0,0.0,0.0,0.0,-0.4326312928785962,0.06210964252026354,-0.19511257599623166,0.20144346533627946,0.048615146003167325,-0.044922381836079,-0.41235538907973046,1.6756756601459102,0.05194485747605039,0.02999515163069268,-2.7524910757165206,0.03425813273428832,2.7663274032169487,0.7691974014570221,1.6754973547542302,0.052104326824870026,0.029969505109285054,-2.752394845125968,0.0342448039870148,2.7663679543071322,0.7691630533470046,-0.0002627956323842333,-0.00016681197760769242,0.0010524628257418875,0.000515233980592492,-1.961764912318603e-05,-0.0004345279916813705,-0.0005295986875231118,0.0,0.0,0.0,0.0,0.0,0.0,0.0,-0.00017830539167995596,0.00015946934881963526,-2.5646521407626105e-05,9.623059055252625e-05,-1.3328747273520791e-05,4.0551090183527094e-05,-3.434811001745697e-05,0.0002627956323842333,0.00016681197760769242,-0.0010524628257418875,-0.000515233980592492,1.961764912318603e-05,0.0004345279916813705,0.0005295986875231118,0.4505855441093445,22.720483779907227,0.1729399859905243,-14.056428909301758,-0.2786155343055725,-2.1517977714538574,0.40591758489608765,0
53,0.2599918842315674,-0.4505855441093445,-22.720483779907227,-0.1729399859905243,14.056428909301758,0.2786155343055725,2.1517977714538574,-0.40591758489608765,0.0,0.0,0.0,0.0,0.0,0.0,0.0,-0.4326312928785962,0.06210964252026354,-0.19511257599623166,0.20144346533627946,0.048615146003167325,-0.044922381836079,-0.41235538907973046,1.6756756601459102,0.05194485747605039,0.02999515163069268,-2.7524910757165206,0.03425813273428832,2.7663274032169487,0.7691974014570221,1.6754973547542302,0.052104326824870026,0.029969505109285054,-2.752394845125968,0.0342448039870148,2.7663679543071322,0.7691630533470046,-0.0002627956323842333,-0.00016681197760769242,0.0010524628257418875,0.000515233980592492,-1.961764912318603e-05,-0.0004345279916813705,-0.0005295986875231118,0.0,0.0,0.0,0.0,0.0,0.0,0.0,-0.00017830539167995596,0.00015946934881963526,-2.5646521407626105e-05,9.623059055252625e-05,-1.3328747273520791e-05,4.0551090183527094e-05,-3.434811001745697e-05,0.0002627956323842333,0.00016681197760769242,-0.0010524628257418875,-0.000515233980592492,1.961764912318603e-05,0.0004345279916813705,0.0005295986875231118,0.4505855441093445,22.720483779907227,0.1729399859905243,-14.056428909301758,-0.2786155343055725,-2.1517977714538574,0.40591758489608765,0
54,0.2649819850921631,-0.4505855441093445,-22.696680068969727,-0.09756157547235489,14.008821487426758,0.2841086983680725,2.1453890800476074,-0.35831016302108765,0.0,0.0,0.0,0.0,0.0,0.0,0.0,-0.42746182036526925,0.06304115014195898,-0.1905284319173353,0.20120869217422552,0.04729753081281635,-0.044689005134284615,-0.4136446238624606,1.6756756601459102,0.05194247676354035,0.029990503949468984,-2.7524877348448102,0.03425308223914942,2.7663248535742815,0.7691886096576849,1.6754973547542302,0.052104326824870026,0.029969505109285054,-2.752394845125968,0.0342448039870148,2.7663679543071322,0.7691630533470046,1.9884398573827054e-05,-0.0007490711446315194,-0.0004089828804436297,0.0015297362522167428,-2.8951237069249984e-05,-0.0002277583634538416,-0.0024278761563054398,0.0,0.0,0.0,0.0,0.0,0.0,0.0,-0.00017830539167995596,0.00016185006132967555,-2.099884018393061e-05,9.288971884213737e-05,-8.27825213461919e-06,4.3100732850742673e-05,-2.5556310680241445e-05,-1.9884398573827054e-05,0.0007490711446315194,0.0004089828804436297,-0.0015297362522167428,2.8951237069249984e-05,0.0002277583634538416,0.0024278761563054398,0.4505855441093445,22.696680068969727,0.09756157547235489,-14.008821487426758,-0.2841086983680725,-2.1453890800476074,0.35831016302108765,0
55,0.27001953125,-0.4505855441093445,-22.696680068969727,-0.09756157547235489,14.008821487426758,0.2841086983680725,2.1453890800476074,-0.35831016302108765,0.0,0.0,0.0,0.0,0.0,0.0,0.0,-0.42746182036526925,0.06304115014195898,-0.1905284319173353,0.20120869217422552,0.04729753081281635,-0.044689005134284615,-0.4136446238624606,1.6756756601459102,0.05194247676354035,0.029990503949468984,-2.7524877348448102,0.03425308223914942,2.7663248535742815,0.7691886096576849,1.6754973547542302,0.052104326824870026,0.029969505109285054,-2.752394845125968,0.0342448039870148,2.7663679543071322,0.7691630533470046,1.9884398573827054e-05,-0.0007490711446315194,-0.0004089828804436297,0.0015297362522167428,-2.8951237069249984e-05,-0.0002277583634538416,-0.0024278761563054398,0.0,0.0,0.0,0.0,0.0,0.0,0.0,-0.00017830539167995596,0.00016185006132967555,-2.099884018393061e-05,9.288971884213737e-05,-8.27825213461919e-06,4.3100732850742673e-05,-2.5556310680241445e-05,-1.9884398573827054e-05,0.0007490711446315194,0.0004089828804436297,-0.0015297362522167428,2.8951237069249984e-05,0.0002277583634538416,0.0024278761563054398,0.4505855441093445,22.696680068969727,0.09756157547235489,-14.008821487426758,-0.2841086983680725,-2.1453890800476074,0.35831016302108765,0
56,0.2750403881072998,-0.4505855441093445,-22.696680068969727,-0.09756157547235489,14.008821487426758,0.2841086983680725,2.1453890800476074,-0.35831016302108765,0.0,0.0,0.0,0.0,0.0,0.0,0.0,-0.42746182036526925,0.06304115014195898,-0.1905284319173353,0.20120869217422552,0.04729753081281635,-0.044689005134284615,-0.4136446238624606,1.6756756601459102,0.05194247676354035,0.029990503949468984,-2.7524877348448102,0.03425308223914942,2.7663248535742815,0.7691886096576849,1.6754973547542302,0.052104326824870026,0.029969505109285054,-2.752394845125968,0.0342448039870148,2.7663679543071322,0.7691630533470046,1.9884398573827054e-05,-0.0007490711446315194,-0.0004089828804436297,0.0015297362522167428,-2.8951237069249984e-05,-0.0002277583634538416,-0.0024278761563054398,0.0,0.0,0.0,0.0,0.0,0.0,0.0,-0.00017830539167995596,0.00016185006132967555,-2.099884018393061e-05,9.288971884213737e-05,-8.27825213461919e-06,4.3100732850742673e-05,-2.5556310680241445e-05,-1.9884398573827054e-05,0.0007490711446315194,0.0004089828804436297,-0.0015297362522167428,2.8951237069249984e-05,0.0002277583634538416,0.0024278761563054398,0.4505855441093445,22.696680068969727,0.09756157547235489,-14.008821487426758,-0.2841086983680725,-2.1453890800476074,0.35831016302108765,0
57,0.2800462245941162,-0.4505855441093445,-22.696680068969727,-0.09756157547235489,14.008821487426758,0.2841086983680725,2.1453890800476074,-0.35831016302108765,0.0,0.0,0.0,0.0,0.0,0.0,0.0,-0.42746182036526925,0.06304115014195898,-0.1905284319173353,0.20120869217422552,0.04729753081281635,-0.044689005134284615,-0.4136446238624606,1.6756756601459102,0.05194247676354035,0.029990503949468984,-2.7524877348448102,0.03425308223914942,2.7663248535742815,0.7691886096576849,1.6754973547542302,0.052104326824870026,0.029969505109285054,-2.752394845125968,0.0342448039870148,2.7663679543071322,0.7691630533470046,1.9884398573827054e-05,-0.0007490711446315194,-0.0004089828804436297,0.0015297362522167428,-2.8951237069249984e-05,-0.0002277583634538416,-0.0024278761563054398,0.0,0.0,0.0,0.0,0.0,0.0,0.0,-0.00017830539167995596,0.00016185006132967555,-2.099884018393061e-05,9.288971884213737e-05,-8.27825213461919e-06,4.3100732850742673e-05,-2.5556310680241445e-05,-1.9884398573827054e-05,0.0007490711446315194,0.0004089828804436297,-0.0015297362522167428,2.8951237069249984e-05,0.0002277583634538416,0.0024278761563054398,0.4505855441093445,22.696680068969727,0.09756157547235489,-14.008821487426758,-0.2841086983680725,-2.1453890800476074,0.35831016302108765,0
58,0.28499388694763184,-0.4267818331718445,-22.748254776000977,-0.1253325641155243,14.056428909301758,0.2786155343055725,2.1453890800476074,-0.40591758489608765,0.0,0.0,0.0,0.0,0.0,0.0,0.0,-0.4365266459384289,0.06083236271598204,-0.1976225105169221,0.20428980745304634,0.048102365596435465,-0.043690929524620586,-0.41217959373224616,1.675673989710055,0.05194609602919798,0.02999173382754654,-2.752491075754205,0.03425403423304674,2.766329437602985,0.769197387060413,1.6754973547542302,0.052104326824870026,0.029969505109285054,-2.752394845125968,0.0342448039870148,2.7663679543071322,0.7691630533470046,-0.00012433920154993262,0.0005096628274128932,-0.00023439887012719157,0.0008607597216517166,-5.10952424219681e-05,1.0225956773779024e-05,0.0002490581266080924,0.0,0.0,0.0,0.0,0.0,0.0,0.0,-0.00017663495582476152,0.0001582307956720444,-2.2228718261487618e-05,9.623062823704842e-05,-9.23024603193684e-06,3.851670414700692e-05,-3.433371340832991e-05,0.00012433920154993262,-0.0005096628274128932,0.00023439887012719157,-0.0008607597216517166,5.10952424219681e-05,-1.0225956773779024e-05,-0.0002490581266080924,0.4267818331718445,22.748254776000977,0.1253325641155243,-14.056428909301758,-0.2786155343055725,-2.1453890800476074,0.40591758489608765,0
59,0.2899811267852783,-0.4267818331718445,-22.748254776000977,-0.1253325641155243,14.056428909301758,0.2786155343055725,2.1453890800476074,-0.40591758489608765,0.0,0.0,0.0,0.0,0.0,0.0,0.0,-0.4365266459384289,0.06083236271598204,-0.1976225105169221,0.20428980745304634,0.048102365596435465,-0.043690929524620586,-0.41217959373224616,1.675673989710055,0.05194609602919798,0.02999173382754654,-2.752491075754205,0.03425403423304674,2.766329437602985,0.769197387060413,1.6754973547542302,0.052104326824870026,0.029969505109285054,-2.752394845125968,0.0342448039870148,2.7663679543071322,0.7691630533470046,-0.00012433920154993262,0.0005096628274128932,-0.00023439887012719157,0.0008607597216517166,-5.10952424219681e-05,1.0225956773779024e-05,0.0002490581266080924,0.0,0.0,0.0,0.0,0.0,0.0,0.0,-0.00017663495582476152,0.0001582307956720444,-2.2228718261487618e-05,9.623062823704842e-05,-9.23024603193684e-06,3.851670414700692e-05,-3.433371340832991e-05,0.00012433920154993262,-0.0005096628274128932,0.00023439887012719157,-0.0008607597216517166,5.10952424219681e-05,-1.0225956773779024e-05,-0.0002490581266080924,0.4267818331718445,22.748254776000977,0.1253325641155243,-14.056428909301758,-0.2786155343055725,-2.1453890800476074,0.40591758489608765,0
60,0.29498815536499023,-0.4783565402030945,-22.748254776000977,-0.1253325641155243,14.080232620239258,0.2841086983680725,2.1453890800476074,-0.41965049505233765,0.0,0.0,0.0,0.0,0.0,0.0,0.0,-0.43352572764450337,0.06307491801418683,-0.1959068874829896,0.2002588458328392,0.04758260984204863,-0.043995802549879254,-0.41077658318587307,1.6756778385760025,0.05194609602919796,0.02999173999351568,-2.752492746152378,0.03425614548995655,2.766329555827273,0.7691984870707593,1.6754973547542302,0.052104326824870026,0.029969505109285054,-2.752394845125968,0.0342448039870148,2.7663679543071322,0.7691630533470046,0.0012999115628891987,0.00029725054876277403,0.0004836272962841297,-2.2136515499452576e-05,2.8377586381900738e-05,4.874351636318184e-05,-0.00014151222228359035,0.0,0.0,0.0,0.0,0.0,0.0,0.0,-0.0001804838217722704,0.00015823079567206522,-2.2234884230625668e-05,9.79010264097191e-05,-1.1341502941748793e-05,3.8398479859313994e-05,-3.5433723754696445e-05,-0.0012999115628891987,-0.00029725054876277403,-0.0004836272962841297,2.2136515499452576e-05,-2.8377586381900738e-05,-4.874351636318184e-05,0.00014151222228359035,0.4783565402030945,22.748254776000977,0.1253325641155243,-14.080232620239258,-0.2841086983680725,-2.1453890800476074,0.41965049505233765,0
61,0.29998254776000977,-0.4783565402030945,-22.748254776000977,-0.1253325641155243,14.080232620239258,0.2841086983680725,2.1453890800476074,-0.41965049505233765,0.0,0.0,0.0,0.0,0.0,0.0,0.0,-0.43352572764450337,0.06307491801418683,-0.1959068874829896,0.2002588458328392,0.04758260984204863,-0.043995802549879254,-0.41077658318587307,1.6756778385760025,0.05194609602919796,0.02999173999351568,-2.752492746152378,0.03425614548995655,2.766329555827273,0.7691984870707593,1.6754973547542302,0.052104326824870026,0.029969505109285054,-2.752394845125968,0.0342448039870148,2.7663679543071322,0.7691630533470046,0.0012999115628891987,0.00029725054876277403,0.0004836272962841297,-2.2136515499452576e-05,2.8377586381900738e-05,4.874351636318184e-05,-0.00014151222228359035,0.0,0.0,0.0,0.0,0.0,0.0,0.0,-0.0001804838217722704,0.00015823079567206522,-2.2234884230625668e-05,9.79010264097191e-05,-1.1341502941748793e-05,3.8398479859313994e-05,-3.5433723754696445e-05,-0.0012999115628891987,-0.00029725054876277403,-0.0004836272962841297,2.2136515499452576e-05,-2.8377586381900738e-05,-4.874351636318184e-05,0.00014151222228359035,0.4783565402030945,22.748254776000977,0.1253325641155243,-14.080232620239258,-0.2841086983680725,-2.1453890800476074,0.41965049505233765,0
62,0.3049812316894531,-0.4505855441093445,-22.696680068969727,-0.09756157547235489,14.080232620239258,0.2786155343055725,2.1389803886413574,-0.42605918645858765,0.0,0.0,0.0,0.0,0.0,0.0,0.0,-0.4418473485197014,0.0593727578400488,-0.20315328997130797,0.2008829793714044,0.049124101406185616,-0.04341914158581701,-0.4115173799687274,1.675675660146342,0.051942476751511556,0.029992151234105095,-2.752492746152376,0.034257897486799624,2.7663297533360103,0.7691996781034051,1.6754973547542302,0.052104326824870026,0.029969505109285054,-2.752394845125968,0.0342448039870148,2.7663679543071322,0.7691630533470046,2.3907709405277933e-05,-0.0012747048810122492,-0.0008869785811783538,-0.00031887423867567305,1.3611189509527409e-05,-3.473768824447227e-05,0.00020221627656579266,0.0,0.0,0.0,0.0,0.0,0.0,0.0,-0.00017830539211183272,0.00016185007335847018,-2.2646124820040886e-05,9.790102640794274e-05,-1.3093499784823381e-05,3.820097112194887e-05,-3.6624756400427394e-05,-2.3907709405277933e-05,0.0012747048810122492,0.0008869785811783538,0.00031887423867567305,-1.3611189509527409e-05,3.473768824447227e-05,-0.00020221627656579266,0.4505855441093445,22.696680068969727,0.09756157547235489,-14.080232620239258,-0.2786155343055725,-2.1389803886413574,0.42605918645858765,0
63,0.31005167961120605,-0.4505855441093445,-22.696680068969727,-0.09756157547235489,14.080232620239258,0.2786155343055725,2.1389803886413574,-0.42605918645858765,0.0,0.0,0.0,0.0,0.0,0.0,0.0,-0.4418473485197014,0.0593727578400488,-0.20315328997130797,0.2008829793714044,0.049124101406185616,-0.04341914158581701,-0.4115173799687274,1.675675660146342,0.051942476751511556,0.029992151234105095,-2.752492746152376,0.034257897486799624,2.7663297533360103,0.7691996781034051,1.6754973547542302,0.052104326824870026,0.029969505109285054,-2.752394845125968,0.0342448039870148,2.7663679543071322,0.7691630533470046,2.3907709405277933e-05,-0.0012747048810122492,-0.0008869785811783538,-0.00031887423867567305,1.3611189509527409e-05,-3.473768824447227e-05,0.00020221627656579266,0.0,0.0,0.0,0.0,0.0,0.0,0.0,-0.00017830539211183272,0.00016185007335847018,-2.2646124820040886e-05,9.790102640794274e-05,-1.3093499784823381e-05,3.820097112194887e-05,-3.6624756400427394e-05,-2.3907709405277933e-05,0.0012747048810122492,0.0008869785811783538,0.00031887423867567305,-1.3611189509527409e-05,3.473768824447227e-05,-0.00020221627656579266,0.4505855441093445,22.696680068969727,0.09756157547235489,-14.080232620239258,-0.2786155343055725,-2.1389803886413574,0.42605918645858765,0
64,0.31499814987182617,-0.4267818331718445,-22.748254776000977,-0.1253325641155243,14.080232620239258,0.2841086983680725,2.1453890800476074,-0.39950889348983765,0.0,0.0,0.0,0.0,0.0,0.0,0.0,-0.4399165699566514,0.0598766746657277,-0.19910222482823228,0.20146831271345675,0.0489841618882176,-0.044192898101343886,-0.4143005735570758,1.675673989710055,0.05194609602919796,0.029992703709608014,-2.752492746152376,0.03425764076454711,2.7663249726255343,0.7691966917509241,1.6754973547542302,0.052104326824870026,0.029969505109285054,-2.752394845125968,0.0342448039870148,2.7663679543071322,0.7691630533470046,-0.0002672178909568874,0.000299591374412375,-2.1498910867645683e-07,-5.709173351858645e-06,5.5324220896116036e-05,-0.00018457194635583776,-0.00045378552298855557,0.0,0.0,0.0,0.0,0.0,0.0,0.0,-0.00017663495582476152,0.00015823079567206522,-2.319860032296006e-05,9.790102640794274e-05,-1.283677753231155e-05,4.2981681597886734e-05,-3.363840391945594e-05,0.0002672178909568874,-0.000299591374412375,2.1498910867645683e-07,5.709173351858645e-06,-5.5324220896116036e-05,0.00018457194635583776,0.00045378552298855557,0.4267818331718445,22.748254776000977,0.1253325641155243,-14.080232620239258,-0.2841086983680725,-2.1453890800476074,0.39950889348983765,0
65,0.3203301429748535,-0.4267818331718445,-22.748254776000977,-0.1253325641155243,14.080232620239258,0.2841086983680725,2.1453890800476074,-0.39950889348983765,0.0,0.0,0.0,0.0,0.0,0.0,0.0,-0.4399165699566514,0.0598766746657277,-0.19910222482823228,0.20146831271345675,0.0489841618882176,-0.044192898101343886,-0.4143005735570758,1.675673989710055,0.05194609602919796,0.029992703709608014,-2.752492746152376,0.03425764076454711,2.7663249726255343,0.7691966917509241,1.6754973547542302,0.052104326824870026,0.029969505109285054,-2.752394845125968,0.0342448039870148,2.7663679543071322,0.7691630533470046,-0.0002672178909568874,0.000299591374412375,-2.1498910867645683e-07,-5.709173351858645e-06,5.5324220896116036e-05,-0.00018457194635583776,-0.00045378552298855557,0.0,0.0,0.0,0.0,0.0,0.0,0.0,-0.00017663495582476152,0.00015823079567206522,-2.319860032296006e-05,9.790102640794274e-05,-1.283677753231155e-05,4.2981681597886734e-05,-3.363840391945594e-05,0.0002672178909568874,-0.000299591374412375,2.1498910867645683e-07,5.709173351858645e-06,-5.5324220896116036e-05,0.00018457194635583776,0.00045378552298855557,0.4267818331718445,22.748254776000977,0.1253325641155243,-14.080232620239258,-0.2841086983680725,-2.1453890800476074,0.39950889348983765,0
66,0.3250386714935303,-0.3752071261405945,-22.720483779907227,-0.09756157547235489,14.056428909301758,0.2786155343055725,2.1517977714538574,-0.43338340520858765,0.0,0.0,0.0,0.0,0.0,0.0,0.0,-0.43343996245929217,0.06314683360375645,-0.19366139463776055,0.20074462667875084,0.04868427930405372,-0.04498485527524379,-0.41388091958303436,1.6756703704323685,0.05194414718736682,0.02999265082501108,-2.7524910757165206,0.034258270169084386,2.766328733053787,0.7691969648556516,1.6754973547542302,0.052104326824870026,0.029969505109285054,-2.752394845125968,0.0342448039870148,2.7663679543071322,0.7691630533470046,-0.0011078023805677984,0.00040117958567269355,0.0003536349476216444,0.0003522189998626467,0.00019240847933521627,-0.00022128580728890523,0.0010869714513973918,0.0,0.0,0.0,0.0,0.0,0.0,0.0,-0.00017301567813832186,0.00016017963750320635,-2.314571572602578e-05,9.623059055252625e-05,-1.3466182069585275e-05,3.922125334510085e-05,-3.391150864695547e-05,0.0011078023805677984,-0.00040117958567269355,-0.0003536349476216444,-0.0003522189998626467,-0.00019240847933521627,0.00022128580728890523,-0.0010869714513973918,0.3752071261405945,22.720483779907227,0.09756157547235489,-14.056428909301758,-0.2786155343055725,-2.1517977714538574,0.43338340520858765,0
67,0.32999253273010254,-0.3752071261405945,-22.720483779907227,-0.09756157547235489,14.056428909301758,0.2786155343055725,2.1517977714538574,-0.43338340520858765,0.0,0.0,0.0,0.0,0.0,0.0,0.0,-0.43343996245929217,0.06314683360375645,-0.19366139463776055,0.20074462667875084,0.04868427930405372,-0.04498485527524379,-0.41388091958303436,1.6756703704323685,0.05194414718736682,0.02999265082501108,-2.7524910757165206,0.034258270169084386,2.766328733053787,0.7691969648556516,1.6754973547542302,0.052104326824870026,0.029969505109285054,-2.752394845125968,0.0342448039870148,2.7663679543071322,0.7691630533470046,-0.0011078023805677984,0.00040117958567269355,0.0003536349476216444,0.0003522189998626467,0.00019240847933521627,-0.00022128580728890523,0.0010869714513973918,0.0,0.0,0.0,0.0,0.0,0.0,0.0,-0.00017301567813832186,0.00016017963750320635,-2.314571572602578e-05,9.623059055252625e-05,-1.3466182069585275e-05,3.922125334510085e-05,-3.391150864695547e-05,0.0011078023805677984,-0.00040117958567269355,-0.0003536349476216444,-0.0003522189998626467,-0.00019240847933521627,0.00022128580728890523,-0.0010869714513973918,0.3752071261405945,22.720483779907227,0.09756157547235489,-14.056428909301758,-0.2786155343055725,-2.1517977714538574,0.43338340520858765,0
68,0.3349771499633789,-0.4029781222343445,-22.720483779907227,-0.1491362750530243,14.056428909301758,0.2841086983680725,2.1453890800476074,-0.44711631536483765,0.0,0.0,0.0,0.0,0.0,0.0,0.0,-0.4343193678811335,0.05815524162358874,-0.19718274508171982,0.20145869460102359,0.04964226619861653,-0.0436339148084041,-0.4119579868783719,1.6756723192741996,0.051944386873260036,0.02999647746491859,-2.752491084873887,0.034257329353236006,2.7663260317821172,0.7691988046407927,1.6754973547542302,0.052104326824870026,0.029969505109285054,-2.752394845125968,0.0342448039870148,2.7663679543071322,0.7691630533470046,-0.00025026123325850224,-0.0005600965914803191,0.0007862007040323882,0.00014635509718695036,-9.618165428207629e-05,-0.00025243413632198924,0.0010610845512759746,0.0,0.0,0.0,0.0,0.0,0.0,0.0,-0.00017496451996934503,0.00015993995160999003,-2.6972355633536615e-05,9.623974791894696e-05,-1.252536622120548e-05,4.192252501500349e-05,-3.575129378807773e-05,0.00025026123325850224,0.0005600965914803191,-0.0007862007040323882,-0.00014635509718695036,9.618165428207629e-05,0.00025243413632198924,-0.0010610845512759746,0.4029781222343445,22.720483779907227,0.1491362750530243,-14.056428909301758,-0.2841086983680725,-2.1453890800476074,0.44711631536483765,0
69,0.3399784564971924,-0.4029781222343445,-22.720483779907227,-0.1491362750530243,14.056428909301758,0.2841086983680725,2.1453890800476074,-0.44711631536483765,0.0,0.0,0.0,0.0,0.0,0.0,0.0,-0.4343193678811335,0.05815524162358874,-0.19718274508171982,0.20145869460102359,0.04964226619861653,-0.0436339148084041,-0.4119579868783719,1.6756723192741996,0.051944386873260036,0.02999647746491859,-2.752491084873887,0.034257329353236006,2.7663260317821172,0.7691988046407927,1.6754973547542302,0.052104326824870026,0.029969505109285054,-2.752394845125968,0.0342448039870148,2.7663679543071322,0.7691630533470046,-0.00025026123325850224,-0.0005600965914803191,0.0007862007040323882,0.00014635509718695036,-9.618165428207629e-05,-0.00025243413632198924,0.0010610845512759746,0.0,0.0,0.0,0.0,0.0,0.0,0.0,-0.00017496451996934503,0.00015993995160999003,-2.6972355633536615e-05,9.623974791894696e-05,-1.252536622120548e-05,4.192252501500349e-05,-3.575129378807773e-05,0.00025026123325850224,0.0005600965914803191,-0.0007862007040323882,-0.00014635509718695036,9.618165428207629e-05,0.00025243413632198924,-0.0010610845512759746,0.4029781222343445,22.720483779907227,0.1491362750530243,-14.056428909301758,-0.2841086983680725,-2.1453890800476074,0.44711631536483765,0
70,0.3450052738189697,-0.4267818331718445,-22.748254776000977,-0.1253325641155243,14.108003616333008,0.2841086983680725,2.1389803886413574,-0.44711631536483765,0.0,0.0,0.0,0.0,0.0,0.0,0.0,-0.4272302801748753,0.05691005894765365,-0.19383674260799233,0.20055367241311947,0.04961294398140006,-0.04353394367328287,-0.4130742435880945,1.675673989710055,0.051946096066637394,0.02999417637102775,-2.7524946949942586,0.03425331900295148,2.766327096082658,0.7692015329453238,1.6754973547542302,0.052104326824870026,0.029969505109285054,-2.752394845125968,0.0342448039870148,2.7663679543071322,0.7691630533470046,0.0003139149882502267,-2.9892275115705446e-05,0.000483479629136301,-0.000856864320191077,-7.097424856340418e-05,7.761216367832967e-05,0.0010009742504022829,0.0,0.0,0.0,0.0,0.0,0.0,0.0,-0.00017663495582476152,0.00015823075823263172,-2.4671261742697376e-05,9.984986829048026e-05,-8.515015936676196e-06,4.0858224474416005e-05,-3.847959831915215e-05,-0.0003139149882502267,2.9892275115705446e-05,-0.000483479629136301,0.000856864320191077,7.097424856340418e-05,-7.761216367832967e-05,-0.0010009742504022829,0.4267818331718445,22.748254776000977,0.1253325641155243,-14.108003616333008,-0.2841086983680725,-2.1389803886413574,0.44711631536483765,0
71,0.35003066062927246,-0.4267818331718445,-22.748254776000977,-0.1253325641155243,14.108003616333008,0.2841086983680725,2.1389803886413574,-0.44711631536483765,0.0,0.0,0.0,0.0,0.0,0.0,0.0,-0.4272302801748753,0.05691005894765365,-0.19383674260799233,0.20055367241311947,0.04961294398140006,-0.04353394367328287,-0.4130742435880945,1.675673989710055,0.051946096066637394,0.02999417637102775,-2.7524946949942586,0.03425331900295148,2.766327096082658,0.7692015329453238,1.6754973547542302,0.052104326824870026,0.029969505109285054,-2.752394845125968,0.0342448039870148,2.7663679543071322,0.7691630533470046,0.0003139149882502267,-2.9892275115705446e-05,0.000483479629136301,-0.000856864320191077,-7.097424856340418e-05,7.761216367832967e-05,0.0010009742504022829,0.0,0.0,0.0,0.0,0.0,0.0,0.0,-0.00017663495582476152,0.00015823075823263172,-2.4671261742697376e-05,9.984986829048026e-05,-8.515015936676196e-06,4.0858224474416005e-05,-3.847959831915215e-05,-0.0003139149882502267,2.9892275115705446e-05,-0.000483479629136301,0.000856864320191077,7.097424856340418e-05,-7.761216367832967e-05,-0.0010009742504022829,0.4267818331718445,22.748254776000977,0.1253325641155243,-14.108003616333008,-0.2841086983680725,-2.1389803886413574,0.44711631536483765,0
72,0.3550443649291992,-0.4505855441093445,-22.720483779907227,-0.09756157547235489,14.080232620239258,0.2722068428993225,2.1453890800476074,-0.42605918645858765,0.0,0.0,0.0,0.0,0.0,0.0,0.0,-0.43237900706685656,0.05725507539544637,-0.19937184277748726,0.2032246965556141,0.04973418126623017,-0.043452777674075696,-0.41487620456943863,1.6756756601459102,0.05194414751214466,0.029989785034749996,-2.752492746152376,0.03425782325516975,2.766328508775272,0.7691996781194953,1.6754973547542302,0.052104326824870026,0.029969505109285054,-2.752394845125968,0.0342448039870148,2.7663679543071322,0.7691630533470046,7.088150753709243e-05,-0.000644254585028306,-0.0010936021203058852,0.0002988113901884265,0.0003800248471660334,-2.5021714412061437e-05,0.0006072111896327681,0.0,0.0,0.0,0.0,0.0,0.0,0.0,-0.00017830539167995596,0.00016017931272536284,-2.027992546494231e-05,9.790102640794274e-05,-1.3019268154952635e-05,3.944553186041588e-05,-3.6624772490667645e-05,-7.088150753709243e-05,0.000644254585028306,0.0010936021203058852,-0.0002988113901884265,-0.0003800248471660334,2.5021714412061437e-05,-0.0006072111896327681,0.4505855441093445,22.720483779907227,0.09756157547235489,-14.080232620239258,-0.2722068428993225,-2.1453890800476074,0.42605918645858765,0
73,0.36002349853515625,-0.4505855441093445,-22.720483779907227,-0.09756157547235489,14.080232620239258,0.2722068428993225,2.1453890800476074,-0.42605918645858765,0.0,0.0,0.0,0.0,0.0,0.0,0.0,-0.43237900706685656,0.05725507539544637,-0.19937184277748726,0.2032246965556141,0.04973418126623017,-0.043452777674075696,-0.41487620456943863,1.6756756601459102,0.05194414751214466,0.029989785034749996,-2.752492746152376,0.03425782325516975,2.766328508775272,0.7691996781194953,1.6754973547542302,0.052104326824870026,0.029969505109285054,-2.752394845125968,0.0342448039870148,2.7663679543071322,0.7691630533470046,7.088150753709243e-05,-0.000644254585028306,-0.0010936021203058852,0.0002988113901884265,0.0003800248471660334,-2.5021714412061437e-05,0.0006072111896327681,0.0,0.0,0.0,0.0,0.0,0.0,0.0,-0.00017830539167995596,0.00016017931272536284,-2.027992546494231e-05,9.790102640794274e-05,-1.3019268154952635e-05,3.944553186041588e-05,-3.6624772490667645e-05,-7.088150753709243e-05,0.000644254585028306,0.0010936021203058852,-0.0002988113901884265,-0.0003800248471660334,2.5021714412061437e-05,-0.0006072111896327681,0.4505855441093445,22.720483779907227,0.09756157547235489,-14.080232620239258,-0.2722068428993225,-2.1453890800476074,0.42605918645858765,0
74,0.36504459381103516,-0.4505855441093445,-22.720483779907227,-0.1491362750530243,14.056428909301758,0.2722068428993225,2.1389803886413574,-0.42605918645858765,0.0,0.0,0.0,0.0,0.0,0.0,0.0,-0.43054335188564946,0.056203407717422514,-0.20021668044024174,0.20015304498575823,0.04814618477438297,-0.04374929460938938,-0.41338737774880524,1.6756756601459102,0.05194414718736865,0.029993725712741396,-2.7524910757165206,0.03425758288355315,2.766330149682696,0.7691982121898917,1.6754973547542302,0.052104326824870026,0.029969505109285054,-2.752394845125968,0.0342448039870148,2.7663679543071322,0.7691630533470046,-1.7266624006947717e-05,-0.0008646938518528905,0.0003509801757672121,0.00015076470195954177,0.0003375509237959047,-9.219155206387721e-05,0.000979813615103283,0.0,0.0,0.0,0.0,0.0,0.0,0.0,-0.00017830539167995596,0.00016017963750137448,-2.4220603456342332e-05,9.623059055252625e-05,-1.2778896538348516e-05,3.7804624436255096e-05,-3.515884288707305e-05,1.7266624006947717e-05,0.0008646938518528905,-0.0003509801757672121,-0.00015076470195954177,-0.0003375509237959047,9.219155206387721e-05,-0.000979813615103283,0.4505855441093445,22.720483779907227,0.1491362750530243,-14.056428909301758,-0.2722068428993225,-2.1389803886413574,0.42605918645858765,0
75,0.3699789047241211,-0.4505855441093445,-22.720483779907227,-0.1491362750530243,14.056428909301758,0.2722068428993225,2.1389803886413574,-0.42605918645858765,0.0,0.0,0.0,0.0,0.0,0.0,0.0,-0.43054335188564946,0.056203407717422514,-0.20021668044024174,0.20015304498575823,0.04814618477438297,-0.04374929460938938,-0.41338737774880524,1.6756756601459102,0.05194414718736865,0.029993725712741396,-2.7524910757165206,0.03425758288355315,2.766330149682696,0.7691982121898917,1.6754973547542302,0.052104326824870026,0.029969505109285054,-2.752394845125968,0.0342448039870148,2.7663679543071322,0.7691630533470046,-1.7266624006947717e-05,-0.0008646938518528905,0.0003509801757672121,0.00015076470195954177,0.0003375509237959047,-9.219155206387721e-05,0.000979813615103283,0.0,0.0,0.0,0.0,0.0,0.0,0.0,-0.00017830539167995596,0.00016017963750137448,-2.4220603456342332e-05,9.623059055252625e-05,-1.2778896538348516e-05,3.7804624436255096e-05,-3.515884288707305e-05,1.7266624006947717e-05,0.0008646938518528905,-0.0003509801757672121,-0.00015076470195954177,-0.0003375509237959047,9.219155206387721e-05,-0.000979813615103283,0.4505855441093445,22.720483779907227,0.1491362750530243,-14.056428909301758,-0.2722068428993225,-2.1389803886413574,0.42605918645858765,0
76,0.37497758865356445,-0.4505855441093445,-22.720483779907227,-0.09756157547235489,14.080232620239258,0.2841086983680725,2.1582064628601074,-0.44711631536483765,0.0,0.0,0.0,0.0,0.0,0.0,0.0,-0.43157055236705644,0.049763833838444176,-0.20201287228454845,0.20131863650681994,0.04735949786270897,-0.04382698992827589,-0.41099991821398385,1.6756756601459102,0.05194414718736682,0.029990571139740067,-2.752492746152376,0.03425295746528228,2.7663239060474867,0.7692019835557632,1.6754973547542302,0.052104326824870026,0.029969505109285054,-2.752394845125968,0.0342448039870148,2.7663679543071322,0.7691630533470046,0.00037395983141131717,-0.0011058724559709278,-0.00040095549991144767,-0.000646602660811984,-0.0001331909709417611,-0.0004996245184403805,0.0012107390221814502,0.0,0.0,0.0,0.0,0.0,0.0,0.0,-0.00017830539167995596,0.00016017963750320635,-2.106603045501365e-05,9.790102640794274e-05,-8.153478267478032e-06,4.404825964554604e-05,-3.893020875855857e-05,-0.00037395983141131717,0.0011058724559709278,0.00040095549991144767,0.000646602660811984,0.0001331909709417611,0.0004996245184403805,-0.0012107390221814502,0.4505855441093445,22.720483779907227,0.09756157547235489,-14.080232620239258,-0.2841086983680725,-2.1582064628601074,0.44711631536483765,0
77,0.3800055980682373,-0.4505855441093445,-22.720483779907227,-0.09756157547235489,14.080232620239258,0.2841086983680725,2.1582064628601074,-0.44711631536483765,0.0,0.0,0.0,0.0,0.0,0.0,0.0,-0.43157055236705644,0.049763833838444176,-0.20201287228454845,0.20131863650681994,0.04735949786270897,-0.04382698992827589,-0.41099991821398385,1.6756756601459102,0.05194414718736682,0.029990571139740067,-2.752492746152376,0.03425295746528228,2.7663239060474867,0.7692019835557632,1.6754973547542302,0.052104326824870026,0.029969505109285054,-2.752394845125968,0.0342448039870148,2.7663679543071322,0.7691630533470046,0.00037395983141131717,-0.0011058724559709278,-0.00040095549991144767,-0.000646602660811984,-0.0001331909709417611,-0.0004996245184403805,0.0012107390221814502,0.0,0.0,0.0,0.0,0.0,0.0,0.0,-0.00017830539167995596,0.00016017963750320635,-2.106603045501365e-05,9.790102640794274e-05,-8.153478267478032e-06,4.404825964554604e-05,-3.893020875855857e-05,-0.00037395983141131717,0.0011058724559709278,0.00040095549991144767,0.000646602660811984,0.0001331909709417611,0.0004996245184403805,-0.0012107390221814502,0.4505855441093445,22.720483779907227,0.09756157547235489,-14.080232620239258,-0.2841086983680725,-2.1582064628601074,0.44711631536483765,0
78,0.38500404357910156,-0.4505855441093445,-22.720483779907227,-0.09756157547235489,14.080232620239258,0.2841086983680725,2.1582064628601074,-0.44711631536483765,0.0,0.0,0.0,0.0,0.0,0.0,0.0,-0.43157055236705644,0.049763833838444176,-0.20201287228454845,0.20131863650681994,0.04735949786270897,-0.04382698992827589,-0.41099991821398385,1.6756756601459102,0.05194414718736682,0.029990571139740067,-2.752492746152376,0.03425295746528228,2.7663239060474867,0.7692019835557632,1.6754973547542302,0.052104326824870026,0.029969505109285054,-2.752394845125968,0.0342448039870148,2.7663679543071322,0.7691630533470046,0.00037395983141131717,-0.0011058724559709278,-0.00040095549991144767,-0.000646602660811984,-0.0001331909709417611,-0.0004996245184403805,0.0012107390221814502,0.0,0.0,0.0,0.0,0.0,0.0,0.0,-0.00017830539167995596,0.00016017963750320635,-2.106603045501365e-05,9.790102640794274e-05,-8.153478267478032e-06,4.404825964554604e-05,-3.893020875855857e-05,-0.00037395983141131717,0.0011058724559709278,0.00040095549991144767,0.000646602660811984,0.0001331909709417611,0.0004996245184403805,-0.0012107390221814502,0.4505855441093445,22.720483779907227,0.09756157547235489,-14.080232620239258,-0.2841086983680725,-2.1582064628601074,0.44711631536483765,0
79,0.3899874687194824,-0.4505855441093445,-22.720483779907227,-0.09756157547235489,14.080232620239258,0.2841086983680725,2.1582064628601074,-0.44711631536483765,0.0,0.0,0.0,0.0,0.0,0.0,0.0,-0.43157055236705644,0.049763833838444176,-0.20201287228454845,0.20131863650681994,0.04735949786270897,-0.04382698992827589,-0.41099991821398385,1.6756756601459102,0.05194414718736682,0.029990571139740067,-2.752492746152376,0.03425295746528228,2.7663239060474867,0.7692019835557632,1.6754973547542302,0.052104326824870026,0.029969505109285054,-2.752394845125968,0.0342448039870148,2.7663679543071322,0.7691630533470046,0.00037395983141131717,-0.0011058724559709278,-0.00040095549991144767,-0.000646602660811984,-0.0001331909709417611,-0.0004996245184403805,0.0012107390221814502,0.0,0.0,0.0,0.0,0.0,0.0,0.0,-0.00017830539167995596,0.00016017963750320635,-2.106603045501365e-05,9.790102640794274e-05,-8.153478267478032e-06,4.404825964554604e-05,-3.893020875855857e-05,-0.00037395983141131717,0.0011058724559709278,0.00040095549991144767,0.000646602660811984,0.0001331909709417611,0.0004996245184403805,-0.0012107390221814502,0.4505855441093445,22.720483779907227,0.09756157547235489,-14.080232620239258,-0.2841086983680725,-2.1582064628601074,0.44711631536483765,0
