rezayati/contactInterpretation/dataset/franka_main/labeled_data/link5/c10_5.csv
index,time,tau_J0,tau_J1,tau_J2,tau_J3,tau_J4,tau_J5,tau_J6,tau_J_d0,tau_J_d1,tau_J_d2,tau_J_d3,tau_J_d4,tau_J_d5,tau_J_d6,tau_ext0,tau_ext1,tau_ext2,tau_ext3,tau_ext4,tau_ext5,tau_ext6,q0,q1,q2,q3,q4,q5,q6,q_d0,q_d1,q_d2,q_d3,q_d4,q_d5,q_d6,dq0,dq1,dq2,dq3,dq4,dq5,dq6,dq_d0,dq_d1,dq_d2,dq_d3,dq_d4,dq_d5,dq_d6,e0,e1,e2,e3,e4,e5,e6,de0,de1,de2,de3,de4,de5,de6,etau_J0,etau_J1,etau_J2,etau_J3,etau_J4,etau_J5,etau_J6,label
1,0.0,-0.8354122042655945,-46.50039291381836,-5.711269855499268,19.709810256958008,0.8563132882118225,2.3522982597351074,-0.14590780436992645,0.0,0.0,0.0,0.0,0.0,0.0,0.0,-0.8376250976773016,-0.17835531055143944,-0.5208430324714022,0.4942312416011808,0.2737351848349376,0.08460146271466919,-0.18958645383081227,0.8782307250081447,0.7549926369929403,-0.2823917773397327,-1.6689641067609922,0.14139429695713213,2.403572976483239,1.0273423190034128,0.878092876070424,0.7554597494309409,-0.2825552651693207,-1.6690993614607135,0.1414185955172306,2.4034451173676383,1.0273381002308042,-0.0003307901960900873,0.000510367561484949,0.0005452744435835103,-0.00021102522570247187,0.00013270036094182265,-0.000278755405491575,-0.0018163925010178873,0.0,0.0,0.0,0.0,0.0,0.0,0.0,-0.00013784893772073037,0.000467112438000572,-0.0001634878295880271,-0.00013525469972131,2.4298560098473532e-05,-0.00012785911560087015,-4.218772608588495e-06,0.0003307901960900873,-0.000510367561484949,-0.0005452744435835103,0.00021102522570247187,-0.00013270036094182265,0.000278755405491575,0.0018163925010178873,0.8354122042655945,46.50039291381836,5.711269855499268,-19.709810256958008,-0.8563132882118225,-2.3522982597351074,0.14590780436992645,0
2,0.00499272346496582,-0.7838374972343445,-46.50039291381836,-5.687466144561768,19.686006546020508,0.8682151436805725,2.3522982597351074,-0.16604940593242645,0.0,0.0,0.0,0.0,0.0,0.0,0.0,-0.8158735649484219,-0.1682899459177495,-0.5019469717451011,0.4866507189613291,0.2733641740169036,0.08227186667969057,-0.18988354598095633,0.8782271057304583,0.7549912329843239,-0.2823934477755897,-1.6689626835735685,0.14139286461442982,2.403572976483239,1.027344556959139,0.878092876070424,0.7554597494309409,-0.2825552651693207,-1.6690993614607135,0.1414185955172306,2.4034451173676383,1.0273381002308042,-0.0006913407313069334,0.0001990009326152863,0.0004383803473074462,0.00017576203452795985,-0.0003282835055455915,-0.00012808606109345855,-0.0010209931086079596,0.0,0.0,0.0,0.0,0.0,0.0,0.0,-0.0001342296600342907,0.00046851644661694003,-0.0001618173937310008,-0.00013667788714499807,2.5730902800780164e-05,-0.00012785911560087015,-6.456728334880424e-06,0.0006913407313069334,-0.0001990009326152863,-0.0004383803473074462,-0.00017576203452795985,0.0003282835055455915,0.00012808606109345855,0.0010209931086079596,0.7838374972343445,46.50039291381836,5.687466144561768,-19.686006546020508,-0.8682151436805725,-2.3522982597351074,0.16604940593242645,0
3,0.009991645812988281,-0.7838374972343445,-46.50039291381836,-5.687466144561768,19.686006546020508,0.8682151436805725,2.3522982597351074,-0.16604940593242645,0.0,0.0,0.0,0.0,0.0,0.0,0.0,-0.8158735649484219,-0.1682899459177495,-0.5019469717451011,0.4866507189613291,0.2733641740169036,0.08227186667969057,-0.18988354598095633,0.8782271057304583,0.7549912329843239,-0.2823934477755897,-1.6689626835735685,0.14139286461442982,2.403572976483239,1.027344556959139,0.878092876070424,0.7554597494309409,-0.2825552651693207,-1.6690993614607135,0.1414185955172306,2.4034451173676383,1.0273381002308042,-0.0006913407313069334,0.0001990009326152863,0.0004383803473074462,0.00017576203452795985,-0.0003282835055455915,-0.00012808606109345855,-0.0010209931086079596,0.0,0.0,0.0,0.0,0.0,0.0,0.0,-0.0001342296600342907,0.00046851644661694003,-0.0001618173937310008,-0.00013667788714499807,2.5730902800780164e-05,-0.00012785911560087015,-6.456728334880424e-06,0.0006913407313069334,-0.0001990009326152863,-0.0004383803473074462,-0.00017576203452795985,0.0003282835055455915,0.00012808606109345855,0.0010209931086079596,0.7838374972343445,46.50039291381836,5.687466144561768,-19.686006546020508,-0.8682151436805725,-2.3522982597351074,0.16604940593242645,0
4,0.014996051788330078,-0.8354122042655945,-46.54800033569336,-5.663662433624268,19.709810256958008,0.8444114327430725,2.3458895683288574,-0.23471395671367645,0.0,0.0,0.0,0.0,0.0,0.0,0.0,-0.8352335274744526,-0.17506135188099695,-0.5184526035696275,0.48812906246991733,0.2739241378099676,0.08238359151242929,-0.18954076267563216,0.8782307250081447,0.7549938692699093,-0.28239511831945185,-1.6689641067619225,0.14139354146818925,2.403573688560062,1.0273521863536703,0.878092876070424,0.7554597494309409,-0.2825552651693207,-1.6690993614607135,0.1414185955172306,2.4034451173676383,1.0273381002308042,0.00033565718456178366,0.0006511272209130733,-0.00047092221799233423,7.386084646200323e-05,0.000520010524872863,0.00010750756181691161,0.001767725947369852,0.0,0.0,0.0,0.0,0.0,0.0,0.0,-0.00013784893772073037,0.00046588016103155105,-0.00016014684986886962,-0.0001352546987909431,2.505404904135089e-05,-0.00012857119242370985,-1.4086122866130424e-05,-0.00033565718456178366,-0.0006511272209130733,0.00047092221799233423,-7.386084646200323e-05,-0.000520010524872863,-0.00010750756181691161,-0.001767725947369852,0.8354122042655945,46.54800033569336,5.663662433624268,-19.709810256958008,-0.8444114327430725,-2.3458895683288574,0.23471395671367645,0
5,0.01999187469482422,-0.8354122042655945,-46.54800033569336,-5.663662433624268,19.709810256958008,0.8444114327430725,2.3458895683288574,-0.23471395671367645,0.0,0.0,0.0,0.0,0.0,0.0,0.0,-0.8352335274744526,-0.17506135188099695,-0.5184526035696275,0.48812906246991733,0.2739241378099676,0.08238359151242929,-0.18954076267563216,0.8782307250081447,0.7549938692699093,-0.28239511831945185,-1.6689641067619225,0.14139354146818925,2.403573688560062,1.0273521863536703,0.878092876070424,0.7554597494309409,-0.2825552651693207,-1.6690993614607135,0.1414185955172306,2.4034451173676383,1.0273381002308042,0.00033565718456178366,0.0006511272209130733,-0.00047092221799233423,7.386084646200323e-05,0.000520010524872863,0.00010750756181691161,0.001767725947369852,0.0,0.0,0.0,0.0,0.0,0.0,0.0,-0.00013784893772073037,0.00046588016103155105,-0.00016014684986886962,-0.0001352546987909431,2.505404904135089e-05,-0.00012857119242370985,-1.4086122866130424e-05,-0.00033565718456178366,-0.0006511272209130733,0.00047092221799233423,-7.386084646200323e-05,-0.000520010524872863,-0.00010750756181691161,-0.001767725947369852,0.8354122042655945,46.54800033569336,5.663662433624268,-19.709810256958008,-0.8444114327430725,-2.3458895683288574,0.23471395671367645,0
6,0.025001049041748047,-0.8076412081718445,-46.52419662475586,-5.687466144561768,19.709810256958008,0.8563132882118225,2.3458895683288574,-0.17978231608867645,0.0,0.0,0.0,0.0,0.0,0.0,0.0,-0.829390821029989,-0.16872293323857665,-0.5115408924130952,0.4821384748785752,0.27362368716541463,0.08077347929847983,-0.18993390099374904,0.8782287761663136,0.7549945388642789,-0.28239344777559033,-1.668964106760527,0.14139502143722993,2.403573688560062,1.0273460828380452,0.878092876070424,0.7554597494309409,-0.2825552651693207,-1.6690993614607135,0.1414185955172306,2.4034451173676383,1.0273381002308042,-0.00042995608225379514,-7.676402965767069e-05,0.00032785953953290225,-0.00027039967258235146,6.979866146207927e-05,0.00017846100223635727,-0.00026176880917516644,0.0,0.0,0.0,0.0,0.0,0.0,0.0,-0.00013590009588959617,0.0004652105666619333,-0.00016181739373039017,-0.00013525470018649344,2.3574080000671183e-05,-0.00012857119242370985,-7.982607240997197e-06,0.00042995608225379514,7.676402965767069e-05,-0.00032785953953290225,0.00027039967258235146,-6.979866146207927e-05,-0.00017846100223635727,0.00026176880917516644,0.8076412081718445,46.52419662475586,5.687466144561768,-19.709810256958008,-0.8563132882118225,-2.3458895683288574,0.17978231608867645,0
7,0.030002355575561523,-0.8076412081718445,-46.52419662475586,-5.687466144561768,19.709810256958008,0.8563132882118225,2.3458895683288574,-0.17978231608867645,0.0,0.0,0.0,0.0,0.0,0.0,0.0,-0.829390821029989,-0.16872293323857665,-0.5115408924130952,0.4821384748785752,0.27362368716541463,0.08077347929847983,-0.18993390099374904,0.8782287761663136,0.7549945388642789,-0.28239344777559033,-1.668964106760527,0.14139502143722993,2.403573688560062,1.0273460828380452,0.878092876070424,0.7554597494309409,-0.2825552651693207,-1.6690993614607135,0.1414185955172306,2.4034451173676383,1.0273381002308042,-0.00042995608225379514,-7.676402965767069e-05,0.00032785953953290225,-0.00027039967258235146,6.979866146207927e-05,0.00017846100223635727,-0.00026176880917516644,0.0,0.0,0.0,0.0,0.0,0.0,0.0,-0.00013590009588959617,0.0004652105666619333,-0.00016181739373039017,-0.00013525470018649344,2.3574080000671183e-05,-0.00012857119242370985,-7.982607240997197e-06,0.00042995608225379514,7.676402965767069e-05,-0.00032785953953290225,0.00027039967258235146,-6.979866146207927e-05,-0.00017846100223635727,0.00026176880917516644,0.8076412081718445,46.52419662475586,5.687466144561768,-19.709810256958008,-0.8563132882118225,-2.3458895683288574,0.17978231608867645,0
8,0.034998416900634766,-0.8076412081718445,-46.44881820678711,-5.663662433624268,19.686006546020508,0.8618064522743225,2.3522982597351074,-0.18710653483867645,0.0,0.0,0.0,0.0,0.0,0.0,0.0,-0.8137584052693407,-0.16229141770074873,-0.503757666801216,0.4792817343512918,0.2736000864310177,0.079942229714228,-0.1897014866905201,0.8782287761663136,0.7549872208133124,-0.28239511821144503,-1.668962686626024,0.14139326520827292,2.403572976483239,1.0273468966401285,0.878092876070424,0.7554597494309409,-0.2825552651693207,-1.6690993614607135,0.1414185955172306,2.4034451173676383,1.0273381002308042,0.0003626256774840551,-0.0005492315881846534,-0.000720454591534282,0.00044744188446169315,-0.00014850403452107476,-0.00015122478034157913,-0.00035897830244998447,0.0,0.0,0.0,0.0,0.0,0.0,0.0,-0.00013590009588959617,0.000472528617628476,-0.00016014695787569533,-0.00013667483468937647,2.5330308957682846e-05,-0.00012785911560087015,-8.796409324274279e-06,-0.0003626256774840551,0.0005492315881846534,0.000720454591534282,-0.00044744188446169315,0.00014850403452107476,0.00015122478034157913,0.00035897830244998447,0.8076412081718445,46.44881820678711,5.663662433624268,-19.686006546020508,-0.8618064522743225,-2.3522982597351074,0.18710653483867645,0
9,0.039995431900024414,-0.8076412081718445,-46.44881820678711,-5.663662433624268,19.686006546020508,0.8618064522743225,2.3522982597351074,-0.18710653483867645,0.0,0.0,0.0,0.0,0.0,0.0,0.0,-0.8137584052693407,-0.16229141770074873,-0.503757666801216,0.4792817343512918,0.2736000864310177,0.079942229714228,-0.1897014866905201,0.8782287761663136,0.7549872208133124,-0.28239511821144503,-1.668962686626024,0.14139326520827292,2.403572976483239,1.0273468966401285,0.878092876070424,0.7554597494309409,-0.2825552651693207,-1.6690993614607135,0.1414185955172306,2.4034451173676383,1.0273381002308042,0.0003626256774840551,-0.0005492315881846534,-0.000720454591534282,0.00044744188446169315,-0.00014850403452107476,-0.00015122478034157913,-0.00035897830244998447,0.0,0.0,0.0,0.0,0.0,0.0,0.0,-0.00013590009588959617,0.000472528617628476,-0.00016014695787569533,-0.00013667483468937647,2.5330308957682846e-05,-0.00012785911560087015,-8.796409324274279e-06,-0.0003626256774840551,0.0005492315881846534,0.000720454591534282,-0.00044744188446169315,0.00014850403452107476,0.00015122478034157913,0.00035897830244998447,0.8076412081718445,46.44881820678711,5.663662433624268,-19.686006546020508,-0.8618064522743225,-2.3522982597351074,0.18710653483867645,0
10,0.04499053955078125,-0.8076412081718445,-46.52419662475586,-5.612087726593018,19.686006546020508,0.8563132882118225,2.3394808769226074,-0.15964071452617645,0.0,0.0,0.0,0.0,0.0,0.0,0.0,-0.8174944480329078,-0.18106285302506497,-0.5120424045018485,0.4899443943257205,0.27435727391587283,0.08112161187379201,-0.19034313738745343,0.8782287761663136,0.7549924328340822,-0.28239873748913147,-1.6689625187414416,0.14139434988626332,2.403574400636885,1.027343844882316,0.878092876070424,0.7554597494309409,-0.2825552651693207,-1.6690993614607135,0.1414185955172306,2.4034451173676383,1.0273381002308042,-0.00010519095711201619,0.0007621634887716356,-0.0014044254620825054,0.0005321507270937682,0.00027496192698614794,0.00012057757478657884,-0.0013726598997843868,0.0,0.0,0.0,0.0,0.0,0.0,0.0,-0.00013590009588959617,0.0004673165968586135,-0.00015652768018925567,-0.00013684271927183467,2.4245630967284493e-05,-0.00012928326924654954,-5.744651511818688e-06,0.00010519095711201619,-0.0007621634887716356,0.0014044254620825054,-0.0005321507270937682,-0.00027496192698614794,-0.00012057757478657884,0.0013726598997843868,0.8076412081718445,46.52419662475586,5.612087726593018,-19.686006546020508,-0.8563132882118225,-2.3394808769226074,0.15964071452617645,0
11,0.04999589920043945,-0.8076412081718445,-46.52419662475586,-5.612087726593018,19.686006546020508,0.8563132882118225,2.3394808769226074,-0.15964071452617645,0.0,0.0,0.0,0.0,0.0,0.0,0.0,-0.8174944480329078,-0.18106285302506497,-0.5120424045018485,0.4899443943257205,0.27435727391587283,0.08112161187379201,-0.19034313738745343,0.8782287761663136,0.7549924328340822,-0.28239873748913147,-1.6689625187414416,0.14139434988626332,2.403574400636885,1.027343844882316,0.878092876070424,0.7554597494309409,-0.2825552651693207,-1.6690993614607135,0.1414185955172306,2.4034451173676383,1.0273381002308042,-0.00010519095711201619,0.0007621634887716356,-0.0014044254620825054,0.0005321507270937682,0.00027496192698614794,0.00012057757478657884,-0.0013726598997843868,0.0,0.0,0.0,0.0,0.0,0.0,0.0,-0.00013590009588959617,0.0004673165968586135,-0.00015652768018925567,-0.00013684271927183467,2.4245630967284493e-05,-0.00012928326924654954,-5.744651511818688e-06,0.00010519095711201619,-0.0007621634887716356,0.0014044254620825054,-0.0005321507270937682,-0.00027496192698614794,-0.00012057757478657884,0.0013726598997843868,0.8076412081718445,46.52419662475586,5.612087726593018,-19.686006546020508,-0.8563132882118225,-2.3394808769226074,0.15964071452617645,0
12,0.05499005317687988,-0.7560665011405945,-46.47658920288086,-5.663662433624268,19.733613967895508,0.8563132882118225,2.3458895683288574,-0.15964071452617645,0.0,0.0,0.0,0.0,0.0,0.0,0.0,-0.8140022093292263,-0.16345707028474069,-0.5075959197796155,0.4843189634123301,0.27484399111769525,0.07964775001837267,-0.1908072190768154,0.8782251568886271,0.7549888586016718,-0.28239511821144503,-1.668968002436919,0.1413906787236215,2.403573688560062,1.027343844882316,0.878092876070424,0.7554597494309409,-0.2825552651693207,-1.6690993614607135,0.1414185955172306,2.4034451173676383,1.0273381002308042,-0.000662131505132488,7.825139834805103e-05,-0.000529580956397612,-0.00035289150217566176,0.00026246923452673325,-0.0003775225042599542,-0.0013049210619144934,0.0,0.0,0.0,0.0,0.0,0.0,0.0,-0.00013228081820315651,0.0004708908292690994,-0.00016014695787569533,-0.00013135902379457498,2.7916793609111812e-05,-0.00012857119242370985,-5.744651511818688e-06,0.000662131505132488,-7.825139834805103e-05,0.000529580956397612,0.00035289150217566176,-0.00026246923452673325,0.0003775225042599542,0.0013049210619144934,0.7560665011405945,46.47658920288086,5.663662433624268,-19.733613967895508,-0.8563132882118225,-2.3458895683288574,0.15964071452617645,0
13,0.06000113487243652,-0.7560665011405945,-46.47658920288086,-5.663662433624268,19.733613967895508,0.8563132882118225,2.3458895683288574,-0.15964071452617645,0.0,0.0,0.0,0.0,0.0,0.0,0.0,-0.8140022093292263,-0.16345707028474069,-0.5075959197796155,0.4843189634123301,0.27484399111769525,0.07964775001837267,-0.1908072190768154,0.8782251568886271,0.7549888586016718,-0.28239511821144503,-1.668968002436919,0.1413906787236215,2.403573688560062,1.027343844882316,0.878092876070424,0.7554597494309409,-0.2825552651693207,-1.6690993614607135,0.1414185955172306,2.4034451173676383,1.0273381002308042,-0.000662131505132488,7.825139834805103e-05,-0.000529580956397612,-0.00035289150217566176,0.00026246923452673325,-0.0003775225042599542,-0.0013049210619144934,0.0,0.0,0.0,0.0,0.0,0.0,0.0,-0.00013228081820315651,0.0004708908292690994,-0.00016014695787569533,-0.00013135902379457498,2.7916793609111812e-05,-0.00012857119242370985,-5.744651511818688e-06,0.000662131505132488,-7.825139834805103e-05,0.000529580956397612,0.00035289150217566176,-0.00026246923452673325,0.0003775225042599542,0.0013049210619144934,0.7560665011405945,46.47658920288086,5.663662433624268,-19.733613967895508,-0.8563132882118225,-2.3458895683288574,0.15964071452617645,0
14,0.06500101089477539,-0.8354122042655945,-46.50039291381836,-5.635891437530518,19.686006546020508,0.8563132882118225,2.3522982597351074,-0.20083944499492645,0.0,0.0,0.0,0.0,0.0,0.0,0.0,-0.8254716345553089,-0.17755028402928041,-0.5197390504188886,0.49131188823513783,0.2754441099944276,0.07955593043681432,-0.19065450529107308,0.8782307250081447,0.7549905280732326,-0.2823970670532762,-1.6689624363372333,0.14139541173537581,2.403572976483239,1.0273484225190348,0.878092876070424,0.7554597494309409,-0.2825552651693207,-1.6690993614607135,0.1414185955172306,2.4034451173676383,1.0273381002308042,0.00037825860597165645,-0.0003436739440081374,-0.000810703460578523,0.00015792176100619986,0.000311261715678271,-0.00036042506503232256,0.0004943015286494711,0.0,0.0,0.0,0.0,0.0,0.0,0.0,-0.00013784893772073037,0.00046922135770821605,-0.00015819811604450562,-0.0001369251234801805,2.3183781854785313e-05,-0.00012785911560087015,-1.0322288230613097e-05,-0.00037825860597165645,0.0003436739440081374,0.000810703460578523,-0.00015792176100619986,-0.000311261715678271,0.00036042506503232256,-0.0004943015286494711,0.8354122042655945,46.50039291381836,5.635891437530518,-19.686006546020508,-0.8563132882118225,-2.3522982597351074,0.20083944499492645,0
15,0.06999373435974121,-0.8354122042655945,-46.50039291381836,-5.635891437530518,19.686006546020508,0.8563132882118225,2.3522982597351074,-0.20083944499492645,0.0,0.0,0.0,0.0,0.0,0.0,0.0,-0.8254716345553089,-0.17755028402928041,-0.5197390504188886,0.49131188823513783,0.2754441099944276,0.07955593043681432,-0.19065450529107308,0.8782307250081447,0.7549905280732326,-0.2823970670532762,-1.6689624363372333,0.14139541173537581,2.403572976483239,1.0273484225190348,0.878092876070424,0.7554597494309409,-0.2825552651693207,-1.6690993614607135,0.1414185955172306,2.4034451173676383,1.0273381002308042,0.00037825860597165645,-0.0003436739440081374,-0.000810703460578523,0.00015792176100619986,0.000311261715678271,-0.00036042506503232256,0.0004943015286494711,0.0,0.0,0.0,0.0,0.0,0.0,0.0,-0.00013784893772073037,0.00046922135770821605,-0.00015819811604450562,-0.0001369251234801805,2.3183781854785313e-05,-0.00012785911560087015,-1.0322288230613097e-05,-0.00037825860597165645,0.0003436739440081374,0.000810703460578523,-0.00015792176100619986,-0.000311261715678271,0.00036042506503232256,-0.0004943015286494711,0.8354122042655945,46.50039291381836,5.635891437530518,-19.686006546020508,-0.8563132882118225,-2.3522982597351074,0.20083944499492645,0
16,0.07499098777770996,-0.8354122042655945,-46.47658920288086,-5.663662433624268,19.733613967895508,0.8618064522743225,2.3330721855163574,-0.18710653483867645,0.0,0.0,0.0,0.0,0.0,0.0,0.0,-0.8161798866053473,-0.17660527766425038,-0.5092133839210489,0.4918192931193299,0.27554525928622153,0.07907176082111572,-0.19107388699130298,0.8782307250081447,0.7549888587430122,-0.28239511821144503,-1.6689657771963822,0.14139429246774554,2.4035751127137077,1.0273468966401285,0.878092876070424,0.7554597494309409,-0.2825552651693207,-1.6690993614607135,0.1414185955172306,2.4034451173676383,1.0273381002308042,0.00011056359183672374,-0.0010746638860561226,0.00012048799411501047,-0.0010382421095437543,-0.00011789618934380338,0.0004398566133179604,5.975335731924768e-06,0.0,0.0,0.0,0.0,0.0,0.0,0.0,-0.00013784893772073037,0.00047089068792860456,-0.00016014695787569533,-0.000133584264331299,2.4303049485058237e-05,-0.00012999534606938923,-8.796409324274279e-06,-0.00011056359183672374,0.0010746638860561226,-0.00012048799411501047,0.0010382421095437543,0.00011789618934380338,-0.0004398566133179604,-5.975335731924768e-06,0.8354122042655945,46.47658920288086,5.663662433624268,-19.733613967895508,-0.8618064522743225,-2.3330721855163574,0.18710653483867645,0
17,0.07998919486999512,-0.8354122042655945,-46.47658920288086,-5.663662433624268,19.733613967895508,0.8618064522743225,2.3330721855163574,-0.18710653483867645,0.0,0.0,0.0,0.0,0.0,0.0,0.0,-0.8161798866053473,-0.17660527766425038,-0.5092133839210489,0.4918192931193299,0.27554525928622153,0.07907176082111572,-0.19107388699130298,0.8782307250081447,0.7549888587430122,-0.28239511821144503,-1.6689657771963822,0.14139429246774554,2.4035751127137077,1.0273468966401285,0.878092876070424,0.7554597494309409,-0.2825552651693207,-1.6690993614607135,0.1414185955172306,2.4034451173676383,1.0273381002308042,0.00011056359183672374,-0.0010746638860561226,0.00012048799411501047,-0.0010382421095437543,-0.00011789618934380338,0.0004398566133179604,5.975335731924768e-06,0.0,0.0,0.0,0.0,0.0,0.0,0.0,-0.00013784893772073037,0.00047089068792860456,-0.00016014695787569533,-0.000133584264331299,2.4303049485058237e-05,-0.00012999534606938923,-8.796409324274279e-06,-0.00011056359183672374,0.0010746638860561226,-0.00012048799411501047,0.0010382421095437543,0.00011789618934380338,-0.0004398566133179604,-5.975335731924768e-06,0.8354122042655945,46.47658920288086,5.663662433624268,-19.733613967895508,-0.8618064522743225,-2.3330721855163574,0.18710653483867645,0
18,0.08499264717102051,-0.8354122042655945,-46.47658920288086,-5.663662433624268,19.733613967895508,0.8618064522743225,2.3330721855163574,-0.18710653483867645,0.0,0.0,0.0,0.0,0.0,0.0,0.0,-0.8161798866053473,-0.17660527766425038,-0.5092133839210489,0.4918192931193299,0.27554525928622153,0.07907176082111572,-0.19107388699130298,0.8782307250081447,0.7549888587430122,-0.28239511821144503,-1.6689657771963822,0.14139429246774554,2.4035751127137077,1.0273468966401285,0.878092876070424,0.7554597494309409,-0.2825552651693207,-1.6690993614607135,0.1414185955172306,2.4034451173676383,1.0273381002308042,0.00011056359183672374,-0.0010746638860561226,0.00012048799411501047,-0.0010382421095437543,-0.00011789618934380338,0.0004398566133179604,5.975335731924768e-06,0.0,0.0,0.0,0.0,0.0,0.0,0.0,-0.00013784893772073037,0.00047089068792860456,-0.00016014695787569533,-0.000133584264331299,2.4303049485058237e-05,-0.00012999534606938923,-8.796409324274279e-06,-0.00011056359183672374,0.0010746638860561226,-0.00012048799411501047,0.0010382421095437543,0.00011789618934380338,-0.0004398566133179604,-5.975335731924768e-06,0.8354122042655945,46.47658920288086,5.663662433624268,-19.733613967895508,-0.8618064522743225,-2.3330721855163574,0.18710653483867645,0
19,0.08999061584472656,-0.8354122042655945,-46.47658920288086,-5.663662433624268,19.733613967895508,0.8618064522743225,2.3330721855163574,-0.18710653483867645,0.0,0.0,0.0,0.0,0.0,0.0,0.0,-0.8161798866053473,-0.17660527766425038,-0.5092133839210489,0.4918192931193299,0.27554525928622153,0.07907176082111572,-0.19107388699130298,0.8782307250081447,0.7549888587430122,-0.28239511821144503,-1.6689657771963822,0.14139429246774554,2.4035751127137077,1.0273468966401285,0.878092876070424,0.7554597494309409,-0.2825552651693207,-1.6690993614607135,0.1414185955172306,2.4034451173676383,1.0273381002308042,0.00011056359183672374,-0.0010746638860561226,0.00012048799411501047,-0.0010382421095437543,-0.00011789618934380338,0.0004398566133179604,5.975335731924768e-06,0.0,0.0,0.0,0.0,0.0,0.0,0.0,-0.00013784893772073037,0.00047089068792860456,-0.00016014695787569533,-0.000133584264331299,2.4303049485058237e-05,-0.00012999534606938923,-8.796409324274279e-06,-0.00011056359183672374,0.0010746638860561226,-0.00012048799411501047,0.0010382421095437543,0.00011789618934380338,-0.0004398566133179604,-5.975335731924768e-06,0.8354122042655945,46.47658920288086,5.663662433624268,-19.733613967895508,-0.8618064522743225,-2.3330721855163574,0.18710653483867645,0
20,0.09499049186706543,-0.8592159152030945,-46.44881820678711,-5.663662433624268,19.733613967895508,0.8563132882118225,2.3458895683288574,-0.23471395671367645,0.0,0.0,0.0,0.0,0.0,0.0,0.0,-0.8221672175454892,-0.16607643278945983,-0.5098986962119127,0.4863084708967118,0.2756120049305278,0.07821569320422209,-0.1907164619068916,0.878232395444,0.7549869174623404,-0.28239511821144503,-1.6689657782138672,0.14139385963269654,2.403573688560062,1.0273521863536703,0.878092876070424,0.7554597494309409,-0.2825552651693207,-1.6690993614607135,0.1414185955172306,2.4034451173676383,1.0273381002308042,0.000916689121392643,-0.001183507743047059,-0.0008027180891218394,-0.0007949288897420507,0.00030505429241442684,0.00026695508067361924,0.002006199840022669,0.0,0.0,0.0,0.0,0.0,0.0,0.0,-0.00013951937357603583,0.0004728319686004845,-0.00016014695787569533,-0.00013358324684631384,2.4735884534055064e-05,-0.00012857119242370985,-1.4086122866130424e-05,-0.000916689121392643,0.001183507743047059,0.0008027180891218394,0.0007949288897420507,-0.00030505429241442684,-0.00026695508067361924,-0.002006199840022669,0.8592159152030945,46.44881820678711,5.663662433624268,-19.733613967895508,-0.8563132882118225,-2.3458895683288574,0.23471395671367645,0
21,0.10022139549255371,-0.8592159152030945,-46.44881820678711,-5.663662433624268,19.733613967895508,0.8563132882118225,2.3458895683288574,-0.23471395671367645,0.0,0.0,0.0,0.0,0.0,0.0,0.0,-0.8221672175454892,-0.16607643278945983,-0.5098986962119127,0.4863084708967118,0.2756120049305278,0.07821569320422209,-0.1907164619068916,0.878232395444,0.7549869174623404,-0.28239511821144503,-1.6689657782138672,0.14139385963269654,2.403573688560062,1.0273521863536703,0.878092876070424,0.7554597494309409,-0.2825552651693207,-1.6690993614607135,0.1414185955172306,2.4034451173676383,1.0273381002308042,0.000916689121392643,-0.001183507743047059,-0.0008027180891218394,-0.0007949288897420507,0.00030505429241442684,0.00026695508067361924,0.002006199840022669,0.0,0.0,0.0,0.0,0.0,0.0,0.0,-0.00013951937357603583,0.0004728319686004845,-0.00016014695787569533,-0.00013358324684631384,2.4735884534055064e-05,-0.00012857119242370985,-1.4086122866130424e-05,-0.000916689121392643,0.001183507743047059,0.0008027180891218394,0.0007949288897420507,-0.00030505429241442684,-0.00026695508067361924,-0.002006199840022669,0.8592159152030945,46.44881820678711,5.663662433624268,-19.733613967895508,-0.8563132882118225,-2.3458895683288574,0.23471395671367645,0
22,0.10493922233581543,-0.7838374972343445,-46.42501449584961,-5.687466144561768,19.686006546020508,0.8618064522743225,2.3394808769226074,-0.22098104655742645,0.0,0.0,0.0,0.0,0.0,0.0,0.0,-0.8273762193645844,-0.17414672288423552,-0.5162711259114294,0.4913036251561131,0.2758108775376126,0.07954142194002949,-0.19016848908424921,0.8782271057304583,0.7549873482424246,-0.2823934477755898,-1.668962445482044,0.14139005466386043,2.403574400636885,1.027350660474764,0.878092876070424,0.7554597494309409,-0.2825552651693207,-1.6690993614607135,0.1414185955172306,2.4034451173676383,1.0273381002308042,-0.0009764045772707558,-0.0017164039937030157,-0.0006609592789368757,0.0006009276270049457,-0.00033739216605194563,0.00023057686396814336,0.0012158560267198156,0.0,0.0,0.0,0.0,0.0,0.0,0.0,-0.0001342296600342907,0.0004724011885162138,-0.00016181739373094528,-0.000136915978669494,2.8540853370173647e-05,-0.00012928326924654954,-1.2560243959791606e-05,0.0009764045772707558,0.0017164039937030157,0.0006609592789368757,-0.0006009276270049457,0.00033739216605194563,-0.00023057686396814336,-0.0012158560267198156,0.7838374972343445,46.42501449584961,5.687466144561768,-19.686006546020508,-0.8618064522743225,-2.3394808769226074,0.22098104655742645,0
23,0.10994672775268555,-0.7838374972343445,-46.42501449584961,-5.687466144561768,19.686006546020508,0.8618064522743225,2.3394808769226074,-0.22098104655742645,0.0,0.0,0.0,0.0,0.0,0.0,0.0,-0.8273762193645844,-0.17414672288423552,-0.5162711259114294,0.4913036251561131,0.2758108775376126,0.07954142194002949,-0.19016848908424921,0.8782271057304583,0.7549873482424246,-0.2823934477755898,-1.668962445482044,0.14139005466386043,2.403574400636885,1.027350660474764,0.878092876070424,0.7554597494309409,-0.2825552651693207,-1.6690993614607135,0.1414185955172306,2.4034451173676383,1.0273381002308042,-0.0009764045772707558,-0.0017164039937030157,-0.0006609592789368757,0.0006009276270049457,-0.00033739216605194563,0.00023057686396814336,0.0012158560267198156,0.0,0.0,0.0,0.0,0.0,0.0,0.0,-0.0001342296600342907,0.0004724011885162138,-0.00016181739373094528,-0.000136915978669494,2.8540853370173647e-05,-0.00012928326924654954,-1.2560243959791606e-05,0.0009764045772707558,0.0017164039937030157,0.0006609592789368757,-0.0006009276270049457,0.00033739216605194563,-0.00023057686396814336,-0.0012158560267198156,0.7838374972343445,46.42501449584961,5.687466144561768,-19.686006546020508,-0.8618064522743225,-2.3394808769226074,0.22098104655742645,0
24,0.1149907112121582,-0.8354122042655945,-46.50039291381836,-5.635891437530518,19.686006546020508,0.8737083077430725,2.3522982597351074,-0.15231649577617645,0.0,0.0,0.0,0.0,0.0,0.0,0.0,-0.8149809428107676,-0.17409727767900918,-0.5089773123002038,0.4926005855189829,0.2745939010686693,0.07922726357910943,-0.18966362755356606,0.8782307250081447,0.754990529155112,-0.2823970670892785,-1.6689624364377773,0.1413919047267871,2.403572976483239,1.0273419714421033,0.878092876070424,0.7554597494309409,-0.2825552651693207,-1.6690993614607135,0.1414185955172306,2.4034451173676383,1.0273381002308042,-0.0002837802406800101,-0.0003337504523187567,-0.000686921015263748,0.00038115079255317643,-0.0005988182558781303,-2.8628192259874238e-05,-0.0018164336717689307,0.0,0.0,0.0,0.0,0.0,0.0,0.0,-0.00013784893772073037,0.0004692202758288522,-0.0001581980800422489,-0.00013692502293616293,2.669079044351208e-05,-0.00012785911560087015,-3.87121129907797e-06,0.0002837802406800101,0.0003337504523187567,0.000686921015263748,-0.00038115079255317643,0.0005988182558781303,2.8628192259874238e-05,0.0018164336717689307,0.8354122042655945,46.50039291381836,5.635891437530518,-19.686006546020508,-0.8737083077430725,-2.3522982597351074,0.15231649577617645,0
25,0.11999130249023438,-0.8354122042655945,-46.50039291381836,-5.635891437530518,19.686006546020508,0.8737083077430725,2.3522982597351074,-0.15231649577617645,0.0,0.0,0.0,0.0,0.0,0.0,0.0,-0.8149809428107676,-0.17409727767900918,-0.5089773123002038,0.4926005855189829,0.2745939010686693,0.07922726357910943,-0.18966362755356606,0.8782307250081447,0.754990529155112,-0.2823970670892785,-1.6689624364377773,0.1413919047267871,2.403572976483239,1.0273419714421033,0.878092876070424,0.7554597494309409,-0.2825552651693207,-1.6690993614607135,0.1414185955172306,2.4034451173676383,1.0273381002308042,-0.0002837802406800101,-0.0003337504523187567,-0.000686921015263748,0.00038115079255317643,-0.0005988182558781303,-2.8628192259874238e-05,-0.0018164336717689307,0.0,0.0,0.0,0.0,0.0,0.0,0.0,-0.00013784893772073037,0.0004692202758288522,-0.0001581980800422489,-0.00013692502293616293,2.669079044351208e-05,-0.00012785911560087015,-3.87121129907797e-06,0.0002837802406800101,0.0003337504523187567,0.000686921015263748,-0.00038115079255317643,0.0005988182558781303,2.8628192259874238e-05,0.0018164336717689307,0.8354122042655945,46.50039291381836,5.635891437530518,-19.686006546020508,-0.8737083077430725,-2.3522982597351074,0.15231649577617645,0
26,0.12518572807312012,-0.8076412081718445,-46.54800033569336,-5.687466144561768,19.733613967895508,0.8563132882118225,2.3522982597351074,-0.20724813640117645,0.0,0.0,0.0,0.0,0.0,0.0,0.0,-0.8149083862053718,-0.16276585697498838,-0.5031689763334924,0.4820070846743341,0.27453984245870444,0.07736379092749564,-0.18977445163567028,0.8782287761663136,0.7549938718338749,-0.28239344777558995,-1.6689657771963826,0.1413918587420917,2.403572976483239,1.027349134589876,0.878092876070424,0.7554597494309409,-0.2825552651693207,-1.6690993614607135,0.1414185955172306,2.4034451173676383,1.0273381002308042,-0.00014214823825083929,0.0010997039614046742,0.0004713649312255605,-0.0006737368859983875,0.00021894770427087113,0.0007537691344797649,0.0006102053374566659,0.0,0.0,0.0,0.0,0.0,0.0,0.0,-0.00013590009588959617,0.00046587759706595566,-0.00016181739373077875,-0.0001335842643308549,2.673677513889694e-05,-0.00012785911560087015,-1.1034359071793176e-05,0.00014214823825083929,-0.0010997039614046742,-0.0004713649312255605,0.0006737368859983875,-0.00021894770427087113,-0.0007537691344797649,-0.0006102053374566659,0.8076412081718445,46.54800033569336,5.687466144561768,-19.733613967895508,-0.8563132882118225,-2.3522982597351074,0.20724813640117645,0
27,0.1299903392791748,-0.8076412081718445,-46.54800033569336,-5.687466144561768,19.733613967895508,0.8563132882118225,2.3522982597351074,-0.20724813640117645,0.0,0.0,0.0,0.0,0.0,0.0,0.0,-0.8149083862053718,-0.16276585697498838,-0.5031689763334924,0.4820070846743341,0.27453984245870444,0.07736379092749564,-0.18977445163567028,0.8782287761663136,0.7549938718338749,-0.28239344777558995,-1.6689657771963826,0.1413918587420917,2.403572976483239,1.027349134589876,0.878092876070424,0.7554597494309409,-0.2825552651693207,-1.6690993614607135,0.1414185955172306,2.4034451173676383,1.0273381002308042,-0.00014214823825083929,0.0010997039614046742,0.0004713649312255605,-0.0006737368859983875,0.00021894770427087113,0.0007537691344797649,0.0006102053374566659,0.0,0.0,0.0,0.0,0.0,0.0,0.0,-0.00013590009588959617,0.00046587759706595566,-0.00016181739373077875,-0.0001335842643308549,2.673677513889694e-05,-0.00012785911560087015,-1.1034359071793176e-05,0.00014214823825083929,-0.0010997039614046742,-0.0004713649312255605,0.0006737368859983875,-0.00021894770427087113,-0.0007537691344797649,-0.0006102053374566659,0.8076412081718445,46.54800033569336,5.687466144561768,-19.733613967895508,-0.8563132882118225,-2.3522982597351074,0.20724813640117645,0
28,0.13500714302062988,-0.8076412081718445,-46.54800033569336,-5.687466144561768,19.686006546020508,0.8563132882118225,2.3458895683288574,-0.20083944499492645,0.0,0.0,0.0,0.0,0.0,0.0,0.0,-0.8160313915155192,-0.17495132240739256,-0.5049942009302308,0.49244034236298756,0.27477637877275884,0.08129077614365522,-0.191281677763256,0.8782287761663136,0.7549939479090712,-0.2823934477755898,-1.6689624363246718,0.1413943120030809,2.403573688560062,1.0273484225190348,0.878092876070424,0.7554597494309409,-0.2825552651693207,-1.6690993614607135,0.1414185955172306,2.4034451173676383,1.0273381002308042,9.926969194588025e-05,0.0012981554249666954,0.00016087853354249617,0.0008408613917224056,0.00015056282567651484,0.00010552798665594231,0.0006126600478470141,0.0,0.0,0.0,0.0,0.0,0.0,0.0,-0.00013590009588959617,0.00046580152186970203,-0.00016181739373094528,-0.00013692513604168788,2.4283514149708862e-05,-0.00012857119242370985,-1.0322288230613097e-05,-9.926969194588025e-05,-0.0012981554249666954,-0.00016087853354249617,-0.0008408613917224056,-0.00015056282567651484,-0.00010552798665594231,-0.0006126600478470141,0.8076412081718445,46.54800033569336,5.687466144561768,-19.686006546020508,-0.8563132882118225,-2.3458895683288574,0.20083944499492645,0
29,0.13998961448669434,-0.8076412081718445,-46.54800033569336,-5.687466144561768,19.686006546020508,0.8563132882118225,2.3458895683288574,-0.20083944499492645,0.0,0.0,0.0,0.0,0.0,0.0,0.0,-0.8160313915155192,-0.17495132240739256,-0.5049942009302308,0.49244034236298756,0.27477637877275884,0.08129077614365522,-0.191281677763256,0.8782287761663136,0.7549939479090712,-0.2823934477755898,-1.6689624363246718,0.1413943120030809,2.403573688560062,1.0273484225190348,0.878092876070424,0.7554597494309409,-0.2825552651693207,-1.6690993614607135,0.1414185955172306,2.4034451173676383,1.0273381002308042,9.926969194588025e-05,0.0012981554249666954,0.00016087853354249617,0.0008408613917224056,0.00015056282567651484,0.00010552798665594231,0.0006126600478470141,0.0,0.0,0.0,0.0,0.0,0.0,0.0,-0.00013590009588959617,0.00046580152186970203,-0.00016181739373094528,-0.00013692513604168788,2.4283514149708862e-05,-0.00012857119242370985,-1.0322288230613097e-05,-9.926969194588025e-05,-0.0012981554249666954,-0.00016087853354249617,-0.0008408613917224056,-0.00015056282567651484,-0.00010552798665594231,-0.0006126600478470141,0.8076412081718445,46.54800033569336,5.687466144561768,-19.686006546020508,-0.8563132882118225,-2.3458895683288574,0.20083944499492645,0
30,0.14493966102600098,-0.7838374972343445,-46.54800033569336,-5.687466144561768,19.757417678833008,0.8563132882118225,2.3522982597351074,-0.17337362468242645,0.0,0.0,0.0,0.0,0.0,0.0,0.0,-0.8074067026790985,-0.18559773045909234,-0.5005771271486577,0.49874837561347674,0.27489432314838386,0.08198282294926941,-0.19088510892594565,0.8782271057304583,0.7549962089795856,-0.2823934477755898,-1.6689674476322376,0.14139506045264305,2.403572976483239,1.0273453707612223,0.878092876070424,0.7554597494309409,-0.2825552651693207,-1.6690993614607135,0.1414185955172306,2.4034451173676383,1.0273381002308042,-0.00045294387093767157,0.0008789911040715528,0.000944410944500213,-0.0011733049806056989,0.0001644532995566893,-8.935790529869058e-05,-0.001166089559385349,0.0,0.0,0.0,0.0,0.0,0.0,0.0,-0.0001342296600342907,0.0004635404513552155,-0.00016181739373094528,-0.0001319138284758825,2.3535064587548726e-05,-0.00012785911560087015,-7.270530418157506e-06,0.00045294387093767157,-0.0008789911040715528,-0.000944410944500213,0.0011733049806056989,-0.0001644532995566893,8.935790529869058e-05,0.001166089559385349,0.7838374972343445,46.54800033569336,5.687466144561768,-19.757417678833008,-0.8563132882118225,-2.3522982597351074,0.17337362468242645,0
31,0.14999961853027344,-0.7838374972343445,-46.54800033569336,-5.687466144561768,19.757417678833008,0.8563132882118225,2.3522982597351074,-0.17337362468242645,0.0,0.0,0.0,0.0,0.0,0.0,0.0,-0.8074067026790985,-0.18559773045909234,-0.5005771271486577,0.49874837561347674,0.27489432314838386,0.08198282294926941,-0.19088510892594565,0.8782271057304583,0.7549962089795856,-0.2823934477755898,-1.6689674476322376,0.14139506045264305,2.403572976483239,1.0273453707612223,0.878092876070424,0.7554597494309409,-0.2825552651693207,-1.6690993614607135,0.1414185955172306,2.4034451173676383,1.0273381002308042,-0.00045294387093767157,0.0008789911040715528,0.000944410944500213,-0.0011733049806056989,0.0001644532995566893,-8.935790529869058e-05,-0.001166089559385349,0.0,0.0,0.0,0.0,0.0,0.0,0.0,-0.0001342296600342907,0.0004635404513552155,-0.00016181739373094528,-0.0001319138284758825,2.3535064587548726e-05,-0.00012785911560087015,-7.270530418157506e-06,0.00045294387093767157,-0.0008789911040715528,-0.000944410944500213,0.0011733049806056989,-0.0001644532995566893,8.935790529869058e-05,0.001166089559385349,0.7838374972343445,46.54800033569336,5.687466144561768,-19.757417678833008,-0.8563132882118225,-2.3522982597351074,0.17337362468242645,0
32,0.15499043464660645,-0.8076412081718445,-46.47658920288086,-5.663662433624268,19.686006546020508,0.8563132882118225,2.3458895683288574,-0.19351522624492645,0.0,0.0,0.0,0.0,0.0,0.0,0.0,-0.8257393302073499,-0.18353969068250556,-0.5116159389418918,0.49646310413753997,0.2753390328449694,0.08183343956985473,-0.1912981059371187,0.8782287761663136,0.7549910446071004,-0.28239511821144503,-1.6689624364377256,0.14139434571592982,2.403573688560062,1.0273476087169515,0.878092876070424,0.7554597494309409,-0.2825552651693207,-1.6690993614607135,0.1414185955172306,2.4034451173676383,1.0273381002308042,-6.581262444123171e-05,-0.0009673447378900359,-0.00039388749014239964,0.000659059281723902,0.00025111426795079565,0.00021220865707930145,0.00022546438716611805,0.0,0.0,0.0,0.0,0.0,0.0,0.0,-0.00013590009588959617,0.0004687048238404268,-0.00016014695787569533,-0.00013692502298789933,2.4249801300779694e-05,-0.00012857119242370985,-9.508486147336015e-06,6.581262444123171e-05,0.0009673447378900359,0.00039388749014239964,-0.000659059281723902,-0.00025111426795079565,-0.00021220865707930145,-0.00022546438716611805,0.8076412081718445,46.47658920288086,5.663662433624268,-19.686006546020508,-0.8563132882118225,-2.3458895683288574,0.19351522624492645,0
33,0.15999078750610352,-0.8076412081718445,-46.47658920288086,-5.663662433624268,19.686006546020508,0.8563132882118225,2.3458895683288574,-0.19351522624492645,0.0,0.0,0.0,0.0,0.0,0.0,0.0,-0.8257393302073499,-0.18353969068250556,-0.5116159389418918,0.49646310413753997,0.2753390328449694,0.08183343956985473,-0.1912981059371187,0.8782287761663136,0.7549910446071004,-0.28239511821144503,-1.6689624364377256,0.14139434571592982,2.403573688560062,1.0273476087169515,0.878092876070424,0.7554597494309409,-0.2825552651693207,-1.6690993614607135,0.1414185955172306,2.4034451173676383,1.0273381002308042,-6.581262444123171e-05,-0.0009673447378900359,-0.00039388749014239964,0.000659059281723902,0.00025111426795079565,0.00021220865707930145,0.00022546438716611805,0.0,0.0,0.0,0.0,0.0,0.0,0.0,-0.00013590009588959617,0.0004687048238404268,-0.00016014695787569533,-0.00013692502298789933,2.4249801300779694e-05,-0.00012857119242370985,-9.508486147336015e-06,6.581262444123171e-05,0.0009673447378900359,0.00039388749014239964,-0.000659059281723902,-0.00025111426795079565,-0.00021220865707930145,-0.00022546438716611805,0.8076412081718445,46.47658920288086,5.663662433624268,-19.686006546020508,-0.8563132882118225,-2.3458895683288574,0.19351522624492645,0
34,0.1650383472442627,-0.8076412081718445,-46.50039291381836,-5.711269855499268,19.709810256958008,0.8618064522743225,2.3522982597351074,-0.22830526530742645,0.0,0.0,0.0,0.0,0.0,0.0,0.0,-0.8170506020491746,-0.17371608358147295,-0.5043957459962614,0.4917026337563677,0.2752896470159981,0.08057240901827294,-0.1913726054436125,0.8782287761663136,0.7549912300958334,-0.28239177442354935,-1.6689641067605274,0.1413948053048734,2.403572976483239,1.0273514742768473,0.878092876070424,0.7554597494309409,-0.2825552651693207,-1.6690993614607135,0.1414185955172306,2.4034451173676383,1.0273381002308042,-0.00022455496512961644,-3.684159475108156e-05,0.0009158470137504976,-0.0003414760192875229,-4.1320967669255025e-05,-0.00028708355744579047,0.0014919774905255802,0.0,0.0,0.0,0.0,0.0,0.0,0.0,-0.00013590009588959617,0.0004685193351074979,-0.00016349074577137745,-0.00013525470018604935,2.3790212357210905e-05,-0.00012785911560087015,-1.3374046043068688e-05,0.00022455496512961644,3.684159475108156e-05,-0.0009158470137504976,0.0003414760192875229,4.1320967669255025e-05,0.00028708355744579047,-0.0014919774905255802,0.8076412081718445,46.50039291381836,5.711269855499268,-19.709810256958008,-0.8618064522743225,-2.3522982597351074,0.22830526530742645,0
35,0.16999530792236328,-0.8076412081718445,-46.50039291381836,-5.711269855499268,19.709810256958008,0.8618064522743225,2.3522982597351074,-0.22830526530742645,0.0,0.0,0.0,0.0,0.0,0.0,0.0,-0.8170506020491746,-0.17371608358147295,-0.5043957459962614,0.4917026337563677,0.2752896470159981,0.08057240901827294,-0.1913726054436125,0.8782287761663136,0.7549912300958334,-0.28239177442354935,-1.6689641067605274,0.1413948053048734,2.403572976483239,1.0273514742768473,0.878092876070424,0.7554597494309409,-0.2825552651693207,-1.6690993614607135,0.1414185955172306,2.4034451173676383,1.0273381002308042,-0.00022455496512961644,-3.684159475108156e-05,0.0009158470137504976,-0.0003414760192875229,-4.1320967669255025e-05,-0.00028708355744579047,0.0014919774905255802,0.0,0.0,0.0,0.0,0.0,0.0,0.0,-0.00013590009588959617,0.0004685193351074979,-0.00016349074577137745,-0.00013525470018604935,2.3790212357210905e-05,-0.00012785911560087015,-1.3374046043068688e-05,0.00022455496512961644,3.684159475108156e-05,-0.0009158470137504976,0.0003414760192875229,4.1320967669255025e-05,0.00028708355744579047,-0.0014919774905255802,0.8076412081718445,46.50039291381836,5.711269855499268,-19.709810256958008,-0.8618064522743225,-2.3522982597351074,0.22830526530742645,0
36,0.1749413013458252,-0.8354122042655945,-46.50039291381836,-5.687466144561768,19.733613967895508,0.8618064522743225,2.3596224784851074,-0.15964071452617645,0.0,0.0,0.0,0.0,0.0,0.0,0.0,-0.8183762450191249,-0.17294733040920346,-0.5049012138793769,0.49085332994452474,0.2750381171363495,0.0806291903909105,-0.19065729761251765,0.8782307250081447,0.7549913082312542,-0.2823934477755733,-1.6689657803618916,0.1413937392125606,2.4035721626811557,1.0273442069253436,0.878092876070424,0.7554597494309409,-0.2825552651693207,-1.6690993614607135,0.1414185955172306,2.4034451173676383,1.0273381002308042,0.0003824546232520466,0.0006478112870445896,-8.335956997197715e-05,-0.000974759524544072,-0.00030987761846661463,-0.0003783529594761835,-0.001494825345303368,0.0,0.0,0.0,0.0,0.0,0.0,0.0,-0.00013784893772073037,0.00046844119968669773,-0.0001618173937474321,-0.00013358109882188884,2.4856304670001217e-05,-0.00012704531351737103,-6.1066945393761785e-06,-0.0003824546232520466,-0.0006478112870445896,8.335956997197715e-05,0.000974759524544072,0.00030987761846661463,0.0003783529594761835,0.001494825345303368,0.8354122042655945,46.50039291381836,5.687466144561768,-19.733613967895508,-0.8618064522743225,-2.3596224784851074,0.15964071452617645,0
37,0.17994976043701172,-0.8354122042655945,-46.50039291381836,-5.687466144561768,19.733613967895508,0.8618064522743225,2.3596224784851074,-0.15964071452617645,0.0,0.0,0.0,0.0,0.0,0.0,0.0,-0.8183762450191249,-0.17294733040920346,-0.5049012138793769,0.49085332994452474,0.2750381171363495,0.0806291903909105,-0.19065729761251765,0.8782307250081447,0.7549913082312542,-0.2823934477755733,-1.6689657803618916,0.1413937392125606,2.4035721626811557,1.0273442069253436,0.878092876070424,0.7554597494309409,-0.2825552651693207,-1.6690993614607135,0.1414185955172306,2.4034451173676383,1.0273381002308042,0.0003824546232520466,0.0006478112870445896,-8.335956997197715e-05,-0.000974759524544072,-0.00030987761846661463,-0.0003783529594761835,-0.001494825345303368,0.0,0.0,0.0,0.0,0.0,0.0,0.0,-0.00013784893772073037,0.00046844119968669773,-0.0001618173937474321,-0.00013358109882188884,2.4856304670001217e-05,-0.00012704531351737103,-6.1066945393761785e-06,-0.0003824546232520466,-0.0006478112870445896,8.335956997197715e-05,0.000974759524544072,0.00030987761846661463,0.0003783529594761835,0.001494825345303368,0.8354122042655945,46.50039291381836,5.687466144561768,-19.733613967895508,-0.8618064522743225,-2.3596224784851074,0.15964071452617645,0
38,0.1850118637084961,-0.8354122042655945,-46.52419662475586,-5.663662433624268,19.709810256958008,0.8618064522743225,2.3596224784851074,-0.21457235515117645,0.0,0.0,0.0,0.0,0.0,0.0,0.0,-0.8287459249637718,-0.1867534368384049,-0.5139084730458304,0.49994316929359994,0.2751638331815396,0.08267339692304297,-0.1910160163813337,0.8782307250081447,0.7549921985134865,-0.282395118211445,-1.6689641067605447,0.14139445140141252,2.4035721626811557,1.027349952869652,0.878092876070424,0.7554597494309409,-0.2825552651693207,-1.6690993614607135,0.1414185955172306,2.4034451173676383,1.0273381002308042,-0.00037258564277609064,0.00045731553981403854,-0.0006033303574630851,-0.00016560444799719085,3.978483422980608e-05,-0.0005116670550877451,0.0013938969405755763,0.0,0.0,0.0,0.0,0.0,0.0,0.0,-0.00013784893772073037,0.000467550917454318,-0.00016014695787575084,-0.00013525470016872987,2.414411581808107e-05,-0.00012704531351737103,-1.1852638847731356e-05,0.00037258564277609064,-0.00045731553981403854,0.0006033303574630851,0.00016560444799719085,-3.978483422980608e-05,0.0005116670550877451,-0.0013938969405755763,0.8354122042655945,46.52419662475586,5.663662433624268,-19.709810256958008,-0.8618064522743225,-2.3596224784851074,0.21457235515117645,0
39,0.1899399757385254,-0.8354122042655945,-46.52419662475586,-5.663662433624268,19.709810256958008,0.8618064522743225,2.3596224784851074,-0.21457235515117645,0.0,0.0,0.0,0.0,0.0,0.0,0.0,-0.8287459249637718,-0.1867534368384049,-0.5139084730458304,0.49994316929359994,0.2751638331815396,0.08267339692304297,-0.1910160163813337,0.8782307250081447,0.7549921985134865,-0.282395118211445,-1.6689641067605447,0.14139445140141252,2.4035721626811557,1.027349952869652,0.878092876070424,0.7554597494309409,-0.2825552651693207,-1.6690993614607135,0.1414185955172306,2.4034451173676383,1.0273381002308042,-0.00037258564277609064,0.00045731553981403854,-0.0006033303574630851,-0.00016560444799719085,3.978483422980608e-05,-0.0005116670550877451,0.0013938969405755763,0.0,0.0,0.0,0.0,0.0,0.0,0.0,-0.00013784893772073037,0.000467550917454318,-0.00016014695787575084,-0.00013525470016872987,2.414411581808107e-05,-0.00012704531351737103,-1.1852638847731356e-05,0.00037258564277609064,-0.00045731553981403854,0.0006033303574630851,0.00016560444799719085,-3.978483422980608e-05,0.0005116670550877451,-0.0013938969405755763,0.8354122042655945,46.52419662475586,5.663662433624268,-19.709810256958008,-0.8618064522743225,-2.3596224784851074,0.21457235515117645,0
40,0.19493770599365234,-0.7838374972343445,-46.50039291381836,-5.663662433624268,19.709810256958008,0.8737083077430725,2.3522982597351074,-0.14590780436992645,0.0,0.0,0.0,0.0,0.0,0.0,0.0,-0.805905938514583,-0.17232134112629321,-0.4950461000768969,0.4962208316135696,0.2748903251886922,0.08170923530336531,-0.19105684227159414,0.8782271057304583,0.7549906060743673,-0.282395118211445,-1.668964106760527,0.14138920174807518,2.403572976483239,1.0273423190034352,0.878092876070424,0.7554597494309409,-0.2825552651693207,-1.6690993614607135,0.1414185955172306,2.4034451173676383,1.0273381002308042,-0.0006484757855170989,7.684871847184123e-05,-0.0004939227203276028,-0.00036875187707877203,-0.00038101364943449433,-5.822310328499357e-05,-0.0020446911991660595,0.0,0.0,0.0,0.0,0.0,0.0,0.0,-0.0001342296600342907,0.00046914335657355366,-0.00016014695787575084,-0.00013525470018649344,2.9393769155422467e-05,-0.00012785911560087015,-4.218772631015e-06,0.0006484757855170989,-7.684871847184123e-05,0.0004939227203276028,0.00036875187707877203,0.00038101364943449433,5.822310328499357e-05,0.0020446911991660595,0.7838374972343445,46.50039291381836,5.663662433624268,-19.709810256958008,-0.8737083077430725,-2.3522982597351074,0.14590780436992645,0
41,0.19999289512634277,-0.7838374972343445,-46.50039291381836,-5.663662433624268,19.709810256958008,0.8737083077430725,2.3522982597351074,-0.14590780436992645,0.0,0.0,0.0,0.0,0.0,0.0,0.0,-0.805905938514583,-0.17232134112629321,-0.4950461000768969,0.4962208316135696,0.2748903251886922,0.08170923530336531,-0.19105684227159414,0.8782271057304583,0.7549906060743673,-0.282395118211445,-1.668964106760527,0.14138920174807518,2.403572976483239,1.0273423190034352,0.878092876070424,0.7554597494309409,-0.2825552651693207,-1.6690993614607135,0.1414185955172306,2.4034451173676383,1.0273381002308042,-0.0006484757855170989,7.684871847184123e-05,-0.0004939227203276028,-0.00036875187707877203,-0.00038101364943449433,-5.822310328499357e-05,-0.0020446911991660595,0.0,0.0,0.0,0.0,0.0,0.0,0.0,-0.0001342296600342907,0.00046914335657355366,-0.00016014695787575084,-0.00013525470018649344,2.9393769155422467e-05,-0.00012785911560087015,-4.218772631015e-06,0.0006484757855170989,-7.684871847184123e-05,0.0004939227203276028,0.00036875187707877203,0.00038101364943449433,5.822310328499357e-05,0.0020446911991660595,0.7838374972343445,46.50039291381836,5.663662433624268,-19.709810256958008,-0.8737083077430725,-2.3522982597351074,0.14590780436992645,0
42,0.20502853393554688,-0.7838374972343445,-46.50039291381836,-5.663662433624268,19.709810256958008,0.8737083077430725,2.3522982597351074,-0.14590780436992645,0.0,0.0,0.0,0.0,0.0,0.0,0.0,-0.805905938514583,-0.17232134112629321,-0.4950461000768969,0.4962208316135696,0.2748903251886922,0.08170923530336531,-0.19105684227159414,0.8782271057304583,0.7549906060743673,-0.282395118211445,-1.668964106760527,0.14138920174807518,2.403572976483239,1.0273423190034352,0.878092876070424,0.7554597494309409,-0.2825552651693207,-1.6690993614607135,0.1414185955172306,2.4034451173676383,1.0273381002308042,-0.0006484757855170989,7.684871847184123e-05,-0.0004939227203276028,-0.00036875187707877203,-0.00038101364943449433,-5.822310328499357e-05,-0.0020446911991660595,0.0,0.0,0.0,0.0,0.0,0.0,0.0,-0.0001342296600342907,0.00046914335657355366,-0.00016014695787575084,-0.00013525470018649344,2.9393769155422467e-05,-0.00012785911560087015,-4.218772631015e-06,0.0006484757855170989,-7.684871847184123e-05,0.0004939227203276028,0.00036875187707877203,0.00038101364943449433,5.822310328499357e-05,0.0020446911991660595,0.7838374972343445,46.50039291381836,5.663662433624268,-19.709810256958008,-0.8737083077430725,-2.3522982597351074,0.14590780436992645,0
43,0.20999932289123535,-0.7838374972343445,-46.50039291381836,-5.663662433624268,19.709810256958008,0.8737083077430725,2.3522982597351074,-0.14590780436992645,0.0,0.0,0.0,0.0,0.0,0.0,0.0,-0.805905938514583,-0.17232134112629321,-0.4950461000768969,0.4962208316135696,0.2748903251886922,0.08170923530336531,-0.19105684227159414,0.8782271057304583,0.7549906060743673,-0.282395118211445,-1.668964106760527,0.14138920174807518,2.403572976483239,1.0273423190034352,0.878092876070424,0.7554597494309409,-0.2825552651693207,-1.6690993614607135,0.1414185955172306,2.4034451173676383,1.0273381002308042,-0.0006484757855170989,7.684871847184123e-05,-0.0004939227203276028,-0.00036875187707877203,-0.00038101364943449433,-5.822310328499357e-05,-0.0020446911991660595,0.0,0.0,0.0,0.0,0.0,0.0,0.0,-0.0001342296600342907,0.00046914335657355366,-0.00016014695787575084,-0.00013525470018649344,2.9393769155422467e-05,-0.00012785911560087015,-4.218772631015e-06,0.0006484757855170989,-7.684871847184123e-05,0.0004939227203276028,0.00036875187707877203,0.00038101364943449433,5.822310328499357e-05,0.0020446911991660595,0.7838374972343445,46.50039291381836,5.663662433624268,-19.709810256958008,-0.8737083077430725,-2.3522982597351074,0.14590780436992645,0
44,0.21503782272338867,-0.8354122042655945,-46.52419662475586,-5.711269855499268,19.658235549926758,0.8682151436805725,2.3522982597351074,-0.20083944499492645,0.0,0.0,0.0,0.0,0.0,0.0,0.0,-0.82120738171392,-0.17787826180833988,-0.5081680988852387,0.49840081058975183,0.27572892877150246,0.08273451226183853,-0.19091432537342962,0.8782307250081447,0.7549922111352217,-0.2823917773397345,-1.6689607347317372,0.14139408156301544,2.403572976483239,1.0273484225190348,0.878092876070424,0.7554597494309409,-0.2825552651693207,-1.6690993614607135,0.1414185955172306,2.4034451173676383,1.0273381002308042,0.00018491201322039865,-0.00013707218075946704,0.0008866372680543966,0.0010933539090489924,-0.0003440087968645048,0.00017111771419744636,0.000805913104923063,0.0,0.0,0.0,0.0,0.0,0.0,0.0,-0.00013784893772073037,0.00046753829571910543,-0.00016348782958625074,-0.00013862672897624329,2.451395421515512e-05,-0.00012785911560087015,-1.0322288230613097e-05,-0.00018491201322039865,0.00013707218075946704,-0.0008866372680543966,-0.0010933539090489924,0.0003440087968645048,-0.00017111771419744636,-0.000805913104923063,0.8354122042655945,46.52419662475586,5.711269855499268,-19.658235549926758,-0.8682151436805725,-2.3522982597351074,0.20083944499492645,0
45,0.21999597549438477,-0.8354122042655945,-46.52419662475586,-5.711269855499268,19.658235549926758,0.8682151436805725,2.3522982597351074,-0.20083944499492645,0.0,0.0,0.0,0.0,0.0,0.0,0.0,-0.82120738171392,-0.17787826180833988,-0.5081680988852387,0.49840081058975183,0.27572892877150246,0.08273451226183853,-0.19091432537342962,0.8782307250081447,0.7549922111352217,-0.2823917773397345,-1.6689607347317372,0.14139408156301544,2.403572976483239,1.0273484225190348,0.878092876070424,0.7554597494309409,-0.2825552651693207,-1.6690993614607135,0.1414185955172306,2.4034451173676383,1.0273381002308042,0.00018491201322039865,-0.00013707218075946704,0.0008866372680543966,0.0010933539090489924,-0.0003440087968645048,0.00017111771419744636,0.000805913104923063,0.0,0.0,0.0,0.0,0.0,0.0,0.0,-0.00013784893772073037,0.00046753829571910543,-0.00016348782958625074,-0.00013862672897624329,2.451395421515512e-05,-0.00012785911560087015,-1.0322288230613097e-05,-0.00018491201322039865,0.00013707218075946704,-0.0008866372680543966,-0.0010933539090489924,0.0003440087968645048,-0.00017111771419744636,-0.000805913104923063,0.8354122042655945,46.52419662475586,5.711269855499268,-19.658235549926758,-0.8682151436805725,-2.3522982597351074,0.20083944499492645,0
46,0.22493910789489746,-0.8076412081718445,-46.52419662475586,-5.687466144561768,19.709810256958008,0.8563132882118225,2.3458895683288574,-0.22830526530742645,0.0,0.0,0.0,0.0,0.0,0.0,0.0,-0.8208503287282043,-0.17250782050353863,-0.506851899709378,0.49384089238227774,0.27530211150972494,0.0829331751904771,-0.19139987715473614,0.8782287761663136,0.7549950845513365,-0.2823934477755897,-1.6689641067996073,0.1413952978932118,2.403573688560062,1.0273514742768473,0.878092876070424,0.7554597494309409,-0.2825552651693207,-1.6690993614607135,0.1414185955172306,2.4034451173676383,1.0273381002308042,-0.00014481403899216835,0.00022740515212233417,0.0002606550337374528,-0.00031235920771910283,3.4694665568829796e-05,0.00021278141163640416,0.0016716480592379207,0.0,0.0,0.0,0.0,0.0,0.0,0.0,-0.00013590009588959617,0.00046466487960439284,-0.0001618173937310008,-0.00013525466110619888,2.3297624018786545e-05,-0.00012857119242370985,-1.3374046043068688e-05,0.00014481403899216835,-0.00022740515212233417,-0.0002606550337374528,0.00031235920771910283,-3.4694665568829796e-05,-0.00021278141163640416,-0.0016716480592379207,0.8076412081718445,46.52419662475586,5.687466144561768,-19.709810256958008,-0.8563132882118225,-2.3458895683288574,0.22830526530742645,0
47,0.22998666763305664,-0.8076412081718445,-46.52419662475586,-5.687466144561768,19.709810256958008,0.8563132882118225,2.3458895683288574,-0.22830526530742645,0.0,0.0,0.0,0.0,0.0,0.0,0.0,-0.8208503287282043,-0.17250782050353863,-0.506851899709378,0.49384089238227774,0.27530211150972494,0.0829331751904771,-0.19139987715473614,0.8782287761663136,0.7549950845513365,-0.2823934477755897,-1.6689641067996073,0.1413952978932118,2.403573688560062,1.0273514742768473,0.878092876070424,0.7554597494309409,-0.2825552651693207,-1.6690993614607135,0.1414185955172306,2.4034451173676383,1.0273381002308042,-0.00014481403899216835,0.00022740515212233417,0.0002606550337374528,-0.00031235920771910283,3.4694665568829796e-05,0.00021278141163640416,0.0016716480592379207,0.0,0.0,0.0,0.0,0.0,0.0,0.0,-0.00013590009588959617,0.00046466487960439284,-0.0001618173937310008,-0.00013525466110619888,2.3297624018786545e-05,-0.00012857119242370985,-1.3374046043068688e-05,0.00014481403899216835,-0.00022740515212233417,-0.0002606550337374528,0.00031235920771910283,-3.4694665568829796e-05,-0.00021278141163640416,-0.0016716480592379207,0.8076412081718445,46.52419662475586,5.687466144561768,-19.709810256958008,-0.8563132882118225,-2.3458895683288574,0.22830526530742645,0
48,0.23500466346740723,-0.8076412081718445,-46.50039291381836,-5.687466144561768,19.709810256958008,0.8618064522743225,2.3522982597351074,-0.20083944499492645,0.0,0.0,0.0,0.0,0.0,0.0,0.0,-0.8126832613949025,-0.17164794819893409,-0.5019363524794804,0.4928585195510473,0.27470719327239684,0.08283351930696455,-0.1913827712786885,0.8782287761663136,0.7549926431406703,-0.2823934477755897,-1.6689641067605274,0.14139369961105516,2.403572976483239,1.0273484225190348,0.878092876070424,0.7554597494309409,-0.2825552651693207,-1.6690993614607135,0.1414185955172306,2.4034451173676383,1.0273381002308042,0.00042610915146897927,4.5669795632211007e-05,0.00022740901383877068,-0.0001806104266007739,-2.9942277255245972e-05,-0.000325636724877578,0.000590954286057329,0.0,0.0,0.0,0.0,0.0,0.0,0.0,-0.00013590009588959617,0.00046710629027058026,-0.0001618173937310008,-0.00013525470018604935,2.4895906175437243e-05,-0.00012785911560087015,-1.0322288230613097e-05,-0.00042610915146897927,-4.5669795632211007e-05,-0.00022740901383877068,0.0001806104266007739,2.9942277255245972e-05,0.000325636724877578,-0.000590954286057329,0.8076412081718445,46.50039291381836,5.687466144561768,-19.709810256958008,-0.8618064522743225,-2.3522982597351074,0.20083944499492645,0
49,0.2400050163269043,-0.8076412081718445,-46.50039291381836,-5.687466144561768,19.709810256958008,0.8618064522743225,2.3522982597351074,-0.20083944499492645,0.0,0.0,0.0,0.0,0.0,0.0,0.0,-0.8126832613949025,-0.17164794819893409,-0.5019363524794804,0.4928585195510473,0.27470719327239684,0.08283351930696455,-0.1913827712786885,0.8782287761663136,0.7549926431406703,-0.2823934477755897,-1.6689641067605274,0.14139369961105516,2.403572976483239,1.0273484225190348,0.878092876070424,0.7554597494309409,-0.2825552651693207,-1.6690993614607135,0.1414185955172306,2.4034451173676383,1.0273381002308042,0.00042610915146897927,4.5669795632211007e-05,0.00022740901383877068,-0.0001806104266007739,-2.9942277255245972e-05,-0.000325636724877578,0.000590954286057329,0.0,0.0,0.0,0.0,0.0,0.0,0.0,-0.00013590009588959617,0.00046710629027058026,-0.0001618173937310008,-0.00013525470018604935,2.4895906175437243e-05,-0.00012785911560087015,-1.0322288230613097e-05,-0.00042610915146897927,-4.5669795632211007e-05,-0.00022740901383877068,0.0001806104266007739,2.9942277255245972e-05,0.000325636724877578,-0.000590954286057329,0.8076412081718445,46.50039291381836,5.687466144561768,-19.709810256958008,-0.8618064522743225,-2.3522982597351074,0.20083944499492645,0
50,0.24500179290771484,-0.8076412081718445,-46.50039291381836,-5.711269855499268,19.733613967895508,0.8618064522743225,2.3394808769226074,-0.16604940593242645,0.0,0.0,0.0,0.0,0.0,0.0,0.0,-0.8276554500015856,-0.1742936106335007,-0.5175240649214405,0.4921644043694987,0.27481618314390516,0.08231911079181742,-0.19178947819005002,0.8782287761663136,0.7549905310731356,-0.28239177735173526,-1.6689657771963822,0.14139428092713083,2.403574400636885,1.0273449190021666,0.878092876070424,0.7554597494309409,-0.2825552651693207,-1.6690993614607135,0.1414185955172306,2.4034451173676383,1.0273381002308042,-0.00010480487035507696,0.00016926862312985187,0.0004266248789846095,-0.0006297688065322227,-0.00012389571996219553,0.00025136128523900816,-0.0007871023225248601,0.0,0.0,0.0,0.0,0.0,0.0,0.0,-0.00013590009588959617,0.00046921835780522336,-0.0001634878175854615,-0.000133584264331299,2.4314590099772104e-05,-0.00012928326924654954,-6.818771362437914e-06,0.00010480487035507696,-0.00016926862312985187,-0.0004266248789846095,0.0006297688065322227,0.00012389571996219553,-0.00025136128523900816,0.0007871023225248601,0.8076412081718445,46.50039291381836,5.711269855499268,-19.733613967895508,-0.8618064522743225,-2.3394808769226074,0.16604940593242645,0
51,0.24999451637268066,-0.8076412081718445,-46.50039291381836,-5.711269855499268,19.733613967895508,0.8618064522743225,2.3394808769226074,-0.16604940593242645,0.0,0.0,0.0,0.0,0.0,0.0,0.0,-0.8276554500015856,-0.1742936106335007,-0.5175240649214405,0.4921644043694987,0.27481618314390516,0.08231911079181742,-0.19178947819005002,0.8782287761663136,0.7549905310731356,-0.28239177735173526,-1.6689657771963822,0.14139428092713083,2.403574400636885,1.0273449190021666,0.878092876070424,0.7554597494309409,-0.2825552651693207,-1.6690993614607135,0.1414185955172306,2.4034451173676383,1.0273381002308042,-0.00010480487035507696,0.00016926862312985187,0.0004266248789846095,-0.0006297688065322227,-0.00012389571996219553,0.00025136128523900816,-0.0007871023225248601,0.0,0.0,0.0,0.0,0.0,0.0,0.0,-0.00013590009588959617,0.00046921835780522336,-0.0001634878175854615,-0.000133584264331299,2.4314590099772104e-05,-0.00012928326924654954,-6.818771362437914e-06,0.00010480487035507696,-0.00016926862312985187,-0.0004266248789846095,0.0006297688065322227,0.00012389571996219553,-0.00025136128523900816,0.0007871023225248601,0.8076412081718445,46.50039291381836,5.711269855499268,-19.733613967895508,-0.8618064522743225,-2.3394808769226074,0.16604940593242645,0
52,0.2549431324005127,-0.8076412081718445,-46.44881820678711,-5.663662433624268,19.709810256958008,0.8563132882118225,2.3522982597351074,-0.20724813640117645,0.0,0.0,0.0,0.0,0.0,0.0,0.0,-0.8162162095473926,-0.17518802788670632,-0.5106094752187172,0.4947342270390351,0.2746235749925715,0.08217252242668001,-0.19157775456548526,0.8782287761663136,0.7549869868323635,-0.2823951182114451,-1.668964106760527,0.14139181042691573,2.403572976483239,1.0273491345979013,0.878092876070424,0.7554597494309409,-0.2825552651693207,-1.6690993614607135,0.1414185955172306,2.4034451173676383,1.0273381002308042,-0.00046630602181072384,-0.0012438000864625053,0.00016732038146650703,-0.0001146563001329945,0.00011556257047699514,-0.0002247580192304819,0.0002543826556856754,0.0,0.0,0.0,0.0,0.0,0.0,0.0,-0.00013590009588959617,0.0004727625985773143,-0.00016014695787563982,-0.00013525470018649344,2.6785090314868087e-05,-0.00012785911560087015,-1.1034367097151332e-05,0.00046630602181072384,0.0012438000864625053,-0.00016732038146650703,0.0001146563001329945,-0.00011556257047699514,0.0002247580192304819,-0.0002543826556856754,0.8076412081718445,46.44881820678711,5.663662433624268,-19.709810256958008,-0.8563132882118225,-2.3522982597351074,0.20724813640117645,0
53,0.2599921226501465,-0.8076412081718445,-46.44881820678711,-5.663662433624268,19.709810256958008,0.8563132882118225,2.3522982597351074,-0.20724813640117645,0.0,0.0,0.0,0.0,0.0,0.0,0.0,-0.8162162095473926,-0.17518802788670632,-0.5106094752187172,0.4947342270390351,0.2746235749925715,0.08217252242668001,-0.19157775456548526,0.8782287761663136,0.7549869868323635,-0.2823951182114451,-1.668964106760527,0.14139181042691573,2.403572976483239,1.0273491345979013,0.878092876070424,0.7554597494309409,-0.2825552651693207,-1.6690993614607135,0.1414185955172306,2.4034451173676383,1.0273381002308042,-0.00046630602181072384,-0.0012438000864625053,0.00016732038146650703,-0.0001146563001329945,0.00011556257047699514,-0.0002247580192304819,0.0002543826556856754,0.0,0.0,0.0,0.0,0.0,0.0,0.0,-0.00013590009588959617,0.0004727625985773143,-0.00016014695787563982,-0.00013525470018649344,2.6785090314868087e-05,-0.00012785911560087015,-1.1034367097151332e-05,0.00046630602181072384,0.0012438000864625053,-0.00016732038146650703,0.0001146563001329945,-0.00011556257047699514,0.0002247580192304819,-0.0002543826556856754,0.8076412081718445,46.44881820678711,5.663662433624268,-19.709810256958008,-0.8563132882118225,-2.3522982597351074,0.20724813640117645,0
54,0.26506638526916504,-0.8076412081718445,-46.47658920288086,-5.663662433624268,19.709810256958008,0.8563132882118225,2.3458895683288574,-0.17337362468242645,0.0,0.0,0.0,0.0,0.0,0.0,0.0,-0.8170205522093146,-0.17455627965391948,-0.5077809617408587,0.49569915031268863,0.27445222414464016,0.08191310005618083,-0.19182109291224098,0.8782287761663136,0.7549895596480731,-0.28239511821144503,-1.668964106760527,0.1413952465181883,2.403573688560062,1.0273453707612223,0.878092876070424,0.7554597494309409,-0.2825552651693207,-1.6690993614607135,0.1414185955172306,2.4034451173676383,1.0273381002308042,-0.0004921295551359388,-0.0005679697491008099,-1.166317443730962e-05,-0.00015510442756752274,0.00015209868337961912,0.0001580165014925301,-0.0005226163323930802,0.0,0.0,0.0,0.0,0.0,0.0,0.0,-0.00013590009588959617,0.00047018978286772484,-0.00016014695787569533,-0.00013525470018649344,2.33489990422997e-05,-0.00012857119242370985,-7.270530418157506e-06,0.0004921295551359388,0.0005679697491008099,1.166317443730962e-05,0.00015510442756752274,-0.00015209868337961912,-0.0001580165014925301,0.0005226163323930802,0.8076412081718445,46.47658920288086,5.663662433624268,-19.709810256958008,-0.8563132882118225,-2.3458895683288574,0.17337362468242645,0
55,0.26999998092651367,-0.8076412081718445,-46.47658920288086,-5.663662433624268,19.709810256958008,0.8563132882118225,2.3458895683288574,-0.17337362468242645,0.0,0.0,0.0,0.0,0.0,0.0,0.0,-0.8170205522093146,-0.17455627965391948,-0.5077809617408587,0.49569915031268863,0.27445222414464016,0.08191310005618083,-0.19182109291224098,0.8782287761663136,0.7549895596480731,-0.28239511821144503,-1.668964106760527,0.1413952465181883,2.403573688560062,1.0273453707612223,0.878092876070424,0.7554597494309409,-0.2825552651693207,-1.6690993614607135,0.1414185955172306,2.4034451173676383,1.0273381002308042,-0.0004921295551359388,-0.0005679697491008099,-1.166317443730962e-05,-0.00015510442756752274,0.00015209868337961912,0.0001580165014925301,-0.0005226163323930802,0.0,0.0,0.0,0.0,0.0,0.0,0.0,-0.00013590009588959617,0.00047018978286772484,-0.00016014695787569533,-0.00013525470018649344,2.33489990422997e-05,-0.00012857119242370985,-7.270530418157506e-06,0.0004921295551359388,0.0005679697491008099,1.166317443730962e-05,0.00015510442756752274,-0.00015209868337961912,-0.0001580165014925301,0.0005226163323930802,0.8076412081718445,46.47658920288086,5.663662433624268,-19.709810256958008,-0.8563132882118225,-2.3458895683288574,0.17337362468242645,0
56,0.2750380039215088,-0.8076412081718445,-46.52419662475586,-5.711269855499268,19.709810256958008,0.8499045968055725,2.3596224784851074,-0.17337362468242645,0.0,0.0,0.0,0.0,0.0,0.0,0.0,-0.8885057014580184,-0.19294128772109245,-0.563112257796323,0.4998452620816763,0.27579459615842056,0.08372133088214499,-0.19063554667505433,0.8782287761663136,0.7549943045438273,-0.28239177733973453,-1.668964106760527,0.14139611527886112,2.4035721626811557,1.0273453707612223,0.878092876070424,0.7554597494309409,-0.2825552651693207,-1.6690993614607135,0.1414185955172306,2.4034451173676383,1.0273381002308042,5.98528989430476e-05,0.0005171475380294448,0.002871928544041565,-0.0004166698854153412,0.0003661063972803955,-0.0003568223711157234,-0.0007628281400389542,0.0,0.0,0.0,0.0,0.0,0.0,0.0,-0.00013590009588959617,0.0004654448871135308,-0.00016348782958619523,-0.00013525470018649344,2.248023836948221e-05,-0.00012704531351737103,-7.270530418157506e-06,-5.98528989430476e-05,-0.0005171475380294448,-0.002871928544041565,0.0004166698854153412,-0.0003661063972803955,0.0003568223711157234,0.0007628281400389542,0.8076412081718445,46.52419662475586,5.711269855499268,-19.709810256958008,-0.8499045968055725,-2.3596224784851074,0.17337362468242645,0
57,0.2799952030181885,-0.8076412081718445,-46.52419662475586,-5.711269855499268,19.709810256958008,0.8499045968055725,2.3596224784851074,-0.17337362468242645,0.0,0.0,0.0,0.0,0.0,0.0,0.0,-0.8885057014580184,-0.19294128772109245,-0.563112257796323,0.4998452620816763,0.27579459615842056,0.08372133088214499,-0.19063554667505433,0.8782287761663136,0.7549943045438273,-0.28239177733973453,-1.668964106760527,0.14139611527886112,2.4035721626811557,1.0273453707612223,0.878092876070424,0.7554597494309409,-0.2825552651693207,-1.6690993614607135,0.1414185955172306,2.4034451173676383,1.0273381002308042,5.98528989430476e-05,0.0005171475380294448,0.002871928544041565,-0.0004166698854153412,0.0003661063972803955,-0.0003568223711157234,-0.0007628281400389542,0.0,0.0,0.0,0.0,0.0,0.0,0.0,-0.00013590009588959617,0.0004654448871135308,-0.00016348782958619523,-0.00013525470018649344,2.248023836948221e-05,-0.00012704531351737103,-7.270530418157506e-06,-5.98528989430476e-05,-0.0005171475380294448,-0.002871928544041565,0.0004166698854153412,-0.0003661063972803955,0.0003568223711157234,0.0007628281400389542,0.8076412081718445,46.52419662475586,5.711269855499268,-19.709810256958008,-0.8499045968055725,-2.3596224784851074,0.17337362468242645,0
58,0.284959077835083,-0.8354122042655945,-46.52419662475586,-5.635891437530518,19.658235549926758,0.8563132882118225,2.3522982597351074,-0.20724813640117645,0.0,0.0,0.0,0.0,0.0,0.0,0.0,-0.8394274994541533,-0.1794161895662897,-0.5244597140858631,0.4953619691236754,0.2745823653305574,0.08340461737622097,-0.18914458873942788,0.8782307250081447,0.7549924585247714,-0.2823970670532762,-1.66896051495494,0.1413943515142327,2.403572976483239,1.0273491345958576,0.878092876070424,0.7554597494309409,-0.2825552651693207,-1.6690993614607135,0.1414185955172306,2.4034451173676383,1.0273381002308042,0.00034333591877794625,0.00022959369354036375,-0.00047935502724151383,0.0011240403892457415,7.090666191405208e-05,0.00021260578669508238,0.0004482793410932623,0.0,0.0,0.0,0.0,0.0,0.0,0.0,-0.00013784893772073037,0.0004672909061694819,-0.00015819811604450562,-0.00013884650577344892,2.4244002997886316e-05,-0.00012785911560087015,-1.1034365053452788e-05,-0.00034333591877794625,-0.00022959369354036375,0.00047935502724151383,-0.0011240403892457415,-7.090666191405208e-05,-0.00021260578669508238,-0.0004482793410932623,0.8354122042655945,46.52419662475586,5.635891437530518,-19.658235549926758,-0.8563132882118225,-2.3522982597351074,0.20724813640117645,0
59,0.28995466232299805,-0.8354122042655945,-46.52419662475586,-5.635891437530518,19.658235549926758,0.8563132882118225,2.3522982597351074,-0.20724813640117645,0.0,0.0,0.0,0.0,0.0,0.0,0.0,-0.8394274994541533,-0.1794161895662897,-0.5244597140858631,0.4953619691236754,0.2745823653305574,0.08340461737622097,-0.18914458873942788,0.8782307250081447,0.7549924585247714,-0.2823970670532762,-1.66896051495494,0.1413943515142327,2.403572976483239,1.0273491345958576,0.878092876070424,0.7554597494309409,-0.2825552651693207,-1.6690993614607135,0.1414185955172306,2.4034451173676383,1.0273381002308042,0.00034333591877794625,0.00022959369354036375,-0.00047935502724151383,0.0011240403892457415,7.090666191405208e-05,0.00021260578669508238,0.0004482793410932623,0.0,0.0,0.0,0.0,0.0,0.0,0.0,-0.00013784893772073037,0.0004672909061694819,-0.00015819811604450562,-0.00013884650577344892,2.4244002997886316e-05,-0.00012785911560087015,-1.1034365053452788e-05,-0.00034333591877794625,-0.00022959369354036375,0.00047935502724151383,-0.0011240403892457415,-7.090666191405208e-05,-0.00021260578669508238,-0.0004482793410932623,0.8354122042655945,46.52419662475586,5.635891437530518,-19.658235549926758,-0.8563132882118225,-2.3522982597351074,0.20724813640117645,0
60,0.29494786262512207,-0.8354122042655945,-46.50039291381836,-5.663662433624268,19.686006546020508,0.8563132882118225,2.3522982597351074,-0.20083944499492645,0.0,0.0,0.0,0.0,0.0,0.0,0.0,-0.8095639832666216,-0.1772014582111521,-0.49830678285829483,0.49243350586042617,0.2736457887926658,0.083694191217309,-0.1902130401342104,0.8782307250081447,0.7549912330808842,-0.28239511821144503,-1.6689624637969265,0.14139221833650065,2.403572976483239,1.027348424008924,0.878092876070424,0.7554597494309409,-0.2825552651693207,-1.6690993614607135,0.1414185955172306,2.4034451173676383,1.0273381002308042,-3.494374728932519e-05,-0.0006839663043495863,-9.363252246497935e-05,0.0003628385564496728,0.000271164307433151,0.00025463749436147113,0.00013731739001064222,0.0,0.0,0.0,0.0,0.0,0.0,0.0,-0.00013784893772073037,0.00046851635005662473,-0.00016014695787569533,-0.00013689766378699453,2.6377180729952876e-05,-0.00012785911560087015,-1.0323778119714078e-05,3.494374728932519e-05,0.0006839663043495863,9.363252246497935e-05,-0.0003628385564496728,-0.000271164307433151,-0.00025463749436147113,-0.00013731739001064222,0.8354122042655945,46.50039291381836,5.663662433624268,-19.686006546020508,-0.8563132882118225,-2.3522982597351074,0.20083944499492645,0
61,0.29999256134033203,-0.8354122042655945,-46.50039291381836,-5.663662433624268,19.686006546020508,0.8563132882118225,2.3522982597351074,-0.20083944499492645,0.0,0.0,0.0,0.0,0.0,0.0,0.0,-0.8095639832666216,-0.1772014582111521,-0.49830678285829483,0.49243350586042617,0.2736457887926658,0.083694191217309,-0.1902130401342104,0.8782307250081447,0.7549912330808842,-0.28239511821144503,-1.6689624637969265,0.14139221833650065,2.403572976483239,1.027348424008924,0.878092876070424,0.7554597494309409,-0.2825552651693207,-1.6690993614607135,0.1414185955172306,2.4034451173676383,1.0273381002308042,-3.494374728932519e-05,-0.0006839663043495863,-9.363252246497935e-05,0.0003628385564496728,0.000271164307433151,0.00025463749436147113,0.00013731739001064222,0.0,0.0,0.0,0.0,0.0,0.0,0.0,-0.00013784893772073037,0.00046851635005662473,-0.00016014695787569533,-0.00013689766378699453,2.6377180729952876e-05,-0.00012785911560087015,-1.0323778119714078e-05,3.494374728932519e-05,0.0006839663043495863,9.363252246497935e-05,-0.0003628385564496728,-0.000271164307433151,-0.00025463749436147113,-0.00013731739001064222,0.8354122042655945,46.50039291381836,5.663662433624268,-19.686006546020508,-0.8563132882118225,-2.3522982597351074,0.20083944499492645,0
62,0.30501890182495117,-0.8076412081718445,-46.54800033569336,-5.687466144561768,19.686006546020508,0.8618064522743225,2.3458895683288574,-0.17978231608867645,0.0,0.0,0.0,0.0,0.0,0.0,0.0,-0.8043984862031053,-0.16679932901011885,-0.48891374452301894,0.48418618077967995,0.2732048692811381,0.08351056272877198,-0.19040977975097398,0.8782287761663136,0.7549967550980976,-0.2823934477755898,-1.6689624454821934,0.14139124740629896,2.403573688560062,1.0273460828380536,0.878092876070424,0.7554597494309409,-0.2825552651693207,-1.6690993614607135,0.1414185955172306,2.4034451173676383,1.0273381002308042,-0.0004916892346675871,0.0010281576077157445,0.0003200775002660265,0.00011097624565253112,-0.00017066689242192356,0.00015888217514775982,-0.0004133879303634945,0.0,0.0,0.0,0.0,0.0,0.0,0.0,-0.00013590009588959617,0.0004629943328432473,-0.00016181739373094528,-0.000136915978520058,2.734811093163536e-05,-0.00012857119242370985,-7.982607249434892e-06,0.0004916892346675871,-0.0010281576077157445,-0.0003200775002660265,-0.00011097624565253112,0.00017066689242192356,-0.00015888217514775982,0.0004133879303634945,0.8076412081718445,46.54800033569336,5.687466144561768,-19.686006546020508,-0.8618064522743225,-2.3458895683288574,0.17978231608867645,0
63,0.3100106716156006,-0.8076412081718445,-46.54800033569336,-5.687466144561768,19.686006546020508,0.8618064522743225,2.3458895683288574,-0.17978231608867645,0.0,0.0,0.0,0.0,0.0,0.0,0.0,-0.8043984862031053,-0.16679932901011885,-0.48891374452301894,0.48418618077967995,0.2732048692811381,0.08351056272877198,-0.19040977975097398,0.8782287761663136,0.7549967550980976,-0.2823934477755898,-1.6689624454821934,0.14139124740629896,2.403573688560062,1.0273460828380536,0.878092876070424,0.7554597494309409,-0.2825552651693207,-1.6690993614607135,0.1414185955172306,2.4034451173676383,1.0273381002308042,-0.0004916892346675871,0.0010281576077157445,0.0003200775002660265,0.00011097624565253112,-0.00017066689242192356,0.00015888217514775982,-0.0004133879303634945,0.0,0.0,0.0,0.0,0.0,0.0,0.0,-0.00013590009588959617,0.0004629943328432473,-0.00016181739373094528,-0.000136915978520058,2.734811093163536e-05,-0.00012857119242370985,-7.982607249434892e-06,0.0004916892346675871,-0.0010281576077157445,-0.0003200775002660265,-0.00011097624565253112,0.00017066689242192356,-0.00015888217514775982,0.0004133879303634945,0.8076412081718445,46.54800033569336,5.687466144561768,-19.686006546020508,-0.8618064522743225,-2.3458895683288574,0.17978231608867645,0
64,0.3150148391723633,-0.8354122042655945,-46.52419662475586,-5.711269855499268,19.709810256958008,0.8618064522743225,2.3522982597351074,-0.22830526530742645,0.0,0.0,0.0,0.0,0.0,0.0,0.0,-0.811666008630731,-0.1755713698928903,-0.49573407633412886,0.48751579434419207,0.2734318123789452,0.08376200157543001,-0.19055423974816574,0.8782307250081447,0.7549945385595771,-0.28239177733973453,-1.66896633200065,0.1413947665039172,2.403572976483239,1.0273514742768473,0.878092876070424,0.7554597494309409,-0.2825552651693207,-1.6690993614607135,0.1414185955172306,2.4034451173676383,1.0273381002308042,-0.00021526803655539276,0.0006655128143520517,0.0005266361856151464,-0.0003818660611351476,1.9185551782624167e-06,-0.00017823686030843202,0.0017122430848780777,0.0,0.0,0.0,0.0,0.0,0.0,0.0,-0.00013784893772073037,0.0004652108713637526,-0.00016348782958619523,-0.00013302946006343852,2.382901331340892e-05,-0.00012785911560087015,-1.3374046043068688e-05,0.00021526803655539276,-0.0006655128143520517,-0.0005266361856151464,0.0003818660611351476,-1.9185551782624167e-06,0.00017823686030843202,-0.0017122430848780777,0.8354122042655945,46.52419662475586,5.711269855499268,-19.709810256958008,-0.8618064522743225,-2.3522982597351074,0.22830526530742645,0
65,0.3199942111968994,-0.8354122042655945,-46.52419662475586,-5.711269855499268,19.709810256958008,0.8618064522743225,2.3522982597351074,-0.22830526530742645,0.0,0.0,0.0,0.0,0.0,0.0,0.0,-0.811666008630731,-0.1755713698928903,-0.49573407633412886,0.48751579434419207,0.2734318123789452,0.08376200157543001,-0.19055423974816574,0.8782307250081447,0.7549945385595771,-0.28239177733973453,-1.66896633200065,0.1413947665039172,2.403572976483239,1.0273514742768473,0.878092876070424,0.7554597494309409,-0.2825552651693207,-1.6690993614607135,0.1414185955172306,2.4034451173676383,1.0273381002308042,-0.00021526803655539276,0.0006655128143520517,0.0005266361856151464,-0.0003818660611351476,1.9185551782624167e-06,-0.00017823686030843202,0.0017122430848780777,0.0,0.0,0.0,0.0,0.0,0.0,0.0,-0.00013784893772073037,0.0004652108713637526,-0.00016348782958619523,-0.00013302946006343852,2.382901331340892e-05,-0.00012785911560087015,-1.3374046043068688e-05,0.00021526803655539276,-0.0006655128143520517,-0.0005266361856151464,0.0003818660611351476,-1.9185551782624167e-06,0.00017823686030843202,-0.0017122430848780777,0.8354122042655945,46.52419662475586,5.711269855499268,-19.709810256958008,-0.8618064522743225,-2.3522982597351074,0.22830526530742645,0
66,0.3250010013580322,-0.8076412081718445,-46.52419662475586,-5.663662433624268,19.658235549926758,0.8563132882118225,2.3458895683288574,-0.20724813640117645,0.0,0.0,0.0,0.0,0.0,0.0,0.0,-0.7432705950853882,-0.1693814892156002,-0.43955938143766204,0.49023032477852435,0.2724829698054538,0.08277620192373325,-0.19060046832497293,0.8782287761663136,0.7549924585260924,-0.28239511821144503,-1.668960487495402,0.1413950622463191,2.403573688560062,1.0273491345958576,0.878092876070424,0.7554597494309409,-0.2825552651693207,-1.6690993614607135,0.1414185955172306,2.4034451173676383,1.0273381002308042,-0.0007711049620896378,0.00021505221483304743,-0.0007188041283069521,0.0014065404444438454,0.00012573295799748278,0.00017488290687009943,-1.6885010169772636e-05,0.0,0.0,0.0,0.0,0.0,0.0,0.0,-0.00013590009588959617,0.0004672909048484275,-0.00016014695787569533,-0.0001388739653114257,2.3533270911507698e-05,-0.00012857119242370985,-1.1034365053452788e-05,0.0007711049620896378,-0.00021505221483304743,0.0007188041283069521,-0.0014065404444438454,-0.00012573295799748278,-0.00017488290687009943,1.6885010169772636e-05,0.8076412081718445,46.52419662475586,5.663662433624268,-19.658235549926758,-0.8563132882118225,-2.3458895683288574,0.20724813640117645,0
67,0.3299903869628906,-0.8076412081718445,-46.52419662475586,-5.663662433624268,19.658235549926758,0.8563132882118225,2.3458895683288574,-0.20724813640117645,0.0,0.0,0.0,0.0,0.0,0.0,0.0,-0.7432705950853882,-0.1693814892156002,-0.43955938143766204,0.49023032477852435,0.2724829698054538,0.08277620192373325,-0.19060046832497293,0.8782287761663136,0.7549924585260924,-0.28239511821144503,-1.668960487495402,0.1413950622463191,2.403573688560062,1.0273491345958576,0.878092876070424,0.7554597494309409,-0.2825552651693207,-1.6690993614607135,0.1414185955172306,2.4034451173676383,1.0273381002308042,-0.0007711049620896378,0.00021505221483304743,-0.0007188041283069521,0.0014065404444438454,0.00012573295799748278,0.00017488290687009943,-1.6885010169772636e-05,0.0,0.0,0.0,0.0,0.0,0.0,0.0,-0.00013590009588959617,0.0004672909048484275,-0.00016014695787569533,-0.0001388739653114257,2.3533270911507698e-05,-0.00012857119242370985,-1.1034365053452788e-05,0.0007711049620896378,-0.00021505221483304743,0.0007188041283069521,-0.0014065404444438454,-0.00012573295799748278,-0.00017488290687009943,1.6885010169772636e-05,0.8076412081718445,46.52419662475586,5.663662433624268,-19.658235549926758,-0.8563132882118225,-2.3458895683288574,0.20724813640117645,0
68,0.3349936008453369,-0.8076412081718445,-46.52419662475586,-5.663662433624268,19.658235549926758,0.8563132882118225,2.3458895683288574,-0.20724813640117645,0.0,0.0,0.0,0.0,0.0,0.0,0.0,-0.7432705950853882,-0.1693814892156002,-0.43955938143766204,0.49023032477852435,0.2724829698054538,0.08277620192373325,-0.19060046832497293,0.8782287761663136,0.7549924585260924,-0.28239511821144503,-1.668960487495402,0.1413950622463191,2.403573688560062,1.0273491345958576,0.878092876070424,0.7554597494309409,-0.2825552651693207,-1.6690993614607135,0.1414185955172306,2.4034451173676383,1.0273381002308042,-0.0007711049620896378,0.00021505221483304743,-0.0007188041283069521,0.0014065404444438454,0.00012573295799748278,0.00017488290687009943,-1.6885010169772636e-05,0.0,0.0,0.0,0.0,0.0,0.0,0.0,-0.00013590009588959617,0.0004672909048484275,-0.00016014695787569533,-0.0001388739653114257,2.3533270911507698e-05,-0.00012857119242370985,-1.1034365053452788e-05,0.0007711049620896378,-0.00021505221483304743,0.0007188041283069521,-0.0014065404444438454,-0.00012573295799748278,-0.00017488290687009943,1.6885010169772636e-05,0.8076412081718445,46.52419662475586,5.663662433624268,-19.658235549926758,-0.8563132882118225,-2.3458895683288574,0.20724813640117645,0
69,0.34000658988952637,-0.8076412081718445,-46.52419662475586,-5.663662433624268,19.658235549926758,0.8563132882118225,2.3458895683288574,-0.20724813640117645,0.0,0.0,0.0,0.0,0.0,0.0,0.0,-0.7432705950853882,-0.1693814892156002,-0.43955938143766204,0.49023032477852435,0.2724829698054538,0.08277620192373325,-0.19060046832497293,0.8782287761663136,0.7549924585260924,-0.28239511821144503,-1.668960487495402,0.1413950622463191,2.403573688560062,1.0273491345958576,0.878092876070424,0.7554597494309409,-0.2825552651693207,-1.6690993614607135,0.1414185955172306,2.4034451173676383,1.0273381002308042,-0.0007711049620896378,0.00021505221483304743,-0.0007188041283069521,0.0014065404444438454,0.00012573295799748278,0.00017488290687009943,-1.6885010169772636e-05,0.0,0.0,0.0,0.0,0.0,0.0,0.0,-0.00013590009588959617,0.0004672909048484275,-0.00016014695787569533,-0.0001388739653114257,2.3533270911507698e-05,-0.00012857119242370985,-1.1034365053452788e-05,0.0007711049620896378,-0.00021505221483304743,0.0007188041283069521,-0.0014065404444438454,-0.00012573295799748278,-0.00017488290687009943,1.6885010169772636e-05,0.8076412081718445,46.52419662475586,5.663662433624268,-19.658235549926758,-0.8563132882118225,-2.3458895683288574,0.20724813640117645,0
70,0.3449900150299072,-0.8076412081718445,-46.44881820678711,-5.635891437530518,19.658235549926758,0.8563132882118225,2.3394808769226074,-0.16604940593242645,0.0,0.0,0.0,0.0,0.0,0.0,0.0,-0.8146004370683587,-0.1640613955085827,-0.4938793752068641,0.48268400744965606,0.2742641897029547,0.08181183942243957,-0.1919366085106437,0.8782287761663136,0.7549869348330543,-0.2823970670532762,-1.6689604874828405,0.14139065987590363,2.403574400636885,1.027344556959139,0.878092876070424,0.7554597494309409,-0.2825552651693207,-1.6690993614607135,0.1414185955172306,2.4034451173676383,1.0273381002308042,0.00034876793334084557,-0.0009786085339920758,-0.000643733277029684,0.0008961786980432714,0.00018798695061257795,0.0005231935934153507,-0.000534499318536445,0.0,0.0,0.0,0.0,0.0,0.0,0.0,-0.00013590009588959617,0.00047281459788650615,-0.00015819811604450562,-0.0001388739778729331,2.7935641326970462e-05,-0.00012928326924654954,-6.456728334880424e-06,-0.00034876793334084557,0.0009786085339920758,0.000643733277029684,-0.0008961786980432714,-0.00018798695061257795,-0.0005231935934153507,0.000534499318536445,0.8076412081718445,46.44881820678711,5.635891437530518,-19.658235549926758,-0.8563132882118225,-2.3394808769226074,0.16604940593242645,0
71,0.3500189781188965,-0.8076412081718445,-46.44881820678711,-5.635891437530518,19.658235549926758,0.8563132882118225,2.3394808769226074,-0.16604940593242645,0.0,0.0,0.0,0.0,0.0,0.0,0.0,-0.8146004370683587,-0.1640613955085827,-0.4938793752068641,0.48268400744965606,0.2742641897029547,0.08181183942243957,-0.1919366085106437,0.8782287761663136,0.7549869348330543,-0.2823970670532762,-1.6689604874828405,0.14139065987590363,2.403574400636885,1.027344556959139,0.878092876070424,0.7554597494309409,-0.2825552651693207,-1.6690993614607135,0.1414185955172306,2.4034451173676383,1.0273381002308042,0.00034876793334084557,-0.0009786085339920758,-0.000643733277029684,0.0008961786980432714,0.00018798695061257795,0.0005231935934153507,-0.000534499318536445,0.0,0.0,0.0,0.0,0.0,0.0,0.0,-0.00013590009588959617,0.00047281459788650615,-0.00015819811604450562,-0.0001388739778729331,2.7935641326970462e-05,-0.00012928326924654954,-6.456728334880424e-06,-0.00034876793334084557,0.0009786085339920758,0.000643733277029684,-0.0008961786980432714,-0.00018798695061257795,-0.0005231935934153507,0.000534499318536445,0.8076412081718445,46.44881820678711,5.635891437530518,-19.658235549926758,-0.8563132882118225,-2.3394808769226074,0.16604940593242645,0
72,0.35498738288879395,-0.7838374972343445,-46.50039291381836,-5.687466144561768,19.686006546020508,0.8618064522743225,2.3522982597351074,-0.20083944499492645,0.0,0.0,0.0,0.0,0.0,0.0,0.0,-0.8409218295892907,-0.19094411146061221,-0.5180938229330854,0.49485549374770693,0.2751489617052532,0.08398780162089473,-0.1904224931283847,0.8782271057304583,0.7549905312832976,-0.2823934477755898,-1.6689624363623563,0.14139054186574607,2.403572976483239,1.0273484225190348,0.878092876070424,0.7554597494309409,-0.2825552651693207,-1.6690993614607135,0.1414185955172306,2.4034451173676383,1.0273381002308042,-0.000581873480868379,-0.0004974440816719962,0.00041546798678097555,0.00022942429812055972,-8.926209583436602e-05,-0.00013731719849374125,0.0005361739044457185,0.0,0.0,0.0,0.0,0.0,0.0,0.0,-0.0001342296600342907,0.00046921814764322445,-0.00016181739373094528,-0.0001369250983571657,2.8053651484533093e-05,-0.00012785911560087015,-1.0322288230613097e-05,0.000581873480868379,0.0004974440816719962,-0.00041546798678097555,-0.00022942429812055972,8.926209583436602e-05,0.00013731719849374125,-0.0005361739044457185,0.7838374972343445,46.50039291381836,5.687466144561768,-19.686006546020508,-0.8618064522743225,-2.3522982597351074,0.20083944499492645,0
73,0.3599886894226074,-0.7838374972343445,-46.50039291381836,-5.687466144561768,19.686006546020508,0.8618064522743225,2.3522982597351074,-0.20083944499492645,0.0,0.0,0.0,0.0,0.0,0.0,0.0,-0.8409218295892907,-0.19094411146061221,-0.5180938229330854,0.49485549374770693,0.2751489617052532,0.08398780162089473,-0.1904224931283847,0.8782271057304583,0.7549905312832976,-0.2823934477755898,-1.6689624363623563,0.14139054186574607,2.403572976483239,1.0273484225190348,0.878092876070424,0.7554597494309409,-0.2825552651693207,-1.6690993614607135,0.1414185955172306,2.4034451173676383,1.0273381002308042,-0.000581873480868379,-0.0004974440816719962,0.00041546798678097555,0.00022942429812055972,-8.926209583436602e-05,-0.00013731719849374125,0.0005361739044457185,0.0,0.0,0.0,0.0,0.0,0.0,0.0,-0.0001342296600342907,0.00046921814764322445,-0.00016181739373094528,-0.0001369250983571657,2.8053651484533093e-05,-0.00012785911560087015,-1.0322288230613097e-05,0.000581873480868379,0.0004974440816719962,-0.00041546798678097555,-0.00022942429812055972,8.926209583436602e-05,0.00013731719849374125,-0.0005361739044457185,0.7838374972343445,46.50039291381836,5.687466144561768,-19.686006546020508,-0.8618064522743225,-2.3522982597351074,0.20083944499492645,0
74,0.3599886894226074,-0.7838374972343445,-46.50039291381836,-5.687466144561768,19.686006546020508,0.8618064522743225,2.3522982597351074,-0.20083944499492645,0.0,0.0,0.0,0.0,0.0,0.0,0.0,-0.8409218295892907,-0.19094411146061221,-0.5180938229330854,0.49485549374770693,0.2751489617052532,0.08398780162089473,-0.1904224931283847,0.8782271057304583,0.7549905312832976,-0.2823934477755898,-1.6689624363623563,0.14139054186574607,2.403572976483239,1.0273484225190348,0.878092876070424,0.7554597494309409,-0.2825552651693207,-1.6690993614607135,0.1414185955172306,2.4034451173676383,1.0273381002308042,-0.000581873480868379,-0.0004974440816719962,0.00041546798678097555,0.00022942429812055972,-8.926209583436602e-05,-0.00013731719849374125,0.0005361739044457185,0.0,0.0,0.0,0.0,0.0,0.0,0.0,-0.0001342296600342907,0.00046921814764322445,-0.00016181739373094528,-0.0001369250983571657,2.8053651484533093e-05,-0.00012785911560087015,-1.0322288230613097e-05,0.000581873480868379,0.0004974440816719962,-0.00041546798678097555,-0.00022942429812055972,8.926209583436602e-05,0.00013731719849374125,-0.0005361739044457185,0.7838374972343445,46.50039291381836,5.687466144561768,-19.686006546020508,-0.8618064522743225,-2.3522982597351074,0.20083944499492645,0
75,0.3700129985809326,-0.8354122042655945,-46.50039291381836,-5.663662433624268,19.709810256958008,0.8563132882118225,2.3596224784851074,-0.16604940593242645,0.0,0.0,0.0,0.0,0.0,0.0,0.0,-0.8471928586247497,-0.18164155208140945,-0.5236221144312739,0.49075856810936463,0.2753505559085273,0.08417860823760945,-0.18941056449981689,0.8782307250081447,0.7549905540736133,-0.2823951182474473,-1.668964106760527,0.14139387553598937,2.4035721626811557,1.027344556959139,0.878092876070424,0.7554597494309409,-0.2825552651693207,-1.6690993614607135,0.1414185955172306,2.4034451173676383,1.0273381002308042,0.0002735053225168324,-3.989718207273144e-05,-0.0002651483732443876,-3.0468609321593795e-05,0.000177149819174314,-0.0003465872714154753,-0.0006988944811330083,0.0,0.0,0.0,0.0,0.0,0.0,0.0,-0.00013784893772073037,0.00046919535732758977,-0.0001601469218734386,-0.00013525470018649344,2.4719981241233535e-05,-0.00012704531351737103,-6.456728334880424e-06,-0.0002735053225168324,3.989718207273144e-05,0.0002651483732443876,3.0468609321593795e-05,-0.000177149819174314,0.0003465872714154753,0.0006988944811330083,0.8354122042655945,46.50039291381836,5.663662433624268,-19.709810256958008,-0.8563132882118225,-2.3596224784851074,0.16604940593242645,0
76,0.37499094009399414,-0.8354122042655945,-46.50039291381836,-5.663662433624268,19.709810256958008,0.8563132882118225,2.3596224784851074,-0.16604940593242645,0.0,0.0,0.0,0.0,0.0,0.0,0.0,-0.8471928586247497,-0.18164155208140945,-0.5236221144312739,0.49075856810936463,0.2753505559085273,0.08417860823760945,-0.18941056449981689,0.8782307250081447,0.7549905540736133,-0.2823951182474473,-1.668964106760527,0.14139387553598937,2.4035721626811557,1.027344556959139,0.878092876070424,0.7554597494309409,-0.2825552651693207,-1.6690993614607135,0.1414185955172306,2.4034451173676383,1.0273381002308042,0.0002735053225168324,-3.989718207273144e-05,-0.0002651483732443876,-3.0468609321593795e-05,0.000177149819174314,-0.0003465872714154753,-0.0006988944811330083,0.0,0.0,0.0,0.0,0.0,0.0,0.0,-0.00013784893772073037,0.00046919535732758977,-0.0001601469218734386,-0.00013525470018649344,2.4719981241233535e-05,-0.00012704531351737103,-6.456728334880424e-06,-0.0002735053225168324,3.989718207273144e-05,0.0002651483732443876,3.0468609321593795e-05,-0.000177149819174314,0.0003465872714154753,0.0006988944811330083,0.8354122042655945,46.50039291381836,5.663662433624268,-19.709810256958008,-0.8563132882118225,-2.3596224784851074,0.16604940593242645,0
77,0.3799891471862793,-0.8076412081718445,-46.52419662475586,-5.687466144561768,19.709810256958008,0.8563132882118225,2.3596224784851074,-0.16604940593242645,0.0,0.0,0.0,0.0,0.0,0.0,0.0,-0.8259320106518097,-0.17552690705692314,-0.5071135016313242,0.4895112882546883,0.27547398604729845,0.08406346434307126,-0.1878796790487595,0.8782287761663136,0.7549922254725864,-0.28239344777558995,-1.668964106760527,0.14139537637932514,2.4035721626811557,1.027344556959139,0.878092876070424,0.7554597494309409,-0.2825552651693207,-1.6690993614607135,0.1414185955172306,2.4034451173676383,1.0273381002308042,-0.00039555385512344833,0.0004997538845436828,0.0005256453648294972,-0.0003966713987408529,0.0002015638467451128,-0.00027614940838672906,-0.0011744499958615822,0.0,0.0,0.0,0.0,0.0,0.0,0.0,-0.00013590009588959617,0.0004675239583544766,-0.00016181739373077875,-0.00013525470018649344,2.3219137905455822e-05,-0.00012704531351737103,-6.456728334880424e-06,0.00039555385512344833,-0.0004997538845436828,-0.0005256453648294972,0.0003966713987408529,-0.0002015638467451128,0.00027614940838672906,0.0011744499958615822,0.8076412081718445,46.52419662475586,5.687466144561768,-19.709810256958008,-0.8563132882118225,-2.3596224784851074,0.16604940593242645,0
78,0.38501620292663574,-0.8076412081718445,-46.52419662475586,-5.687466144561768,19.709810256958008,0.8563132882118225,2.3596224784851074,-0.16604940593242645,0.0,0.0,0.0,0.0,0.0,0.0,0.0,-0.8259320106518097,-0.17552690705692314,-0.5071135016313242,0.4895112882546883,0.27547398604729845,0.08406346434307126,-0.1878796790487595,0.8782287761663136,0.7549922254725864,-0.28239344777558995,-1.668964106760527,0.14139537637932514,2.4035721626811557,1.027344556959139,0.878092876070424,0.7554597494309409,-0.2825552651693207,-1.6690993614607135,0.1414185955172306,2.4034451173676383,1.0273381002308042,-0.00039555385512344833,0.0004997538845436828,0.0005256453648294972,-0.0003966713987408529,0.0002015638467451128,-0.00027614940838672906,-0.0011744499958615822,0.0,0.0,0.0,0.0,0.0,0.0,0.0,-0.00013590009588959617,0.0004675239583544766,-0.00016181739373077875,-0.00013525470018649344,2.3219137905455822e-05,-0.00012704531351737103,-6.456728334880424e-06,0.00039555385512344833,-0.0004997538845436828,-0.0005256453648294972,0.0003966713987408529,-0.0002015638467451128,0.00027614940838672906,0.0011744499958615822,0.8076412081718445,46.52419662475586,5.687466144561768,-19.709810256958008,-0.8563132882118225,-2.3596224784851074,0.16604940593242645,0
79,0.3900120258331299,-0.8076412081718445,-46.47658920288086,-5.635891437530518,19.686006546020508,0.8682151436805725,2.3458895683288574,-0.18710653483867645,0.0,0.0,0.0,0.0,0.0,0.0,0.0,-0.8254048472311817,-0.17793402318949253,-0.508886740674986,0.4910982320063385,0.27551836441317534,0.08500540889556671,-0.18886227071965306,0.8782287761663136,0.7549895866110403,-0.28239706413709104,-1.6689624363623563,0.1413907766280519,2.403573688560062,1.0273468966401285,0.878092876070424,0.7554597494309409,-0.2825552651693207,-1.6690993614607135,0.1414185955172306,2.4034451173676383,1.0273381002308042,-0.00038737486619849597,-0.0007655958492361505,-0.00035054789051578453,0.000506983557679487,-0.0002840319905119656,0.00016517379457175563,-0.0001784251667419672,0.0,0.0,0.0,0.0,0.0,0.0,0.0,-0.00013590009588959617,0.00047016281990053255,-0.00015820103222968784,-0.0001369250983571657,2.781888917868791e-05,-0.00012857119242370985,-8.796409324274279e-06,0.00038737486619849597,0.0007655958492361505,0.00035054789051578453,-0.000506983557679487,0.0002840319905119656,-0.00016517379457175563,0.0001784251667419672,0.8076412081718445,46.47658920288086,5.635891437530518,-19.686006546020508,-0.8682151436805725,-2.3458895683288574,0.18710653483867645,0
80,0.3950233459472656,-0.8076412081718445,-46.47658920288086,-5.635891437530518,19.686006546020508,0.8682151436805725,2.3458895683288574,-0.18710653483867645,0.0,0.0,0.0,0.0,0.0,0.0,0.0,-0.8254048472311817,-0.17793402318949253,-0.508886740674986,0.4910982320063385,0.27551836441317534,0.08500540889556671,-0.18886227071965306,0.8782287761663136,0.7549895866110403,-0.28239706413709104,-1.6689624363623563,0.1413907766280519,2.403573688560062,1.0273468966401285,0.878092876070424,0.7554597494309409,-0.2825552651693207,-1.6690993614607135,0.1414185955172306,2.4034451173676383,1.0273381002308042,-0.00038737486619849597,-0.0007655958492361505,-0.00035054789051578453,0.000506983557679487,-0.0002840319905119656,0.00016517379457175563,-0.0001784251667419672,0.0,0.0,0.0,0.0,0.0,0.0,0.0,-0.00013590009588959617,0.00047016281990053255,-0.00015820103222968784,-0.0001369250983571657,2.781888917868791e-05,-0.00012857119242370985,-8.796409324274279e-06,0.00038737486619849597,0.0007655958492361505,0.00035054789051578453,-0.000506983557679487,0.0002840319905119656,-0.00016517379457175563,0.0001784251667419672,0.8076412081718445,46.47658920288086,5.635891437530518,-19.686006546020508,-0.8682151436805725,-2.3458895683288574,0.18710653483867645,0
