rezayati/contactInterpretation/dataset/franka_main/labeled_data/link5/c10_4.csv
index,time,tau_J0,tau_J1,tau_J2,tau_J3,tau_J4,tau_J5,tau_J6,tau_J_d0,tau_J_d1,tau_J_d2,tau_J_d3,tau_J_d4,tau_J_d5,tau_J_d6,tau_ext0,tau_ext1,tau_ext2,tau_ext3,tau_ext4,tau_ext5,tau_ext6,q0,q1,q2,q3,q4,q5,q6,q_d0,q_d1,q_d2,q_d3,q_d4,q_d5,q_d6,dq0,dq1,dq2,dq3,dq4,dq5,dq6,dq_d0,dq_d1,dq_d2,dq_d3,dq_d4,dq_d5,dq_d6,e0,e1,e2,e3,e4,e5,e6,de0,de1,de2,de3,de4,de5,de6,etau_J0,etau_J1,etau_J2,etau_J3,etau_J4,etau_J5,etau_J6,label
1,0.0,-0.4505855441093445,-19.693445205688477,-0.4228789508342743,20.007356643676758,0.8563132882118225,2.4694857597351074,-0.30337852239608765,0.0,0.0,0.0,0.0,0.0,0.0,0.0,-0.3934214288358734,0.024537953245522912,-0.2124491802137899,0.2383656962552543,0.27074383457411194,0.1025253407605023,-0.27420178678124635,1.2135649917173903,-0.22034633421926486,-0.0074772170764279364,-2.604224421450966,-0.10898421853402851,2.4682267036967778,0.8264848877146862,1.2134413937687574,-0.2202432315892585,-0.0075118285948192216,-2.6038483821997875,-0.10888392708698907,2.4681821257803174,0.826474908251239,0.0009047607844130314,-0.0005082362928610122,-0.00014565865441424616,9.022632690967515e-05,-8.207575894129229e-07,0.0001141627141955488,0.0013372599376381463,0.0,0.0,0.0,0.0,0.0,0.0,0.0,-0.00012359794863292528,0.00010310263000637421,-3.461151839128512e-05,0.0003760392511784616,0.0001002914470394356,-4.457791646039766e-05,-9.979463447162829e-06,-0.0009047607844130314,0.0005082362928610122,0.00014565865441424616,-9.022632690967515e-05,8.207575894129229e-07,-0.0001141627141955488,-0.0013372599376381463,0.4505855441093445,19.693445205688477,0.4228789508342743,-20.007356643676758,-0.8563132882118225,-2.4694857597351074,0.30337852239608765,0
2,0.004973888397216797,-0.4505855441093445,-19.693445205688477,-0.4228789508342743,20.007356643676758,0.8563132882118225,2.4694857597351074,-0.30337852239608765,0.0,0.0,0.0,0.0,0.0,0.0,0.0,-0.3934214288358734,0.024537953245522912,-0.2124491802137899,0.2383656962552543,0.27074383457411194,0.1025253407605023,-0.27420178678124635,1.2135649917173903,-0.22034633421926486,-0.0074772170764279364,-2.604224421450966,-0.10898421853402851,2.4682267036967778,0.8264848877146862,1.2134413937687574,-0.2202432315892585,-0.0075118285948192216,-2.6038483821997875,-0.10888392708698907,2.4681821257803174,0.826474908251239,0.0009047607844130314,-0.0005082362928610122,-0.00014565865441424616,9.022632690967515e-05,-8.207575894129229e-07,0.0001141627141955488,0.0013372599376381463,0.0,0.0,0.0,0.0,0.0,0.0,0.0,-0.00012359794863292528,0.00010310263000637421,-3.461151839128512e-05,0.0003760392511784616,0.0001002914470394356,-4.457791646039766e-05,-9.979463447162829e-06,-0.0009047607844130314,0.0005082362928610122,0.00014565865441424616,-9.022632690967515e-05,8.207575894129229e-07,-0.0001141627141955488,-0.0013372599376381463,0.4505855441093445,19.693445205688477,0.4228789508342743,-20.007356643676758,-0.8563132882118225,-2.4694857597351074,0.30337852239608765,0
3,0.009974241256713867,-0.4029781222343445,-19.693445205688477,-0.3990752398967743,20.054964065551758,0.8618064522743225,2.4694857597351074,-0.28964561223983765,0.0,0.0,0.0,0.0,0.0,0.0,0.0,-0.3971068901483522,0.02636296583820051,-0.21492167778553456,0.2387546579378344,0.27103158305223896,0.1017359112823537,-0.2735199058047488,1.2135635869745967,-0.22034539044329524,-0.007478913813288816,-2.6042277623226764,-0.10898886581192985,2.4682267036967804,0.8264834800591686,1.2134413937687574,-0.2202432315892585,-0.0075118285948192216,-2.6038483821997875,-0.10888392708698907,2.4681821257803174,0.826474908251239,0.0001673459140059876,-0.00037334012301382097,-0.0005280664038157032,-0.0009739459441778774,-0.0002769222237206917,-0.0002006336343346699,0.0008900710376115956,0.0,0.0,0.0,0.0,0.0,0.0,0.0,-0.00012219320583928273,0.00010215885403674907,-3.29147815304057e-05,0.0003793801228888505,0.00010493872494077294,-4.4577916463062195e-05,-8.571807929569353e-06,-0.0001673459140059876,0.00037334012301382097,0.0005280664038157032,0.0009739459441778774,0.0002769222237206917,0.0002006336343346699,-0.0008900710376115956,0.4029781222343445,19.693445205688477,0.3990752398967743,-20.054964065551758,-0.8618064522743225,-2.4694857597351074,0.28964561223983765,0
4,0.01497197151184082,-0.4029781222343445,-19.693445205688477,-0.3990752398967743,20.054964065551758,0.8618064522743225,2.4694857597351074,-0.28964561223983765,0.0,0.0,0.0,0.0,0.0,0.0,0.0,-0.3971068901483522,0.02636296583820051,-0.21492167778553456,0.2387546579378344,0.27103158305223896,0.1017359112823537,-0.2735199058047488,1.2135635869745967,-0.22034539044329524,-0.007478913813288816,-2.6042277623226764,-0.10898886581192985,2.4682267036967804,0.8264834800591686,1.2134413937687574,-0.2202432315892585,-0.0075118285948192216,-2.6038483821997875,-0.10888392708698907,2.4681821257803174,0.826474908251239,0.0001673459140059876,-0.00037334012301382097,-0.0005280664038157032,-0.0009739459441778774,-0.0002769222237206917,-0.0002006336343346699,0.0008900710376115956,0.0,0.0,0.0,0.0,0.0,0.0,0.0,-0.00012219320583928273,0.00010215885403674907,-3.29147815304057e-05,0.0003793801228888505,0.00010493872494077294,-4.4577916463062195e-05,-8.571807929569353e-06,-0.0001673459140059876,0.00037334012301382097,0.0005280664038157032,0.0009739459441778774,0.0002769222237206917,0.0002006336343346699,-0.0008900710376115956,0.4029781222343445,19.693445205688477,0.3990752398967743,-20.054964065551758,-0.8618064522743225,-2.4694857597351074,0.28964561223983765,0
5,0.019973278045654297,-0.3752071261405945,-19.745019912719727,-0.3713042438030243,20.031160354614258,0.8618064522743225,2.4758944511413574,-0.28232139348983765,0.0,0.0,0.0,0.0,0.0,0.0,0.0,-0.4004061353290715,0.02785395615406394,-0.2209337563117805,0.24055948572566674,0.27097570894075684,0.10054314054093828,-0.27253835829677364,1.2135594835461654,-0.2203419900541812,-0.007480152573545424,-2.604226091886821,-0.10898459243173568,2.468225987259307,0.8264793734819288,1.2134413937687574,-0.2202432315892585,-0.0075118285948192216,-2.6038483821997875,-0.10888392708698907,2.4681821257803174,0.826474908251239,-0.0004748776044498251,0.0009638976497307353,-0.0011949539967667801,-0.0002481139906754068,-0.00038389930500788645,-0.00013172555472728103,5.192501736575097e-05,0.0,0.0,0.0,0.0,0.0,0.0,0.0,-0.00011808977740801474,9.875846492271578e-05,-3.167602127379741e-05,0.000377709687033434,0.00010066534474660604,-4.386147898971515e-05,-4.465230689754129e-06,0.0004748776044498251,-0.0009638976497307353,0.0011949539967667801,0.0002481139906754068,0.00038389930500788645,0.00013172555472728103,-5.192501736575097e-05,0.3752071261405945,19.745019912719727,0.3713042438030243,-20.031160354614258,-0.8618064522743225,-2.4758944511413574,0.28232139348983765,0
6,0.02497267723083496,-0.3752071261405945,-19.745019912719727,-0.3713042438030243,20.031160354614258,0.8618064522743225,2.4758944511413574,-0.28232139348983765,0.0,0.0,0.0,0.0,0.0,0.0,0.0,-0.4004061353290715,0.02785395615406394,-0.2209337563117805,0.24055948572566674,0.27097570894075684,0.10054314054093828,-0.27253835829677364,1.2135594835461654,-0.2203419900541812,-0.007480152573545424,-2.604226091886821,-0.10898459243173568,2.468225987259307,0.8264793734819288,1.2134413937687574,-0.2202432315892585,-0.0075118285948192216,-2.6038483821997875,-0.10888392708698907,2.4681821257803174,0.826474908251239,-0.0004748776044498251,0.0009638976497307353,-0.0011949539967667801,-0.0002481139906754068,-0.00038389930500788645,-0.00013172555472728103,5.192501736575097e-05,0.0,0.0,0.0,0.0,0.0,0.0,0.0,-0.00011808977740801474,9.875846492271578e-05,-3.167602127379741e-05,0.000377709687033434,0.00010066534474660604,-4.386147898971515e-05,-4.465230689754129e-06,0.0004748776044498251,-0.0009638976497307353,0.0011949539967667801,0.0002481139906754068,0.00038389930500788645,0.00013172555472728103,-5.192501736575097e-05,0.3752071261405945,19.745019912719727,0.3713042438030243,-20.031160354614258,-0.8618064522743225,-2.4758944511413574,0.28232139348983765,0
7,0.029990196228027344,-0.3514034152030945,-19.693445205688477,-0.3990752398967743,20.007356643676758,0.8563132882118225,2.4758944511413574,-0.29605430364608765,0.0,0.0,0.0,0.0,0.0,0.0,0.0,-0.39876807675289405,0.022640671564947736,-0.2204339712948041,0.24480742216766987,0.2708420816596701,0.10113311644963968,-0.27258840816449365,1.2135600982244892,-0.2203477321359036,-0.007478913484745853,-2.604224421450966,-0.10898434119736038,2.4682259523740764,0.8264841833967697,1.2134413937687574,-0.2202432315892585,-0.0075118285948192216,-2.6038483821997875,-0.10888392708698907,2.4681821257803174,0.826474908251239,-0.0010111396591988059,-0.0009197916159705064,-0.0002763271721228664,0.00041146134900113833,-0.00015144481232300425,-4.153090119827632e-05,0.0011182599946184509,0.0,0.0,0.0,0.0,0.0,0.0,0.0,-0.00011870445573181065,0.00010450054664512543,-3.29151100733685e-05,0.0003760392511784616,0.00010041411037130243,-4.382659375901099e-05,-9.275145530618367e-06,0.0010111396591988059,0.0009197916159705064,0.0002763271721228664,-0.00041146134900113833,0.00015144481232300425,4.153090119827632e-05,-0.0011182599946184509,0.3514034152030945,19.693445205688477,0.3990752398967743,-20.007356643676758,-0.8563132882118225,-2.4758944511413574,0.29605430364608765,0
8,0.03493189811706543,-0.3514034152030945,-19.693445205688477,-0.3990752398967743,20.007356643676758,0.8563132882118225,2.4758944511413574,-0.29605430364608765,0.0,0.0,0.0,0.0,0.0,0.0,0.0,-0.39876807675289405,0.022640671564947736,-0.2204339712948041,0.24480742216766987,0.2708420816596701,0.10113311644963968,-0.27258840816449365,1.2135600982244892,-0.2203477321359036,-0.007478913484745853,-2.604224421450966,-0.10898434119736038,2.4682259523740764,0.8264841833967697,1.2134413937687574,-0.2202432315892585,-0.0075118285948192216,-2.6038483821997875,-0.10888392708698907,2.4681821257803174,0.826474908251239,-0.0010111396591988059,-0.0009197916159705064,-0.0002763271721228664,0.00041146134900113833,-0.00015144481232300425,-4.153090119827632e-05,0.0011182599946184509,0.0,0.0,0.0,0.0,0.0,0.0,0.0,-0.00011870445573181065,0.00010450054664512543,-3.29151100733685e-05,0.0003760392511784616,0.00010041411037130243,-4.382659375901099e-05,-9.275145530618367e-06,0.0010111396591988059,0.0009197916159705064,0.0002763271721228664,-0.00041146134900113833,0.00015144481232300425,4.153090119827632e-05,-0.0011182599946184509,0.3514034152030945,19.693445205688477,0.3990752398967743,-20.007356643676758,-0.8563132882118225,-2.4758944511413574,0.29605430364608765,0
9,0.03993368148803711,-0.3514034152030945,-19.693445205688477,-0.3990752398967743,20.007356643676758,0.8499045968055725,2.4758944511413574,-0.27591270208358765,0.0,0.0,0.0,0.0,0.0,0.0,0.0,-0.3882769930979139,0.02183068501734989,-0.21174351543767597,0.24571686891907799,0.2704675355082963,0.10199971263355559,-0.27239356966920447,1.2135601237108566,-0.22034822098692872,-0.007478913813435431,-2.604224421450966,-0.10898683213299686,2.4682259867745686,0.8264814483453948,1.2134413937687574,-0.2202432315892585,-0.0075118285948192216,-2.6038483821997875,-0.10888392708698907,2.4681821257803174,0.826474908251239,-0.00023839767455433053,-0.0007017271725620017,0.00010509558340437294,0.0005513471139397409,-1.9198627626420516e-05,1.758436753957691e-05,0.0001279306672964395,0.0,0.0,0.0,0.0,0.0,0.0,0.0,-0.00011872994209927157,0.00010498939767022986,-3.2914781383790344e-05,0.0003760392511784616,0.00010290504600778128,-4.386099425124357e-05,-6.5400941557935965e-06,0.00023839767455433053,0.0007017271725620017,-0.00010509558340437294,-0.0005513471139397409,1.9198627626420516e-05,-1.758436753957691e-05,-0.0001279306672964395,0.3514034152030945,19.693445205688477,0.3990752398967743,-20.007356643676758,-0.8499045968055725,-2.4758944511413574,0.27591270208358765,0
10,0.04498410224914551,-0.3514034152030945,-19.693445205688477,-0.3990752398967743,20.007356643676758,0.8499045968055725,2.4758944511413574,-0.27591270208358765,0.0,0.0,0.0,0.0,0.0,0.0,0.0,-0.3882769930979139,0.02183068501734989,-0.21174351543767597,0.24571686891907799,0.2704675355082963,0.10199971263355559,-0.27239356966920447,1.2135601237108566,-0.22034822098692872,-0.007478913813435431,-2.604224421450966,-0.10898683213299686,2.4682259867745686,0.8264814483453948,1.2134413937687574,-0.2202432315892585,-0.0075118285948192216,-2.6038483821997875,-0.10888392708698907,2.4681821257803174,0.826474908251239,-0.00023839767455433053,-0.0007017271725620017,0.00010509558340437294,0.0005513471139397409,-1.9198627626420516e-05,1.758436753957691e-05,0.0001279306672964395,0.0,0.0,0.0,0.0,0.0,0.0,0.0,-0.00011872994209927157,0.00010498939767022986,-3.2914781383790344e-05,0.0003760392511784616,0.00010290504600778128,-4.386099425124357e-05,-6.5400941557935965e-06,0.00023839767455433053,0.0007017271725620017,-0.00010509558340437294,-0.0005513471139397409,1.9198627626420516e-05,-1.758436753957691e-05,-0.0001279306672964395,0.3514034152030945,19.693445205688477,0.3990752398967743,-20.007356643676758,-0.8499045968055725,-2.4758944511413574,0.27591270208358765,0
11,0.05004072189331055,-0.3514034152030945,-19.693445205688477,-0.3713042438030243,20.031160354614258,0.8499045968055725,2.4694857597351074,-0.24844686686992645,0.0,0.0,0.0,0.0,0.0,0.0,0.0,-0.3919687969841128,0.028057268074131215,-0.21788702490380457,0.24187729035754768,0.27030781973812973,0.10122974534775885,-0.27288773989513976,1.2135573431783961,-0.22034631704478566,-0.007480862655268427,-2.604226091886821,-0.10898778301015016,2.4682267036967533,0.8264789067254216,1.2134413937687574,-0.2202432315892585,-0.0075118285948192216,-2.6038483821997875,-0.10888392708698907,2.4681821257803174,0.826474908251239,-0.0015094600863516064,-0.0001110845613466819,-0.000627540525215512,-0.0004408463164389868,0.00021569421202621887,-8.582218893076675e-05,-0.0009865049012016402,0.0,0.0,0.0,0.0,0.0,0.0,0.0,-0.00011594940963877143,0.0001030854555271743,-3.096593955079479e-05,0.000377709687033434,0.00010385592316108916,-4.457791643597275e-05,-3.9984741825316306e-06,0.0015094600863516064,0.0001110845613466819,0.000627540525215512,0.0004408463164389868,-0.00021569421202621887,8.582218893076675e-05,0.0009865049012016402,0.3514034152030945,19.693445205688477,0.3713042438030243,-20.031160354614258,-0.8499045968055725,-2.4694857597351074,0.24844686686992645,0
12,0.05496668815612793,-0.3514034152030945,-19.693445205688477,-0.3713042438030243,20.031160354614258,0.8499045968055725,2.4694857597351074,-0.24844686686992645,0.0,0.0,0.0,0.0,0.0,0.0,0.0,-0.3919687969841128,0.028057268074131215,-0.21788702490380457,0.24187729035754768,0.27030781973812973,0.10122974534775885,-0.27288773989513976,1.2135573431783961,-0.22034631704478566,-0.007480862655268427,-2.604226091886821,-0.10898778301015016,2.4682267036967533,0.8264789067254216,1.2134413937687574,-0.2202432315892585,-0.0075118285948192216,-2.6038483821997875,-0.10888392708698907,2.4681821257803174,0.826474908251239,-0.0015094600863516064,-0.0001110845613466819,-0.000627540525215512,-0.0004408463164389868,0.00021569421202621887,-8.582218893076675e-05,-0.0009865049012016402,0.0,0.0,0.0,0.0,0.0,0.0,0.0,-0.00011594940963877143,0.0001030854555271743,-3.096593955079479e-05,0.000377709687033434,0.00010385592316108916,-4.457791643597275e-05,-3.9984741825316306e-06,0.0015094600863516064,0.0001110845613466819,0.000627540525215512,0.0004408463164389868,-0.00021569421202621887,8.582218893076675e-05,0.0009865049012016402,0.3514034152030945,19.693445205688477,0.3713042438030243,-20.031160354614258,-0.8499045968055725,-2.4694857597351074,0.24844686686992645,0
13,0.05998063087463379,-0.3514034152030945,-19.693445205688477,-0.3713042438030243,20.031160354614258,0.8499045968055725,2.4694857597351074,-0.24844686686992645,0.0,0.0,0.0,0.0,0.0,0.0,0.0,-0.3919687969841128,0.028057268074131215,-0.21788702490380457,0.24187729035754768,0.27030781973812973,0.10122974534775885,-0.27288773989513976,1.2135573431783961,-0.22034631704478566,-0.007480862655268427,-2.604226091886821,-0.10898778301015016,2.4682267036967533,0.8264789067254216,1.2134413937687574,-0.2202432315892585,-0.0075118285948192216,-2.6038483821997875,-0.10888392708698907,2.4681821257803174,0.826474908251239,-0.0015094600863516064,-0.0001110845613466819,-0.000627540525215512,-0.0004408463164389868,0.00021569421202621887,-8.582218893076675e-05,-0.0009865049012016402,0.0,0.0,0.0,0.0,0.0,0.0,0.0,-0.00011594940963877143,0.0001030854555271743,-3.096593955079479e-05,0.000377709687033434,0.00010385592316108916,-4.457791643597275e-05,-3.9984741825316306e-06,0.0015094600863516064,0.0001110845613466819,0.000627540525215512,0.0004408463164389868,-0.00021569421202621887,8.582218893076675e-05,0.0009865049012016402,0.3514034152030945,19.693445205688477,0.3713042438030243,-20.031160354614258,-0.8499045968055725,-2.4694857597351074,0.24844686686992645,0
14,0.06499934196472168,-0.3514034152030945,-19.693445205688477,-0.3713042438030243,20.031160354614258,0.8499045968055725,2.4694857597351074,-0.24844686686992645,0.0,0.0,0.0,0.0,0.0,0.0,0.0,-0.3919687969841128,0.028057268074131215,-0.21788702490380457,0.24187729035754768,0.27030781973812973,0.10122974534775885,-0.27288773989513976,1.2135573431783961,-0.22034631704478566,-0.007480862655268427,-2.604226091886821,-0.10898778301015016,2.4682267036967533,0.8264789067254216,1.2134413937687574,-0.2202432315892585,-0.0075118285948192216,-2.6038483821997875,-0.10888392708698907,2.4681821257803174,0.826474908251239,-0.0015094600863516064,-0.0001110845613466819,-0.000627540525215512,-0.0004408463164389868,0.00021569421202621887,-8.582218893076675e-05,-0.0009865049012016402,0.0,0.0,0.0,0.0,0.0,0.0,0.0,-0.00011594940963877143,0.0001030854555271743,-3.096593955079479e-05,0.000377709687033434,0.00010385592316108916,-4.457791643597275e-05,-3.9984741825316306e-06,0.0015094600863516064,0.0001110845613466819,0.000627540525215512,0.0004408463164389868,-0.00021569421202621887,8.582218893076675e-05,0.0009865049012016402,0.3514034152030945,19.693445205688477,0.3713042438030243,-20.031160354614258,-0.8499045968055725,-2.4694857597351074,0.24844686686992645,0
15,0.06997251510620117,-0.3752071261405945,-19.645837783813477,-0.4228789508342743,20.007356643676758,0.8563132882118225,2.4758944511413574,-0.29605430364608765,0.0,0.0,0.0,0.0,0.0,0.0,0.0,-0.3887721651532317,0.029934793193889503,-0.212109146800564,0.2446225951965718,0.27029355392222226,0.10100015821246311,-0.2731914039347091,1.2135587514978854,-0.2203497599446271,-0.0074770063589913545,-2.604224421450966,-0.10898844241152113,2.4682259916199576,0.8264831353877096,1.2134413937687574,-0.2202432315892585,-0.0075118285948192216,-2.6038483821997875,-0.10888392708698907,2.4681821257803174,0.826474908251239,-0.00036370597801397046,-0.0007819997136195931,0.00020295949084895806,0.00022755346010033416,1.4451566668620893e-05,7.843406746512476e-05,0.001164556313215583,0.0,0.0,0.0,0.0,0.0,0.0,0.0,-0.00011735772912802034,0.00010652835536861804,-3.482223582786711e-05,0.0003760392511784616,0.00010451532453205348,-4.3865839640222504e-05,-8.227136470528862e-06,0.00036370597801397046,0.0007819997136195931,-0.00020295949084895806,-0.00022755346010033416,-1.4451566668620893e-05,-7.843406746512476e-05,-0.001164556313215583,0.3752071261405945,19.645837783813477,0.4228789508342743,-20.007356643676758,-0.8563132882118225,-2.4758944511413574,0.29605430364608765,0
16,0.07498359680175781,-0.3752071261405945,-19.645837783813477,-0.4228789508342743,20.007356643676758,0.8563132882118225,2.4758944511413574,-0.29605430364608765,0.0,0.0,0.0,0.0,0.0,0.0,0.0,-0.3887721651532317,0.029934793193889503,-0.212109146800564,0.2446225951965718,0.27029355392222226,0.10100015821246311,-0.2731914039347091,1.2135587514978854,-0.2203497599446271,-0.0074770063589913545,-2.604224421450966,-0.10898844241152113,2.4682259916199576,0.8264831353877096,1.2134413937687574,-0.2202432315892585,-0.0075118285948192216,-2.6038483821997875,-0.10888392708698907,2.4681821257803174,0.826474908251239,-0.00036370597801397046,-0.0007819997136195931,0.00020295949084895806,0.00022755346010033416,1.4451566668620893e-05,7.843406746512476e-05,0.001164556313215583,0.0,0.0,0.0,0.0,0.0,0.0,0.0,-0.00011735772912802034,0.00010652835536861804,-3.482223582786711e-05,0.0003760392511784616,0.00010451532453205348,-4.3865839640222504e-05,-8.227136470528862e-06,0.00036370597801397046,0.0007819997136195931,-0.00020295949084895806,-0.00022755346010033416,-1.4451566668620893e-05,-7.843406746512476e-05,-0.001164556313215583,0.3752071261405945,19.645837783813477,0.4228789508342743,-20.007356643676758,-0.8563132882118225,-2.4758944511413574,0.29605430364608765,0
17,0.07997798919677734,-0.3514034152030945,-19.745019912719727,-0.4228789508342743,19.983552932739258,0.8563132882118225,2.4823031425476074,-0.28964561223983765,0.0,0.0,0.0,0.0,0.0,0.0,0.0,-0.39192580580511954,0.026028823490290832,-0.21660514748903004,0.24736427929815885,0.2709326638362869,0.10206494971208727,-0.2736325707028719,1.2135598799331002,-0.22034419437997982,-0.007476523554923001,-2.6042227510151106,-0.10898753496662068,2.4682252795431343,0.8264834844185147,1.2134413937687574,-0.2202432315892585,-0.0075118285948192216,-2.6038483821997875,-0.10888392708698907,2.4681821257803174,0.826474908251239,-0.0013166633073477781,0.0008019044939926135,-0.0004887151398357109,0.0005104650930804765,-0.00013475798112341087,-0.0003131058397999816,0.0006878006462929996,0.0,0.0,0.0,0.0,0.0,0.0,0.0,-0.00011848616434284587,0.00010096279072133174,-3.530503989622024e-05,0.0003743688153230451,0.00010360787963160922,-4.315376281693872e-05,-8.576167275675672e-06,0.0013166633073477781,-0.0008019044939926135,0.0004887151398357109,-0.0005104650930804765,0.00013475798112341087,0.0003131058397999816,-0.0006878006462929996,0.3514034152030945,19.745019912719727,0.4228789508342743,-19.983552932739258,-0.8563132882118225,-2.4823031425476074,0.28964561223983765,0
18,0.08500027656555176,-0.3514034152030945,-19.745019912719727,-0.4228789508342743,19.983552932739258,0.8563132882118225,2.4823031425476074,-0.28964561223983765,0.0,0.0,0.0,0.0,0.0,0.0,0.0,-0.39192580580511954,0.026028823490290832,-0.21660514748903004,0.24736427929815885,0.2709326638362869,0.10206494971208727,-0.2736325707028719,1.2135598799331002,-0.22034419437997982,-0.007476523554923001,-2.6042227510151106,-0.10898753496662068,2.4682252795431343,0.8264834844185147,1.2134413937687574,-0.2202432315892585,-0.0075118285948192216,-2.6038483821997875,-0.10888392708698907,2.4681821257803174,0.826474908251239,-0.0013166633073477781,0.0008019044939926135,-0.0004887151398357109,0.0005104650930804765,-0.00013475798112341087,-0.0003131058397999816,0.0006878006462929996,0.0,0.0,0.0,0.0,0.0,0.0,0.0,-0.00011848616434284587,0.00010096279072133174,-3.530503989622024e-05,0.0003743688153230451,0.00010360787963160922,-4.315376281693872e-05,-8.576167275675672e-06,0.0013166633073477781,-0.0008019044939926135,0.0004887151398357109,-0.0005104650930804765,0.00013475798112341087,0.0003131058397999816,-0.0006878006462929996,0.3514034152030945,19.745019912719727,0.4228789508342743,-19.983552932739258,-0.8563132882118225,-2.4823031425476074,0.28964561223983765,0
19,0.09004449844360352,-0.4267818331718445,-19.745019912719727,-0.4466826617717743,20.007356643676758,0.8563132882118225,2.4694857597351074,-0.30978721380233765,0.0,0.0,0.0,0.0,0.0,0.0,0.0,-0.39099345938132024,0.032418004121250246,-0.21744770915242126,0.24356772859215856,0.2699272155743598,0.10213421466054601,-0.274134549187516,1.2135646668070825,-0.22034457964030107,-0.007475546638340266,-2.604224421450966,-0.1089871904952928,2.4682266906148285,0.8264843051647507,1.2134413937687574,-0.2202432315892585,-0.0075118285948192216,-2.6038483821997875,-0.10888392708698907,2.4681821257803174,0.826474908251239,4.394914132515966e-05,0.0009266525261433035,0.0006738512033727899,0.0001478367288413005,-0.00020583307215680526,1.7680538336664187e-05,0.001275260447575146,0.0,0.0,0.0,0.0,0.0,0.0,0.0,-0.00012327303832515568,0.00010134805104258793,-3.628195647895592e-05,0.0003760392511784616,0.00010326340830373038,-4.456483451109605e-05,-9.396913511650062e-06,-4.394914132515966e-05,-0.0009266525261433035,-0.0006738512033727899,-0.0001478367288413005,0.00020583307215680526,-1.7680538336664187e-05,-0.001275260447575146,0.4267818331718445,19.745019912719727,0.4466826617717743,-20.007356643676758,-0.8563132882118225,-2.4694857597351074,0.30978721380233765,0
20,0.09501004219055176,-0.4267818331718445,-19.745019912719727,-0.4466826617717743,20.007356643676758,0.8563132882118225,2.4694857597351074,-0.30978721380233765,0.0,0.0,0.0,0.0,0.0,0.0,0.0,-0.39099345938132024,0.032418004121250246,-0.21744770915242126,0.24356772859215856,0.2699272155743598,0.10213421466054601,-0.274134549187516,1.2135646668070825,-0.22034457964030107,-0.007475546638340266,-2.604224421450966,-0.1089871904952928,2.4682266906148285,0.8264843051647507,1.2134413937687574,-0.2202432315892585,-0.0075118285948192216,-2.6038483821997875,-0.10888392708698907,2.4681821257803174,0.826474908251239,4.394914132515966e-05,0.0009266525261433035,0.0006738512033727899,0.0001478367288413005,-0.00020583307215680526,1.7680538336664187e-05,0.001275260447575146,0.0,0.0,0.0,0.0,0.0,0.0,0.0,-0.00012327303832515568,0.00010134805104258793,-3.628195647895592e-05,0.0003760392511784616,0.00010326340830373038,-4.456483451109605e-05,-9.396913511650062e-06,-4.394914132515966e-05,-0.0009266525261433035,-0.0006738512033727899,-0.0001478367288413005,0.00020583307215680526,-1.7680538336664187e-05,-0.001275260447575146,0.4267818331718445,19.745019912719727,0.4466826617717743,-20.007356643676758,-0.8563132882118225,-2.4694857597351074,0.30978721380233765,0
21,0.10000276565551758,-0.4029781222343445,-19.693445205688477,-0.4228789508342743,19.983552932739258,0.8499045968055725,2.4694857597351074,-0.26858848333358765,0.0,0.0,0.0,0.0,0.0,0.0,0.0,-0.39236223117880636,0.03580596239555742,-0.2151618445626558,0.24050354085196826,0.2689428411486194,0.10134910268811075,-0.27504956932341335,1.2135637116241258,-0.22034780991546005,-0.00747700570947687,-2.6042227510151106,-0.10898469076901705,2.4682267036967067,0.8264811447315216,1.2134413937687574,-0.2202432315892585,-0.0075118285948192216,-2.6038483821997875,-0.10888392708698907,2.4681821257803174,0.826474908251239,-0.00012111564869712883,-1.1276917141877597e-05,9.683467993111632e-05,0.001021357062337961,0.00024985217039758385,0.00037725576955251715,0.00020955983056524386,0.0,0.0,0.0,0.0,0.0,0.0,0.0,-0.00012231785536842565,0.00010457832620155982,-3.482288534235184e-05,0.0003743688153230451,0.00010076368202797947,-4.4577916389343386e-05,-6.236480282528767e-06,0.00012111564869712883,1.1276917141877597e-05,-9.683467993111632e-05,-0.001021357062337961,-0.00024985217039758385,-0.00037725576955251715,-0.00020955983056524386,0.4029781222343445,19.693445205688477,0.4228789508342743,-19.983552932739258,-0.8499045968055725,-2.4694857597351074,0.26858848333358765,0
22,0.10500407218933105,-0.4029781222343445,-19.693445205688477,-0.4228789508342743,19.983552932739258,0.8499045968055725,2.4694857597351074,-0.26858848333358765,0.0,0.0,0.0,0.0,0.0,0.0,0.0,-0.39236223117880636,0.03580596239555742,-0.2151618445626558,0.24050354085196826,0.2689428411486194,0.10134910268811075,-0.27504956932341335,1.2135637116241258,-0.22034780991546005,-0.00747700570947687,-2.6042227510151106,-0.10898469076901705,2.4682267036967067,0.8264811447315216,1.2134413937687574,-0.2202432315892585,-0.0075118285948192216,-2.6038483821997875,-0.10888392708698907,2.4681821257803174,0.826474908251239,-0.00012111564869712883,-1.1276917141877597e-05,9.683467993111632e-05,0.001021357062337961,0.00024985217039758385,0.00037725576955251715,0.00020955983056524386,0.0,0.0,0.0,0.0,0.0,0.0,0.0,-0.00012231785536842565,0.00010457832620155982,-3.482288534235184e-05,0.0003743688153230451,0.00010076368202797947,-4.4577916389343386e-05,-6.236480282528767e-06,0.00012111564869712883,1.1276917141877597e-05,-9.683467993111632e-05,-0.001021357062337961,-0.00024985217039758385,-0.00037725576955251715,-0.00020955983056524386,0.4029781222343445,19.693445205688477,0.4228789508342743,-19.983552932739258,-0.8499045968055725,-2.4694857597351074,0.26858848333358765,0
23,0.11000990867614746,-0.4029781222343445,-19.693445205688477,-0.4228789508342743,20.007356643676758,0.8563132882118225,2.4694857597351074,-0.30337852239608765,0.0,0.0,0.0,0.0,0.0,0.0,0.0,-0.39840309812249164,0.030429584179938306,-0.22239421296478967,0.24515603115176254,0.26942905690911484,0.10202755203818863,-0.27418560945094467,1.2135638162837812,-0.22034782827443009,-0.007477243376240379,-2.604224421450966,-0.10898808460449258,2.4682267036967804,0.8264849710535609,1.2134413937687574,-0.2202432315892585,-0.0075118285948192216,-2.6038483821997875,-0.10888392708698907,2.4681821257803174,0.826474908251239,-7.912971783698358e-06,-9.993388665013703e-05,2.0907625734053443e-06,0.000562811210995728,-0.00016863009598298964,0.00017569290046808944,0.0013455171498711158,0.0,0.0,0.0,0.0,0.0,0.0,0.0,-0.0001224225150238123,0.00010459668517159848,-3.45852185788427e-05,0.0003760392511784616,0.00010415751750350588,-4.4577916463062195e-05,-1.006280232185297e-05,7.912971783698358e-06,9.993388665013703e-05,-2.0907625734053443e-06,-0.000562811210995728,0.00016863009598298964,-0.00017569290046808944,-0.0013455171498711158,0.4029781222343445,19.693445205688477,0.4228789508342743,-20.007356643676758,-0.8563132882118225,-2.4694857597351074,0.30337852239608765,0
24,0.114990234375,-0.4029781222343445,-19.693445205688477,-0.4228789508342743,20.007356643676758,0.8563132882118225,2.4694857597351074,-0.30337852239608765,0.0,0.0,0.0,0.0,0.0,0.0,0.0,-0.39840309812249164,0.030429584179938306,-0.22239421296478967,0.24515603115176254,0.26942905690911484,0.10202755203818863,-0.27418560945094467,1.2135638162837812,-0.22034782827443009,-0.007477243376240379,-2.604224421450966,-0.10898808460449258,2.4682267036967804,0.8264849710535609,1.2134413937687574,-0.2202432315892585,-0.0075118285948192216,-2.6038483821997875,-0.10888392708698907,2.4681821257803174,0.826474908251239,-7.912971783698358e-06,-9.993388665013703e-05,2.0907625734053443e-06,0.000562811210995728,-0.00016863009598298964,0.00017569290046808944,0.0013455171498711158,0.0,0.0,0.0,0.0,0.0,0.0,0.0,-0.0001224225150238123,0.00010459668517159848,-3.45852185788427e-05,0.0003760392511784616,0.00010415751750350588,-4.4577916463062195e-05,-1.006280232185297e-05,7.912971783698358e-06,9.993388665013703e-05,-2.0907625734053443e-06,-0.000562811210995728,0.00016863009598298964,-0.00017569290046808944,-0.0013455171498711158,0.4029781222343445,19.693445205688477,0.4228789508342743,-20.007356643676758,-0.8563132882118225,-2.4694857597351074,0.30337852239608765,0
25,0.1199953556060791,-0.3752071261405945,-19.669641494750977,-0.3990752398967743,20.054964065551758,0.8499045968055725,2.4758944511413574,-0.30337852239608765,0.0,0.0,0.0,0.0,0.0,0.0,0.0,-0.3900912007139909,0.030948927850823395,-0.21448086549790302,0.2433794090686938,0.26906686287938514,0.10189691737544934,-0.2745856299475604,1.213558910557953,-0.22034784724951934,-0.0074786771195296115,-2.6042277623226764,-0.1089835066354029,2.4682259916199576,0.8264850102991961,1.2134413937687574,-0.2202432315892585,-0.0075118285948192216,-2.6038483821997875,-0.10888392708698907,2.4681821257803174,0.826474908251239,4.307749823130918e-05,-0.0008920318292813402,-0.0003281562611219684,-0.00120507567585776,9.250409714983509e-05,-0.0001078150026796113,0.0009980161059040364,0.0,0.0,0.0,0.0,0.0,0.0,0.0,-0.00011751678919558195,0.00010461566026084834,-3.315147528961011e-05,0.0003793801228888505,9.957954841383065e-05,-4.3865839640222504e-05,-1.0102047957039062e-05,-4.307749823130918e-05,0.0008920318292813402,0.0003281562611219684,0.00120507567585776,-9.250409714983509e-05,0.0001078150026796113,-0.0009980161059040364,0.3752071261405945,19.669641494750977,0.3990752398967743,-20.054964065551758,-0.8499045968055725,-2.4758944511413574,0.30337852239608765,0
26,0.12499594688415527,-0.3752071261405945,-19.669641494750977,-0.3990752398967743,20.054964065551758,0.8499045968055725,2.4758944511413574,-0.30337852239608765,0.0,0.0,0.0,0.0,0.0,0.0,0.0,-0.3900912007139909,0.030948927850823395,-0.21448086549790302,0.2433794090686938,0.26906686287938514,0.10189691737544934,-0.2745856299475604,1.213558910557953,-0.22034784724951934,-0.0074786771195296115,-2.6042277623226764,-0.1089835066354029,2.4682259916199576,0.8264850102991961,1.2134413937687574,-0.2202432315892585,-0.0075118285948192216,-2.6038483821997875,-0.10888392708698907,2.4681821257803174,0.826474908251239,4.307749823130918e-05,-0.0008920318292813402,-0.0003281562611219684,-0.00120507567585776,9.250409714983509e-05,-0.0001078150026796113,0.0009980161059040364,0.0,0.0,0.0,0.0,0.0,0.0,0.0,-0.00011751678919558195,0.00010461566026084834,-3.315147528961011e-05,0.0003793801228888505,9.957954841383065e-05,-4.3865839640222504e-05,-1.0102047957039062e-05,-4.307749823130918e-05,0.0008920318292813402,0.0003281562611219684,0.00120507567585776,-9.250409714983509e-05,0.0001078150026796113,-0.0009980161059040364,0.3752071261405945,19.669641494750977,0.3990752398967743,-20.054964065551758,-0.8499045968055725,-2.4758944511413574,0.30337852239608765,0
27,0.13000845909118652,-0.3514034152030945,-19.693445205688477,-0.4228789508342743,20.031160354614258,0.8618064522743225,2.4694857597351074,-0.25485557317733765,0.0,0.0,0.0,0.0,0.0,0.0,0.0,-0.3905392606024145,0.02824467405487996,-0.2155812307781288,0.24574720894362018,0.26959011651672943,0.10260763471762173,-0.2760281488208512,1.2135598529346505,-0.22034823361495134,-0.0074772170769228045,-2.604226091886821,-0.10898550107973384,2.4682267036967804,0.826478514000923,1.2134413937687574,-0.2202432315892585,-0.0075118285948192216,-2.6038483821997875,-0.10888392708698907,2.4681821257803174,0.826474908251239,-0.0005928145714621432,-0.00034233110157205017,0.000503370974482751,-0.0002708618307536224,-0.00015771308527002322,0.00016016438155165433,-0.0014283492202730066,0.0,0.0,0.0,0.0,0.0,0.0,0.0,-0.00011845916589314776,0.00010500202569285744,-3.461151789641709e-05,0.000377709687033434,0.00010157399274476897,-4.4577916463062195e-05,-3.605749683943671e-06,0.0005928145714621432,0.00034233110157205017,-0.000503370974482751,0.0002708618307536224,0.00015771308527002322,-0.00016016438155165433,0.0014283492202730066,0.3514034152030945,19.693445205688477,0.4228789508342743,-20.031160354614258,-0.8618064522743225,-2.4694857597351074,0.25485557317733765,0
28,0.1350092887878418,-0.3514034152030945,-19.693445205688477,-0.4228789508342743,20.031160354614258,0.8618064522743225,2.4694857597351074,-0.25485557317733765,0.0,0.0,0.0,0.0,0.0,0.0,0.0,-0.3905392606024145,0.02824467405487996,-0.2155812307781288,0.24574720894362018,0.26959011651672943,0.10260763471762173,-0.2760281488208512,1.2135598529346505,-0.22034823361495134,-0.0074772170769228045,-2.604226091886821,-0.10898550107973384,2.4682267036967804,0.826478514000923,1.2134413937687574,-0.2202432315892585,-0.0075118285948192216,-2.6038483821997875,-0.10888392708698907,2.4681821257803174,0.826474908251239,-0.0005928145714621432,-0.00034233110157205017,0.000503370974482751,-0.0002708618307536224,-0.00015771308527002322,0.00016016438155165433,-0.0014283492202730066,0.0,0.0,0.0,0.0,0.0,0.0,0.0,-0.00011845916589314776,0.00010500202569285744,-3.461151789641709e-05,0.000377709687033434,0.00010157399274476897,-4.4577916463062195e-05,-3.605749683943671e-06,0.0005928145714621432,0.00034233110157205017,-0.000503370974482751,0.0002708618307536224,0.00015771308527002322,-0.00016016438155165433,0.0014283492202730066,0.3514034152030945,19.693445205688477,0.4228789508342743,-20.031160354614258,-0.8618064522743225,-2.4694857597351074,0.25485557317733765,0
29,0.13999438285827637,-0.3752071261405945,-19.669641494750977,-0.4466826617717743,20.054964065551758,0.8563132882118225,2.4823031425476074,-0.30978721380233765,0.0,0.0,0.0,0.0,0.0,0.0,0.0,-0.38743824172930497,0.03013616781925232,-0.2131070883481683,0.24408252962221721,0.2699928510628333,0.10247549523197809,-0.27714387803604595,1.2135587663638263,-0.22035013084081798,-0.007475572905502403,-2.6042277623226764,-0.10898383786377948,2.468224102167435,0.8264856824781246,1.2134413937687574,-0.2202432315892585,-0.0075118285948192216,-2.6038483821997875,-0.10888392708698907,2.4681821257803174,0.826474908251239,0.0001782129522545697,-0.0009946942802593242,0.0014984009615514175,-0.0009222780492207288,-7.676995397412231e-05,-0.00015505711149008618,0.0013457096443801018,0.0,0.0,0.0,0.0,0.0,0.0,0.0,-0.00011737259506894304,0.0001068992515594891,-3.62556893168187e-05,0.0003793801228888505,9.99107767904045e-05,-4.19763871177814e-05,-1.077422688555707e-05,-0.0001782129522545697,0.0009946942802593242,-0.0014984009615514175,0.0009222780492207288,7.676995397412231e-05,0.00015505711149008618,-0.0013457096443801018,0.3752071261405945,19.669641494750977,0.4466826617717743,-20.054964065551758,-0.8563132882118225,-2.4823031425476074,0.30978721380233765,0
30,0.14500975608825684,-0.3752071261405945,-19.669641494750977,-0.4466826617717743,20.054964065551758,0.8563132882118225,2.4823031425476074,-0.30978721380233765,0.0,0.0,0.0,0.0,0.0,0.0,0.0,-0.38743824172930497,0.03013616781925232,-0.2131070883481683,0.24408252962221721,0.2699928510628333,0.10247549523197809,-0.27714387803604595,1.2135587663638263,-0.22035013084081798,-0.007475572905502403,-2.6042277623226764,-0.10898383786377948,2.468224102167435,0.8264856824781246,1.2134413937687574,-0.2202432315892585,-0.0075118285948192216,-2.6038483821997875,-0.10888392708698907,2.4681821257803174,0.826474908251239,0.0001782129522545697,-0.0009946942802593242,0.0014984009615514175,-0.0009222780492207288,-7.676995397412231e-05,-0.00015505711149008618,0.0013457096443801018,0.0,0.0,0.0,0.0,0.0,0.0,0.0,-0.00011737259506894304,0.0001068992515594891,-3.62556893168187e-05,0.0003793801228888505,9.99107767904045e-05,-4.19763871177814e-05,-1.077422688555707e-05,-0.0001782129522545697,0.0009946942802593242,-0.0014984009615514175,0.0009222780492207288,7.676995397412231e-05,0.00015505711149008618,-0.0013457096443801018,0.3752071261405945,19.669641494750977,0.4466826617717743,-20.054964065551758,-0.8563132882118225,-2.4823031425476074,0.30978721380233765,0
31,0.1499946117401123,-0.3752071261405945,-19.693445205688477,-0.4228789508342743,20.031160354614258,0.8563132882118225,2.4823031425476074,-0.26217979192733765,0.0,0.0,0.0,0.0,0.0,0.0,0.0,-0.3872983333752161,0.02786396797827643,-0.21490711543349594,0.24363547456341691,0.2703249525934824,0.10290704913267197,-0.27802946491831565,1.2135596127505712,-0.22034774964910908,-0.007477243269354152,-2.604226091886821,-0.10898431653262494,2.468222100568265,0.8264804283018229,1.2134413937687574,-0.2202432315892585,-0.0075118285948192216,-2.6038483821997875,-0.10888392708698907,2.4681821257803174,0.826474908251239,-0.00016702604055647612,-0.0008500745667530134,0.00012885705355049722,-0.0006339629543695281,-9.0150597928318e-05,-0.00020537406638424131,-0.0003472465199968686,0.0,0.0,0.0,0.0,0.0,0.0,0.0,-0.0001182189818138557,0.00010451805985059459,-3.4585325465069996e-05,0.000377709687033434,0.00010038944563586782,-3.997478794781628e-05,-5.520050583851521e-06,0.00016702604055647612,0.0008500745667530134,-0.00012885705355049722,0.0006339629543695281,9.0150597928318e-05,0.00020537406638424131,0.0003472465199968686,0.3752071261405945,19.693445205688477,0.4228789508342743,-20.031160354614258,-0.8563132882118225,-2.4823031425476074,0.26217979192733765,0
32,0.1549849510192871,-0.3752071261405945,-19.693445205688477,-0.4228789508342743,20.031160354614258,0.8563132882118225,2.4823031425476074,-0.26217979192733765,0.0,0.0,0.0,0.0,0.0,0.0,0.0,-0.3872983333752161,0.02786396797827643,-0.21490711543349594,0.24363547456341691,0.2703249525934824,0.10290704913267197,-0.27802946491831565,1.2135596127505712,-0.22034774964910908,-0.007477243269354152,-2.604226091886821,-0.10898431653262494,2.468222100568265,0.8264804283018229,1.2134413937687574,-0.2202432315892585,-0.0075118285948192216,-2.6038483821997875,-0.10888392708698907,2.4681821257803174,0.826474908251239,-0.00016702604055647612,-0.0008500745667530134,0.00012885705355049722,-0.0006339629543695281,-9.0150597928318e-05,-0.00020537406638424131,-0.0003472465199968686,0.0,0.0,0.0,0.0,0.0,0.0,0.0,-0.0001182189818138557,0.00010451805985059459,-3.4585325465069996e-05,0.000377709687033434,0.00010038944563586782,-3.997478794781628e-05,-5.520050583851521e-06,0.00016702604055647612,0.0008500745667530134,-0.00012885705355049722,0.0006339629543695281,9.0150597928318e-05,0.00020537406638424131,0.0003472465199968686,0.3752071261405945,19.693445205688477,0.4228789508342743,-20.031160354614258,-0.8563132882118225,-2.4823031425476074,0.26217979192733765,0
33,0.16004586219787598,-0.4029781222343445,-19.717248916625977,-0.4228789508342743,20.031160354614258,0.8563132882118225,2.4694857597351074,-0.26217979192733765,0.0,0.0,0.0,0.0,0.0,0.0,0.0,-0.38714619882976015,0.030132392558266264,-0.21505512470951105,0.24141701959473885,0.2703268381461468,0.1026993717258837,-0.27766926645904205,1.2135616674519767,-0.2203446379297187,-0.007477243377581412,-2.604226091886821,-0.10898382433865143,2.4682267036788352,0.8264803134715542,1.2134413937687574,-0.2202432315892585,-0.0075118285948192216,-2.6038483821997875,-0.10888392708698907,2.4681821257803174,0.826474908251239,0.00047020419150246547,0.00013422603282129154,1.8029341370742888e-05,-0.0003776414085623141,0.00011336401524302026,0.0002682475793441986,-0.0008474853934087543,0.0,0.0,0.0,0.0,0.0,0.0,0.0,-0.00012027368321931853,0.0001014063404602139,-3.458521723780951e-05,0.000377709687033434,9.989725166235919e-05,-4.4577898517861314e-05,-5.405220315113368e-06,-0.00047020419150246547,-0.00013422603282129154,-1.8029341370742888e-05,0.0003776414085623141,-0.00011336401524302026,-0.0002682475793441986,0.0008474853934087543,0.4029781222343445,19.717248916625977,0.4228789508342743,-20.031160354614258,-0.8563132882118225,-2.4694857597351074,0.26217979192733765,0
34,0.16501092910766602,-0.4029781222343445,-19.717248916625977,-0.4228789508342743,20.031160354614258,0.8563132882118225,2.4694857597351074,-0.26217979192733765,0.0,0.0,0.0,0.0,0.0,0.0,0.0,-0.38714619882976015,0.030132392558266264,-0.21505512470951105,0.24141701959473885,0.2703268381461468,0.1026993717258837,-0.27766926645904205,1.2135616674519767,-0.2203446379297187,-0.007477243377581412,-2.604226091886821,-0.10898382433865143,2.4682267036788352,0.8264803134715542,1.2134413937687574,-0.2202432315892585,-0.0075118285948192216,-2.6038483821997875,-0.10888392708698907,2.4681821257803174,0.826474908251239,0.00047020419150246547,0.00013422603282129154,1.8029341370742888e-05,-0.0003776414085623141,0.00011336401524302026,0.0002682475793441986,-0.0008474853934087543,0.0,0.0,0.0,0.0,0.0,0.0,0.0,-0.00012027368321931853,0.0001014063404602139,-3.458521723780951e-05,0.000377709687033434,9.989725166235919e-05,-4.4577898517861314e-05,-5.405220315113368e-06,-0.00047020419150246547,-0.00013422603282129154,-1.8029341370742888e-05,0.0003776414085623141,-0.00011336401524302026,-0.0002682475793441986,0.0008474853934087543,0.4029781222343445,19.717248916625977,0.4228789508342743,-20.031160354614258,-0.8563132882118225,-2.4694857597351074,0.26217979192733765,0
35,0.17003560066223145,-0.4029781222343445,-19.717248916625977,-0.4228789508342743,20.031160354614258,0.8563132882118225,2.4694857597351074,-0.26217979192733765,0.0,0.0,0.0,0.0,0.0,0.0,0.0,-0.38714619882976015,0.030132392558266264,-0.21505512470951105,0.24141701959473885,0.2703268381461468,0.1026993717258837,-0.27766926645904205,1.2135616674519767,-0.2203446379297187,-0.007477243377581412,-2.604226091886821,-0.10898382433865143,2.4682267036788352,0.8264803134715542,1.2134413937687574,-0.2202432315892585,-0.0075118285948192216,-2.6038483821997875,-0.10888392708698907,2.4681821257803174,0.826474908251239,0.00047020419150246547,0.00013422603282129154,1.8029341370742888e-05,-0.0003776414085623141,0.00011336401524302026,0.0002682475793441986,-0.0008474853934087543,0.0,0.0,0.0,0.0,0.0,0.0,0.0,-0.00012027368321931853,0.0001014063404602139,-3.458521723780951e-05,0.000377709687033434,9.989725166235919e-05,-4.4577898517861314e-05,-5.405220315113368e-06,-0.00047020419150246547,-0.00013422603282129154,-1.8029341370742888e-05,0.0003776414085623141,-0.00011336401524302026,-0.0002682475793441986,0.0008474853934087543,0.4029781222343445,19.717248916625977,0.4228789508342743,-20.031160354614258,-0.8563132882118225,-2.4694857597351074,0.26217979192733765,0
36,0.17500996589660645,-0.4029781222343445,-19.717248916625977,-0.4228789508342743,20.031160354614258,0.8563132882118225,2.4694857597351074,-0.26217979192733765,0.0,0.0,0.0,0.0,0.0,0.0,0.0,-0.38714619882976015,0.030132392558266264,-0.21505512470951105,0.24141701959473885,0.2703268381461468,0.1026993717258837,-0.27766926645904205,1.2135616674519767,-0.2203446379297187,-0.007477243377581412,-2.604226091886821,-0.10898382433865143,2.4682267036788352,0.8264803134715542,1.2134413937687574,-0.2202432315892585,-0.0075118285948192216,-2.6038483821997875,-0.10888392708698907,2.4681821257803174,0.826474908251239,0.00047020419150246547,0.00013422603282129154,1.8029341370742888e-05,-0.0003776414085623141,0.00011336401524302026,0.0002682475793441986,-0.0008474853934087543,0.0,0.0,0.0,0.0,0.0,0.0,0.0,-0.00012027368321931853,0.0001014063404602139,-3.458521723780951e-05,0.000377709687033434,9.989725166235919e-05,-4.4577898517861314e-05,-5.405220315113368e-06,-0.00047020419150246547,-0.00013422603282129154,-1.8029341370742888e-05,0.0003776414085623141,-0.00011336401524302026,-0.0002682475793441986,0.0008474853934087543,0.4029781222343445,19.717248916625977,0.4228789508342743,-20.031160354614258,-0.8563132882118225,-2.4694857597351074,0.26217979192733765,0
37,0.18002772331237793,-0.3752071261405945,-19.693445205688477,-0.4228789508342743,20.007356643676758,0.8563132882118225,2.4758944511413574,-0.25485557317733765,0.0,0.0,0.0,0.0,0.0,0.0,0.0,-0.3894070104612696,0.03094375297295947,-0.2168929579111961,0.23854477893480958,0.27064419290156394,0.10257095595009706,-0.2772724694111649,1.213561159369747,-0.22034782740189893,-0.007476427990339058,-2.604224421450966,-0.1089841966204574,2.4682259916199576,0.8264785461398612,1.2134413937687574,-0.2202432315892585,-0.0075118285948192216,-2.6038483821997875,-0.10888392708698907,2.4681821257803174,0.826474908251239,-0.000697002855052548,-0.00026422315740810793,0.00013081864848051217,-0.00014484898404402077,5.992119501264601e-05,9.095565877019418e-05,-0.0006347367234149612,0.0,0.0,0.0,0.0,0.0,0.0,0.0,-0.00011976560098969635,0.00010459581264044004,-3.540060448016351e-05,0.0003760392511784616,0.00010026953346832512,-4.3865839640222504e-05,-3.6378886221211104e-06,0.000697002855052548,0.00026422315740810793,-0.00013081864848051217,0.00014484898404402077,-5.992119501264601e-05,-9.095565877019418e-05,0.0006347367234149612,0.3752071261405945,19.693445205688477,0.4228789508342743,-20.007356643676758,-0.8563132882118225,-2.4758944511413574,0.25485557317733765,0
38,0.18497657775878906,-0.3752071261405945,-19.693445205688477,-0.4228789508342743,20.007356643676758,0.8563132882118225,2.4758944511413574,-0.25485557317733765,0.0,0.0,0.0,0.0,0.0,0.0,0.0,-0.3894070104612696,0.03094375297295947,-0.2168929579111961,0.23854477893480958,0.27064419290156394,0.10257095595009706,-0.2772724694111649,1.213561159369747,-0.22034782740189893,-0.007476427990339058,-2.604224421450966,-0.1089841966204574,2.4682259916199576,0.8264785461398612,1.2134413937687574,-0.2202432315892585,-0.0075118285948192216,-2.6038483821997875,-0.10888392708698907,2.4681821257803174,0.826474908251239,-0.000697002855052548,-0.00026422315740810793,0.00013081864848051217,-0.00014484898404402077,5.992119501264601e-05,9.095565877019418e-05,-0.0006347367234149612,0.0,0.0,0.0,0.0,0.0,0.0,0.0,-0.00011976560098969635,0.00010459581264044004,-3.540060448016351e-05,0.0003760392511784616,0.00010026953346832512,-4.3865839640222504e-05,-3.6378886221211104e-06,0.000697002855052548,0.00026422315740810793,-0.00013081864848051217,0.00014484898404402077,-5.992119501264601e-05,-9.095565877019418e-05,0.0006347367234149612,0.3752071261405945,19.693445205688477,0.4228789508342743,-20.007356643676758,-0.8563132882118225,-2.4758944511413574,0.25485557317733765,0
39,0.1900339126586914,-0.4267818331718445,-19.717248916625977,-0.4466826617717743,20.054964065551758,0.8563132882118225,2.4758944511413574,-0.29605430364608765,0.0,0.0,0.0,0.0,0.0,0.0,0.0,-0.39385629200246275,0.024593293038672605,-0.2190522012460749,0.24385699049629356,0.27074104799173837,0.10362441434956841,-0.2758340277549106,1.213565177982158,-0.22034607938969192,-0.007475572937123875,-2.6042277623226764,-0.10898848295246535,2.4682259916199576,0.8264841964374435,1.2134413937687574,-0.2202432315892585,-0.0075118285948192216,-2.6038483821997875,-0.10888392708698907,2.4681821257803174,0.826474908251239,0.0004991931701976285,0.00037585731028844777,0.0007241449074741594,-0.0007830256008980263,-6.48064491425761e-05,-2.396301873500008e-05,0.00092102808446477,0.0,0.0,0.0,0.0,0.0,0.0,0.0,-0.00012378421340053514,0.000102847800433431,-3.625565769534676e-05,0.0003793801228888505,0.00010455586547628015,-4.3865839640222504e-05,-9.288186204492455e-06,-0.0004991931701976285,-0.00037585731028844777,-0.0007241449074741594,0.0007830256008980263,6.48064491425761e-05,2.396301873500008e-05,-0.00092102808446477,0.4267818331718445,19.717248916625977,0.4466826617717743,-20.054964065551758,-0.8563132882118225,-2.4758944511413574,0.29605430364608765,0
40,0.19498848915100098,-0.4267818331718445,-19.717248916625977,-0.4466826617717743,20.054964065551758,0.8563132882118225,2.4758944511413574,-0.29605430364608765,0.0,0.0,0.0,0.0,0.0,0.0,0.0,-0.39385629200246275,0.024593293038672605,-0.2190522012460749,0.24385699049629356,0.27074104799173837,0.10362441434956841,-0.2758340277549106,1.213565177982158,-0.22034607938969192,-0.007475572937123875,-2.6042277623226764,-0.10898848295246535,2.4682259916199576,0.8264841964374435,1.2134413937687574,-0.2202432315892585,-0.0075118285948192216,-2.6038483821997875,-0.10888392708698907,2.4681821257803174,0.826474908251239,0.0004991931701976285,0.00037585731028844777,0.0007241449074741594,-0.0007830256008980263,-6.48064491425761e-05,-2.396301873500008e-05,0.00092102808446477,0.0,0.0,0.0,0.0,0.0,0.0,0.0,-0.00012378421340053514,0.000102847800433431,-3.625565769534676e-05,0.0003793801228888505,0.00010455586547628015,-4.3865839640222504e-05,-9.288186204492455e-06,-0.0004991931701976285,-0.00037585731028844777,-0.0007241449074741594,0.0007830256008980263,6.48064491425761e-05,2.396301873500008e-05,-0.00092102808446477,0.4267818331718445,19.717248916625977,0.4466826617717743,-20.054964065551758,-0.8563132882118225,-2.4758944511413574,0.29605430364608765,0
41,0.2000107765197754,-0.4029781222343445,-19.693445205688477,-0.3990752398967743,20.007356643676758,0.8380027413368225,2.4694857597351074,-0.25485557317733765,0.0,0.0,0.0,0.0,0.0,0.0,0.0,-0.39496997876751433,0.02781960716160447,-0.22008128718249756,0.24114268703927222,0.27049411417221014,0.10285999598107694,-0.27464984311398843,1.2135628344821154,-0.22034606913038327,-0.007476783568268256,-2.6042241742020695,-0.10898621232522429,2.4682267036967804,0.8264792656479054,1.2134413937687574,-0.2202432315892585,-0.0075118285948192216,-2.6038483821997875,-0.10888392708698907,2.4681821257803174,0.826474908251239,0.00039212161125184715,-0.0005243426990445284,-0.0010084188784832031,0.0003705760789987994,0.0005961599011738824,0.0003513256416318174,-0.0012228623353419752,0.0,0.0,0.0,0.0,0.0,0.0,0.0,-0.0001214407133580675,0.00010283754112477839,-3.504502655096546e-05,0.00037579200228199383,0.00010228523823521685,-4.4577916463062195e-05,-4.3573966663768005e-06,-0.00039212161125184715,0.0005243426990445284,0.0010084188784832031,-0.0003705760789987994,-0.0005961599011738824,-0.0003513256416318174,0.0012228623353419752,0.4029781222343445,19.693445205688477,0.3990752398967743,-20.007356643676758,-0.8380027413368225,-2.4694857597351074,0.25485557317733765,0
42,0.20498180389404297,-0.4029781222343445,-19.693445205688477,-0.3990752398967743,20.007356643676758,0.8380027413368225,2.4694857597351074,-0.25485557317733765,0.0,0.0,0.0,0.0,0.0,0.0,0.0,-0.39496997876751433,0.02781960716160447,-0.22008128718249756,0.24114268703927222,0.27049411417221014,0.10285999598107694,-0.27464984311398843,1.2135628344821154,-0.22034606913038327,-0.007476783568268256,-2.6042241742020695,-0.10898621232522429,2.4682267036967804,0.8264792656479054,1.2134413937687574,-0.2202432315892585,-0.0075118285948192216,-2.6038483821997875,-0.10888392708698907,2.4681821257803174,0.826474908251239,0.00039212161125184715,-0.0005243426990445284,-0.0010084188784832031,0.0003705760789987994,0.0005961599011738824,0.0003513256416318174,-0.0012228623353419752,0.0,0.0,0.0,0.0,0.0,0.0,0.0,-0.0001214407133580675,0.00010283754112477839,-3.504502655096546e-05,0.00037579200228199383,0.00010228523823521685,-4.4577916463062195e-05,-4.3573966663768005e-06,-0.00039212161125184715,0.0005243426990445284,0.0010084188784832031,-0.0003705760789987994,-0.0005961599011738824,-0.0003513256416318174,0.0012228623353419752,0.4029781222343445,19.693445205688477,0.3990752398967743,-20.007356643676758,-0.8380027413368225,-2.4694857597351074,0.25485557317733765,0
43,0.21000909805297852,-0.4267818331718445,-19.693445205688477,-0.4228789508342743,20.031160354614258,0.8499045968055725,2.4823031425476074,-0.26217979192733765,0.0,0.0,0.0,0.0,0.0,0.0,0.0,-0.39365522502682515,0.029046002590912424,-0.2210055426695743,0.23659248468539232,0.26967807859260234,0.10238188626402717,-0.27552642101558433,1.2135645402354425,-0.22034537312469915,-0.007477006671649059,-2.6042260918854256,-0.10898786138697175,2.4682221006287466,0.826480432660705,1.2134413937687574,-0.2202432315892585,-0.0075118285948192216,-2.6038483821997875,-0.10888392708698907,2.4681821257803174,0.826474908251239,0.0007338891833160214,-0.0005545757879752173,0.00015148104148996337,-0.0009219157579065315,0.00023863277304212718,-0.00026514529780528623,-0.000469836414362816,0.0,0.0,0.0,0.0,0.0,0.0,0.0,-0.00012314646668509788,0.00010214153544066407,-3.4821923170162694e-05,0.0003777096856381057,0.00010393429998267756,-3.997484842921395e-05,-5.524409465995639e-06,-0.0007338891833160214,0.0005545757879752173,-0.00015148104148996337,0.0009219157579065315,-0.00023863277304212718,0.00026514529780528623,0.000469836414362816,0.4267818331718445,19.693445205688477,0.4228789508342743,-20.031160354614258,-0.8499045968055725,-2.4823031425476074,0.26217979192733765,0
44,0.21500849723815918,-0.4267818331718445,-19.693445205688477,-0.4228789508342743,20.031160354614258,0.8499045968055725,2.4823031425476074,-0.26217979192733765,0.0,0.0,0.0,0.0,0.0,0.0,0.0,-0.39365522502682515,0.029046002590912424,-0.2210055426695743,0.23659248468539232,0.26967807859260234,0.10238188626402717,-0.27552642101558433,1.2135645402354425,-0.22034537312469915,-0.007477006671649059,-2.6042260918854256,-0.10898786138697175,2.4682221006287466,0.826480432660705,1.2134413937687574,-0.2202432315892585,-0.0075118285948192216,-2.6038483821997875,-0.10888392708698907,2.4681821257803174,0.826474908251239,0.0007338891833160214,-0.0005545757879752173,0.00015148104148996337,-0.0009219157579065315,0.00023863277304212718,-0.00026514529780528623,-0.000469836414362816,0.0,0.0,0.0,0.0,0.0,0.0,0.0,-0.00012314646668509788,0.00010214153544066407,-3.4821923170162694e-05,0.0003777096856381057,0.00010393429998267756,-3.997484842921395e-05,-5.524409465995639e-06,-0.0007338891833160214,0.0005545757879752173,-0.00015148104148996337,0.0009219157579065315,-0.00023863277304212718,0.00026514529780528623,0.000469836414362816,0.4267818331718445,19.693445205688477,0.4228789508342743,-20.031160354614258,-0.8499045968055725,-2.4823031425476074,0.26217979192733765,0
45,0.21999359130859375,-0.2998287081718445,-19.717248916625977,-0.3475005328655243,20.031160354614258,0.8618064522743225,2.4758944511413574,-0.30337852239608765,0.0,0.0,0.0,0.0,0.0,0.0,0.0,-0.38935636980660454,0.02697144400692025,-0.21522818368707716,0.2405041563587811,0.26928877480665214,0.10301132712145379,-0.27566431780898076,1.213553457569037,-0.22034392640312125,-0.007482533089787478,-2.604226091886821,-0.10898555324471164,2.468225991602013,0.8264848923465069,1.2134413937687574,-0.2202432315892585,-0.0075118285948192216,-2.6038483821997875,-0.10888392708698907,2.4681821257803174,0.826474908251239,-0.0018419352547561023,0.0004337838934987412,-0.0008785231360147395,-0.000379942603803668,-0.00019020027992040352,-6.66810353513432e-05,0.0014227360482363628,0.0,0.0,0.0,0.0,0.0,0.0,0.0,-0.00011206380027961593,0.00010069481386276724,-2.929550503174335e-05,0.000377709687033434,0.00010162615772256467,-4.386582169546571e-05,-9.984095267867588e-06,0.0018419352547561023,-0.0004337838934987412,0.0008785231360147395,0.000379942603803668,0.00019020027992040352,6.66810353513432e-05,-0.0014227360482363628,0.2998287081718445,19.717248916625977,0.3475005328655243,-20.031160354614258,-0.8618064522743225,-2.4758944511413574,0.30337852239608765,0
46,0.22499847412109375,-0.2998287081718445,-19.717248916625977,-0.3475005328655243,20.031160354614258,0.8618064522743225,2.4758944511413574,-0.30337852239608765,0.0,0.0,0.0,0.0,0.0,0.0,0.0,-0.38935636980660454,0.02697144400692025,-0.21522818368707716,0.2405041563587811,0.26928877480665214,0.10301132712145379,-0.27566431780898076,1.213553457569037,-0.22034392640312125,-0.007482533089787478,-2.604226091886821,-0.10898555324471164,2.468225991602013,0.8264848923465069,1.2134413937687574,-0.2202432315892585,-0.0075118285948192216,-2.6038483821997875,-0.10888392708698907,2.4681821257803174,0.826474908251239,-0.0018419352547561023,0.0004337838934987412,-0.0008785231360147395,-0.000379942603803668,-0.00019020027992040352,-6.66810353513432e-05,0.0014227360482363628,0.0,0.0,0.0,0.0,0.0,0.0,0.0,-0.00011206380027961593,0.00010069481386276724,-2.929550503174335e-05,0.000377709687033434,0.00010162615772256467,-4.386582169546571e-05,-9.984095267867588e-06,0.0018419352547561023,-0.0004337838934987412,0.0008785231360147395,0.000379942603803668,0.00019020027992040352,6.66810353513432e-05,-0.0014227360482363628,0.2998287081718445,19.717248916625977,0.3475005328655243,-20.031160354614258,-0.8618064522743225,-2.4758944511413574,0.30337852239608765,0
47,0.2299947738647461,-0.4029781222343445,-19.717248916625977,-0.4228789508342743,20.007356643676758,0.8563132882118225,2.4694857597351074,-0.23471395671367645,0.0,0.0,0.0,0.0,0.0,0.0,0.0,-0.39117459390362114,0.02986874294622357,-0.21970131610813956,0.23829027997979377,0.2696049182818753,0.1022126965503645,-0.27498080706031003,1.2135606474908835,-0.22034687452359303,-0.007475078066648912,-2.604224421450966,-0.10898718177256544,2.4682267036967804,0.8264773809025648,1.2134413937687574,-0.2202432315892585,-0.0075118285948192216,-2.6038483821997875,-0.10888392708698907,2.4681821257803174,0.826474908251239,0.0005797911235422,0.0004173739852469605,0.0007377678048144778,-9.275786128052393e-05,-0.00017249211855476377,0.0002915654019714585,-0.0011495202584446422,0.0,0.0,0.0,0.0,0.0,0.0,0.0,-0.00011925372212617802,0.0001036429343345413,-3.6750528170309896e-05,0.0003760392511784616,0.00010325468557637052,-4.4577916463062195e-05,-2.472651325802211e-06,-0.0005797911235422,-0.0004173739852469605,-0.0007377678048144778,9.275786128052393e-05,0.00017249211855476377,-0.0002915654019714585,0.0011495202584446422,0.4029781222343445,19.717248916625977,0.4228789508342743,-20.007356643676758,-0.8563132882118225,-2.4694857597351074,0.23471395671367645,0
48,0.23504972457885742,-0.4029781222343445,-19.717248916625977,-0.4228789508342743,20.007356643676758,0.8563132882118225,2.4694857597351074,-0.23471395671367645,0.0,0.0,0.0,0.0,0.0,0.0,0.0,-0.39117459390362114,0.02986874294622357,-0.21970131610813956,0.23829027997979377,0.2696049182818753,0.1022126965503645,-0.27498080706031003,1.2135606474908835,-0.22034687452359303,-0.007475078066648912,-2.604224421450966,-0.10898718177256544,2.4682267036967804,0.8264773809025648,1.2134413937687574,-0.2202432315892585,-0.0075118285948192216,-2.6038483821997875,-0.10888392708698907,2.4681821257803174,0.826474908251239,0.0005797911235422,0.0004173739852469605,0.0007377678048144778,-9.275786128052393e-05,-0.00017249211855476377,0.0002915654019714585,-0.0011495202584446422,0.0,0.0,0.0,0.0,0.0,0.0,0.0,-0.00011925372212617802,0.0001036429343345413,-3.6750528170309896e-05,0.0003760392511784616,0.00010325468557637052,-4.4577916463062195e-05,-2.472651325802211e-06,-0.0005797911235422,-0.0004173739852469605,-0.0007377678048144778,9.275786128052393e-05,0.00017249211855476377,-0.0002915654019714585,0.0011495202584446422,0.4029781222343445,19.717248916625977,0.4228789508342743,-20.007356643676758,-0.8563132882118225,-2.4694857597351074,0.23471395671367645,0
49,0.24003148078918457,-0.3752071261405945,-19.693445205688477,-0.3990752398967743,20.007356643676758,0.8618064522743225,2.4823031425476074,-0.27591270208358765,0.0,0.0,0.0,0.0,0.0,0.0,0.0,-0.38985963295348375,0.021398607164242144,-0.21774454982614888,0.24405270851191646,0.2694636009030162,0.10311073932987787,-0.273291191039518,1.213560816834874,-0.22034781279759635,-0.007478913801214043,-2.604224421450966,-0.10898778759341256,2.4682252795431343,0.8264819585416051,1.2134413937687574,-0.2202432315892585,-0.0075118285948192216,-2.6038483821997875,-0.10888392708698907,2.4681821257803174,0.826474908251239,-0.00011573171955337884,-0.0007320130232315817,-0.0004073846342519606,0.0002816759584986665,-0.00027062347785283407,-0.00019236421092012066,0.00018104834885103392,0.0,0.0,0.0,0.0,0.0,0.0,0.0,-0.00011942306611656406,0.00010458120833786722,-3.291479360517831e-05,0.0003760392511784616,0.00010386050642348377,-4.315376281693872e-05,-7.050290366072964e-06,0.00011573171955337884,0.0007320130232315817,0.0004073846342519606,-0.0002816759584986665,0.00027062347785283407,0.00019236421092012066,-0.00018104834885103392,0.3752071261405945,19.693445205688477,0.3990752398967743,-20.007356643676758,-0.8618064522743225,-2.4823031425476074,0.27591270208358765,0
50,0.24499726295471191,-0.3752071261405945,-19.693445205688477,-0.3990752398967743,20.007356643676758,0.8618064522743225,2.4823031425476074,-0.27591270208358765,0.0,0.0,0.0,0.0,0.0,0.0,0.0,-0.38985963295348375,0.021398607164242144,-0.21774454982614888,0.24405270851191646,0.2694636009030162,0.10311073932987787,-0.273291191039518,1.213560816834874,-0.22034781279759635,-0.007478913801214043,-2.604224421450966,-0.10898778759341256,2.4682252795431343,0.8264819585416051,1.2134413937687574,-0.2202432315892585,-0.0075118285948192216,-2.6038483821997875,-0.10888392708698907,2.4681821257803174,0.826474908251239,-0.00011573171955337884,-0.0007320130232315817,-0.0004073846342519606,0.0002816759584986665,-0.00027062347785283407,-0.00019236421092012066,0.00018104834885103392,0.0,0.0,0.0,0.0,0.0,0.0,0.0,-0.00011942306611656406,0.00010458120833786722,-3.291479360517831e-05,0.0003760392511784616,0.00010386050642348377,-4.315376281693872e-05,-7.050290366072964e-06,0.00011573171955337884,0.0007320130232315817,0.0004073846342519606,-0.0002816759584986665,0.00027062347785283407,0.00019236421092012066,-0.00018104834885103392,0.3752071261405945,19.693445205688477,0.3990752398967743,-20.007356643676758,-0.8618064522743225,-2.4823031425476074,0.27591270208358765,0
51,0.2500331401824951,-0.4029781222343445,-19.717248916625977,-0.3990752398967743,20.007356643676758,0.8563132882118225,2.4694857597351074,-0.30978721380233765,0.0,0.0,0.0,0.0,0.0,0.0,0.0,-0.38741382005592145,0.026657462742188436,-0.21628607083884763,0.23953651212989918,0.26963905401428934,0.10200562053326474,-0.27442044356821654,1.2135637897511493,-0.22034606448466298,-0.007478912839388215,-2.604224421450966,-0.1089885616666716,2.4682267036967804,0.8264857218378886,1.2134413937687574,-0.2202432315892585,-0.0075118285948192216,-2.6038483821997875,-0.10888392708698907,2.4681821257803174,0.826474908251239,0.0006878428174004949,0.00014451140237432288,-0.0007352977815773071,0.00020808752059606759,-8.472044253758239e-05,0.0001223142487518262,0.0015786657339306482,0.0,0.0,0.0,0.0,0.0,0.0,0.0,-0.00012239598239194294,0.00010283289540449769,-3.291575543100649e-05,0.0003760392511784616,0.00010463457968253043,-4.4577916463062195e-05,-1.081358664956067e-05,-0.0006878428174004949,-0.00014451140237432288,0.0007352977815773071,-0.00020808752059606759,8.472044253758239e-05,-0.0001223142487518262,-0.0015786657339306482,0.4029781222343445,19.717248916625977,0.3990752398967743,-20.007356643676758,-0.8563132882118225,-2.4694857597351074,0.30978721380233765,0
52,0.2550077438354492,-0.4029781222343445,-19.717248916625977,-0.3990752398967743,20.007356643676758,0.8563132882118225,2.4694857597351074,-0.30978721380233765,0.0,0.0,0.0,0.0,0.0,0.0,0.0,-0.38741382005592145,0.026657462742188436,-0.21628607083884763,0.23953651212989918,0.26963905401428934,0.10200562053326474,-0.27442044356821654,1.2135637897511493,-0.22034606448466298,-0.007478912839388215,-2.604224421450966,-0.1089885616666716,2.4682267036967804,0.8264857218378886,1.2134413937687574,-0.2202432315892585,-0.0075118285948192216,-2.6038483821997875,-0.10888392708698907,2.4681821257803174,0.826474908251239,0.0006878428174004949,0.00014451140237432288,-0.0007352977815773071,0.00020808752059606759,-8.472044253758239e-05,0.0001223142487518262,0.0015786657339306482,0.0,0.0,0.0,0.0,0.0,0.0,0.0,-0.00012239598239194294,0.00010283289540449769,-3.291575543100649e-05,0.0003760392511784616,0.00010463457968253043,-4.4577916463062195e-05,-1.081358664956067e-05,-0.0006878428174004949,-0.00014451140237432288,0.0007352977815773071,-0.00020808752059606759,8.472044253758239e-05,-0.0001223142487518262,-0.0015786657339306482,0.4029781222343445,19.717248916625977,0.3990752398967743,-20.007356643676758,-0.8563132882118225,-2.4694857597351074,0.30978721380233765,0
53,0.2600269317626953,-0.4267818331718445,-19.717248916625977,-0.4466826617717743,20.007356643676758,0.8618064522743225,2.4630770683288574,-0.30337852239608765,0.0,0.0,0.0,0.0,0.0,0.0,0.0,-0.38457001145909986,0.026896367607393584,-0.21302373956509488,0.23917388053358837,0.26980314320641585,0.10166126771845571,-0.2751918648749663,1.2135652581129626,-0.22034473956408945,-0.007473442696552257,-2.604224421450966,-0.10898495352192646,2.468227415289087,0.8264845245982916,1.2134413937687574,-0.2202432315892585,-0.0075118285948192216,-2.6038483821997875,-0.10888392708698907,2.4681821257803174,0.826474908251239,0.0009475595637854574,0.0004008470365124027,0.0008874677153268973,0.00014006615681448644,-0.0002016736136111787,0.0004895135224290889,0.0011683757951384227,0.0,0.0,0.0,0.0,0.0,0.0,0.0,-0.00012386434420519343,0.00010150797483096663,-3.838589826696444e-05,0.0003760392511784616,0.00010102643493738184,-4.5289508769474907e-05,-9.616347052543439e-06,-0.0009475595637854574,-0.0004008470365124027,-0.0008874677153268973,-0.00014006615681448644,0.0002016736136111787,-0.0004895135224290889,-0.0011683757951384227,0.4267818331718445,19.717248916625977,0.4466826617717743,-20.007356643676758,-0.8618064522743225,-2.4630770683288574,0.30337852239608765,0
54,0.2649986743927002,-0.4267818331718445,-19.717248916625977,-0.4466826617717743,20.007356643676758,0.8618064522743225,2.4630770683288574,-0.30337852239608765,0.0,0.0,0.0,0.0,0.0,0.0,0.0,-0.38457001145909986,0.026896367607393584,-0.21302373956509488,0.23917388053358837,0.26980314320641585,0.10166126771845571,-0.2751918648749663,1.2135652581129626,-0.22034473956408945,-0.007473442696552257,-2.604224421450966,-0.10898495352192646,2.468227415289087,0.8264845245982916,1.2134413937687574,-0.2202432315892585,-0.0075118285948192216,-2.6038483821997875,-0.10888392708698907,2.4681821257803174,0.826474908251239,0.0009475595637854574,0.0004008470365124027,0.0008874677153268973,0.00014006615681448644,-0.0002016736136111787,0.0004895135224290889,0.0011683757951384227,0.0,0.0,0.0,0.0,0.0,0.0,0.0,-0.00012386434420519343,0.00010150797483096663,-3.838589826696444e-05,0.0003760392511784616,0.00010102643493738184,-4.5289508769474907e-05,-9.616347052543439e-06,-0.0009475595637854574,-0.0004008470365124027,-0.0008874677153268973,-0.00014006615681448644,0.0002016736136111787,-0.0004895135224290889,-0.0011683757951384227,0.4267818331718445,19.717248916625977,0.4466826617717743,-20.007356643676758,-0.8618064522743225,-2.4630770683288574,0.30337852239608765,0
55,0.2699854373931885,-0.4029781222343445,-19.717248916625977,-0.4466826617717743,19.983552932739258,0.8563132882118225,2.4630770683288574,-0.24844686686992645,0.0,0.0,0.0,0.0,0.0,0.0,0.0,-0.3902624939000282,0.023420739101479297,-0.21686692284223555,0.24147655873751228,0.2707309220331707,0.10212012187669549,-0.2752690144968226,1.2135628344825677,-0.2203444803401497,-0.007475336235793796,-2.6042227510151106,-0.10898861027537773,2.4682274157736006,0.8264789067793951,1.2134413937687574,-0.2202432315892585,-0.0075118285948192216,-2.6038483821997875,-0.10888392708698907,2.4681821257803174,0.826474908251239,-0.0003143213423917425,3.903359769444246e-05,0.0005287404186736378,0.0008111084098755375,-2.9482866340928883e-05,0.00021303933493103762,-0.0009064028027433659,0.0,0.0,0.0,0.0,0.0,0.0,0.0,-0.00012144071381037236,0.00010124875089120855,-3.649235902542566e-05,0.0003743688153230451,0.00010468318838866009,-4.528999328323735e-05,-3.998528156023973e-06,0.0003143213423917425,-3.903359769444246e-05,-0.0005287404186736378,-0.0008111084098755375,2.9482866340928883e-05,-0.00021303933493103762,0.0009064028027433659,0.4029781222343445,19.717248916625977,0.4466826617717743,-19.983552932739258,-0.8563132882118225,-2.4630770683288574,0.24844686686992645,0
56,0.275007963180542,-0.4029781222343445,-19.717248916625977,-0.4466826617717743,19.983552932739258,0.8563132882118225,2.4630770683288574,-0.24844686686992645,0.0,0.0,0.0,0.0,0.0,0.0,0.0,-0.3902624939000282,0.023420739101479297,-0.21686692284223555,0.24147655873751228,0.2707309220331707,0.10212012187669549,-0.2752690144968226,1.2135628344825677,-0.2203444803401497,-0.007475336235793796,-2.6042227510151106,-0.10898861027537773,2.4682274157736006,0.8264789067793951,1.2134413937687574,-0.2202432315892585,-0.0075118285948192216,-2.6038483821997875,-0.10888392708698907,2.4681821257803174,0.826474908251239,-0.0003143213423917425,3.903359769444246e-05,0.0005287404186736378,0.0008111084098755375,-2.9482866340928883e-05,0.00021303933493103762,-0.0009064028027433659,0.0,0.0,0.0,0.0,0.0,0.0,0.0,-0.00012144071381037236,0.00010124875089120855,-3.649235902542566e-05,0.0003743688153230451,0.00010468318838866009,-4.528999328323735e-05,-3.998528156023973e-06,0.0003143213423917425,-3.903359769444246e-05,-0.0005287404186736378,-0.0008111084098755375,2.9482866340928883e-05,-0.00021303933493103762,0.0009064028027433659,0.4029781222343445,19.717248916625977,0.4466826617717743,-19.983552932739258,-0.8563132882118225,-2.4630770683288574,0.24844686686992645,0
57,0.2799694538116455,-0.3752071261405945,-19.717248916625977,-0.4466826617717743,20.007356643676758,0.8499045968055725,2.4758944511413574,-0.27591270208358765,0.0,0.0,0.0,0.0,0.0,0.0,0.0,-0.38903750351785343,0.02548984997959944,-0.21419093230345743,0.23747725811247858,0.27092243400432564,0.1014080766157227,-0.27329703642190617,1.2135610709641413,-0.220344507340401,-0.0074748618846185435,-2.604224421450966,-0.10898777944639004,2.4682259916199576,0.8264816053288954,1.2134413937687574,-0.2202432315892585,-0.0075118285948192216,-2.6038483821997875,-0.10888392708698907,2.4681821257803174,0.826474908251239,-0.000266410190902678,-0.00020621385975374572,0.0006656325793290551,-0.0003340603807070646,0.0002465183498138459,-0.00013863234490710626,0.0004882372142532296,0.0,0.0,0.0,0.0,0.0,0.0,0.0,-0.00011967719538397148,0.00010127575114252108,-3.6966710200678037e-05,0.0003760392511784616,0.00010385235940096882,-4.3865839640222504e-05,-6.697077656325767e-06,0.000266410190902678,0.00020621385975374572,-0.0006656325793290551,0.0003340603807070646,-0.0002465183498138459,0.00013863234490710626,-0.0004882372142532296,0.3752071261405945,19.717248916625977,0.4466826617717743,-20.007356643676758,-0.8499045968055725,-2.4758944511413574,0.27591270208358765,0
58,0.2849915027618408,-0.3752071261405945,-19.717248916625977,-0.4466826617717743,20.007356643676758,0.8499045968055725,2.4758944511413574,-0.27591270208358765,0.0,0.0,0.0,0.0,0.0,0.0,0.0,-0.38903750351785343,0.02548984997959944,-0.21419093230345743,0.23747725811247858,0.27092243400432564,0.1014080766157227,-0.27329703642190617,1.2135610709641413,-0.220344507340401,-0.0074748618846185435,-2.604224421450966,-0.10898777944639004,2.4682259916199576,0.8264816053288954,1.2134413937687574,-0.2202432315892585,-0.0075118285948192216,-2.6038483821997875,-0.10888392708698907,2.4681821257803174,0.826474908251239,-0.000266410190902678,-0.00020621385975374572,0.0006656325793290551,-0.0003340603807070646,0.0002465183498138459,-0.00013863234490710626,0.0004882372142532296,0.0,0.0,0.0,0.0,0.0,0.0,0.0,-0.00011967719538397148,0.00010127575114252108,-3.6966710200678037e-05,0.0003760392511784616,0.00010385235940096882,-4.3865839640222504e-05,-6.697077656325767e-06,0.000266410190902678,0.00020621385975374572,-0.0006656325793290551,0.0003340603807070646,-0.0002465183498138459,0.00013863234490710626,-0.0004882372142532296,0.3752071261405945,19.717248916625977,0.4466826617717743,-20.007356643676758,-0.8499045968055725,-2.4758944511413574,0.27591270208358765,0
59,0.2899913787841797,-0.3752071261405945,-19.717248916625977,-0.4466826617717743,20.007356643676758,0.8499045968055725,2.4758944511413574,-0.27591270208358765,0.0,0.0,0.0,0.0,0.0,0.0,0.0,-0.38903750351785343,0.02548984997959944,-0.21419093230345743,0.23747725811247858,0.27092243400432564,0.1014080766157227,-0.27329703642190617,1.2135610709641413,-0.220344507340401,-0.0074748618846185435,-2.604224421450966,-0.10898777944639004,2.4682259916199576,0.8264816053288954,1.2134413937687574,-0.2202432315892585,-0.0075118285948192216,-2.6038483821997875,-0.10888392708698907,2.4681821257803174,0.826474908251239,-0.000266410190902678,-0.00020621385975374572,0.0006656325793290551,-0.0003340603807070646,0.0002465183498138459,-0.00013863234490710626,0.0004882372142532296,0.0,0.0,0.0,0.0,0.0,0.0,0.0,-0.00011967719538397148,0.00010127575114252108,-3.6966710200678037e-05,0.0003760392511784616,0.00010385235940096882,-4.3865839640222504e-05,-6.697077656325767e-06,0.000266410190902678,0.00020621385975374572,-0.0006656325793290551,0.0003340603807070646,-0.0002465183498138459,0.00013863234490710626,-0.0004882372142532296,0.3752071261405945,19.717248916625977,0.4466826617717743,-20.007356643676758,-0.8499045968055725,-2.4758944511413574,0.27591270208358765,0
60,0.2950093746185303,-0.3752071261405945,-19.717248916625977,-0.4466826617717743,20.007356643676758,0.8499045968055725,2.4758944511413574,-0.27591270208358765,0.0,0.0,0.0,0.0,0.0,0.0,0.0,-0.38903750351785343,0.02548984997959944,-0.21419093230345743,0.23747725811247858,0.27092243400432564,0.1014080766157227,-0.27329703642190617,1.2135610709641413,-0.220344507340401,-0.0074748618846185435,-2.604224421450966,-0.10898777944639004,2.4682259916199576,0.8264816053288954,1.2134413937687574,-0.2202432315892585,-0.0075118285948192216,-2.6038483821997875,-0.10888392708698907,2.4681821257803174,0.826474908251239,-0.000266410190902678,-0.00020621385975374572,0.0006656325793290551,-0.0003340603807070646,0.0002465183498138459,-0.00013863234490710626,0.0004882372142532296,0.0,0.0,0.0,0.0,0.0,0.0,0.0,-0.00011967719538397148,0.00010127575114252108,-3.6966710200678037e-05,0.0003760392511784616,0.00010385235940096882,-4.3865839640222504e-05,-6.697077656325767e-06,0.000266410190902678,0.00020621385975374572,-0.0006656325793290551,0.0003340603807070646,-0.0002465183498138459,0.00013863234490710626,-0.0004882372142532296,0.3752071261405945,19.717248916625977,0.4466826617717743,-20.007356643676758,-0.8499045968055725,-2.4758944511413574,0.27591270208358765,0
61,0.29999732971191406,-0.4267818331718445,-19.693445205688477,-0.3990752398967743,20.031160354614258,0.8499045968055725,2.4823031425476074,-0.29605430364608765,0.0,0.0,0.0,0.0,0.0,0.0,0.0,-0.38998360270219634,0.025923788702403167,-0.21405085235164154,0.23694945480406043,0.270605675146394,0.101708881932374,-0.27248749356285024,1.2135623939968727,-0.22034547789196526,-0.007478913809423348,-2.604226091886821,-0.10898453208349917,2.4682252795431343,0.8264841920808544,1.2134413937687574,-0.2202432315892585,-0.0075118285948192216,-2.6038483821997875,-0.10888392708698907,2.4681821257803174,0.826474908251239,0.0013166071313486186,-0.00033857968541647926,6.785429402885942e-06,-0.00042548100515512184,3.205136142936141e-05,-0.0002755569710726647,0.000907881185200547,0.0,0.0,0.0,0.0,0.0,0.0,0.0,-0.00012100022811534217,0.00010224630270677659,-3.2914785395873544e-05,0.000377709687033434,0.0001006049965101008,-4.315376281693872e-05,-9.283829615402972e-06,-0.0013166071313486186,0.00033857968541647926,-6.785429402885942e-06,0.00042548100515512184,-3.205136142936141e-05,0.0002755569710726647,-0.000907881185200547,0.4267818331718445,19.693445205688477,0.3990752398967743,-20.031160354614258,-0.8499045968055725,-2.4823031425476074,0.29605430364608765,0
62,0.304995059967041,-0.4267818331718445,-19.693445205688477,-0.3990752398967743,20.031160354614258,0.8499045968055725,2.4823031425476074,-0.29605430364608765,0.0,0.0,0.0,0.0,0.0,0.0,0.0,-0.38998360270219634,0.025923788702403167,-0.21405085235164154,0.23694945480406043,0.270605675146394,0.101708881932374,-0.27248749356285024,1.2135623939968727,-0.22034547789196526,-0.007478913809423348,-2.604226091886821,-0.10898453208349917,2.4682252795431343,0.8264841920808544,1.2134413937687574,-0.2202432315892585,-0.0075118285948192216,-2.6038483821997875,-0.10888392708698907,2.4681821257803174,0.826474908251239,0.0013166071313486186,-0.00033857968541647926,6.785429402885942e-06,-0.00042548100515512184,3.205136142936141e-05,-0.0002755569710726647,0.000907881185200547,0.0,0.0,0.0,0.0,0.0,0.0,0.0,-0.00012100022811534217,0.00010224630270677659,-3.2914785395873544e-05,0.000377709687033434,0.0001006049965101008,-4.315376281693872e-05,-9.283829615402972e-06,-0.0013166071313486186,0.00033857968541647926,-6.785429402885942e-06,0.00042548100515512184,-3.205136142936141e-05,0.0002755569710726647,-0.000907881185200547,0.4267818331718445,19.693445205688477,0.3990752398967743,-20.031160354614258,-0.8499045968055725,-2.4823031425476074,0.29605430364608765,0
63,0.3099942207336426,-0.3514034152030945,-19.717248916625977,-0.3990752398967743,20.031160354614258,0.8563132882118225,2.4758944511413574,-0.24844686686992645,0.0,0.0,0.0,0.0,0.0,0.0,0.0,-0.3954774901556072,0.022116349880405704,-0.2167740812068237,0.23886540863532563,0.2700624036072275,0.10184396381674439,-0.2727552326504418,1.2135580525302103,-0.22034442507137864,-0.00747888751411419,-2.604226091886821,-0.10898702254052842,2.4682259916199576,0.8264789067821119,1.2134413937687574,-0.2202432315892585,-0.0075118285948192216,-2.6038483821997875,-0.10888392708698907,2.4681821257803174,0.826474908251239,-0.0010826691956700358,-0.00030331072396521443,-0.00038122868645734453,-0.00042351100018371476,7.61326000215631e-05,-9.047740556269735e-05,-0.001344864421095355,0.0,0.0,0.0,0.0,0.0,0.0,0.0,-0.00011665876145294796,0.00010119348212014878,-3.294108070503194e-05,0.000377709687033434,0.00010309545353934246,-4.3865839640222504e-05,-3.998530872850736e-06,0.0010826691956700358,0.00030331072396521443,0.00038122868645734453,0.00042351100018371476,-7.61326000215631e-05,9.047740556269735e-05,0.001344864421095355,0.3514034152030945,19.717248916625977,0.3990752398967743,-20.031160354614258,-0.8563132882118225,-2.4758944511413574,0.24844686686992645,0
64,0.31500816345214844,-0.3514034152030945,-19.717248916625977,-0.3990752398967743,20.031160354614258,0.8563132882118225,2.4758944511413574,-0.24844686686992645,0.0,0.0,0.0,0.0,0.0,0.0,0.0,-0.3954774901556072,0.022116349880405704,-0.2167740812068237,0.23886540863532563,0.2700624036072275,0.10184396381674439,-0.2727552326504418,1.2135580525302103,-0.22034442507137864,-0.00747888751411419,-2.604226091886821,-0.10898702254052842,2.4682259916199576,0.8264789067821119,1.2134413937687574,-0.2202432315892585,-0.0075118285948192216,-2.6038483821997875,-0.10888392708698907,2.4681821257803174,0.826474908251239,-0.0010826691956700358,-0.00030331072396521443,-0.00038122868645734453,-0.00042351100018371476,7.61326000215631e-05,-9.047740556269735e-05,-0.001344864421095355,0.0,0.0,0.0,0.0,0.0,0.0,0.0,-0.00011665876145294796,0.00010119348212014878,-3.294108070503194e-05,0.000377709687033434,0.00010309545353934246,-4.3865839640222504e-05,-3.998530872850736e-06,0.0010826691956700358,0.00030331072396521443,0.00038122868645734453,0.00042351100018371476,-7.61326000215631e-05,9.047740556269735e-05,0.001344864421095355,0.3514034152030945,19.717248916625977,0.3990752398967743,-20.031160354614258,-0.8563132882118225,-2.4758944511413574,0.24844686686992645,0
65,0.3199729919433594,-0.4267818331718445,-19.745019912719727,-0.3990752398967743,20.054964065551758,0.8444114327430725,2.4758944511413574,-0.26858848333358765,0.0,0.0,0.0,0.0,0.0,0.0,0.0,-0.39784192220988335,0.024193122575916957,-0.21835411504889213,0.23848285751813686,0.2699185666763478,0.10194364506529333,-0.27241963261849245,1.2135626092963936,-0.22034209421277523,-0.007478912839239823,-2.604227734850577,-0.10898262221624554,2.468225991135441,0.8264811398943542,1.2134413937687574,-0.2202432315892585,-0.0075118285948192216,-2.6038483821997875,-0.10888392708698907,2.4681821257803174,0.826474908251239,0.00024385681676891222,0.0007384425862084182,-0.00028916110064042705,-0.0006555615698445057,0.0002586017353702034,-5.791664898201722e-05,-3.0800325344942444e-05,0.0,0.0,0.0,0.0,0.0,0.0,0.0,-0.00012121552763622034,9.886262351674335e-05,-3.291575557939821e-05,0.00037935265078958835,9.869512925646251e-05,-4.3865355123795524e-05,-6.231643115195418e-06,-0.00024385681676891222,-0.0007384425862084182,0.00028916110064042705,0.0006555615698445057,-0.0002586017353702034,5.791664898201722e-05,3.0800325344942444e-05,0.4267818331718445,19.745019912719727,0.3990752398967743,-20.054964065551758,-0.8444114327430725,-2.4758944511413574,0.26858848333358765,0
66,0.3249802589416504,-0.4267818331718445,-19.745019912719727,-0.3990752398967743,20.054964065551758,0.8444114327430725,2.4758944511413574,-0.26858848333358765,0.0,0.0,0.0,0.0,0.0,0.0,0.0,-0.39784192220988335,0.024193122575916957,-0.21835411504889213,0.23848285751813686,0.2699185666763478,0.10194364506529333,-0.27241963261849245,1.2135626092963936,-0.22034209421277523,-0.007478912839239823,-2.604227734850577,-0.10898262221624554,2.468225991135441,0.8264811398943542,1.2134413937687574,-0.2202432315892585,-0.0075118285948192216,-2.6038483821997875,-0.10888392708698907,2.4681821257803174,0.826474908251239,0.00024385681676891222,0.0007384425862084182,-0.00028916110064042705,-0.0006555615698445057,0.0002586017353702034,-5.791664898201722e-05,-3.0800325344942444e-05,0.0,0.0,0.0,0.0,0.0,0.0,0.0,-0.00012121552763622034,9.886262351674335e-05,-3.291575557939821e-05,0.00037935265078958835,9.869512925646251e-05,-4.3865355123795524e-05,-6.231643115195418e-06,-0.00024385681676891222,-0.0007384425862084182,0.00028916110064042705,0.0006555615698445057,-0.0002586017353702034,5.791664898201722e-05,3.0800325344942444e-05,0.4267818331718445,19.745019912719727,0.3990752398967743,-20.054964065551758,-0.8444114327430725,-2.4758944511413574,0.26858848333358765,0
67,0.32999086380004883,-0.3752071261405945,-19.693445205688477,-0.4228789508342743,20.007356643676758,0.8618064522743225,2.4758944511413574,-0.29605430364608765,0.0,0.0,0.0,0.0,0.0,0.0,0.0,-0.3947524919026284,0.026864466524719674,-0.21441079336088317,0.23675752430789296,0.2689351785126448,0.10160975671857973,-0.2722780101695558,1.2135611240443631,-0.22034567543388867,-0.0074751130963316295,-2.6042244173808706,-0.10898551730445076,2.468225991619955,0.8264841960127902,1.2134413937687574,-0.2202432315892585,-0.0075118285948192216,-2.6038483821997875,-0.10888392708698907,2.4681821257803174,0.826474908251239,-0.0009945809759468434,-0.00043912335271981205,0.000519371306489475,0.0001871812227108769,-0.00041705976258049664,-1.4883215312415698e-05,0.0013070464640927172,0.0,0.0,0.0,0.0,0.0,0.0,0.0,-0.00011973027560574501,0.00010244384463017897,-3.6715498487592015e-05,0.00037603518108308975,0.00010159021746168617,-4.386583963755797e-05,-9.28776155117994e-06,0.0009945809759468434,0.00043912335271981205,-0.000519371306489475,-0.0001871812227108769,0.00041705976258049664,1.4883215312415698e-05,-0.0013070464640927172,0.3752071261405945,19.693445205688477,0.4228789508342743,-20.007356643676758,-0.8618064522743225,-2.4758944511413574,0.29605430364608765,0
68,0.3350090980529785,-0.3752071261405945,-19.693445205688477,-0.4228789508342743,20.007356643676758,0.8618064522743225,2.4758944511413574,-0.29605430364608765,0.0,0.0,0.0,0.0,0.0,0.0,0.0,-0.3947524919026284,0.026864466524719674,-0.21441079336088317,0.23675752430789296,0.2689351785126448,0.10160975671857973,-0.2722780101695558,1.2135611240443631,-0.22034567543388867,-0.0074751130963316295,-2.6042244173808706,-0.10898551730445076,2.468225991619955,0.8264841960127902,1.2134413937687574,-0.2202432315892585,-0.0075118285948192216,-2.6038483821997875,-0.10888392708698907,2.4681821257803174,0.826474908251239,-0.0009945809759468434,-0.00043912335271981205,0.000519371306489475,0.0001871812227108769,-0.00041705976258049664,-1.4883215312415698e-05,0.0013070464640927172,0.0,0.0,0.0,0.0,0.0,0.0,0.0,-0.00011973027560574501,0.00010244384463017897,-3.6715498487592015e-05,0.00037603518108308975,0.00010159021746168617,-4.386583963755797e-05,-9.28776155117994e-06,0.0009945809759468434,0.00043912335271981205,-0.000519371306489475,-0.0001871812227108769,0.00041705976258049664,1.4883215312415698e-05,-0.0013070464640927172,0.3752071261405945,19.693445205688477,0.4228789508342743,-20.007356643676758,-0.8618064522743225,-2.4758944511413574,0.29605430364608765,0
69,0.34003138542175293,-0.4029781222343445,-19.717248916625977,-0.3713042438030243,20.007356643676758,0.8563132882118225,2.4758944511413574,-0.24112264811992645,0.0,0.0,0.0,0.0,0.0,0.0,0.0,-0.38898611349499135,0.025114694926113658,-0.20712127232227573,0.2395205841550779,0.26895627011132034,0.10180285435433895,-0.2720773515671566,1.2135630224237086,-0.22034616653907885,-0.007480836343919853,-2.6042244214509433,-0.10898753253010336,2.468225991135441,0.8264780929800508,1.2134413937687574,-0.2202432315892585,-0.0075118285948192216,-2.6038483821997875,-0.10888392708698907,2.4681821257803174,0.826474908251239,0.0004020299082568226,0.0001669202717157492,-0.00038136122700690637,0.00022046061854535487,-1.915299563629986e-05,6.0348455355572e-05,-0.0012616285610219293,0.0,0.0,0.0,0.0,0.0,0.0,0.0,-0.00012162865495124464,0.00010293494982036022,-3.099225089936864e-05,0.00037603925115581305,0.00010360544311428799,-4.3865355123795524e-05,-3.1847288117781147e-06,-0.0004020299082568226,-0.0001669202717157492,0.00038136122700690637,-0.00022046061854535487,1.915299563629986e-05,-6.0348455355572e-05,0.0012616285610219293,0.4029781222343445,19.717248916625977,0.3713042438030243,-20.007356643676758,-0.8563132882118225,-2.4758944511413574,0.24112264811992645,0
70,0.3449978828430176,-0.4029781222343445,-19.717248916625977,-0.3713042438030243,20.007356643676758,0.8563132882118225,2.4758944511413574,-0.24112264811992645,0.0,0.0,0.0,0.0,0.0,0.0,0.0,-0.38898611349499135,0.025114694926113658,-0.20712127232227573,0.2395205841550779,0.26895627011132034,0.10180285435433895,-0.2720773515671566,1.2135630224237086,-0.22034616653907885,-0.007480836343919853,-2.6042244214509433,-0.10898753253010336,2.468225991135441,0.8264780929800508,1.2134413937687574,-0.2202432315892585,-0.0075118285948192216,-2.6038483821997875,-0.10888392708698907,2.4681821257803174,0.826474908251239,0.0004020299082568226,0.0001669202717157492,-0.00038136122700690637,0.00022046061854535487,-1.915299563629986e-05,6.0348455355572e-05,-0.0012616285610219293,0.0,0.0,0.0,0.0,0.0,0.0,0.0,-0.00012162865495124464,0.00010293494982036022,-3.099225089936864e-05,0.00037603925115581305,0.00010360544311428799,-4.3865355123795524e-05,-3.1847288117781147e-06,-0.0004020299082568226,-0.0001669202717157492,0.00038136122700690637,-0.00022046061854535487,1.915299563629986e-05,-6.0348455355572e-05,0.0012616285610219293,0.4029781222343445,19.717248916625977,0.3713042438030243,-20.007356643676758,-0.8563132882118225,-2.4758944511413574,0.24112264811992645,0
71,0.3499922752380371,-0.3752071261405945,-19.645837783813477,-0.4466826617717743,19.983552932739258,0.8563132882118225,2.4630770683288574,-0.29605430364608765,0.0,0.0,0.0,0.0,0.0,0.0,0.0,-0.3922465462071256,0.02987162150411673,-0.21046332470721715,0.23475196880579513,0.26956258645944076,0.10006424876003735,-0.2730837968575986,1.213561520003212,-0.22034881870103745,-0.007475572941578231,-2.6042227510151106,-0.10898845208730745,2.4682274157736006,0.8264840773062141,1.2134413937687574,-0.2202432315892585,-0.0075118285948192216,-2.6038483821997875,-0.10888392708698907,2.4681821257803174,0.826474908251239,-0.00036992805202732375,-0.0012483110387951654,0.0012125844755673473,0.00041237117226017376,-0.00016314481473137784,0.0002208902381529387,0.0010864381032915744,0.0,0.0,0.0,0.0,0.0,0.0,0.0,-0.00012012623445456505,0.00010558711177896529,-3.625565324099061e-05,0.0003743688153230451,0.00010452500031837841,-4.528999328323735e-05,-9.169054975055602e-06,0.00036992805202732375,0.0012483110387951654,-0.0012125844755673473,-0.00041237117226017376,0.00016314481473137784,-0.0002208902381529387,-0.0010864381032915744,0.3752071261405945,19.645837783813477,0.4466826617717743,-19.983552932739258,-0.8563132882118225,-2.4630770683288574,0.29605430364608765,0
72,0.3550081253051758,-0.3752071261405945,-19.645837783813477,-0.4466826617717743,19.983552932739258,0.8563132882118225,2.4630770683288574,-0.29605430364608765,0.0,0.0,0.0,0.0,0.0,0.0,0.0,-0.3922465462071256,0.02987162150411673,-0.21046332470721715,0.23475196880579513,0.26956258645944076,0.10006424876003735,-0.2730837968575986,1.213561520003212,-0.22034881870103745,-0.007475572941578231,-2.6042227510151106,-0.10898845208730745,2.4682274157736006,0.8264840773062141,1.2134413937687574,-0.2202432315892585,-0.0075118285948192216,-2.6038483821997875,-0.10888392708698907,2.4681821257803174,0.826474908251239,-0.00036992805202732375,-0.0012483110387951654,0.0012125844755673473,0.00041237117226017376,-0.00016314481473137784,0.0002208902381529387,0.0010864381032915744,0.0,0.0,0.0,0.0,0.0,0.0,0.0,-0.00012012623445456505,0.00010558711177896529,-3.625565324099061e-05,0.0003743688153230451,0.00010452500031837841,-4.528999328323735e-05,-9.169054975055602e-06,0.00036992805202732375,0.0012483110387951654,-0.0012125844755673473,-0.00041237117226017376,0.00016314481473137784,-0.0002208902381529387,-0.0010864381032915744,0.3752071261405945,19.645837783813477,0.4466826617717743,-19.983552932739258,-0.8563132882118225,-2.4630770683288574,0.29605430364608765,0
73,0.3599975109100342,-0.3514034152030945,-19.717248916625977,-0.3990752398967743,19.983552932739258,0.8499045968055725,2.4887118339538574,-0.28964561223983765,0.0,0.0,0.0,0.0,0.0,0.0,0.0,-0.39007261078096267,0.02028421634085688,-0.20924901768885967,0.24418873414408573,0.26940036412245594,0.10121956327099677,-0.2748250877974672,1.213557098867354,-0.22034613186909027,-0.007478913813437284,-2.6042227510151106,-0.10898752831517929,2.4682245674663115,0.8264803050195881,1.2134413937687574,-0.2202432315892585,-0.0075118285948192216,-2.6038483821997875,-0.10888392708698907,2.4681821257803174,0.826474908251239,-0.0010290475245154278,-1.2156671142364287e-05,-0.0002595420127270408,0.0009033742554655713,0.00016834606446334942,-0.0005540467472421587,0.0007224004290944734,0.0,0.0,0.0,0.0,0.0,0.0,0.0,-0.00011570509859670786,0.00010290027983178573,-3.291478138193766e-05,0.0003743688153230451,0.00010360122819021156,-4.244168599409903e-05,-5.396768349097414e-06,0.0010290475245154278,1.2156671142364287e-05,0.0002595420127270408,-0.0009033742554655713,-0.00016834606446334942,0.0005540467472421587,-0.0007224004290944734,0.3514034152030945,19.717248916625977,0.3990752398967743,-19.983552932739258,-0.8499045968055725,-2.4887118339538574,0.28964561223983765,0
74,0.3650069236755371,-0.3514034152030945,-19.717248916625977,-0.3990752398967743,19.983552932739258,0.8499045968055725,2.4887118339538574,-0.28964561223983765,0.0,0.0,0.0,0.0,0.0,0.0,0.0,-0.39007261078096267,0.02028421634085688,-0.20924901768885967,0.24418873414408573,0.26940036412245594,0.10121956327099677,-0.2748250877974672,1.213557098867354,-0.22034613186909027,-0.007478913813437284,-2.6042227510151106,-0.10898752831517929,2.4682245674663115,0.8264803050195881,1.2134413937687574,-0.2202432315892585,-0.0075118285948192216,-2.6038483821997875,-0.10888392708698907,2.4681821257803174,0.826474908251239,-0.0010290475245154278,-1.2156671142364287e-05,-0.0002595420127270408,0.0009033742554655713,0.00016834606446334942,-0.0005540467472421587,0.0007224004290944734,0.0,0.0,0.0,0.0,0.0,0.0,0.0,-0.00011570509859670786,0.00010290027983178573,-3.291478138193766e-05,0.0003743688153230451,0.00010360122819021156,-4.244168599409903e-05,-5.396768349097414e-06,0.0010290475245154278,1.2156671142364287e-05,0.0002595420127270408,-0.0009033742554655713,-0.00016834606446334942,0.0005540467472421587,-0.0007224004290944734,0.3514034152030945,19.717248916625977,0.3990752398967743,-19.983552932739258,-0.8499045968055725,-2.4887118339538574,0.28964561223983765,0
75,0.36998677253723145,-0.3752071261405945,-19.693445205688477,-0.4228789508342743,19.983552932739258,0.8618064522743225,2.4694857597351074,-0.26858848333358765,0.0,0.0,0.0,0.0,0.0,0.0,0.0,-0.3935936288441049,0.02806129011383183,-0.21378073947789117,0.23738573130375856,0.2695914164721993,0.10116596579868986,-0.2757335469284517,1.2135593772508066,-0.22034631484909284,-0.00747724240353302,-2.6042227510151106,-0.10898906147069941,2.4682267036967804,0.8264810879732992,1.2134413937687574,-0.2202432315892585,-0.0075118285948192216,-2.6038483821997875,-0.10888392708698907,2.4681821257803174,0.826474908251239,-0.0008794491509299274,-0.0003857007532592105,0.0001372725443214304,0.0005730910736614028,-0.0004524741352215208,0.00018633698372407575,-0.000168759039438564,0.0,0.0,0.0,0.0,0.0,0.0,0.0,-0.00011798348204927755,0.00010308325983435229,-3.45861912862018e-05,0.0003743688153230451,0.00010513438371033412,-4.4577916463062195e-05,-6.179722060184467e-06,0.0008794491509299274,0.0003857007532592105,-0.0001372725443214304,-0.0005730910736614028,0.0004524741352215208,-0.00018633698372407575,0.000168759039438564,0.3752071261405945,19.693445205688477,0.4228789508342743,-19.983552932739258,-0.8618064522743225,-2.4694857597351074,0.26858848333358765,0
76,0.37500977516174316,-0.3752071261405945,-19.693445205688477,-0.4228789508342743,19.983552932739258,0.8618064522743225,2.4694857597351074,-0.26858848333358765,0.0,0.0,0.0,0.0,0.0,0.0,0.0,-0.3935936288441049,0.02806129011383183,-0.21378073947789117,0.23738573130375856,0.2695914164721993,0.10116596579868986,-0.2757335469284517,1.2135593772508066,-0.22034631484909284,-0.00747724240353302,-2.6042227510151106,-0.10898906147069941,2.4682267036967804,0.8264810879732992,1.2134413937687574,-0.2202432315892585,-0.0075118285948192216,-2.6038483821997875,-0.10888392708698907,2.4681821257803174,0.826474908251239,-0.0008794491509299274,-0.0003857007532592105,0.0001372725443214304,0.0005730910736614028,-0.0004524741352215208,0.00018633698372407575,-0.000168759039438564,0.0,0.0,0.0,0.0,0.0,0.0,0.0,-0.00011798348204927755,0.00010308325983435229,-3.45861912862018e-05,0.0003743688153230451,0.00010513438371033412,-4.4577916463062195e-05,-6.179722060184467e-06,0.0008794491509299274,0.0003857007532592105,-0.0001372725443214304,-0.0005730910736614028,0.0004524741352215208,-0.00018633698372407575,0.000168759039438564,0.3752071261405945,19.693445205688477,0.4228789508342743,-19.983552932739258,-0.8618064522743225,-2.4694857597351074,0.26858848333358765,0
77,0.38001012802124023,-0.3752071261405945,-19.693445205688477,-0.4228789508342743,20.054964065551758,0.8499045968055725,2.4694857597351074,-0.29605430364608765,0.0,0.0,0.0,0.0,0.0,0.0,0.0,-0.3900279322476373,0.024608961054862547,-0.2116169103543004,0.23866925406059739,0.26950929539309,0.10174291163281729,-0.2764466255162332,1.2135618775669967,-0.22034823293168712,-0.007477006683668857,-2.6042277623226764,-0.10898430139988412,2.4682267036967804,0.8264809739222834,1.2134413937687574,-0.2202432315892585,-0.0075118285948192216,-2.6038483821997875,-0.10888392708698907,2.4681821257803174,0.826474908251239,-0.0007388615389608609,-0.0004757251767241991,0.00033188911643396824,-0.0011586854919962458,2.7969317162110122e-05,0.00014989007781855273,0.0013143165237909738,0.0,0.0,0.0,0.0,0.0,0.0,0.0,-0.00012048379823936806,0.00010500134242863446,-3.482191115036434e-05,0.0003793801228888505,0.0001003743128950435,-4.4577916463062195e-05,-6.065671044330756e-06,0.0007388615389608609,0.0004757251767241991,-0.00033188911643396824,0.0011586854919962458,-2.7969317162110122e-05,-0.00014989007781855273,-0.0013143165237909738,0.3752071261405945,19.693445205688477,0.4228789508342743,-20.054964065551758,-0.8499045968055725,-2.4694857597351074,0.29605430364608765,0
78,0.3849964141845703,-0.3752071261405945,-19.693445205688477,-0.4228789508342743,20.054964065551758,0.8499045968055725,2.4694857597351074,-0.29605430364608765,0.0,0.0,0.0,0.0,0.0,0.0,0.0,-0.3900279322476373,0.024608961054862547,-0.2116169103543004,0.23866925406059739,0.26950929539309,0.10174291163281729,-0.2764466255162332,1.2135618775669967,-0.22034823293168712,-0.007477006683668857,-2.6042277623226764,-0.10898430139988412,2.4682267036967804,0.8264809739222834,1.2134413937687574,-0.2202432315892585,-0.0075118285948192216,-2.6038483821997875,-0.10888392708698907,2.4681821257803174,0.826474908251239,-0.0007388615389608609,-0.0004757251767241991,0.00033188911643396824,-0.0011586854919962458,2.7969317162110122e-05,0.00014989007781855273,0.0013143165237909738,0.0,0.0,0.0,0.0,0.0,0.0,0.0,-0.00012048379823936806,0.00010500134242863446,-3.482191115036434e-05,0.0003793801228888505,0.0001003743128950435,-4.4577916463062195e-05,-6.065671044330756e-06,0.0007388615389608609,0.0004757251767241991,-0.00033188911643396824,0.0011586854919962458,-2.7969317162110122e-05,-0.00014989007781855273,-0.0013143165237909738,0.3752071261405945,19.693445205688477,0.4228789508342743,-20.054964065551758,-0.8499045968055725,-2.4694857597351074,0.29605430364608765,0
79,0.3900315761566162,-0.4029781222343445,-19.717248916625977,-0.3990752398967743,20.082735061645508,0.8563132882118225,2.4823031425476074,-0.28964561223983765,0.0,0.0,0.0,0.0,0.0,0.0,0.0,-0.39198585949681497,0.024203207198967784,-0.21523148106158496,0.2378090441146479,0.26889603353009767,0.10131850401635595,-0.2748208112801874,1.2135637190055788,-0.22034400515626484,-0.007478203730378141,-2.604229711126823,-0.10898430236832406,2.468225278089584,0.8264801877503619,1.2134413937687574,-0.2202432315892585,-0.0075118285948192216,-2.6038483821997875,-0.10888392708698907,2.4681821257803174,0.826474908251239,0.000504266453663098,2.922013727101114e-05,-0.00019113537373419763,-0.0016433451991585437,-0.000256236519316784,-0.0002783353129351524,0.0009531161148854964,0.0,0.0,0.0,0.0,0.0,0.0,0.0,-0.00012232523682143004,0.00010077356700635698,-3.3624864441080676e-05,0.0003813289270353515,0.00010037528133498286,-4.3152309266769606e-05,-5.279499122878839e-06,-0.000504266453663098,-2.922013727101114e-05,0.00019113537373419763,0.0016433451991585437,0.000256236519316784,0.0002783353129351524,-0.0009531161148854964,0.4029781222343445,19.717248916625977,0.3990752398967743,-20.082735061645508,-0.8563132882118225,-2.4823031425476074,0.28964561223983765,0
