rezayati/contactInterpretation/dataset/franka_main/labeled_data/link5/c10_6.csv
index,time,tau_J0,tau_J1,tau_J2,tau_J3,tau_J4,tau_J5,tau_J6,tau_J_d0,tau_J_d1,tau_J_d2,tau_J_d3,tau_J_d4,tau_J_d5,tau_J_d6,tau_ext0,tau_ext1,tau_ext2,tau_ext3,tau_ext4,tau_ext5,tau_ext6,q0,q1,q2,q3,q4,q5,q6,q_d0,q_d1,q_d2,q_d3,q_d4,q_d5,q_d6,dq0,dq1,dq2,dq3,dq4,dq5,dq6,dq_d0,dq_d1,dq_d2,dq_d3,dq_d4,dq_d5,dq_d6,e0,e1,e2,e3,e4,e5,e6,de0,de1,de2,de3,de4,de5,de6,etau_J0,etau_J1,etau_J2,etau_J3,etau_J4,etau_J5,etau_J6,label
1,0.0,-0.06972616910934448,-18.078760147094727,0.8942596912384033,18.146699905395508,0.7308860421180725,2.2552523612976074,-0.17337362468242645,0.0,0.0,0.0,0.0,0.0,0.0,0.0,-0.03964078410381894,0.5516546623656913,0.11057029837755437,0.5465322120860137,0.31616548345257733,0.06557414040835599,-0.21143710399945875,-0.6089727823734286,-0.05775123116233256,-0.6665132329057084,-2.5946727388911937,-0.05580306182942763,2.5079567419319435,0.8763154263413614,-0.6090851748156966,-0.05753196718556838,-0.666603097082616,-2.5945565370258534,-0.05562143941554,2.507976027223799,0.8763108487046415,0.00048248644735179527,-0.0006791737236749306,0.0005228202267368215,-4.2616923380447326e-05,0.0002651233368419268,-0.0003928318358354194,-0.0013626090773016701,0.0,0.0,0.0,0.0,0.0,0.0,0.0,-0.0001123924422680167,0.0002192639767641738,-8.986417690759474e-05,0.00011620186534022636,0.00018162241388763184,1.9285291855464237e-05,-4.577636719904632e-06,-0.00048248644735179527,0.0006791737236749306,-0.0005228202267368215,4.2616923380447326e-05,-0.0002651233368419268,0.0003928318358354194,0.0013626090773016701,0.06972616910934448,18.078760147094727,-0.8942596912384033,-18.146699905395508,-0.7308860421180725,-2.2552523612976074,0.17337362468242645,0
2,0.0050008296966552734,-0.06972616910934448,-18.078760147094727,0.8942596912384033,18.146699905395508,0.7308860421180725,2.2552523612976074,-0.17337362468242645,0.0,0.0,0.0,0.0,0.0,0.0,0.0,-0.03964078410381894,0.5516546623656913,0.11057029837755437,0.5465322120860137,0.31616548345257733,0.06557414040835599,-0.21143710399945875,-0.6089727823734286,-0.05775123116233256,-0.6665132329057084,-2.5946727388911937,-0.05580306182942763,2.5079567419319435,0.8763154263413614,-0.6090851748156966,-0.05753196718556838,-0.666603097082616,-2.5945565370258534,-0.05562143941554,2.507976027223799,0.8763108487046415,0.00048248644735179527,-0.0006791737236749306,0.0005228202267368215,-4.2616923380447326e-05,0.0002651233368419268,-0.0003928318358354194,-0.0013626090773016701,0.0,0.0,0.0,0.0,0.0,0.0,0.0,-0.0001123924422680167,0.0002192639767641738,-8.986417690759474e-05,0.00011620186534022636,0.00018162241388763184,1.9285291855464237e-05,-4.577636719904632e-06,-0.00048248644735179527,0.0006791737236749306,-0.0005228202267368215,4.2616923380447326e-05,-0.0002651233368419268,0.0003928318358354194,0.0013626090773016701,0.06972616910934448,18.078760147094727,-0.8942596912384033,-18.146699905395508,-0.7308860421180725,-2.2552523612976074,0.17337362468242645,0
3,0.009981155395507812,-0.12130087614059448,-18.130334854125977,0.8942596912384033,18.170503616333008,0.7372947335243225,2.2753939628601074,-0.20083944499492645,0.0,0.0,0.0,0.0,0.0,0.0,0.0,-0.03688758957543737,0.5417272051799111,0.1125330161346448,0.5533363259267041,0.3155368686129264,0.0653292791810957,-0.21050209843804568,-0.6089712691265239,-0.05774974339965935,-0.6665128485338917,-2.594674409330937,-0.055803778290723846,2.507954499615588,0.8763181248864641,-0.6090851748156966,-0.05753196718556838,-0.666603097082616,-2.5945565370258534,-0.05562143941554,2.507976027223799,0.8763108487046415,0.0011360857439182911,-0.00038069123985919176,-0.0001764101426449775,0.0005647823758711676,1.06961990862352e-05,-0.0005292179046983184,8.35292839218555e-05,0.0,0.0,0.0,0.0,0.0,0.0,0.0,-0.00011390568917268862,0.00021777621409097003,-9.024854872430321e-05,0.00011787230508364388,0.00018233887518384617,2.152760821116928e-05,-7.276181822613026e-06,-0.0011360857439182911,0.00038069123985919176,0.0001764101426449775,-0.0005647823758711676,-1.06961990862352e-05,0.0005292179046983184,-8.35292839218555e-05,0.12130087614059448,18.130334854125977,-0.8942596912384033,-18.170503616333008,-0.7372947335243225,-2.2753939628601074,0.20083944499492645,0
4,0.015005350112915039,-0.12130087614059448,-18.130334854125977,0.8942596912384033,18.170503616333008,0.7372947335243225,2.2753939628601074,-0.20083944499492645,0.0,0.0,0.0,0.0,0.0,0.0,0.0,-0.03688758957543737,0.5417272051799111,0.1125330161346448,0.5533363259267041,0.3155368686129264,0.0653292791810957,-0.21050209843804568,-0.6089712691265239,-0.05774974339965935,-0.6665128485338917,-2.594674409330937,-0.055803778290723846,2.507954499615588,0.8763181248864641,-0.6090851748156966,-0.05753196718556838,-0.666603097082616,-2.5945565370258534,-0.05562143941554,2.507976027223799,0.8763108487046415,0.0011360857439182911,-0.00038069123985919176,-0.0001764101426449775,0.0005647823758711676,1.06961990862352e-05,-0.0005292179046983184,8.35292839218555e-05,0.0,0.0,0.0,0.0,0.0,0.0,0.0,-0.00011390568917268862,0.00021777621409097003,-9.024854872430321e-05,0.00011787230508364388,0.00018233887518384617,2.152760821116928e-05,-7.276181822613026e-06,-0.0011360857439182911,0.00038069123985919176,0.0001764101426449775,-0.0005647823758711676,-1.06961990862352e-05,0.0005292179046983184,-8.35292839218555e-05,0.12130087614059448,18.130334854125977,-0.8942596912384033,-18.170503616333008,-0.7372947335243225,-2.2753939628601074,0.20083944499492645,0
5,0.020000219345092773,-0.12130087614059448,-18.130334854125977,0.8942596912384033,18.245882034301758,0.7427878975868225,2.2552523612976074,-0.24112264811992645,0.0,0.0,0.0,0.0,0.0,0.0,0.0,-0.03940118533907755,0.5442696011824076,0.11021662599236401,0.5433255691321203,0.3150478827579825,0.06476328769891644,-0.20892574106462652,-0.6089691643915999,-0.05774769049227304,-0.6665133157182486,-2.5946796989395,-0.05580438864231109,2.5079567375712926,0.8763229540086384,-0.6090851748156966,-0.05753196718556838,-0.666603097082616,-2.5945565370258534,-0.05562143941554,2.507976027223799,0.8763108487046415,0.0009236763560293883,-0.000201320754089497,-0.0003536196131895889,-0.0015228261190083636,-3.6894281990501624e-05,6.0450139261288704e-05,0.0017497940746143688,0.0,0.0,0.0,0.0,0.0,0.0,0.0,-0.00011601042409670193,0.00021572330670465573,-8.978136436743611e-05,0.00012316191364636353,0.0001829492267710897,1.9289652506415678e-05,-1.2105303996867711e-05,-0.0009236763560293883,0.000201320754089497,0.0003536196131895889,0.0015228261190083636,3.6894281990501624e-05,-6.0450139261288704e-05,-0.0017497940746143688,0.12130087614059448,18.130334854125977,-0.8942596912384033,-18.245882034301758,-0.7427878975868225,-2.2552523612976074,0.24112264811992645,0
6,0.02500128746032715,-0.12130087614059448,-18.130334854125977,0.8942596912384033,18.245882034301758,0.7427878975868225,2.2552523612976074,-0.24112264811992645,0.0,0.0,0.0,0.0,0.0,0.0,0.0,-0.03940118533907755,0.5442696011824076,0.11021662599236401,0.5433255691321203,0.3150478827579825,0.06476328769891644,-0.20892574106462652,-0.6089691643915999,-0.05774769049227304,-0.6665133157182486,-2.5946796989395,-0.05580438864231109,2.5079567375712926,0.8763229540086384,-0.6090851748156966,-0.05753196718556838,-0.666603097082616,-2.5945565370258534,-0.05562143941554,2.507976027223799,0.8763108487046415,0.0009236763560293883,-0.000201320754089497,-0.0003536196131895889,-0.0015228261190083636,-3.6894281990501624e-05,6.0450139261288704e-05,0.0017497940746143688,0.0,0.0,0.0,0.0,0.0,0.0,0.0,-0.00011601042409670193,0.00021572330670465573,-8.978136436743611e-05,0.00012316191364636353,0.0001829492267710897,1.9289652506415678e-05,-1.2105303996867711e-05,-0.0009236763560293883,0.000201320754089497,0.0003536196131895889,0.0015228261190083636,3.6894281990501624e-05,-6.0450139261288704e-05,-0.0017497940746143688,0.12130087614059448,18.130334854125977,-0.8942596912384033,-18.245882034301758,-0.7427878975868225,-2.2552523612976074,0.24112264811992645,0
7,0.02999567985534668,-0.04592245817184448,-18.154138565063477,0.9418671131134033,18.170503616333008,0.7372947335243225,2.2625765800476074,-0.21457235515117645,0.0,0.0,0.0,0.0,0.0,0.0,0.0,-0.04861066604227888,0.5436261830139535,0.10037541030800828,0.540554468469789,0.3159171887576263,0.06556587843065964,-0.20897214199273217,-0.6089744528092861,-0.05774594112356716,-0.6665138254409998,-2.594674409330937,-0.05580377829074859,2.507955963661088,0.8763200039780801,-0.6090851748156966,-0.05753196718556838,-0.666603097082616,-2.5945565370258534,-0.05562143941554,2.507976027223799,0.8763108487046415,-0.00045536745209992865,0.0012793072622833599,-0.0014370175096733635,0.00037043928445180355,-0.001219171659973647,-4.1171999671652006e-05,-0.0002755152181591426,0.0,0.0,0.0,0.0,0.0,0.0,0.0,-0.00011072200641049079,0.00021397393799877512,-8.927164161620649e-05,0.00011787230508364388,0.00018233887520859027,2.006356271078147e-05,-9.155273438588019e-06,0.00045536745209992865,-0.0012793072622833599,0.0014370175096733635,-0.00037043928445180355,0.001219171659973647,4.1171999671652006e-05,0.0002755152181591426,0.04592245817184448,18.154138565063477,-0.9418671131134033,-18.170503616333008,-0.7372947335243225,-2.2625765800476074,0.21457235515117645,0
8,0.03499293327331543,-0.04592245817184448,-18.154138565063477,0.9418671131134033,18.170503616333008,0.7372947335243225,2.2625765800476074,-0.21457235515117645,0.0,0.0,0.0,0.0,0.0,0.0,0.0,-0.04861066604227888,0.5436261830139535,0.10037541030800828,0.540554468469789,0.3159171887576263,0.06556587843065964,-0.20897214199273217,-0.6089744528092861,-0.05774594112356716,-0.6665138254409998,-2.594674409330937,-0.05580377829074859,2.507955963661088,0.8763200039780801,-0.6090851748156966,-0.05753196718556838,-0.666603097082616,-2.5945565370258534,-0.05562143941554,2.507976027223799,0.8763108487046415,-0.00045536745209992865,0.0012793072622833599,-0.0014370175096733635,0.00037043928445180355,-0.001219171659973647,-4.1171999671652006e-05,-0.0002755152181591426,0.0,0.0,0.0,0.0,0.0,0.0,0.0,-0.00011072200641049079,0.00021397393799877512,-8.927164161620649e-05,0.00011787230508364388,0.00018233887520859027,2.006356271078147e-05,-9.155273438588019e-06,0.00045536745209992865,-0.0012793072622833599,0.0014370175096733635,-0.00037043928445180355,0.001219171659973647,4.1171999671652006e-05,0.0002755152181591426,0.04592245817184448,18.154138565063477,-0.9418671131134033,-18.170503616333008,-0.7372947335243225,-2.2625765800476074,0.21457235515117645,0
9,0.04000091552734375,-0.04592245817184448,-18.154138565063477,0.9418671131134033,18.170503616333008,0.7372947335243225,2.2625765800476074,-0.21457235515117645,0.0,0.0,0.0,0.0,0.0,0.0,0.0,-0.04861066604227888,0.5436261830139535,0.10037541030800828,0.540554468469789,0.3159171887576263,0.06556587843065964,-0.20897214199273217,-0.6089744528092861,-0.05774594112356716,-0.6665138254409998,-2.594674409330937,-0.05580377829074859,2.507955963661088,0.8763200039780801,-0.6090851748156966,-0.05753196718556838,-0.666603097082616,-2.5945565370258534,-0.05562143941554,2.507976027223799,0.8763108487046415,-0.00045536745209992865,0.0012793072622833599,-0.0014370175096733635,0.00037043928445180355,-0.001219171659973647,-4.1171999671652006e-05,-0.0002755152181591426,0.0,0.0,0.0,0.0,0.0,0.0,0.0,-0.00011072200641049079,0.00021397393799877512,-8.927164161620649e-05,0.00011787230508364388,0.00018233887520859027,2.006356271078147e-05,-9.155273438588019e-06,0.00045536745209992865,-0.0012793072622833599,0.0014370175096733635,-0.00037043928445180355,0.001219171659973647,4.1171999671652006e-05,0.0002755152181591426,0.04592245817184448,18.154138565063477,-0.9418671131134033,-18.170503616333008,-0.7372947335243225,-2.2625765800476074,0.21457235515117645,0
10,0.0449986457824707,0.03342324495315552,-18.078760147094727,0.9418671131134033,18.146699905395508,0.7372947335243225,2.2488436698913574,-0.19351522624492645,0.0,0.0,0.0,0.0,0.0,0.0,0.0,-0.03964262628378435,0.5505337817778899,0.10689257261545651,0.5384572350238913,0.3148815440180951,0.06674616805498049,-0.2097941316141275,-0.6089800209288011,-0.05775336170301102,-0.6665166257613492,-2.5946727388950817,-0.05580377829074859,2.5079574501328574,0.8763166046589612,-0.6090851748156966,-0.05753196718556838,-0.666603097082616,-2.5945565370258534,-0.05562143941554,2.507976027223799,0.8763108487046415,-0.0010694644281155372,0.0012353557663554234,0.0003280170850221522,0.0006281394853026726,0.0001591437357989483,0.0004180000488126596,2.325516505407991e-05,0.0,0.0,0.0,0.0,0.0,0.0,0.0,-0.00010515388689547045,0.0002213945174426371,-8.647132126682333e-05,0.0001162018692282274,0.00018233887520859027,1.8577090941551688e-05,-5.755954319730527e-06,0.0010694644281155372,-0.0012353557663554234,-0.0003280170850221522,-0.0006281394853026726,-0.0001591437357989483,-0.0004180000488126596,-2.325516505407991e-05,-0.03342324495315552,18.078760147094727,-0.9418671131134033,-18.146699905395508,-0.7372947335243225,-2.2488436698913574,0.19351522624492645,0
11,0.04999828338623047,0.03342324495315552,-18.078760147094727,0.9418671131134033,18.146699905395508,0.7372947335243225,2.2488436698913574,-0.19351522624492645,0.0,0.0,0.0,0.0,0.0,0.0,0.0,-0.03964262628378435,0.5505337817778899,0.10689257261545651,0.5384572350238913,0.3148815440180951,0.06674616805498049,-0.2097941316141275,-0.6089800209288011,-0.05775336170301102,-0.6665166257613492,-2.5946727388950817,-0.05580377829074859,2.5079574501328574,0.8763166046589612,-0.6090851748156966,-0.05753196718556838,-0.666603097082616,-2.5945565370258534,-0.05562143941554,2.507976027223799,0.8763108487046415,-0.0010694644281155372,0.0012353557663554234,0.0003280170850221522,0.0006281394853026726,0.0001591437357989483,0.0004180000488126596,2.325516505407991e-05,0.0,0.0,0.0,0.0,0.0,0.0,0.0,-0.00010515388689547045,0.0002213945174426371,-8.647132126682333e-05,0.0001162018692282274,0.00018233887520859027,1.8577090941551688e-05,-5.755954319730527e-06,0.0010694644281155372,-0.0012353557663554234,-0.0003280170850221522,-0.0006281394853026726,-0.0001591437357989483,-0.0004180000488126596,-2.325516505407991e-05,-0.03342324495315552,18.078760147094727,-0.9418671131134033,-18.146699905395508,-0.7372947335243225,-2.2488436698913574,0.19351522624492645,0
12,0.05499410629272461,0.03342324495315552,-18.031152725219727,0.9696381092071533,18.122896194458008,0.7491965889930725,2.2296175956726074,-0.23471395671367645,0.0,0.0,0.0,0.0,0.0,0.0,0.0,-0.03353451240363207,0.5578379995825018,0.1117649420698238,0.5412854672529686,0.3152249314766936,0.06563784921363686,-0.20757748222671418,-0.6089800238177322,-0.057754650677750874,-0.6665187649674494,-2.5946710684592262,-0.055805100719134006,2.5079595858785866,0.8763222419278276,-0.6090851748156966,-0.05753196718556838,-0.666603097082616,-2.5945565370258534,-0.05562143941554,2.507976027223799,0.8763108487046415,-0.00042385400032051584,0.0005819286029378284,0.0005331827145842398,0.000654749488659388,-0.00037878071525738474,0.0003446534608687724,0.001359796147937339,0.0,0.0,0.0,0.0,0.0,0.0,0.0,-0.0001051509979643761,0.0002226834921824905,-8.433211516656325e-05,0.00011453143337281091,0.00018366130359400573,1.6441345212392378e-05,-1.1393223186106916e-05,0.00042385400032051584,-0.0005819286029378284,-0.0005331827145842398,-0.000654749488659388,0.00037878071525738474,-0.0003446534608687724,-0.001359796147937339,-0.03342324495315552,18.031152725219727,-0.9696381092071533,-18.122896194458008,-0.7491965889930725,-2.2296175956726074,0.23471395671367645,0
13,0.05999279022216797,0.03342324495315552,-18.031152725219727,0.9696381092071533,18.122896194458008,0.7491965889930725,2.2296175956726074,-0.23471395671367645,0.0,0.0,0.0,0.0,0.0,0.0,0.0,-0.03353451240363207,0.5578379995825018,0.1117649420698238,0.5412854672529686,0.3152249314766936,0.06563784921363686,-0.20757748222671418,-0.6089800238177322,-0.057754650677750874,-0.6665187649674494,-2.5946710684592262,-0.055805100719134006,2.5079595858785866,0.8763222419278276,-0.6090851748156966,-0.05753196718556838,-0.666603097082616,-2.5945565370258534,-0.05562143941554,2.507976027223799,0.8763108487046415,-0.00042385400032051584,0.0005819286029378284,0.0005331827145842398,0.000654749488659388,-0.00037878071525738474,0.0003446534608687724,0.001359796147937339,0.0,0.0,0.0,0.0,0.0,0.0,0.0,-0.0001051509979643761,0.0002226834921824905,-8.433211516656325e-05,0.00011453143337281091,0.00018366130359400573,1.6441345212392378e-05,-1.1393223186106916e-05,0.00042385400032051584,-0.0005819286029378284,-0.0005331827145842398,-0.000654749488659388,0.00037878071525738474,-0.0003446534608687724,-0.001359796147937339,-0.03342324495315552,18.031152725219727,-0.9696381092071533,-18.122896194458008,-0.7491965889930725,-2.2296175956726074,0.23471395671367645,0
14,0.06501388549804688,-0.018151462078094482,-18.078760147094727,0.9418671131134033,18.146699905395508,0.7308860421180725,2.2488436698913574,-0.24112264811992645,0.0,0.0,0.0,0.0,0.0,0.0,0.0,-0.03687187528757386,0.5619018480852881,0.10904975941202845,0.5470375800269293,0.3167999044389099,0.06331091174628493,-0.20730661114756346,-0.6089764026141081,-0.05775337473064853,-0.6665161924385646,-2.5946727388950817,-0.055803066213925674,2.5079575673856853,0.8763229540106322,-0.6090851748156966,-0.05753196718556838,-0.666603097082616,-2.5945565370258534,-0.05562143941554,2.507976027223799,0.8763108487046415,0.00022123404663011633,0.0006358556970779298,0.0006151456778051344,0.00042097526508135354,0.0003286535538862377,-6.44392686135733e-05,0.0012651622741461227,0.0,0.0,0.0,0.0,0.0,0.0,0.0,-0.00010877220158844736,0.00022140754508014754,-8.690464405136655e-05,0.0001162018692282274,0.00018162679838567425,1.8459838113660254e-05,-1.2105305990717241e-05,-0.00022123404663011633,-0.0006358556970779298,-0.0006151456778051344,-0.00042097526508135354,-0.0003286535538862377,6.44392686135733e-05,-0.0012651622741461227,0.018151462078094482,18.078760147094727,-0.9418671131134033,-18.146699905395508,-0.7308860421180725,-2.2488436698913574,0.24112264811992645,0
15,0.06999921798706055,-0.018151462078094482,-18.078760147094727,0.9418671131134033,18.146699905395508,0.7308860421180725,2.2488436698913574,-0.24112264811992645,0.0,0.0,0.0,0.0,0.0,0.0,0.0,-0.03687187528757386,0.5619018480852881,0.10904975941202845,0.5470375800269293,0.3167999044389099,0.06331091174628493,-0.20730661114756346,-0.6089764026141081,-0.05775337473064853,-0.6665161924385646,-2.5946727388950817,-0.055803066213925674,2.5079575673856853,0.8763229540106322,-0.6090851748156966,-0.05753196718556838,-0.666603097082616,-2.5945565370258534,-0.05562143941554,2.507976027223799,0.8763108487046415,0.00022123404663011633,0.0006358556970779298,0.0006151456778051344,0.00042097526508135354,0.0003286535538862377,-6.44392686135733e-05,0.0012651622741461227,0.0,0.0,0.0,0.0,0.0,0.0,0.0,-0.00010877220158844736,0.00022140754508014754,-8.690464405136655e-05,0.0001162018692282274,0.00018162679838567425,1.8459838113660254e-05,-1.2105305990717241e-05,-0.00022123404663011633,-0.0006358556970779298,-0.0006151456778051344,-0.00042097526508135354,-0.0003286535538862377,6.44392686135733e-05,-0.0012651622741461227,0.018151462078094482,18.078760147094727,-0.9418671131134033,-18.146699905395508,-0.7308860421180725,-2.2488436698913574,0.24112264811992645,0
16,0.07500982284545898,0.005652248859405518,-18.177942276000977,0.9696381092071533,18.222078323364258,0.7427878975868225,2.2625765800476074,-0.21457235515117645,0.0,0.0,0.0,0.0,0.0,0.0,0.0,-0.03256163601596172,0.5528817644835189,0.11550898057737838,0.5545008607655022,0.3165094139966472,0.0652552897011775,-0.20910371402192332,-0.6089780720869754,-0.05774427102444334,-0.6665188432871357,-2.5946780286086235,-0.05580438864231109,2.507955923769874,0.8763168119817398,-0.6090851748156966,-0.05753196718556838,-0.666603097082616,-2.5945565370258534,-0.05562143941554,2.507976027223799,0.8763108487046415,-0.001352677657588614,0.0004464023636447229,-0.0004670398469183923,-0.0005097253204320856,-0.00020130077109326182,0.00019516286754147114,-0.000361578419905803,0.0,0.0,0.0,0.0,0.0,0.0,0.0,-0.00010710272872116455,0.00021230383887495957,-8.425379548027134e-05,0.00012149158277008354,0.0001829492267710897,2.0103453925113257e-05,-5.96327709834199e-06,0.001352677657588614,-0.0004464023636447229,0.0004670398469183923,0.0005097253204320856,0.00020130077109326182,-0.00019516286754147114,0.000361578419905803,-0.005652248859405518,18.177942276000977,-0.9696381092071533,-18.222078323364258,-0.7427878975868225,-2.2625765800476074,0.21457235515117645,0
17,0.08000469207763672,0.005652248859405518,-18.177942276000977,0.9696381092071533,18.222078323364258,0.7427878975868225,2.2625765800476074,-0.21457235515117645,0.0,0.0,0.0,0.0,0.0,0.0,0.0,-0.03256163601596172,0.5528817644835189,0.11550898057737838,0.5545008607655022,0.3165094139966472,0.0652552897011775,-0.20910371402192332,-0.6089780720869754,-0.05774427102444334,-0.6665188432871357,-2.5946780286086235,-0.05580438864231109,2.507955923769874,0.8763168119817398,-0.6090851748156966,-0.05753196718556838,-0.666603097082616,-2.5945565370258534,-0.05562143941554,2.507976027223799,0.8763108487046415,-0.001352677657588614,0.0004464023636447229,-0.0004670398469183923,-0.0005097253204320856,-0.00020130077109326182,0.00019516286754147114,-0.000361578419905803,0.0,0.0,0.0,0.0,0.0,0.0,0.0,-0.00010710272872116455,0.00021230383887495957,-8.425379548027134e-05,0.00012149158277008354,0.0001829492267710897,2.0103453925113257e-05,-5.96327709834199e-06,0.001352677657588614,-0.0004464023636447229,0.0004670398469183923,0.0005097253204320856,0.00020130077109326182,-0.00019516286754147114,0.000361578419905803,-0.005652248859405518,18.177942276000977,-0.9696381092071533,-18.222078323364258,-0.7427878975868225,-2.2625765800476074,0.21457235515117645,0
18,0.08502626419067383,-0.018151462078094482,-18.177942276000977,0.9418671131134033,18.198274612426758,0.7308860421180725,2.2424349784851074,-0.17978231608867645,0.0,0.0,0.0,0.0,0.0,0.0,0.0,-0.029821342201389066,0.5498311428470513,0.12449819956698092,0.5481737474580178,0.315495632539513,0.06695077914504778,-0.2102942950313113,-0.6089764016511148,-0.05774427068756527,-0.6665168943422699,-2.5946763572279603,-0.055803066213925674,2.5079581617249382,0.8763161384001654,-0.6090851748156966,-0.05753196718556838,-0.666603097082616,-2.5945565370258534,-0.05562143941554,2.507976027223799,0.8763108487046415,-0.0010706144708959263,-0.0003294128748431963,0.00015867347154136576,-0.0001014106784316589,0.00023717637064306002,0.0006747270547384136,-0.0008438180237408668,0.0,0.0,0.0,0.0,0.0,0.0,0.0,-0.00010877316458179909,0.00021230350199688552,-8.620274034609743e-05,0.00011982020210687949,0.00018162679838567425,1.7865498860736295e-05,-5.289695523935656e-06,0.0010706144708959263,0.0003294128748431963,-0.00015867347154136576,0.0001014106784316589,-0.00023717637064306002,-0.0006747270547384136,0.0008438180237408668,0.018151462078094482,18.177942276000977,-0.9418671131134033,-18.198274612426758,-0.7308860421180725,-2.2424349784851074,0.17978231608867645,0
19,0.09010577201843262,-0.018151462078094482,-18.177942276000977,0.9418671131134033,18.198274612426758,0.7308860421180725,2.2424349784851074,-0.17978231608867645,0.0,0.0,0.0,0.0,0.0,0.0,0.0,-0.029821342201389066,0.5498311428470513,0.12449819956698092,0.5481737474580178,0.315495632539513,0.06695077914504778,-0.2102942950313113,-0.6089764016511148,-0.05774427068756527,-0.6665168943422699,-2.5946763572279603,-0.055803066213925674,2.5079581617249382,0.8763161384001654,-0.6090851748156966,-0.05753196718556838,-0.666603097082616,-2.5945565370258534,-0.05562143941554,2.507976027223799,0.8763108487046415,-0.0010706144708959263,-0.0003294128748431963,0.00015867347154136576,-0.0001014106784316589,0.00023717637064306002,0.0006747270547384136,-0.0008438180237408668,0.0,0.0,0.0,0.0,0.0,0.0,0.0,-0.00010877316458179909,0.00021230350199688552,-8.620274034609743e-05,0.00011982020210687949,0.00018162679838567425,1.7865498860736295e-05,-5.289695523935656e-06,0.0010706144708959263,0.0003294128748431963,-0.00015867347154136576,0.0001014106784316589,-0.00023717637064306002,-0.0006747270547384136,0.0008438180237408668,0.018151462078094482,18.177942276000977,-0.9418671131134033,-18.198274612426758,-0.7308860421180725,-2.2424349784851074,0.17978231608867645,0
20,0.09494757652282715,-0.018151462078094482,-18.177942276000977,0.9418671131134033,18.198274612426758,0.7308860421180725,2.2424349784851074,-0.17978231608867645,0.0,0.0,0.0,0.0,0.0,0.0,0.0,-0.029821342201389066,0.5498311428470513,0.12449819956698092,0.5481737474580178,0.315495632539513,0.06695077914504778,-0.2102942950313113,-0.6089764016511148,-0.05774427068756527,-0.6665168943422699,-2.5946763572279603,-0.055803066213925674,2.5079581617249382,0.8763161384001654,-0.6090851748156966,-0.05753196718556838,-0.666603097082616,-2.5945565370258534,-0.05562143941554,2.507976027223799,0.8763108487046415,-0.0010706144708959263,-0.0003294128748431963,0.00015867347154136576,-0.0001014106784316589,0.00023717637064306002,0.0006747270547384136,-0.0008438180237408668,0.0,0.0,0.0,0.0,0.0,0.0,0.0,-0.00010877316458179909,0.00021230350199688552,-8.620274034609743e-05,0.00011982020210687949,0.00018162679838567425,1.7865498860736295e-05,-5.289695523935656e-06,0.0010706144708959263,0.0003294128748431963,-0.00015867347154136576,0.0001014106784316589,-0.00023717637064306002,-0.0006747270547384136,0.0008438180237408668,0.018151462078094482,18.177942276000977,-0.9418671131134033,-18.198274612426758,-0.7308860421180725,-2.2424349784851074,0.17978231608867645,0
21,0.09999394416809082,-0.018151462078094482,-18.177942276000977,0.9418671131134033,18.198274612426758,0.7308860421180725,2.2424349784851074,-0.17978231608867645,0.0,0.0,0.0,0.0,0.0,0.0,0.0,-0.029821342201389066,0.5498311428470513,0.12449819956698092,0.5481737474580178,0.315495632539513,0.06695077914504778,-0.2102942950313113,-0.6089764016511148,-0.05774427068756527,-0.6665168943422699,-2.5946763572279603,-0.055803066213925674,2.5079581617249382,0.8763161384001654,-0.6090851748156966,-0.05753196718556838,-0.666603097082616,-2.5945565370258534,-0.05562143941554,2.507976027223799,0.8763108487046415,-0.0010706144708959263,-0.0003294128748431963,0.00015867347154136576,-0.0001014106784316589,0.00023717637064306002,0.0006747270547384136,-0.0008438180237408668,0.0,0.0,0.0,0.0,0.0,0.0,0.0,-0.00010877316458179909,0.00021230350199688552,-8.620274034609743e-05,0.00011982020210687949,0.00018162679838567425,1.7865498860736295e-05,-5.289695523935656e-06,0.0010706144708959263,0.0003294128748431963,-0.00015867347154136576,0.0001014106784316589,-0.00023717637064306002,-0.0006747270547384136,0.0008438180237408668,0.018151462078094482,18.177942276000977,-0.9418671131134033,-18.198274612426758,-0.7308860421180725,-2.2424349784851074,0.17978231608867645,0
22,0.10499930381774902,-0.06972616910934448,-18.130334854125977,0.9180634021759033,18.170503616333008,0.7372947335243225,2.2625765800476074,-0.24844686686992645,0.0,0.0,0.0,0.0,0.0,0.0,0.0,-0.03729513277847293,0.5460859015149612,0.12219059055676197,0.5452991336472386,0.3159917631567722,0.06710463991561538,-0.2096601771457226,-0.608973484383689,-0.05774762032826999,-0.6665152238707484,-2.5946723430365792,-0.05580377829074859,2.507955923769209,0.8763237678127155,-0.6090851748156966,-0.05753196718556838,-0.666603097082616,-2.5945565370258534,-0.05562143941554,2.507976027223799,0.8763108487046415,0.0005749740797432921,-4.197332320547682e-05,-1.926600711505407e-05,0.00030655194736167187,-0.0008677557805993299,-0.0001735244408435032,0.0009970999802005514,0.0,0.0,0.0,0.0,0.0,0.0,0.0,-0.00011169043200753848,0.00021565314270160368,-8.787321186765062e-05,0.00011580601072580521,0.00018233887520859027,2.0103454589914804e-05,-1.2919108073994323e-05,-0.0005749740797432921,4.197332320547682e-05,1.926600711505407e-05,-0.00030655194736167187,0.0008677557805993299,0.0001735244408435032,-0.0009970999802005514,0.06972616910934448,18.130334854125977,-0.9180634021759033,-18.170503616333008,-0.7372947335243225,-2.2625765800476074,0.24844686686992645,0
23,0.10999679565429688,-0.06972616910934448,-18.130334854125977,0.9180634021759033,18.170503616333008,0.7372947335243225,2.2625765800476074,-0.24844686686992645,0.0,0.0,0.0,0.0,0.0,0.0,0.0,-0.03729513277847293,0.5460859015149612,0.12219059055676197,0.5452991336472386,0.3159917631567722,0.06710463991561538,-0.2096601771457226,-0.608973484383689,-0.05774762032826999,-0.6665152238707484,-2.5946723430365792,-0.05580377829074859,2.507955923769209,0.8763237678127155,-0.6090851748156966,-0.05753196718556838,-0.666603097082616,-2.5945565370258534,-0.05562143941554,2.507976027223799,0.8763108487046415,0.0005749740797432921,-4.197332320547682e-05,-1.926600711505407e-05,0.00030655194736167187,-0.0008677557805993299,-0.0001735244408435032,0.0009970999802005514,0.0,0.0,0.0,0.0,0.0,0.0,0.0,-0.00011169043200753848,0.00021565314270160368,-8.787321186765062e-05,0.00011580601072580521,0.00018233887520859027,2.0103454589914804e-05,-1.2919108073994323e-05,-0.0005749740797432921,4.197332320547682e-05,1.926600711505407e-05,-0.00030655194736167187,0.0008677557805993299,0.0001735244408435032,-0.0009970999802005514,0.06972616910934448,18.130334854125977,-0.9180634021759033,-18.170503616333008,-0.7372947335243225,-2.2625765800476074,0.24844686686992645,0
24,0.11499333381652832,-0.06972616910934448,-18.054956436157227,0.9180634021759033,18.198274612426758,0.7372947335243225,2.2424349784851074,-0.17978231608867645,0.0,0.0,0.0,0.0,0.0,0.0,0.0,-0.0341078200030067,0.5448096561937532,0.12436368833880045,0.5447846313644706,0.3154803491686563,0.06762706635722938,-0.21214995420434488,-0.608972808385697,-0.05775290127296407,-0.6665142618923514,-2.594676358137775,-0.05580377829074859,2.5079581617249382,0.8763161384181842,-0.6090851748156966,-0.05753196718556838,-0.666603097082616,-2.5945565370258534,-0.05562143941554,2.507976027223799,0.8763108487046415,0.0003588494648286321,-0.00023979803376503167,9.067153982448072e-05,-0.0006792158923196609,5.183731824358925e-05,0.00023365205757212233,-0.0010794203890865293,0.0,0.0,0.0,0.0,0.0,0.0,0.0,-0.00011236642999956636,0.00022093408739568693,-8.883519026459119e-05,0.00011982111192176959,0.00018233887520859027,1.7865498860736295e-05,-5.289713542744323e-06,-0.0003588494648286321,0.00023979803376503167,-9.067153982448072e-05,0.0006792158923196609,-5.183731824358925e-05,-0.00023365205757212233,0.0010794203890865293,0.06972616910934448,18.054956436157227,-0.9180634021759033,-18.198274612426758,-0.7372947335243225,-2.2424349784851074,0.17978231608867645,0
25,0.11999773979187012,-0.06972616910934448,-18.054956436157227,0.9180634021759033,18.198274612426758,0.7372947335243225,2.2424349784851074,-0.17978231608867645,0.0,0.0,0.0,0.0,0.0,0.0,0.0,-0.0341078200030067,0.5448096561937532,0.12436368833880045,0.5447846313644706,0.3154803491686563,0.06762706635722938,-0.21214995420434488,-0.608972808385697,-0.05775290127296407,-0.6665142618923514,-2.594676358137775,-0.05580377829074859,2.5079581617249382,0.8763161384181842,-0.6090851748156966,-0.05753196718556838,-0.666603097082616,-2.5945565370258534,-0.05562143941554,2.507976027223799,0.8763108487046415,0.0003588494648286321,-0.00023979803376503167,9.067153982448072e-05,-0.0006792158923196609,5.183731824358925e-05,0.00023365205757212233,-0.0010794203890865293,0.0,0.0,0.0,0.0,0.0,0.0,0.0,-0.00011236642999956636,0.00022093408739568693,-8.883519026459119e-05,0.00011982111192176959,0.00018233887520859027,1.7865498860736295e-05,-5.289713542744323e-06,-0.0003588494648286321,0.00023979803376503167,-9.067153982448072e-05,0.0006792158923196609,-5.183731824358925e-05,-0.00023365205757212233,0.0010794203890865293,0.06972616910934448,18.054956436157227,-0.9180634021759033,-18.198274612426758,-0.7372947335243225,-2.2424349784851074,0.17978231608867645,0
26,0.12499690055847168,-0.018151462078094482,-18.078760147094727,0.9180634021759033,18.198274612426758,0.7372947335243225,2.2296175956726074,-0.22098104655742645,0.0,0.0,0.0,0.0,0.0,0.0,0.0,-0.041893857605619325,0.5493689637607636,0.11370435523971732,0.5470704918043652,0.3162364945044127,0.06567647285485906,-0.2106425859143124,-0.6089764016511637,-0.05775123119782434,-0.6665151430739762,-2.5946761200462447,-0.05580377829074859,2.507959585878584,0.8763207116942523,-0.6090851748156966,-0.05753196718556838,-0.666603097082616,-2.5945565370258534,-0.05562143941554,2.507976027223799,0.8763108487046415,-0.0008866695481491831,0.000830422952534417,-0.0008061028123570185,-0.0009362540274348595,4.243379819270062e-05,0.0002863295535176859,0.0005320323695932567,0.0,0.0,0.0,0.0,0.0,0.0,0.0,-0.00010877316453283825,0.00021926401225595693,-8.795400863981229e-05,0.00011958302039127844,0.00018233887520859027,1.6441345215056913e-05,-9.862989610809336e-06,0.0008866695481491831,-0.000830422952534417,0.0008061028123570185,0.0009362540274348595,-4.243379819270062e-05,-0.0002863295535176859,-0.0005320323695932567,0.018151462078094482,18.078760147094727,-0.9180634021759033,-18.198274612426758,-0.7372947335243225,-2.2296175956726074,0.22098104655742645,0
27,0.12999224662780762,-0.018151462078094482,-18.078760147094727,0.9180634021759033,18.198274612426758,0.7372947335243225,2.2296175956726074,-0.22098104655742645,0.0,0.0,0.0,0.0,0.0,0.0,0.0,-0.041893857605619325,0.5493689637607636,0.11370435523971732,0.5470704918043652,0.3162364945044127,0.06567647285485906,-0.2106425859143124,-0.6089764016511637,-0.05775123119782434,-0.6665151430739762,-2.5946761200462447,-0.05580377829074859,2.507959585878584,0.8763207116942523,-0.6090851748156966,-0.05753196718556838,-0.666603097082616,-2.5945565370258534,-0.05562143941554,2.507976027223799,0.8763108487046415,-0.0008866695481491831,0.000830422952534417,-0.0008061028123570185,-0.0009362540274348595,4.243379819270062e-05,0.0002863295535176859,0.0005320323695932567,0.0,0.0,0.0,0.0,0.0,0.0,0.0,-0.00010877316453283825,0.00021926401225595693,-8.795400863981229e-05,0.00011958302039127844,0.00018233887520859027,1.6441345215056913e-05,-9.862989610809336e-06,0.0008866695481491831,-0.000830422952534417,0.0008061028123570185,0.0009362540274348595,-4.243379819270062e-05,-0.0002863295535176859,-0.0005320323695932567,0.018151462078094482,18.078760147094727,-0.9180634021759033,-18.198274612426758,-0.7372947335243225,-2.2296175956726074,0.22098104655742645,0
28,0.1349947452545166,-0.04592245817184448,-18.106531143188477,0.9180634021759033,18.198274612426758,0.7427878975868225,2.2689852714538574,-0.18710653483867645,0.0,0.0,0.0,0.0,0.0,0.0,0.0,-0.04564835590759451,0.5473968446425131,0.1057835821643598,0.5568988321527574,0.31624009540558223,0.06434432066757725,-0.2093170755332189,-0.6089744528092836,-0.057749308302119474,-0.6665151431228842,-2.594676358171424,-0.05580438864231109,2.507955211692386,0.8763169522202431,-0.6090851748156966,-0.05753196718556838,-0.666603097082616,-2.5945565370258534,-0.05562143941554,2.507976027223799,0.8763108487046415,-0.0007562531537544539,0.00035838005951744327,-0.00034155455665743146,-0.0005254995706750743,-4.398686688413369e-05,-0.0006577750136843151,-0.0009154565819779388,0.0,0.0,0.0,0.0,0.0,0.0,0.0,-0.00011072200641293328,0.00021734111655109106,-8.795395973182352e-05,0.00011982114557040902,0.0001829492267710897,2.0815531412754495e-05,-6.103515601596499e-06,0.0007562531537544539,-0.00035838005951744327,0.00034155455665743146,0.0005254995706750743,4.398686688413369e-05,0.0006577750136843151,0.0009154565819779388,0.04592245817184448,18.106531143188477,-0.9180634021759033,-18.198274612426758,-0.7427878975868225,-2.2689852714538574,0.18710653483867645,0
29,0.14002132415771484,-0.04592245817184448,-18.106531143188477,0.9180634021759033,18.198274612426758,0.7427878975868225,2.2689852714538574,-0.18710653483867645,0.0,0.0,0.0,0.0,0.0,0.0,0.0,-0.04564835590759451,0.5473968446425131,0.1057835821643598,0.5568988321527574,0.31624009540558223,0.06434432066757725,-0.2093170755332189,-0.6089744528092836,-0.057749308302119474,-0.6665151431228842,-2.594676358171424,-0.05580438864231109,2.507955211692386,0.8763169522202431,-0.6090851748156966,-0.05753196718556838,-0.666603097082616,-2.5945565370258534,-0.05562143941554,2.507976027223799,0.8763108487046415,-0.0007562531537544539,0.00035838005951744327,-0.00034155455665743146,-0.0005254995706750743,-4.398686688413369e-05,-0.0006577750136843151,-0.0009154565819779388,0.0,0.0,0.0,0.0,0.0,0.0,0.0,-0.00011072200641293328,0.00021734111655109106,-8.795395973182352e-05,0.00011982114557040902,0.0001829492267710897,2.0815531412754495e-05,-6.103515601596499e-06,0.0007562531537544539,-0.00035838005951744327,0.00034155455665743146,0.0005254995706750743,4.398686688413369e-05,0.0006577750136843151,0.0009154565819779388,0.04592245817184448,18.106531143188477,-0.9180634021759033,-18.198274612426758,-0.7427878975868225,-2.2689852714538574,0.18710653483867645,0
30,0.14501404762268066,-0.018151462078094482,-18.177942276000977,0.9418671131134033,18.198274612426758,0.7427878975868225,2.2488436698913574,-0.17337362468242645,0.0,0.0,0.0,0.0,0.0,0.0,0.0,-0.03842537821891551,0.5537167034909855,0.11451872133842088,0.5559437718460424,0.31615460574599213,0.06516598915200131,-0.20942351598625222,-0.6089764276514948,-0.05774427956496717,-0.6665140593017477,-2.594676358172768,-0.05580438864231109,2.5079574496481154,0.8763154263413614,-0.6090851748156966,-0.05753196718556838,-0.666603097082616,-2.5945565370258534,-0.05562143941554,2.507976027223799,0.8763108487046415,-3.404597690343006e-05,0.0012697732503717377,5.6035258251461485e-06,-0.00016616578010068998,0.00425777372842152,0.000242894198023308,-0.0018375726654287306,0.0,0.0,0.0,0.0,0.0,0.0,0.0,-0.00010874716420172792,0.00021231237939878939,-8.903778086832848e-05,0.00011982114691466705,0.0001829492267710897,1.8577575683575986e-05,-4.577636719904632e-06,3.404597690343006e-05,-0.0012697732503717377,-5.6035258251461485e-06,0.00016616578010068998,-0.00425777372842152,-0.000242894198023308,0.0018375726654287306,0.018151462078094482,18.177942276000977,-0.9418671131134033,-18.198274612426758,-0.7427878975868225,-2.2488436698913574,0.17337362468242645,0
31,0.15000343322753906,-0.018151462078094482,-18.177942276000977,0.9418671131134033,18.198274612426758,0.7427878975868225,2.2488436698913574,-0.17337362468242645,0.0,0.0,0.0,0.0,0.0,0.0,0.0,-0.03842537821891551,0.5537167034909855,0.11451872133842088,0.5559437718460424,0.31615460574599213,0.06516598915200131,-0.20942351598625222,-0.6089764276514948,-0.05774427956496717,-0.6665140593017477,-2.594676358172768,-0.05580438864231109,2.5079574496481154,0.8763154263413614,-0.6090851748156966,-0.05753196718556838,-0.666603097082616,-2.5945565370258534,-0.05562143941554,2.507976027223799,0.8763108487046415,-3.404597690343006e-05,0.0012697732503717377,5.6035258251461485e-06,-0.00016616578010068998,0.00425777372842152,0.000242894198023308,-0.0018375726654287306,0.0,0.0,0.0,0.0,0.0,0.0,0.0,-0.00010874716420172792,0.00021231237939878939,-8.903778086832848e-05,0.00011982114691466705,0.0001829492267710897,1.8577575683575986e-05,-4.577636719904632e-06,3.404597690343006e-05,-0.0012697732503717377,-5.6035258251461485e-06,0.00016616578010068998,-0.00425777372842152,-0.000242894198023308,0.0018375726654287306,0.018151462078094482,18.177942276000977,-0.9418671131134033,-18.198274612426758,-0.7427878975868225,-2.2488436698913574,0.17337362468242645,0
32,0.15509462356567383,0.03342324495315552,-18.130334854125977,1.0172455310821533,18.198274612426758,0.7372947335243225,2.2552523612976074,-0.20083944499492645,0.0,0.0,0.0,0.0,0.0,0.0,0.0,-0.032298395589221006,0.552767506005676,0.11990941669487586,0.5487405644458394,0.31561647905509577,0.06636826741621202,-0.21163613567395836,-0.6089800209289479,-0.05774834815499586,-0.6665221754800114,-2.594676358172768,-0.05580377829074859,2.5079567375712926,0.8763184780991738,-0.6090851748156966,-0.05753196718556838,-0.666603097082616,-2.5945565370258534,-0.05562143941554,2.507976027223799,0.8763108487046415,-0.000651269552667187,-0.0007119083786728445,-0.00083825078823641,-0.0004862189176678506,0.0002624298213190983,4.2115548772110076e-05,0.00010046236855256405,0.0,0.0,0.0,0.0,0.0,0.0,0.0,-0.00010515388674869897,0.00021638096942747792,-8.092160260464443e-05,0.00011982114691466705,0.00018233887520859027,1.9289652506415678e-05,-7.629394532360223e-06,0.000651269552667187,0.0007119083786728445,0.00083825078823641,0.0004862189176678506,-0.0002624298213190983,-4.2115548772110076e-05,-0.00010046236855256405,-0.03342324495315552,18.130334854125977,-1.0172455310821533,-18.198274612426758,-0.7372947335243225,-2.2552523612976074,0.20083944499492645,0
33,0.15999794006347656,0.03342324495315552,-18.130334854125977,1.0172455310821533,18.198274612426758,0.7372947335243225,2.2552523612976074,-0.20083944499492645,0.0,0.0,0.0,0.0,0.0,0.0,0.0,-0.032298395589221006,0.552767506005676,0.11990941669487586,0.5487405644458394,0.31561647905509577,0.06636826741621202,-0.21163613567395836,-0.6089800209289479,-0.05774834815499586,-0.6665221754800114,-2.594676358172768,-0.05580377829074859,2.5079567375712926,0.8763184780991738,-0.6090851748156966,-0.05753196718556838,-0.666603097082616,-2.5945565370258534,-0.05562143941554,2.507976027223799,0.8763108487046415,-0.000651269552667187,-0.0007119083786728445,-0.00083825078823641,-0.0004862189176678506,0.0002624298213190983,4.2115548772110076e-05,0.00010046236855256405,0.0,0.0,0.0,0.0,0.0,0.0,0.0,-0.00010515388674869897,0.00021638096942747792,-8.092160260464443e-05,0.00011982114691466705,0.00018233887520859027,1.9289652506415678e-05,-7.629394532360223e-06,0.000651269552667187,0.0007119083786728445,0.00083825078823641,0.0004862189176678506,-0.0002624298213190983,-4.2115548772110076e-05,-0.00010046236855256405,-0.03342324495315552,18.130334854125977,-1.0172455310821533,-18.198274612426758,-0.7372947335243225,-2.2552523612976074,0.20083944499492645,0
34,0.164992094039917,0.005652248859405518,-18.078760147094727,1.0172455310821533,18.170503616333008,0.7491965889930725,2.2552523612976074,-0.22830526530742645,0.0,0.0,0.0,0.0,0.0,0.0,0.0,-0.028306682462197905,0.5483048649008394,0.12571827218342257,0.5488724085473698,0.3160599273815731,0.06793768038010728,-0.20908588733758368,-0.6089787740972307,-0.057751242533113194,-0.6665193761217174,-2.594674409330937,-0.055805100719134006,2.5079567375712926,0.8763215298569863,-0.6090851748156966,-0.05753196718556838,-0.666603097082616,-2.5945565370258534,-0.05562143941554,2.507976027223799,0.8763108487046415,0.0006057301236213593,-0.0009065798835806428,-0.0005542632880692916,0.0002496365473117703,-0.0004172500781359271,-0.00010543262581488429,0.0014605643686579498,0.0,0.0,0.0,0.0,0.0,0.0,0.0,-0.00010640071846590438,0.00021927534754481032,-8.372096089859227e-05,0.00011787230508364388,0.00018366130359400573,1.9289652506415678e-05,-1.0681152344815814e-05,-0.0006057301236213593,0.0009065798835806428,0.0005542632880692916,-0.0002496365473117703,0.0004172500781359271,0.00010543262581488429,-0.0014605643686579498,-0.005652248859405518,18.078760147094727,-1.0172455310821533,-18.170503616333008,-0.7491965889930725,-2.2552523612976074,0.22830526530742645,0
35,0.16999101638793945,0.005652248859405518,-18.078760147094727,1.0172455310821533,18.170503616333008,0.7491965889930725,2.2552523612976074,-0.22830526530742645,0.0,0.0,0.0,0.0,0.0,0.0,0.0,-0.028306682462197905,0.5483048649008394,0.12571827218342257,0.5488724085473698,0.3160599273815731,0.06793768038010728,-0.20908588733758368,-0.6089787740972307,-0.057751242533113194,-0.6665193761217174,-2.594674409330937,-0.055805100719134006,2.5079567375712926,0.8763215298569863,-0.6090851748156966,-0.05753196718556838,-0.666603097082616,-2.5945565370258534,-0.05562143941554,2.507976027223799,0.8763108487046415,0.0006057301236213593,-0.0009065798835806428,-0.0005542632880692916,0.0002496365473117703,-0.0004172500781359271,-0.00010543262581488429,0.0014605643686579498,0.0,0.0,0.0,0.0,0.0,0.0,0.0,-0.00010640071846590438,0.00021927534754481032,-8.372096089859227e-05,0.00011787230508364388,0.00018366130359400573,1.9289652506415678e-05,-1.0681152344815814e-05,-0.0006057301236213593,0.0009065798835806428,0.0005542632880692916,-0.0002496365473117703,0.0004172500781359271,0.00010543262581488429,-0.0014605643686579498,-0.005652248859405518,18.078760147094727,-1.0172455310821533,-18.170503616333008,-0.7491965889930725,-2.2552523612976074,0.22830526530742645,0
36,0.17499160766601562,-0.04592245817184448,-18.078760147094727,0.9418671131134033,18.170503616333008,0.7308860421180725,2.2360262870788574,-0.22830526530742645,0.0,0.0,0.0,0.0,0.0,0.0,0.0,-0.02942022208975121,0.5475426084843722,0.1264316157169907,0.5458613498948222,0.3159328745720983,0.06761745689991684,-0.2070933105628535,-0.608974452920244,-0.05775339775339432,-0.6665168931494466,-2.5946743242982477,-0.055803066213925674,2.507958873801761,0.8763215298569863,-0.6090851748156966,-0.05753196718556838,-0.666603097082616,-2.5945565370258534,-0.05562143941554,2.507976027223799,0.8763108487046415,0.0008403442834715262,-0.000296468410065775,0.00037224954975236067,-6.985119548540894e-05,0.0018413734405404026,0.000375173225907179,0.00021175236412903208,0.0,0.0,0.0,0.0,0.0,0.0,0.0,-0.00011072189545258126,0.00022143056782593373,-8.620393316938202e-05,0.00011778727239430964,0.00018162679838567425,1.7153422037896604e-05,-1.0681152344815814e-05,-0.0008403442834715262,0.000296468410065775,-0.00037224954975236067,6.985119548540894e-05,-0.0018413734405404026,-0.000375173225907179,-0.00021175236412903208,0.04592245817184448,18.078760147094727,-0.9418671131134033,-18.170503616333008,-0.7308860421180725,-2.2360262870788574,0.22830526530742645,0
37,0.1799919605255127,-0.04592245817184448,-18.078760147094727,0.9418671131134033,18.170503616333008,0.7308860421180725,2.2360262870788574,-0.22830526530742645,0.0,0.0,0.0,0.0,0.0,0.0,0.0,-0.02942022208975121,0.5475426084843722,0.1264316157169907,0.5458613498948222,0.3159328745720983,0.06761745689991684,-0.2070933105628535,-0.608974452920244,-0.05775339775339432,-0.6665168931494466,-2.5946743242982477,-0.055803066213925674,2.507958873801761,0.8763215298569863,-0.6090851748156966,-0.05753196718556838,-0.666603097082616,-2.5945565370258534,-0.05562143941554,2.507976027223799,0.8763108487046415,0.0008403442834715262,-0.000296468410065775,0.00037224954975236067,-6.985119548540894e-05,0.0018413734405404026,0.000375173225907179,0.00021175236412903208,0.0,0.0,0.0,0.0,0.0,0.0,0.0,-0.00011072189545258126,0.00022143056782593373,-8.620393316938202e-05,0.00011778727239430964,0.00018162679838567425,1.7153422037896604e-05,-1.0681152344815814e-05,-0.0008403442834715262,0.000296468410065775,-0.00037224954975236067,6.985119548540894e-05,-0.0018413734405404026,-0.000375173225907179,-0.00021175236412903208,0.04592245817184448,18.078760147094727,-0.9418671131134033,-18.170503616333008,-0.7308860421180725,-2.2360262870788574,0.22830526530742645,0
38,0.18499112129211426,-0.06972616910934448,-18.106531143188477,0.9180634021759033,18.170503616333008,0.7308860421180725,2.2360262870788574,-0.18710653483867645,0.0,0.0,0.0,0.0,0.0,0.0,0.0,-0.03511821785845466,0.5484398892229884,0.12370127386435925,0.5488265086303302,0.31713116879674474,0.06598098930811816,-0.20908160261700104,-0.6089748912931421,-0.05775243982028803,-0.6665149871210535,-2.594674409330457,-0.055803066213925674,2.507958873801761,0.8763169522202676,-0.6090851748156966,-0.05753196718556838,-0.666603097082616,-2.5945565370258534,-0.05562143941554,2.507976027223799,0.8763108487046415,-0.0003188235225020689,0.0003664933421408849,-0.00023187166225241326,-0.00017458359900561173,0.00030102423433750973,0.0002888875396371704,-0.0013960559382149946,0.0,0.0,0.0,0.0,0.0,0.0,0.0,-0.00011028352255448848,0.00022047263471964423,-8.810996156249917e-05,0.00011787230460358344,0.00018162679838567425,1.7153422037896604e-05,-6.1035156261324275e-06,0.0003188235225020689,-0.0003664933421408849,0.00023187166225241326,0.00017458359900561173,-0.00030102423433750973,-0.0002888875396371704,0.0013960559382149946,0.06972616910934448,18.106531143188477,-0.9180634021759033,-18.170503616333008,-0.7308860421180725,-2.2360262870788574,0.18710653483867645,0
39,0.18999099731445312,-0.06972616910934448,-18.106531143188477,0.9180634021759033,18.170503616333008,0.7308860421180725,2.2360262870788574,-0.18710653483867645,0.0,0.0,0.0,0.0,0.0,0.0,0.0,-0.03511821785845466,0.5484398892229884,0.12370127386435925,0.5488265086303302,0.31713116879674474,0.06598098930811816,-0.20908160261700104,-0.6089748912931421,-0.05775243982028803,-0.6665149871210535,-2.594674409330457,-0.055803066213925674,2.507958873801761,0.8763169522202676,-0.6090851748156966,-0.05753196718556838,-0.666603097082616,-2.5945565370258534,-0.05562143941554,2.507976027223799,0.8763108487046415,-0.0003188235225020689,0.0003664933421408849,-0.00023187166225241326,-0.00017458359900561173,0.00030102423433750973,0.0002888875396371704,-0.0013960559382149946,0.0,0.0,0.0,0.0,0.0,0.0,0.0,-0.00011028352255448848,0.00022047263471964423,-8.810996156249917e-05,0.00011787230460358344,0.00018162679838567425,1.7153422037896604e-05,-6.1035156261324275e-06,0.0003188235225020689,-0.0003664933421408849,0.00023187166225241326,0.00017458359900561173,-0.00030102423433750973,-0.0002888875396371704,0.0013960559382149946,0.06972616910934448,18.106531143188477,-0.9180634021759033,-18.170503616333008,-0.7308860421180725,-2.2360262870788574,0.18710653483867645,0
40,0.19499588012695312,-0.09352988004684448,-18.130334854125977,0.8704559803009033,18.170503616333008,0.7427878975868225,2.2625765800476074,-0.20724813640117645,0.0,0.0,0.0,0.0,0.0,0.0,0.0,-0.04139769617076559,0.5509162582334174,0.11852458136495045,0.5504520437247072,0.31635941935955275,0.06567262620069225,-0.2106026645848333,-0.608971111949478,-0.057747641925765404,-0.6665109461637065,-2.5946744092259584,-0.05580438864231109,2.507955923823044,0.8763191901759968,-0.6090851748156966,-0.05753196718556838,-0.666603097082616,-2.5945565370258534,-0.05562143941554,2.507976027223799,0.8763108487046415,-6.682692374652883e-05,0.0002784641020370888,0.00018588422402526948,0.00011207422656899188,-0.000242128816424788,-0.00037886937218407213,0.0008258121734247328,0.0,0.0,0.0,0.0,0.0,0.0,0.0,-0.00011406286621862272,0.00021567474019702076,-9.215091890946159e-05,0.00011787220010495147,0.0001829492267710897,2.010340075475625e-05,-8.341471355310937e-06,6.682692374652883e-05,-0.0002784641020370888,-0.00018588422402526948,-0.00011207422656899188,0.000242128816424788,0.00037886937218407213,-0.0008258121734247328,0.09352988004684448,18.130334854125977,-0.8704559803009033,-18.170503616333008,-0.7427878975868225,-2.2625765800476074,0.20724813640117645,0
41,0.20000767707824707,-0.09352988004684448,-18.130334854125977,0.8704559803009033,18.170503616333008,0.7427878975868225,2.2625765800476074,-0.20724813640117645,0.0,0.0,0.0,0.0,0.0,0.0,0.0,-0.04139769617076559,0.5509162582334174,0.11852458136495045,0.5504520437247072,0.31635941935955275,0.06567262620069225,-0.2106026645848333,-0.608971111949478,-0.057747641925765404,-0.6665109461637065,-2.5946744092259584,-0.05580438864231109,2.507955923823044,0.8763191901759968,-0.6090851748156966,-0.05753196718556838,-0.666603097082616,-2.5945565370258534,-0.05562143941554,2.507976027223799,0.8763108487046415,-6.682692374652883e-05,0.0002784641020370888,0.00018588422402526948,0.00011207422656899188,-0.000242128816424788,-0.00037886937218407213,0.0008258121734247328,0.0,0.0,0.0,0.0,0.0,0.0,0.0,-0.00011406286621862272,0.00021567474019702076,-9.215091890946159e-05,0.00011787220010495147,0.0001829492267710897,2.010340075475625e-05,-8.341471355310937e-06,6.682692374652883e-05,-0.0002784641020370888,-0.00018588422402526948,-0.00011207422656899188,0.000242128816424788,0.00037886937218407213,-0.0008258121734247328,0.09352988004684448,18.130334854125977,-0.8704559803009033,-18.170503616333008,-0.7427878975868225,-2.2625765800476074,0.20724813640117645,0
42,0.20000767707824707,-0.09352988004684448,-18.130334854125977,0.8704559803009033,18.170503616333008,0.7427878975868225,2.2625765800476074,-0.20724813640117645,0.0,0.0,0.0,0.0,0.0,0.0,0.0,-0.04139769617076559,0.5509162582334174,0.11852458136495045,0.5504520437247072,0.31635941935955275,0.06567262620069225,-0.2106026645848333,-0.608971111949478,-0.057747641925765404,-0.6665109461637065,-2.5946744092259584,-0.05580438864231109,2.507955923823044,0.8763191901759968,-0.6090851748156966,-0.05753196718556838,-0.666603097082616,-2.5945565370258534,-0.05562143941554,2.507976027223799,0.8763108487046415,-6.682692374652883e-05,0.0002784641020370888,0.00018588422402526948,0.00011207422656899188,-0.000242128816424788,-0.00037886937218407213,0.0008258121734247328,0.0,0.0,0.0,0.0,0.0,0.0,0.0,-0.00011406286621862272,0.00021567474019702076,-9.215091890946159e-05,0.00011787220010495147,0.0001829492267710897,2.010340075475625e-05,-8.341471355310937e-06,6.682692374652883e-05,-0.0002784641020370888,-0.00018588422402526948,-0.00011207422656899188,0.000242128816424788,0.00037886937218407213,-0.0008258121734247328,0.09352988004684448,18.130334854125977,-0.8704559803009033,-18.170503616333008,-0.7427878975868225,-2.2625765800476074,0.20724813640117645,0
43,0.21000242233276367,-0.12130087614059448,-18.130334854125977,0.8942596912384033,18.170503616333008,0.7491965889930725,2.2625765800476074,-0.19351522624492645,0.0,0.0,0.0,0.0,0.0,0.0,0.0,-0.045998797256888026,0.5531582052667686,0.11350458235501815,0.545919219593492,0.3157180787039778,0.06635728011826814,-0.207798160771017,-0.608969163095742,-0.057747858101755235,-0.6665105076758965,-2.5946744093309366,-0.055805100719134006,2.5079559237692095,0.8763176642970906,-0.6090851748156966,-0.05753196718556838,-0.666603097082616,-2.5945565370258534,-0.05562143941554,2.507976027223799,0.8763108487046415,0.0007440620558836504,-0.00011715970153215982,-1.386255026296287e-05,6.656307918405197e-05,-0.0002915366876935712,-0.00042075442950460204,-0.00040375086734741663,0.0,0.0,0.0,0.0,0.0,0.0,0.0,-0.00011601171995456738,0.0002158909161868519,-9.25894067195232e-05,0.00011787230508319979,0.00018366130359400573,2.0103454589470715e-05,-6.815592449083141e-06,-0.0007440620558836504,0.00011715970153215982,1.386255026296287e-05,-6.656307918405197e-05,0.0002915366876935712,0.00042075442950460204,0.00040375086734741663,0.12130087614059448,18.130334854125977,-0.8942596912384033,-18.170503616333008,-0.7491965889930725,-2.2625765800476074,0.19351522624492645,0
44,0.21499967575073242,-0.12130087614059448,-18.130334854125977,0.8942596912384033,18.170503616333008,0.7491965889930725,2.2625765800476074,-0.19351522624492645,0.0,0.0,0.0,0.0,0.0,0.0,0.0,-0.045998797256888026,0.5531582052667686,0.11350458235501815,0.545919219593492,0.3157180787039778,0.06635728011826814,-0.207798160771017,-0.608969163095742,-0.057747858101755235,-0.6665105076758965,-2.5946744093309366,-0.055805100719134006,2.5079559237692095,0.8763176642970906,-0.6090851748156966,-0.05753196718556838,-0.666603097082616,-2.5945565370258534,-0.05562143941554,2.507976027223799,0.8763108487046415,0.0007440620558836504,-0.00011715970153215982,-1.386255026296287e-05,6.656307918405197e-05,-0.0002915366876935712,-0.00042075442950460204,-0.00040375086734741663,0.0,0.0,0.0,0.0,0.0,0.0,0.0,-0.00011601171995456738,0.0002158909161868519,-9.25894067195232e-05,0.00011787230508319979,0.00018366130359400573,2.0103454589470715e-05,-6.815592449083141e-06,-0.0007440620558836504,0.00011715970153215982,1.386255026296287e-05,-6.656307918405197e-05,0.0002915366876935712,0.00042075442950460204,0.00040375086734741663,0.12130087614059448,18.130334854125977,-0.8942596912384033,-18.170503616333008,-0.7491965889930725,-2.2625765800476074,0.19351522624492645,0
45,0.2200021743774414,-0.04592245817184448,-18.130334854125977,0.9180634021759033,18.170503616333008,0.7427878975868225,2.2625765800476074,-0.24112264811992645,0.0,0.0,0.0,0.0,0.0,0.0,0.0,-0.046683626684528835,0.5535505399985242,0.11501077877473036,0.5426103772535802,0.31475556494437773,0.06646525326497173,-0.20901400141093013,-0.6089746869197014,-0.057747611560665636,-0.6665151941439299,-2.594674409295944,-0.05580438864231109,2.507955923769209,0.8763229540106322,-0.6090851748156966,-0.05753196718556838,-0.666603097082616,-2.5945565370258534,-0.05562143941554,2.507976027223799,0.8763108487046415,-0.00013485286220847403,0.0002857786399093708,0.0002850900716959572,0.00029931726521887557,0.0016719356701154682,-0.0005926240812347962,0.000654517856249337,0.0,0.0,0.0,0.0,0.0,0.0,0.0,-0.00011048789599521491,0.00021564437509725282,-8.790293868610188e-05,0.00011787227009074641,0.0001829492267710897,2.0103454589914804e-05,-1.2105305990717241e-05,0.00013485286220847403,-0.0002857786399093708,-0.0002850900716959572,-0.00029931726521887557,-0.0016719356701154682,0.0005926240812347962,-0.000654517856249337,0.04592245817184448,18.130334854125977,-0.9180634021759033,-18.170503616333008,-0.7427878975868225,-2.2625765800476074,0.24112264811992645,0
46,0.22500085830688477,-0.04592245817184448,-18.130334854125977,0.9180634021759033,18.170503616333008,0.7427878975868225,2.2625765800476074,-0.24112264811992645,0.0,0.0,0.0,0.0,0.0,0.0,0.0,-0.046683626684528835,0.5535505399985242,0.11501077877473036,0.5426103772535802,0.31475556494437773,0.06646525326497173,-0.20901400141093013,-0.6089746869197014,-0.057747611560665636,-0.6665151941439299,-2.594674409295944,-0.05580438864231109,2.507955923769209,0.8763229540106322,-0.6090851748156966,-0.05753196718556838,-0.666603097082616,-2.5945565370258534,-0.05562143941554,2.507976027223799,0.8763108487046415,-0.00013485286220847403,0.0002857786399093708,0.0002850900716959572,0.00029931726521887557,0.0016719356701154682,-0.0005926240812347962,0.000654517856249337,0.0,0.0,0.0,0.0,0.0,0.0,0.0,-0.00011048789599521491,0.00021564437509725282,-8.790293868610188e-05,0.00011787227009074641,0.0001829492267710897,2.0103454589914804e-05,-1.2105305990717241e-05,0.00013485286220847403,-0.0002857786399093708,-0.0002850900716959572,-0.00029931726521887557,-0.0016719356701154682,0.0005926240812347962,-0.000654517856249337,0.04592245817184448,18.130334854125977,-0.9180634021759033,-18.170503616333008,-0.7427878975868225,-2.2625765800476074,0.24112264811992645,0
47,0.22999882698059082,-0.018151462078094482,-18.106531143188477,0.9180634021759033,18.146699905395508,0.7427878975868225,2.2488436698913574,-0.18710653483867645,0.0,0.0,0.0,0.0,0.0,0.0,0.0,-0.0536093403045735,0.5492400068322926,0.10784275340292084,0.543955744145318,0.3164516286525581,0.06622997298536643,-0.21104356962726487,-0.6089764026154134,-0.057751491782144726,-0.6665145190070544,-2.5946727388950817,-0.05580438864231109,2.5079574496481154,0.8763169522202676,-0.6090851748156966,-0.05753196718556838,-0.666603097082616,-2.5945565370258534,-0.05562143941554,2.507976027223799,0.8763108487046415,-0.0004936379489284688,-0.0001598292132608412,0.0006207217337121097,0.000476144087610269,0.00014766599839541393,-0.00024973391428995714,-0.0008410451695363132,0.0,0.0,0.0,0.0,0.0,0.0,0.0,-0.00010877220028315815,0.0002195245965763426,-8.857807556161834e-05,0.0001162018692282274,0.0001829492267710897,1.8577575683575986e-05,-6.1035156261324275e-06,0.0004936379489284688,0.0001598292132608412,-0.0006207217337121097,-0.000476144087610269,-0.00014766599839541393,0.00024973391428995714,0.0008410451695363132,0.018151462078094482,18.106531143188477,-0.9180634021759033,-18.146699905395508,-0.7427878975868225,-2.2488436698913574,0.18710653483867645,0
48,0.23499417304992676,-0.018151462078094482,-18.106531143188477,0.9180634021759033,18.146699905395508,0.7427878975868225,2.2488436698913574,-0.18710653483867645,0.0,0.0,0.0,0.0,0.0,0.0,0.0,-0.0536093403045735,0.5492400068322926,0.10784275340292084,0.543955744145318,0.3164516286525581,0.06622997298536643,-0.21104356962726487,-0.6089764026154134,-0.057751491782144726,-0.6665145190070544,-2.5946727388950817,-0.05580438864231109,2.5079574496481154,0.8763169522202676,-0.6090851748156966,-0.05753196718556838,-0.666603097082616,-2.5945565370258534,-0.05562143941554,2.507976027223799,0.8763108487046415,-0.0004936379489284688,-0.0001598292132608412,0.0006207217337121097,0.000476144087610269,0.00014766599839541393,-0.00024973391428995714,-0.0008410451695363132,0.0,0.0,0.0,0.0,0.0,0.0,0.0,-0.00010877220028315815,0.0002195245965763426,-8.857807556161834e-05,0.0001162018692282274,0.0001829492267710897,1.8577575683575986e-05,-6.1035156261324275e-06,0.0004936379489284688,0.0001598292132608412,-0.0006207217337121097,-0.000476144087610269,-0.00014766599839541393,0.00024973391428995714,0.0008410451695363132,0.018151462078094482,18.106531143188477,-0.9180634021759033,-18.146699905395508,-0.7427878975868225,-2.2488436698913574,0.18710653483867645,0
49,0.23999547958374023,0.005652248859405518,-18.078760147094727,0.9180634021759033,18.146699905395508,0.7372947335243225,2.2424349784851074,-0.21457235515117645,0.0,0.0,0.0,0.0,0.0,0.0,0.0,-0.054652551792084676,0.5456107064463768,0.10624041843439327,0.5470801013477248,0.3171480161286723,0.06577816501393711,-0.2095214226276694,-0.6089780720869754,-0.05775147735565813,-0.6665152240094324,-2.5946725093068204,-0.05580377829074859,2.5079581617249382,0.8763200039780801,-0.6090851748156966,-0.05753196718556838,-0.666603097082616,-2.5945565370258534,-0.05562143941554,2.507976027223799,0.8763108487046415,-0.0010627984825935261,-0.0005109645237586374,0.0007188938561782706,0.0006137648841649919,0.0003494907509915481,3.439548779311109e-05,4.596091379133599e-05,0.0,0.0,0.0,0.0,0.0,0.0,0.0,-0.00010710272872116455,0.000219510170089747,-8.787307318358639e-05,0.00011597228096693613,0.00018233887520859027,1.7865498860736295e-05,-9.155273438588019e-06,0.0010627984825935261,0.0005109645237586374,-0.0007188938561782706,-0.0006137648841649919,-0.0003494907509915481,-3.439548779311109e-05,-4.596091379133599e-05,-0.005652248859405518,18.078760147094727,-0.9180634021759033,-18.146699905395508,-0.7372947335243225,-2.2424349784851074,0.21457235515117645,0
50,0.2449953556060791,0.005652248859405518,-18.078760147094727,0.9180634021759033,18.146699905395508,0.7372947335243225,2.2424349784851074,-0.21457235515117645,0.0,0.0,0.0,0.0,0.0,0.0,0.0,-0.054652551792084676,0.5456107064463768,0.10624041843439327,0.5470801013477248,0.3171480161286723,0.06577816501393711,-0.2095214226276694,-0.6089780720869754,-0.05775147735565813,-0.6665152240094324,-2.5946725093068204,-0.05580377829074859,2.5079581617249382,0.8763200039780801,-0.6090851748156966,-0.05753196718556838,-0.666603097082616,-2.5945565370258534,-0.05562143941554,2.507976027223799,0.8763108487046415,-0.0010627984825935261,-0.0005109645237586374,0.0007188938561782706,0.0006137648841649919,0.0003494907509915481,3.439548779311109e-05,4.596091379133599e-05,0.0,0.0,0.0,0.0,0.0,0.0,0.0,-0.00010710272872116455,0.000219510170089747,-8.787307318358639e-05,0.00011597228096693613,0.00018233887520859027,1.7865498860736295e-05,-9.155273438588019e-06,0.0010627984825935261,0.0005109645237586374,-0.0007188938561782706,-0.0006137648841649919,-0.0003494907509915481,-3.439548779311109e-05,-4.596091379133599e-05,-0.005652248859405518,18.078760147094727,-0.9180634021759033,-18.146699905395508,-0.7372947335243225,-2.2424349784851074,0.21457235515117645,0
51,0.24999761581420898,0.005652248859405518,-18.078760147094727,0.9180634021759033,18.146699905395508,0.7372947335243225,2.2424349784851074,-0.21457235515117645,0.0,0.0,0.0,0.0,0.0,0.0,0.0,-0.054652551792084676,0.5456107064463768,0.10624041843439327,0.5470801013477248,0.3171480161286723,0.06577816501393711,-0.2095214226276694,-0.6089780720869754,-0.05775147735565813,-0.6665152240094324,-2.5946725093068204,-0.05580377829074859,2.5079581617249382,0.8763200039780801,-0.6090851748156966,-0.05753196718556838,-0.666603097082616,-2.5945565370258534,-0.05562143941554,2.507976027223799,0.8763108487046415,-0.0010627984825935261,-0.0005109645237586374,0.0007188938561782706,0.0006137648841649919,0.0003494907509915481,3.439548779311109e-05,4.596091379133599e-05,0.0,0.0,0.0,0.0,0.0,0.0,0.0,-0.00010710272872116455,0.000219510170089747,-8.787307318358639e-05,0.00011597228096693613,0.00018233887520859027,1.7865498860736295e-05,-9.155273438588019e-06,0.0010627984825935261,0.0005109645237586374,-0.0007188938561782706,-0.0006137648841649919,-0.0003494907509915481,-3.439548779311109e-05,-4.596091379133599e-05,-0.005652248859405518,18.078760147094727,-0.9180634021759033,-18.146699905395508,-0.7372947335243225,-2.2424349784851074,0.21457235515117645,0
52,0.255094051361084,0.005652248859405518,-18.078760147094727,0.9180634021759033,18.146699905395508,0.7372947335243225,2.2424349784851074,-0.21457235515117645,0.0,0.0,0.0,0.0,0.0,0.0,0.0,-0.054652551792084676,0.5456107064463768,0.10624041843439327,0.5470801013477248,0.3171480161286723,0.06577816501393711,-0.2095214226276694,-0.6089780720869754,-0.05775147735565813,-0.6665152240094324,-2.5946725093068204,-0.05580377829074859,2.5079581617249382,0.8763200039780801,-0.6090851748156966,-0.05753196718556838,-0.666603097082616,-2.5945565370258534,-0.05562143941554,2.507976027223799,0.8763108487046415,-0.0010627984825935261,-0.0005109645237586374,0.0007188938561782706,0.0006137648841649919,0.0003494907509915481,3.439548779311109e-05,4.596091379133599e-05,0.0,0.0,0.0,0.0,0.0,0.0,0.0,-0.00010710272872116455,0.000219510170089747,-8.787307318358639e-05,0.00011597228096693613,0.00018233887520859027,1.7865498860736295e-05,-9.155273438588019e-06,0.0010627984825935261,0.0005109645237586374,-0.0007188938561782706,-0.0006137648841649919,-0.0003494907509915481,-3.439548779311109e-05,-4.596091379133599e-05,-0.005652248859405518,18.078760147094727,-0.9180634021759033,-18.146699905395508,-0.7372947335243225,-2.2424349784851074,0.21457235515117645,0
53,0.259993314743042,-0.018151462078094482,-18.106531143188477,0.9180634021759033,18.170503616333008,0.7427878975868225,2.2424349784851074,-0.19351522624492645,0.0,0.0,0.0,0.0,0.0,0.0,0.0,-0.04701627262275599,0.5420431662064618,0.11252283430239703,0.5511522991967868,0.31738697040510666,0.06569499606474405,-0.20903326606297426,-0.6089785080028891,-0.05775141318734912,-0.666512407305576,-2.5946743328002206,-0.05580438864231109,2.5079581617249382,0.8763176642970906,-0.6090851748156966,-0.05753196718556838,-0.666603097082616,-2.5945565370258534,-0.05562143941554,2.507976027223799,0.8763108487046415,-0.0003099766635905875,-0.0001623076001290026,0.0007222212218302962,0.00025567099676179674,-7.288773176169239e-05,0.00034339932772782094,-0.0007618904188556628,0.0,0.0,0.0,0.0,0.0,0.0,0.0,-0.00010666681280746548,0.00021944600178073342,-9.068977703996506e-05,0.00011779577436721311,0.0001829492267710897,1.7865498860736295e-05,-6.815592449083141e-06,0.0003099766635905875,0.0001623076001290026,-0.0007222212218302962,-0.00025567099676179674,7.288773176169239e-05,-0.00034339932772782094,0.0007618904188556628,0.018151462078094482,18.106531143188477,-0.9180634021759033,-18.170503616333008,-0.7427878975868225,-2.2424349784851074,0.19351522624492645,0
54,0.2649953365325928,-0.018151462078094482,-18.106531143188477,0.9180634021759033,18.170503616333008,0.7427878975868225,2.2424349784851074,-0.19351522624492645,0.0,0.0,0.0,0.0,0.0,0.0,0.0,-0.04701627262275599,0.5420431662064618,0.11252283430239703,0.5511522991967868,0.31738697040510666,0.06569499606474405,-0.20903326606297426,-0.6089785080028891,-0.05775141318734912,-0.666512407305576,-2.5946743328002206,-0.05580438864231109,2.5079581617249382,0.8763176642970906,-0.6090851748156966,-0.05753196718556838,-0.666603097082616,-2.5945565370258534,-0.05562143941554,2.507976027223799,0.8763108487046415,-0.0003099766635905875,-0.0001623076001290026,0.0007222212218302962,0.00025567099676179674,-7.288773176169239e-05,0.00034339932772782094,-0.0007618904188556628,0.0,0.0,0.0,0.0,0.0,0.0,0.0,-0.00010666681280746548,0.00021944600178073342,-9.068977703996506e-05,0.00011779577436721311,0.0001829492267710897,1.7865498860736295e-05,-6.815592449083141e-06,0.0003099766635905875,0.0001623076001290026,-0.0007222212218302962,-0.00025567099676179674,7.288773176169239e-05,-0.00034339932772782094,0.0007618904188556628,0.018151462078094482,18.106531143188477,-0.9180634021759033,-18.170503616333008,-0.7427878975868225,-2.2424349784851074,0.19351522624492645,0
55,0.2700231075286865,-0.04592245817184448,-18.154138565063477,0.8704559803009033,18.198274612426758,0.7308860421180725,2.2552523612976074,-0.23471395671367645,0.0,0.0,0.0,0.0,0.0,0.0,0.0,-0.04745781901340247,0.5475107239815385,0.10835744459371767,0.547518868318787,0.31777785498713446,0.0658660982311882,-0.20940251661698597,-0.6089744529281715,-0.0577461778983438,-0.666509517091219,-2.594676358172336,-0.055803066213925674,2.5079567375712926,0.8763222419338093,-0.6090851748156966,-0.05753196718556838,-0.666603097082616,-2.5945565370258534,-0.05562143941554,2.507976027223799,0.8763108487046415,-0.0001442930224010024,0.0010185667121658589,0.0012062652419029068,-0.00046925794588998184,0.00038480552843184,8.741423856958696e-06,0.0007046237675415562,0.0,0.0,0.0,0.0,0.0,0.0,0.0,-0.00011072188752503376,0.00021421071277541448,-9.357999139703033e-05,0.00011982114648256825,0.00018162679838567425,1.9289652506415678e-05,-1.1393229167766528e-05,0.0001442930224010024,-0.0010185667121658589,-0.0012062652419029068,0.00046925794588998184,-0.00038480552843184,-8.741423856958696e-06,-0.0007046237675415562,0.04592245817184448,18.154138565063477,-0.8704559803009033,-18.198274612426758,-0.7308860421180725,-2.2552523612976074,0.23471395671367645,0
56,0.27500128746032715,-0.04592245817184448,-18.154138565063477,0.8704559803009033,18.198274612426758,0.7308860421180725,2.2552523612976074,-0.23471395671367645,0.0,0.0,0.0,0.0,0.0,0.0,0.0,-0.04745781901340247,0.5475107239815385,0.10835744459371767,0.547518868318787,0.31777785498713446,0.0658660982311882,-0.20940251661698597,-0.6089744529281715,-0.0577461778983438,-0.666509517091219,-2.594676358172336,-0.055803066213925674,2.5079567375712926,0.8763222419338093,-0.6090851748156966,-0.05753196718556838,-0.666603097082616,-2.5945565370258534,-0.05562143941554,2.507976027223799,0.8763108487046415,-0.0001442930224010024,0.0010185667121658589,0.0012062652419029068,-0.00046925794588998184,0.00038480552843184,8.741423856958696e-06,0.0007046237675415562,0.0,0.0,0.0,0.0,0.0,0.0,0.0,-0.00011072188752503376,0.00021421071277541448,-9.357999139703033e-05,0.00011982114648256825,0.00018162679838567425,1.9289652506415678e-05,-1.1393229167766528e-05,0.0001442930224010024,-0.0010185667121658589,-0.0012062652419029068,0.00046925794588998184,-0.00038480552843184,-8.741423856958696e-06,-0.0007046237675415562,0.04592245817184448,18.154138565063477,-0.8704559803009033,-18.198274612426758,-0.7308860421180725,-2.2552523612976074,0.23471395671367645,0
57,0.2799966335296631,-0.018151462078094482,-18.130334854125977,0.9418671131134033,18.170503616333008,0.7427878975868225,2.2552523612976074,-0.25485557317733765,0.0,0.0,0.0,0.0,0.0,0.0,0.0,-0.035821767029233495,0.5524279225011923,0.11926528425391508,0.5475623829670083,0.31600890554959776,0.06713036972152772,-0.21247531319639337,-0.608976401651115,-0.05774833386517543,-0.6665168134477466,-2.594674409330937,-0.05580438864231109,2.5079567375712926,0.8763244798911941,-0.6090851748156966,-0.05753196718556838,-0.666603097082616,-2.5945565370258534,-0.05562143941554,2.507976027223799,0.8763108487046415,-0.000568769747894202,0.0009951750652271464,0.0002478344807209599,0.0007386478036063136,0.003977669501088482,-4.048311359374135e-05,0.00161444555956823,0.0,0.0,0.0,0.0,0.0,0.0,0.0,-0.00010877316458157704,0.0002163666796070468,-8.62836348693996e-05,0.00011787230508364388,0.0001829492267710897,1.9289652506415678e-05,-1.3631186552620633e-05,0.000568769747894202,-0.0009951750652271464,-0.0002478344807209599,-0.0007386478036063136,-0.003977669501088482,4.048311359374135e-05,-0.00161444555956823,0.018151462078094482,18.130334854125977,-0.9418671131134033,-18.170503616333008,-0.7427878975868225,-2.2552523612976074,0.25485557317733765,0
58,0.28499794006347656,-0.018151462078094482,-18.130334854125977,0.9418671131134033,18.170503616333008,0.7427878975868225,2.2552523612976074,-0.25485557317733765,0.0,0.0,0.0,0.0,0.0,0.0,0.0,-0.035821767029233495,0.5524279225011923,0.11926528425391508,0.5475623829670083,0.31600890554959776,0.06713036972152772,-0.21247531319639337,-0.608976401651115,-0.05774833386517543,-0.6665168134477466,-2.594674409330937,-0.05580438864231109,2.5079567375712926,0.8763244798911941,-0.6090851748156966,-0.05753196718556838,-0.666603097082616,-2.5945565370258534,-0.05562143941554,2.507976027223799,0.8763108487046415,-0.000568769747894202,0.0009951750652271464,0.0002478344807209599,0.0007386478036063136,0.003977669501088482,-4.048311359374135e-05,0.00161444555956823,0.0,0.0,0.0,0.0,0.0,0.0,0.0,-0.00010877316458157704,0.0002163666796070468,-8.62836348693996e-05,0.00011787230508364388,0.0001829492267710897,1.9289652506415678e-05,-1.3631186552620633e-05,0.000568769747894202,-0.0009951750652271464,-0.0002478344807209599,-0.0007386478036063136,-0.003977669501088482,4.048311359374135e-05,-0.00161444555956823,0.018151462078094482,18.130334854125977,-0.9418671131134033,-18.170503616333008,-0.7427878975868225,-2.2552523612976074,0.25485557317733765,0
59,0.2911543846130371,-0.06972616910934448,-18.106531143188477,0.9180634021759033,18.198274612426758,0.7427878975868225,2.2625765800476074,-0.23471395671367645,0.0,0.0,0.0,0.0,0.0,0.0,0.0,-0.039859432717645436,0.5549031614489428,0.11765971224423381,0.5469968116715341,0.31633576933365887,0.06652448104537662,-0.21444427031439392,-0.6089727823734283,-0.057749518762101125,-0.6665145210397172,-2.594676358172768,-0.05580438864231109,2.507955923769209,0.8763222419338093,-0.6090851748156966,-0.05753196718556838,-0.666603097082616,-2.5945565370258534,-0.05562143941554,2.507976027223799,0.8763108487046415,0.0006917190014288433,0.0006174252845334893,0.0008125759186109895,-0.0004881677814143118,0.00010951212091782434,-0.0007590228538640954,0.0007927590202460842,0.0,0.0,0.0,0.0,0.0,0.0,0.0,-0.00011239244226823875,0.00021755157653274154,-8.85760428988025e-05,0.00011982114691466705,0.0001829492267710897,2.0103454589914804e-05,-1.1393229167766528e-05,-0.0006917190014288433,-0.0006174252845334893,-0.0008125759186109895,0.0004881677814143118,-0.00010951212091782434,0.0007590228538640954,-0.0007927590202460842,0.06972616910934448,18.106531143188477,-0.9180634021759033,-18.198274612426758,-0.7427878975868225,-2.2625765800476074,0.23471395671367645,0
60,0.2949957847595215,-0.06972616910934448,-18.106531143188477,0.9180634021759033,18.198274612426758,0.7427878975868225,2.2625765800476074,-0.23471395671367645,0.0,0.0,0.0,0.0,0.0,0.0,0.0,-0.039859432717645436,0.5549031614489428,0.11765971224423381,0.5469968116715341,0.31633576933365887,0.06652448104537662,-0.21444427031439392,-0.6089727823734283,-0.057749518762101125,-0.6665145210397172,-2.594676358172768,-0.05580438864231109,2.507955923769209,0.8763222419338093,-0.6090851748156966,-0.05753196718556838,-0.666603097082616,-2.5945565370258534,-0.05562143941554,2.507976027223799,0.8763108487046415,0.0006917190014288433,0.0006174252845334893,0.0008125759186109895,-0.0004881677814143118,0.00010951212091782434,-0.0007590228538640954,0.0007927590202460842,0.0,0.0,0.0,0.0,0.0,0.0,0.0,-0.00011239244226823875,0.00021755157653274154,-8.85760428988025e-05,0.00011982114691466705,0.0001829492267710897,2.0103454589914804e-05,-1.1393229167766528e-05,-0.0006917190014288433,-0.0006174252845334893,-0.0008125759186109895,0.0004881677814143118,-0.00010951212091782434,0.0007590228538640954,-0.0007927590202460842,0.06972616910934448,18.106531143188477,-0.9180634021759033,-18.198274612426758,-0.7427878975868225,-2.2625765800476074,0.23471395671367645,0
61,0.2999992370605469,-0.06972616910934448,-18.106531143188477,0.8704559803009033,18.146699905395508,0.7372947335243225,2.2625765800476074,-0.17978231608867645,0.0,0.0,0.0,0.0,0.0,0.0,0.0,-0.05089616511886693,0.5528414931857412,0.11002938362153696,0.5514673344329454,0.3173776135045984,0.06542516289037628,-0.21256891770688216,-0.6089727823734283,-0.05774931155033929,-0.6665111782292985,-2.5946727388950817,-0.05580377829074859,2.507955923769209,0.8763161384181842,-0.6090851748156966,-0.05753196718556838,-0.666603097082616,-2.5945565370258534,-0.05562143941554,2.507976027223799,0.8763108487046415,-4.9604829203025736e-05,0.0001122568266570497,0.0011892984298520668,0.0007225675063493007,0.00023039274849273367,-0.00046327597406361956,-0.0006562622746990399,0.0,0.0,0.0,0.0,0.0,0.0,0.0,-0.00011239244226823875,0.00021734436477090918,-9.191885331749639e-05,0.0001162018692282274,0.00018233887520859027,2.0103454589914804e-05,-5.289713542744323e-06,4.9604829203025736e-05,-0.0001122568266570497,-0.0011892984298520668,-0.0007225675063493007,-0.00023039274849273367,0.00046327597406361956,0.0006562622746990399,0.06972616910934448,18.106531143188477,-0.8704559803009033,-18.146699905395508,-0.7372947335243225,-2.2625765800476074,0.17978231608867645,0
62,0.30499839782714844,-0.06972616910934448,-18.106531143188477,0.8704559803009033,18.146699905395508,0.7372947335243225,2.2625765800476074,-0.17978231608867645,0.0,0.0,0.0,0.0,0.0,0.0,0.0,-0.05089616511886693,0.5528414931857412,0.11002938362153696,0.5514673344329454,0.3173776135045984,0.06542516289037628,-0.21256891770688216,-0.6089727823734283,-0.05774931155033929,-0.6665111782292985,-2.5946727388950817,-0.05580377829074859,2.507955923769209,0.8763161384181842,-0.6090851748156966,-0.05753196718556838,-0.666603097082616,-2.5945565370258534,-0.05562143941554,2.507976027223799,0.8763108487046415,-4.9604829203025736e-05,0.0001122568266570497,0.0011892984298520668,0.0007225675063493007,0.00023039274849273367,-0.00046327597406361956,-0.0006562622746990399,0.0,0.0,0.0,0.0,0.0,0.0,0.0,-0.00011239244226823875,0.00021734436477090918,-9.191885331749639e-05,0.0001162018692282274,0.00018233887520859027,2.0103454589914804e-05,-5.289713542744323e-06,4.9604829203025736e-05,-0.0001122568266570497,-0.0011892984298520668,-0.0007225675063493007,-0.00023039274849273367,0.00046327597406361956,0.0006562622746990399,0.06972616910934448,18.106531143188477,-0.8704559803009033,-18.146699905395508,-0.7372947335243225,-2.2625765800476074,0.17978231608867645,0
63,0.3099946975708008,-0.09352988004684448,-18.078760147094727,0.9180634021759033,18.170503616333008,0.7427878975868225,2.2488436698913574,-0.19351522624492645,0.0,0.0,0.0,0.0,0.0,0.0,0.0,-0.05205964275478229,0.5478653097231075,0.11074201116092512,0.5536645366590845,0.31690829039781837,0.06564249548237994,-0.20766620737039082,-0.608971111937573,-0.057751310082869614,-0.666515224009433,-2.594674406496514,-0.05580438864231109,2.5079585092862446,0.8763176642970906,-0.6090851748156966,-0.05753196718556838,-0.666603097082616,-2.5945565370258534,-0.05562143941554,2.507976027223799,0.8763108487046415,0.00044595860387093084,-0.001418848176774288,-0.00019697509341523567,0.0002640702613534603,-2.076036003182128e-06,4.518884444553229e-05,-0.00041368703522175025,0.0,0.0,0.0,0.0,0.0,0.0,0.0,-0.00011406287812354421,0.0002193428973012307,-8.787307318303128e-05,0.00011786947066072528,0.0001829492267710897,1.7517937554334395e-05,-6.815592449083141e-06,-0.00044595860387093084,0.001418848176774288,0.00019697509341523567,-0.0002640702613534603,2.076036003182128e-06,-4.518884444553229e-05,0.00041368703522175025,0.09352988004684448,18.078760147094727,-0.9180634021759033,-18.170503616333008,-0.7427878975868225,-2.2488436698913574,0.19351522624492645,0
64,0.31499624252319336,-0.09352988004684448,-18.078760147094727,0.9180634021759033,18.170503616333008,0.7427878975868225,2.2488436698913574,-0.19351522624492645,0.0,0.0,0.0,0.0,0.0,0.0,0.0,-0.05205964275478229,0.5478653097231075,0.11074201116092512,0.5536645366590845,0.31690829039781837,0.06564249548237994,-0.20766620737039082,-0.608971111937573,-0.057751310082869614,-0.666515224009433,-2.594674406496514,-0.05580438864231109,2.5079585092862446,0.8763176642970906,-0.6090851748156966,-0.05753196718556838,-0.666603097082616,-2.5945565370258534,-0.05562143941554,2.507976027223799,0.8763108487046415,0.00044595860387093084,-0.001418848176774288,-0.00019697509341523567,0.0002640702613534603,-2.076036003182128e-06,4.518884444553229e-05,-0.00041368703522175025,0.0,0.0,0.0,0.0,0.0,0.0,0.0,-0.00011406287812354421,0.0002193428973012307,-8.787307318303128e-05,0.00011786947066072528,0.0001829492267710897,1.7517937554334395e-05,-6.815592449083141e-06,-0.00044595860387093084,0.001418848176774288,0.00019697509341523567,-0.0002640702613534603,2.076036003182128e-06,-4.518884444553229e-05,0.00041368703522175025,0.09352988004684448,18.078760147094727,-0.9180634021759033,-18.170503616333008,-0.7427878975868225,-2.2488436698913574,0.19351522624492645,0
65,0.3199951648712158,-0.09352988004684448,-18.154138565063477,0.8942596912384033,18.245882034301758,0.7308860421180725,2.2424349784851074,-0.18710653483867645,0.0,0.0,0.0,0.0,0.0,0.0,0.0,-0.055436356761380534,0.5457378260934632,0.10876169184646914,0.552203925589347,0.3170011515093215,0.06596924995474926,-0.20755704431915853,-0.608971111937573,-0.05774594213428528,-0.666511360557849,-2.5946796990444625,-0.05580318450339046,2.50795816173092,0.8763169522202676,-0.6090851748156966,-0.05753196718556838,-0.666603097082616,-2.5945565370258534,-0.05562143941554,2.507976027223799,0.8763108487046415,0.00044802911479741194,0.00011971065664526176,0.0007562571336452835,-0.0013954755646925197,0.00032624082499542646,0.0005568470004830468,-0.0010826206580902135,0.0,0.0,0.0,0.0,0.0,0.0,0.0,-0.00011406287812354421,0.00021397494871689543,-9.173652476701655e-05,0.00012316201860906872,0.00018174508785046006,1.786549287885464e-05,-6.1035156261324275e-06,-0.00044802911479741194,-0.00011971065664526176,-0.0007562571336452835,0.0013954755646925197,-0.00032624082499542646,-0.0005568470004830468,0.0010826206580902135,0.09352988004684448,18.154138565063477,-0.8942596912384033,-18.245882034301758,-0.7308860421180725,-2.2424349784851074,0.18710653483867645,0
66,0.324995756149292,-0.09352988004684448,-18.154138565063477,0.8942596912384033,18.245882034301758,0.7308860421180725,2.2424349784851074,-0.18710653483867645,0.0,0.0,0.0,0.0,0.0,0.0,0.0,-0.055436356761380534,0.5457378260934632,0.10876169184646914,0.552203925589347,0.3170011515093215,0.06596924995474926,-0.20755704431915853,-0.608971111937573,-0.05774594213428528,-0.666511360557849,-2.5946796990444625,-0.05580318450339046,2.50795816173092,0.8763169522202676,-0.6090851748156966,-0.05753196718556838,-0.666603097082616,-2.5945565370258534,-0.05562143941554,2.507976027223799,0.8763108487046415,0.00044802911479741194,0.00011971065664526176,0.0007562571336452835,-0.0013954755646925197,0.00032624082499542646,0.0005568470004830468,-0.0010826206580902135,0.0,0.0,0.0,0.0,0.0,0.0,0.0,-0.00011406287812354421,0.00021397494871689543,-9.173652476701655e-05,0.00012316201860906872,0.00018174508785046006,1.786549287885464e-05,-6.1035156261324275e-06,-0.00044802911479741194,-0.00011971065664526176,-0.0007562571336452835,0.0013954755646925197,-0.00032624082499542646,-0.0005568470004830468,0.0010826206580902135,0.09352988004684448,18.154138565063477,-0.8942596912384033,-18.245882034301758,-0.7308860421180725,-2.2424349784851074,0.18710653483867645,0
67,0.32999372482299805,-0.04592245817184448,-18.130334854125977,0.9696381092071533,18.170503616333008,0.7427878975868225,2.2552523612976074,-0.20724813640117645,0.0,0.0,0.0,0.0,0.0,0.0,0.0,-0.049700866365814625,0.5443562485314835,0.11360366015922066,0.5492653372350942,0.31645357759965037,0.06644193935241702,-0.20897259614511768,-0.6089744528092836,-0.05774769091328129,-0.6665188431717215,-2.594674409330937,-0.05580438864297884,2.5079567375712926,0.8763191901759968,-0.6090851748156966,-0.05753196718556838,-0.666603097082616,-2.5945565370258534,-0.05562143941554,2.507976027223799,0.8763108487046415,0.00035569739726312786,-0.00010621786493476264,-0.000621247718914226,0.0003271771999751796,-4.508167639548577e-05,0.0001435713201271973,-0.00018563182428199957,0.0,0.0,0.0,0.0,0.0,0.0,0.0,-0.00011072200641293328,0.00021572372771290482,-8.425391089450507e-05,0.00011787230508364388,0.0001829492274388403,1.9289652506415678e-05,-8.341471355310937e-06,-0.00035569739726312786,0.00010621786493476264,0.000621247718914226,-0.0003271771999751796,4.508167639548577e-05,-0.0001435713201271973,0.00018563182428199957,0.04592245817184448,18.130334854125977,-0.9696381092071533,-18.170503616333008,-0.7427878975868225,-2.2552523612976074,0.20724813640117645,0
68,0.3350074291229248,-0.04592245817184448,-18.130334854125977,0.9696381092071533,18.170503616333008,0.7427878975868225,2.2552523612976074,-0.20724813640117645,0.0,0.0,0.0,0.0,0.0,0.0,0.0,-0.049700866365814625,0.5443562485314835,0.11360366015922066,0.5492653372350942,0.31645357759965037,0.06644193935241702,-0.20897259614511768,-0.6089744528092836,-0.05774769091328129,-0.6665188431717215,-2.594674409330937,-0.05580438864297884,2.5079567375712926,0.8763191901759968,-0.6090851748156966,-0.05753196718556838,-0.666603097082616,-2.5945565370258534,-0.05562143941554,2.507976027223799,0.8763108487046415,0.00035569739726312786,-0.00010621786493476264,-0.000621247718914226,0.0003271771999751796,-4.508167639548577e-05,0.0001435713201271973,-0.00018563182428199957,0.0,0.0,0.0,0.0,0.0,0.0,0.0,-0.00011072200641293328,0.00021572372771290482,-8.425391089450507e-05,0.00011787230508364388,0.0001829492274388403,1.9289652506415678e-05,-8.341471355310937e-06,-0.00035569739726312786,0.00010621786493476264,0.000621247718914226,-0.0003271771999751796,4.508167639548577e-05,-0.0001435713201271973,0.00018563182428199957,0.04592245817184448,18.130334854125977,-0.9696381092071533,-18.170503616333008,-0.7427878975868225,-2.2552523612976074,0.20724813640117645,0
69,0.3410959243774414,0.005652248859405518,-18.031152725219727,0.9696381092071533,18.146699905395508,0.7372947335243225,2.2360262870788574,-0.24112264811992645,0.0,0.0,0.0,0.0,0.0,0.0,0.0,-0.04339084519549622,0.5445401389807669,0.12065686684480965,0.550561073594917,0.3161088818818005,0.0677562224146204,-0.21010756509340886,-0.60897809808735,-0.05775457170911878,-0.6665167285935224,-2.5946727388950817,-0.0558037782907486,2.507958873801761,0.8763229496499815,-0.6090851748156966,-0.05753196718556838,-0.666603097082616,-2.5945565370258534,-0.05562143941554,2.507976027223799,0.8763108487046415,-0.00023843747170137832,-0.001520643133667078,0.00020342603988221392,0.0011057372022643872,2.993662166581463e-05,0.0004365758463108774,0.0013136015599224894,0.0,0.0,0.0,0.0,0.0,0.0,0.0,-0.00010707672834653348,0.00022260452355039873,-8.636848909360229e-05,0.0001162018692282274,0.0001823388752085972,1.7153422037896604e-05,-1.2100945339987845e-05,0.00023843747170137832,0.001520643133667078,-0.00020342603988221392,-0.0011057372022643872,-2.993662166581463e-05,-0.0004365758463108774,-0.0013136015599224894,-0.005652248859405518,18.031152725219727,-0.9696381092071533,-18.146699905395508,-0.7372947335243225,-2.2360262870788574,0.24112264811992645,0
70,0.34560346603393555,0.005652248859405518,-18.031152725219727,0.9696381092071533,18.146699905395508,0.7372947335243225,2.2360262870788574,-0.24112264811992645,0.0,0.0,0.0,0.0,0.0,0.0,0.0,-0.04339084519549622,0.5445401389807669,0.12065686684480965,0.550561073594917,0.3161088818818005,0.0677562224146204,-0.21010756509340886,-0.60897809808735,-0.05775457170911878,-0.6665167285935224,-2.5946727388950817,-0.0558037782907486,2.507958873801761,0.8763229496499815,-0.6090851748156966,-0.05753196718556838,-0.666603097082616,-2.5945565370258534,-0.05562143941554,2.507976027223799,0.8763108487046415,-0.00023843747170137832,-0.001520643133667078,0.00020342603988221392,0.0011057372022643872,2.993662166581463e-05,0.0004365758463108774,0.0013136015599224894,0.0,0.0,0.0,0.0,0.0,0.0,0.0,-0.00010707672834653348,0.00022260452355039873,-8.636848909360229e-05,0.0001162018692282274,0.0001823388752085972,1.7153422037896604e-05,-1.2100945339987845e-05,0.00023843747170137832,0.001520643133667078,-0.00020342603988221392,-0.0011057372022643872,-2.993662166581463e-05,-0.0004365758463108774,-0.0013136015599224894,-0.005652248859405518,18.031152725219727,-0.9696381092071533,-18.146699905395508,-0.7372947335243225,-2.2360262870788574,0.24112264811992645,0
71,0.349961519241333,0.005652248859405518,-18.031152725219727,0.9696381092071533,18.146699905395508,0.7372947335243225,2.2360262870788574,-0.24112264811992645,0.0,0.0,0.0,0.0,0.0,0.0,0.0,-0.04339084519549622,0.5445401389807669,0.12065686684480965,0.550561073594917,0.3161088818818005,0.0677562224146204,-0.21010756509340886,-0.60897809808735,-0.05775457170911878,-0.6665167285935224,-2.5946727388950817,-0.0558037782907486,2.507958873801761,0.8763229496499815,-0.6090851748156966,-0.05753196718556838,-0.666603097082616,-2.5945565370258534,-0.05562143941554,2.507976027223799,0.8763108487046415,-0.00023843747170137832,-0.001520643133667078,0.00020342603988221392,0.0011057372022643872,2.993662166581463e-05,0.0004365758463108774,0.0013136015599224894,0.0,0.0,0.0,0.0,0.0,0.0,0.0,-0.00010707672834653348,0.00022260452355039873,-8.636848909360229e-05,0.0001162018692282274,0.0001823388752085972,1.7153422037896604e-05,-1.2100945339987845e-05,0.00023843747170137832,0.001520643133667078,-0.00020342603988221392,-0.0011057372022643872,-2.993662166581463e-05,-0.0004365758463108774,-0.0013136015599224894,-0.005652248859405518,18.031152725219727,-0.9696381092071533,-18.146699905395508,-0.7372947335243225,-2.2360262870788574,0.24112264811992645,0
72,0.35499072074890137,0.005652248859405518,-18.031152725219727,0.9696381092071533,18.146699905395508,0.7372947335243225,2.2360262870788574,-0.24112264811992645,0.0,0.0,0.0,0.0,0.0,0.0,0.0,-0.04339084519549622,0.5445401389807669,0.12065686684480965,0.550561073594917,0.3161088818818005,0.0677562224146204,-0.21010756509340886,-0.60897809808735,-0.05775457170911878,-0.6665167285935224,-2.5946727388950817,-0.0558037782907486,2.507958873801761,0.8763229496499815,-0.6090851748156966,-0.05753196718556838,-0.666603097082616,-2.5945565370258534,-0.05562143941554,2.507976027223799,0.8763108487046415,-0.00023843747170137832,-0.001520643133667078,0.00020342603988221392,0.0011057372022643872,2.993662166581463e-05,0.0004365758463108774,0.0013136015599224894,0.0,0.0,0.0,0.0,0.0,0.0,0.0,-0.00010707672834653348,0.00022260452355039873,-8.636848909360229e-05,0.0001162018692282274,0.0001823388752085972,1.7153422037896604e-05,-1.2100945339987845e-05,0.00023843747170137832,0.001520643133667078,-0.00020342603988221392,-0.0011057372022643872,-2.993662166581463e-05,-0.0004365758463108774,-0.0013136015599224894,-0.005652248859405518,18.031152725219727,-0.9696381092071533,-18.146699905395508,-0.7372947335243225,-2.2360262870788574,0.24112264811992645,0
73,0.3600142002105713,0.03342324495315552,-18.031152725219727,0.9418671131134033,18.198274612426758,0.7491965889930725,2.2488436698913574,-0.19351522624492645,0.0,0.0,0.0,0.0,0.0,0.0,0.0,-0.04798232948258946,0.5474862881826722,0.11714894699633668,0.5532899377533597,0.31662066919455706,0.06619211738102089,-0.20948795141708978,-0.6089800212499402,-0.05775457268300373,-0.6665138437260735,-2.594676358172768,-0.05580510071913401,2.5079574496481154,0.876317664297066,-0.6090851748156966,-0.05753196718556838,-0.666603097082616,-2.5945565370258534,-0.05562143941554,2.507976027223799,0.8763108487046415,-0.001413677210540815,-0.0005622027311006162,0.0003523493333645482,-0.0002499457174499406,-0.0072428258141603126,-0.0001924322896972871,-0.0005603016039619614,0.0,0.0,0.0,0.0,0.0,0.0,0.0,-0.00010515356575635515,0.00022260549743534364,-8.925335654252908e-05,0.00011982114691466705,0.00018366130359401267,1.8577575683575986e-05,-6.815592424547212e-06,0.001413677210540815,0.0005622027311006162,-0.0003523493333645482,0.0002499457174499406,0.0072428258141603126,0.0001924322896972871,0.0005603016039619614,-0.03342324495315552,18.031152725219727,-0.9418671131134033,-18.198274612426758,-0.7491965889930725,-2.2488436698913574,0.19351522624492645,0
74,0.3650021553039551,0.03342324495315552,-18.031152725219727,0.9418671131134033,18.198274612426758,0.7491965889930725,2.2488436698913574,-0.19351522624492645,0.0,0.0,0.0,0.0,0.0,0.0,0.0,-0.04798232948258946,0.5474862881826722,0.11714894699633668,0.5532899377533597,0.31662066919455706,0.06619211738102089,-0.20948795141708978,-0.6089800212499402,-0.05775457268300373,-0.6665138437260735,-2.594676358172768,-0.05580510071913401,2.5079574496481154,0.876317664297066,-0.6090851748156966,-0.05753196718556838,-0.666603097082616,-2.5945565370258534,-0.05562143941554,2.507976027223799,0.8763108487046415,-0.001413677210540815,-0.0005622027311006162,0.0003523493333645482,-0.0002499457174499406,-0.0072428258141603126,-0.0001924322896972871,-0.0005603016039619614,0.0,0.0,0.0,0.0,0.0,0.0,0.0,-0.00010515356575635515,0.00022260549743534364,-8.925335654252908e-05,0.00011982114691466705,0.00018366130359401267,1.8577575683575986e-05,-6.815592424547212e-06,0.001413677210540815,0.0005622027311006162,-0.0003523493333645482,0.0002499457174499406,0.0072428258141603126,0.0001924322896972871,0.0005603016039619614,-0.03342324495315552,18.031152725219727,-0.9418671131134033,-18.198274612426758,-0.7491965889930725,-2.2488436698913574,0.19351522624492645,0
75,0.3699910640716553,-0.04592245817184448,-18.106531143188477,0.9418671131134033,18.198274612426758,0.7427878975868225,2.2424349784851074,-0.21457235515117645,0.0,0.0,0.0,0.0,0.0,0.0,0.0,-0.049661011838449065,0.549702310035103,0.11384924410841049,0.5551784313012336,0.31749487387708736,0.06452716974780552,-0.2079588959177711,-0.6089745308460913,-0.057751492143014255,-0.666515880417225,-2.594676358172768,-0.0558043886423111,2.507958279462508,0.8763200039242449,-0.6090851748156966,-0.05753196718556838,-0.666603097082616,-2.5945565370258534,-0.05562143941554,2.507976027223799,0.8763108487046415,-0.00022221815860949586,0.0006996262548860811,-0.00027751496821926325,-0.000775874946923762,-0.0003406895148033131,0.00013438460429768994,-0.0004835539521541876,0.0,0.0,0.0,0.0,0.0,0.0,0.0,-0.0001106439696052508,0.0002195249574458713,-8.721666539102113e-05,0.00011982114691466705,0.00018294922677109665,1.7747761290820563e-05,-9.155219603429465e-06,0.00022221815860949586,-0.0006996262548860811,0.00027751496821926325,0.000775874946923762,0.0003406895148033131,-0.00013438460429768994,0.0004835539521541876,0.04592245817184448,18.106531143188477,-0.9418671131134033,-18.198274612426758,-0.7427878975868225,-2.2424349784851074,0.21457235515117645,0
76,0.37499260902404785,-0.04592245817184448,-18.106531143188477,0.9418671131134033,18.198274612426758,0.7427878975868225,2.2424349784851074,-0.21457235515117645,0.0,0.0,0.0,0.0,0.0,0.0,0.0,-0.049661011838449065,0.549702310035103,0.11384924410841049,0.5551784313012336,0.31749487387708736,0.06452716974780552,-0.2079588959177711,-0.6089745308460913,-0.057751492143014255,-0.666515880417225,-2.594676358172768,-0.0558043886423111,2.507958279462508,0.8763200039242449,-0.6090851748156966,-0.05753196718556838,-0.666603097082616,-2.5945565370258534,-0.05562143941554,2.507976027223799,0.8763108487046415,-0.00022221815860949586,0.0006996262548860811,-0.00027751496821926325,-0.000775874946923762,-0.0003406895148033131,0.00013438460429768994,-0.0004835539521541876,0.0,0.0,0.0,0.0,0.0,0.0,0.0,-0.0001106439696052508,0.0002195249574458713,-8.721666539102113e-05,0.00011982114691466705,0.00018294922677109665,1.7747761290820563e-05,-9.155219603429465e-06,0.00022221815860949586,-0.0006996262548860811,0.00027751496821926325,0.000775874946923762,0.0003406895148033131,-0.00013438460429768994,0.0004835539521541876,0.04592245817184448,18.106531143188477,-0.9418671131134033,-18.198274612426758,-0.7427878975868225,-2.2424349784851074,0.21457235515117645,0
77,0.37999892234802246,-0.06972616910934448,-18.130334854125977,0.9696381092071533,18.170503616333008,0.7308860421180725,2.2552523612976074,-0.20083944499492645,0.0,0.0,0.0,0.0,0.0,0.0,0.0,-0.043559516687405465,0.5515031704106067,0.11942217744233496,0.5566478392715808,0.31683454358302277,0.06496641791906244,-0.21125122970260649,-0.6089727823738689,-0.05774764989551095,-0.6665187614323261,-2.5946744092259584,-0.05580306621392568,2.5079567375719574,0.8763184780991736,-0.6090851748156966,-0.05753196718556838,-0.666603097082616,-2.5945565370258534,-0.05562143941554,2.507976027223799,0.8763108487046415,0.00021053180186093949,7.069504437021536e-05,-0.0011760269458201149,0.0002077330945401433,0.00036989055975635514,-2.6246584123298697e-05,-0.00047787060840952017,0.0,0.0,0.0,0.0,0.0,0.0,0.0,-0.00011239244182770225,0.00021568270994256483,-8.433565028986845e-05,0.00011787220010495147,0.0001816267983856812,1.928965184161413e-05,-7.629394532138178e-06,-0.00021053180186093949,-7.069504437021536e-05,0.0011760269458201149,-0.0002077330945401433,-0.00036989055975635514,2.6246584123298697e-05,0.00047787060840952017,0.06972616910934448,18.130334854125977,-0.9696381092071533,-18.170503616333008,-0.7308860421180725,-2.2552523612976074,0.20083944499492645,0
78,0.3849949836730957,-0.06972616910934448,-18.130334854125977,0.9696381092071533,18.170503616333008,0.7308860421180725,2.2552523612976074,-0.20083944499492645,0.0,0.0,0.0,0.0,0.0,0.0,0.0,-0.043559516687405465,0.5515031704106067,0.11942217744233496,0.5566478392715808,0.31683454358302277,0.06496641791906244,-0.21125122970260649,-0.6089727823738689,-0.05774764989551095,-0.6665187614323261,-2.5946744092259584,-0.05580306621392568,2.5079567375719574,0.8763184780991736,-0.6090851748156966,-0.05753196718556838,-0.666603097082616,-2.5945565370258534,-0.05562143941554,2.507976027223799,0.8763108487046415,0.00021053180186093949,7.069504437021536e-05,-0.0011760269458201149,0.0002077330945401433,0.00036989055975635514,-2.6246584123298697e-05,-0.00047787060840952017,0.0,0.0,0.0,0.0,0.0,0.0,0.0,-0.00011239244182770225,0.00021568270994256483,-8.433565028986845e-05,0.00011787220010495147,0.0001816267983856812,1.928965184161413e-05,-7.629394532138178e-06,-0.00021053180186093949,-7.069504437021536e-05,0.0011760269458201149,-0.0002077330945401433,-0.00036989055975635514,2.6246584123298697e-05,0.00047787060840952017,0.06972616910934448,18.130334854125977,-0.9696381092071533,-18.170503616333008,-0.7308860421180725,-2.2552523612976074,0.20083944499492645,0
79,0.38999009132385254,-0.04592245817184448,-18.130334854125977,0.9418671131134033,18.170503616333008,0.7427878975868225,2.2625765800476074,-0.22098104655742645,0.0,0.0,0.0,0.0,0.0,0.0,0.0,-0.04023263014760878,0.5428900573749966,0.12303103129592563,0.5559746259801276,0.31618944244797825,0.06563483038703052,-0.21163959289845016,-0.6089744528092836,-0.05774855862295293,-0.6665147768626069,-2.594674409330937,-0.0558043886423111,2.507955923769209,0.876320716054903,-0.6090851748156966,-0.05753196718556838,-0.666603097082616,-2.5945565370258534,-0.05562143941554,2.507976027223799,0.8763108487046415,0.00019260153129012743,-0.0013802888593702194,-0.00020988959681808727,0.0003912539762546829,-2.829420198524197e-05,-0.00031178374309037883,0.0008066509296205513,0.0,0.0,0.0,0.0,0.0,0.0,0.0,-0.00011072200641293328,0.00021659143738454734,-8.832022000915263e-05,0.00011787230508364388,0.00018294922677109665,2.0103454589914804e-05,-9.867350261538732e-06,-0.00019260153129012743,0.0013802888593702194,0.00020988959681808727,-0.0003912539762546829,2.829420198524197e-05,0.00031178374309037883,-0.0008066509296205513,0.04592245817184448,18.130334854125977,-0.9418671131134033,-18.170503616333008,-0.7427878975868225,-2.2625765800476074,0.22098104655742645,0
