rezayati/contactInterpretation/dataset/franka_main/labeled_data/link5/c11_5.csv
index,time,tau_J0,tau_J1,tau_J2,tau_J3,tau_J4,tau_J5,tau_J6,tau_J_d0,tau_J_d1,tau_J_d2,tau_J_d3,tau_J_d4,tau_J_d5,tau_J_d6,tau_ext0,tau_ext1,tau_ext2,tau_ext3,tau_ext4,tau_ext5,tau_ext6,q0,q1,q2,q3,q4,q5,q6,q_d0,q_d1,q_d2,q_d3,q_d4,q_d5,q_d6,dq0,dq1,dq2,dq3,dq4,dq5,dq6,dq_d0,dq_d1,dq_d2,dq_d3,dq_d4,dq_d5,dq_d6,e0,e1,e2,e3,e4,e5,e6,de0,de1,de2,de3,de4,de5,de6,etau_J0,etau_J1,etau_J2,etau_J3,etau_J4,etau_J5,etau_J6,label
1,0.0,-0.7560665011405945,-46.57577133178711,-5.687466144561768,19.559053421020508,0.7730002999305725,2.3852572441101074,-0.21457235515117645,0.0,0.0,0.0,0.0,0.0,0.0,0.0,-0.7769653529317304,-0.2581106297881382,-0.5034403413385493,0.3603516383614175,0.18246823708677112,0.11246239231425992,-0.18922713343007966,0.8781548334174248,0.7557298688923795,-0.2824903237730159,-1.669046272160714,0.1414089457433431,2.403569314373864,1.0273499483979411,0.878092876070424,0.7554597494309409,-0.2825552651693207,-1.6690993614607135,0.1414185955172306,2.4034451173676383,1.0273381002308042,0.000289855419500736,-0.0006946917004241488,0.0008295918914926721,8.099855149977808e-05,-0.0002687728325980661,-9.223298028936115e-05,0.000944879425701086,0.0,0.0,0.0,0.0,0.0,0.0,0.0,-6.195734700087385e-05,-0.00027011946143862264,-6.494139630480733e-05,-5.308929999947587e-05,9.649773887510094e-06,-0.00012419700622556817,-1.1848167136951915e-05,-0.000289855419500736,0.0006946917004241488,-0.0008295918914926721,-8.099855149977808e-05,0.0002687728325980661,9.223298028936115e-05,-0.000944879425701086,0.7560665011405945,46.57577133178711,5.687466144561768,-19.559053421020508,-0.7730002999305725,-2.3852572441101074,0.21457235515117645,0
2,0.0048487186431884766,-0.7560665011405945,-46.57577133178711,-5.687466144561768,19.559053421020508,0.7730002999305725,2.3852572441101074,-0.21457235515117645,0.0,0.0,0.0,0.0,0.0,0.0,0.0,-0.7769653529317304,-0.2581106297881382,-0.5034403413385493,0.3603516383614175,0.18246823708677112,0.11246239231425992,-0.18922713343007966,0.8781548334174248,0.7557298688923795,-0.2824903237730159,-1.669046272160714,0.1414089457433431,2.403569314373864,1.0273499483979411,0.878092876070424,0.7554597494309409,-0.2825552651693207,-1.6690993614607135,0.1414185955172306,2.4034451173676383,1.0273381002308042,0.000289855419500736,-0.0006946917004241488,0.0008295918914926721,8.099855149977808e-05,-0.0002687728325980661,-9.223298028936115e-05,0.000944879425701086,0.0,0.0,0.0,0.0,0.0,0.0,0.0,-6.195734700087385e-05,-0.00027011946143862264,-6.494139630480733e-05,-5.308929999947587e-05,9.649773887510094e-06,-0.00012419700622556817,-1.1848167136951915e-05,-0.000289855419500736,0.0006946917004241488,-0.0008295918914926721,-8.099855149977808e-05,0.0002687728325980661,9.223298028936115e-05,-0.000944879425701086,0.7560665011405945,46.57577133178711,5.687466144561768,-19.559053421020508,-0.7730002999305725,-2.3852572441101074,0.21457235515117645,0
3,0.009839534759521484,-0.6806880831718445,-46.59957504272461,-5.663662433624268,19.559053421020508,0.7730002999305725,2.3788485527038574,-0.17978231608867645,0.0,0.0,0.0,0.0,0.0,0.0,0.0,-0.777306246758993,-0.25452825086855546,-0.5078910056659818,0.355431181674944,0.18256672711288893,0.11289669921703867,-0.1892166019154407,0.878149533694307,0.7557317103503348,-0.28249417822978534,-1.669046272160714,0.14140579515330234,2.403570026450687,1.0273460828380452,0.878092876070424,0.7554597494309409,-0.2825552651693207,-1.6690993614607135,0.1414185955172306,2.4034451173676383,1.0273381002308042,-0.0013181544332274034,0.00020520154105120123,-0.0001874700915596227,-0.0004510648628128767,-0.0002279644048899267,0.0002161057278310451,3.487310976066952e-05,0.0,0.0,0.0,0.0,0.0,0.0,0.0,-5.665762388307183e-05,-0.0002719609193939654,-6.108693953538191e-05,-5.308929999947587e-05,1.2800363928255898e-05,-0.00012490908304885195,-7.982607240997197e-06,0.0013181544332274034,-0.00020520154105120123,0.0001874700915596227,0.0004510648628128767,0.0002279644048899267,-0.0002161057278310451,-3.487310976066952e-05,0.6806880831718445,46.59957504272461,5.663662433624268,-19.559053421020508,-0.7730002999305725,-2.3788485527038574,0.17978231608867645,0
4,0.014842748641967773,-0.6806880831718445,-46.59957504272461,-5.663662433624268,19.559053421020508,0.7730002999305725,2.3788485527038574,-0.17978231608867645,0.0,0.0,0.0,0.0,0.0,0.0,0.0,-0.777306246758993,-0.25452825086855546,-0.5078910056659818,0.355431181674944,0.18256672711288893,0.11289669921703867,-0.1892166019154407,0.878149533694307,0.7557317103503348,-0.28249417822978534,-1.669046272160714,0.14140579515330234,2.403570026450687,1.0273460828380452,0.878092876070424,0.7554597494309409,-0.2825552651693207,-1.6690993614607135,0.1414185955172306,2.4034451173676383,1.0273381002308042,-0.0013181544332274034,0.00020520154105120123,-0.0001874700915596227,-0.0004510648628128767,-0.0002279644048899267,0.0002161057278310451,3.487310976066952e-05,0.0,0.0,0.0,0.0,0.0,0.0,0.0,-5.665762388307183e-05,-0.0002719609193939654,-6.108693953538191e-05,-5.308929999947587e-05,1.2800363928255898e-05,-0.00012490908304885195,-7.982607240997197e-06,0.0013181544332274034,-0.00020520154105120123,0.0001874700915596227,0.0004510648628128767,0.0002279644048899267,-0.0002161057278310451,-3.487310976066952e-05,0.6806880831718445,46.59957504272461,5.663662433624268,-19.559053421020508,-0.7730002999305725,-2.3788485527038574,0.17978231608867645,0
5,0.01984262466430664,-0.7560665011405945,-46.62337875366211,-5.635891437530518,19.535249710083008,0.7546897530555725,2.3788485527038574,-0.22098104655742645,0.0,0.0,0.0,0.0,0.0,0.0,0.0,-0.7719175867346172,-0.2542677252806638,-0.506230545928696,0.3526015456712059,0.18263673528615498,0.11340309841488418,-0.18717460172018993,0.8781570089114339,0.7557332108671319,-0.28249612965188414,-1.6690446017248586,0.14140675016617765,2.403570026450687,1.027350660474764,0.878092876070424,0.7554597494309409,-0.2825552651693207,-1.6690993614607135,0.1414185955172306,2.4034451173676383,1.0273381002308042,0.00033710629633333726,0.001380760644713398,-0.0005648209711555026,0.0003332062725899886,0.000543555420466383,8.503478995154249e-05,0.000861113364226863,0.0,0.0,0.0,0.0,0.0,0.0,0.0,-6.413284100992289e-05,-0.0002734614361910026,-5.913551743658152e-05,-5.4759735854892355e-05,1.184535105294704e-05,-0.00012490908304885195,-1.2560243959791606e-05,-0.00033710629633333726,-0.001380760644713398,0.0005648209711555026,-0.0003332062725899886,-0.000543555420466383,-8.503478995154249e-05,-0.000861113364226863,0.7560665011405945,46.62337875366211,5.635891437530518,-19.535249710083008,-0.7546897530555725,-2.3788485527038574,0.22098104655742645,0
6,0.02484416961669922,-0.7560665011405945,-46.62337875366211,-5.635891437530518,19.535249710083008,0.7546897530555725,2.3788485527038574,-0.22098104655742645,0.0,0.0,0.0,0.0,0.0,0.0,0.0,-0.7719175867346172,-0.2542677252806638,-0.506230545928696,0.3526015456712059,0.18263673528615498,0.11340309841488418,-0.18717460172018993,0.8781570089114339,0.7557332108671319,-0.28249612965188414,-1.6690446017248586,0.14140675016617765,2.403570026450687,1.027350660474764,0.878092876070424,0.7554597494309409,-0.2825552651693207,-1.6690993614607135,0.1414185955172306,2.4034451173676383,1.0273381002308042,0.00033710629633333726,0.001380760644713398,-0.0005648209711555026,0.0003332062725899886,0.000543555420466383,8.503478995154249e-05,0.000861113364226863,0.0,0.0,0.0,0.0,0.0,0.0,0.0,-6.413284100992289e-05,-0.0002734614361910026,-5.913551743658152e-05,-5.4759735854892355e-05,1.184535105294704e-05,-0.00012490908304885195,-1.2560243959791606e-05,-0.00033710629633333726,-0.001380760644713398,0.0005648209711555026,-0.0003332062725899886,-0.000543555420466383,-8.503478995154249e-05,-0.000861113364226863,0.7560665011405945,46.62337875366211,5.635891437530518,-19.535249710083008,-0.7546897530555725,-2.3788485527038574,0.22098104655742645,0
7,0.029816865921020508,-0.7560665011405945,-46.57577133178711,-5.687466144561768,19.535249710083008,0.7730002999305725,2.3788485527038574,-0.15964071452617645,0.0,0.0,0.0,0.0,0.0,0.0,0.0,-0.7760578671799513,-0.2617516841337466,-0.5086546954244109,0.35397244469805933,0.1826117565507776,0.11385173199449017,-0.1884450558884577,0.8781548234201294,0.7557297995336139,-0.28249243269406454,-1.6690446017248586,0.1414046753143139,2.403570026450687,1.027343844882316,0.878092876070424,0.7554597494309409,-0.2825552651693207,-1.6690993614607135,0.1414185955172306,2.4034451173676383,1.0273381002308042,7.419540266489145e-05,-0.0003712659576284586,0.0003464693892239205,4.58801958439724e-05,-7.685011826294834e-05,-0.00029232597991929064,-0.0013402898968727292,0.0,0.0,0.0,0.0,0.0,0.0,0.0,-6.194734970543792e-05,-0.0002700501026730029,-6.283247525618041e-05,-5.4759735854892355e-05,1.392020291671181e-05,-0.00012490908304885195,-5.744651511818688e-06,-7.419540266489145e-05,0.0003712659576284586,-0.0003464693892239205,-4.58801958439724e-05,7.685011826294834e-05,0.00029232597991929064,0.0013402898968727292,0.7560665011405945,46.57577133178711,5.687466144561768,-19.535249710083008,-0.7730002999305725,-2.3788485527038574,0.15964071452617645,0
8,0.0348505973815918,-0.7560665011405945,-46.57577133178711,-5.687466144561768,19.535249710083008,0.7730002999305725,2.3788485527038574,-0.15964071452617645,0.0,0.0,0.0,0.0,0.0,0.0,0.0,-0.7760578671799513,-0.2617516841337466,-0.5086546954244109,0.35397244469805933,0.1826117565507776,0.11385173199449017,-0.1884450558884577,0.8781548234201294,0.7557297995336139,-0.28249243269406454,-1.6690446017248586,0.1414046753143139,2.403570026450687,1.027343844882316,0.878092876070424,0.7554597494309409,-0.2825552651693207,-1.6690993614607135,0.1414185955172306,2.4034451173676383,1.0273381002308042,7.419540266489145e-05,-0.0003712659576284586,0.0003464693892239205,4.58801958439724e-05,-7.685011826294834e-05,-0.00029232597991929064,-0.0013402898968727292,0.0,0.0,0.0,0.0,0.0,0.0,0.0,-6.194734970543792e-05,-0.0002700501026730029,-6.283247525618041e-05,-5.4759735854892355e-05,1.392020291671181e-05,-0.00012490908304885195,-5.744651511818688e-06,-7.419540266489145e-05,0.0003712659576284586,-0.0003464693892239205,-4.58801958439724e-05,7.685011826294834e-05,0.00029232597991929064,0.0013402898968727292,0.7560665011405945,46.57577133178711,5.687466144561768,-19.535249710083008,-0.7730002999305725,-2.3788485527038574,0.15964071452617645,0
9,0.039870262145996094,-0.7322627902030945,-46.62337875366211,-5.687466144561768,19.610628128051758,0.7610984444618225,2.3852572441101074,-0.20724813640117645,0.0,0.0,0.0,0.0,0.0,0.0,0.0,-0.7885240147335231,-0.26415494737751216,-0.5160876901491475,0.35497760100683307,0.18302006555493985,0.11277716762186335,-0.19012381209862933,0.8781531829514109,0.7557312317480986,-0.2824922766913459,-1.6690498914384002,0.14140706020593916,2.403569314373864,1.0273491345958576,0.878092876070424,0.7554597494309409,-0.2825552651693207,-1.6690993614607135,0.1414185955172306,2.4034451173676383,1.0273381002308042,-0.0018541338008596223,0.0007281125675795703,-0.00011283736881479898,-0.0015749691952243081,0.00038689778004952327,-0.00044319044132544656,0.0010554795545466623,0.0,0.0,0.0,0.0,0.0,0.0,0.0,-6.030688098690451e-05,-0.0002714823171577896,-6.298847797481244e-05,-4.9470022313258255e-05,1.1535311291444028e-05,-0.00012419700622556817,-1.1034365053452788e-05,0.0018541338008596223,-0.0007281125675795703,0.00011283736881479898,0.0015749691952243081,-0.00038689778004952327,0.00044319044132544656,-0.0010554795545466623,0.7322627902030945,46.62337875366211,5.687466144561768,-19.610628128051758,-0.7610984444618225,-2.3852572441101074,0.20724813640117645,0
10,0.04484391212463379,-0.7322627902030945,-46.62337875366211,-5.687466144561768,19.610628128051758,0.7610984444618225,2.3852572441101074,-0.20724813640117645,0.0,0.0,0.0,0.0,0.0,0.0,0.0,-0.7885240147335231,-0.26415494737751216,-0.5160876901491475,0.35497760100683307,0.18302006555493985,0.11277716762186335,-0.19012381209862933,0.8781531829514109,0.7557312317480986,-0.2824922766913459,-1.6690498914384002,0.14140706020593916,2.403569314373864,1.0273491345958576,0.878092876070424,0.7554597494309409,-0.2825552651693207,-1.6690993614607135,0.1414185955172306,2.4034451173676383,1.0273381002308042,-0.0018541338008596223,0.0007281125675795703,-0.00011283736881479898,-0.0015749691952243081,0.00038689778004952327,-0.00044319044132544656,0.0010554795545466623,0.0,0.0,0.0,0.0,0.0,0.0,0.0,-6.030688098690451e-05,-0.0002714823171577896,-6.298847797481244e-05,-4.9470022313258255e-05,1.1535311291444028e-05,-0.00012419700622556817,-1.1034365053452788e-05,0.0018541338008596223,-0.0007281125675795703,0.00011283736881479898,0.0015749691952243081,-0.00038689778004952327,0.00044319044132544656,-0.0010554795545466623,0.7322627902030945,46.62337875366211,5.687466144561768,-19.610628128051758,-0.7610984444618225,-2.3852572441101074,0.20724813640117645,0
11,0.049841880798339844,-0.7838374972343445,-46.54800033569336,-5.663662433624268,19.559053421020508,0.7665916085243225,2.3788485527038574,-0.16604940593242645,0.0,0.0,0.0,0.0,0.0,0.0,0.0,-0.7780739916803914,-0.26216650484144194,-0.5071016705107942,0.3575754987494472,0.18292160878775834,0.11213473005907522,-0.18963529095462353,0.8781567842415821,0.7557278673964384,-0.2824941724629474,-1.669046272160714,0.14140680417687382,2.403570026450687,1.027344556959139,0.878092876070424,0.7554597494309409,-0.2825552651693207,-1.6690993614607135,0.1414185955172306,2.4034451173676383,1.0273381002308042,-0.0006205742269635911,-0.0008791882475437839,-0.0007336118559787609,0.00036247809676136445,5.7267600612648936e-05,-9.930115614686729e-05,-0.001323335911751298,0.0,0.0,0.0,0.0,0.0,0.0,0.0,-6.390817115808911e-05,-0.0002681179654975274,-6.109270637333353e-05,-5.308929999947587e-05,1.1791340356781532e-05,-0.00012490908304885195,-6.456728334880424e-06,0.0006205742269635911,0.0008791882475437839,0.0007336118559787609,-0.00036247809676136445,-5.7267600612648936e-05,9.930115614686729e-05,0.001323335911751298,0.7838374972343445,46.54800033569336,5.663662433624268,-19.559053421020508,-0.7665916085243225,-2.3788485527038574,0.16604940593242645,0
12,0.05484318733215332,-0.7838374972343445,-46.54800033569336,-5.663662433624268,19.559053421020508,0.7665916085243225,2.3788485527038574,-0.16604940593242645,0.0,0.0,0.0,0.0,0.0,0.0,0.0,-0.7780739916803914,-0.26216650484144194,-0.5071016705107942,0.3575754987494472,0.18292160878775834,0.11213473005907522,-0.18963529095462353,0.8781567842415821,0.7557278673964384,-0.2824941724629474,-1.669046272160714,0.14140680417687382,2.403570026450687,1.027344556959139,0.878092876070424,0.7554597494309409,-0.2825552651693207,-1.6690993614607135,0.1414185955172306,2.4034451173676383,1.0273381002308042,-0.0006205742269635911,-0.0008791882475437839,-0.0007336118559787609,0.00036247809676136445,5.7267600612648936e-05,-9.930115614686729e-05,-0.001323335911751298,0.0,0.0,0.0,0.0,0.0,0.0,0.0,-6.390817115808911e-05,-0.0002681179654975274,-6.109270637333353e-05,-5.308929999947587e-05,1.1791340356781532e-05,-0.00012490908304885195,-6.456728334880424e-06,0.0006205742269635911,0.0008791882475437839,0.0007336118559787609,-0.00036247809676136445,-5.7267600612648936e-05,9.930115614686729e-05,0.001323335911751298,0.7838374972343445,46.54800033569336,5.663662433624268,-19.559053421020508,-0.7665916085243225,-2.3788485527038574,0.16604940593242645,0
13,0.05984210968017578,-0.8076412081718445,-46.59957504272461,-5.711269855499268,19.535249710083008,0.7610984444618225,2.3916659355163574,-0.20083944499492645,0.0,0.0,0.0,0.0,0.0,0.0,0.0,-0.7875433846377995,-0.2626904829579205,-0.5112709087812145,0.3570006198629223,0.18296471085728938,0.11108461804671634,-0.18939091350423654,0.8781606282261997,0.7557294289665878,-0.2824908305938661,-1.6690446017248586,0.1414060558041558,2.403568602297041,1.0273484225190348,0.878092876070424,0.7554597494309409,-0.2825552651693207,-1.6690993614607135,0.1414185955172306,2.4034451173676383,1.0273381002308042,0.00011834372387105888,2.112958311852299e-05,3.399774221940056e-05,0.00044716772124204547,0.00025230413591426727,-0.0008831011551439697,0.0003277674572934367,0.0,0.0,0.0,0.0,0.0,0.0,0.0,-6.775215577570215e-05,-0.00026967953564693836,-6.44345754546305e-05,-5.4759735854892355e-05,1.2539713074799508e-05,-0.00012348492940272848,-1.0322288230613097e-05,-0.00011834372387105888,-2.112958311852299e-05,-3.399774221940056e-05,-0.00044716772124204547,-0.00025230413591426727,0.0008831011551439697,-0.0003277674572934367,0.8076412081718445,46.59957504272461,5.711269855499268,-19.535249710083008,-0.7610984444618225,-2.3916659355163574,0.20083944499492645,0
14,0.06485509872436523,-0.8076412081718445,-46.59957504272461,-5.711269855499268,19.535249710083008,0.7610984444618225,2.3916659355163574,-0.20083944499492645,0.0,0.0,0.0,0.0,0.0,0.0,0.0,-0.7875433846377995,-0.2626904829579205,-0.5112709087812145,0.3570006198629223,0.18296471085728938,0.11108461804671634,-0.18939091350423654,0.8781606282261997,0.7557294289665878,-0.2824908305938661,-1.6690446017248586,0.1414060558041558,2.403568602297041,1.0273484225190348,0.878092876070424,0.7554597494309409,-0.2825552651693207,-1.6690993614607135,0.1414185955172306,2.4034451173676383,1.0273381002308042,0.00011834372387105888,2.112958311852299e-05,3.399774221940056e-05,0.00044716772124204547,0.00025230413591426727,-0.0008831011551439697,0.0003277674572934367,0.0,0.0,0.0,0.0,0.0,0.0,0.0,-6.775215577570215e-05,-0.00026967953564693836,-6.44345754546305e-05,-5.4759735854892355e-05,1.2539713074799508e-05,-0.00012348492940272848,-1.0322288230613097e-05,-0.00011834372387105888,-2.112958311852299e-05,-3.399774221940056e-05,-0.00044716772124204547,-0.00025230413591426727,0.0008831011551439697,-0.0003277674572934367,0.8076412081718445,46.59957504272461,5.711269855499268,-19.535249710083008,-0.7610984444618225,-2.3916659355163574,0.20083944499492645,0
15,0.07061648368835449,-0.7838374972343445,-46.59957504272461,-5.687466144561768,19.559053421020508,0.7665916085243225,2.3724398612976074,-0.17337362468242645,0.0,0.0,0.0,0.0,0.0,0.0,0.0,-0.7900649612518038,-0.262180943811691,-0.512515337857963,0.3561218174954559,0.1831174919885742,0.11005568572386039,-0.18834308081303225,0.8781570961513131,0.7557295819047966,-0.28249180001809787,-1.669046272160714,0.14140858158607178,2.4035707384709832,1.0273453707612223,0.878092876070424,0.7554597494309409,-0.2825552651693207,-1.6690993614607135,0.1414185955172306,2.4034451173676383,1.0273381002308042,-0.0008851093814113356,0.00026201633641133976,-0.000336990731366578,6.552896409559963e-05,0.00016446209874007844,0.00022159015340128625,-0.0005706566023222387,0.0,0.0,0.0,0.0,0.0,0.0,0.0,-6.422008088913245e-05,-0.0002698324738557023,-6.346515122285235e-05,-5.308929999947587e-05,1.0013931158819878e-05,-0.0001256211033449084,-7.270530418157506e-06,0.0008851093814113356,-0.00026201633641133976,0.000336990731366578,-6.552896409559963e-05,-0.00016446209874007844,-0.00022159015340128625,0.0005706566023222387,0.7838374972343445,46.59957504272461,5.687466144561768,-19.559053421020508,-0.7665916085243225,-2.3724398612976074,0.17337362468242645,0
16,0.07481145858764648,-0.7838374972343445,-46.59957504272461,-5.687466144561768,19.559053421020508,0.7665916085243225,2.3724398612976074,-0.17337362468242645,0.0,0.0,0.0,0.0,0.0,0.0,0.0,-0.7900649612518038,-0.262180943811691,-0.512515337857963,0.3561218174954559,0.1831174919885742,0.11005568572386039,-0.18834308081303225,0.8781570961513131,0.7557295819047966,-0.28249180001809787,-1.669046272160714,0.14140858158607178,2.4035707384709832,1.0273453707612223,0.878092876070424,0.7554597494309409,-0.2825552651693207,-1.6690993614607135,0.1414185955172306,2.4034451173676383,1.0273381002308042,-0.0008851093814113356,0.00026201633641133976,-0.000336990731366578,6.552896409559963e-05,0.00016446209874007844,0.00022159015340128625,-0.0005706566023222387,0.0,0.0,0.0,0.0,0.0,0.0,0.0,-6.422008088913245e-05,-0.0002698324738557023,-6.346515122285235e-05,-5.308929999947587e-05,1.0013931158819878e-05,-0.0001256211033449084,-7.270530418157506e-06,0.0008851093814113356,-0.00026201633641133976,0.000336990731366578,-6.552896409559963e-05,-0.00016446209874007844,-0.00022159015340128625,0.0005706566023222387,0.7838374972343445,46.59957504272461,5.687466144561768,-19.559053421020508,-0.7665916085243225,-2.3724398612976074,0.17337362468242645,0
17,0.07979607582092285,-0.7838374972343445,-46.59957504272461,-5.687466144561768,19.559053421020508,0.7665916085243225,2.3724398612976074,-0.17337362468242645,0.0,0.0,0.0,0.0,0.0,0.0,0.0,-0.7900649612518038,-0.262180943811691,-0.512515337857963,0.3561218174954559,0.1831174919885742,0.11005568572386039,-0.18834308081303225,0.8781570961513131,0.7557295819047966,-0.28249180001809787,-1.669046272160714,0.14140858158607178,2.4035707384709832,1.0273453707612223,0.878092876070424,0.7554597494309409,-0.2825552651693207,-1.6690993614607135,0.1414185955172306,2.4034451173676383,1.0273381002308042,-0.0008851093814113356,0.00026201633641133976,-0.000336990731366578,6.552896409559963e-05,0.00016446209874007844,0.00022159015340128625,-0.0005706566023222387,0.0,0.0,0.0,0.0,0.0,0.0,0.0,-6.422008088913245e-05,-0.0002698324738557023,-6.346515122285235e-05,-5.308929999947587e-05,1.0013931158819878e-05,-0.0001256211033449084,-7.270530418157506e-06,0.0008851093814113356,-0.00026201633641133976,0.000336990731366578,-6.552896409559963e-05,-0.00016446209874007844,-0.00022159015340128625,0.0005706566023222387,0.7838374972343445,46.59957504272461,5.687466144561768,-19.559053421020508,-0.7665916085243225,-2.3724398612976074,0.17337362468242645,0
18,0.08484649658203125,-0.7838374972343445,-46.59957504272461,-5.687466144561768,19.559053421020508,0.7665916085243225,2.3724398612976074,-0.17337362468242645,0.0,0.0,0.0,0.0,0.0,0.0,0.0,-0.7900649612518038,-0.262180943811691,-0.512515337857963,0.3561218174954559,0.1831174919885742,0.11005568572386039,-0.18834308081303225,0.8781570961513131,0.7557295819047966,-0.28249180001809787,-1.669046272160714,0.14140858158607178,2.4035707384709832,1.0273453707612223,0.878092876070424,0.7554597494309409,-0.2825552651693207,-1.6690993614607135,0.1414185955172306,2.4034451173676383,1.0273381002308042,-0.0008851093814113356,0.00026201633641133976,-0.000336990731366578,6.552896409559963e-05,0.00016446209874007844,0.00022159015340128625,-0.0005706566023222387,0.0,0.0,0.0,0.0,0.0,0.0,0.0,-6.422008088913245e-05,-0.0002698324738557023,-6.346515122285235e-05,-5.308929999947587e-05,1.0013931158819878e-05,-0.0001256211033449084,-7.270530418157506e-06,0.0008851093814113356,-0.00026201633641133976,0.000336990731366578,-6.552896409559963e-05,-0.00016446209874007844,-0.00022159015340128625,0.0005706566023222387,0.7838374972343445,46.59957504272461,5.687466144561768,-19.559053421020508,-0.7665916085243225,-2.3724398612976074,0.17337362468242645,0
19,0.08984827995300293,-0.8076412081718445,-46.57577133178711,-5.687466144561768,19.586824417114258,0.7730002999305725,2.3660311698913574,-0.22098104655742645,0.0,0.0,0.0,0.0,0.0,0.0,0.0,-0.7836559927898353,-0.2581853076708994,-0.5075393061447615,0.3565319617548772,0.18284007257447854,0.10961434622214408,-0.18807714522899371,0.8781584436866229,0.7557283711187311,-0.28249039595795344,-1.669048221002545,0.1414057961192887,2.4035714506043324,1.027350660474764,0.878092876070424,0.7554597494309409,-0.2825552651693207,-1.6690993614607135,0.1414185955172306,2.4034451173676383,1.0273381002308042,0.00029854771286764775,-0.00022424447225514524,-0.00044961709215746073,7.705295502267609e-05,-9.9281252054609e-05,0.0002758407392739105,0.0012474026049711204,0.0,0.0,0.0,0.0,0.0,0.0,0.0,-6.556761619891383e-05,-0.0002686216877902936,-6.486921136727997e-05,-5.1140458168452696e-05,1.279939794190943e-05,-0.00012633323669408725,-1.2560243959791606e-05,-0.00029854771286764775,0.00022424447225514524,0.00044961709215746073,-7.705295502267609e-05,9.9281252054609e-05,-0.0002758407392739105,-0.0012474026049711204,0.8076412081718445,46.57577133178711,5.687466144561768,-19.586824417114258,-0.7730002999305725,-2.3660311698913574,0.22098104655742645,0
20,0.09485602378845215,-0.8076412081718445,-46.57577133178711,-5.687466144561768,19.586824417114258,0.7730002999305725,2.3660311698913574,-0.22098104655742645,0.0,0.0,0.0,0.0,0.0,0.0,0.0,-0.7836559927898353,-0.2581853076708994,-0.5075393061447615,0.3565319617548772,0.18284007257447854,0.10961434622214408,-0.18807714522899371,0.8781584436866229,0.7557283711187311,-0.28249039595795344,-1.669048221002545,0.1414057961192887,2.4035714506043324,1.027350660474764,0.878092876070424,0.7554597494309409,-0.2825552651693207,-1.6690993614607135,0.1414185955172306,2.4034451173676383,1.0273381002308042,0.00029854771286764775,-0.00022424447225514524,-0.00044961709215746073,7.705295502267609e-05,-9.9281252054609e-05,0.0002758407392739105,0.0012474026049711204,0.0,0.0,0.0,0.0,0.0,0.0,0.0,-6.556761619891383e-05,-0.0002686216877902936,-6.486921136727997e-05,-5.1140458168452696e-05,1.279939794190943e-05,-0.00012633323669408725,-1.2560243959791606e-05,-0.00029854771286764775,0.00022424447225514524,0.00044961709215746073,-7.705295502267609e-05,9.9281252054609e-05,-0.0002758407392739105,-0.0012474026049711204,0.8076412081718445,46.57577133178711,5.687466144561768,-19.586824417114258,-0.7730002999305725,-2.3660311698913574,0.22098104655742645,0
21,0.09990143775939941,-0.8076412081718445,-46.52419662475586,-5.687466144561768,19.610628128051758,0.7665916085243225,2.3724398612976074,-0.22098104655742645,0.0,0.0,0.0,0.0,0.0,0.0,0.0,-0.7849049710255771,-0.2543566212912162,-0.5085235676568028,0.35730210069189683,0.1829194918392346,0.10853277000574447,-0.18907259559598166,0.8781608800290396,0.755726436045346,-0.2824921976761354,-1.6690498914384002,0.14140658254290958,2.40357073852751,1.027350660474764,0.878092876070424,0.7554597494309409,-0.2825552651693207,-1.6690993614607135,0.1414185955172306,2.4034451173676383,1.0273381002308042,0.00026648548875777195,-0.001077180448687005,9.703281077457706e-05,-0.0009246762523328435,0.0001786442986168168,0.000128251954753274,0.0014847467243241004,0.0,0.0,0.0,0.0,0.0,0.0,0.0,-6.800395861561448e-05,-0.00026668661440509833,-6.306749318529814e-05,-4.9470022313258255e-05,1.2012974321018444e-05,-0.00012562115987169165,-1.2560243959791606e-05,-0.00026648548875777195,0.001077180448687005,-9.703281077457706e-05,0.0009246762523328435,-0.0001786442986168168,-0.000128251954753274,-0.0014847467243241004,0.8076412081718445,46.52419662475586,5.687466144561768,-19.610628128051758,-0.7665916085243225,-2.3724398612976074,0.22098104655742645,0
22,0.10484933853149414,-0.8076412081718445,-46.52419662475586,-5.687466144561768,19.610628128051758,0.7665916085243225,2.3724398612976074,-0.22098104655742645,0.0,0.0,0.0,0.0,0.0,0.0,0.0,-0.7849049710255771,-0.2543566212912162,-0.5085235676568028,0.35730210069189683,0.1829194918392346,0.10853277000574447,-0.18907259559598166,0.8781608800290396,0.755726436045346,-0.2824921976761354,-1.6690498914384002,0.14140658254290958,2.40357073852751,1.027350660474764,0.878092876070424,0.7554597494309409,-0.2825552651693207,-1.6690993614607135,0.1414185955172306,2.4034451173676383,1.0273381002308042,0.00026648548875777195,-0.001077180448687005,9.703281077457706e-05,-0.0009246762523328435,0.0001786442986168168,0.000128251954753274,0.0014847467243241004,0.0,0.0,0.0,0.0,0.0,0.0,0.0,-6.800395861561448e-05,-0.00026668661440509833,-6.306749318529814e-05,-4.9470022313258255e-05,1.2012974321018444e-05,-0.00012562115987169165,-1.2560243959791606e-05,-0.00026648548875777195,0.001077180448687005,-9.703281077457706e-05,0.0009246762523328435,-0.0001786442986168168,-0.000128251954753274,-0.0014847467243241004,0.8076412081718445,46.52419662475586,5.687466144561768,-19.610628128051758,-0.7665916085243225,-2.3724398612976074,0.22098104655742645,0
23,0.10985302925109863,-0.7322627902030945,-46.54800033569336,-5.635891437530518,19.559053421020508,0.7730002999305725,2.3788485527038574,-0.15964071452617645,0.0,0.0,0.0,0.0,0.0,0.0,0.0,-0.7831195996699173,-0.250667018868967,-0.5071761599178265,0.35803217038309987,0.18300155235070306,0.10790267835684138,-0.18875574073506743,0.8781531803003275,0.7557259346228946,-0.2824961269751973,-1.669046272160714,0.1414047142573053,2.403570026450687,1.027343844882316,0.878092876070424,0.7554597494309409,-0.2825552651693207,-1.6690993614607135,0.1414185955172306,2.4034451173676383,1.0273381002308042,-0.000804443745839576,-4.728960930868055e-05,-0.0006740889556111707,0.0005271602779256673,-0.0001466272092270441,-3.939756973433246e-05,-2.7406012749333275e-05,0.0,0.0,0.0,0.0,0.0,0.0,0.0,-6.0304229903551665e-05,-0.00026618519195376056,-5.913819412339816e-05,-5.308929999947587e-05,1.3881259925296874e-05,-0.00012490908304885195,-5.744651511818688e-06,0.000804443745839576,4.728960930868055e-05,0.0006740889556111707,-0.0005271602779256673,0.0001466272092270441,3.939756973433246e-05,2.7406012749333275e-05,0.7322627902030945,46.54800033569336,5.635891437530518,-19.559053421020508,-0.7730002999305725,-2.3788485527038574,0.15964071452617645,0
24,0.11478996276855469,-0.7322627902030945,-46.54800033569336,-5.635891437530518,19.559053421020508,0.7730002999305725,2.3788485527038574,-0.15964071452617645,0.0,0.0,0.0,0.0,0.0,0.0,0.0,-0.7831195996699173,-0.250667018868967,-0.5071761599178265,0.35803217038309987,0.18300155235070306,0.10790267835684138,-0.18875574073506743,0.8781531803003275,0.7557259346228946,-0.2824961269751973,-1.669046272160714,0.1414047142573053,2.403570026450687,1.027343844882316,0.878092876070424,0.7554597494309409,-0.2825552651693207,-1.6690993614607135,0.1414185955172306,2.4034451173676383,1.0273381002308042,-0.000804443745839576,-4.728960930868055e-05,-0.0006740889556111707,0.0005271602779256673,-0.0001466272092270441,-3.939756973433246e-05,-2.7406012749333275e-05,0.0,0.0,0.0,0.0,0.0,0.0,0.0,-6.0304229903551665e-05,-0.00026618519195376056,-5.913819412339816e-05,-5.308929999947587e-05,1.3881259925296874e-05,-0.00012490908304885195,-5.744651511818688e-06,0.000804443745839576,4.728960930868055e-05,0.0006740889556111707,-0.0005271602779256673,0.0001466272092270441,3.939756973433246e-05,2.7406012749333275e-05,0.7322627902030945,46.54800033569336,5.635891437530518,-19.559053421020508,-0.7730002999305725,-2.3788485527038574,0.15964071452617645,0
25,0.11985898017883301,-0.7560665011405945,-46.54800033569336,-5.612087726593018,19.586824417114258,0.7730002999305725,2.3788485527038574,-0.20724813640117645,0.0,0.0,0.0,0.0,0.0,0.0,0.0,-0.784320046436448,-0.25374720499407416,-0.5108716003197185,0.35992183660826665,0.1840268285216627,0.10788887201200416,-0.18770243485647206,0.8781548593833151,0.7557257300961148,-0.2824956683419033,-1.669048221002545,0.14140932079729937,2.403570026450687,1.0273491345958576,0.878092876070424,0.7554597494309409,-0.2825552651693207,-1.6690993614607135,0.1414185955172306,2.4034451173676383,1.0273381002308042,-0.00014794918564435918,-0.001009660134040515,-0.0008289781788494048,-0.0008012273417282784,-0.0002839586826475512,-1.1184040729905082e-05,0.0005888265845770831,0.0,0.0,0.0,0.0,0.0,0.0,0.0,-6.19833128910896e-05,-0.00026598066517391494,-5.959682741740746e-05,-5.1140458168452696e-05,9.274719931229303e-06,-0.00012490908304885195,-1.1034365053452788e-05,0.00014794918564435918,0.001009660134040515,0.0008289781788494048,0.0008012273417282784,0.0002839586826475512,1.1184040729905082e-05,-0.0005888265845770831,0.7560665011405945,46.54800033569336,5.612087726593018,-19.586824417114258,-0.7730002999305725,-2.3788485527038574,0.20724813640117645,0
26,0.12484478950500488,-0.7560665011405945,-46.54800033569336,-5.612087726593018,19.586824417114258,0.7730002999305725,2.3788485527038574,-0.20724813640117645,0.0,0.0,0.0,0.0,0.0,0.0,0.0,-0.784320046436448,-0.25374720499407416,-0.5108716003197185,0.35992183660826665,0.1840268285216627,0.10788887201200416,-0.18770243485647206,0.8781548593833151,0.7557257300961148,-0.2824956683419033,-1.669048221002545,0.14140932079729937,2.403570026450687,1.0273491345958576,0.878092876070424,0.7554597494309409,-0.2825552651693207,-1.6690993614607135,0.1414185955172306,2.4034451173676383,1.0273381002308042,-0.00014794918564435918,-0.001009660134040515,-0.0008289781788494048,-0.0008012273417282784,-0.0002839586826475512,-1.1184040729905082e-05,0.0005888265845770831,0.0,0.0,0.0,0.0,0.0,0.0,0.0,-6.19833128910896e-05,-0.00026598066517391494,-5.959682741740746e-05,-5.1140458168452696e-05,9.274719931229303e-06,-0.00012490908304885195,-1.1034365053452788e-05,0.00014794918564435918,0.001009660134040515,0.0008289781788494048,0.0008012273417282784,0.0002839586826475512,1.1184040729905082e-05,-0.0005888265845770831,0.7560665011405945,46.54800033569336,5.612087726593018,-19.586824417114258,-0.7730002999305725,-2.3788485527038574,0.20724813640117645,0
27,0.12984085083007812,-0.7084590792655945,-46.54800033569336,-5.663662433624268,19.559053421020508,0.7784934639930725,2.3724398612976074,-0.15964071452617645,0.0,0.0,0.0,0.0,0.0,0.0,0.0,-0.7704751183133002,-0.25879106959355197,-0.5022515413750873,0.36359171752707853,0.1839272763780454,0.10856039295901107,-0.18793612138695162,0.8781514825362847,0.7557278507157529,-0.28249418004905164,-1.669046272160714,0.1414040659608092,2.40357073852751,1.027343844882316,0.878092876070424,0.7554597494309409,-0.2825552651693207,-1.6690993614607135,0.1414185955172306,2.4034451173676383,1.0273381002308042,-0.0007136057152378731,-0.0009598469456716046,2.812223104518864e-05,0.00011996733215109657,-0.0002186592321882844,0.00014469627449208703,-0.0005468523676156458,0.0,0.0,0.0,0.0,0.0,0.0,0.0,-5.860646586075546e-05,-0.0002681012848120279,-6.108512026908874e-05,-5.308929999947587e-05,1.4529556421394307e-05,-0.00012562115987169165,-5.744651511818688e-06,0.0007136057152378731,0.0009598469456716046,-2.812223104518864e-05,-0.00011996733215109657,0.0002186592321882844,-0.00014469627449208703,0.0005468523676156458,0.7084590792655945,46.54800033569336,5.663662433624268,-19.559053421020508,-0.7784934639930725,-2.3724398612976074,0.15964071452617645,0
28,0.13489151000976562,-0.7084590792655945,-46.54800033569336,-5.663662433624268,19.559053421020508,0.7784934639930725,2.3724398612976074,-0.15964071452617645,0.0,0.0,0.0,0.0,0.0,0.0,0.0,-0.7704751183133002,-0.25879106959355197,-0.5022515413750873,0.36359171752707853,0.1839272763780454,0.10856039295901107,-0.18793612138695162,0.8781514825362847,0.7557278507157529,-0.28249418004905164,-1.669046272160714,0.1414040659608092,2.40357073852751,1.027343844882316,0.878092876070424,0.7554597494309409,-0.2825552651693207,-1.6690993614607135,0.1414185955172306,2.4034451173676383,1.0273381002308042,-0.0007136057152378731,-0.0009598469456716046,2.812223104518864e-05,0.00011996733215109657,-0.0002186592321882844,0.00014469627449208703,-0.0005468523676156458,0.0,0.0,0.0,0.0,0.0,0.0,0.0,-5.860646586075546e-05,-0.0002681012848120279,-6.108512026908874e-05,-5.308929999947587e-05,1.4529556421394307e-05,-0.00012562115987169165,-5.744651511818688e-06,0.0007136057152378731,0.0009598469456716046,-2.812223104518864e-05,-0.00011996733215109657,0.0002186592321882844,-0.00014469627449208703,0.0005468523676156458,0.7084590792655945,46.54800033569336,5.663662433624268,-19.559053421020508,-0.7784934639930725,-2.3724398612976074,0.15964071452617645,0
29,0.13984370231628418,-0.7838374972343445,-46.62337875366211,-5.663662433624268,19.586824417114258,0.7730002999305725,2.3788485527038574,-0.20083944499492645,0.0,0.0,0.0,0.0,0.0,0.0,0.0,-0.7765096191968236,-0.2517228593250547,-0.5088013586088364,0.35592634997795114,0.18467165954498685,0.1074655204303056,-0.18804257771103744,0.8781589847718032,0.755733368684993,-0.2824917630957132,-1.669048221002545,0.14140894169301163,2.403570026450687,1.0273484225190348,0.878092876070424,0.7554597494309409,-0.2825552651693207,-1.6690993614607135,0.1414185955172306,2.4034451173676383,1.0273381002308042,0.0009340511286881094,0.0008779503280393436,9.717062332541073e-06,-0.0012194348972730579,2.1438643393500275e-05,-4.0481699784739704e-05,0.0009549294065452305,0.0,0.0,0.0,0.0,0.0,0.0,0.0,-6.610870137924163e-05,-0.0002736192540521154,-6.350207360750204e-05,-5.1140458168452696e-05,9.65382421896921e-06,-0.00012490908304885195,-1.0322288230613097e-05,-0.0009340511286881094,-0.0008779503280393436,-9.717062332541073e-06,0.0012194348972730579,-2.1438643393500275e-05,4.0481699784739704e-05,-0.0009549294065452305,0.7838374972343445,46.62337875366211,5.663662433624268,-19.586824417114258,-0.7730002999305725,-2.3788485527038574,0.20083944499492645,0
30,0.14484357833862305,-0.7838374972343445,-46.62337875366211,-5.663662433624268,19.586824417114258,0.7730002999305725,2.3788485527038574,-0.20083944499492645,0.0,0.0,0.0,0.0,0.0,0.0,0.0,-0.7765096191968236,-0.2517228593250547,-0.5088013586088364,0.35592634997795114,0.18467165954498685,0.1074655204303056,-0.18804257771103744,0.8781589847718032,0.755733368684993,-0.2824917630957132,-1.669048221002545,0.14140894169301163,2.403570026450687,1.0273484225190348,0.878092876070424,0.7554597494309409,-0.2825552651693207,-1.6690993614607135,0.1414185955172306,2.4034451173676383,1.0273381002308042,0.0009340511286881094,0.0008779503280393436,9.717062332541073e-06,-0.0012194348972730579,2.1438643393500275e-05,-4.0481699784739704e-05,0.0009549294065452305,0.0,0.0,0.0,0.0,0.0,0.0,0.0,-6.610870137924163e-05,-0.0002736192540521154,-6.350207360750204e-05,-5.1140458168452696e-05,9.65382421896921e-06,-0.00012490908304885195,-1.0322288230613097e-05,-0.0009340511286881094,-0.0008779503280393436,-9.717062332541073e-06,0.0012194348972730579,-2.1438643393500275e-05,4.0481699784739704e-05,-0.0009549294065452305,0.7838374972343445,46.62337875366211,5.663662433624268,-19.586824417114258,-0.7730002999305725,-2.3788485527038574,0.20083944499492645,0
31,0.14984560012817383,-0.7838374972343445,-46.57577133178711,-5.687466144561768,19.559053421020508,0.7730002999305725,2.3660311698913574,-0.17337362468242645,0.0,0.0,0.0,0.0,0.0,0.0,0.0,-0.77629874690979,-0.261904852264524,-0.5093004554450518,0.3578842543989681,0.18557458730167195,0.1089086109732626,-0.18852675923227802,0.8781567722621131,0.7557276704831206,-0.28249227667813637,-1.669046272160714,0.14140471589474535,2.403571450604333,1.0273453707612223,0.878092876070424,0.7554597494309409,-0.2825552651693207,-1.6690993614607135,0.1414185955172306,2.4034451173676383,1.0273381002308042,0.0002147841168326735,-0.0005379112266757293,0.0003843646690134588,-0.0001657959834780459,-1.7083921648269214e-05,0.0003297619531344803,-0.0010473255079437695,0.0,0.0,0.0,0.0,0.0,0.0,0.0,-6.389619168911675e-05,-0.0002679210521797648,-6.298849118435701e-05,-5.308929999947587e-05,1.3879622485252208e-05,-0.00012633323669453134,-7.270530418157506e-06,-0.0002147841168326735,0.0005379112266757293,-0.0003843646690134588,0.0001657959834780459,1.7083921648269214e-05,-0.0003297619531344803,0.0010473255079437695,0.7838374972343445,46.57577133178711,5.687466144561768,-19.559053421020508,-0.7730002999305725,-2.3660311698913574,0.17337362468242645,0
32,0.15500473976135254,-0.7838374972343445,-46.57577133178711,-5.687466144561768,19.559053421020508,0.7730002999305725,2.3660311698913574,-0.17337362468242645,0.0,0.0,0.0,0.0,0.0,0.0,0.0,-0.77629874690979,-0.261904852264524,-0.5093004554450518,0.3578842543989681,0.18557458730167195,0.1089086109732626,-0.18852675923227802,0.8781567722621131,0.7557276704831206,-0.28249227667813637,-1.669046272160714,0.14140471589474535,2.403571450604333,1.0273453707612223,0.878092876070424,0.7554597494309409,-0.2825552651693207,-1.6690993614607135,0.1414185955172306,2.4034451173676383,1.0273381002308042,0.0002147841168326735,-0.0005379112266757293,0.0003843646690134588,-0.0001657959834780459,-1.7083921648269214e-05,0.0003297619531344803,-0.0010473255079437695,0.0,0.0,0.0,0.0,0.0,0.0,0.0,-6.389619168911675e-05,-0.0002679210521797648,-6.298849118435701e-05,-5.308929999947587e-05,1.3879622485252208e-05,-0.00012633323669453134,-7.270530418157506e-06,-0.0002147841168326735,0.0005379112266757293,-0.0003843646690134588,0.0001657959834780459,1.7083921648269214e-05,-0.0003297619531344803,0.0010473255079437695,0.7838374972343445,46.57577133178711,5.687466144561768,-19.559053421020508,-0.7730002999305725,-2.3660311698913574,0.17337362468242645,0
33,0.15984058380126953,-0.7838374972343445,-46.52419662475586,-5.663662433624268,19.586824417114258,0.7665916085243225,2.3724398612976074,-0.19351522624492645,0.0,0.0,0.0,0.0,0.0,0.0,0.0,-0.7847371170222174,-0.25861367856036477,-0.5122251114003126,0.35462873991370086,0.18558626419584945,0.10908590515578565,-0.1903252889757325,0.8781589578643002,0.7557268951721997,-0.28249347879848763,-1.669048221002545,0.1414089477292236,2.4035696259074744,1.0273477293979607,0.878092876070424,0.7554597494309409,-0.2825552651693207,-1.6690993614607135,0.1414185955172306,2.4034451173676383,1.0273381002308042,-0.0008994402140313387,-0.0010867540314596455,-0.0005433724091820555,-0.0005761122993376962,0.00010883785444066093,0.00010334805991115807,0.0003294724018373425,0.0,0.0,0.0,0.0,0.0,0.0,0.0,-6.608179387623814e-05,-0.00026714574125885626,-6.178637083309457e-05,-5.1140458168452696e-05,9.647788006994507e-06,-0.00012450853983603238,-9.629167156521845e-06,0.0008994402140313387,0.0010867540314596455,0.0005433724091820555,0.0005761122993376962,-0.00010883785444066093,-0.00010334805991115807,-0.0003294724018373425,0.7838374972343445,46.52419662475586,5.663662433624268,-19.586824417114258,-0.7665916085243225,-2.3724398612976074,0.19351522624492645,0
34,0.1648397445678711,-0.7838374972343445,-46.52419662475586,-5.663662433624268,19.586824417114258,0.7665916085243225,2.3724398612976074,-0.19351522624492645,0.0,0.0,0.0,0.0,0.0,0.0,0.0,-0.7847371170222174,-0.25861367856036477,-0.5122251114003126,0.35462873991370086,0.18558626419584945,0.10908590515578565,-0.1903252889757325,0.8781589578643002,0.7557268951721997,-0.28249347879848763,-1.669048221002545,0.1414089477292236,2.4035696259074744,1.0273477293979607,0.878092876070424,0.7554597494309409,-0.2825552651693207,-1.6690993614607135,0.1414185955172306,2.4034451173676383,1.0273381002308042,-0.0008994402140313387,-0.0010867540314596455,-0.0005433724091820555,-0.0005761122993376962,0.00010883785444066093,0.00010334805991115807,0.0003294724018373425,0.0,0.0,0.0,0.0,0.0,0.0,0.0,-6.608179387623814e-05,-0.00026714574125885626,-6.178637083309457e-05,-5.1140458168452696e-05,9.647788006994507e-06,-0.00012450853983603238,-9.629167156521845e-06,0.0008994402140313387,0.0010867540314596455,0.0005433724091820555,0.0005761122993376962,-0.00010883785444066093,-0.00010334805991115807,-0.0003294724018373425,0.7838374972343445,46.52419662475586,5.663662433624268,-19.586824417114258,-0.7665916085243225,-2.3724398612976074,0.19351522624492645,0
35,0.1698453426361084,-0.7560665011405945,-46.57577133178711,-5.663662433624268,19.559053421020508,0.7665916085243225,2.3788485527038574,-0.21457235515117645,0.0,0.0,0.0,0.0,0.0,0.0,0.0,-0.7693151459903896,-0.25495912869617166,-0.4975583500519426,0.3545956034320198,0.18474477914325876,0.10880487936337149,-0.19077672342101604,0.878155554956303,0.7557298728325229,-0.28249346724011953,-1.669046272160714,0.1414085888963052,2.4035700264444064,1.0273499483986224,0.878092876070424,0.7554597494309409,-0.2825552651693207,-1.6690993614607135,0.1414185955172306,2.4034451173676383,1.0273381002308042,-0.001155965320625856,-0.00023579230953995326,-0.00015904241985056477,-0.00023266423334342357,0.00012326002460238237,-0.0002237151381007597,0.0008251802102202951,0.0,0.0,0.0,0.0,0.0,0.0,0.0,-6.2678885879075e-05,-0.0002701234015820564,-6.179792920119054e-05,-5.308929999947587e-05,1.0006620925401277e-05,-0.00012490907676809826,-1.1848167818184763e-05,0.001155965320625856,0.00023579230953995326,0.00015904241985056477,0.00023266423334342357,-0.00012326002460238237,0.0002237151381007597,-0.0008251802102202951,0.7560665011405945,46.57577133178711,5.663662433624268,-19.559053421020508,-0.7665916085243225,-2.3788485527038574,0.21457235515117645,0
36,0.1748514175415039,-0.7560665011405945,-46.57577133178711,-5.663662433624268,19.559053421020508,0.7665916085243225,2.3788485527038574,-0.21457235515117645,0.0,0.0,0.0,0.0,0.0,0.0,0.0,-0.7693151459903896,-0.25495912869617166,-0.4975583500519426,0.3545956034320198,0.18474477914325876,0.10880487936337149,-0.19077672342101604,0.878155554956303,0.7557298728325229,-0.28249346724011953,-1.669046272160714,0.1414085888963052,2.4035700264444064,1.0273499483986224,0.878092876070424,0.7554597494309409,-0.2825552651693207,-1.6690993614607135,0.1414185955172306,2.4034451173676383,1.0273381002308042,-0.001155965320625856,-0.00023579230953995326,-0.00015904241985056477,-0.00023266423334342357,0.00012326002460238237,-0.0002237151381007597,0.0008251802102202951,0.0,0.0,0.0,0.0,0.0,0.0,0.0,-6.2678885879075e-05,-0.0002701234015820564,-6.179792920119054e-05,-5.308929999947587e-05,1.0006620925401277e-05,-0.00012490907676809826,-1.1848167818184763e-05,0.001155965320625856,0.00023579230953995326,0.00015904241985056477,0.00023266423334342357,-0.00012326002460238237,0.0002237151381007597,-0.0008251802102202951,0.7560665011405945,46.57577133178711,5.663662433624268,-19.559053421020508,-0.7665916085243225,-2.3788485527038574,0.21457235515117645,0
37,0.1798551082611084,-0.7560665011405945,-46.57577133178711,-5.663662433624268,19.559053421020508,0.7665916085243225,2.3788485527038574,-0.21457235515117645,0.0,0.0,0.0,0.0,0.0,0.0,0.0,-0.7693151459903896,-0.25495912869617166,-0.4975583500519426,0.3545956034320198,0.18474477914325876,0.10880487936337149,-0.19077672342101604,0.878155554956303,0.7557298728325229,-0.28249346724011953,-1.669046272160714,0.1414085888963052,2.4035700264444064,1.0273499483986224,0.878092876070424,0.7554597494309409,-0.2825552651693207,-1.6690993614607135,0.1414185955172306,2.4034451173676383,1.0273381002308042,-0.001155965320625856,-0.00023579230953995326,-0.00015904241985056477,-0.00023266423334342357,0.00012326002460238237,-0.0002237151381007597,0.0008251802102202951,0.0,0.0,0.0,0.0,0.0,0.0,0.0,-6.2678885879075e-05,-0.0002701234015820564,-6.179792920119054e-05,-5.308929999947587e-05,1.0006620925401277e-05,-0.00012490907676809826,-1.1848167818184763e-05,0.001155965320625856,0.00023579230953995326,0.00015904241985056477,0.00023266423334342357,-0.00012326002460238237,0.0002237151381007597,-0.0008251802102202951,0.7560665011405945,46.57577133178711,5.663662433624268,-19.559053421020508,-0.7665916085243225,-2.3788485527038574,0.21457235515117645,0
38,0.1848747730255127,-0.7560665011405945,-46.57577133178711,-5.663662433624268,19.559053421020508,0.7665916085243225,2.3788485527038574,-0.21457235515117645,0.0,0.0,0.0,0.0,0.0,0.0,0.0,-0.7693151459903896,-0.25495912869617166,-0.4975583500519426,0.3545956034320198,0.18474477914325876,0.10880487936337149,-0.19077672342101604,0.878155554956303,0.7557298728325229,-0.28249346724011953,-1.669046272160714,0.1414085888963052,2.4035700264444064,1.0273499483986224,0.878092876070424,0.7554597494309409,-0.2825552651693207,-1.6690993614607135,0.1414185955172306,2.4034451173676383,1.0273381002308042,-0.001155965320625856,-0.00023579230953995326,-0.00015904241985056477,-0.00023266423334342357,0.00012326002460238237,-0.0002237151381007597,0.0008251802102202951,0.0,0.0,0.0,0.0,0.0,0.0,0.0,-6.2678885879075e-05,-0.0002701234015820564,-6.179792920119054e-05,-5.308929999947587e-05,1.0006620925401277e-05,-0.00012490907676809826,-1.1848167818184763e-05,0.001155965320625856,0.00023579230953995326,0.00015904241985056477,0.00023266423334342357,-0.00012326002460238237,0.0002237151381007597,-0.0008251802102202951,0.7560665011405945,46.57577133178711,5.663662433624268,-19.559053421020508,-0.7665916085243225,-2.3788485527038574,0.21457235515117645,0
39,0.18984222412109375,-0.8076412081718445,-46.62337875366211,-5.663662433624268,19.559053421020508,0.7730002999305725,2.3852572441101074,-0.20083944499492645,0.0,0.0,0.0,0.0,0.0,0.0,0.0,-0.7732225805281207,-0.269448207945824,-0.5003228228629861,0.36152320883032274,0.1848732224626531,0.11039967290964203,-0.19036662405666258,0.8781584696711346,0.7557333779517894,-0.2824941031258917,-1.669046272160714,0.14140515169640838,2.403569314373864,1.0273484627460379,0.878092876070424,0.7554597494309409,-0.2825552651693207,-1.6690993614607135,0.1414185955172306,2.4034451173676383,1.0273381002308042,0.0003714948331505305,0.000413169123645581,-0.0003447671121961378,-0.00011214932094690887,-5.811470344209039e-05,-0.0002366250484823759,0.00013661050785441231,0.0,0.0,0.0,0.0,0.0,0.0,0.0,-6.559360071067832e-05,-0.0002736285208485567,-6.116204342904163e-05,-5.308929999947587e-05,1.3443820822217623e-05,-0.00012419700622556817,-1.036251523367504e-05,-0.0003714948331505305,-0.000413169123645581,0.0003447671121961378,0.00011214932094690887,5.811470344209039e-05,0.0002366250484823759,-0.00013661050785441231,0.8076412081718445,46.62337875366211,5.663662433624268,-19.559053421020508,-0.7730002999305725,-2.3852572441101074,0.20083944499492645,0
40,0.19480299949645996,-0.8076412081718445,-46.62337875366211,-5.663662433624268,19.559053421020508,0.7730002999305725,2.3852572441101074,-0.20083944499492645,0.0,0.0,0.0,0.0,0.0,0.0,0.0,-0.7732225805281207,-0.269448207945824,-0.5003228228629861,0.36152320883032274,0.1848732224626531,0.11039967290964203,-0.19036662405666258,0.8781584696711346,0.7557333779517894,-0.2824941031258917,-1.669046272160714,0.14140515169640838,2.403569314373864,1.0273484627460379,0.878092876070424,0.7554597494309409,-0.2825552651693207,-1.6690993614607135,0.1414185955172306,2.4034451173676383,1.0273381002308042,0.0003714948331505305,0.000413169123645581,-0.0003447671121961378,-0.00011214932094690887,-5.811470344209039e-05,-0.0002366250484823759,0.00013661050785441231,0.0,0.0,0.0,0.0,0.0,0.0,0.0,-6.559360071067832e-05,-0.0002736285208485567,-6.116204342904163e-05,-5.308929999947587e-05,1.3443820822217623e-05,-0.00012419700622556817,-1.036251523367504e-05,-0.0003714948331505305,-0.000413169123645581,0.0003447671121961378,0.00011214932094690887,5.811470344209039e-05,0.0002366250484823759,-0.00013661050785441231,0.8076412081718445,46.62337875366211,5.663662433624268,-19.559053421020508,-0.7730002999305725,-2.3852572441101074,0.20083944499492645,0
41,0.19984722137451172,-0.8354122042655945,-46.57577133178711,-5.687466144561768,19.559053421020508,0.7665916085243225,2.3724398612976074,-0.17337362468242645,0.0,0.0,0.0,0.0,0.0,0.0,0.0,-0.7926084580825871,-0.2624018601216216,-0.5104886449903011,0.3574335074056718,0.18500885500375672,0.11121388848356342,-0.19063101855774264,0.8781607423982394,0.7557286767670008,-0.2824924816987511,-1.669046272160714,0.14140540024461978,2.40357073852751,1.027345370761298,0.878092876070424,0.7554597494309409,-0.2825552651693207,-1.6690993614607135,0.1414185955172306,2.4034451173676383,1.0273381002308042,0.0005858262557813581,-0.0004858471230841346,0.00011138820310242865,0.00031754536013873033,-7.442981333179281e-05,0.0002337022090069922,-0.0007178694581185354,0.0,0.0,0.0,0.0,0.0,0.0,0.0,-6.786632781541346e-05,-0.00026892733605998753,-6.27834705696495e-05,-5.308929999947587e-05,1.3195272610816433e-05,-0.00012562115987169165,-7.270530493874716e-06,-0.0005858262557813581,0.0004858471230841346,-0.00011138820310242865,-0.00031754536013873033,7.442981333179281e-05,-0.0002337022090069922,0.0007178694581185354,0.8354122042655945,46.57577133178711,5.687466144561768,-19.559053421020508,-0.7665916085243225,-2.3724398612976074,0.17337362468242645,0
42,0.20495843887329102,-0.8354122042655945,-46.57577133178711,-5.687466144561768,19.559053421020508,0.7665916085243225,2.3724398612976074,-0.17337362468242645,0.0,0.0,0.0,0.0,0.0,0.0,0.0,-0.7926084580825871,-0.2624018601216216,-0.5104886449903011,0.3574335074056718,0.18500885500375672,0.11121388848356342,-0.19063101855774264,0.8781607423982394,0.7557286767670008,-0.2824924816987511,-1.669046272160714,0.14140540024461978,2.40357073852751,1.027345370761298,0.878092876070424,0.7554597494309409,-0.2825552651693207,-1.6690993614607135,0.1414185955172306,2.4034451173676383,1.0273381002308042,0.0005858262557813581,-0.0004858471230841346,0.00011138820310242865,0.00031754536013873033,-7.442981333179281e-05,0.0002337022090069922,-0.0007178694581185354,0.0,0.0,0.0,0.0,0.0,0.0,0.0,-6.786632781541346e-05,-0.00026892733605998753,-6.27834705696495e-05,-5.308929999947587e-05,1.3195272610816433e-05,-0.00012562115987169165,-7.270530493874716e-06,-0.0005858262557813581,0.0004858471230841346,-0.00011138820310242865,-0.00031754536013873033,7.442981333179281e-05,-0.0002337022090069922,0.0007178694581185354,0.8354122042655945,46.57577133178711,5.687466144561768,-19.559053421020508,-0.7665916085243225,-2.3724398612976074,0.17337362468242645,0
43,0.2098541259765625,-0.7838374972343445,-46.62337875366211,-5.687466144561768,19.586824417114258,0.7730002999305725,2.3788485527038574,-0.19351522624492645,0.0,0.0,0.0,0.0,0.0,0.0,0.0,-0.7771465769710878,-0.26142802065153076,-0.4976729105682568,0.3580460011613614,0.184026012416839,0.11137313012719875,-0.1916111898597364,0.8781575097836717,0.7557332373140513,-0.28249250202824944,-1.6690482200213985,0.14140590902250055,2.403570026450687,1.0273476087169515,0.878092876070424,0.7554597494309409,-0.2825552651693207,-1.6690993614607135,0.1414185955172306,2.4034451173676383,1.0273381002308042,0.0003384405838260619,0.00047539003239624363,0.00026926453393368114,-0.0004210689954165427,-0.00019413371313881371,-6.7944295069711e-05,0.0005324219626351488,0.0,0.0,0.0,0.0,0.0,0.0,0.0,-6.463371324771927e-05,-0.0002734878831104348,-6.2763141071287e-05,-5.114143931495008e-05,1.268649473004646e-05,-0.00012490908304885195,-9.508486147336015e-06,-0.0003384405838260619,-0.00047539003239624363,-0.00026926453393368114,0.0004210689954165427,0.00019413371313881371,6.7944295069711e-05,-0.0005324219626351488,0.7838374972343445,46.62337875366211,5.687466144561768,-19.586824417114258,-0.7730002999305725,-2.3788485527038574,0.19351522624492645,0
44,0.2148423194885254,-0.7838374972343445,-46.62337875366211,-5.687466144561768,19.586824417114258,0.7730002999305725,2.3788485527038574,-0.19351522624492645,0.0,0.0,0.0,0.0,0.0,0.0,0.0,-0.7771465769710878,-0.26142802065153076,-0.4976729105682568,0.3580460011613614,0.184026012416839,0.11137313012719875,-0.1916111898597364,0.8781575097836717,0.7557332373140513,-0.28249250202824944,-1.6690482200213985,0.14140590902250055,2.403570026450687,1.0273476087169515,0.878092876070424,0.7554597494309409,-0.2825552651693207,-1.6690993614607135,0.1414185955172306,2.4034451173676383,1.0273381002308042,0.0003384405838260619,0.00047539003239624363,0.00026926453393368114,-0.0004210689954165427,-0.00019413371313881371,-6.7944295069711e-05,0.0005324219626351488,0.0,0.0,0.0,0.0,0.0,0.0,0.0,-6.463371324771927e-05,-0.0002734878831104348,-6.2763141071287e-05,-5.114143931495008e-05,1.268649473004646e-05,-0.00012490908304885195,-9.508486147336015e-06,-0.0003384405838260619,-0.00047539003239624363,-0.00026926453393368114,0.0004210689954165427,0.00019413371313881371,6.7944295069711e-05,-0.0005324219626351488,0.7838374972343445,46.62337875366211,5.687466144561768,-19.586824417114258,-0.7730002999305725,-2.3788485527038574,0.19351522624492645,0
45,0.21990323066711426,-0.7560665011405945,-46.57577133178711,-5.687466144561768,19.586824417114258,0.7730002999305725,2.3852572441101074,-0.20724813640117645,0.0,0.0,0.0,0.0,0.0,0.0,0.0,-0.7900811313638935,-0.26000490736810367,-0.5097460768976405,0.35443629745925315,0.1837572321338778,0.1112274853084557,-0.19116797402531308,0.8781556328660756,0.7557298791410736,-0.2824917306836589,-1.6690482210025284,0.14140589527245198,2.403569314373864,1.0273491345958576,0.878092876070424,0.7554597494309409,-0.2825552651693207,-1.6690993614607135,0.1414185955172306,2.4034451173676383,1.0273381002308042,-0.0007091489830795789,-0.0004404616322898409,-0.00015097649736506638,-0.0007587185260509477,-0.00033569252203173746,-0.0002918865845010664,0.00038287682343088883,0.0,0.0,0.0,0.0,0.0,0.0,0.0,-6.275679565159731e-05,-0.00027012971013273823,-6.35344856618203e-05,-5.114045818510604e-05,1.270024477861842e-05,-0.00012419700622556817,-1.1034365053452788e-05,0.0007091489830795789,0.0004404616322898409,0.00015097649736506638,0.0007587185260509477,0.00033569252203173746,0.0002918865845010664,-0.00038287682343088883,0.7560665011405945,46.57577133178711,5.687466144561768,-19.586824417114258,-0.7730002999305725,-2.3852572441101074,0.20724813640117645,0
46,0.22484159469604492,-0.7560665011405945,-46.57577133178711,-5.687466144561768,19.586824417114258,0.7730002999305725,2.3852572441101074,-0.20724813640117645,0.0,0.0,0.0,0.0,0.0,0.0,0.0,-0.7900811313638935,-0.26000490736810367,-0.5097460768976405,0.35443629745925315,0.1837572321338778,0.1112274853084557,-0.19116797402531308,0.8781556328660756,0.7557298791410736,-0.2824917306836589,-1.6690482210025284,0.14140589527245198,2.403569314373864,1.0273491345958576,0.878092876070424,0.7554597494309409,-0.2825552651693207,-1.6690993614607135,0.1414185955172306,2.4034451173676383,1.0273381002308042,-0.0007091489830795789,-0.0004404616322898409,-0.00015097649736506638,-0.0007587185260509477,-0.00033569252203173746,-0.0002918865845010664,0.00038287682343088883,0.0,0.0,0.0,0.0,0.0,0.0,0.0,-6.275679565159731e-05,-0.00027012971013273823,-6.35344856618203e-05,-5.114045818510604e-05,1.270024477861842e-05,-0.00012419700622556817,-1.1034365053452788e-05,0.0007091489830795789,0.0004404616322898409,0.00015097649736506638,0.0007587185260509477,0.00033569252203173746,0.0002918865845010664,-0.00038287682343088883,0.7560665011405945,46.57577133178711,5.687466144561768,-19.586824417114258,-0.7730002999305725,-2.3852572441101074,0.20724813640117645,0
47,0.229841947555542,-0.7560665011405945,-46.62337875366211,-5.663662433624268,19.586824417114258,0.7665916085243225,2.3788485527038574,-0.17337362468242645,0.0,0.0,0.0,0.0,0.0,0.0,0.0,-0.7859955061568827,-0.2602139992880213,-0.5113278523542238,0.35308041904088205,0.18368214793632306,0.11149030447110768,-0.1910183513402745,0.8781555519135755,0.755731708912755,-0.28249418112665853,-1.669048221002545,0.14140660782129402,2.403570026450687,1.0273453752308894,0.878092876070424,0.7554597494309409,-0.2825552651693207,-1.6690993614607135,0.1414185955172306,2.4034451173676383,1.0273381002308042,-0.00039391398419933056,0.0007659333362603813,-0.0002772329386222562,-0.0010202801113967503,8.686537829036903e-05,6.022108017808036e-05,-0.0007626914789737883,0.0,0.0,0.0,0.0,0.0,0.0,0.0,-6.26758431515606e-05,-0.00027195948181413243,-6.108404266219614e-05,-5.1140458168452696e-05,1.1987695936577225e-05,-0.00012490908304885195,-7.275000085238403e-06,0.00039391398419933056,-0.0007659333362603813,0.0002772329386222562,0.0010202801113967503,-8.686537829036903e-05,-6.022108017808036e-05,0.0007626914789737883,0.7560665011405945,46.62337875366211,5.663662433624268,-19.586824417114258,-0.7665916085243225,-2.3788485527038574,0.17337362468242645,0
48,0.2348613739013672,-0.7560665011405945,-46.62337875366211,-5.663662433624268,19.586824417114258,0.7665916085243225,2.3788485527038574,-0.17337362468242645,0.0,0.0,0.0,0.0,0.0,0.0,0.0,-0.7859955061568827,-0.2602139992880213,-0.5113278523542238,0.35308041904088205,0.18368214793632306,0.11149030447110768,-0.1910183513402745,0.8781555519135755,0.755731708912755,-0.28249418112665853,-1.669048221002545,0.14140660782129402,2.403570026450687,1.0273453752308894,0.878092876070424,0.7554597494309409,-0.2825552651693207,-1.6690993614607135,0.1414185955172306,2.4034451173676383,1.0273381002308042,-0.00039391398419933056,0.0007659333362603813,-0.0002772329386222562,-0.0010202801113967503,8.686537829036903e-05,6.022108017808036e-05,-0.0007626914789737883,0.0,0.0,0.0,0.0,0.0,0.0,0.0,-6.26758431515606e-05,-0.00027195948181413243,-6.108404266219614e-05,-5.1140458168452696e-05,1.1987695936577225e-05,-0.00012490908304885195,-7.275000085238403e-06,0.00039391398419933056,-0.0007659333362603813,0.0002772329386222562,0.0010202801113967503,-8.686537829036903e-05,-6.022108017808036e-05,0.0007626914789737883,0.7560665011405945,46.62337875366211,5.663662433624268,-19.586824417114258,-0.7665916085243225,-2.3788485527038574,0.17337362468242645,0
49,0.23984837532043457,-0.7084590792655945,-46.57577133178711,-5.663662433624268,19.559053421020508,0.7665916085243225,2.3852572441101074,-0.21457235515117645,0.0,0.0,0.0,0.0,0.0,0.0,0.0,-0.7801823836786151,-0.25924039227784645,-0.5088467670829383,0.35323632620821366,0.1841521528473232,0.1119783042619578,-0.19107547865583882,0.878151512553938,0.7557300556016235,-0.28249206322356285,-1.669046272160714,0.1414057822842797,2.403569314373864,1.0273499483979496,0.878092876070424,0.7554597494309409,-0.2825552651693207,-1.6690993614607135,0.1414185955172306,2.4034451173676383,1.0273381002308042,-0.00137675560813181,-0.00010646784063007398,-0.0004786341784077009,-0.000203458884289404,1.346591192409382e-05,-0.0002858948722790899,0.0009244839858512605,0.0,0.0,0.0,0.0,0.0,0.0,0.0,-5.863648351400741e-05,-0.00027030617068268814,-6.320194575787363e-05,-5.308929999947587e-05,1.281323295090897e-05,-0.00012419700622556817,-1.184816714538961e-05,0.00137675560813181,0.00010646784063007398,0.0004786341784077009,0.000203458884289404,-1.346591192409382e-05,0.0002858948722790899,-0.0009244839858512605,0.7084590792655945,46.57577133178711,5.663662433624268,-19.559053421020508,-0.7665916085243225,-2.3852572441101074,0.21457235515117645,0
50,0.24485254287719727,-0.7084590792655945,-46.57577133178711,-5.663662433624268,19.559053421020508,0.7665916085243225,2.3852572441101074,-0.21457235515117645,0.0,0.0,0.0,0.0,0.0,0.0,0.0,-0.7801823836786151,-0.25924039227784645,-0.5088467670829383,0.35323632620821366,0.1841521528473232,0.1119783042619578,-0.19107547865583882,0.878151512553938,0.7557300556016235,-0.28249206322356285,-1.669046272160714,0.1414057822842797,2.403569314373864,1.0273499483979496,0.878092876070424,0.7554597494309409,-0.2825552651693207,-1.6690993614607135,0.1414185955172306,2.4034451173676383,1.0273381002308042,-0.00137675560813181,-0.00010646784063007398,-0.0004786341784077009,-0.000203458884289404,1.346591192409382e-05,-0.0002858948722790899,0.0009244839858512605,0.0,0.0,0.0,0.0,0.0,0.0,0.0,-5.863648351400741e-05,-0.00027030617068268814,-6.320194575787363e-05,-5.308929999947587e-05,1.281323295090897e-05,-0.00012419700622556817,-1.184816714538961e-05,0.00137675560813181,0.00010646784063007398,0.0004786341784077009,0.000203458884289404,-1.346591192409382e-05,0.0002858948722790899,-0.0009244839858512605,0.7084590792655945,46.57577133178711,5.663662433624268,-19.559053421020508,-0.7665916085243225,-2.3852572441101074,0.21457235515117645,0
51,0.24985647201538086,-0.7322627902030945,-46.59957504272461,-5.711269855499268,19.559053421020508,0.7665916085243225,2.3788485527038574,-0.13217489421367645,0.0,0.0,0.0,0.0,0.0,0.0,0.0,-0.7677781289880066,-0.25777326270912426,-0.5002138679569197,0.3553956217428297,0.18386075899984358,0.11254953965614681,-0.1901777769242922,0.8781531539713092,0.7557296584865586,-0.28249076214722846,-1.669046272160714,0.14140969623526672,2.403570026450687,1.0273407931245035,0.878092876070424,0.7554597494309409,-0.2825552651693207,-1.6690993614607135,0.1414185955172306,2.4034451173676383,1.0273381002308042,-0.0002466816054246766,0.00044970024762015516,0.001310752071569102,0.00010891133177279834,-1.3459045645409818e-05,-4.568452636760039e-05,-0.0027765121708280436,0.0,0.0,0.0,0.0,0.0,0.0,0.0,-6.0277900885252755e-05,-0.00026990905561774525,-6.4503022092266e-05,-5.308929999947587e-05,8.899281963875572e-06,-0.00012490908304885195,-2.692893699363097e-06,0.0002466816054246766,-0.00044970024762015516,-0.001310752071569102,-0.00010891133177279834,1.3459045645409818e-05,4.568452636760039e-05,0.0027765121708280436,0.7322627902030945,46.59957504272461,5.711269855499268,-19.559053421020508,-0.7665916085243225,-2.3788485527038574,0.13217489421367645,0
52,0.2548532485961914,-0.7322627902030945,-46.59957504272461,-5.711269855499268,19.559053421020508,0.7665916085243225,2.3788485527038574,-0.13217489421367645,0.0,0.0,0.0,0.0,0.0,0.0,0.0,-0.7677781289880066,-0.25777326270912426,-0.5002138679569197,0.3553956217428297,0.18386075899984358,0.11254953965614681,-0.1901777769242922,0.8781531539713092,0.7557296584865586,-0.28249076214722846,-1.669046272160714,0.14140969623526672,2.403570026450687,1.0273407931245035,0.878092876070424,0.7554597494309409,-0.2825552651693207,-1.6690993614607135,0.1414185955172306,2.4034451173676383,1.0273381002308042,-0.0002466816054246766,0.00044970024762015516,0.001310752071569102,0.00010891133177279834,-1.3459045645409818e-05,-4.568452636760039e-05,-0.0027765121708280436,0.0,0.0,0.0,0.0,0.0,0.0,0.0,-6.0277900885252755e-05,-0.00026990905561774525,-6.4503022092266e-05,-5.308929999947587e-05,8.899281963875572e-06,-0.00012490908304885195,-2.692893699363097e-06,0.0002466816054246766,-0.00044970024762015516,-0.001310752071569102,-0.00010891133177279834,1.3459045645409818e-05,4.568452636760039e-05,0.0027765121708280436,0.7322627902030945,46.59957504272461,5.711269855499268,-19.559053421020508,-0.7665916085243225,-2.3788485527038574,0.13217489421367645,0
53,0.2598385810852051,-0.7838374972343445,-46.62337875366211,-5.663662433624268,19.586824417114258,0.7665916085243225,2.3916659355163574,-0.20083944499492645,0.0,0.0,0.0,0.0,0.0,0.0,0.0,-0.7672791607548034,-0.24385689273252126,-0.49808255896581444,0.34861128473458375,0.1834045443501413,0.11200777164529883,-0.1903863834935669,0.8781567725827342,0.7557310682134701,-0.28249417210716926,-1.669048221002545,0.14140859332881173,2.403568602297041,1.0273484225190348,0.878092876070424,0.7554597494309409,-0.2825552651693207,-1.6690993614607135,0.1414185955172306,2.4034451173676383,1.0273381002308042,0.0007217467034731013,0.0014949201432213806,0.00016783395932794197,-0.000696507372828426,0.00014021730008474293,-0.0005332140561572852,0.00021723487257068749,0.0,0.0,0.0,0.0,0.0,0.0,0.0,-6.389651231020199e-05,-0.000271318782529284,-6.109306215146271e-05,-5.1140458168452696e-05,1.0002188418872793e-05,-0.00012348492940272848,-1.0322288230613097e-05,-0.0007217467034731013,-0.0014949201432213806,-0.00016783395932794197,0.000696507372828426,-0.00014021730008474293,0.0005332140561572852,-0.00021723487257068749,0.7838374972343445,46.62337875366211,5.663662433624268,-19.586824417114258,-0.7665916085243225,-2.3916659355163574,0.20083944499492645,0
54,0.26485180854797363,-0.7838374972343445,-46.62337875366211,-5.663662433624268,19.586824417114258,0.7665916085243225,2.3916659355163574,-0.20083944499492645,0.0,0.0,0.0,0.0,0.0,0.0,0.0,-0.7672791607548034,-0.24385689273252126,-0.49808255896581444,0.34861128473458375,0.1834045443501413,0.11200777164529883,-0.1903863834935669,0.8781567725827342,0.7557310682134701,-0.28249417210716926,-1.669048221002545,0.14140859332881173,2.403568602297041,1.0273484225190348,0.878092876070424,0.7554597494309409,-0.2825552651693207,-1.6690993614607135,0.1414185955172306,2.4034451173676383,1.0273381002308042,0.0007217467034731013,0.0014949201432213806,0.00016783395932794197,-0.000696507372828426,0.00014021730008474293,-0.0005332140561572852,0.00021723487257068749,0.0,0.0,0.0,0.0,0.0,0.0,0.0,-6.389651231020199e-05,-0.000271318782529284,-6.109306215146271e-05,-5.1140458168452696e-05,1.0002188418872793e-05,-0.00012348492940272848,-1.0322288230613097e-05,-0.0007217467034731013,-0.0014949201432213806,-0.00016783395932794197,0.000696507372828426,-0.00014021730008474293,0.0005332140561572852,-0.00021723487257068749,0.7838374972343445,46.62337875366211,5.663662433624268,-19.586824417114258,-0.7665916085243225,-2.3916659355163574,0.20083944499492645,0
55,0.2698812484741211,-0.8076412081718445,-46.57577133178711,-5.711269855499268,19.559053421020508,0.7665916085243225,2.3916659355163574,-0.19351522624492645,0.0,0.0,0.0,0.0,0.0,0.0,0.0,-0.7679370394903786,-0.2623943899882464,-0.49993860572462245,0.3593544097433813,0.18388714873609993,0.11358503251982487,-0.19033225200000162,0.8781608710228602,0.7557298982902577,-0.28249084022363447,-1.669046272160714,0.14140646493943104,2.4035686037505912,1.0273476087169515,0.878092876070424,0.7554597494309409,-0.2825552651693207,-1.6690993614607135,0.1414185955172306,2.4034451173676383,1.0273381002308042,0.0011056908679877232,-0.0005730893075976358,0.0010389293941633125,6.938402650831473e-05,0.00014414506618620773,-0.0005186112329292535,-0.0001242875095758879,0.0,0.0,0.0,0.0,0.0,0.0,0.0,-6.799495243625664e-05,-0.0002701488593168655,-6.44249456862589e-05,-5.308929999947587e-05,1.2130577799557285e-05,-0.0001234863829528976,-9.508486147336015e-06,-0.0011056908679877232,0.0005730893075976358,-0.0010389293941633125,-6.938402650831473e-05,-0.00014414506618620773,0.0005186112329292535,0.0001242875095758879,0.8076412081718445,46.57577133178711,5.711269855499268,-19.559053421020508,-0.7665916085243225,-2.3916659355163574,0.19351522624492645,0
56,0.2748568058013916,-0.8076412081718445,-46.57577133178711,-5.711269855499268,19.559053421020508,0.7665916085243225,2.3916659355163574,-0.19351522624492645,0.0,0.0,0.0,0.0,0.0,0.0,0.0,-0.7679370394903786,-0.2623943899882464,-0.49993860572462245,0.3593544097433813,0.18388714873609993,0.11358503251982487,-0.19033225200000162,0.8781608710228602,0.7557298982902577,-0.28249084022363447,-1.669046272160714,0.14140646493943104,2.4035686037505912,1.0273476087169515,0.878092876070424,0.7554597494309409,-0.2825552651693207,-1.6690993614607135,0.1414185955172306,2.4034451173676383,1.0273381002308042,0.0011056908679877232,-0.0005730893075976358,0.0010389293941633125,6.938402650831473e-05,0.00014414506618620773,-0.0005186112329292535,-0.0001242875095758879,0.0,0.0,0.0,0.0,0.0,0.0,0.0,-6.799495243625664e-05,-0.0002701488593168655,-6.44249456862589e-05,-5.308929999947587e-05,1.2130577799557285e-05,-0.0001234863829528976,-9.508486147336015e-06,-0.0011056908679877232,0.0005730893075976358,-0.0010389293941633125,-6.938402650831473e-05,-0.00014414506618620773,0.0005186112329292535,0.0001242875095758879,0.8076412081718445,46.57577133178711,5.711269855499268,-19.559053421020508,-0.7665916085243225,-2.3916659355163574,0.19351522624492645,0
57,0.2798621654510498,-0.7838374972343445,-46.57577133178711,-5.711269855499268,19.586824417114258,0.7730002999305725,2.3788485527038574,-0.20083944499492645,0.0,0.0,0.0,0.0,0.0,0.0,0.0,-0.779228674453363,-0.25735303802168896,-0.5073156190643218,0.35701992179241243,0.18473428084392826,0.11308363196021673,-0.19114853763883508,0.8781567992818695,0.7557305845599227,-0.28248795411017075,-1.6690482210388837,0.14140471873892604,2.403570026450695,1.0273484225190348,0.878092876070424,0.7554597494309409,-0.2825552651693207,-1.6690993614607135,0.1414185955172306,2.4034451173676383,1.0273381002308042,-0.00021721590570591,-0.00033949247005452774,0.0002797851184674556,-0.0007081117776903689,-3.013046805332473e-05,-8.087052439786087e-05,0.00038092563904773205,0.0,0.0,0.0,0.0,0.0,0.0,0.0,-6.392321144554902e-05,-0.00027083512898185,-6.731105914997704e-05,-5.114042182974288e-05,1.3876778304555693e-05,-0.00012490908305684556,-1.0322288230613097e-05,0.00021721590570591,0.00033949247005452774,-0.0002797851184674556,0.0007081117776903689,3.013046805332473e-05,8.087052439786087e-05,-0.00038092563904773205,0.7838374972343445,46.57577133178711,5.711269855499268,-19.586824417114258,-0.7730002999305725,-2.3788485527038574,0.20083944499492645,0
58,0.28485751152038574,-0.7838374972343445,-46.57577133178711,-5.711269855499268,19.586824417114258,0.7730002999305725,2.3788485527038574,-0.20083944499492645,0.0,0.0,0.0,0.0,0.0,0.0,0.0,-0.779228674453363,-0.25735303802168896,-0.5073156190643218,0.35701992179241243,0.18473428084392826,0.11308363196021673,-0.19114853763883508,0.8781567992818695,0.7557305845599227,-0.28248795411017075,-1.6690482210388837,0.14140471873892604,2.403570026450695,1.0273484225190348,0.878092876070424,0.7554597494309409,-0.2825552651693207,-1.6690993614607135,0.1414185955172306,2.4034451173676383,1.0273381002308042,-0.00021721590570591,-0.00033949247005452774,0.0002797851184674556,-0.0007081117776903689,-3.013046805332473e-05,-8.087052439786087e-05,0.00038092563904773205,0.0,0.0,0.0,0.0,0.0,0.0,0.0,-6.392321144554902e-05,-0.00027083512898185,-6.731105914997704e-05,-5.114042182974288e-05,1.3876778304555693e-05,-0.00012490908305684556,-1.0322288230613097e-05,0.00021721590570591,0.00033949247005452774,-0.0002797851184674556,0.0007081117776903689,3.013046805332473e-05,8.087052439786087e-05,-0.00038092563904773205,0.7838374972343445,46.57577133178711,5.711269855499268,-19.586824417114258,-0.7730002999305725,-2.3788485527038574,0.20083944499492645,0
59,0.28980302810668945,-0.7838374972343445,-46.57577133178711,-5.711269855499268,19.586824417114258,0.7730002999305725,2.3788485527038574,-0.20083944499492645,0.0,0.0,0.0,0.0,0.0,0.0,0.0,-0.779228674453363,-0.25735303802168896,-0.5073156190643218,0.35701992179241243,0.18473428084392826,0.11308363196021673,-0.19114853763883508,0.8781567992818695,0.7557305845599227,-0.28248795411017075,-1.6690482210388837,0.14140471873892604,2.403570026450695,1.0273484225190348,0.878092876070424,0.7554597494309409,-0.2825552651693207,-1.6690993614607135,0.1414185955172306,2.4034451173676383,1.0273381002308042,-0.00021721590570591,-0.00033949247005452774,0.0002797851184674556,-0.0007081117776903689,-3.013046805332473e-05,-8.087052439786087e-05,0.00038092563904773205,0.0,0.0,0.0,0.0,0.0,0.0,0.0,-6.392321144554902e-05,-0.00027083512898185,-6.731105914997704e-05,-5.114042182974288e-05,1.3876778304555693e-05,-0.00012490908305684556,-1.0322288230613097e-05,0.00021721590570591,0.00033949247005452774,-0.0002797851184674556,0.0007081117776903689,3.013046805332473e-05,8.087052439786087e-05,-0.00038092563904773205,0.7838374972343445,46.57577133178711,5.711269855499268,-19.586824417114258,-0.7730002999305725,-2.3788485527038574,0.20083944499492645,0
60,0.29483723640441895,-0.7838374972343445,-46.57577133178711,-5.711269855499268,19.586824417114258,0.7730002999305725,2.3788485527038574,-0.20083944499492645,0.0,0.0,0.0,0.0,0.0,0.0,0.0,-0.779228674453363,-0.25735303802168896,-0.5073156190643218,0.35701992179241243,0.18473428084392826,0.11308363196021673,-0.19114853763883508,0.8781567992818695,0.7557305845599227,-0.28248795411017075,-1.6690482210388837,0.14140471873892604,2.403570026450695,1.0273484225190348,0.878092876070424,0.7554597494309409,-0.2825552651693207,-1.6690993614607135,0.1414185955172306,2.4034451173676383,1.0273381002308042,-0.00021721590570591,-0.00033949247005452774,0.0002797851184674556,-0.0007081117776903689,-3.013046805332473e-05,-8.087052439786087e-05,0.00038092563904773205,0.0,0.0,0.0,0.0,0.0,0.0,0.0,-6.392321144554902e-05,-0.00027083512898185,-6.731105914997704e-05,-5.114042182974288e-05,1.3876778304555693e-05,-0.00012490908305684556,-1.0322288230613097e-05,0.00021721590570591,0.00033949247005452774,-0.0002797851184674556,0.0007081117776903689,3.013046805332473e-05,8.087052439786087e-05,-0.00038092563904773205,0.7838374972343445,46.57577133178711,5.711269855499268,-19.586824417114258,-0.7730002999305725,-2.3788485527038574,0.20083944499492645,0
61,0.2998542785644531,-0.8354122042655945,-46.62337875366211,-5.687466144561768,19.535249710083008,0.7665916085243225,2.3788485527038574,-0.21457235515117645,0.0,0.0,0.0,0.0,0.0,0.0,0.0,-0.7773553776624667,-0.25357838810824324,-0.5042899264000238,0.35603468954545864,0.18493644843522744,0.1127347286184103,-0.19181513754745871,0.8781606376922529,0.7557320529720803,-0.28249251067891407,-1.6690446017248588,0.14140905271190618,2.403570026450687,1.0273499483979411,0.878092876070424,0.7554597494309409,-0.2825552651693207,-1.6690993614607135,0.1414185955172306,2.4034451173676383,1.0273381002308042,0.000654189095256206,0.0009221713898772111,0.00019870200887608225,0.0005854451337001201,2.820814508113155e-05,-1.57917366450847e-05,0.001079764622634903,0.0,0.0,0.0,0.0,0.0,0.0,0.0,-6.776162182897671e-05,-0.00027230354113949584,-6.275449040665793e-05,-5.475973585467031e-05,9.542805324419534e-06,-0.00012490908304885195,-1.1848167136951915e-05,-0.000654189095256206,-0.0009221713898772111,-0.00019870200887608225,-0.0005854451337001201,-2.820814508113155e-05,1.57917366450847e-05,-0.001079764622634903,0.8354122042655945,46.62337875366211,5.687466144561768,-19.535249710083008,-0.7665916085243225,-2.3788485527038574,0.21457235515117645,0
62,0.3048419952392578,-0.8354122042655945,-46.62337875366211,-5.687466144561768,19.535249710083008,0.7665916085243225,2.3788485527038574,-0.21457235515117645,0.0,0.0,0.0,0.0,0.0,0.0,0.0,-0.7773553776624667,-0.25357838810824324,-0.5042899264000238,0.35603468954545864,0.18493644843522744,0.1127347286184103,-0.19181513754745871,0.8781606376922529,0.7557320529720803,-0.28249251067891407,-1.6690446017248588,0.14140905271190618,2.403570026450687,1.0273499483979411,0.878092876070424,0.7554597494309409,-0.2825552651693207,-1.6690993614607135,0.1414185955172306,2.4034451173676383,1.0273381002308042,0.000654189095256206,0.0009221713898772111,0.00019870200887608225,0.0005854451337001201,2.820814508113155e-05,-1.57917366450847e-05,0.001079764622634903,0.0,0.0,0.0,0.0,0.0,0.0,0.0,-6.776162182897671e-05,-0.00027230354113949584,-6.275449040665793e-05,-5.475973585467031e-05,9.542805324419534e-06,-0.00012490908304885195,-1.1848167136951915e-05,-0.000654189095256206,-0.0009221713898772111,-0.00019870200887608225,-0.0005854451337001201,-2.820814508113155e-05,1.57917366450847e-05,-0.001079764622634903,0.8354122042655945,46.62337875366211,5.687466144561768,-19.535249710083008,-0.7665916085243225,-2.3788485527038574,0.21457235515117645,0
63,0.3098428249359131,-0.7838374972343445,-46.62337875366211,-5.663662433624268,19.586824417114258,0.7665916085243225,2.3852572441101074,-0.13858358561992645,0.0,0.0,0.0,0.0,0.0,0.0,0.0,-0.7770212227564594,-0.2578047255178098,-0.5013773818644938,0.3570302893916949,0.18434361461694074,0.11266316746120143,-0.19264267967887316,0.8781567722510129,0.7557312262184691,-0.2824941811310616,-1.669048221002545,0.14140542629406896,2.403569314373864,1.0273415052013264,0.878092876070424,0.7554597494309409,-0.2825552651693207,-1.6690993614607135,0.1414185955172306,2.4034451173676383,1.0273381002308042,-0.0002282318239522773,0.0009905442875472888,-0.0006837388048557543,-0.0008398783318312609,2.888202470900527e-05,-0.00030656770363698163,-0.002288201604345132,0.0,0.0,0.0,0.0,0.0,0.0,0.0,-6.389618058888491e-05,-0.00027147678752825755,-6.108403825910713e-05,-5.1140458168452696e-05,1.316922316163538e-05,-0.00012419700622556817,-3.404970522202788e-06,0.0002282318239522773,-0.0009905442875472888,0.0006837388048557543,0.0008398783318312609,-2.888202470900527e-05,0.00030656770363698163,0.002288201604345132,0.7838374972343445,46.62337875366211,5.663662433624268,-19.586824417114258,-0.7665916085243225,-2.3852572441101074,0.13858358561992645,0
64,0.31484222412109375,-0.7838374972343445,-46.62337875366211,-5.663662433624268,19.586824417114258,0.7665916085243225,2.3852572441101074,-0.13858358561992645,0.0,0.0,0.0,0.0,0.0,0.0,0.0,-0.7770212227564594,-0.2578047255178098,-0.5013773818644938,0.3570302893916949,0.18434361461694074,0.11266316746120143,-0.19264267967887316,0.8781567722510129,0.7557312262184691,-0.2824941811310616,-1.669048221002545,0.14140542629406896,2.403569314373864,1.0273415052013264,0.878092876070424,0.7554597494309409,-0.2825552651693207,-1.6690993614607135,0.1414185955172306,2.4034451173676383,1.0273381002308042,-0.0002282318239522773,0.0009905442875472888,-0.0006837388048557543,-0.0008398783318312609,2.888202470900527e-05,-0.00030656770363698163,-0.002288201604345132,0.0,0.0,0.0,0.0,0.0,0.0,0.0,-6.389618058888491e-05,-0.00027147678752825755,-6.108403825910713e-05,-5.1140458168452696e-05,1.316922316163538e-05,-0.00012419700622556817,-3.404970522202788e-06,0.0002282318239522773,-0.0009905442875472888,0.0006837388048557543,0.0008398783318312609,-2.888202470900527e-05,0.00030656770363698163,0.002288201604345132,0.7838374972343445,46.62337875366211,5.663662433624268,-19.586824417114258,-0.7665916085243225,-2.3852572441101074,0.13858358561992645,0
65,0.31993651390075684,-0.7838374972343445,-46.62337875366211,-5.687466144561768,19.586824417114258,0.7730002999305725,2.3788485527038574,-0.20083944499492645,0.0,0.0,0.0,0.0,0.0,0.0,0.0,-0.7879170227272422,-0.2642988896939406,-0.5076943062289704,0.35782949958092264,0.18396019027303662,0.11296486657662873,-0.1932801312694758,0.8781570155275016,0.755731014951477,-0.2824924846948264,-1.669048221002545,0.14140574222390748,2.403570026450687,1.0273484225190348,0.878092876070424,0.7554597494309409,-0.2825552651693207,-1.6690993614607135,0.1414185955172306,2.4034451173676383,1.0273381002308042,-0.0005198465460255589,0.0005911030190192916,-0.0001115515018952289,-0.0007366311358878356,-0.0001387514429154848,-2.4948147096630502e-05,0.00040082629438993904,0.0,0.0,0.0,0.0,0.0,0.0,0.0,-6.413945707761659e-05,-0.00027126552053613473,-6.278047449431723e-05,-5.1140458168452696e-05,1.2853293323122905e-05,-0.00012490908304885195,-1.0322288230613097e-05,0.0005198465460255589,-0.0005911030190192916,0.0001115515018952289,0.0007366311358878356,0.0001387514429154848,2.4948147096630502e-05,-0.00040082629438993904,0.7838374972343445,46.62337875366211,5.687466144561768,-19.586824417114258,-0.7730002999305725,-2.3788485527038574,0.20083944499492645,0
66,0.3248410224914551,-0.7838374972343445,-46.62337875366211,-5.687466144561768,19.586824417114258,0.7730002999305725,2.3788485527038574,-0.20083944499492645,0.0,0.0,0.0,0.0,0.0,0.0,0.0,-0.7879170227272422,-0.2642988896939406,-0.5076943062289704,0.35782949958092264,0.18396019027303662,0.11296486657662873,-0.1932801312694758,0.8781570155275016,0.755731014951477,-0.2824924846948264,-1.669048221002545,0.14140574222390748,2.403570026450687,1.0273484225190348,0.878092876070424,0.7554597494309409,-0.2825552651693207,-1.6690993614607135,0.1414185955172306,2.4034451173676383,1.0273381002308042,-0.0005198465460255589,0.0005911030190192916,-0.0001115515018952289,-0.0007366311358878356,-0.0001387514429154848,-2.4948147096630502e-05,0.00040082629438993904,0.0,0.0,0.0,0.0,0.0,0.0,0.0,-6.413945707761659e-05,-0.00027126552053613473,-6.278047449431723e-05,-5.1140458168452696e-05,1.2853293323122905e-05,-0.00012490908304885195,-1.0322288230613097e-05,0.0005198465460255589,-0.0005911030190192916,0.0001115515018952289,0.0007366311358878356,0.0001387514429154848,2.4948147096630502e-05,-0.00040082629438993904,0.7838374972343445,46.62337875366211,5.687466144561768,-19.586824417114258,-0.7730002999305725,-2.3788485527038574,0.20083944499492645,0
67,0.32984304428100586,-0.7560665011405945,-46.64718246459961,-5.635891437530518,19.559053421020508,0.7730002999305725,2.3852572441101074,-0.16604940593242645,0.0,0.0,0.0,0.0,0.0,0.0,0.0,-0.7839173159837346,-0.255531270769083,-0.5045970411561469,0.3545082031500353,0.1835908014828238,0.11227828916193028,-0.19242563869668738,0.8781548234091655,0.7557355162730568,-0.28249332161071106,-1.669046272160714,0.14140585610509004,2.403569314373864,1.027344556959139,0.878092876070424,0.7554597494309409,-0.2825552651693207,-1.6690993614607135,0.1414185955172306,2.4034451173676383,1.0273381002308042,-0.001177597975486073,0.001351195133827871,-0.001051758409513708,0.00015361892628761614,-0.0001847431126858231,-0.00020319858506926067,-0.0009103363681562008,0.0,0.0,0.0,0.0,0.0,0.0,0.0,-6.194733874154146e-05,-0.00027576684211594316,-6.194355860966727e-05,-5.308929999947587e-05,1.2739412140555517e-05,-0.00012419700622556817,-6.456728334880424e-06,0.001177597975486073,-0.001351195133827871,0.001051758409513708,-0.00015361892628761614,0.0001847431126858231,0.00020319858506926067,0.0009103363681562008,0.7560665011405945,46.64718246459961,5.635891437530518,-19.559053421020508,-0.7730002999305725,-2.3852572441101074,0.16604940593242645,0
68,0.3348543643951416,-0.7560665011405945,-46.64718246459961,-5.635891437530518,19.559053421020508,0.7730002999305725,2.3852572441101074,-0.16604940593242645,0.0,0.0,0.0,0.0,0.0,0.0,0.0,-0.7839173159837346,-0.255531270769083,-0.5045970411561469,0.3545082031500353,0.1835908014828238,0.11227828916193028,-0.19242563869668738,0.8781548234091655,0.7557355162730568,-0.28249332161071106,-1.669046272160714,0.14140585610509004,2.403569314373864,1.027344556959139,0.878092876070424,0.7554597494309409,-0.2825552651693207,-1.6690993614607135,0.1414185955172306,2.4034451173676383,1.0273381002308042,-0.001177597975486073,0.001351195133827871,-0.001051758409513708,0.00015361892628761614,-0.0001847431126858231,-0.00020319858506926067,-0.0009103363681562008,0.0,0.0,0.0,0.0,0.0,0.0,0.0,-6.194733874154146e-05,-0.00027576684211594316,-6.194355860966727e-05,-5.308929999947587e-05,1.2739412140555517e-05,-0.00012419700622556817,-6.456728334880424e-06,0.001177597975486073,-0.001351195133827871,0.001051758409513708,-0.00015361892628761614,0.0001847431126858231,0.00020319858506926067,0.0009103363681562008,0.7560665011405945,46.64718246459961,5.635891437530518,-19.559053421020508,-0.7730002999305725,-2.3852572441101074,0.16604940593242645,0
69,0.3401327133178711,-0.7838374972343445,-46.57577133178711,-5.687466144561768,19.586824417114258,0.7546897530555725,2.3852572441101074,-0.22098104655742645,0.0,0.0,0.0,0.0,0.0,0.0,0.0,-0.7874777540629392,-0.24866853140270587,-0.5065710061651553,0.3499858712708901,0.18372917501166788,0.11205581645265832,-0.19258107055812532,0.878156808706144,0.7557284767701357,-0.2824904036499283,-1.669048221002545,0.14141025299095503,2.403569314373864,1.027350660474764,0.878092876070424,0.7554597494309409,-0.2825552651693207,-1.6690993614607135,0.1414185955172306,2.4034451173676383,1.0273381002308042,-0.0002711869489536064,0.0001893956702218867,2.2510314062144966e-05,-0.0008139131117595232,0.000534154020873558,-0.00018007997554281058,0.0010369827050903551,0.0,0.0,0.0,0.0,0.0,0.0,0.0,-6.393263572002095e-05,-0.0002687273391948075,-6.486151939244511e-05,-5.1140458168452696e-05,8.342526275573192e-06,-0.00012419700622556817,-1.2560243959791606e-05,0.0002711869489536064,-0.0001893956702218867,-2.2510314062144966e-05,0.0008139131117595232,-0.000534154020873558,0.00018007997554281058,-0.0010369827050903551,0.7838374972343445,46.57577133178711,5.687466144561768,-19.586824417114258,-0.7546897530555725,-2.3852572441101074,0.22098104655742645,0
70,0.34485459327697754,-0.7838374972343445,-46.57577133178711,-5.687466144561768,19.586824417114258,0.7546897530555725,2.3852572441101074,-0.22098104655742645,0.0,0.0,0.0,0.0,0.0,0.0,0.0,-0.7874777540629392,-0.24866853140270587,-0.5065710061651553,0.3499858712708901,0.18372917501166788,0.11205581645265832,-0.19258107055812532,0.878156808706144,0.7557284767701357,-0.2824904036499283,-1.669048221002545,0.14141025299095503,2.403569314373864,1.027350660474764,0.878092876070424,0.7554597494309409,-0.2825552651693207,-1.6690993614607135,0.1414185955172306,2.4034451173676383,1.0273381002308042,-0.0002711869489536064,0.0001893956702218867,2.2510314062144966e-05,-0.0008139131117595232,0.000534154020873558,-0.00018007997554281058,0.0010369827050903551,0.0,0.0,0.0,0.0,0.0,0.0,0.0,-6.393263572002095e-05,-0.0002687273391948075,-6.486151939244511e-05,-5.1140458168452696e-05,8.342526275573192e-06,-0.00012419700622556817,-1.2560243959791606e-05,0.0002711869489536064,-0.0001893956702218867,-2.2510314062144966e-05,0.0008139131117595232,-0.000534154020873558,0.00018007997554281058,-0.0010369827050903551,0.7838374972343445,46.57577133178711,5.687466144561768,-19.586824417114258,-0.7546897530555725,-2.3852572441101074,0.22098104655742645,0
71,0.3498880863189697,-0.7838374972343445,-46.57577133178711,-5.687466144561768,19.586824417114258,0.7546897530555725,2.3852572441101074,-0.22098104655742645,0.0,0.0,0.0,0.0,0.0,0.0,0.0,-0.7874777540629392,-0.24866853140270587,-0.5065710061651553,0.3499858712708901,0.18372917501166788,0.11205581645265832,-0.19258107055812532,0.878156808706144,0.7557284767701357,-0.2824904036499283,-1.669048221002545,0.14141025299095503,2.403569314373864,1.027350660474764,0.878092876070424,0.7554597494309409,-0.2825552651693207,-1.6690993614607135,0.1414185955172306,2.4034451173676383,1.0273381002308042,-0.0002711869489536064,0.0001893956702218867,2.2510314062144966e-05,-0.0008139131117595232,0.000534154020873558,-0.00018007997554281058,0.0010369827050903551,0.0,0.0,0.0,0.0,0.0,0.0,0.0,-6.393263572002095e-05,-0.0002687273391948075,-6.486151939244511e-05,-5.1140458168452696e-05,8.342526275573192e-06,-0.00012419700622556817,-1.2560243959791606e-05,0.0002711869489536064,-0.0001893956702218867,-2.2510314062144966e-05,0.0008139131117595232,-0.000534154020873558,0.00018007997554281058,-0.0010369827050903551,0.7838374972343445,46.57577133178711,5.687466144561768,-19.586824417114258,-0.7546897530555725,-2.3852572441101074,0.22098104655742645,0
72,0.35486340522766113,-0.7838374972343445,-46.59957504272461,-5.663662433624268,19.487642288208008,0.7665916085243225,2.3724398612976074,-0.19351522624492645,0.0,0.0,0.0,0.0,0.0,0.0,0.0,-0.7713596843617164,-0.2571065137070482,-0.49875156152909067,0.3563041057744601,0.18331809219835107,0.11368736192797932,-0.19232812932892976,0.8781568531942712,0.7557315779209134,-0.28249418080610456,-1.6690412608531482,0.14140662636224996,2.40357073852751,1.0273476087169515,0.878092876070424,0.7554597494309409,-0.2825552651693207,-1.6690993614607135,0.1414185955172306,2.4034451173676383,1.0273381002308042,0.0008829027762772077,0.00045597560257487076,-0.00014319504513928094,0.0019122597002055567,7.2324426493385e-05,0.00018845955299947372,0.0004801083762706374,0.0,0.0,0.0,0.0,0.0,0.0,0.0,-6.397712384720311e-05,-0.0002718284899725365,-6.108436321616839e-05,-5.810060756528124e-05,1.1969154980639996e-05,-0.00012562115987169165,-9.508486147336015e-06,-0.0008829027762772077,-0.00045597560257487076,0.00014319504513928094,-0.0019122597002055567,-7.2324426493385e-05,-0.00018845955299947372,-0.0004801083762706374,0.7838374972343445,46.59957504272461,5.663662433624268,-19.487642288208008,-0.7665916085243225,-2.3724398612976074,0.19351522624492645,0
73,0.35986995697021484,-0.7838374972343445,-46.59957504272461,-5.663662433624268,19.487642288208008,0.7665916085243225,2.3724398612976074,-0.19351522624492645,0.0,0.0,0.0,0.0,0.0,0.0,0.0,-0.7713596843617164,-0.2571065137070482,-0.49875156152909067,0.3563041057744601,0.18331809219835107,0.11368736192797932,-0.19232812932892976,0.8781568531942712,0.7557315779209134,-0.28249418080610456,-1.6690412608531482,0.14140662636224996,2.40357073852751,1.0273476087169515,0.878092876070424,0.7554597494309409,-0.2825552651693207,-1.6690993614607135,0.1414185955172306,2.4034451173676383,1.0273381002308042,0.0008829027762772077,0.00045597560257487076,-0.00014319504513928094,0.0019122597002055567,7.2324426493385e-05,0.00018845955299947372,0.0004801083762706374,0.0,0.0,0.0,0.0,0.0,0.0,0.0,-6.397712384720311e-05,-0.0002718284899725365,-6.108436321616839e-05,-5.810060756528124e-05,1.1969154980639996e-05,-0.00012562115987169165,-9.508486147336015e-06,-0.0008829027762772077,-0.00045597560257487076,0.00014319504513928094,-0.0019122597002055567,-7.2324426493385e-05,-0.00018845955299947372,-0.0004801083762706374,0.7838374972343445,46.59957504272461,5.663662433624268,-19.487642288208008,-0.7665916085243225,-2.3724398612976074,0.19351522624492645,0
74,0.3648550510406494,-0.7838374972343445,-46.57577133178711,-5.635891437530518,19.559053421020508,0.7730002999305725,2.3788485527038574,-0.21457235515117645,0.0,0.0,0.0,0.0,0.0,0.0,0.0,-0.7788414009300704,-0.264749298586314,-0.5084418188232874,0.3592497443784519,0.18365738248273047,0.11446815188502855,-0.19240458045791495,0.8781589847352484,0.7557279115900885,-0.2824937899386888,-1.669046272160714,0.14140892717307754,2.403570026450687,1.0273499483979411,0.878092876070424,0.7554597494309409,-0.2825552651693207,-1.6690993614607135,0.1414185955172306,2.4034451173676383,1.0273381002308042,0.0006617951423310811,-0.00019958466194497796,-0.0009273887079841465,3.832992816818694e-06,-0.0001487809051258153,9.609090742911259e-05,0.0011851798547937837,0.0,0.0,0.0,0.0,0.0,0.0,0.0,-6.610866482448241e-05,-0.0002681621591476002,-6.14752306319355e-05,-5.308929999947587e-05,9.668344153057618e-06,-0.00012490908304885195,-1.1848167136951915e-05,-0.0006617951423310811,0.00019958466194497796,0.0009273887079841465,-3.832992816818694e-06,0.0001487809051258153,-9.609090742911259e-05,-0.0011851798547937837,0.7838374972343445,46.57577133178711,5.635891437530518,-19.559053421020508,-0.7730002999305725,-2.3788485527038574,0.21457235515117645,0
75,0.3698446750640869,-0.7838374972343445,-46.57577133178711,-5.635891437530518,19.559053421020508,0.7730002999305725,2.3788485527038574,-0.21457235515117645,0.0,0.0,0.0,0.0,0.0,0.0,0.0,-0.7788414009300704,-0.264749298586314,-0.5084418188232874,0.3592497443784519,0.18365738248273047,0.11446815188502855,-0.19240458045791495,0.8781589847352484,0.7557279115900885,-0.2824937899386888,-1.669046272160714,0.14140892717307754,2.403570026450687,1.0273499483979411,0.878092876070424,0.7554597494309409,-0.2825552651693207,-1.6690993614607135,0.1414185955172306,2.4034451173676383,1.0273381002308042,0.0006617951423310811,-0.00019958466194497796,-0.0009273887079841465,3.832992816818694e-06,-0.0001487809051258153,9.609090742911259e-05,0.0011851798547937837,0.0,0.0,0.0,0.0,0.0,0.0,0.0,-6.610866482448241e-05,-0.0002681621591476002,-6.14752306319355e-05,-5.308929999947587e-05,9.668344153057618e-06,-0.00012490908304885195,-1.1848167136951915e-05,-0.0006617951423310811,0.00019958466194497796,0.0009273887079841465,-3.832992816818694e-06,0.0001487809051258153,-9.609090742911259e-05,-0.0011851798547937837,0.7838374972343445,46.57577133178711,5.635891437530518,-19.559053421020508,-0.7730002999305725,-2.3788485527038574,0.21457235515117645,0
76,0.37482142448425293,-0.7322627902030945,-46.54800033569336,-5.687466144561768,19.511445999145508,0.7665916085243225,2.3916659355163574,-0.18710653483867645,0.0,0.0,0.0,0.0,0.0,0.0,0.0,-0.7641059911252511,-0.2485164866904929,-0.4953379195588039,0.3503250647400988,0.18377101878608565,0.1131766002241935,-0.19238837122501554,0.8781532339290058,0.7557288295378018,-0.2824924845746194,-1.6690429312890034,0.14140965816810858,2.403568602297041,1.0273468966401285,0.878092876070424,0.7554597494309409,-0.2825552651693207,-1.6690993614607135,0.1414185955172306,2.4034451173676383,1.0273381002308042,-0.00033093660627325555,-0.0007630404511117373,0.0009845051136525514,0.0008879787512308356,-0.0001086335965531085,-0.0005125698719082397,-0.0004340915059529011,0.0,0.0,0.0,0.0,0.0,0.0,0.0,-6.035785858182763e-05,-0.00026908010686099715,-6.278059470132824e-05,-5.6430171710086796e-05,8.937349122023486e-06,-0.00012348492940272848,-8.796409324274279e-06,0.00033093660627325555,0.0007630404511117373,-0.0009845051136525514,-0.0008879787512308356,0.0001086335965531085,0.0005125698719082397,0.0004340915059529011,0.7322627902030945,46.54800033569336,5.687466144561768,-19.511445999145508,-0.7665916085243225,-2.3916659355163574,0.18710653483867645,0
77,0.3798408508300781,-0.7322627902030945,-46.54800033569336,-5.687466144561768,19.511445999145508,0.7665916085243225,2.3916659355163574,-0.18710653483867645,0.0,0.0,0.0,0.0,0.0,0.0,0.0,-0.7641059911252511,-0.2485164866904929,-0.4953379195588039,0.3503250647400988,0.18377101878608565,0.1131766002241935,-0.19238837122501554,0.8781532339290058,0.7557288295378018,-0.2824924845746194,-1.6690429312890034,0.14140965816810858,2.403568602297041,1.0273468966401285,0.878092876070424,0.7554597494309409,-0.2825552651693207,-1.6690993614607135,0.1414185955172306,2.4034451173676383,1.0273381002308042,-0.00033093660627325555,-0.0007630404511117373,0.0009845051136525514,0.0008879787512308356,-0.0001086335965531085,-0.0005125698719082397,-0.0004340915059529011,0.0,0.0,0.0,0.0,0.0,0.0,0.0,-6.035785858182763e-05,-0.00026908010686099715,-6.278059470132824e-05,-5.6430171710086796e-05,8.937349122023486e-06,-0.00012348492940272848,-8.796409324274279e-06,0.00033093660627325555,0.0007630404511117373,-0.0009845051136525514,-0.0008879787512308356,0.0001086335965531085,0.0005125698719082397,0.0004340915059529011,0.7322627902030945,46.54800033569336,5.687466144561768,-19.511445999145508,-0.7665916085243225,-2.3916659355163574,0.18710653483867645,0
78,0.38485026359558105,-0.7838374972343445,-46.57577133178711,-5.663662433624268,19.559053421020508,0.7665916085243225,2.3916659355163574,-0.18710653483867645,0.0,0.0,0.0,0.0,0.0,0.0,0.0,-0.7704744644431449,-0.25907343611535316,-0.5047573417728662,0.35671479851300897,0.1838146369444898,0.11421651595805173,-0.19207898747890859,0.8781568022295542,0.7557283590341092,-0.2824941810239168,-1.669046272160714,0.14140963878098425,2.403568602297041,1.0273468966401285,0.878092876070424,0.7554597494309409,-0.2825552651693207,-1.6690993614607135,0.1414185955172306,2.4034451173676383,1.0273381002308042,0.00052119546234338,3.820104181481354e-05,-0.0003634187847741385,1.8026549653126165e-05,0.00010956304270040602,-0.0006269324546669537,0.00018317436840928792,0.0,0.0,0.0,0.0,0.0,0.0,0.0,-6.392615913020094e-05,-0.00026860960316832383,-6.108414540390017e-05,-5.308929999947587e-05,8.956736246346075e-06,-0.00012348492940272848,-8.796409324274279e-06,-0.00052119546234338,-3.820104181481354e-05,0.0003634187847741385,-1.8026549653126165e-05,-0.00010956304270040602,0.0006269324546669537,-0.00018317436840928792,0.7838374972343445,46.57577133178711,5.663662433624268,-19.559053421020508,-0.7665916085243225,-2.3916659355163574,0.18710653483867645,0
79,0.3898491859436035,-0.7838374972343445,-46.57577133178711,-5.663662433624268,19.559053421020508,0.7665916085243225,2.3916659355163574,-0.18710653483867645,0.0,0.0,0.0,0.0,0.0,0.0,0.0,-0.7704744644431449,-0.25907343611535316,-0.5047573417728662,0.35671479851300897,0.1838146369444898,0.11421651595805173,-0.19207898747890859,0.8781568022295542,0.7557283590341092,-0.2824941810239168,-1.669046272160714,0.14140963878098425,2.403568602297041,1.0273468966401285,0.878092876070424,0.7554597494309409,-0.2825552651693207,-1.6690993614607135,0.1414185955172306,2.4034451173676383,1.0273381002308042,0.00052119546234338,3.820104181481354e-05,-0.0003634187847741385,1.8026549653126165e-05,0.00010956304270040602,-0.0006269324546669537,0.00018317436840928792,0.0,0.0,0.0,0.0,0.0,0.0,0.0,-6.392615913020094e-05,-0.00026860960316832383,-6.108414540390017e-05,-5.308929999947587e-05,8.956736246346075e-06,-0.00012348492940272848,-8.796409324274279e-06,-0.00052119546234338,-3.820104181481354e-05,0.0003634187847741385,-1.8026549653126165e-05,-0.00010956304270040602,0.0006269324546669537,-0.00018317436840928792,0.7838374972343445,46.57577133178711,5.663662433624268,-19.559053421020508,-0.7665916085243225,-2.3916659355163574,0.18710653483867645,0
80,0.39486265182495117,-0.7838374972343445,-46.57577133178711,-5.663662433624268,19.559053421020508,0.7665916085243225,2.3916659355163574,-0.18710653483867645,0.0,0.0,0.0,0.0,0.0,0.0,0.0,-0.7704744644431449,-0.25907343611535316,-0.5047573417728662,0.35671479851300897,0.1838146369444898,0.11421651595805173,-0.19207898747890859,0.8781568022295542,0.7557283590341092,-0.2824941810239168,-1.669046272160714,0.14140963878098425,2.403568602297041,1.0273468966401285,0.878092876070424,0.7554597494309409,-0.2825552651693207,-1.6690993614607135,0.1414185955172306,2.4034451173676383,1.0273381002308042,0.00052119546234338,3.820104181481354e-05,-0.0003634187847741385,1.8026549653126165e-05,0.00010956304270040602,-0.0006269324546669537,0.00018317436840928792,0.0,0.0,0.0,0.0,0.0,0.0,0.0,-6.392615913020094e-05,-0.00026860960316832383,-6.108414540390017e-05,-5.308929999947587e-05,8.956736246346075e-06,-0.00012348492940272848,-8.796409324274279e-06,-0.00052119546234338,-3.820104181481354e-05,0.0003634187847741385,-1.8026549653126165e-05,-0.00010956304270040602,0.0006269324546669537,-0.00018317436840928792,0.7838374972343445,46.57577133178711,5.663662433624268,-19.559053421020508,-0.7665916085243225,-2.3916659355163574,0.18710653483867645,0
