rezayati/contactInterpretation/dataset/franka_main/labeled_data/link5/c11_7.csv
index,time,tau_J0,tau_J1,tau_J2,tau_J3,tau_J4,tau_J5,tau_J6,tau_J_d0,tau_J_d1,tau_J_d2,tau_J_d3,tau_J_d4,tau_J_d5,tau_J_d6,tau_ext0,tau_ext1,tau_ext2,tau_ext3,tau_ext4,tau_ext5,tau_ext6,q0,q1,q2,q3,q4,q5,q6,q_d0,q_d1,q_d2,q_d3,q_d4,q_d5,q_d6,dq0,dq1,dq2,dq3,dq4,dq5,dq6,dq_d0,dq_d1,dq_d2,dq_d3,dq_d4,dq_d5,dq_d6,e0,e1,e2,e3,e4,e5,e6,de0,de1,de2,de3,de4,de5,de6,etau_J0,etau_J1,etau_J2,etau_J3,etau_J4,etau_J5,etau_J6,label
1,0.0,-0.17287558317184448,-11.850122451782227,1.2909882068634033,21.669649124145508,0.4809470772743225,2.5271639823913574,-0.17978231608867645,0.0,0.0,0.0,0.0,0.0,0.0,0.0,-0.136612468325766,0.5281735699516324,0.07898085722754529,0.44045721383628317,-0.05506285194988997,0.12639178095407302,-0.22090321443695216,0.17281827679797807,-0.4876483307453908,-0.11145097351843786,-1.946199463697786,0.1337480366031329,2.595545591407352,0.945244558961855,0.1728802376190821,-0.48752024683155326,-0.11147110072896137,-1.9463801863486305,0.1336059019074957,2.595550359778934,0.9452445589611904,0.0004999809062343044,0.0008625901787257546,-0.00036606518202093825,0.0015561330318249365,8.142736894027929e-06,-8.271238574854382e-05,-0.0017494737823240038,0.0,0.0,0.0,0.0,0.0,0.0,0.0,6.196082110404566e-05,0.00012808391383756224,-2.0127210523510075e-05,-0.00018072265084456696,-0.0001421346956372027,4.76837158203125e-06,-6.645795025406187e-13,-0.0004999809062343044,-0.0008625901787257546,0.00036606518202093825,-0.0015561330318249365,-8.142736894027929e-06,8.271238574854382e-05,0.0017494737823240038,0.17287558317184448,11.850122451782227,-1.2909882068634033,-21.669649124145508,-0.4809470772743225,-2.5271639823913574,0.17978231608867645,0
2,0.005000591278076172,-0.12130087614059448,-11.826318740844727,1.2909882068634033,21.741060256958008,0.4864402413368225,2.5271639823913574,-0.24844686686992645,0.0,0.0,0.0,0.0,0.0,0.0,0.0,-0.1438731851615894,0.5289804733219486,0.07185364023675879,0.4341872637185091,-0.05418331733330922,0.12592835635309493,-0.22227240482101654,0.17281536765205863,-0.4876471398341228,-0.11144908642125527,-1.9462047269539189,0.13374742625157038,2.595545591407352,0.9452521883563862,0.1728802376190821,-0.48752024683155326,-0.11147110072896137,-1.9463801863486305,0.1336059019074957,2.595550359778934,0.9452445589611904,-0.0008378221771268398,3.232071479056398e-05,-0.0006593765257605112,-0.00041470829108753213,-0.00013719634483968965,4.7416764161776094e-05,0.0013435509088775832,0.0,0.0,0.0,0.0,0.0,0.0,0.0,6.486996702348424e-05,0.00012689300256951697,-2.201430770609747e-05,-0.00017545939471164118,-0.0001415243440746894,4.76837158203125e-06,-7.629395195829503e-06,0.0008378221771268398,-3.232071479056398e-05,0.0006593765257605112,0.00041470829108753213,0.00013719634483968965,-4.7416764161776094e-05,-0.0013435509088775832,0.12130087614059448,11.826318740844727,-1.2909882068634033,-21.741060256958008,-0.4864402413368225,-2.5271639823913574,0.24844686686992645,0
3,0.010001420974731445,-0.12130087614059448,-11.826318740844727,1.2909882068634033,21.741060256958008,0.4864402413368225,2.5271639823913574,-0.24844686686992645,0.0,0.0,0.0,0.0,0.0,0.0,0.0,-0.1438731851615894,0.5289804733219486,0.07185364023675879,0.4341872637185091,-0.05418331733330922,0.12592835635309493,-0.22227240482101654,0.17281536765205863,-0.4876471398341228,-0.11144908642125527,-1.9462047269539189,0.13374742625157038,2.595545591407352,0.9452521883563862,0.1728802376190821,-0.48752024683155326,-0.11147110072896137,-1.9463801863486305,0.1336059019074957,2.595550359778934,0.9452445589611904,-0.0008378221771268398,3.232071479056398e-05,-0.0006593765257605112,-0.00041470829108753213,-0.00013719634483968965,4.7416764161776094e-05,0.0013435509088775832,0.0,0.0,0.0,0.0,0.0,0.0,0.0,6.486996702348424e-05,0.00012689300256951697,-2.201430770609747e-05,-0.00017545939471164118,-0.0001415243440746894,4.76837158203125e-06,-7.629395195829503e-06,0.0008378221771268398,-3.232071479056398e-05,0.0006593765257605112,0.00041470829108753213,0.00013719634483968965,-4.7416764161776094e-05,-0.0013435509088775832,0.12130087614059448,11.826318740844727,-1.2909882068634033,-21.741060256958008,-0.4864402413368225,-2.5271639823913574,0.24844686686992645,0
4,0.015001773834228516,-0.06972616910934448,-11.826318740844727,1.2909882068634033,21.768831253051758,0.4809470772743225,2.5207552909851074,-0.21457235515117645,0.0,0.0,0.0,0.0,0.0,0.0,0.0,-0.1392991156493523,0.520721284621035,0.08293466003221797,0.4338240763527652,-0.05435786979201034,0.1262781504682271,-0.22284463802560567,0.1728110630748634,-0.48764996668248883,-0.11145120096887938,-1.9462064206991039,0.13374483782052995,2.595546303484175,0.9452484245217508,0.1728802376190821,-0.48752024683155326,-0.11147110072896137,-1.9463801863486305,0.1336059019074957,2.595550359778934,0.9452445589611904,-0.0013414258599679383,8.48162594216817e-05,-0.00016539069484194157,-0.0008783439434929368,-3.611648605914977e-05,0.0002349767698324178,0.00014225345207345775,0.0,0.0,0.0,0.0,0.0,0.0,0.0,6.917454421870306e-05,0.00012971985093557237,-1.989976008198724e-05,-0.00017376564952664708,-0.000138935913034266,4.056294759191559e-06,-3.865560560423198e-06,0.0013414258599679383,-8.48162594216817e-05,0.00016539069484194157,0.0008783439434929368,3.611648605914977e-05,-0.0002349767698324178,-0.00014225345207345775,0.06972616910934448,11.826318740844727,-1.2909882068634033,-21.768831253051758,-0.4809470772743225,-2.5207552909851074,0.21457235515117645,0
5,0.020000219345092773,-0.06972616910934448,-11.826318740844727,1.2909882068634033,21.768831253051758,0.4809470772743225,2.5207552909851074,-0.21457235515117645,0.0,0.0,0.0,0.0,0.0,0.0,0.0,-0.1392991156493523,0.520721284621035,0.08293466003221797,0.4338240763527652,-0.05435786979201034,0.1262781504682271,-0.22284463802560567,0.1728110630748634,-0.48764996668248883,-0.11145120096887938,-1.9462064206991039,0.13374483782052995,2.595546303484175,0.9452484245217508,0.1728802376190821,-0.48752024683155326,-0.11147110072896137,-1.9463801863486305,0.1336059019074957,2.595550359778934,0.9452445589611904,-0.0013414258599679383,8.48162594216817e-05,-0.00016539069484194157,-0.0008783439434929368,-3.611648605914977e-05,0.0002349767698324178,0.00014225345207345775,0.0,0.0,0.0,0.0,0.0,0.0,0.0,6.917454421870306e-05,0.00012971985093557237,-1.989976008198724e-05,-0.00017376564952664708,-0.000138935913034266,4.056294759191559e-06,-3.865560560423198e-06,0.0013414258599679383,-8.48162594216817e-05,0.00016539069484194157,0.0008783439434929368,3.611648605914977e-05,-0.0002349767698324178,-0.00014225345207345775,0.06972616910934448,11.826318740844727,-1.2909882068634033,-21.768831253051758,-0.4809470772743225,-2.5207552909851074,0.21457235515117645,0
6,0.024999380111694336,-0.06972616910934448,-11.826318740844727,1.2909882068634033,21.768831253051758,0.4809470772743225,2.5207552909851074,-0.21457235515117645,0.0,0.0,0.0,0.0,0.0,0.0,0.0,-0.1392991156493523,0.520721284621035,0.08293466003221797,0.4338240763527652,-0.05435786979201034,0.1262781504682271,-0.22284463802560567,0.1728110630748634,-0.48764996668248883,-0.11145120096887938,-1.9462064206991039,0.13374483782052995,2.595546303484175,0.9452484245217508,0.1728802376190821,-0.48752024683155326,-0.11147110072896137,-1.9463801863486305,0.1336059019074957,2.595550359778934,0.9452445589611904,-0.0013414258599679383,8.48162594216817e-05,-0.00016539069484194157,-0.0008783439434929368,-3.611648605914977e-05,0.0002349767698324178,0.00014225345207345775,0.0,0.0,0.0,0.0,0.0,0.0,0.0,6.917454421870306e-05,0.00012971985093557237,-1.989976008198724e-05,-0.00017376564952664708,-0.000138935913034266,4.056294759191559e-06,-3.865560560423198e-06,0.0013414258599679383,-8.48162594216817e-05,0.00016539069484194157,0.0008783439434929368,3.611648605914977e-05,-0.0002349767698324178,-0.00014225345207345775,0.06972616910934448,11.826318740844727,-1.2909882068634033,-21.768831253051758,-0.4809470772743225,-2.5207552909851074,0.21457235515117645,0
7,0.03001880645751953,-0.06972616910934448,-11.826318740844727,1.2909882068634033,21.768831253051758,0.4809470772743225,2.5207552909851074,-0.21457235515117645,0.0,0.0,0.0,0.0,0.0,0.0,0.0,-0.1392991156493523,0.520721284621035,0.08293466003221797,0.4338240763527652,-0.05435786979201034,0.1262781504682271,-0.22284463802560567,0.1728110630748634,-0.48764996668248883,-0.11145120096887938,-1.9462064206991039,0.13374483782052995,2.595546303484175,0.9452484245217508,0.1728802376190821,-0.48752024683155326,-0.11147110072896137,-1.9463801863486305,0.1336059019074957,2.595550359778934,0.9452445589611904,-0.0013414258599679383,8.48162594216817e-05,-0.00016539069484194157,-0.0008783439434929368,-3.611648605914977e-05,0.0002349767698324178,0.00014225345207345775,0.0,0.0,0.0,0.0,0.0,0.0,0.0,6.917454421870306e-05,0.00012971985093557237,-1.989976008198724e-05,-0.00017376564952664708,-0.000138935913034266,4.056294759191559e-06,-3.865560560423198e-06,0.0013414258599679383,-8.48162594216817e-05,0.00016539069484194157,0.0008783439434929368,3.611648605914977e-05,-0.0002349767698324178,-0.00014225345207345775,0.06972616910934448,11.826318740844727,-1.2909882068634033,-21.768831253051758,-0.4809470772743225,-2.5207552909851074,0.21457235515117645,0
8,0.035021066665649414,-0.12130087614059448,-11.826318740844727,1.3425629138946533,21.693452835083008,0.4745383858680725,2.5271639823913574,-0.18710653483867645,0.0,0.0,0.0,0.0,0.0,0.0,0.0,-0.13792975305735855,0.5080708872128252,0.0834930936857994,0.43742315082241273,-0.053716284408542425,0.12680554096564792,-0.22315206264618814,0.17281560386319847,-0.48764710469435085,-0.1114548319232432,-1.9462018962783267,0.13374874866189856,2.595545591407352,0.9452453727639384,0.1728802376190821,-0.48752024683155326,-0.11147110072896137,-1.9463801863486305,0.1336059019074957,2.595550359778934,0.9452445589611904,0.00027001397430537747,-0.0004352260468950804,-0.0009344629560038493,0.0008108355915158685,0.00014868355190766306,-0.00016894448281957618,-0.001352900100951497,0.0,0.0,0.0,0.0,0.0,0.0,0.0,6.463375588364184e-05,0.00012685786279759137,-1.6268805718172574e-05,-0.00017829007030378818,-0.00014284675440287553,4.76837158203125e-06,-8.138027479676069e-07,-0.00027001397430537747,0.0004352260468950804,0.0009344629560038493,-0.0008108355915158685,-0.00014868355190766306,0.00016894448281957618,0.001352900100951497,0.12130087614059448,11.826318740844727,-1.3425629138946533,-21.693452835083008,-0.4745383858680725,-2.5271639823913574,0.18710653483867645,0
9,0.040018320083618164,-0.12130087614059448,-11.826318740844727,1.3425629138946533,21.693452835083008,0.4745383858680725,2.5271639823913574,-0.18710653483867645,0.0,0.0,0.0,0.0,0.0,0.0,0.0,-0.13792975305735855,0.5080708872128252,0.0834930936857994,0.43742315082241273,-0.053716284408542425,0.12680554096564792,-0.22315206264618814,0.17281560386319847,-0.48764710469435085,-0.1114548319232432,-1.9462018962783267,0.13374874866189856,2.595545591407352,0.9452453727639384,0.1728802376190821,-0.48752024683155326,-0.11147110072896137,-1.9463801863486305,0.1336059019074957,2.595550359778934,0.9452445589611904,0.00027001397430537747,-0.0004352260468950804,-0.0009344629560038493,0.0008108355915158685,0.00014868355190766306,-0.00016894448281957618,-0.001352900100951497,0.0,0.0,0.0,0.0,0.0,0.0,0.0,6.463375588364184e-05,0.00012685786279759137,-1.6268805718172574e-05,-0.00017829007030378818,-0.00014284675440287553,4.76837158203125e-06,-8.138027479676069e-07,-0.00027001397430537747,0.0004352260468950804,0.0009344629560038493,-0.0008108355915158685,-0.00014868355190766306,0.00016894448281957618,0.001352900100951497,0.12130087614059448,11.826318740844727,-1.3425629138946533,-21.693452835083008,-0.4745383858680725,-2.5271639823913574,0.18710653483867645,0
10,0.04500532150268555,-0.12130087614059448,-11.774744033813477,1.3147919178009033,21.741060256958008,0.4809470772743225,2.5271639823913574,-0.17978231608867645,0.0,0.0,0.0,0.0,0.0,0.0,0.0,-0.13431268359807816,0.514717364961913,0.08593585861146466,0.42944333856039746,-0.05362056243394708,0.12560027714088667,-0.22301371092496372,0.17281465614421887,-0.4876508423475488,-0.11145288308147797,-1.946205160624937,0.13374803660313278,2.595545591407352,0.945244558961855,0.1728802376190821,-0.48752024683155326,-0.11147110072896137,-1.9463801863486305,0.1336059019074957,2.595550359778934,0.9452445589611904,0.0004533580077260779,-0.0011952951164431846,-0.0003020037968028204,-0.0009341010447316381,0.00010483961439659114,-3.705757340548578e-06,-0.0015127915361028495,0.0,0.0,0.0,0.0,0.0,0.0,0.0,6.558147486324106e-05,0.0001305955159955352,-1.8217647483401156e-05,-0.00017502572369343383,-0.0001421346956370917,4.76837158203125e-06,-6.645795025406187e-13,-0.0004533580077260779,0.0011952951164431846,0.0003020037968028204,0.0009341010447316381,-0.00010483961439659114,3.705757340548578e-06,0.0015127915361028495,0.12130087614059448,11.774744033813477,-1.3147919178009033,-21.741060256958008,-0.4809470772743225,-2.5271639823913574,0.17978231608867645,0
11,0.05000114440917969,-0.12130087614059448,-11.774744033813477,1.3147919178009033,21.741060256958008,0.4809470772743225,2.5271639823913574,-0.17978231608867645,0.0,0.0,0.0,0.0,0.0,0.0,0.0,-0.13431268359807816,0.514717364961913,0.08593585861146466,0.42944333856039746,-0.05362056243394708,0.12560027714088667,-0.22301371092496372,0.17281465614421887,-0.4876508423475488,-0.11145288308147797,-1.946205160624937,0.13374803660313278,2.595545591407352,0.945244558961855,0.1728802376190821,-0.48752024683155326,-0.11147110072896137,-1.9463801863486305,0.1336059019074957,2.595550359778934,0.9452445589611904,0.0004533580077260779,-0.0011952951164431846,-0.0003020037968028204,-0.0009341010447316381,0.00010483961439659114,-3.705757340548578e-06,-0.0015127915361028495,0.0,0.0,0.0,0.0,0.0,0.0,0.0,6.558147486324106e-05,0.0001305955159955352,-1.8217647483401156e-05,-0.00017502572369343383,-0.0001421346956370917,4.76837158203125e-06,-6.645795025406187e-13,-0.0004533580077260779,0.0011952951164431846,0.0003020037968028204,0.0009341010447316381,-0.00010483961439659114,3.705757340548578e-06,0.0015127915361028495,0.12130087614059448,11.774744033813477,-1.3147919178009033,-21.741060256958008,-0.4809470772743225,-2.5271639823913574,0.17978231608867645,0
12,0.05500197410583496,-0.12130087614059448,-11.774744033813477,1.3147919178009033,21.741060256958008,0.4809470772743225,2.5271639823913574,-0.17978231608867645,0.0,0.0,0.0,0.0,0.0,0.0,0.0,-0.13431268359807816,0.514717364961913,0.08593585861146466,0.42944333856039746,-0.05362056243394708,0.12560027714088667,-0.22301371092496372,0.17281465614421887,-0.4876508423475488,-0.11145288308147797,-1.946205160624937,0.13374803660313278,2.595545591407352,0.945244558961855,0.1728802376190821,-0.48752024683155326,-0.11147110072896137,-1.9463801863486305,0.1336059019074957,2.595550359778934,0.9452445589611904,0.0004533580077260779,-0.0011952951164431846,-0.0003020037968028204,-0.0009341010447316381,0.00010483961439659114,-3.705757340548578e-06,-0.0015127915361028495,0.0,0.0,0.0,0.0,0.0,0.0,0.0,6.558147486324106e-05,0.0001305955159955352,-1.8217647483401156e-05,-0.00017502572369343383,-0.0001421346956370917,4.76837158203125e-06,-6.645795025406187e-13,-0.0004533580077260779,0.0011952951164431846,0.0003020037968028204,0.0009341010447316381,-0.00010483961439659114,3.705757340548578e-06,0.0015127915361028495,0.12130087614059448,11.774744033813477,-1.3147919178009033,-21.741060256958008,-0.4809470772743225,-2.5271639823913574,0.17978231608867645,0
13,0.060800790786743164,-0.14510458707809448,-11.774744033813477,1.2433807849884033,21.693452835083008,0.4864402413368225,2.5143465995788574,-0.22830526530742645,0.0,0.0,0.0,0.0,0.0,0.0,0.0,-0.13732729455541592,0.5144949782847519,0.07527262612216559,0.42842499691103864,-0.053007692797718976,0.12593969921027254,-0.22269640958638162,0.17281706436957506,-0.48765096346529124,-0.11144763556291253,-1.9462013693944766,0.1337475578887145,2.5955470155609977,0.9452499504006571,0.1728802376190821,-0.48752024683155326,-0.11147110072896137,-1.9463801863486305,0.1336059019074957,2.595550359778934,0.9452445589611904,0.00026538672162002746,-0.0002679041436236187,0.00011645379432389589,0.0004491419010014586,-0.00017034161728471424,0.00040133169362643206,0.00018496689041436347,0.0,0.0,0.0,0.0,0.0,0.0,0.0,6.317324950705361e-05,0.0001307166337379817,-2.3465166048841635e-05,-0.0001788169541538931,-0.00014165598121881895,3.3442179363518676e-06,-5.3914394666509935e-06,-0.00026538672162002746,0.0002679041436236187,-0.00011645379432389589,-0.0004491419010014586,0.00017034161728471424,-0.00040133169362643206,-0.00018496689041436347,0.14510458707809448,11.774744033813477,-1.2433807849884033,-21.693452835083008,-0.4864402413368225,-2.5143465995788574,0.22830526530742645,0
14,0.06500029563903809,-0.14510458707809448,-11.774744033813477,1.2433807849884033,21.693452835083008,0.4864402413368225,2.5143465995788574,-0.22830526530742645,0.0,0.0,0.0,0.0,0.0,0.0,0.0,-0.13732729455541592,0.5144949782847519,0.07527262612216559,0.42842499691103864,-0.053007692797718976,0.12593969921027254,-0.22269640958638162,0.17281706436957506,-0.48765096346529124,-0.11144763556291253,-1.9462013693944766,0.1337475578887145,2.5955470155609977,0.9452499504006571,0.1728802376190821,-0.48752024683155326,-0.11147110072896137,-1.9463801863486305,0.1336059019074957,2.595550359778934,0.9452445589611904,0.00026538672162002746,-0.0002679041436236187,0.00011645379432389589,0.0004491419010014586,-0.00017034161728471424,0.00040133169362643206,0.00018496689041436347,0.0,0.0,0.0,0.0,0.0,0.0,0.0,6.317324950705361e-05,0.0001307166337379817,-2.3465166048841635e-05,-0.0001788169541538931,-0.00014165598121881895,3.3442179363518676e-06,-5.3914394666509935e-06,-0.00026538672162002746,0.0002679041436236187,-0.00011645379432389589,-0.0004491419010014586,0.00017034161728471424,-0.00040133169362643206,-0.00018496689041436347,0.14510458707809448,11.774744033813477,-1.2433807849884033,-21.693452835083008,-0.4864402413368225,-2.5143465995788574,0.22830526530742645,0
15,0.07000422477722168,-0.19667929410934448,-11.774744033813477,1.2671844959259033,21.717256546020508,0.4745383858680725,2.5207552909851074,-0.23471395671367645,0.0,0.0,0.0,0.0,0.0,0.0,0.0,-0.13365798885477637,0.5113472225970613,0.07851260244771688,0.4311706271407187,-0.05394979278710184,0.12661754032745098,-0.22280554709244718,0.17282073329857892,-0.4876531210432826,-0.11144930308124917,-1.9462028382688221,0.13374874868069886,2.595546303484175,0.9452506626430233,0.1728802376190821,-0.48752024683155326,-0.11147110072896137,-1.9463801863486305,0.1336059019074957,2.595550359778934,0.9452445589611904,0.0008611074159186541,-1.9382266751232836e-05,-0.0008139938811974304,-0.00014728505233706625,0.00010647342136786104,0.00031182887767030503,0.0013178521789375217,0.0,0.0,0.0,0.0,0.0,0.0,0.0,5.950432050319532e-05,0.0001328742117293613,-2.179764771219339e-05,-0.00017734807980840372,-0.00014284677320317019,4.056294759191559e-06,-6.103681832847485e-06,-0.0008611074159186541,1.9382266751232836e-05,0.0008139938811974304,0.00014728505233706625,-0.00010647342136786104,-0.00031182887767030503,-0.0013178521789375217,0.19667929410934448,11.774744033813477,-1.2671844959259033,-21.717256546020508,-0.4745383858680725,-2.5207552909851074,0.23471395671367645,0
16,0.07537364959716797,-0.19667929410934448,-11.774744033813477,1.2671844959259033,21.717256546020508,0.4745383858680725,2.5207552909851074,-0.23471395671367645,0.0,0.0,0.0,0.0,0.0,0.0,0.0,-0.13365798885477637,0.5113472225970613,0.07851260244771688,0.4311706271407187,-0.05394979278710184,0.12661754032745098,-0.22280554709244718,0.17282073329857892,-0.4876531210432826,-0.11144930308124917,-1.9462028382688221,0.13374874868069886,2.595546303484175,0.9452506626430233,0.1728802376190821,-0.48752024683155326,-0.11147110072896137,-1.9463801863486305,0.1336059019074957,2.595550359778934,0.9452445589611904,0.0008611074159186541,-1.9382266751232836e-05,-0.0008139938811974304,-0.00014728505233706625,0.00010647342136786104,0.00031182887767030503,0.0013178521789375217,0.0,0.0,0.0,0.0,0.0,0.0,0.0,5.950432050319532e-05,0.0001328742117293613,-2.179764771219339e-05,-0.00017734807980840372,-0.00014284677320317019,4.056294759191559e-06,-6.103681832847485e-06,-0.0008611074159186541,1.9382266751232836e-05,0.0008139938811974304,0.00014728505233706625,-0.00010647342136786104,-0.00031182887767030503,-0.0013178521789375217,0.19667929410934448,11.774744033813477,-1.2671844959259033,-21.717256546020508,-0.4745383858680725,-2.5207552909851074,0.23471395671367645,0
17,0.07999992370605469,-0.14510458707809448,-11.802515029907227,1.2433807849884033,21.693452835083008,0.4745383858680725,2.5271639823913574,-0.20724813640117645,0.0,0.0,0.0,0.0,0.0,0.0,0.0,-0.13528640686304502,0.5135580365676327,0.07880834811988777,0.43359847057340395,-0.05482809131949292,0.12752344815893857,-0.22127997470485364,0.17281640823235445,-0.48765166558492334,-0.11144787166455544,-1.9462012076187294,0.1337487486799558,2.595545592860902,0.9452476107196685,0.1728802376190821,-0.48752024683155326,-0.11147110072896137,-1.9463801863486305,0.1336059019074957,2.595550359778934,0.9452445589611904,-0.00050119354660548,0.0005945516813065824,0.00021442122320834825,0.0005938462267137967,0.0001379154848970751,2.6810756265512242e-05,-2.392874249767157e-05,0.0,0.0,0.0,0.0,0.0,0.0,0.0,6.382938672766514e-05,0.0001314187533700828,-2.322906440592465e-05,-0.00017897872990113584,-0.00014284677246009791,4.766918031862133e-06,-3.0517584780342943e-06,0.00050119354660548,-0.0005945516813065824,-0.00021442122320834825,-0.0005938462267137967,-0.0001379154848970751,-2.6810756265512242e-05,2.392874249767157e-05,0.14510458707809448,11.802515029907227,-1.2433807849884033,-21.693452835083008,-0.4745383858680725,-2.5271639823913574,0.20724813640117645,0
18,0.08500051498413086,-0.14510458707809448,-11.802515029907227,1.2433807849884033,21.693452835083008,0.4745383858680725,2.5271639823913574,-0.20724813640117645,0.0,0.0,0.0,0.0,0.0,0.0,0.0,-0.13528640686304502,0.5135580365676327,0.07880834811988777,0.43359847057340395,-0.05482809131949292,0.12752344815893857,-0.22127997470485364,0.17281640823235445,-0.48765166558492334,-0.11144787166455544,-1.9462012076187294,0.1337487486799558,2.595545592860902,0.9452476107196685,0.1728802376190821,-0.48752024683155326,-0.11147110072896137,-1.9463801863486305,0.1336059019074957,2.595550359778934,0.9452445589611904,-0.00050119354660548,0.0005945516813065824,0.00021442122320834825,0.0005938462267137967,0.0001379154848970751,2.6810756265512242e-05,-2.392874249767157e-05,0.0,0.0,0.0,0.0,0.0,0.0,0.0,6.382938672766514e-05,0.0001314187533700828,-2.322906440592465e-05,-0.00017897872990113584,-0.00014284677246009791,4.766918031862133e-06,-3.0517584780342943e-06,0.00050119354660548,-0.0005945516813065824,-0.00021442122320834825,-0.0005938462267137967,-0.0001379154848970751,-2.6810756265512242e-05,2.392874249767157e-05,0.14510458707809448,11.802515029907227,-1.2433807849884033,-21.693452835083008,-0.4745383858680725,-2.5271639823913574,0.20724813640117645,0
19,0.08999991416931152,-0.17287558317184448,-11.802515029907227,1.2671844959259033,21.669649124145508,0.4690452218055725,2.5271639823913574,-0.17978231608867645,0.0,0.0,0.0,0.0,0.0,0.0,0.0,-0.13878030441325567,0.5146897567231746,0.07589182545561653,0.4354162498394457,-0.054980671553834855,0.12820336708488697,-0.22065515236037184,0.1728185204485761,-0.48764950019756825,-0.11144954220976683,-1.9462017564313132,0.1337493721952327,2.59554559140736,0.945244558961855,0.1728802376190821,-0.48752024683155326,-0.11147110072896137,-1.9463801863486305,0.1336059019074957,2.595550359778934,0.9452445589611904,0.0008274779660088363,0.0004053600244142198,-0.00029329176543240083,0.001904963159320828,0.00037647517313365377,-3.149386325529022e-05,-0.0017207311565218411,0.0,0.0,0.0,0.0,0.0,0.0,0.0,6.171717050601488e-05,0.00012925336601499193,-2.155851919453944e-05,-0.00017842991731731317,-0.00014347028773700754,4.768371574037644e-06,-6.645795025406187e-13,-0.0008274779660088363,-0.0004053600244142198,0.00029329176543240083,-0.001904963159320828,-0.00037647517313365377,3.149386325529022e-05,0.0017207311565218411,0.17287558317184448,11.802515029907227,-1.2671844959259033,-21.669649124145508,-0.4690452218055725,-2.5271639823913574,0.17978231608867645,0
20,0.09499955177307129,-0.17287558317184448,-11.802515029907227,1.2671844959259033,21.669649124145508,0.4690452218055725,2.5271639823913574,-0.17978231608867645,0.0,0.0,0.0,0.0,0.0,0.0,0.0,-0.13878030441325567,0.5146897567231746,0.07589182545561653,0.4354162498394457,-0.054980671553834855,0.12820336708488697,-0.22065515236037184,0.1728185204485761,-0.48764950019756825,-0.11144954220976683,-1.9462017564313132,0.1337493721952327,2.59554559140736,0.945244558961855,0.1728802376190821,-0.48752024683155326,-0.11147110072896137,-1.9463801863486305,0.1336059019074957,2.595550359778934,0.9452445589611904,0.0008274779660088363,0.0004053600244142198,-0.00029329176543240083,0.001904963159320828,0.00037647517313365377,-3.149386325529022e-05,-0.0017207311565218411,0.0,0.0,0.0,0.0,0.0,0.0,0.0,6.171717050601488e-05,0.00012925336601499193,-2.155851919453944e-05,-0.00017842991731731317,-0.00014347028773700754,4.768371574037644e-06,-6.645795025406187e-13,-0.0008274779660088363,-0.0004053600244142198,0.00029329176543240083,-0.001904963159320828,-0.00037647517313365377,3.149386325529022e-05,0.0017207311565218411,0.17287558317184448,11.802515029907227,-1.2671844959259033,-21.669649124145508,-0.4690452218055725,-2.5271639823913574,0.17978231608867645,0
21,0.10001325607299805,-0.12130087614059448,-11.750940322875977,1.2671844959259033,21.693452835083008,0.4745383858680725,2.5207552909851074,-0.24844686686992645,0.0,0.0,0.0,0.0,0.0,0.0,0.0,-0.13952265098764266,0.5249834076595764,0.06921193206108535,0.43033305794665905,-0.055240308991519445,0.1273194400306913,-0.2212987448635952,0.17281473484124976,-0.4876526623941561,-0.11144954220976744,-1.9462011338315055,0.1337491041003193,2.595546303484175,0.9452521883563862,0.1728802376190821,-0.48752024683155326,-0.11147110072896137,-1.9463801863486305,0.1336059019074957,2.595550359778934,0.9452445589611904,-7.417898733361141e-06,-0.0009498607474727457,-6.077022876414433e-05,0.001002231686040219,0.00022512956387177094,0.00018913233729044615,0.0011258107501406914,0.0,0.0,0.0,0.0,0.0,0.0,0.0,6.550277783234915e-05,0.00013241556260285003,-2.1558519193928816e-05,-0.00017905251712502235,-0.00014320219282359936,4.056294759191559e-06,-7.629395195829503e-06,7.417898733361141e-06,0.0009498607474727457,6.077022876414433e-05,-0.001002231686040219,-0.00022512956387177094,-0.00018913233729044615,-0.0011258107501406914,0.12130087614059448,11.750940322875977,-1.2671844959259033,-21.693452835083008,-0.4745383858680725,-2.5207552909851074,0.24844686686992645,0
22,0.105010986328125,-0.12130087614059448,-11.750940322875977,1.2671844959259033,21.693452835083008,0.4745383858680725,2.5207552909851074,-0.24844686686992645,0.0,0.0,0.0,0.0,0.0,0.0,0.0,-0.13952265098764266,0.5249834076595764,0.06921193206108535,0.43033305794665905,-0.055240308991519445,0.1273194400306913,-0.2212987448635952,0.17281473484124976,-0.4876526623941561,-0.11144954220976744,-1.9462011338315055,0.1337491041003193,2.595546303484175,0.9452521883563862,0.1728802376190821,-0.48752024683155326,-0.11147110072896137,-1.9463801863486305,0.1336059019074957,2.595550359778934,0.9452445589611904,-7.417898733361141e-06,-0.0009498607474727457,-6.077022876414433e-05,0.001002231686040219,0.00022512956387177094,0.00018913233729044615,0.0011258107501406914,0.0,0.0,0.0,0.0,0.0,0.0,0.0,6.550277783234915e-05,0.00013241556260285003,-2.1558519193928816e-05,-0.00017905251712502235,-0.00014320219282359936,4.056294759191559e-06,-7.629395195829503e-06,7.417898733361141e-06,0.0009498607474727457,6.077022876414433e-05,-0.001002231686040219,-0.00022512956387177094,-0.00018913233729044615,-0.0011258107501406914,0.12130087614059448,11.750940322875977,-1.2671844959259033,-21.693452835083008,-0.4745383858680725,-2.5207552909851074,0.24844686686992645,0
23,0.11000466346740723,-0.14510458707809448,-11.774744033813477,1.2671844959259033,21.717256546020508,0.4809470772743225,2.5271639823913574,-0.17337362468242645,0.0,0.0,0.0,0.0,0.0,0.0,0.0,-0.1375030678529112,0.5205485405030135,0.06695383437364157,0.4335346842828012,-0.05556325300705108,0.12790545504142536,-0.22233524405518068,0.172816326648062,-0.48765072690386274,-0.11144954220976744,-1.9462031104771091,0.13374803660915197,2.595545591407352,0.9452438468850322,0.1728802376190821,-0.48752024683155326,-0.11147110072896137,-1.9463801863486305,0.1336059019074957,2.595550359778934,0.9452445589611904,0.0002598093504336812,-0.0005518268005950942,-3.7716364081957965e-05,0.0003632695633932466,-0.00016160683027869314,-2.281601265739048e-05,-0.002044993595473259,0.0,0.0,0.0,0.0,0.0,0.0,0.0,6.391097102009802e-05,0.0001304800723094801,-2.1558519193928816e-05,-0.0001770758715213816,-0.00014213470165627684,4.76837158203125e-06,7.120761582601887e-07,-0.0002598093504336812,0.0005518268005950942,3.7716364081957965e-05,-0.0003632695633932466,0.00016160683027869314,2.281601265739048e-05,0.002044993595473259,0.14510458707809448,11.774744033813477,-1.2671844959259033,-21.717256546020508,-0.4809470772743225,-2.5271639823913574,0.17337362468242645,0
24,0.11574983596801758,-0.14510458707809448,-11.774744033813477,1.2671844959259033,21.717256546020508,0.4809470772743225,2.5271639823913574,-0.17337362468242645,0.0,0.0,0.0,0.0,0.0,0.0,0.0,-0.1375030678529112,0.5205485405030135,0.06695383437364157,0.4335346842828012,-0.05556325300705108,0.12790545504142536,-0.22233524405518068,0.172816326648062,-0.48765072690386274,-0.11144954220976744,-1.9462031104771091,0.13374803660915197,2.595545591407352,0.9452438468850322,0.1728802376190821,-0.48752024683155326,-0.11147110072896137,-1.9463801863486305,0.1336059019074957,2.595550359778934,0.9452445589611904,0.0002598093504336812,-0.0005518268005950942,-3.7716364081957965e-05,0.0003632695633932466,-0.00016160683027869314,-2.281601265739048e-05,-0.002044993595473259,0.0,0.0,0.0,0.0,0.0,0.0,0.0,6.391097102009802e-05,0.0001304800723094801,-2.1558519193928816e-05,-0.0001770758715213816,-0.00014213470165627684,4.76837158203125e-06,7.120761582601887e-07,-0.0002598093504336812,0.0005518268005950942,3.7716364081957965e-05,-0.0003632695633932466,0.00016160683027869314,2.281601265739048e-05,0.002044993595473259,0.14510458707809448,11.774744033813477,-1.2671844959259033,-21.717256546020508,-0.4809470772743225,-2.5271639823913574,0.17337362468242645,0
25,0.12000560760498047,-0.14510458707809448,-11.826318740844727,1.2433807849884033,21.717256546020508,0.4809470772743225,2.5143465995788574,-0.20724813640117645,0.0,0.0,0.0,0.0,0.0,0.0,0.0,-0.12891779133783915,0.5221344142853722,0.07919661381859867,0.4315585385158281,-0.05631256060748006,0.1276498320845122,-0.22401916181376297,0.1728163268987452,-0.48764735290825467,-0.11144759927260806,-1.9462035704951572,0.13374803660313292,2.5955470155609977,0.9452476107196676,0.1728802376190821,-0.48752024683155326,-0.11147110072896137,-1.9463801863486305,0.1336059019074957,2.595550359778934,0.9452445589611904,0.0008571752038979967,0.00018844336684234898,0.0012977734445855976,0.00024887113641406587,-3.4469210727733255e-05,0.0006112483293511448,-0.00025510311238799357,0.0,0.0,0.0,0.0,0.0,0.0,0.0,6.39107203369016e-05,0.00012710607670141094,-2.3501456353311467e-05,-0.00017661585347328312,-0.00014213469563723047,3.3442179363518676e-06,-3.051758477146116e-06,-0.0008571752038979967,-0.00018844336684234898,-0.0012977734445855976,-0.00024887113641406587,3.4469210727733255e-05,-0.0006112483293511448,0.00025510311238799357,0.14510458707809448,11.826318740844727,-1.2433807849884033,-21.717256546020508,-0.4809470772743225,-2.5143465995788574,0.20724813640117645,0
26,0.1249997615814209,-0.14510458707809448,-11.826318740844727,1.2433807849884033,21.717256546020508,0.4809470772743225,2.5143465995788574,-0.20724813640117645,0.0,0.0,0.0,0.0,0.0,0.0,0.0,-0.12891779133783915,0.5221344142853722,0.07919661381859867,0.4315585385158281,-0.05631256060748006,0.1276498320845122,-0.22401916181376297,0.1728163268987452,-0.48764735290825467,-0.11144759927260806,-1.9462035704951572,0.13374803660313292,2.5955470155609977,0.9452476107196676,0.1728802376190821,-0.48752024683155326,-0.11147110072896137,-1.9463801863486305,0.1336059019074957,2.595550359778934,0.9452445589611904,0.0008571752038979967,0.00018844336684234898,0.0012977734445855976,0.00024887113641406587,-3.4469210727733255e-05,0.0006112483293511448,-0.00025510311238799357,0.0,0.0,0.0,0.0,0.0,0.0,0.0,6.39107203369016e-05,0.00012710607670141094,-2.3501456353311467e-05,-0.00017661585347328312,-0.00014213469563723047,3.3442179363518676e-06,-3.051758477146116e-06,-0.0008571752038979967,-0.00018844336684234898,-0.0012977734445855976,-0.00024887113641406587,3.4469210727733255e-05,-0.0006112483293511448,0.00025510311238799357,0.14510458707809448,11.826318740844727,-1.2433807849884033,-21.717256546020508,-0.4809470772743225,-2.5143465995788574,0.20724813640117645,0
27,0.12999939918518066,-0.14510458707809448,-11.850122451782227,1.2909882068634033,21.693452835083008,0.4745383858680725,2.5143465995788574,-0.22830526530742645,0.0,0.0,0.0,0.0,0.0,0.0,0.0,-0.13375924569680928,0.5075741011083146,0.07374037010132674,0.4363269475388834,-0.05606497724362598,0.12910346435135153,-0.22376936336082875,0.17281633042697067,-0.48764760621119585,-0.11145121264408442,-1.9462031973178087,0.1337487486799558,2.5955470155609977,0.9452499504006571,0.1728802376190821,-0.48752024683155326,-0.11147110072896137,-1.9463801863486305,0.1336059019074957,2.595550359778934,0.9452445589611904,0.00020216171334929946,0.0002846188959682466,1.1637196306922226e-05,0.0005699769142175838,2.4338700766362232e-05,0.0007362673756448311,0.0005925208270211686,0.0,0.0,0.0,0.0,0.0,0.0,0.0,6.39071921114398e-05,0.0001273593796425887,-1.9888084876948375e-05,-0.00017698903082186135,-0.00014284677246009791,3.3442179363518676e-06,-5.3914394666509935e-06,-0.00020216171334929946,-0.0002846188959682466,-1.1637196306922226e-05,-0.0005699769142175838,-2.4338700766362232e-05,-0.0007362673756448311,-0.0005925208270211686,0.14510458707809448,11.850122451782227,-1.2909882068634033,-21.693452835083008,-0.4745383858680725,-2.5143465995788574,0.22830526530742645,0
28,0.13499760627746582,-0.14510458707809448,-11.850122451782227,1.2909882068634033,21.693452835083008,0.4745383858680725,2.5143465995788574,-0.22830526530742645,0.0,0.0,0.0,0.0,0.0,0.0,0.0,-0.13375924569680928,0.5075741011083146,0.07374037010132674,0.4363269475388834,-0.05606497724362598,0.12910346435135153,-0.22376936336082875,0.17281633042697067,-0.48764760621119585,-0.11145121264408442,-1.9462031973178087,0.1337487486799558,2.5955470155609977,0.9452499504006571,0.1728802376190821,-0.48752024683155326,-0.11147110072896137,-1.9463801863486305,0.1336059019074957,2.595550359778934,0.9452445589611904,0.00020216171334929946,0.0002846188959682466,1.1637196306922226e-05,0.0005699769142175838,2.4338700766362232e-05,0.0007362673756448311,0.0005925208270211686,0.0,0.0,0.0,0.0,0.0,0.0,0.0,6.39071921114398e-05,0.0001273593796425887,-1.9888084876948375e-05,-0.00017698903082186135,-0.00014284677246009791,3.3442179363518676e-06,-5.3914394666509935e-06,-0.00020216171334929946,-0.0002846188959682466,-1.1637196306922226e-05,-0.0005699769142175838,-2.4338700766362232e-05,-0.0007362673756448311,-0.0005925208270211686,0.14510458707809448,11.850122451782227,-1.2909882068634033,-21.693452835083008,-0.4745383858680725,-2.5143465995788574,0.22830526530742645,0
29,0.139998197555542,-0.12130087614059448,-11.826318740844727,1.3425629138946533,21.717256546020508,0.4809470772743225,2.5271639823913574,-0.20724813640117645,0.0,0.0,0.0,0.0,0.0,0.0,0.0,-0.13087607350147804,0.5174651442313879,0.0822898382881965,0.4287038296248286,-0.05646019326073402,0.12850066090144985,-0.22335316408320402,0.17281489652615556,-0.4876471046904556,-0.11145482900712392,-1.9462028014666348,0.1337480361155879,2.595545591407352,0.9452476107196676,0.1728802376190821,-0.48752024683155326,-0.11147110072896137,-1.9463801863486305,0.1336059019074957,2.595550359778934,0.9452445589611904,0.0002422701615504795,-2.2241889420413055e-05,-0.0009351792231973058,4.61186462405842e-05,-1.1474503503195018e-05,-3.340537251014348e-05,0.0002006964672691782,0.0,0.0,0.0,0.0,0.0,0.0,0.0,6.534109292655188e-05,0.00012685785890231838,-1.6271721837449182e-05,-0.00017738488199570135,-0.00014213420809219834,4.76837158203125e-06,-3.051758477146116e-06,-0.0002422701615504795,2.2241889420413055e-05,0.0009351792231973058,-4.61186462405842e-05,1.1474503503195018e-05,3.340537251014348e-05,-0.0002006964672691782,0.12130087614059448,11.826318740844727,-1.3425629138946533,-21.717256546020508,-0.4809470772743225,-2.5271639823913574,0.20724813640117645,0
30,0.14500117301940918,-0.12130087614059448,-11.826318740844727,1.3425629138946533,21.717256546020508,0.4809470772743225,2.5271639823913574,-0.20724813640117645,0.0,0.0,0.0,0.0,0.0,0.0,0.0,-0.13087607350147804,0.5174651442313879,0.0822898382881965,0.4287038296248286,-0.05646019326073402,0.12850066090144985,-0.22335316408320402,0.17281489652615556,-0.4876471046904556,-0.11145482900712392,-1.9462028014666348,0.1337480361155879,2.595545591407352,0.9452476107196676,0.1728802376190821,-0.48752024683155326,-0.11147110072896137,-1.9463801863486305,0.1336059019074957,2.595550359778934,0.9452445589611904,0.0002422701615504795,-2.2241889420413055e-05,-0.0009351792231973058,4.61186462405842e-05,-1.1474503503195018e-05,-3.340537251014348e-05,0.0002006964672691782,0.0,0.0,0.0,0.0,0.0,0.0,0.0,6.534109292655188e-05,0.00012685785890231838,-1.6271721837449182e-05,-0.00017738488199570135,-0.00014213420809219834,4.76837158203125e-06,-3.051758477146116e-06,-0.0002422701615504795,2.2241889420413055e-05,0.0009351792231973058,-4.61186462405842e-05,1.1474503503195018e-05,3.340537251014348e-05,-0.0002006964672691782,0.12130087614059448,11.826318740844727,-1.3425629138946533,-21.717256546020508,-0.4809470772743225,-2.5271639823913574,0.20724813640117645,0
31,0.1513504981994629,-0.09352988004684448,-11.826318740844727,1.2909882068634033,21.669649124145508,0.4690452218055725,2.5207552909851074,-0.18710653483867645,0.0,0.0,0.0,0.0,0.0,0.0,0.0,-0.13260301006054837,0.5130969598232121,0.08145736569435243,0.4273866667747175,-0.05590547494593186,0.12803077128592308,-0.2222602574849327,0.1728127072983948,-0.4876473519270917,-0.11145050401260724,-1.9461995380224955,0.13374935903151552,2.595546303484175,0.9452453727639384,0.1728802376190821,-0.48752024683155326,-0.11147110072896137,-1.9463801863486305,0.1336059019074957,2.595550359778934,0.9452445589611904,-0.0002505269068106678,1.5113205724883559e-05,-0.00023323842911850303,0.0008539739228095765,0.0003970390012684995,0.00026203955574304847,-0.0007607940539753086,0.0,0.0,0.0,0.0,0.0,0.0,0.0,6.753032068732012e-05,0.00012710509553842675,-2.059671635412652e-05,-0.00018064832613506887,-0.00014345712401983568,4.056294759191559e-06,-8.138027479676069e-07,0.0002505269068106678,-1.5113205724883559e-05,0.00023323842911850303,-0.0008539739228095765,-0.0003970390012684995,-0.00026203955574304847,0.0007607940539753086,0.09352988004684448,11.826318740844727,-1.2909882068634033,-21.669649124145508,-0.4690452218055725,-2.5207552909851074,0.18710653483867645,0
32,0.154998779296875,-0.09352988004684448,-11.826318740844727,1.2909882068634033,21.669649124145508,0.4690452218055725,2.5207552909851074,-0.18710653483867645,0.0,0.0,0.0,0.0,0.0,0.0,0.0,-0.13260301006054837,0.5130969598232121,0.08145736569435243,0.4273866667747175,-0.05590547494593186,0.12803077128592308,-0.2222602574849327,0.1728127072983948,-0.4876473519270917,-0.11145050401260724,-1.9461995380224955,0.13374935903151552,2.595546303484175,0.9452453727639384,0.1728802376190821,-0.48752024683155326,-0.11147110072896137,-1.9463801863486305,0.1336059019074957,2.595550359778934,0.9452445589611904,-0.0002505269068106678,1.5113205724883559e-05,-0.00023323842911850303,0.0008539739228095765,0.0003970390012684995,0.00026203955574304847,-0.0007607940539753086,0.0,0.0,0.0,0.0,0.0,0.0,0.0,6.753032068732012e-05,0.00012710509553842675,-2.059671635412652e-05,-0.00018064832613506887,-0.00014345712401983568,4.056294759191559e-06,-8.138027479676069e-07,0.0002505269068106678,-1.5113205724883559e-05,0.00023323842911850303,-0.0008539739228095765,-0.0003970390012684995,-0.00026203955574304847,0.0007607940539753086,0.09352988004684448,11.826318740844727,-1.2909882068634033,-21.669649124145508,-0.4690452218055725,-2.5207552909851074,0.18710653483867645,0
33,0.16041231155395508,-0.14510458707809448,-11.802515029907227,1.2671844959259033,21.741060256958008,0.4809470772743225,2.5207552909851074,-0.21457235515117645,0.0,0.0,0.0,0.0,0.0,0.0,0.0,-0.12840710821880033,0.5056350393266266,0.08257993423867313,0.43014288394618283,-0.05629444039171092,0.12832760526152043,-0.2220507300097266,0.17281632653872195,-0.4876495823809136,-0.11144954220576718,-1.94620676878867,0.13374803660313286,2.595546303484175,0.9452484245217508,0.1728802376190821,-0.48752024683155326,-0.11147110072896137,-1.9463801863486305,0.1336059019074957,2.595550359778934,0.9452445589611904,0.0003109950088508413,-0.000514778970067777,-0.00010867641495558671,-0.0006623864609590173,0.0008821626620535369,0.00014901268995820617,0.0004098688352905722,0.0,0.0,0.0,0.0,0.0,0.0,0.0,6.39110803601628e-05,0.0001293355493603432,-2.1558523194187273e-05,-0.00017341755996058694,-0.00014213469563717496,4.056294759191559e-06,-3.865560560423198e-06,-0.0003109950088508413,0.000514778970067777,0.00010867641495558671,0.0006623864609590173,-0.0008821626620535369,-0.00014901268995820617,-0.0004098688352905722,0.14510458707809448,11.802515029907227,-1.2671844959259033,-21.741060256958008,-0.4809470772743225,-2.5207552909851074,0.21457235515117645,0
34,0.16500616073608398,-0.14510458707809448,-11.802515029907227,1.2671844959259033,21.741060256958008,0.4809470772743225,2.5207552909851074,-0.21457235515117645,0.0,0.0,0.0,0.0,0.0,0.0,0.0,-0.12840710821880033,0.5056350393266266,0.08257993423867313,0.43014288394618283,-0.05629444039171092,0.12832760526152043,-0.2220507300097266,0.17281632653872195,-0.4876495823809136,-0.11144954220576718,-1.94620676878867,0.13374803660313286,2.595546303484175,0.9452484245217508,0.1728802376190821,-0.48752024683155326,-0.11147110072896137,-1.9463801863486305,0.1336059019074957,2.595550359778934,0.9452445589611904,0.0003109950088508413,-0.000514778970067777,-0.00010867641495558671,-0.0006623864609590173,0.0008821626620535369,0.00014901268995820617,0.0004098688352905722,0.0,0.0,0.0,0.0,0.0,0.0,0.0,6.39110803601628e-05,0.0001293355493603432,-2.1558523194187273e-05,-0.00017341755996058694,-0.00014213469563717496,4.056294759191559e-06,-3.865560560423198e-06,-0.0003109950088508413,0.000514778970067777,0.00010867641495558671,0.0006623864609590173,-0.0008821626620535369,-0.00014901268995820617,-0.0004098688352905722,0.14510458707809448,11.802515029907227,-1.2671844959259033,-21.741060256958008,-0.4809470772743225,-2.5207552909851074,0.21457235515117645,0
35,0.17000937461853027,-0.14510458707809448,-11.802515029907227,1.2671844959259033,21.741060256958008,0.4809470772743225,2.5207552909851074,-0.21457235515117645,0.0,0.0,0.0,0.0,0.0,0.0,0.0,-0.12840710821880033,0.5056350393266266,0.08257993423867313,0.43014288394618283,-0.05629444039171092,0.12832760526152043,-0.2220507300097266,0.17281632653872195,-0.4876495823809136,-0.11144954220576718,-1.94620676878867,0.13374803660313286,2.595546303484175,0.9452484245217508,0.1728802376190821,-0.48752024683155326,-0.11147110072896137,-1.9463801863486305,0.1336059019074957,2.595550359778934,0.9452445589611904,0.0003109950088508413,-0.000514778970067777,-0.00010867641495558671,-0.0006623864609590173,0.0008821626620535369,0.00014901268995820617,0.0004098688352905722,0.0,0.0,0.0,0.0,0.0,0.0,0.0,6.39110803601628e-05,0.0001293355493603432,-2.1558523194187273e-05,-0.00017341755996058694,-0.00014213469563717496,4.056294759191559e-06,-3.865560560423198e-06,-0.0003109950088508413,0.000514778970067777,0.00010867641495558671,0.0006623864609590173,-0.0008821626620535369,-0.00014901268995820617,-0.0004098688352905722,0.14510458707809448,11.802515029907227,-1.2671844959259033,-21.741060256958008,-0.4809470772743225,-2.5207552909851074,0.21457235515117645,0
36,0.17500710487365723,-0.14510458707809448,-11.802515029907227,1.2671844959259033,21.741060256958008,0.4809470772743225,2.5207552909851074,-0.21457235515117645,0.0,0.0,0.0,0.0,0.0,0.0,0.0,-0.12840710821880033,0.5056350393266266,0.08257993423867313,0.43014288394618283,-0.05629444039171092,0.12832760526152043,-0.2220507300097266,0.17281632653872195,-0.4876495823809136,-0.11144954220576718,-1.94620676878867,0.13374803660313286,2.595546303484175,0.9452484245217508,0.1728802376190821,-0.48752024683155326,-0.11147110072896137,-1.9463801863486305,0.1336059019074957,2.595550359778934,0.9452445589611904,0.0003109950088508413,-0.000514778970067777,-0.00010867641495558671,-0.0006623864609590173,0.0008821626620535369,0.00014901268995820617,0.0004098688352905722,0.0,0.0,0.0,0.0,0.0,0.0,0.0,6.39110803601628e-05,0.0001293355493603432,-2.1558523194187273e-05,-0.00017341755996058694,-0.00014213469563717496,4.056294759191559e-06,-3.865560560423198e-06,-0.0003109950088508413,0.000514778970067777,0.00010867641495558671,0.0006623864609590173,-0.0008821626620535369,-0.00014901268995820617,-0.0004098688352905722,0.14510458707809448,11.802515029907227,-1.2671844959259033,-21.741060256958008,-0.4809470772743225,-2.5207552909851074,0.21457235515117645,0
37,0.18001508712768555,-0.17287558317184448,-11.774744033813477,1.2156097888946533,21.741060256958008,0.4809470772743225,2.5271639823913574,-0.23471395671367645,0.0,0.0,0.0,0.0,0.0,0.0,0.0,-0.1321543173394033,0.5148363863189026,0.07638173411275524,0.4278094171577414,-0.054890273987221086,0.12658350751193456,-0.22110690227808388,0.17281827538055286,-0.4876509914833217,-0.11144589657840755,-1.9462044974866046,0.13374803660313286,2.595545591407352,0.94525066247748,0.1728802376190821,-0.48752024683155326,-0.11147110072896137,-1.9463801863486305,0.1336059019074957,2.595550359778934,0.9452445589611904,0.0003324868848103486,-0.00016042605860463197,0.0009061148823135806,-0.0006910595210865041,7.141405767021926e-05,-4.843845899061454e-05,0.0011624191814990324,0.0,0.0,0.0,0.0,0.0,0.0,0.0,6.196223852925065e-05,0.00013074465176843297,-2.5204150553820304e-05,-0.00017568886202590228,-0.00014213469563717496,4.76837158203125e-06,-6.103516289601707e-06,-0.0003324868848103486,0.00016042605860463197,-0.0009061148823135806,0.0006910595210865041,-7.141405767021926e-05,4.843845899061454e-05,-0.0011624191814990324,0.17287558317184448,11.774744033813477,-1.2156097888946533,-21.741060256958008,-0.4809470772743225,-2.5271639823913574,0.23471395671367645,0
38,0.18500208854675293,-0.17287558317184448,-11.774744033813477,1.2156097888946533,21.741060256958008,0.4809470772743225,2.5271639823913574,-0.23471395671367645,0.0,0.0,0.0,0.0,0.0,0.0,0.0,-0.1321543173394033,0.5148363863189026,0.07638173411275524,0.4278094171577414,-0.054890273987221086,0.12658350751193456,-0.22110690227808388,0.17281827538055286,-0.4876509914833217,-0.11144589657840755,-1.9462044974866046,0.13374803660313286,2.595545591407352,0.94525066247748,0.1728802376190821,-0.48752024683155326,-0.11147110072896137,-1.9463801863486305,0.1336059019074957,2.595550359778934,0.9452445589611904,0.0003324868848103486,-0.00016042605860463197,0.0009061148823135806,-0.0006910595210865041,7.141405767021926e-05,-4.843845899061454e-05,0.0011624191814990324,0.0,0.0,0.0,0.0,0.0,0.0,0.0,6.196223852925065e-05,0.00013074465176843297,-2.5204150553820304e-05,-0.00017568886202590228,-0.00014213469563717496,4.76837158203125e-06,-6.103516289601707e-06,-0.0003324868848103486,0.00016042605860463197,-0.0009061148823135806,0.0006910595210865041,-7.141405767021926e-05,4.843845899061454e-05,-0.0011624191814990324,0.17287558317184448,11.774744033813477,-1.2156097888946533,-21.741060256958008,-0.4809470772743225,-2.5271639823913574,0.23471395671367645,0
39,0.18999791145324707,-0.14510458707809448,-11.802515029907227,1.2433807849884033,21.717256546020508,0.4745383858680725,2.5271639823913574,-0.24112264811992645,0.0,0.0,0.0,0.0,0.0,0.0,0.0,-0.1323474473547758,0.5069549417930308,0.07860067460955497,0.4335378213417851,-0.05485290882694094,0.127090605969796,-0.22091488864337627,0.1728163305349755,-0.4876497670909256,-0.11144787177376342,-1.9462028014201223,0.13374874867995576,2.595545591407352,0.945251374554303,0.1728802376190821,-0.48752024683155326,-0.11147110072896137,-1.9463801863486305,0.1336059019074957,2.595550359778934,0.9452445589611904,-0.00020393079702593162,0.00011024195762499154,-1.1435772757662332e-05,-0.0001963373676788852,0.00013313168743445377,-0.00033913886635553305,0.0014432969179219897,0.0,0.0,0.0,0.0,0.0,0.0,0.0,6.39070841066125e-05,0.000129520259372351,-2.3228955197948653e-05,-0.00017738492850827292,-0.00014284677246007016,4.76837158203125e-06,-6.8155931125524205e-06,0.00020393079702593162,-0.00011024195762499154,1.1435772757662332e-05,0.0001963373676788852,-0.00013313168743445377,0.00033913886635553305,-0.0014432969179219897,0.14510458707809448,11.802515029907227,-1.2433807849884033,-21.717256546020508,-0.4745383858680725,-2.5271639823913574,0.24112264811992645,0
40,0.19499874114990234,-0.14510458707809448,-11.802515029907227,1.2433807849884033,21.717256546020508,0.4745383858680725,2.5271639823913574,-0.24112264811992645,0.0,0.0,0.0,0.0,0.0,0.0,0.0,-0.1323474473547758,0.5069549417930308,0.07860067460955497,0.4335378213417851,-0.05485290882694094,0.127090605969796,-0.22091488864337627,0.1728163305349755,-0.4876497670909256,-0.11144787177376342,-1.9462028014201223,0.13374874867995576,2.595545591407352,0.945251374554303,0.1728802376190821,-0.48752024683155326,-0.11147110072896137,-1.9463801863486305,0.1336059019074957,2.595550359778934,0.9452445589611904,-0.00020393079702593162,0.00011024195762499154,-1.1435772757662332e-05,-0.0001963373676788852,0.00013313168743445377,-0.00033913886635553305,0.0014432969179219897,0.0,0.0,0.0,0.0,0.0,0.0,0.0,6.39070841066125e-05,0.000129520259372351,-2.3228955197948653e-05,-0.00017738492850827292,-0.00014284677246007016,4.76837158203125e-06,-6.8155931125524205e-06,0.00020393079702593162,-0.00011024195762499154,1.1435772757662332e-05,0.0001963373676788852,-0.00013313168743445377,0.00033913886635553305,-0.0014432969179219897,0.14510458707809448,11.802515029907227,-1.2433807849884033,-21.717256546020508,-0.4745383858680725,-2.5271639823913574,0.24112264811992645,0
41,0.1999983787536621,-0.12130087614059448,-11.774744033813477,1.2909882068634033,21.717256546020508,0.4864402413368225,2.5271639823913574,-0.19351522624492645,0.0,0.0,0.0,0.0,0.0,0.0,0.0,-0.13027279195688338,0.5199115034897833,0.08165951936804923,0.4271940206909061,-0.05557671145385398,0.12573402474039852,-0.22176782957265379,0.17281678203788828,-0.48765288262895123,-0.11145097546256132,-1.9462028780543765,0.13374742625157035,2.595545591407352,0.9452460848407613,0.1728802376190821,-0.48752024683155326,-0.11147110072896137,-1.9463801863486305,0.1336059019074957,2.595550359778934,0.9452445589611904,-0.0005060994772495287,5.1254846957964165e-05,-0.00035755401514280465,-0.0001599714822854884,-0.00034346353737812845,3.235293203782096e-05,-0.000948195758852429,0.0,0.0,0.0,0.0,0.0,0.0,0.0,6.34555811938331e-05,0.00013263579739797304,-2.0125266400050634e-05,-0.0001773082942539972,-0.00014152434407466163,4.76837158203125e-06,-1.5258795709183204e-06,0.0005060994772495287,-5.1254846957964165e-05,0.00035755401514280465,0.0001599714822854884,0.00034346353737812845,-3.235293203782096e-05,0.000948195758852429,0.12130087614059448,11.774744033813477,-1.2909882068634033,-21.717256546020508,-0.4864402413368225,-2.5271639823913574,0.19351522624492645,0
42,0.20499706268310547,-0.12130087614059448,-11.774744033813477,1.2909882068634033,21.717256546020508,0.4864402413368225,2.5271639823913574,-0.19351522624492645,0.0,0.0,0.0,0.0,0.0,0.0,0.0,-0.13027279195688338,0.5199115034897833,0.08165951936804923,0.4271940206909061,-0.05557671145385398,0.12573402474039852,-0.22176782957265379,0.17281678203788828,-0.48765288262895123,-0.11145097546256132,-1.9462028780543765,0.13374742625157035,2.595545591407352,0.9452460848407613,0.1728802376190821,-0.48752024683155326,-0.11147110072896137,-1.9463801863486305,0.1336059019074957,2.595550359778934,0.9452445589611904,-0.0005060994772495287,5.1254846957964165e-05,-0.00035755401514280465,-0.0001599714822854884,-0.00034346353737812845,3.235293203782096e-05,-0.000948195758852429,0.0,0.0,0.0,0.0,0.0,0.0,0.0,6.34555811938331e-05,0.00013263579739797304,-2.0125266400050634e-05,-0.0001773082942539972,-0.00014152434407466163,4.76837158203125e-06,-1.5258795709183204e-06,0.0005060994772495287,-5.1254846957964165e-05,0.00035755401514280465,0.0001599714822854884,0.00034346353737812845,-3.235293203782096e-05,0.000948195758852429,0.12130087614059448,11.774744033813477,-1.2909882068634033,-21.717256546020508,-0.4864402413368225,-2.5271639823913574,0.19351522624492645,0
43,0.2100050449371338,-0.12130087614059448,-11.802515029907227,1.2909882068634033,21.741060256958008,0.4745383858680725,2.5271639823913574,-0.21457235515117645,0.0,0.0,0.0,0.0,0.0,0.0,0.0,-0.1334071836661118,0.5137099205840454,0.07736041472107485,0.43038336663807547,-0.05566164276220801,0.12663500686451545,-0.22276423911243684,0.17281474374443198,-0.48764901728770677,-0.11145120288766425,-1.9462044718562654,0.13374874867995576,2.595545591407352,0.9452484245217508,0.1728802376190821,-0.48752024683155326,-0.11147110072896137,-1.9463801863486305,0.1336059019074957,2.595550359778934,0.9452445589611904,-6.686092179353685e-05,0.0001926385711349064,-0.0004872811424361173,-0.0006317978227493321,0.00015558860003061568,0.00015539355157352205,-0.00013631111511593354,0.0,0.0,0.0,0.0,0.0,0.0,0.0,6.54938746501299e-05,0.00012877045615350413,-1.9897841297120133e-05,-0.00017571449236508663,-0.00014284677246007016,4.76837158203125e-06,-3.865560560423198e-06,6.686092179353685e-05,-0.0001926385711349064,0.0004872811424361173,0.0006317978227493321,-0.00015558860003061568,-0.00015539355157352205,0.00013631111511593354,0.12130087614059448,11.802515029907227,-1.2909882068634033,-21.741060256958008,-0.4745383858680725,-2.5271639823913574,0.21457235515117645,0
44,0.21499967575073242,-0.12130087614059448,-11.802515029907227,1.2909882068634033,21.741060256958008,0.4745383858680725,2.5271639823913574,-0.21457235515117645,0.0,0.0,0.0,0.0,0.0,0.0,0.0,-0.1334071836661118,0.5137099205840454,0.07736041472107485,0.43038336663807547,-0.05566164276220801,0.12663500686451545,-0.22276423911243684,0.17281474374443198,-0.48764901728770677,-0.11145120288766425,-1.9462044718562654,0.13374874867995576,2.595545591407352,0.9452484245217508,0.1728802376190821,-0.48752024683155326,-0.11147110072896137,-1.9463801863486305,0.1336059019074957,2.595550359778934,0.9452445589611904,-6.686092179353685e-05,0.0001926385711349064,-0.0004872811424361173,-0.0006317978227493321,0.00015558860003061568,0.00015539355157352205,-0.00013631111511593354,0.0,0.0,0.0,0.0,0.0,0.0,0.0,6.54938746501299e-05,0.00012877045615350413,-1.9897841297120133e-05,-0.00017571449236508663,-0.00014284677246007016,4.76837158203125e-06,-3.865560560423198e-06,6.686092179353685e-05,-0.0001926385711349064,0.0004872811424361173,0.0006317978227493321,-0.00015558860003061568,-0.00015539355157352205,0.00013631111511593354,0.12130087614059448,11.802515029907227,-1.2909882068634033,-21.741060256958008,-0.4745383858680725,-2.5271639823913574,0.21457235515117645,0
45,0.21999669075012207,-0.14510458707809448,-11.802515029907227,1.2909882068634033,21.717256546020508,0.4745383858680725,2.5271639823913574,-0.22098104655742645,0.0,0.0,0.0,0.0,0.0,0.0,0.0,-0.1392566383490021,0.5192327562339432,0.06539999538718365,0.42369834399672124,-0.054357127727176435,0.12464314189015048,-0.22291388246511543,0.17281845351828204,-0.487648892852987,-0.11145121264556762,-1.9462028130726052,0.13374874867995576,2.595545591407352,0.9452491365985738,0.1728802376190821,-0.48752024683155326,-0.11147110072896137,-1.9463801863486305,0.1336059019074957,2.595550359778934,0.9452445589611904,6.378246708834145e-05,-0.0002902620736725338,-0.0005956943974371638,-0.00014840021927152742,-0.0014794195280558198,0.0022944228931973823,0.00029865279027500743,0.0,0.0,0.0,0.0,0.0,0.0,0.0,6.17841008000719e-05,0.0001286460214337537,-1.9888083393745926e-05,-0.0001773732760252944,-0.00014284677246007016,4.76837158203125e-06,-4.5776373833739115e-06,-6.378246708834145e-05,0.0002902620736725338,0.0005956943974371638,0.00014840021927152742,0.0014794195280558198,-0.0022944228931973823,-0.00029865279027500743,0.14510458707809448,11.802515029907227,-1.2909882068634033,-21.717256546020508,-0.4745383858680725,-2.5271639823913574,0.22098104655742645,0
46,0.22557973861694336,-0.14510458707809448,-11.802515029907227,1.2909882068634033,21.717256546020508,0.4745383858680725,2.5271639823913574,-0.22098104655742645,0.0,0.0,0.0,0.0,0.0,0.0,0.0,-0.1392566383490021,0.5192327562339432,0.06539999538718365,0.42369834399672124,-0.054357127727176435,0.12464314189015048,-0.22291388246511543,0.17281845351828204,-0.487648892852987,-0.11145121264556762,-1.9462028130726052,0.13374874867995576,2.595545591407352,0.9452491365985738,0.1728802376190821,-0.48752024683155326,-0.11147110072896137,-1.9463801863486305,0.1336059019074957,2.595550359778934,0.9452445589611904,6.378246708834145e-05,-0.0002902620736725338,-0.0005956943974371638,-0.00014840021927152742,-0.0014794195280558198,0.0022944228931973823,0.00029865279027500743,0.0,0.0,0.0,0.0,0.0,0.0,0.0,6.17841008000719e-05,0.0001286460214337537,-1.9888083393745926e-05,-0.0001773732760252944,-0.00014284677246007016,4.76837158203125e-06,-4.5776373833739115e-06,-6.378246708834145e-05,0.0002902620736725338,0.0005956943974371638,0.00014840021927152742,0.0014794195280558198,-0.0022944228931973823,-0.00029865279027500743,0.14510458707809448,11.802515029907227,-1.2909882068634033,-21.717256546020508,-0.4745383858680725,-2.5271639823913574,0.22098104655742645,0
47,0.23003506660461426,-0.14510458707809448,-11.826318740844727,1.3425629138946533,21.669649124145508,0.4745383858680725,2.5399813652038574,-0.24844686686992645,0.0,0.0,0.0,0.0,0.0,0.0,0.0,-0.12866972882173727,0.5142355190813256,0.08473956806622994,0.4270521702410812,-0.05687088027360639,0.12680378536155504,-0.2225322954154468,0.17281845255773243,-0.48765020382967766,-0.11145483192330911,-1.946201529677108,0.13375194746255872,2.5955441672537063,0.9452521883563862,0.1728802376190821,-0.48752024683155326,-0.11147110072896137,-1.9463801863486305,0.1336059019074957,2.595550359778934,0.9452445589611904,0.00048463921645377226,-1.5829496750827066e-06,-0.0012293714400577215,0.000990011039898014,0.0017380807284922055,-0.0004453411453006062,0.0014092524515768442,0.0,0.0,0.0,0.0,0.0,0.0,0.0,6.178506134968398e-05,0.0001299569981244031,-1.6268805652253082e-05,-0.00017865667152250353,-0.00014604555506303463,6.192525227710632e-06,-7.629395195829503e-06,-0.00048463921645377226,1.5829496750827066e-06,0.0012293714400577215,-0.000990011039898014,-0.0017380807284922055,0.0004453411453006062,-0.0014092524515768442,0.14510458707809448,11.826318740844727,-1.3425629138946533,-21.669649124145508,-0.4745383858680725,-2.5399813652038574,0.24844686686992645,0
48,0.2354288101196289,-0.14510458707809448,-11.826318740844727,1.3425629138946533,21.669649124145508,0.4745383858680725,2.5399813652038574,-0.24844686686992645,0.0,0.0,0.0,0.0,0.0,0.0,0.0,-0.12866972882173727,0.5142355190813256,0.08473956806622994,0.4270521702410812,-0.05687088027360639,0.12680378536155504,-0.2225322954154468,0.17281845255773243,-0.48765020382967766,-0.11145483192330911,-1.946201529677108,0.13375194746255872,2.5955441672537063,0.9452521883563862,0.1728802376190821,-0.48752024683155326,-0.11147110072896137,-1.9463801863486305,0.1336059019074957,2.595550359778934,0.9452445589611904,0.00048463921645377226,-1.5829496750827066e-06,-0.0012293714400577215,0.000990011039898014,0.0017380807284922055,-0.0004453411453006062,0.0014092524515768442,0.0,0.0,0.0,0.0,0.0,0.0,0.0,6.178506134968398e-05,0.0001299569981244031,-1.6268805652253082e-05,-0.00017865667152250353,-0.00014604555506303463,6.192525227710632e-06,-7.629395195829503e-06,-0.00048463921645377226,1.5829496750827066e-06,0.0012293714400577215,-0.000990011039898014,-0.0017380807284922055,0.0004453411453006062,-0.0014092524515768442,0.14510458707809448,11.826318740844727,-1.3425629138946533,-21.669649124145508,-0.4745383858680725,-2.5399813652038574,0.24844686686992645,0
49,0.2404191493988037,-0.14510458707809448,-11.802515029907227,1.2671844959259033,21.717256546020508,0.4745383858680725,2.5015292167663574,-0.23471395671367645,0.0,0.0,0.0,0.0,0.0,0.0,0.0,-0.13281785457393883,0.5091565303969245,0.07915281118751087,0.4291502528704049,-0.05511278230546404,0.1279302941337811,-0.22203349790451535,0.17281656279772512,-0.4876517507305922,-0.11144954220976744,-1.9462028812504086,0.13374874869801298,2.5955484397146438,0.94525066247748,0.1728802376190821,-0.48752024683155326,-0.11147110072896137,-1.9463801863486305,0.1336059019074957,2.595550359778934,0.9452445589611904,0.0004020446597586807,-0.0002759961391213026,0.0009417487839568611,-8.355828002768994e-05,-0.002766370516449157,0.0010043834494563879,0.001022291577970592,0.0,0.0,0.0,0.0,0.0,0.0,0.0,6.367482135699598e-05,0.00013150389903893167,-2.1558519193928816e-05,-0.00017730509822189155,-0.00014284679051729254,1.920064290228396e-06,-6.103516289601707e-06,-0.0004020446597586807,0.0002759961391213026,-0.0009417487839568611,8.355828002768994e-05,0.002766370516449157,-0.0010043834494563879,-0.001022291577970592,0.14510458707809448,11.802515029907227,-1.2671844959259033,-21.717256546020508,-0.4745383858680725,-2.5015292167663574,0.23471395671367645,0
50,0.2450122833251953,-0.14510458707809448,-11.802515029907227,1.2671844959259033,21.717256546020508,0.4745383858680725,2.5015292167663574,-0.23471395671367645,0.0,0.0,0.0,0.0,0.0,0.0,0.0,-0.13281785457393883,0.5091565303969245,0.07915281118751087,0.4291502528704049,-0.05511278230546404,0.1279302941337811,-0.22203349790451535,0.17281656279772512,-0.4876517507305922,-0.11144954220976744,-1.9462028812504086,0.13374874869801298,2.5955484397146438,0.94525066247748,0.1728802376190821,-0.48752024683155326,-0.11147110072896137,-1.9463801863486305,0.1336059019074957,2.595550359778934,0.9452445589611904,0.0004020446597586807,-0.0002759961391213026,0.0009417487839568611,-8.355828002768994e-05,-0.002766370516449157,0.0010043834494563879,0.001022291577970592,0.0,0.0,0.0,0.0,0.0,0.0,0.0,6.367482135699598e-05,0.00013150389903893167,-2.1558519193928816e-05,-0.00017730509822189155,-0.00014284679051729254,1.920064290228396e-06,-6.103516289601707e-06,-0.0004020446597586807,0.0002759961391213026,-0.0009417487839568611,8.355828002768994e-05,0.002766370516449157,-0.0010043834494563879,-0.001022291577970592,0.14510458707809448,11.802515029907227,-1.2671844959259033,-21.717256546020508,-0.4745383858680725,-2.5015292167663574,0.23471395671367645,0
51,0.25000500679016113,-0.09352988004684448,-11.873926162719727,1.3147919178009033,21.741060256958008,0.4809470772743225,2.5271639823913574,-0.17978231608867645,0.0,0.0,0.0,0.0,0.0,0.0,0.0,-0.13220337085224002,0.495522937779439,0.0830892555884744,0.4356907399971335,-0.0550363431508924,0.1286489267357939,-0.22225488002299,0.1728127082370981,-0.4876459449453631,-0.11145288308147797,-1.9462051637713278,0.1337480366031332,2.595545591407352,0.945244558961855,0.1728802376190821,-0.48752024683155326,-0.11147110072896137,-1.9463801863486305,0.1336059019074957,2.595550359778934,0.9452445589611904,-0.0006374744209246766,0.0006254215095795827,-0.0005247236263610109,-0.0003086956172460417,-0.000366089484780346,-4.178380242542729e-05,-0.0017241531103218972,0.0,0.0,0.0,0.0,0.0,0.0,0.0,6.75293819840106e-05,0.00012569811380985785,-1.8217647483401156e-05,-0.0001750225773027303,-0.00014213469563750802,4.76837158203125e-06,-6.645795025406187e-13,0.0006374744209246766,-0.0006254215095795827,0.0005247236263610109,0.0003086956172460417,0.000366089484780346,4.178380242542729e-05,0.0017241531103218972,0.09352988004684448,11.873926162719727,-1.3147919178009033,-21.741060256958008,-0.4809470772743225,-2.5271639823913574,0.17978231608867645,0
52,0.2550082206726074,-0.09352988004684448,-11.873926162719727,1.3147919178009033,21.741060256958008,0.4809470772743225,2.5271639823913574,-0.17978231608867645,0.0,0.0,0.0,0.0,0.0,0.0,0.0,-0.13220337085224002,0.495522937779439,0.0830892555884744,0.4356907399971335,-0.0550363431508924,0.1286489267357939,-0.22225488002299,0.1728127082370981,-0.4876459449453631,-0.11145288308147797,-1.9462051637713278,0.1337480366031332,2.595545591407352,0.945244558961855,0.1728802376190821,-0.48752024683155326,-0.11147110072896137,-1.9463801863486305,0.1336059019074957,2.595550359778934,0.9452445589611904,-0.0006374744209246766,0.0006254215095795827,-0.0005247236263610109,-0.0003086956172460417,-0.000366089484780346,-4.178380242542729e-05,-0.0017241531103218972,0.0,0.0,0.0,0.0,0.0,0.0,0.0,6.75293819840106e-05,0.00012569811380985785,-1.8217647483401156e-05,-0.0001750225773027303,-0.00014213469563750802,4.76837158203125e-06,-6.645795025406187e-13,0.0006374744209246766,-0.0006254215095795827,0.0005247236263610109,0.0003086956172460417,0.000366089484780346,4.178380242542729e-05,0.0017241531103218972,0.09352988004684448,11.873926162719727,-1.3147919178009033,-21.741060256958008,-0.4809470772743225,-2.5271639823913574,0.17978231608867645,0
53,0.2599985599517822,-0.12130087614059448,-11.774744033813477,1.2671844959259033,21.693452835083008,0.4809470772743225,2.5143465995788574,-0.20724813640117645,0.0,0.0,0.0,0.0,0.0,0.0,0.0,-0.12534522572197285,0.5196231735852822,0.09213419115920611,0.42380937568166277,-0.05598860661139373,0.1259130502400735,-0.22234409805108815,0.1728156010548738,-0.4876507589542063,-0.11144953929358226,-1.9462011338198473,0.13374803514049793,2.595547017014548,0.9452475714738109,0.1728802376190821,-0.48752024683155326,-0.11147110072896137,-1.9463801863486305,0.1336059019074957,2.595550359778934,0.9452445589611904,0.0004661123899820025,-0.00042674530501470763,0.0009995229797754525,0.0007823853114446524,-0.00013250125920500304,0.0004195765413690873,-2.0621142686882883e-05,0.0,0.0,0.0,0.0,0.0,0.0,0.0,6.4636564208298e-05,0.00013051212265302592,-2.1561435379111038e-05,-0.00017905252878325228,-0.00014213323300224512,3.3427643861827505e-06,-3.012512620470531e-06,-0.0004661123899820025,0.00042674530501470763,-0.0009995229797754525,-0.0007823853114446524,0.00013250125920500304,-0.0004195765413690873,2.0621142686882883e-05,0.12130087614059448,11.774744033813477,-1.2671844959259033,-21.693452835083008,-0.4809470772743225,-2.5143465995788574,0.20724813640117645,0
54,0.2650115489959717,-0.12130087614059448,-11.774744033813477,1.2671844959259033,21.693452835083008,0.4809470772743225,2.5143465995788574,-0.20724813640117645,0.0,0.0,0.0,0.0,0.0,0.0,0.0,-0.12534522572197285,0.5196231735852822,0.09213419115920611,0.42380937568166277,-0.05598860661139373,0.1259130502400735,-0.22234409805108815,0.1728156010548738,-0.4876507589542063,-0.11144953929358226,-1.9462011338198473,0.13374803514049793,2.595547017014548,0.9452475714738109,0.1728802376190821,-0.48752024683155326,-0.11147110072896137,-1.9463801863486305,0.1336059019074957,2.595550359778934,0.9452445589611904,0.0004661123899820025,-0.00042674530501470763,0.0009995229797754525,0.0007823853114446524,-0.00013250125920500304,0.0004195765413690873,-2.0621142686882883e-05,0.0,0.0,0.0,0.0,0.0,0.0,0.0,6.4636564208298e-05,0.00013051212265302592,-2.1561435379111038e-05,-0.00017905252878325228,-0.00014213323300224512,3.3427643861827505e-06,-3.012512620470531e-06,-0.0004661123899820025,0.00042674530501470763,-0.0009995229797754525,-0.0007823853114446524,0.00013250125920500304,-0.0004195765413690873,2.0621142686882883e-05,0.12130087614059448,11.774744033813477,-1.2671844959259033,-21.693452835083008,-0.4809470772743225,-2.5143465995788574,0.20724813640117645,0
55,0.26999878883361816,-0.09352988004684448,-11.750940322875977,1.2671844959259033,21.717256546020508,0.4928489327430725,2.5271639823913574,-0.18710653483867645,0.0,0.0,0.0,0.0,0.0,0.0,0.0,-0.128192576463659,0.5124478058180542,0.08971787938114338,0.43071292090562563,-0.055717552115787536,0.12625605233875947,-0.2216201504219349,0.17281303387910987,-0.4876547821752618,-0.11144930567473074,-1.9462037963024592,0.13374675366588243,2.59554559140736,0.9452453727637169,0.1728802376190821,-0.48752024683155326,-0.11147110072896137,-1.9463801863486305,0.1336059019074957,2.595550359778934,0.9452445589611904,-0.000985494008649045,-0.0006944994495218705,0.00044855420584622173,9.731935607664154e-05,-0.0007901387293355719,-0.00018014745209562038,-0.0003253501447227552,0.0,0.0,0.0,0.0,0.0,0.0,0.0,6.720373997223805e-05,0.0001345353437085528,-2.1795054230625e-05,-0.00017639004617131526,-0.0001408517583867397,4.768371574037644e-06,-8.138025264781135e-07,0.000985494008649045,0.0006944994495218705,-0.00044855420584622173,-9.731935607664154e-05,0.0007901387293355719,0.00018014745209562038,0.0003253501447227552,0.09352988004684448,11.750940322875977,-1.2671844959259033,-21.717256546020508,-0.4928489327430725,-2.5271639823913574,0.18710653483867645,0
56,0.2749979496002197,-0.09352988004684448,-11.750940322875977,1.2671844959259033,21.717256546020508,0.4928489327430725,2.5271639823913574,-0.18710653483867645,0.0,0.0,0.0,0.0,0.0,0.0,0.0,-0.128192576463659,0.5124478058180542,0.08971787938114338,0.43071292090562563,-0.055717552115787536,0.12625605233875947,-0.2216201504219349,0.17281303387910987,-0.4876547821752618,-0.11144930567473074,-1.9462037963024592,0.13374675366588243,2.59554559140736,0.9452453727637169,0.1728802376190821,-0.48752024683155326,-0.11147110072896137,-1.9463801863486305,0.1336059019074957,2.595550359778934,0.9452445589611904,-0.000985494008649045,-0.0006944994495218705,0.00044855420584622173,9.731935607664154e-05,-0.0007901387293355719,-0.00018014745209562038,-0.0003253501447227552,0.0,0.0,0.0,0.0,0.0,0.0,0.0,6.720373997223805e-05,0.0001345353437085528,-2.1795054230625e-05,-0.00017639004617131526,-0.0001408517583867397,4.768371574037644e-06,-8.138025264781135e-07,0.000985494008649045,0.0006944994495218705,-0.00044855420584622173,-9.731935607664154e-05,0.0007901387293355719,0.00018014745209562038,0.0003253501447227552,0.09352988004684448,11.750940322875977,-1.2671844959259033,-21.717256546020508,-0.4928489327430725,-2.5271639823913574,0.18710653483867645,0
57,0.28003406524658203,-0.12130087614059448,-11.774744033813477,1.2433807849884033,21.717256546020508,0.4745383858680725,2.5335726737976074,-0.18710653483867645,0.0,0.0,0.0,0.0,0.0,0.0,0.0,-0.13285736618198393,0.4996459023879709,0.08542631496633626,0.4415628178186527,-0.05598369257637767,0.12738759690450724,-0.220979714225323,0.1728154434747091,-0.48765319711242633,-0.11144716313957795,-1.946205173942606,0.1337487530680835,2.595544879330529,0.9452453727639384,0.1728802376190821,-0.48752024683155326,-0.11147110072896137,-1.9463801863486305,0.1336059019074957,2.595550359778934,0.9452445589611904,-0.0009374125760986371,-0.0007117441642998405,0.0005293333560736321,0.00047918054833286073,0.0002461819677738253,-0.00042203624316108966,-0.000777881612909444,0.0,0.0,0.0,0.0,0.0,0.0,0.0,6.479414437302045e-05,0.0001329502808730676,-2.3937589383418723e-05,-0.00017501240602446622,-0.00014285116058782021,5.480448404870941e-06,-8.138027479676069e-07,0.0009374125760986371,0.0007117441642998405,-0.0005293333560736321,-0.00047918054833286073,-0.0002461819677738253,0.00042203624316108966,0.000777881612909444,0.12130087614059448,11.774744033813477,-1.2433807849884033,-21.717256546020508,-0.4745383858680725,-2.5335726737976074,0.18710653483867645,0
58,0.28499579429626465,-0.12130087614059448,-11.774744033813477,1.2433807849884033,21.717256546020508,0.4745383858680725,2.5335726737976074,-0.18710653483867645,0.0,0.0,0.0,0.0,0.0,0.0,0.0,-0.13285736618198393,0.4996459023879709,0.08542631496633626,0.4415628178186527,-0.05598369257637767,0.12738759690450724,-0.220979714225323,0.1728154434747091,-0.48765319711242633,-0.11144716313957795,-1.946205173942606,0.1337487530680835,2.595544879330529,0.9452453727639384,0.1728802376190821,-0.48752024683155326,-0.11147110072896137,-1.9463801863486305,0.1336059019074957,2.595550359778934,0.9452445589611904,-0.0009374125760986371,-0.0007117441642998405,0.0005293333560736321,0.00047918054833286073,0.0002461819677738253,-0.00042203624316108966,-0.000777881612909444,0.0,0.0,0.0,0.0,0.0,0.0,0.0,6.479414437302045e-05,0.0001329502808730676,-2.3937589383418723e-05,-0.00017501240602446622,-0.00014285116058782021,5.480448404870941e-06,-8.138027479676069e-07,0.0009374125760986371,0.0007117441642998405,-0.0005293333560736321,-0.00047918054833286073,-0.0002461819677738253,0.00042203624316108966,0.000777881612909444,0.12130087614059448,11.774744033813477,-1.2433807849884033,-21.717256546020508,-0.4745383858680725,-2.5335726737976074,0.18710653483867645,0
59,0.2900111675262451,-0.12130087614059448,-11.774744033813477,1.2433807849884033,21.717256546020508,0.4745383858680725,2.5335726737976074,-0.18710653483867645,0.0,0.0,0.0,0.0,0.0,0.0,0.0,-0.13285736618198393,0.4996459023879709,0.08542631496633626,0.4415628178186527,-0.05598369257637767,0.12738759690450724,-0.220979714225323,0.1728154434747091,-0.48765319711242633,-0.11144716313957795,-1.946205173942606,0.1337487530680835,2.595544879330529,0.9452453727639384,0.1728802376190821,-0.48752024683155326,-0.11147110072896137,-1.9463801863486305,0.1336059019074957,2.595550359778934,0.9452445589611904,-0.0009374125760986371,-0.0007117441642998405,0.0005293333560736321,0.00047918054833286073,0.0002461819677738253,-0.00042203624316108966,-0.000777881612909444,0.0,0.0,0.0,0.0,0.0,0.0,0.0,6.479414437302045e-05,0.0001329502808730676,-2.3937589383418723e-05,-0.00017501240602446622,-0.00014285116058782021,5.480448404870941e-06,-8.138027479676069e-07,0.0009374125760986371,0.0007117441642998405,-0.0005293333560736321,-0.00047918054833286073,-0.0002461819677738253,0.00042203624316108966,0.000777881612909444,0.12130087614059448,11.774744033813477,-1.2433807849884033,-21.717256546020508,-0.4745383858680725,-2.5335726737976074,0.18710653483867645,0
60,0.29500770568847656,-0.12130087614059448,-11.774744033813477,1.2433807849884033,21.717256546020508,0.4745383858680725,2.5335726737976074,-0.18710653483867645,0.0,0.0,0.0,0.0,0.0,0.0,0.0,-0.13285736618198393,0.4996459023879709,0.08542631496633626,0.4415628178186527,-0.05598369257637767,0.12738759690450724,-0.220979714225323,0.1728154434747091,-0.48765319711242633,-0.11144716313957795,-1.946205173942606,0.1337487530680835,2.595544879330529,0.9452453727639384,0.1728802376190821,-0.48752024683155326,-0.11147110072896137,-1.9463801863486305,0.1336059019074957,2.595550359778934,0.9452445589611904,-0.0009374125760986371,-0.0007117441642998405,0.0005293333560736321,0.00047918054833286073,0.0002461819677738253,-0.00042203624316108966,-0.000777881612909444,0.0,0.0,0.0,0.0,0.0,0.0,0.0,6.479414437302045e-05,0.0001329502808730676,-2.3937589383418723e-05,-0.00017501240602446622,-0.00014285116058782021,5.480448404870941e-06,-8.138027479676069e-07,0.0009374125760986371,0.0007117441642998405,-0.0005293333560736321,-0.00047918054833286073,-0.0002461819677738253,0.00042203624316108966,0.000777881612909444,0.12130087614059448,11.774744033813477,-1.2433807849884033,-21.717256546020508,-0.4745383858680725,-2.5335726737976074,0.18710653483867645,0
61,0.30001330375671387,-0.14510458707809448,-11.802515029907227,1.2909882068634033,21.693452835083008,0.4809470772743225,2.5335726737976074,-0.17337362468242645,0.0,0.0,0.0,0.0,0.0,0.0,0.0,-0.13116081122229367,0.5176516733310111,0.08838796550722713,0.4322771553559565,-0.05621537527554996,0.12573573095545518,-0.22071194087973436,0.17281633543573116,-0.4876495168747016,-0.11145121264162244,-1.946201156507322,0.13374803660315765,2.595544879330529,0.9452438468850322,0.1728802376190821,-0.48752024683155326,-0.11147110072896137,-1.9463801863486305,0.1336059019074957,2.595550359778934,0.9452445589611904,9.666695692308371e-05,0.00043451444638523704,-0.0006899495267474002,0.0005337233220085068,5.0675600145305066e-05,-0.00020196881043617267,-0.001616307056626014,0.0,0.0,0.0,0.0,0.0,0.0,0.0,6.39021833509501e-05,0.0001292700431483329,-1.9888087338923444e-05,-0.00017902984130846455,-0.00014213469566196069,5.480448404870941e-06,7.120761582601887e-07,-9.666695692308371e-05,-0.00043451444638523704,0.0006899495267474002,-0.0005337233220085068,-5.0675600145305066e-05,0.00020196881043617267,0.001616307056626014,0.14510458707809448,11.802515029907227,-1.2909882068634033,-21.693452835083008,-0.4809470772743225,-2.5335726737976074,0.17337362468242645,0
62,0.3050119876861572,-0.14510458707809448,-11.802515029907227,1.2909882068634033,21.693452835083008,0.4809470772743225,2.5335726737976074,-0.17337362468242645,0.0,0.0,0.0,0.0,0.0,0.0,0.0,-0.13116081122229367,0.5176516733310111,0.08838796550722713,0.4322771553559565,-0.05621537527554996,0.12573573095545518,-0.22071194087973436,0.17281633543573116,-0.4876495168747016,-0.11145121264162244,-1.946201156507322,0.13374803660315765,2.595544879330529,0.9452438468850322,0.1728802376190821,-0.48752024683155326,-0.11147110072896137,-1.9463801863486305,0.1336059019074957,2.595550359778934,0.9452445589611904,9.666695692308371e-05,0.00043451444638523704,-0.0006899495267474002,0.0005337233220085068,5.0675600145305066e-05,-0.00020196881043617267,-0.001616307056626014,0.0,0.0,0.0,0.0,0.0,0.0,0.0,6.39021833509501e-05,0.0001292700431483329,-1.9888087338923444e-05,-0.00017902984130846455,-0.00014213469566196069,5.480448404870941e-06,7.120761582601887e-07,-9.666695692308371e-05,-0.00043451444638523704,0.0006899495267474002,-0.0005337233220085068,-5.0675600145305066e-05,0.00020196881043617267,0.001616307056626014,0.14510458707809448,11.802515029907227,-1.2909882068634033,-21.693452835083008,-0.4809470772743225,-2.5335726737976074,0.17337362468242645,0
63,0.3100156784057617,-0.09352988004684448,-11.826318740844727,1.2156097888946533,21.717256546020508,0.4745383858680725,2.5207552909851074,-0.17978231608867645,0.0,0.0,0.0,0.0,0.0,0.0,0.0,-0.13336787526151225,0.5066918827561109,0.08542907982570686,0.43726264230314693,-0.05605588747279784,0.12746825182943416,-0.22073461125431232,0.17281341917025908,-0.48764742327357735,-0.11144592289607874,-1.946202886452715,0.1337487486799558,2.595546303484175,0.945244558961855,0.1728802376190821,-0.48752024683155326,-0.11147110072896137,-1.9463801863486305,0.1336059019074957,2.595550359778934,0.9452445589611904,-0.0012594016187310875,0.0006802952885058365,0.0007745324313074,1.193392142277615e-05,0.002366683735132531,0.000248165537761417,-0.001547880248239638,0.0,0.0,0.0,0.0,0.0,0.0,0.0,6.681844882303056e-05,0.00012717644202409062,-2.5177832882625206e-05,-0.00017729989591552808,-0.00014284677246009791,4.056294759191559e-06,-6.645795025406187e-13,0.0012594016187310875,-0.0006802952885058365,-0.0007745324313074,-1.193392142277615e-05,-0.002366683735132531,-0.000248165537761417,0.001547880248239638,0.09352988004684448,11.826318740844727,-1.2156097888946533,-21.717256546020508,-0.4745383858680725,-2.5207552909851074,0.17978231608867645,0
64,0.3149986267089844,-0.09352988004684448,-11.826318740844727,1.2156097888946533,21.717256546020508,0.4745383858680725,2.5207552909851074,-0.17978231608867645,0.0,0.0,0.0,0.0,0.0,0.0,0.0,-0.13336787526151225,0.5066918827561109,0.08542907982570686,0.43726264230314693,-0.05605588747279784,0.12746825182943416,-0.22073461125431232,0.17281341917025908,-0.48764742327357735,-0.11144592289607874,-1.946202886452715,0.1337487486799558,2.595546303484175,0.945244558961855,0.1728802376190821,-0.48752024683155326,-0.11147110072896137,-1.9463801863486305,0.1336059019074957,2.595550359778934,0.9452445589611904,-0.0012594016187310875,0.0006802952885058365,0.0007745324313074,1.193392142277615e-05,0.002366683735132531,0.000248165537761417,-0.001547880248239638,0.0,0.0,0.0,0.0,0.0,0.0,0.0,6.681844882303056e-05,0.00012717644202409062,-2.5177832882625206e-05,-0.00017729989591552808,-0.00014284677246009791,4.056294759191559e-06,-6.645795025406187e-13,0.0012594016187310875,-0.0006802952885058365,-0.0007745324313074,-1.193392142277615e-05,-0.002366683735132531,-0.000248165537761417,0.001547880248239638,0.09352988004684448,11.826318740844727,-1.2156097888946533,-21.717256546020508,-0.4745383858680725,-2.5207552909851074,0.17978231608867645,0
65,0.32000279426574707,-0.12130087614059448,-11.826318740844727,1.2671844959259033,21.741060256958008,0.4809470772743225,2.5271639823913574,-0.22830526530742645,0.0,0.0,0.0,0.0,0.0,0.0,0.0,-0.13136292938858526,0.5115791303958507,0.08323956347681685,0.4347090067323487,-0.05476697113107738,0.12698975156071873,-0.22098219869820768,0.17281473776810777,-0.487650056626111,-0.11144953346121128,-1.9462051607270356,0.1337480366031329,2.595545591407352,0.9452499504006571,0.1728802376190821,-0.48752024683155326,-0.11147110072896137,-1.9463801863486305,0.1336059019074957,2.595550359778934,0.9452445589611904,-0.00016926324427693446,0.00024808576372997634,0.0001994787552333285,-0.0005599996766454875,-0.0009045165373471366,-0.00016495772622317174,0.00037897311251867277,0.0,0.0,0.0,0.0,0.0,0.0,0.0,6.549985097434319e-05,0.00012980979455773367,-2.1567267750086105e-05,-0.000175025621594882,-0.0001421346956372027,4.76837158203125e-06,-5.3914394666509935e-06,0.00016926324427693446,-0.00024808576372997634,-0.0001994787552333285,0.0005599996766454875,0.0009045165373471366,0.00016495772622317174,-0.00037897311251867277,0.12130087614059448,11.826318740844727,-1.2671844959259033,-21.741060256958008,-0.4809470772743225,-2.5271639823913574,0.22830526530742645,0
66,0.3249983787536621,-0.12130087614059448,-11.826318740844727,1.2671844959259033,21.741060256958008,0.4809470772743225,2.5271639823913574,-0.22830526530742645,0.0,0.0,0.0,0.0,0.0,0.0,0.0,-0.13136292938858526,0.5115791303958507,0.08323956347681685,0.4347090067323487,-0.05476697113107738,0.12698975156071873,-0.22098219869820768,0.17281473776810777,-0.487650056626111,-0.11144953346121128,-1.9462051607270356,0.1337480366031329,2.595545591407352,0.9452499504006571,0.1728802376190821,-0.48752024683155326,-0.11147110072896137,-1.9463801863486305,0.1336059019074957,2.595550359778934,0.9452445589611904,-0.00016926324427693446,0.00024808576372997634,0.0001994787552333285,-0.0005599996766454875,-0.0009045165373471366,-0.00016495772622317174,0.00037897311251867277,0.0,0.0,0.0,0.0,0.0,0.0,0.0,6.549985097434319e-05,0.00012980979455773367,-2.1567267750086105e-05,-0.000175025621594882,-0.0001421346956372027,4.76837158203125e-06,-5.3914394666509935e-06,0.00016926324427693446,-0.00024808576372997634,-0.0001994787552333285,0.0005599996766454875,0.0009045165373471366,0.00016495772622317174,-0.00037897311251867277,0.12130087614059448,11.826318740844727,-1.2671844959259033,-21.741060256958008,-0.4809470772743225,-2.5271639823913574,0.22830526530742645,0
67,0.330094575881958,-0.14510458707809448,-11.750940322875977,1.3425629138946533,21.717256546020508,0.4745383858680725,2.5335726737976074,-0.22830526530742645,0.0,0.0,0.0,0.0,0.0,0.0,0.0,-0.13389338363539394,0.521392828968799,0.07654839751915966,0.42777840765706454,-0.05452391241679755,0.12594885524514987,-0.22113338364281482,0.17281632754724674,-0.48765240294800793,-0.11145483159923915,-1.9462028014238661,0.1337487486799558,2.595544879330529,0.9452499504006571,0.1728802376190821,-0.48752024683155326,-0.11147110072896137,-1.9463801863486305,0.1336059019074957,2.595550359778934,0.9452445589611904,0.0006775616808171666,-0.0010610677609974545,-0.0016535278499760636,-0.0002722962629772922,0.0003267197923479707,-0.00020113117874248935,0.0009424625093392257,0.0,0.0,0.0,0.0,0.0,0.0,0.0,6.391007183537134e-05,0.00013215611645467362,-1.626912972221839e-05,-0.00017738492476437884,-0.00014284677246009791,5.480448404870941e-06,-5.3914394666509935e-06,-0.0006775616808171666,0.0010610677609974545,0.0016535278499760636,0.0002722962629772922,-0.0003267197923479707,0.00020113117874248935,-0.0009424625093392257,0.14510458707809448,11.750940322875977,-1.3425629138946533,-21.717256546020508,-0.4745383858680725,-2.5335726737976074,0.22830526530742645,0
68,0.3350214958190918,-0.14510458707809448,-11.750940322875977,1.3425629138946533,21.717256546020508,0.4745383858680725,2.5335726737976074,-0.22830526530742645,0.0,0.0,0.0,0.0,0.0,0.0,0.0,-0.13389338363539394,0.521392828968799,0.07654839751915966,0.42777840765706454,-0.05452391241679755,0.12594885524514987,-0.22113338364281482,0.17281632754724674,-0.48765240294800793,-0.11145483159923915,-1.9462028014238661,0.1337487486799558,2.595544879330529,0.9452499504006571,0.1728802376190821,-0.48752024683155326,-0.11147110072896137,-1.9463801863486305,0.1336059019074957,2.595550359778934,0.9452445589611904,0.0006775616808171666,-0.0010610677609974545,-0.0016535278499760636,-0.0002722962629772922,0.0003267197923479707,-0.00020113117874248935,0.0009424625093392257,0.0,0.0,0.0,0.0,0.0,0.0,0.0,6.391007183537134e-05,0.00013215611645467362,-1.626912972221839e-05,-0.00017738492476437884,-0.00014284677246009791,5.480448404870941e-06,-5.3914394666509935e-06,-0.0006775616808171666,0.0010610677609974545,0.0016535278499760636,0.0002722962629772922,-0.0003267197923479707,0.00020113117874248935,-0.0009424625093392257,0.14510458707809448,11.750940322875977,-1.3425629138946533,-21.717256546020508,-0.4745383858680725,-2.5335726737976074,0.22830526530742645,0
69,0.34002113342285156,-0.12130087614059448,-11.802515029907227,1.3147919178009033,21.717256546020508,0.4864402413368225,2.5207552909851074,-0.23471395671367645,0.0,0.0,0.0,0.0,0.0,0.0,0.0,-0.12711798356348286,0.5085927815747882,0.08872154218107679,0.4354996440572573,-0.054881408727419964,0.12749026276184672,-0.2201839804768851,0.17281473483987203,-0.4876509471542309,-0.11145288016529095,-1.9462034901847616,0.13374742625157038,2.595546303484175,0.9452506610239297,0.1728802376190821,-0.48752024683155326,-0.11147110072896137,-1.9463801863486305,0.1336059019074957,2.595550359778934,0.9452445589611904,0.0004328830549102145,-0.00036774946489743024,-9.452859705917809e-05,0.00016456789770717553,-0.00028931108654547624,0.00011070450828706865,0.0012248389751894008,0.0,0.0,0.0,0.0,0.0,0.0,0.0,6.550277921008041e-05,0.00013070032267764597,-1.8220563670415246e-05,-0.00017669616386895015,-0.0001415243440746894,4.056294759191559e-06,-6.102062739321568e-06,-0.0004328830549102145,0.00036774946489743024,9.452859705917809e-05,-0.00016456789770717553,0.00028931108654547624,-0.00011070450828706865,-0.0012248389751894008,0.12130087614059448,11.802515029907227,-1.3147919178009033,-21.717256546020508,-0.4864402413368225,-2.5207552909851074,0.23471395671367645,0
70,0.34500622749328613,-0.12130087614059448,-11.802515029907227,1.3147919178009033,21.717256546020508,0.4864402413368225,2.5207552909851074,-0.23471395671367645,0.0,0.0,0.0,0.0,0.0,0.0,0.0,-0.12711798356348286,0.5085927815747882,0.08872154218107679,0.4354996440572573,-0.054881408727419964,0.12749026276184672,-0.2201839804768851,0.17281473483987203,-0.4876509471542309,-0.11145288016529095,-1.9462034901847616,0.13374742625157038,2.595546303484175,0.9452506610239297,0.1728802376190821,-0.48752024683155326,-0.11147110072896137,-1.9463801863486305,0.1336059019074957,2.595550359778934,0.9452445589611904,0.0004328830549102145,-0.00036774946489743024,-9.452859705917809e-05,0.00016456789770717553,-0.00028931108654547624,0.00011070450828706865,0.0012248389751894008,0.0,0.0,0.0,0.0,0.0,0.0,0.0,6.550277921008041e-05,0.00013070032267764597,-1.8220563670415246e-05,-0.00017669616386895015,-0.0001415243440746894,4.056294759191559e-06,-6.102062739321568e-06,-0.0004328830549102145,0.00036774946489743024,9.452859705917809e-05,-0.00016456789770717553,0.00028931108654547624,-0.00011070450828706865,-0.0012248389751894008,0.12130087614059448,11.802515029907227,-1.3147919178009033,-21.717256546020508,-0.4864402413368225,-2.5207552909851074,0.23471395671367645,0
71,0.3500063419342041,-0.09352988004684448,-11.826318740844727,1.3147919178009033,21.693452835083008,0.4745383858680725,2.5335726737976074,-0.23471395671367645,0.0,0.0,0.0,0.0,0.0,0.0,0.0,-0.12286126333390965,0.5111986875800092,0.0934997216952771,0.4327555109239558,-0.055033019236130055,0.1261971191545569,-0.21940068483720565,0.1728127189259242,-0.4876494926109635,-0.11145288297346562,-1.9462011394886873,0.1337487486799558,2.595544879330529,0.9452506624774772,0.1728802376190821,-0.48752024683155326,-0.11147110072896137,-1.9463801863486305,0.1336059019074957,2.595550359778934,0.9452445589611904,-0.0003679103544592364,-7.293760302301494e-05,0.00025240278108092123,0.0006391712125697747,0.00013385000365096557,-0.0001299181434949072,0.0014092661389787993,0.0,0.0,0.0,0.0,0.0,0.0,0.0,6.75186931579086e-05,0.0001292457794102586,-1.821775549575022e-05,-0.00017904685994318825,-0.00014284677246009791,5.480448404870941e-06,-6.1035162868261494e-06,0.0003679103544592364,7.293760302301494e-05,-0.00025240278108092123,-0.0006391712125697747,-0.00013385000365096557,0.0001299181434949072,-0.0014092661389787993,0.09352988004684448,11.826318740844727,-1.3147919178009033,-21.693452835083008,-0.4745383858680725,-2.5335726737976074,0.23471395671367645,0
72,0.3550233840942383,-0.09352988004684448,-11.826318740844727,1.3147919178009033,21.693452835083008,0.4745383858680725,2.5335726737976074,-0.23471395671367645,0.0,0.0,0.0,0.0,0.0,0.0,0.0,-0.12286126333390965,0.5111986875800092,0.0934997216952771,0.4327555109239558,-0.055033019236130055,0.1261971191545569,-0.21940068483720565,0.1728127189259242,-0.4876494926109635,-0.11145288297346562,-1.9462011394886873,0.1337487486799558,2.595544879330529,0.9452506624774772,0.1728802376190821,-0.48752024683155326,-0.11147110072896137,-1.9463801863486305,0.1336059019074957,2.595550359778934,0.9452445589611904,-0.0003679103544592364,-7.293760302301494e-05,0.00025240278108092123,0.0006391712125697747,0.00013385000365096557,-0.0001299181434949072,0.0014092661389787993,0.0,0.0,0.0,0.0,0.0,0.0,0.0,6.75186931579086e-05,0.0001292457794102586,-1.821775549575022e-05,-0.00017904685994318825,-0.00014284677246009791,5.480448404870941e-06,-6.1035162868261494e-06,0.0003679103544592364,7.293760302301494e-05,-0.00025240278108092123,-0.0006391712125697747,-0.00013385000365096557,0.0001299181434949072,-0.0014092661389787993,0.09352988004684448,11.826318740844727,-1.3147919178009033,-21.693452835083008,-0.4745383858680725,-2.5335726737976074,0.23471395671367645,0
73,0.36003828048706055,-0.09352988004684448,-11.826318740844727,1.3425629138946533,21.693452835083008,0.4745383858680725,2.5271639823913574,-0.21457235515117645,0.0,0.0,0.0,0.0,0.0,0.0,0.0,-0.12401736193849212,0.5069211483882226,0.09519294956603483,0.4335750047807594,-0.0547975186948637,0.12689827750157978,-0.2188255914348365,0.1728150959767873,-0.4876471838374856,-0.11145483181530165,-1.9462018200638902,0.1337487486799558,2.595545591407352,0.9452484245217508,0.1728802376190821,-0.48752024683155326,-0.11147110072896137,-1.9463801863486305,0.1336059019074957,2.595550359778934,0.9452445589611904,-0.0007181242043198811,0.0002145961928466541,-0.00079029076188307,0.0008825938690112596,0.0002291899344626451,-0.00019535577356577727,-1.3350396085399023e-05,0.0,0.0,0.0,0.0,0.0,0.0,0.0,6.514164229481922e-05,0.00012693700593235935,-1.6268913659717166e-05,-0.00017836628474032779,-0.00014284677246009791,4.76837158203125e-06,-3.865560560423198e-06,0.0007181242043198811,-0.0002145961928466541,0.00079029076188307,-0.0008825938690112596,-0.0002291899344626451,0.00019535577356577727,1.3350396085399023e-05,0.09352988004684448,11.826318740844727,-1.3425629138946533,-21.693452835083008,-0.4745383858680725,-2.5271639823913574,0.21457235515117645,0
74,0.3650047779083252,-0.09352988004684448,-11.826318740844727,1.3425629138946533,21.693452835083008,0.4745383858680725,2.5271639823913574,-0.21457235515117645,0.0,0.0,0.0,0.0,0.0,0.0,0.0,-0.12401736193849212,0.5069211483882226,0.09519294956603483,0.4335750047807594,-0.0547975186948637,0.12689827750157978,-0.2188255914348365,0.1728150959767873,-0.4876471838374856,-0.11145483181530165,-1.9462018200638902,0.1337487486799558,2.595545591407352,0.9452484245217508,0.1728802376190821,-0.48752024683155326,-0.11147110072896137,-1.9463801863486305,0.1336059019074957,2.595550359778934,0.9452445589611904,-0.0007181242043198811,0.0002145961928466541,-0.00079029076188307,0.0008825938690112596,0.0002291899344626451,-0.00019535577356577727,-1.3350396085399023e-05,0.0,0.0,0.0,0.0,0.0,0.0,0.0,6.514164229481922e-05,0.00012693700593235935,-1.6268913659717166e-05,-0.00017836628474032779,-0.00014284677246009791,4.76837158203125e-06,-3.865560560423198e-06,0.0007181242043198811,-0.0002145961928466541,0.00079029076188307,-0.0008825938690112596,-0.0002291899344626451,0.00019535577356577727,1.3350396085399023e-05,0.09352988004684448,11.826318740844727,-1.3425629138946533,-21.693452835083008,-0.4745383858680725,-2.5271639823913574,0.21457235515117645,0
75,0.37000036239624023,-0.14510458707809448,-11.774744033813477,1.2671844959259033,21.717256546020508,0.4745383858680725,2.5271639823913574,-0.18710653483867645,0.0,0.0,0.0,0.0,0.0,0.0,0.0,-0.11701916001779886,0.5185180220061851,0.10682671627995823,0.42784254589755477,-0.05530015121873654,0.12547921686700672,-0.2189616091438212,0.17281656665145267,-0.4876508031021389,-0.11144953346121128,-1.946202802368675,0.1337487486799558,2.595545591407352,0.9452453727639384,0.1728802376190821,-0.48752024683155326,-0.11147110072896137,-1.9463801863486305,0.1336059019074957,2.595550359778934,0.9452445589611904,0.0009841552481397783,-0.0004998322849892508,0.001225891056462109,2.3490075269696055e-05,0.0002977371058784113,-0.00025432551516944146,-0.0014048922913155318,0.0,0.0,0.0,0.0,0.0,0.0,0.0,6.367096762943669e-05,0.00013055627058561337,-2.1567267750086105e-05,-0.00017738397995548105,-0.00014284677246009791,4.76837158203125e-06,-8.138027479676069e-07,-0.0009841552481397783,0.0004998322849892508,-0.001225891056462109,-2.3490075269696055e-05,-0.0002977371058784113,0.00025432551516944146,0.0014048922913155318,0.14510458707809448,11.774744033813477,-1.2671844959259033,-21.717256546020508,-0.4745383858680725,-2.5271639823913574,0.18710653483867645,0
76,0.3750026226043701,-0.14510458707809448,-11.774744033813477,1.2671844959259033,21.717256546020508,0.4745383858680725,2.5271639823913574,-0.18710653483867645,0.0,0.0,0.0,0.0,0.0,0.0,0.0,-0.11701916001779886,0.5185180220061851,0.10682671627995823,0.42784254589755477,-0.05530015121873654,0.12547921686700672,-0.2189616091438212,0.17281656665145267,-0.4876508031021389,-0.11144953346121128,-1.946202802368675,0.1337487486799558,2.595545591407352,0.9452453727639384,0.1728802376190821,-0.48752024683155326,-0.11147110072896137,-1.9463801863486305,0.1336059019074957,2.595550359778934,0.9452445589611904,0.0009841552481397783,-0.0004998322849892508,0.001225891056462109,2.3490075269696055e-05,0.0002977371058784113,-0.00025432551516944146,-0.0014048922913155318,0.0,0.0,0.0,0.0,0.0,0.0,0.0,6.367096762943669e-05,0.00013055627058561337,-2.1567267750086105e-05,-0.00017738397995548105,-0.00014284677246009791,4.76837158203125e-06,-8.138027479676069e-07,-0.0009841552481397783,0.0004998322849892508,-0.001225891056462109,-2.3490075269696055e-05,-0.0002977371058784113,0.00025432551516944146,0.0014048922913155318,0.14510458707809448,11.774744033813477,-1.2671844959259033,-21.717256546020508,-0.4745383858680725,-2.5271639823913574,0.18710653483867645,0
77,0.38001441955566406,-0.14510458707809448,-11.802515029907227,1.2909882068634033,21.741060256958008,0.4809470772743225,2.5335726737976074,-0.20083944499492645,0.0,0.0,0.0,0.0,0.0,0.0,0.0,-0.12575317893873425,0.5050574269313851,0.09217416238930537,0.4351192087237538,-0.0543286456154253,0.12659373496724471,-0.2196345156388346,0.17281632664808402,-0.4876488634176742,-0.11145121264557331,-1.9462051695438056,0.1337480366031329,2.5955459389686584,0.9452468986428446,0.1728802376190821,-0.48752024683155326,-0.11147110072896137,-1.9463801863486305,0.1336059019074957,2.595550359778934,0.9452445589611904,-7.640914637198473e-05,-0.00012890477565965434,-0.0003942920007609489,-0.0005654985588566662,-0.0001436758056803497,-0.0002900268440773784,-0.0005518473309323121,0.0,0.0,0.0,0.0,0.0,0.0,0.0,6.391097099808785e-05,0.0001286165861209554,-1.9888083388056033e-05,-0.00017501680482490123,-0.0001421346956372027,4.42081027562935e-06,-2.3396816541954024e-06,7.640914637198473e-05,0.00012890477565965434,0.0003942920007609489,0.0005654985588566662,0.0001436758056803497,0.0002900268440773784,0.0005518473309323121,0.14510458707809448,11.802515029907227,-1.2909882068634033,-21.741060256958008,-0.4809470772743225,-2.5335726737976074,0.20083944499492645,0
78,0.3849945068359375,-0.14510458707809448,-11.802515029907227,1.2909882068634033,21.741060256958008,0.4809470772743225,2.5335726737976074,-0.20083944499492645,0.0,0.0,0.0,0.0,0.0,0.0,0.0,-0.12575317893873425,0.5050574269313851,0.09217416238930537,0.4351192087237538,-0.0543286456154253,0.12659373496724471,-0.2196345156388346,0.17281632664808402,-0.4876488634176742,-0.11145121264557331,-1.9462051695438056,0.1337480366031329,2.5955459389686584,0.9452468986428446,0.1728802376190821,-0.48752024683155326,-0.11147110072896137,-1.9463801863486305,0.1336059019074957,2.595550359778934,0.9452445589611904,-7.640914637198473e-05,-0.00012890477565965434,-0.0003942920007609489,-0.0005654985588566662,-0.0001436758056803497,-0.0002900268440773784,-0.0005518473309323121,0.0,0.0,0.0,0.0,0.0,0.0,0.0,6.391097099808785e-05,0.0001286165861209554,-1.9888083388056033e-05,-0.00017501680482490123,-0.0001421346956372027,4.42081027562935e-06,-2.3396816541954024e-06,7.640914637198473e-05,0.00012890477565965434,0.0003942920007609489,0.0005654985588566662,0.0001436758056803497,0.0002900268440773784,0.0005518473309323121,0.14510458707809448,11.802515029907227,-1.2909882068634033,-21.741060256958008,-0.4809470772743225,-2.5335726737976074,0.20083944499492645,0
79,0.3900282382965088,-0.09352988004684448,-11.802515029907227,1.2433807849884033,21.717256546020508,0.4809470772743225,2.5207552909851074,-0.20083944499492645,0.0,0.0,0.0,0.0,0.0,0.0,0.0,-0.12643900324562335,0.5098626040224586,0.09257929608304345,0.4312108146164663,-0.05524623444004161,0.1267502129443619,-0.21996649337177673,0.17281341589403493,-0.48764909409615,-0.11144787177391219,-1.946202878933137,0.1337480366031329,2.5955463034901562,0.9452468986428446,0.1728802376190821,-0.48752024683155326,-0.11147110072896137,-1.9463801863486305,0.1336059019074957,2.595550359778934,0.9452445589611904,-0.0010212526555686138,0.00010797864408202806,-2.9297128846897345e-05,-4.79622334033853e-05,-0.0003063280417358013,9.362614355883547e-05,-0.00026930583876490634,0.0,0.0,0.0,0.0,0.0,0.0,0.0,6.682172504718364e-05,0.0001288472645967209,-2.3228955049178768e-05,-0.0001773074154935994,-0.0001421346956372027,4.056288777753991e-06,-2.3396816541954024e-06,0.0010212526555686138,-0.00010797864408202806,2.9297128846897345e-05,4.79622334033853e-05,0.0003063280417358013,-9.362614355883547e-05,0.00026930583876490634,0.09352988004684448,11.802515029907227,-1.2433807849884033,-21.717256546020508,-0.4809470772743225,-2.5207552909851074,0.20083944499492645,0
