rezayati/contactInterpretation/dataset/franka_main/labeled_data/link5/c11_6.csv
index,time,tau_J0,tau_J1,tau_J2,tau_J3,tau_J4,tau_J5,tau_J6,tau_J_d0,tau_J_d1,tau_J_d2,tau_J_d3,tau_J_d4,tau_J_d5,tau_J_d6,tau_ext0,tau_ext1,tau_ext2,tau_ext3,tau_ext4,tau_ext5,tau_ext6,q0,q1,q2,q3,q4,q5,q6,q_d0,q_d1,q_d2,q_d3,q_d4,q_d5,q_d6,dq0,dq1,dq2,dq3,dq4,dq5,dq6,dq_d0,dq_d1,dq_d2,dq_d3,dq_d4,dq_d5,dq_d6,e0,e1,e2,e3,e4,e5,e6,de0,de1,de2,de3,de4,de5,de6,etau_J0,etau_J1,etau_J2,etau_J3,etau_J4,etau_J5,etau_J6,label
1,0.0,-0.09352988004684448,-18.130334854125977,0.9180634021759033,18.023714065551758,0.3262229561805725,2.2360262870788574,-0.18710653483867645,0.0,0.0,0.0,0.0,0.0,0.0,0.0,-0.050149291655153576,0.5452164720236639,0.09859694396179469,0.38508404326851625,-0.1027680368773245,0.06717805203700189,-0.21491548944997663,-0.6089742680948149,-0.05774761144700488,-0.6664768982263564,-2.594478618655266,-0.05556687318742921,2.507958873801761,0.8763169522202676,-0.6090851748156966,-0.05753196718556838,-0.666603097082616,-2.5945565370258534,-0.05562143941554,2.507976027223799,0.8763108487046415,0.0007658777356300449,0.0001938766691447876,-0.0005142572425193654,-0.00027776573576429776,-0.0001945970918255456,0.0005290928919943872,-0.00022360275980332805,0.0,0.0,0.0,0.0,0.0,0.0,0.0,-0.00011090672088165388,0.0002156442614364984,-0.00012619885625964056,-7.791837058723772e-05,-5.456622811079309e-05,1.7153422037896604e-05,-6.1035156261324275e-06,-0.0007658777356300449,-0.0001938766691447876,0.0005142572425193654,0.00027776573576429776,0.0001945970918255456,-0.0005290928919943872,0.00022360275980332805,0.09352988004684448,18.130334854125977,-0.9180634021759033,-18.023714065551758,-0.3262229561805725,-2.2360262870788574,0.18710653483867645,0
2,0.004998445510864258,-0.06972616910934448,-18.154138565063477,0.8942596912384033,18.023714065551758,0.3198142647743225,2.2424349784851074,-0.16604940593242645,0.0,0.0,0.0,0.0,0.0,0.0,0.0,-0.0489207817925558,0.5446065627894041,0.0993255168996636,0.3861608093488346,-0.10275566038313513,0.067386882695841,-0.21138868005960015,-0.6089738267220097,-0.057745941123418,-0.6664752274639175,-2.5944756311734674,-0.055566845961105824,2.5079581617249382,0.876314612539278,-0.6090851748156966,-0.05753196718556838,-0.666603097082616,-2.5945565370258534,-0.05562143941554,2.507976027223799,0.8763108487046415,0.0006932731439502403,0.0009788900846174323,7.499885715761083e-05,0.00011976721810442778,2.074176323902625e-05,0.00037986632605584587,-0.0008607846851340513,0.0,0.0,0.0,0.0,0.0,0.0,0.0,-0.00011134809368684717,0.00021397393784961666,-0.000127869618698484,-8.090585238607062e-05,-5.45934544341764e-05,1.7865498860736295e-05,-3.7638346365165276e-06,-0.0006932731439502403,-0.0009788900846174323,-7.499885715761083e-05,-0.00011976721810442778,-2.074176323902625e-05,-0.00037986632605584587,0.0008607846851340513,0.06972616910934448,18.154138565063477,-0.8942596912384033,-18.023714065551758,-0.3198142647743225,-2.2424349784851074,0.16604940593242645,0
3,0.009999275207519531,-0.06972616910934448,-18.154138565063477,0.8942596912384033,18.023714065551758,0.3198142647743225,2.2424349784851074,-0.16604940593242645,0.0,0.0,0.0,0.0,0.0,0.0,0.0,-0.0489207817925558,0.5446065627894041,0.0993255168996636,0.3861608093488346,-0.10275566038313513,0.067386882695841,-0.21138868005960015,-0.6089738267220097,-0.057745941123418,-0.6664752274639175,-2.5944756311734674,-0.055566845961105824,2.5079581617249382,0.876314612539278,-0.6090851748156966,-0.05753196718556838,-0.666603097082616,-2.5945565370258534,-0.05562143941554,2.507976027223799,0.8763108487046415,0.0006932731439502403,0.0009788900846174323,7.499885715761083e-05,0.00011976721810442778,2.074176323902625e-05,0.00037986632605584587,-0.0008607846851340513,0.0,0.0,0.0,0.0,0.0,0.0,0.0,-0.00011134809368684717,0.00021397393784961666,-0.000127869618698484,-8.090585238607062e-05,-5.45934544341764e-05,1.7865498860736295e-05,-3.7638346365165276e-06,-0.0006932731439502403,-0.0009788900846174323,-7.499885715761083e-05,-0.00011976721810442778,-2.074176323902625e-05,-0.00037986632605584587,0.0008607846851340513,0.06972616910934448,18.154138565063477,-0.8942596912384033,-18.023714065551758,-0.3198142647743225,-2.2424349784851074,0.16604940593242645,0
4,0.015112876892089844,-0.018151462078094482,-18.106531143188477,0.9180634021759033,18.047517776489258,0.3198142647743225,2.2552523612976074,-0.22830526530742645,0.0,0.0,0.0,0.0,0.0,0.0,0.0,-0.049085082135767316,0.5413478175895201,0.09488474178496518,0.38785879379842814,-0.10292636436470472,0.06773231103286223,-0.20795112049747014,-0.608979560364358,-0.05774928199512916,-0.6664768982268198,-2.5944802889693004,-0.055568856290910164,2.5079567375712926,0.8763215296954808,-0.6090851748156966,-0.05753196718556838,-0.666603097082616,-2.5945565370258534,-0.05562143941554,2.507976027223799,0.8763108487046415,-0.0007287667695995366,-0.0006894450195523115,-0.00022027730652041967,-0.00036559884927463463,5.7467038157334155e-05,-0.0002524364020266251,0.0008405222074128505,0.0,0.0,0.0,0.0,0.0,0.0,0.0,-0.00010561445133860925,0.00021731480956077576,-0.00012619885579623347,-7.624805655304101e-05,-5.258312462983611e-05,1.9289652506415678e-05,-1.0680990839340154e-05,0.0007287667695995366,0.0006894450195523115,0.00022027730652041967,0.00036559884927463463,-5.7467038157334155e-05,0.0002524364020266251,-0.0008405222074128505,0.018151462078094482,18.106531143188477,-0.9180634021759033,-18.047517776489258,-0.3198142647743225,-2.2552523612976074,0.22830526530742645,0
5,0.02010655403137207,-0.018151462078094482,-18.106531143188477,0.9180634021759033,18.047517776489258,0.3198142647743225,2.2552523612976074,-0.22830526530742645,0.0,0.0,0.0,0.0,0.0,0.0,0.0,-0.049085082135767316,0.5413478175895201,0.09488474178496518,0.38785879379842814,-0.10292636436470472,0.06773231103286223,-0.20795112049747014,-0.608979560364358,-0.05774928199512916,-0.6664768982268198,-2.5944802889693004,-0.055568856290910164,2.5079567375712926,0.8763215296954808,-0.6090851748156966,-0.05753196718556838,-0.666603097082616,-2.5945565370258534,-0.05562143941554,2.507976027223799,0.8763108487046415,-0.0007287667695995366,-0.0006894450195523115,-0.00022027730652041967,-0.00036559884927463463,5.7467038157334155e-05,-0.0002524364020266251,0.0008405222074128505,0.0,0.0,0.0,0.0,0.0,0.0,0.0,-0.00010561445133860925,0.00021731480956077576,-0.00012619885579623347,-7.624805655304101e-05,-5.258312462983611e-05,1.9289652506415678e-05,-1.0680990839340154e-05,0.0007287667695995366,0.0006894450195523115,0.00022027730652041967,0.00036559884927463463,-5.7467038157334155e-05,0.0002524364020266251,-0.0008405222074128505,0.018151462078094482,18.106531143188477,-0.9180634021759033,-18.047517776489258,-0.3198142647743225,-2.2552523612976074,0.22830526530742645,0
6,0.025002002716064453,-0.018151462078094482,-18.130334854125977,0.8942596912384033,18.023714065551758,0.3317161202430725,2.2552523612976074,-0.23471395671367645,0.0,0.0,0.0,0.0,0.0,0.0,0.0,-0.04444736354031262,0.5439718556763428,0.0975004148484876,0.3887159536769348,-0.10338933228129071,0.06745296718923997,-0.20845093633827597,-0.608979560697286,-0.057747611559273895,-0.666475226482771,-2.59447831222267,-0.05557033125752584,2.5079570907840023,0.8763222419338084,-0.6090851748156966,-0.05753196718556838,-0.666603097082616,-2.5945565370258534,-0.05562143941554,2.507976027223799,0.8763108487046415,-1.74337550049841e-05,0.0005009998876961702,0.0007326273269995146,0.00035431723981414645,-0.00038002538469327754,-0.00036813982583906604,0.0013207670727533151,0.0,0.0,0.0,0.0,0.0,0.0,0.0,-0.00010561411841059076,0.00021564437370551193,-0.0001278705998449814,-7.822480318342429e-05,-5.110815801415841e-05,1.893643979666848e-05,-1.139322916687835e-05,1.74337550049841e-05,-0.0005009998876961702,-0.0007326273269995146,-0.00035431723981414645,0.00038002538469327754,0.00036813982583906604,-0.0013207670727533151,0.018151462078094482,18.130334854125977,-0.8942596912384033,-18.023714065551758,-0.3317161202430725,-2.2552523612976074,0.23471395671367645,0
7,0.03000187873840332,-0.018151462078094482,-18.130334854125977,0.8942596912384033,18.023714065551758,0.3317161202430725,2.2552523612976074,-0.23471395671367645,0.0,0.0,0.0,0.0,0.0,0.0,0.0,-0.04444736354031262,0.5439718556763428,0.0975004148484876,0.3887159536769348,-0.10338933228129071,0.06745296718923997,-0.20845093633827597,-0.608979560697286,-0.057747611559273895,-0.666475226482771,-2.59447831222267,-0.05557033125752584,2.5079570907840023,0.8763222419338084,-0.6090851748156966,-0.05753196718556838,-0.666603097082616,-2.5945565370258534,-0.05562143941554,2.507976027223799,0.8763108487046415,-1.74337550049841e-05,0.0005009998876961702,0.0007326273269995146,0.00035431723981414645,-0.00038002538469327754,-0.00036813982583906604,0.0013207670727533151,0.0,0.0,0.0,0.0,0.0,0.0,0.0,-0.00010561411841059076,0.00021564437370551193,-0.0001278705998449814,-7.822480318342429e-05,-5.110815801415841e-05,1.893643979666848e-05,-1.139322916687835e-05,1.74337550049841e-05,-0.0005009998876961702,-0.0007326273269995146,-0.00035431723981414645,0.00038002538469327754,0.00036813982583906604,-0.0013207670727533151,0.018151462078094482,18.130334854125977,-0.8942596912384033,-18.023714065551758,-0.3317161202430725,-2.2552523612976074,0.23471395671367645,0
8,0.03499960899353027,0.005652248859405518,-18.106531143188477,0.9418671131134033,17.999910354614258,0.3143211007118225,2.2552523612976074,-0.24112264811992645,0.0,0.0,0.0,0.0,0.0,0.0,0.0,-0.0523444047056952,0.5414872683189123,0.08912873574449537,0.38973275049286843,-0.10249567148051798,0.0669276080364021,-0.20869108650669693,-0.608981153132003,-0.05774928199512916,-0.6664784626988565,-2.594476948217703,-0.0555662351929184,2.5079567375732865,0.8763229540106322,-0.6090851748156966,-0.05753196718556838,-0.666603097082616,-2.5945565370258534,-0.05562143941554,2.507976027223799,0.8763108487046415,-0.0011683948938425515,-0.0003786362804753491,-0.0006058440950009536,0.0006758274782675726,0.00031674737829794514,-0.00027437437459270925,0.0009583173095437619,0.0,0.0,0.0,0.0,0.0,0.0,0.0,-0.00010402168369361142,0.00021731480956077576,-0.0001246343837595365,-7.95888081506213e-05,-5.520422262159791e-05,1.9289650512455125e-05,-1.2105305990717241e-05,0.0011683948938425515,0.0003786362804753491,0.0006058440950009536,-0.0006758274782675726,-0.00031674737829794514,0.00027437437459270925,-0.0009583173095437619,-0.005652248859405518,18.106531143188477,-0.9418671131134033,-17.999910354614258,-0.3143211007118225,-2.2552523612976074,0.24112264811992645,0
9,0.04000139236450195,0.005652248859405518,-18.106531143188477,0.9418671131134033,17.999910354614258,0.3143211007118225,2.2552523612976074,-0.24112264811992645,0.0,0.0,0.0,0.0,0.0,0.0,0.0,-0.0523444047056952,0.5414872683189123,0.08912873574449537,0.38973275049286843,-0.10249567148051798,0.0669276080364021,-0.20869108650669693,-0.608981153132003,-0.05774928199512916,-0.6664784626988565,-2.594476948217703,-0.0555662351929184,2.5079567375732865,0.8763229540106322,-0.6090851748156966,-0.05753196718556838,-0.666603097082616,-2.5945565370258534,-0.05562143941554,2.507976027223799,0.8763108487046415,-0.0011683948938425515,-0.0003786362804753491,-0.0006058440950009536,0.0006758274782675726,0.00031674737829794514,-0.00027437437459270925,0.0009583173095437619,0.0,0.0,0.0,0.0,0.0,0.0,0.0,-0.00010402168369361142,0.00021731480956077576,-0.0001246343837595365,-7.95888081506213e-05,-5.520422262159791e-05,1.9289650512455125e-05,-1.2105305990717241e-05,0.0011683948938425515,0.0003786362804753491,0.0006058440950009536,-0.0006758274782675726,-0.00031674737829794514,0.00027437437459270925,-0.0009583173095437619,-0.005652248859405518,18.106531143188477,-0.9418671131134033,-17.999910354614258,-0.3143211007118225,-2.2552523612976074,0.24112264811992645,0
10,0.0449986457824707,-0.018151462078094482,-18.130334854125977,0.9418671131134033,17.999910354614258,0.3262229561805725,2.2625765800476074,-0.20724813640117645,0.0,0.0,0.0,0.0,0.0,0.0,0.0,-0.046272742753863144,0.5470826654522727,0.09685356183390081,0.3875471000248081,-0.10295125227948092,0.06657196259595517,-0.21088256078856973,-0.6089795260296741,-0.057747611559273895,-0.6664764228948667,-2.5944769482194325,-0.055567908583183,2.5079559368511615,0.8763191901759968,-0.6090851748156966,-0.05753196718556838,-0.666603097082616,-2.5945565370258534,-0.05562143941554,2.507976027223799,0.8763108487046415,-0.0006091024054979494,0.0005697788168289691,-0.00043993869325139034,0.0004231425986359226,-0.00027822834245256044,-0.00047796458103062736,-0.0006645677803092337,0.0,0.0,0.0,0.0,0.0,0.0,0.0,-0.00010564878602248307,0.00021564437370551193,-0.00012667418774925387,-7.958880642089383e-05,-5.353083235699885e-05,2.0090372637504572e-05,-8.341471355310937e-06,0.0006091024054979494,-0.0005697788168289691,0.00043993869325139034,-0.0004231425986359226,0.00027822834245256044,0.00047796458103062736,0.0006645677803092337,0.018151462078094482,18.130334854125977,-0.9418671131134033,-17.999910354614258,-0.3262229561805725,-2.2625765800476074,0.20724813640117645,0
11,0.050000905990600586,-0.018151462078094482,-18.130334854125977,0.9418671131134033,17.999910354614258,0.3262229561805725,2.2625765800476074,-0.20724813640117645,0.0,0.0,0.0,0.0,0.0,0.0,0.0,-0.046272742753863144,0.5470826654522727,0.09685356183390081,0.3875471000248081,-0.10295125227948092,0.06657196259595517,-0.21088256078856973,-0.6089795260296741,-0.057747611559273895,-0.6664764228948667,-2.5944769482194325,-0.055567908583183,2.5079559368511615,0.8763191901759968,-0.6090851748156966,-0.05753196718556838,-0.666603097082616,-2.5945565370258534,-0.05562143941554,2.507976027223799,0.8763108487046415,-0.0006091024054979494,0.0005697788168289691,-0.00043993869325139034,0.0004231425986359226,-0.00027822834245256044,-0.00047796458103062736,-0.0006645677803092337,0.0,0.0,0.0,0.0,0.0,0.0,0.0,-0.00010564878602248307,0.00021564437370551193,-0.00012667418774925387,-7.958880642089383e-05,-5.353083235699885e-05,2.0090372637504572e-05,-8.341471355310937e-06,0.0006091024054979494,-0.0005697788168289691,0.00043993869325139034,-0.0004231425986359226,0.00027822834245256044,0.00047796458103062736,0.0006645677803092337,0.018151462078094482,18.130334854125977,-0.9418671131134033,-17.999910354614258,-0.3262229561805725,-2.2625765800476074,0.20724813640117645,0
12,0.05500006675720215,-0.04592245817184448,-18.130334854125977,0.9180634021759033,18.023714065551758,0.3198142647743225,2.2424349784851074,-0.23471395671367645,0.0,0.0,0.0,0.0,0.0,0.0,0.0,-0.03605457327396984,0.5475424105260336,0.10650543795119807,0.3860145209017012,-0.1036317886015363,0.0674964264504387,-0.21158256817731863,-0.608977611855261,-0.057747611559273895,-0.6664768972335623,-2.594478618655288,-0.05556712154300145,2.507958161725012,0.8763222419338093,-0.6090851748156966,-0.05753196718556838,-0.666603097082616,-2.5945565370258534,-0.05562143941554,2.507976027223799,0.8763108487046415,0.0006164425127471116,0.00042426455311064847,0.0008814479935122501,-0.00037027646471853113,0.00012619975822057903,0.00020586423367391268,0.001094873756915982,0.0,0.0,0.0,0.0,0.0,0.0,0.0,-0.0001075629604355699,0.00021564437370551193,-0.00012619984905370973,-7.791837056547735e-05,-5.431787253854653e-05,1.7865498787017486e-05,-1.1393229167766528e-05,-0.0006164425127471116,-0.00042426455311064847,-0.0008814479935122501,0.00037027646471853113,-0.00012619975822057903,-0.00020586423367391268,-0.001094873756915982,0.04592245817184448,18.130334854125977,-0.9180634021759033,-18.023714065551758,-0.3198142647743225,-2.2424349784851074,0.23471395671367645,0
13,0.06000232696533203,-0.04592245817184448,-18.130334854125977,0.9180634021759033,18.023714065551758,0.3198142647743225,2.2424349784851074,-0.23471395671367645,0.0,0.0,0.0,0.0,0.0,0.0,0.0,-0.03605457327396984,0.5475424105260336,0.10650543795119807,0.3860145209017012,-0.1036317886015363,0.0674964264504387,-0.21158256817731863,-0.608977611855261,-0.057747611559273895,-0.6664768972335623,-2.594478618655288,-0.05556712154300145,2.507958161725012,0.8763222419338093,-0.6090851748156966,-0.05753196718556838,-0.666603097082616,-2.5945565370258534,-0.05562143941554,2.507976027223799,0.8763108487046415,0.0006164425127471116,0.00042426455311064847,0.0008814479935122501,-0.00037027646471853113,0.00012619975822057903,0.00020586423367391268,0.001094873756915982,0.0,0.0,0.0,0.0,0.0,0.0,0.0,-0.0001075629604355699,0.00021564437370551193,-0.00012619984905370973,-7.791837056547735e-05,-5.431787253854653e-05,1.7865498787017486e-05,-1.1393229167766528e-05,-0.0006164425127471116,-0.00042426455311064847,-0.0008814479935122501,0.00037027646471853113,-0.00012619975822057903,-0.00020586423367391268,-0.001094873756915982,0.04592245817184448,18.130334854125977,-0.9180634021759033,-18.023714065551758,-0.3198142647743225,-2.2424349784851074,0.23471395671367645,0
14,0.06500053405761719,-0.04592245817184448,-18.130334854125977,0.9180634021759033,18.023714065551758,0.3198142647743225,2.2424349784851074,-0.23471395671367645,0.0,0.0,0.0,0.0,0.0,0.0,0.0,-0.03605457327396984,0.5475424105260336,0.10650543795119807,0.3860145209017012,-0.1036317886015363,0.0674964264504387,-0.21158256817731863,-0.608977611855261,-0.057747611559273895,-0.6664768972335623,-2.594478618655288,-0.05556712154300145,2.507958161725012,0.8763222419338093,-0.6090851748156966,-0.05753196718556838,-0.666603097082616,-2.5945565370258534,-0.05562143941554,2.507976027223799,0.8763108487046415,0.0006164425127471116,0.00042426455311064847,0.0008814479935122501,-0.00037027646471853113,0.00012619975822057903,0.00020586423367391268,0.001094873756915982,0.0,0.0,0.0,0.0,0.0,0.0,0.0,-0.0001075629604355699,0.00021564437370551193,-0.00012619984905370973,-7.791837056547735e-05,-5.431787253854653e-05,1.7865498787017486e-05,-1.1393229167766528e-05,-0.0006164425127471116,-0.00042426455311064847,-0.0008814479935122501,0.00037027646471853113,-0.00012619975822057903,-0.00020586423367391268,-0.001094873756915982,0.04592245817184448,18.130334854125977,-0.9180634021759033,-18.023714065551758,-0.3198142647743225,-2.2424349784851074,0.23471395671367645,0
15,0.0701148509979248,-0.04592245817184448,-18.130334854125977,0.9180634021759033,18.023714065551758,0.3198142647743225,2.2424349784851074,-0.23471395671367645,0.0,0.0,0.0,0.0,0.0,0.0,0.0,-0.03605457327396984,0.5475424105260336,0.10650543795119807,0.3860145209017012,-0.1036317886015363,0.0674964264504387,-0.21158256817731863,-0.608977611855261,-0.057747611559273895,-0.6664768972335623,-2.594478618655288,-0.05556712154300145,2.507958161725012,0.8763222419338093,-0.6090851748156966,-0.05753196718556838,-0.666603097082616,-2.5945565370258534,-0.05562143941554,2.507976027223799,0.8763108487046415,0.0006164425127471116,0.00042426455311064847,0.0008814479935122501,-0.00037027646471853113,0.00012619975822057903,0.00020586423367391268,0.001094873756915982,0.0,0.0,0.0,0.0,0.0,0.0,0.0,-0.0001075629604355699,0.00021564437370551193,-0.00012619984905370973,-7.791837056547735e-05,-5.431787253854653e-05,1.7865498787017486e-05,-1.1393229167766528e-05,-0.0006164425127471116,-0.00042426455311064847,-0.0008814479935122501,0.00037027646471853113,-0.00012619975822057903,-0.00020586423367391268,-0.001094873756915982,0.04592245817184448,18.130334854125977,-0.9180634021759033,-18.023714065551758,-0.3198142647743225,-2.2424349784851074,0.23471395671367645,0
16,0.07501006126403809,-0.06972616910934448,-18.130334854125977,0.9180634021759033,18.071321487426758,0.3143211007118225,2.2625765800476074,-0.20724813640117645,0.0,0.0,0.0,0.0,0.0,0.0,0.0,-0.049273834207093754,0.546021667176593,0.09871366784683419,0.38705896311471444,-0.10243728169025602,0.06759248467733628,-0.2081791395926442,-0.6089759410862746,-0.057747611559273895,-0.6664768982268215,-2.5944798677228182,-0.055569699592222854,2.5079559252227592,0.8763181305378674,-0.6090851748156966,-0.05753196718556838,-0.666603097082616,-2.5945565370258534,-0.05562143941554,2.507976027223799,0.8763108487046415,-0.00016184532805868098,0.0003312429877346893,-0.00048262742667153264,-0.0008767160758227871,0.00024037292919709823,-0.00024591390851737255,-0.0004162010533626109,0.0,0.0,0.0,0.0,0.0,0.0,0.0,-0.00010923372942195364,0.00021564437370551193,-0.0001261988557944571,-7.666930303518171e-05,-5.173982331714566e-05,2.0102001039745687e-05,-7.281833225958323e-06,0.00016184532805868098,-0.0003312429877346893,0.00048262742667153264,0.0008767160758227871,-0.00024037292919709823,0.00024591390851737255,0.0004162010533626109,0.06972616910934448,18.130334854125977,-0.9180634021759033,-18.071321487426758,-0.3143211007118225,-2.2625765800476074,0.20724813640117645,0
17,0.08001303672790527,-0.06972616910934448,-18.130334854125977,0.9180634021759033,18.071321487426758,0.3143211007118225,2.2625765800476074,-0.20724813640117645,0.0,0.0,0.0,0.0,0.0,0.0,0.0,-0.049273834207093754,0.546021667176593,0.09871366784683419,0.38705896311471444,-0.10243728169025602,0.06759248467733628,-0.2081791395926442,-0.6089759410862746,-0.057747611559273895,-0.6664768982268215,-2.5944798677228182,-0.055569699592222854,2.5079559252227592,0.8763181305378674,-0.6090851748156966,-0.05753196718556838,-0.666603097082616,-2.5945565370258534,-0.05562143941554,2.507976027223799,0.8763108487046415,-0.00016184532805868098,0.0003312429877346893,-0.00048262742667153264,-0.0008767160758227871,0.00024037292919709823,-0.00024591390851737255,-0.0004162010533626109,0.0,0.0,0.0,0.0,0.0,0.0,0.0,-0.00010923372942195364,0.00021564437370551193,-0.0001261988557944571,-7.666930303518171e-05,-5.173982331714566e-05,2.0102001039745687e-05,-7.281833225958323e-06,0.00016184532805868098,-0.0003312429877346893,0.00048262742667153264,0.0008767160758227871,-0.00024037292919709823,0.00024591390851737255,0.0004162010533626109,0.06972616910934448,18.130334854125977,-0.9180634021759033,-18.071321487426758,-0.3143211007118225,-2.2625765800476074,0.20724813640117645,0
18,0.08500480651855469,-0.06972616910934448,-18.130334854125977,0.9180634021759033,18.071321487426758,0.3143211007118225,2.2625765800476074,-0.20724813640117645,0.0,0.0,0.0,0.0,0.0,0.0,0.0,-0.049273834207093754,0.546021667176593,0.09871366784683419,0.38705896311471444,-0.10243728169025602,0.06759248467733628,-0.2081791395926442,-0.6089759410862746,-0.057747611559273895,-0.6664768982268215,-2.5944798677228182,-0.055569699592222854,2.5079559252227592,0.8763181305378674,-0.6090851748156966,-0.05753196718556838,-0.666603097082616,-2.5945565370258534,-0.05562143941554,2.507976027223799,0.8763108487046415,-0.00016184532805868098,0.0003312429877346893,-0.00048262742667153264,-0.0008767160758227871,0.00024037292919709823,-0.00024591390851737255,-0.0004162010533626109,0.0,0.0,0.0,0.0,0.0,0.0,0.0,-0.00010923372942195364,0.00021564437370551193,-0.0001261988557944571,-7.666930303518171e-05,-5.173982331714566e-05,2.0102001039745687e-05,-7.281833225958323e-06,0.00016184532805868098,-0.0003312429877346893,0.00048262742667153264,0.0008767160758227871,-0.00024037292919709823,0.00024591390851737255,0.0004162010533626109,0.06972616910934448,18.130334854125977,-0.9180634021759033,-18.071321487426758,-0.3143211007118225,-2.2625765800476074,0.20724813640117645,0
19,0.09000158309936523,-0.06972616910934448,-18.130334854125977,0.9180634021759033,18.071321487426758,0.3143211007118225,2.2625765800476074,-0.20724813640117645,0.0,0.0,0.0,0.0,0.0,0.0,0.0,-0.049273834207093754,0.546021667176593,0.09871366784683419,0.38705896311471444,-0.10243728169025602,0.06759248467733628,-0.2081791395926442,-0.6089759410862746,-0.057747611559273895,-0.6664768982268215,-2.5944798677228182,-0.055569699592222854,2.5079559252227592,0.8763181305378674,-0.6090851748156966,-0.05753196718556838,-0.666603097082616,-2.5945565370258534,-0.05562143941554,2.507976027223799,0.8763108487046415,-0.00016184532805868098,0.0003312429877346893,-0.00048262742667153264,-0.0008767160758227871,0.00024037292919709823,-0.00024591390851737255,-0.0004162010533626109,0.0,0.0,0.0,0.0,0.0,0.0,0.0,-0.00010923372942195364,0.00021564437370551193,-0.0001261988557944571,-7.666930303518171e-05,-5.173982331714566e-05,2.0102001039745687e-05,-7.281833225958323e-06,0.00016184532805868098,-0.0003312429877346893,0.00048262742667153264,0.0008767160758227871,-0.00024037292919709823,0.00024591390851737255,0.0004162010533626109,0.06972616910934448,18.130334854125977,-0.9180634021759033,-18.071321487426758,-0.3143211007118225,-2.2625765800476074,0.20724813640117645,0
20,0.09503006935119629,-0.06972616910934448,-18.154138565063477,0.8942596912384033,18.023714065551758,0.3262229561805725,2.2488436698913574,-0.24112264811992645,0.0,0.0,0.0,0.0,0.0,0.0,0.0,-0.051892289838545436,0.5474702621894232,0.0970094606919456,0.3875194789871628,-0.10293755404516436,0.06744061045761905,-0.20895106956457485,-0.6089759414195995,-0.05774594112341863,-0.6664730790803152,-2.594476296201273,-0.05556759754525817,2.5079574496481234,0.8763229540046505,-0.6090851748156966,-0.05753196718556838,-0.666603097082616,-2.5945565370258534,-0.05562143941554,2.507976027223799,0.8763108487046415,-0.0001103121789665672,0.0009439665385731481,2.806535906199736e-05,0.000173987795370982,-0.00014248476388291554,-1.2758453466658536e-05,0.00032204802747097533,0.0,0.0,0.0,0.0,0.0,0.0,0.0,-0.00010923339609703042,0.0002139739378502481,-0.0001300180023008357,-8.024082458035764e-05,-5.384187028183163e-05,1.857757567558238e-05,-1.2105300009057629e-05,0.0001103121789665672,-0.0009439665385731481,-2.806535906199736e-05,-0.000173987795370982,0.00014248476388291554,1.2758453466658536e-05,-0.00032204802747097533,0.06972616910934448,18.154138565063477,-0.8942596912384033,-18.023714065551758,-0.3262229561805725,-2.2488436698913574,0.24112264811992645,0
21,0.10000443458557129,-0.06972616910934448,-18.154138565063477,0.8942596912384033,18.023714065551758,0.3262229561805725,2.2488436698913574,-0.24112264811992645,0.0,0.0,0.0,0.0,0.0,0.0,0.0,-0.051892289838545436,0.5474702621894232,0.0970094606919456,0.3875194789871628,-0.10293755404516436,0.06744061045761905,-0.20895106956457485,-0.6089759414195995,-0.05774594112341863,-0.6664730790803152,-2.594476296201273,-0.05556759754525817,2.5079574496481234,0.8763229540046505,-0.6090851748156966,-0.05753196718556838,-0.666603097082616,-2.5945565370258534,-0.05562143941554,2.507976027223799,0.8763108487046415,-0.0001103121789665672,0.0009439665385731481,2.806535906199736e-05,0.000173987795370982,-0.00014248476388291554,-1.2758453466658536e-05,0.00032204802747097533,0.0,0.0,0.0,0.0,0.0,0.0,0.0,-0.00010923339609703042,0.0002139739378502481,-0.0001300180023008357,-8.024082458035764e-05,-5.384187028183163e-05,1.857757567558238e-05,-1.2105300009057629e-05,0.0001103121789665672,-0.0009439665385731481,-2.806535906199736e-05,-0.000173987795370982,0.00014248476388291554,1.2758453466658536e-05,-0.00032204802747097533,0.06972616910934448,18.154138565063477,-0.8942596912384033,-18.023714065551758,-0.3262229561805725,-2.2488436698913574,0.24112264811992645,0
22,0.10499906539916992,-0.06972616910934448,-18.106531143188477,0.9180634021759033,18.023714065551758,0.3143211007118225,2.2552523612976074,-0.22830526530742645,0.0,0.0,0.0,0.0,0.0,0.0,0.0,-0.05358336163548237,0.5465056335401565,0.094823740333639,0.3866667060554645,-0.10286364039658923,0.0667741363859283,-0.21218801521745997,-0.6089731304896275,-0.05774928199512916,-0.6664768977422882,-2.594478618642178,-0.055569427968817794,2.5079567375712926,0.8763215298569863,-0.6090851748156966,-0.05753196718556838,-0.666603097082616,-2.5945565370258534,-0.05562143941554,2.507976027223799,0.8763108487046415,0.0001651581652687949,-0.00026490431842170377,-0.00050233295424308,-9.14930252043201e-05,0.0003167320600259782,-0.000285572225901439,-9.737030510853177e-06,0.0,0.0,0.0,0.0,0.0,0.0,0.0,-0.00011204432606903847,0.00021731480956077576,-0.00012619934032775948,-7.791838367543491e-05,-5.201144672220548e-05,1.9289652506415678e-05,-1.0681152344815814e-05,-0.0001651581652687949,0.00026490431842170377,0.00050233295424308,9.14930252043201e-05,-0.0003167320600259782,0.000285572225901439,9.737030510853177e-06,0.06972616910934448,18.106531143188477,-0.9180634021759033,-18.023714065551758,-0.3143211007118225,-2.2552523612976074,0.22830526530742645,0
23,0.11003613471984863,-0.06972616910934448,-18.106531143188477,0.9180634021759033,18.023714065551758,0.3143211007118225,2.2552523612976074,-0.22830526530742645,0.0,0.0,0.0,0.0,0.0,0.0,0.0,-0.05358336163548237,0.5465056335401565,0.094823740333639,0.3866667060554645,-0.10286364039658923,0.0667741363859283,-0.21218801521745997,-0.6089731304896275,-0.05774928199512916,-0.6664768977422882,-2.594478618642178,-0.055569427968817794,2.5079567375712926,0.8763215298569863,-0.6090851748156966,-0.05753196718556838,-0.666603097082616,-2.5945565370258534,-0.05562143941554,2.507976027223799,0.8763108487046415,0.0001651581652687949,-0.00026490431842170377,-0.00050233295424308,-9.14930252043201e-05,0.0003167320600259782,-0.000285572225901439,-9.737030510853177e-06,0.0,0.0,0.0,0.0,0.0,0.0,0.0,-0.00011204432606903847,0.00021731480956077576,-0.00012619934032775948,-7.791838367543491e-05,-5.201144672220548e-05,1.9289652506415678e-05,-1.0681152344815814e-05,-0.0001651581652687949,0.00026490431842170377,0.00050233295424308,9.14930252043201e-05,-0.0003167320600259782,0.000285572225901439,9.737030510853177e-06,0.06972616910934448,18.106531143188477,-0.9180634021759033,-18.023714065551758,-0.3143211007118225,-2.2552523612976074,0.22830526530742645,0
24,0.11513566970825195,-0.018151462078094482,-18.106531143188477,0.9180634021759033,18.071321487426758,0.3198142647743225,2.2689852714538574,-0.20083944499492645,0.0,0.0,0.0,0.0,0.0,0.0,0.0,-0.05095200895640435,0.5471301344010054,0.09515214516410868,0.3857294257026699,-0.103012294820118,0.06699482602568667,-0.21441032914697097,-0.6089795605744226,-0.05774928199512916,-0.6664768952833796,-2.5944819594220196,-0.05556932843912688,2.507955211692386,0.8763184780991738,-0.6090851748156966,-0.05753196718556838,-0.666603097082616,-2.5945565370258534,-0.05562143941554,2.507976027223799,0.8763108487046415,-0.0006112541988631832,4.941348987231977e-05,0.00010366143346181517,-0.0012996821419210866,7.961100217131274e-05,-0.0005144395431075034,-0.0008500639500079897,0.0,0.0,0.0,0.0,0.0,0.0,0.0,-0.0001056142412739769,0.00021731480956077576,-0.00012620179923639174,-7.457760383378087e-05,-5.211097641311807e-05,2.0815531412754495e-05,-7.629394532360223e-06,0.0006112541988631832,-4.941348987231977e-05,-0.00010366143346181517,0.0012996821419210866,-7.961100217131274e-05,0.0005144395431075034,0.0008500639500079897,0.018151462078094482,18.106531143188477,-0.9180634021759033,-18.071321487426758,-0.3198142647743225,-2.2689852714538574,0.20083944499492645,0
25,0.12000060081481934,-0.018151462078094482,-18.106531143188477,0.9180634021759033,18.071321487426758,0.3198142647743225,2.2689852714538574,-0.20083944499492645,0.0,0.0,0.0,0.0,0.0,0.0,0.0,-0.05095200895640435,0.5471301344010054,0.09515214516410868,0.3857294257026699,-0.103012294820118,0.06699482602568667,-0.21441032914697097,-0.6089795605744226,-0.05774928199512916,-0.6664768952833796,-2.5944819594220196,-0.05556932843912688,2.507955211692386,0.8763184780991738,-0.6090851748156966,-0.05753196718556838,-0.666603097082616,-2.5945565370258534,-0.05562143941554,2.507976027223799,0.8763108487046415,-0.0006112541988631832,4.941348987231977e-05,0.00010366143346181517,-0.0012996821419210866,7.961100217131274e-05,-0.0005144395431075034,-0.0008500639500079897,0.0,0.0,0.0,0.0,0.0,0.0,0.0,-0.0001056142412739769,0.00021731480956077576,-0.00012620179923639174,-7.457760383378087e-05,-5.211097641311807e-05,2.0815531412754495e-05,-7.629394532360223e-06,0.0006112541988631832,-4.941348987231977e-05,-0.00010366143346181517,0.0012996821419210866,-7.961100217131274e-05,0.0005144395431075034,0.0008500639500079897,0.018151462078094482,18.106531143188477,-0.9180634021759033,-18.071321487426758,-0.3198142647743225,-2.2689852714538574,0.20083944499492645,0
26,0.1250019073486328,-0.04592245817184448,-18.106531143188477,0.9696381092071533,18.023714065551758,0.3143211007118225,2.2625765800476074,-0.22830526530742645,0.0,0.0,0.0,0.0,0.0,0.0,0.0,-0.05459666924607016,0.5447893157781877,0.09049744871054904,0.3868101811094965,-0.1028104797220779,0.06789756088390687,-0.21462285140185117,-0.6089776117484585,-0.05774928199512916,-0.6664776555003957,-2.594478389067026,-0.055568364675526484,2.50795592958341,0.8763215298569863,-0.6090851748156966,-0.05753196718556838,-0.666603097082616,-2.5945565370258534,-0.05562143941554,2.507976027223799,0.8763108487046415,3.339280283442936e-05,-0.00015939346995108976,-0.0012336861753227272,-0.0001596860544194736,0.0002832040054137535,-0.0006196548789894645,0.0005587185591005063,0.0,0.0,0.0,0.0,0.0,0.0,0.0,-0.00010756306723802567,0.00021731480956077576,-0.0001254415822202759,-7.81479588272127e-05,-5.307474001351592e-05,2.0097640388794247e-05,-1.0681152344815814e-05,-3.339280283442936e-05,0.00015939346995108976,0.0012336861753227272,0.0001596860544194736,-0.0002832040054137535,0.0006196548789894645,-0.0005587185591005063,0.04592245817184448,18.106531143188477,-0.9696381092071533,-18.023714065551758,-0.3143211007118225,-2.2625765800476074,0.22830526530742645,0
27,0.13000178337097168,-0.04592245817184448,-18.106531143188477,0.9696381092071533,18.023714065551758,0.3143211007118225,2.2625765800476074,-0.22830526530742645,0.0,0.0,0.0,0.0,0.0,0.0,0.0,-0.05459666924607016,0.5447893157781877,0.09049744871054904,0.3868101811094965,-0.1028104797220779,0.06789756088390687,-0.21462285140185117,-0.6089776117484585,-0.05774928199512916,-0.6664776555003957,-2.594478389067026,-0.055568364675526484,2.50795592958341,0.8763215298569863,-0.6090851748156966,-0.05753196718556838,-0.666603097082616,-2.5945565370258534,-0.05562143941554,2.507976027223799,0.8763108487046415,3.339280283442936e-05,-0.00015939346995108976,-0.0012336861753227272,-0.0001596860544194736,0.0002832040054137535,-0.0006196548789894645,0.0005587185591005063,0.0,0.0,0.0,0.0,0.0,0.0,0.0,-0.00010756306723802567,0.00021731480956077576,-0.0001254415822202759,-7.81479588272127e-05,-5.307474001351592e-05,2.0097640388794247e-05,-1.0681152344815814e-05,-3.339280283442936e-05,0.00015939346995108976,0.0012336861753227272,0.0001596860544194736,-0.0002832040054137535,0.0006196548789894645,-0.0005587185591005063,0.04592245817184448,18.106531143188477,-0.9696381092071533,-18.023714065551758,-0.3143211007118225,-2.2625765800476074,0.22830526530742645,0
28,0.13499689102172852,-0.04592245817184448,-18.078760147094727,0.9696381092071533,18.023714065551758,0.3262229561805725,2.2488436698913574,-0.16604940593242645,0.0,0.0,0.0,0.0,0.0,0.0,0.0,-0.04899897971406443,0.5520214057500913,0.09683759713150179,0.383713026491123,-0.1026681960688749,0.06719934635548803,-0.21471089852127306,-0.6089776028676704,-0.0577512308369603,-0.6664805174883518,-2.5944779289444004,-0.05557102582278698,2.5079574496481483,0.876314612539278,-0.6090851748156966,-0.05753196718556838,-0.666603097082616,-2.5945565370258534,-0.05562143941554,2.507976027223799,0.8763108487046415,0.00044529152492169547,-0.00023437814931807644,-0.000912153257008264,-0.00045282901913815577,-5.567986097607805e-05,0.00022793143630811318,-0.00170409178066582,0.0,0.0,0.0,0.0,0.0,0.0,0.0,-0.00010757194802613057,0.0002192636513919169,-0.00012257959426420495,-7.860808145299103e-05,-5.041359275301943e-05,1.8577575650713385e-05,-3.7638346365165276e-06,-0.00044529152492169547,0.00023437814931807644,0.000912153257008264,0.00045282901913815577,5.567986097607805e-05,-0.00022793143630811318,0.00170409178066582,0.04592245817184448,18.078760147094727,-0.9696381092071533,-18.023714065551758,-0.3262229561805725,-2.2488436698913574,0.16604940593242645,0
29,0.1400139331817627,-0.04592245817184448,-18.078760147094727,0.9696381092071533,18.023714065551758,0.3262229561805725,2.2488436698913574,-0.16604940593242645,0.0,0.0,0.0,0.0,0.0,0.0,0.0,-0.04899897971406443,0.5520214057500913,0.09683759713150179,0.383713026491123,-0.1026681960688749,0.06719934635548803,-0.21471089852127306,-0.6089776028676704,-0.0577512308369603,-0.6664805174883518,-2.5944779289444004,-0.05557102582278698,2.5079574496481483,0.876314612539278,-0.6090851748156966,-0.05753196718556838,-0.666603097082616,-2.5945565370258534,-0.05562143941554,2.507976027223799,0.8763108487046415,0.00044529152492169547,-0.00023437814931807644,-0.000912153257008264,-0.00045282901913815577,-5.567986097607805e-05,0.00022793143630811318,-0.00170409178066582,0.0,0.0,0.0,0.0,0.0,0.0,0.0,-0.00010757194802613057,0.0002192636513919169,-0.00012257959426420495,-7.860808145299103e-05,-5.041359275301943e-05,1.8577575650713385e-05,-3.7638346365165276e-06,-0.00044529152492169547,0.00023437814931807644,0.000912153257008264,0.00045282901913815577,5.567986097607805e-05,-0.00022793143630811318,0.00170409178066582,0.04592245817184448,18.078760147094727,-0.9696381092071533,-18.023714065551758,-0.3262229561805725,-2.2488436698913574,0.16604940593242645,0
30,0.14500927925109863,-0.06972616910934448,-18.130334854125977,0.9418671131134033,17.972139358520508,0.3198142647743225,2.2488436698913574,-0.17978231608867645,0.0,0.0,0.0,0.0,0.0,0.0,0.0,-0.04846301418389508,0.5478456223585226,0.099358328881021,0.3904971687326535,-0.10204539107952168,0.06759693875545451,-0.2119157851145007,-0.6089759410985921,-0.057747611559273895,-0.6664785588512127,-2.5944747694731065,-0.05557006419403351,2.5079574496481154,0.8763161384181842,-0.6090851748156966,-0.05753196718556838,-0.666603097082616,-2.5945565370258534,-0.05562143941554,2.507976027223799,0.8763108487046415,0.0005483343081975041,0.0006893587798910665,-0.0003101613477513648,0.001523723364835465,0.00015782776008289314,6.603931832291297e-05,-0.0006934468401321691,0.0,0.0,0.0,0.0,0.0,0.0,0.0,-0.00010923371710447327,0.00021564437370551193,-0.0001245382314033483,-8.176755274691416e-05,-5.137522150649304e-05,1.8577575683575986e-05,-5.289713542744323e-06,-0.0005483343081975041,-0.0006893587798910665,0.0003101613477513648,-0.001523723364835465,-0.00015782776008289314,-6.603931832291297e-05,0.0006934468401321691,0.06972616910934448,18.130334854125977,-0.9418671131134033,-17.972139358520508,-0.3198142647743225,-2.2488436698913574,0.17978231608867645,0
31,0.15000438690185547,-0.06972616910934448,-18.130334854125977,0.9418671131134033,17.972139358520508,0.3198142647743225,2.2488436698913574,-0.17978231608867645,0.0,0.0,0.0,0.0,0.0,0.0,0.0,-0.04846301418389508,0.5478456223585226,0.099358328881021,0.3904971687326535,-0.10204539107952168,0.06759693875545451,-0.2119157851145007,-0.6089759410985921,-0.057747611559273895,-0.6664785588512127,-2.5944747694731065,-0.05557006419403351,2.5079574496481154,0.8763161384181842,-0.6090851748156966,-0.05753196718556838,-0.666603097082616,-2.5945565370258534,-0.05562143941554,2.507976027223799,0.8763108487046415,0.0005483343081975041,0.0006893587798910665,-0.0003101613477513648,0.001523723364835465,0.00015782776008289314,6.603931832291297e-05,-0.0006934468401321691,0.0,0.0,0.0,0.0,0.0,0.0,0.0,-0.00010923371710447327,0.00021564437370551193,-0.0001245382314033483,-8.176755274691416e-05,-5.137522150649304e-05,1.8577575683575986e-05,-5.289713542744323e-06,-0.0005483343081975041,-0.0006893587798910665,0.0003101613477513648,-0.001523723364835465,-0.00015782776008289314,-6.603931832291297e-05,0.0006934468401321691,0.06972616910934448,18.130334854125977,-0.9418671131134033,-17.972139358520508,-0.3198142647743225,-2.2488436698913574,0.17978231608867645,0
32,0.154998779296875,-0.04592245817184448,-18.106531143188477,0.9418671131134033,18.023714065551758,0.3198142647743225,2.2552523612976074,-0.21457235515117645,0.0,0.0,0.0,0.0,0.0,0.0,0.0,-0.045462113052130354,0.5494764509772243,0.10390589014756403,0.39021033646418385,-0.10182723038344403,0.06749664736543115,-0.20944334840503112,-0.6089776118554548,-0.05774928199512916,-0.6664763964044562,-2.594478516614763,-0.05557039309854355,2.5079567380558094,0.8763200039780801,-0.6090851748156966,-0.05753196718556838,-0.666603097082616,-2.5945565370258534,-0.05562143941554,2.507976027223799,0.8763108487046415,0.00012189820693244937,-0.00023349559498330084,-0.00013512952870280533,-1.8518658211459347e-05,0.00024396932428643171,-0.00013899440524401866,0.000550961191219386,0.0,0.0,0.0,0.0,0.0,0.0,0.0,-0.00010756296024172496,0.00021731480956077576,-0.0001267006781597857,-7.802041109039592e-05,-5.104631699644896e-05,1.928916798954461e-05,-9.155273438588019e-06,-0.00012189820693244937,0.00023349559498330084,0.00013512952870280533,1.8518658211459347e-05,-0.00024396932428643171,0.00013899440524401866,-0.000550961191219386,0.04592245817184448,18.106531143188477,-0.9418671131134033,-18.023714065551758,-0.3198142647743225,-2.2552523612976074,0.21457235515117645,0
33,0.1600029468536377,-0.04592245817184448,-18.106531143188477,0.9418671131134033,18.023714065551758,0.3198142647743225,2.2552523612976074,-0.21457235515117645,0.0,0.0,0.0,0.0,0.0,0.0,0.0,-0.045462113052130354,0.5494764509772243,0.10390589014756403,0.39021033646418385,-0.10182723038344403,0.06749664736543115,-0.20944334840503112,-0.6089776118554548,-0.05774928199512916,-0.6664763964044562,-2.594478516614763,-0.05557039309854355,2.5079567380558094,0.8763200039780801,-0.6090851748156966,-0.05753196718556838,-0.666603097082616,-2.5945565370258534,-0.05562143941554,2.507976027223799,0.8763108487046415,0.00012189820693244937,-0.00023349559498330084,-0.00013512952870280533,-1.8518658211459347e-05,0.00024396932428643171,-0.00013899440524401866,0.000550961191219386,0.0,0.0,0.0,0.0,0.0,0.0,0.0,-0.00010756296024172496,0.00021731480956077576,-0.0001267006781597857,-7.802041109039592e-05,-5.104631699644896e-05,1.928916798954461e-05,-9.155273438588019e-06,-0.00012189820693244937,0.00023349559498330084,0.00013512952870280533,1.8518658211459347e-05,-0.00024396932428643171,0.00013899440524401866,-0.000550961191219386,0.04592245817184448,18.106531143188477,-0.9418671131134033,-18.023714065551758,-0.3198142647743225,-2.2552523612976074,0.21457235515117645,0
34,0.16495990753173828,-0.06972616910934448,-18.154138565063477,0.9180634021759033,18.023714065551758,0.3262229561805725,2.2552523612976074,-0.21457235515117645,0.0,0.0,0.0,0.0,0.0,0.0,0.0,-0.04093347914568344,0.5516015563503252,0.10905548200049725,0.3878540571678235,-0.10157635118415007,0.06739315389548535,-0.20915650113048226,-0.6089759414196013,-0.057745938200419934,-0.6664768982145591,-2.594476552255381,-0.055571088788696474,2.5079567375712952,0.8763200039780801,-0.6090851748156966,-0.05753196718556838,-0.666603097082616,-2.5945565370258534,-0.05562143941554,2.507976027223799,0.8763108487046415,0.0010411565053577358,0.001099241108410933,5.31580777168608e-05,-0.00013472818443070457,-0.00018985777957158544,-0.00017093827094495298,0.0005203318327409736,0.0,0.0,0.0,0.0,0.0,0.0,0.0,-0.00010923339609525407,0.00021397101485155084,-0.00012619886805687042,-7.998477047221897e-05,-5.035062684352609e-05,1.9289652503751142e-05,-9.155273438588019e-06,-0.0010411565053577358,-0.001099241108410933,-5.31580777168608e-05,0.00013472818443070457,0.00018985777957158544,0.00017093827094495298,-0.0005203318327409736,0.06972616910934448,18.154138565063477,-0.9180634021759033,-18.023714065551758,-0.3262229561805725,-2.2552523612976074,0.21457235515117645,0
35,0.169999361038208,-0.06972616910934448,-18.154138565063477,0.9180634021759033,18.023714065551758,0.3262229561805725,2.2552523612976074,-0.21457235515117645,0.0,0.0,0.0,0.0,0.0,0.0,0.0,-0.04093347914568344,0.5516015563503252,0.10905548200049725,0.3878540571678235,-0.10157635118415007,0.06739315389548535,-0.20915650113048226,-0.6089759414196013,-0.057745938200419934,-0.6664768982145591,-2.594476552255381,-0.055571088788696474,2.5079567375712952,0.8763200039780801,-0.6090851748156966,-0.05753196718556838,-0.666603097082616,-2.5945565370258534,-0.05562143941554,2.507976027223799,0.8763108487046415,0.0010411565053577358,0.001099241108410933,5.31580777168608e-05,-0.00013472818443070457,-0.00018985777957158544,-0.00017093827094495298,0.0005203318327409736,0.0,0.0,0.0,0.0,0.0,0.0,0.0,-0.00010923339609525407,0.00021397101485155084,-0.00012619886805687042,-7.998477047221897e-05,-5.035062684352609e-05,1.9289652503751142e-05,-9.155273438588019e-06,-0.0010411565053577358,-0.001099241108410933,-5.31580777168608e-05,0.00013472818443070457,0.00018985777957158544,0.00017093827094495298,-0.0005203318327409736,0.06972616910934448,18.154138565063477,-0.9180634021759033,-18.023714065551758,-0.3262229561805725,-2.2552523612976074,0.21457235515117645,0
36,0.17499637603759766,-0.06972616910934448,-18.154138565063477,0.9180634021759033,18.023714065551758,0.3262229561805725,2.2552523612976074,-0.21457235515117645,0.0,0.0,0.0,0.0,0.0,0.0,0.0,-0.04093347914568344,0.5516015563503252,0.10905548200049725,0.3878540571678235,-0.10157635118415007,0.06739315389548535,-0.20915650113048226,-0.6089759414196013,-0.057745938200419934,-0.6664768982145591,-2.594476552255381,-0.055571088788696474,2.5079567375712952,0.8763200039780801,-0.6090851748156966,-0.05753196718556838,-0.666603097082616,-2.5945565370258534,-0.05562143941554,2.507976027223799,0.8763108487046415,0.0010411565053577358,0.001099241108410933,5.31580777168608e-05,-0.00013472818443070457,-0.00018985777957158544,-0.00017093827094495298,0.0005203318327409736,0.0,0.0,0.0,0.0,0.0,0.0,0.0,-0.00010923339609525407,0.00021397101485155084,-0.00012619886805687042,-7.998477047221897e-05,-5.035062684352609e-05,1.9289652503751142e-05,-9.155273438588019e-06,-0.0010411565053577358,-0.001099241108410933,-5.31580777168608e-05,0.00013472818443070457,0.00018985777957158544,0.00017093827094495298,-0.0005203318327409736,0.06972616910934448,18.154138565063477,-0.9180634021759033,-18.023714065551758,-0.3262229561805725,-2.2552523612976074,0.21457235515117645,0
37,0.18000292778015137,-0.04592245817184448,-18.130334854125977,0.9180634021759033,18.047517776489258,0.3143211007118225,2.2552523612976074,-0.21457235515117645,0.0,0.0,0.0,0.0,0.0,0.0,0.0,-0.04383658471467377,0.5455986358622832,0.10657276655768354,0.39251704281627275,-0.1012045804590968,0.06769977451410433,-0.2086132760378536,-0.6089776118554566,-0.05774761145099818,-0.6664768943022359,-2.5944802862450556,-0.05556651018172792,2.5079567419319435,0.8763200039780801,-0.6090851748156966,-0.05753196718556838,-0.666603097082616,-2.5945565370258534,-0.05562143941554,2.507976027223799,0.8763108487046415,-0.00015515102819039071,4.34424058215591e-06,0.0001784956545515776,-0.0004054110435453302,0.00035682636232779074,-0.0004331355445368081,0.000406826771183592,0.0,0.0,0.0,0.0,0.0,0.0,0.0,-0.0001075629602399486,0.00021564426542979714,-0.00012620278038011357,-7.625078079787073e-05,-5.492923381208298e-05,1.9285291855464237e-05,-9.155273438588019e-06,0.00015515102819039071,-4.34424058215591e-06,-0.0001784956545515776,0.0004054110435453302,-0.00035682636232779074,0.0004331355445368081,-0.000406826771183592,0.04592245817184448,18.130334854125977,-0.9180634021759033,-18.047517776489258,-0.3143211007118225,-2.2552523612976074,0.21457235515117645,0
38,0.18499970436096191,-0.04592245817184448,-18.130334854125977,0.9180634021759033,18.047517776489258,0.3143211007118225,2.2552523612976074,-0.21457235515117645,0.0,0.0,0.0,0.0,0.0,0.0,0.0,-0.04383658471467377,0.5455986358622832,0.10657276655768354,0.39251704281627275,-0.1012045804590968,0.06769977451410433,-0.2086132760378536,-0.6089776118554566,-0.05774761145099818,-0.6664768943022359,-2.5944802862450556,-0.05556651018172792,2.5079567419319435,0.8763200039780801,-0.6090851748156966,-0.05753196718556838,-0.666603097082616,-2.5945565370258534,-0.05562143941554,2.507976027223799,0.8763108487046415,-0.00015515102819039071,4.34424058215591e-06,0.0001784956545515776,-0.0004054110435453302,0.00035682636232779074,-0.0004331355445368081,0.000406826771183592,0.0,0.0,0.0,0.0,0.0,0.0,0.0,-0.0001075629602399486,0.00021564426542979714,-0.00012620278038011357,-7.625078079787073e-05,-5.492923381208298e-05,1.9285291855464237e-05,-9.155273438588019e-06,0.00015515102819039071,-4.34424058215591e-06,-0.0001784956545515776,0.0004054110435453302,-0.00035682636232779074,0.0004331355445368081,-0.000406826771183592,0.04592245817184448,18.130334854125977,-0.9180634021759033,-18.047517776489258,-0.3143211007118225,-2.2552523612976074,0.21457235515117645,0
39,0.18999886512756348,-0.06972616910934448,-18.177942276000977,0.8704559803009033,17.999910354614258,0.3143211007118225,2.2360262870788574,-0.17978231608867645,0.0,0.0,0.0,0.0,0.0,0.0,0.0,-0.04990483811838877,0.5473514014048801,0.10021849044476673,0.38704514588835165,-0.10111024475429528,0.0664136199028055,-0.20683357528250534,-0.6089759414196013,-0.057743560398879186,-0.6664735563739426,-2.5944748705873724,-0.055566625532083955,2.507958873855621,0.8763161384181842,-0.6090851748156966,-0.05753196718556838,-0.666603097082616,-2.5945565370258534,-0.05562143941554,2.507976027223799,0.8763108487046415,-0.00013701187521242733,0.0012959494415475143,0.0011460698575818272,0.00031408266733272487,0.00020959483265161035,0.0005964909837995133,-0.0005131544852254376,0.0,0.0,0.0,0.0,0.0,0.0,0.0,-0.00010923339609525407,0.00021159321331080255,-0.0001295407086734368,-8.166643848106503e-05,-5.481388345604521e-05,1.7153368177869055e-05,-5.289713542744323e-06,0.00013701187521242733,-0.0012959494415475143,-0.0011460698575818272,-0.00031408266733272487,-0.00020959483265161035,-0.0005964909837995133,0.0005131544852254376,0.06972616910934448,18.177942276000977,-0.8704559803009033,-17.999910354614258,-0.3143211007118225,-2.2360262870788574,0.17978231608867645,0
40,0.19509673118591309,-0.06972616910934448,-18.177942276000977,0.8704559803009033,17.999910354614258,0.3143211007118225,2.2360262870788574,-0.17978231608867645,0.0,0.0,0.0,0.0,0.0,0.0,0.0,-0.04990483811838877,0.5473514014048801,0.10021849044476673,0.38704514588835165,-0.10111024475429528,0.0664136199028055,-0.20683357528250534,-0.6089759414196013,-0.057743560398879186,-0.6664735563739426,-2.5944748705873724,-0.055566625532083955,2.507958873855621,0.8763161384181842,-0.6090851748156966,-0.05753196718556838,-0.666603097082616,-2.5945565370258534,-0.05562143941554,2.507976027223799,0.8763108487046415,-0.00013701187521242733,0.0012959494415475143,0.0011460698575818272,0.00031408266733272487,0.00020959483265161035,0.0005964909837995133,-0.0005131544852254376,0.0,0.0,0.0,0.0,0.0,0.0,0.0,-0.00010923339609525407,0.00021159321331080255,-0.0001295407086734368,-8.166643848106503e-05,-5.481388345604521e-05,1.7153368177869055e-05,-5.289713542744323e-06,0.00013701187521242733,-0.0012959494415475143,-0.0011460698575818272,-0.00031408266733272487,-0.00020959483265161035,-0.0005964909837995133,0.0005131544852254376,0.06972616910934448,18.177942276000977,-0.8704559803009033,-17.999910354614258,-0.3143211007118225,-2.2360262870788574,0.17978231608867645,0
41,0.20009517669677734,-0.06972616910934448,-18.106531143188477,0.9418671131134033,18.047517776489258,0.3198142647743225,2.2488436698913574,-0.17978231608867645,0.0,0.0,0.0,0.0,0.0,0.0,0.0,-0.043411704957907214,0.5459494293487421,0.10689601799242139,0.3877901571820155,-0.10153572265372784,0.06662394195970504,-0.20494259261408693,-0.6089759414196013,-0.057749273214104266,-0.6664785686626602,-2.5944800593627186,-0.0555693299016497,2.507957488893973,0.8763160991723277,-0.6090851748156966,-0.05753196718556838,-0.666603097082616,-2.5945565370258534,-0.05562143941554,2.507976027223799,0.8763108487046415,0.0007814691482555451,-0.00036259582099099807,-0.000534419628001533,-0.0006674349540541036,0.0001782846789899391,6.664620448014703e-05,-0.0012684391487041134,0.0,0.0,0.0,0.0,0.0,0.0,0.0,-0.00010923339609525407,0.00021730602853588243,-0.000124528419955805,-7.647766313478854e-05,-5.210951389029994e-05,1.85383298259012e-05,-5.2504676861797606e-06,-0.0007814691482555451,0.00036259582099099807,0.000534419628001533,0.0006674349540541036,-0.0001782846789899391,-6.664620448014703e-05,0.0012684391487041134,0.06972616910934448,18.106531143188477,-0.9418671131134033,-18.047517776489258,-0.3198142647743225,-2.2488436698913574,0.17978231608867645,0
42,0.20500636100769043,-0.06972616910934448,-18.106531143188477,0.9418671131134033,18.047517776489258,0.3198142647743225,2.2488436698913574,-0.17978231608867645,0.0,0.0,0.0,0.0,0.0,0.0,0.0,-0.043411704957907214,0.5459494293487421,0.10689601799242139,0.3877901571820155,-0.10153572265372784,0.06662394195970504,-0.20494259261408693,-0.6089759414196013,-0.057749273214104266,-0.6664785686626602,-2.5944800593627186,-0.0555693299016497,2.507957488893973,0.8763160991723277,-0.6090851748156966,-0.05753196718556838,-0.666603097082616,-2.5945565370258534,-0.05562143941554,2.507976027223799,0.8763108487046415,0.0007814691482555451,-0.00036259582099099807,-0.000534419628001533,-0.0006674349540541036,0.0001782846789899391,6.664620448014703e-05,-0.0012684391487041134,0.0,0.0,0.0,0.0,0.0,0.0,0.0,-0.00010923339609525407,0.00021730602853588243,-0.000124528419955805,-7.647766313478854e-05,-5.210951389029994e-05,1.85383298259012e-05,-5.2504676861797606e-06,-0.0007814691482555451,0.00036259582099099807,0.000534419628001533,0.0006674349540541036,-0.0001782846789899391,-6.664620448014703e-05,0.0012684391487041134,0.06972616910934448,18.106531143188477,-0.9418671131134033,-18.047517776489258,-0.3198142647743225,-2.2488436698913574,0.17978231608867645,0
43,0.21000170707702637,-0.06972616910934448,-18.106531143188477,0.9418671131134033,18.047517776489258,0.3198142647743225,2.2488436698913574,-0.17978231608867645,0.0,0.0,0.0,0.0,0.0,0.0,0.0,-0.043411704957907214,0.5459494293487421,0.10689601799242139,0.3877901571820155,-0.10153572265372784,0.06662394195970504,-0.20494259261408693,-0.6089759414196013,-0.057749273214104266,-0.6664785686626602,-2.5944800593627186,-0.0555693299016497,2.507957488893973,0.8763160991723277,-0.6090851748156966,-0.05753196718556838,-0.666603097082616,-2.5945565370258534,-0.05562143941554,2.507976027223799,0.8763108487046415,0.0007814691482555451,-0.00036259582099099807,-0.000534419628001533,-0.0006674349540541036,0.0001782846789899391,6.664620448014703e-05,-0.0012684391487041134,0.0,0.0,0.0,0.0,0.0,0.0,0.0,-0.00010923339609525407,0.00021730602853588243,-0.000124528419955805,-7.647766313478854e-05,-5.210951389029994e-05,1.85383298259012e-05,-5.2504676861797606e-06,-0.0007814691482555451,0.00036259582099099807,0.000534419628001533,0.0006674349540541036,-0.0001782846789899391,-6.664620448014703e-05,0.0012684391487041134,0.06972616910934448,18.106531143188477,-0.9418671131134033,-18.047517776489258,-0.3198142647743225,-2.2488436698913574,0.17978231608867645,0
44,0.21500062942504883,-0.06972616910934448,-18.106531143188477,0.9418671131134033,18.047517776489258,0.3198142647743225,2.2488436698913574,-0.17978231608867645,0.0,0.0,0.0,0.0,0.0,0.0,0.0,-0.043411704957907214,0.5459494293487421,0.10689601799242139,0.3877901571820155,-0.10153572265372784,0.06662394195970504,-0.20494259261408693,-0.6089759414196013,-0.057749273214104266,-0.6664785686626602,-2.5944800593627186,-0.0555693299016497,2.507957488893973,0.8763160991723277,-0.6090851748156966,-0.05753196718556838,-0.666603097082616,-2.5945565370258534,-0.05562143941554,2.507976027223799,0.8763108487046415,0.0007814691482555451,-0.00036259582099099807,-0.000534419628001533,-0.0006674349540541036,0.0001782846789899391,6.664620448014703e-05,-0.0012684391487041134,0.0,0.0,0.0,0.0,0.0,0.0,0.0,-0.00010923339609525407,0.00021730602853588243,-0.000124528419955805,-7.647766313478854e-05,-5.210951389029994e-05,1.85383298259012e-05,-5.2504676861797606e-06,-0.0007814691482555451,0.00036259582099099807,0.000534419628001533,0.0006674349540541036,-0.0001782846789899391,-6.664620448014703e-05,0.0012684391487041134,0.06972616910934448,18.106531143188477,-0.9418671131134033,-18.047517776489258,-0.3198142647743225,-2.2488436698913574,0.17978231608867645,0
45,0.22000551223754883,-0.06972616910934448,-18.106531143188477,0.8942596912384033,17.999910354614258,0.3198142647743225,2.2625765800476074,-0.22098104655742645,0.0,0.0,0.0,0.0,0.0,0.0,0.0,-0.04929478485067953,0.547069213864143,0.1003050637402924,0.386571107398211,-0.10092349536387414,0.06631466845325647,-0.20533495550628453,-0.6089759414196013,-0.057749281886853424,-0.6664752268098199,-2.5944769482190004,-0.05556932573490618,2.50795596737579,0.8763207160548292,-0.6090851748156966,-0.05753196718556838,-0.666603097082616,-2.5945565370258534,-0.05562143941554,2.507976027223799,0.8763108487046415,0.000760299929062355,7.577326957344044e-05,0.00025748493730357237,0.0006201994197527095,0.00021018919209426408,-0.0005550869781123229,-0.0007292035593998864,0.0,0.0,0.0,0.0,0.0,0.0,0.0,-0.00010923339609525407,0.00021731470128504016,-0.00012787027279614893,-7.958880685299263e-05,-5.2113680633819603e-05,2.0059848008902037e-05,-9.867350187708901e-06,-0.000760299929062355,-7.577326957344044e-05,-0.00025748493730357237,-0.0006201994197527095,-0.00021018919209426408,0.0005550869781123229,0.0007292035593998864,0.06972616910934448,18.106531143188477,-0.8942596912384033,-17.999910354614258,-0.3198142647743225,-2.2625765800476074,0.22098104655742645,0
46,0.2250063419342041,-0.06972616910934448,-18.106531143188477,0.8942596912384033,17.999910354614258,0.3198142647743225,2.2625765800476074,-0.22098104655742645,0.0,0.0,0.0,0.0,0.0,0.0,0.0,-0.04929478485067953,0.547069213864143,0.1003050637402924,0.386571107398211,-0.10092349536387414,0.06631466845325647,-0.20533495550628453,-0.6089759414196013,-0.057749281886853424,-0.6664752268098199,-2.5944769482190004,-0.05556932573490618,2.50795596737579,0.8763207160548292,-0.6090851748156966,-0.05753196718556838,-0.666603097082616,-2.5945565370258534,-0.05562143941554,2.507976027223799,0.8763108487046415,0.000760299929062355,7.577326957344044e-05,0.00025748493730357237,0.0006201994197527095,0.00021018919209426408,-0.0005550869781123229,-0.0007292035593998864,0.0,0.0,0.0,0.0,0.0,0.0,0.0,-0.00010923339609525407,0.00021731470128504016,-0.00012787027279614893,-7.958880685299263e-05,-5.2113680633819603e-05,2.0059848008902037e-05,-9.867350187708901e-06,-0.000760299929062355,-7.577326957344044e-05,-0.00025748493730357237,-0.0006201994197527095,-0.00021018919209426408,0.0005550869781123229,0.0007292035593998864,0.06972616910934448,18.106531143188477,-0.8942596912384033,-17.999910354614258,-0.3198142647743225,-2.2625765800476074,0.22098104655742645,0
47,0.23000597953796387,0.005652248859405518,-18.106531143188477,0.9418671131134033,18.023714065551758,0.3198142647743225,2.2424349784851074,-0.23471395671367645,0.0,0.0,0.0,0.0,0.0,0.0,0.0,-0.04643755240521153,0.5437039500979488,0.10076014072169918,0.38827192311823433,-0.10159066265339071,0.0666076480160086,-0.2044278275264751,-0.608980971093677,-0.05774928199512855,-0.6664785686626713,-2.59447770026725,-0.055567198900212895,2.5079581617251843,0.8763222419338093,-0.6090851748156966,-0.05753196718556838,-0.666603097082616,-2.5945565370258534,-0.05562143941554,2.507976027223799,0.8763108487046415,-0.0012531767460765412,-0.000475529230658825,-0.00039786859850736314,-0.00014670304252700105,-8.669811063050338e-05,0.00012755215540490925,0.0011959428006486725,0.0,0.0,0.0,0.0,0.0,0.0,0.0,-0.00010420372201958017,0.00021731480956016513,-0.00012452841994470276,-7.883675860353989e-05,-5.4240515327104444e-05,1.7865498614710873e-05,-1.1393229167766528e-05,0.0012531767460765412,0.000475529230658825,0.00039786859850736314,0.00014670304252700105,8.669811063050338e-05,-0.00012755215540490925,-0.0011959428006486725,-0.005652248859405518,18.106531143188477,-0.9418671131134033,-18.023714065551758,-0.3198142647743225,-2.2424349784851074,0.23471395671367645,0
48,0.23499846458435059,0.005652248859405518,-18.106531143188477,0.9418671131134033,18.023714065551758,0.3198142647743225,2.2424349784851074,-0.23471395671367645,0.0,0.0,0.0,0.0,0.0,0.0,0.0,-0.04643755240521153,0.5437039500979488,0.10076014072169918,0.38827192311823433,-0.10159066265339071,0.0666076480160086,-0.2044278275264751,-0.608980971093677,-0.05774928199512855,-0.6664785686626713,-2.59447770026725,-0.055567198900212895,2.5079581617251843,0.8763222419338093,-0.6090851748156966,-0.05753196718556838,-0.666603097082616,-2.5945565370258534,-0.05562143941554,2.507976027223799,0.8763108487046415,-0.0012531767460765412,-0.000475529230658825,-0.00039786859850736314,-0.00014670304252700105,-8.669811063050338e-05,0.00012755215540490925,0.0011959428006486725,0.0,0.0,0.0,0.0,0.0,0.0,0.0,-0.00010420372201958017,0.00021731480956016513,-0.00012452841994470276,-7.883675860353989e-05,-5.4240515327104444e-05,1.7865498614710873e-05,-1.1393229167766528e-05,0.0012531767460765412,0.000475529230658825,0.00039786859850736314,0.00014670304252700105,8.669811063050338e-05,-0.00012755215540490925,-0.0011959428006486725,-0.005652248859405518,18.106531143188477,-0.9418671131134033,-18.023714065551758,-0.3198142647743225,-2.2424349784851074,0.23471395671367645,0
49,0.2400035858154297,0.005652248859405518,-18.154138565063477,0.9180634021759033,18.023714065551758,0.3079124093055725,2.2488436698913574,-0.24112264811992645,0.0,0.0,0.0,0.0,0.0,0.0,0.0,-0.04421291349898189,0.5497044896368204,0.10067493324004294,0.38356217328881037,-0.10206600505500162,0.0648401441017241,-0.20585371872423994,-0.6089812311316751,-0.05774594112341863,-0.6664768981904828,-2.594478379578773,-0.05556579522032618,2.5079585092862446,0.8763229540106322,-0.6090851748156966,-0.05753196718556838,-0.666603097082616,-2.5945565370258534,-0.05562143941554,2.507976027223799,0.8763108487046415,-0.0009444928642270052,0.0013693042889330919,0.00032067633060429783,-0.00046384363888489597,0.0007827829831336615,4.6873062780008084e-05,0.0004294861931030294,0.0,0.0,0.0,0.0,0.0,0.0,0.0,-0.00010394368402144583,0.0002139739378502481,-0.00012619889213316693,-7.815744708050687e-05,-5.564419521381786e-05,1.7517937554334395e-05,-1.2105305990717241e-05,0.0009444928642270052,-0.0013693042889330919,-0.00032067633060429783,0.00046384363888489597,-0.0007827829831336615,-4.6873062780008084e-05,-0.0004294861931030294,-0.005652248859405518,18.154138565063477,-0.9180634021759033,-18.023714065551758,-0.3079124093055725,-2.2488436698913574,0.24112264811992645,0
50,0.24500370025634766,0.005652248859405518,-18.154138565063477,0.9180634021759033,18.023714065551758,0.3079124093055725,2.2488436698913574,-0.24112264811992645,0.0,0.0,0.0,0.0,0.0,0.0,0.0,-0.04421291349898189,0.5497044896368204,0.10067493324004294,0.38356217328881037,-0.10206600505500162,0.0648401441017241,-0.20585371872423994,-0.6089812311316751,-0.05774594112341863,-0.6664768981904828,-2.594478379578773,-0.05556579522032618,2.5079585092862446,0.8763229540106322,-0.6090851748156966,-0.05753196718556838,-0.666603097082616,-2.5945565370258534,-0.05562143941554,2.507976027223799,0.8763108487046415,-0.0009444928642270052,0.0013693042889330919,0.00032067633060429783,-0.00046384363888489597,0.0007827829831336615,4.6873062780008084e-05,0.0004294861931030294,0.0,0.0,0.0,0.0,0.0,0.0,0.0,-0.00010394368402144583,0.0002139739378502481,-0.00012619889213316693,-7.815744708050687e-05,-5.564419521381786e-05,1.7517937554334395e-05,-1.2105305990717241e-05,0.0009444928642270052,-0.0013693042889330919,-0.00032067633060429783,0.00046384363888489597,-0.0007827829831336615,-4.6873062780008084e-05,-0.0004294861931030294,-0.005652248859405518,18.154138565063477,-0.9180634021759033,-18.023714065551758,-0.3079124093055725,-2.2488436698913574,0.24112264811992645,0
51,0.2500007152557373,-0.04592245817184448,-18.106531143188477,0.9418671131134033,18.023714065551758,0.3262229561805725,2.2625765800476074,-0.20083944499492645,0.0,0.0,0.0,0.0,0.0,0.0,0.0,-0.0432541610257796,0.5490961978706601,0.09987716718988214,0.3860892140248816,-0.10196181916266546,0.0655726019657929,-0.20955014181683096,-0.6089776118197908,-0.05774928199512916,-0.6664785421717233,-2.5944786183390027,-0.05556743472372179,2.50795733662603,0.8763184780991738,-0.6090851748156966,-0.05753196718556838,-0.666603097082616,-2.5945565370258534,-0.05562143941554,2.507976027223799,0.8763108487046415,0.00018176321398927832,0.0001734284500033765,-0.0004919721250864285,-0.0002151252765938188,-0.0002626488472278118,-0.00022376624097694692,-0.0011294599824336997,0.0,0.0,0.0,0.0,0.0,0.0,0.0,-0.00010756299590575225,0.00021731480956077576,-0.00012455491089269355,-7.791868685069758e-05,-5.4004691818210215e-05,1.869059776904436e-05,-7.629394532360223e-06,-0.00018176321398927832,-0.0001734284500033765,0.0004919721250864285,0.0002151252765938188,0.0002626488472278118,0.00022376624097694692,0.0011294599824336997,0.04592245817184448,18.106531143188477,-0.9418671131134033,-18.023714065551758,-0.3262229561805725,-2.2625765800476074,0.20083944499492645,0
52,0.25499820709228516,-0.04592245817184448,-18.106531143188477,0.9418671131134033,18.023714065551758,0.3262229561805725,2.2625765800476074,-0.20083944499492645,0.0,0.0,0.0,0.0,0.0,0.0,0.0,-0.0432541610257796,0.5490961978706601,0.09987716718988214,0.3860892140248816,-0.10196181916266546,0.0655726019657929,-0.20955014181683096,-0.6089776118197908,-0.05774928199512916,-0.6664785421717233,-2.5944786183390027,-0.05556743472372179,2.50795733662603,0.8763184780991738,-0.6090851748156966,-0.05753196718556838,-0.666603097082616,-2.5945565370258534,-0.05562143941554,2.507976027223799,0.8763108487046415,0.00018176321398927832,0.0001734284500033765,-0.0004919721250864285,-0.0002151252765938188,-0.0002626488472278118,-0.00022376624097694692,-0.0011294599824336997,0.0,0.0,0.0,0.0,0.0,0.0,0.0,-0.00010756299590575225,0.00021731480956077576,-0.00012455491089269355,-7.791868685069758e-05,-5.4004691818210215e-05,1.869059776904436e-05,-7.629394532360223e-06,-0.00018176321398927832,-0.0001734284500033765,0.0004919721250864285,0.0002151252765938188,0.0002626488472278118,0.00022376624097694692,0.0011294599824336997,0.04592245817184448,18.106531143188477,-0.9418671131134033,-18.023714065551758,-0.3262229561805725,-2.2625765800476074,0.20083944499492645,0
53,0.26000070571899414,-0.04592245817184448,-18.130334854125977,0.8704559803009033,17.972139358520508,0.3143211007118225,2.2625765800476074,-0.17337362468242645,0.0,0.0,0.0,0.0,0.0,0.0,0.0,-0.04559082186385418,0.5451271315695326,0.09719754866513633,0.3896693275732104,-0.10159193961312686,0.06680531445677533,-0.21209268080383387,-0.6089776118554565,-0.057746901270590324,-0.6664735573549616,-2.5944749228481796,-0.055569808690140374,2.5079559237771845,0.8763154263413614,-0.6090851748156966,-0.05753196718556838,-0.666603097082616,-2.5945565370258534,-0.05562143941554,2.507976027223799,0.8763108487046415,0.00014946651200599948,0.00021763302888510417,0.0007538242084257369,0.0013734746723328814,0.0005151216576836749,-0.00038545655114943355,-0.0018175224108128078,0.0,0.0,0.0,0.0,0.0,0.0,0.0,-0.00010756296024005962,0.00021493408502194083,-0.00012953972765439303,-8.161417767382773e-05,-5.163072539962621e-05,2.0103446614516685e-05,-4.577636719904632e-06,-0.00014946651200599948,-0.00021763302888510417,-0.0007538242084257369,-0.0013734746723328814,-0.0005151216576836749,0.00038545655114943355,0.0018175224108128078,0.04592245817184448,18.130334854125977,-0.8704559803009033,-17.972139358520508,-0.3143211007118225,-2.2625765800476074,0.17337362468242645,0
54,0.2649984359741211,-0.04592245817184448,-18.130334854125977,0.8704559803009033,17.972139358520508,0.3143211007118225,2.2625765800476074,-0.17337362468242645,0.0,0.0,0.0,0.0,0.0,0.0,0.0,-0.04559082186385418,0.5451271315695326,0.09719754866513633,0.3896693275732104,-0.10159193961312686,0.06680531445677533,-0.21209268080383387,-0.6089776118554565,-0.057746901270590324,-0.6664735573549616,-2.5944749228481796,-0.055569808690140374,2.5079559237771845,0.8763154263413614,-0.6090851748156966,-0.05753196718556838,-0.666603097082616,-2.5945565370258534,-0.05562143941554,2.507976027223799,0.8763108487046415,0.00014946651200599948,0.00021763302888510417,0.0007538242084257369,0.0013734746723328814,0.0005151216576836749,-0.00038545655114943355,-0.0018175224108128078,0.0,0.0,0.0,0.0,0.0,0.0,0.0,-0.00010756296024005962,0.00021493408502194083,-0.00012953972765439303,-8.161417767382773e-05,-5.163072539962621e-05,2.0103446614516685e-05,-4.577636719904632e-06,-0.00014946651200599948,-0.00021763302888510417,-0.0007538242084257369,-0.0013734746723328814,-0.0005151216576836749,0.00038545655114943355,0.0018175224108128078,0.04592245817184448,18.130334854125977,-0.8704559803009033,-17.972139358520508,-0.3143211007118225,-2.2625765800476074,0.17337362468242645,0
55,0.26999855041503906,0.005652248859405518,-18.130334854125977,0.8704559803009033,18.023714065551758,0.3262229561805725,2.2488436698913574,-0.17337362468242645,0.0,0.0,0.0,0.0,0.0,0.0,0.0,-0.04170656694471859,0.5483806102464018,0.10115247414580228,0.38663602155118404,-0.1017394935564134,0.06656145114260589,-0.21241331901229463,-0.608981231133143,-0.057745454061457265,-0.666473557355111,-2.5944779213522424,-0.05557108926880651,2.507957449648119,0.8763154263413614,-0.6090851748156966,-0.05753196718556838,-0.666603097082616,-2.5945565370258534,-0.05562143941554,2.507976027223799,0.8763108487046415,-0.0016551956091239235,0.00012272509869921714,0.0009813051180093228,-3.46932986439751e-05,-0.00011329909965317311,0.00016233171998588137,-0.0016080675560030805,0.0,0.0,0.0,0.0,0.0,0.0,0.0,-0.00010394368255361996,0.0002134868758888811,-0.00012953972750495701,-7.861567361100441e-05,-5.035014673349103e-05,1.8577575680023273e-05,-4.577636719904632e-06,0.0016551956091239235,-0.00012272509869921714,-0.0009813051180093228,3.46932986439751e-05,0.00011329909965317311,-0.00016233171998588137,0.0016080675560030805,-0.005652248859405518,18.130334854125977,-0.8704559803009033,-18.023714065551758,-0.3262229561805725,-2.2488436698913574,0.17337362468242645,0
56,0.2749979496002197,0.005652248859405518,-18.130334854125977,0.8704559803009033,18.023714065551758,0.3262229561805725,2.2488436698913574,-0.17337362468242645,0.0,0.0,0.0,0.0,0.0,0.0,0.0,-0.04170656694471859,0.5483806102464018,0.10115247414580228,0.38663602155118404,-0.1017394935564134,0.06656145114260589,-0.21241331901229463,-0.608981231133143,-0.057745454061457265,-0.666473557355111,-2.5944779213522424,-0.05557108926880651,2.507957449648119,0.8763154263413614,-0.6090851748156966,-0.05753196718556838,-0.666603097082616,-2.5945565370258534,-0.05562143941554,2.507976027223799,0.8763108487046415,-0.0016551956091239235,0.00012272509869921714,0.0009813051180093228,-3.46932986439751e-05,-0.00011329909965317311,0.00016233171998588137,-0.0016080675560030805,0.0,0.0,0.0,0.0,0.0,0.0,0.0,-0.00010394368255361996,0.0002134868758888811,-0.00012953972750495701,-7.861567361100441e-05,-5.035014673349103e-05,1.8577575680023273e-05,-4.577636719904632e-06,0.0016551956091239235,-0.00012272509869921714,-0.0009813051180093228,3.46932986439751e-05,0.00011329909965317311,-0.00016233171998588137,0.0016080675560030805,-0.005652248859405518,18.130334854125977,-0.8704559803009033,-18.023714065551758,-0.3262229561805725,-2.2488436698913574,0.17337362468242645,0
57,0.28000640869140625,-0.04592245817184448,-18.078760147094727,0.9180634021759033,17.999910354614258,0.3262229561805725,2.2488436698913574,-0.17337362468242645,0.0,0.0,0.0,0.0,0.0,0.0,0.0,-0.04432830216446596,0.5474885030557577,0.09838381484866263,0.3855597458027627,-0.1016649101241058,0.06669311673182193,-0.21016544236324985,-0.6089776118554566,-0.05775115191554438,-0.6664768982268215,-2.5944769479043512,-0.05556959094048038,2.5079574496481154,0.8763154263413614,-0.6090851748156966,-0.05753196718556838,-0.666603097082616,-2.5945565370258534,-0.05562143941554,2.507976027223799,0.8763108487046415,-0.00042935876295837195,-0.0008158449669089286,-9.415869114177131e-05,0.000616993336767135,-0.00011234476366894813,3.756380134637322e-06,-0.0014410376787061434,0.0,0.0,0.0,0.0,0.0,0.0,0.0,-0.0001075629602399486,0.00021918472997599359,-0.0001261988557944571,-7.958912150218822e-05,-5.1848475059616816e-05,1.8577575683575986e-05,-4.577636719904632e-06,0.00042935876295837195,0.0008158449669089286,9.415869114177131e-05,-0.000616993336767135,0.00011234476366894813,-3.756380134637322e-06,0.0014410376787061434,0.04592245817184448,18.078760147094727,-0.9180634021759033,-17.999910354614258,-0.3262229561805725,-2.2488436698913574,0.17337362468242645,0
58,0.28510427474975586,-0.04592245817184448,-18.078760147094727,0.9180634021759033,17.999910354614258,0.3262229561805725,2.2488436698913574,-0.17337362468242645,0.0,0.0,0.0,0.0,0.0,0.0,0.0,-0.04432830216446596,0.5474885030557577,0.09838381484866263,0.3855597458027627,-0.1016649101241058,0.06669311673182193,-0.21016544236324985,-0.6089776118554566,-0.05775115191554438,-0.6664768982268215,-2.5944769479043512,-0.05556959094048038,2.5079574496481154,0.8763154263413614,-0.6090851748156966,-0.05753196718556838,-0.666603097082616,-2.5945565370258534,-0.05562143941554,2.507976027223799,0.8763108487046415,-0.00042935876295837195,-0.0008158449669089286,-9.415869114177131e-05,0.000616993336767135,-0.00011234476366894813,3.756380134637322e-06,-0.0014410376787061434,0.0,0.0,0.0,0.0,0.0,0.0,0.0,-0.0001075629602399486,0.00021918472997599359,-0.0001261988557944571,-7.958912150218822e-05,-5.1848475059616816e-05,1.8577575683575986e-05,-4.577636719904632e-06,0.00042935876295837195,0.0008158449669089286,9.415869114177131e-05,-0.000616993336767135,0.00011234476366894813,-3.756380134637322e-06,0.0014410376787061434,0.04592245817184448,18.078760147094727,-0.9180634021759033,-17.999910354614258,-0.3262229561805725,-2.2488436698913574,0.17337362468242645,0
59,0.29000377655029297,-0.06972616910934448,-18.106531143188477,0.9418671131134033,18.023714065551758,0.3198142647743225,2.2552523612976074,-0.17978231608867645,0.0,0.0,0.0,0.0,0.0,0.0,0.0,-0.042808752163196157,0.5478001650168526,0.10031145460751519,0.38359500065981517,-0.1021204449292609,0.0664378173096993,-0.20784952111891786,-0.6089759414196013,-0.05774927907168495,-0.6664783302077589,-2.594478618655286,-0.05557042100102646,2.5079567375712926,0.8763161384181842,-0.6090851748156966,-0.05753196718556838,-0.666603097082616,-2.5945565370258534,-0.05562143941554,2.507976027223799,0.8763108487046415,0.00048803762207844136,-0.00015041797928398853,-0.000629584792226812,-0.00025483229262345225,3.814012548574158e-05,-7.508236579086915e-05,-0.0009283231345631289,0.0,0.0,0.0,0.0,0.0,0.0,0.0,-0.00010923339609525407,0.00021731188611656682,-0.00012476687485707405,-7.79183705672537e-05,-5.1018414513541444e-05,1.9289652506415678e-05,-5.289713542744323e-06,-0.00048803762207844136,0.00015041797928398853,0.000629584792226812,0.00025483229262345225,-3.814012548574158e-05,7.508236579086915e-05,0.0009283231345631289,0.06972616910934448,18.106531143188477,-0.9418671131134033,-18.023714065551758,-0.3198142647743225,-2.2552523612976074,0.17978231608867645,0
60,0.2950015068054199,-0.06972616910934448,-18.106531143188477,0.9418671131134033,18.023714065551758,0.3198142647743225,2.2552523612976074,-0.17978231608867645,0.0,0.0,0.0,0.0,0.0,0.0,0.0,-0.042808752163196157,0.5478001650168526,0.10031145460751519,0.38359500065981517,-0.1021204449292609,0.0664378173096993,-0.20784952111891786,-0.6089759414196013,-0.05774927907168495,-0.6664783302077589,-2.594478618655286,-0.05557042100102646,2.5079567375712926,0.8763161384181842,-0.6090851748156966,-0.05753196718556838,-0.666603097082616,-2.5945565370258534,-0.05562143941554,2.507976027223799,0.8763108487046415,0.00048803762207844136,-0.00015041797928398853,-0.000629584792226812,-0.00025483229262345225,3.814012548574158e-05,-7.508236579086915e-05,-0.0009283231345631289,0.0,0.0,0.0,0.0,0.0,0.0,0.0,-0.00010923339609525407,0.00021731188611656682,-0.00012476687485707405,-7.79183705672537e-05,-5.1018414513541444e-05,1.9289652506415678e-05,-5.289713542744323e-06,-0.00048803762207844136,0.00015041797928398853,0.000629584792226812,0.00025483229262345225,-3.814012548574158e-05,7.508236579086915e-05,0.0009283231345631289,0.06972616910934448,18.106531143188477,-0.9418671131134033,-18.023714065551758,-0.3198142647743225,-2.2552523612976074,0.17978231608867645,0
61,0.30010151863098145,-0.018151462078094482,-18.130334854125977,0.9180634021759033,18.023714065551758,0.3262229561805725,2.2552523612976074,-0.24112264811992645,0.0,0.0,0.0,0.0,0.0,0.0,0.0,-0.04767222522691739,0.5453082413512531,0.09392722426658841,0.3846809935599136,-0.10207329589032002,0.06625083011456244,-0.20845974420766286,-0.6089795606972878,-0.0577476076619258,-0.6664768978984267,-2.594478610152019,-0.055571131085315556,2.5079567550138955,0.8763229540106322,-0.6090851748156966,-0.05753196718556838,-0.666603097082616,-2.5945565370258534,-0.05562143941554,2.507976027223799,0.8763108487046415,-0.0006562868660714751,7.547106505513008e-05,-0.0003872373340020107,-0.00018480653039508485,-0.0002347703368696795,-0.00025025332142487427,0.0006722527587671285,0.0,0.0,0.0,0.0,0.0,0.0,0.0,-0.0001056141184088144,0.0002156404763574149,-0.00012619918418932397,-7.792687383423313e-05,-5.030833022444392e-05,1.9272209903498094e-05,-1.2105305990717241e-05,0.0006562868660714751,-7.547106505513008e-05,0.0003872373340020107,0.00018480653039508485,0.0002347703368696795,0.00025025332142487427,-0.0006722527587671285,0.018151462078094482,18.130334854125977,-0.9180634021759033,-18.023714065551758,-0.3262229561805725,-2.2552523612976074,0.24112264811992645,0
62,0.3049964904785156,-0.018151462078094482,-18.130334854125977,0.9180634021759033,18.023714065551758,0.3262229561805725,2.2552523612976074,-0.24112264811992645,0.0,0.0,0.0,0.0,0.0,0.0,0.0,-0.04767222522691739,0.5453082413512531,0.09392722426658841,0.3846809935599136,-0.10207329589032002,0.06625083011456244,-0.20845974420766286,-0.6089795606972878,-0.0577476076619258,-0.6664768978984267,-2.594478610152019,-0.055571131085315556,2.5079567550138955,0.8763229540106322,-0.6090851748156966,-0.05753196718556838,-0.666603097082616,-2.5945565370258534,-0.05562143941554,2.507976027223799,0.8763108487046415,-0.0006562868660714751,7.547106505513008e-05,-0.0003872373340020107,-0.00018480653039508485,-0.0002347703368696795,-0.00025025332142487427,0.0006722527587671285,0.0,0.0,0.0,0.0,0.0,0.0,0.0,-0.0001056141184088144,0.0002156404763574149,-0.00012619918418932397,-7.792687383423313e-05,-5.030833022444392e-05,1.9272209903498094e-05,-1.2105305990717241e-05,0.0006562868660714751,-7.547106505513008e-05,0.0003872373340020107,0.00018480653039508485,0.0002347703368696795,0.00025025332142487427,-0.0006722527587671285,0.018151462078094482,18.130334854125977,-0.9180634021759033,-18.023714065551758,-0.3262229561805725,-2.2552523612976074,0.24112264811992645,0
63,0.3099985122680664,-0.06972616910934448,-18.130334854125977,0.9418671131134033,18.023714065551758,0.3262229561805725,2.2552523612976074,-0.19351522624492645,0.0,0.0,0.0,0.0,0.0,0.0,0.0,-0.04789176455923986,0.5457658237395097,0.09318781786354867,0.3870866547650039,-0.10185739027816558,0.06573015029730839,-0.2109637908325279,-0.608975932752808,-0.05774761058491899,-0.666478568662675,-2.594478618515269,-0.0555700420325501,2.507956737571391,0.8763176642970906,-0.6090851748156966,-0.05753196718556838,-0.666603097082616,-2.5945565370258534,-0.05562143941554,2.507976027223799,0.8763108487046415,0.0003362148891554957,0.00022146997205292328,-0.0006255707977148881,0.0002701825788181319,-0.00024331874171276037,-0.00014643877147043965,-0.0005321982295756788,0.0,0.0,0.0,0.0,0.0,0.0,0.0,-0.0001092420628885371,0.0002156433993506096,-0.00012452841994103903,-7.791851058458477e-05,-5.139738298989838e-05,1.9289652407827873e-05,-6.815592449083141e-06,-0.0003362148891554957,-0.00022146997205292328,0.0006255707977148881,-0.0002701825788181319,0.00024331874171276037,0.00014643877147043965,0.0005321982295756788,0.06972616910934448,18.130334854125977,-0.9418671131134033,-18.023714065551758,-0.3262229561805725,-2.2552523612976074,0.19351522624492645,0
64,0.31502461433410645,-0.06972616910934448,-18.130334854125977,0.9418671131134033,18.023714065551758,0.3262229561805725,2.2552523612976074,-0.19351522624492645,0.0,0.0,0.0,0.0,0.0,0.0,0.0,-0.04789176455923986,0.5457658237395097,0.09318781786354867,0.3870866547650039,-0.10185739027816558,0.06573015029730839,-0.2109637908325279,-0.608975932752808,-0.05774761058491899,-0.666478568662675,-2.594478618515269,-0.0555700420325501,2.507956737571391,0.8763176642970906,-0.6090851748156966,-0.05753196718556838,-0.666603097082616,-2.5945565370258534,-0.05562143941554,2.507976027223799,0.8763108487046415,0.0003362148891554957,0.00022146997205292328,-0.0006255707977148881,0.0002701825788181319,-0.00024331874171276037,-0.00014643877147043965,-0.0005321982295756788,0.0,0.0,0.0,0.0,0.0,0.0,0.0,-0.0001092420628885371,0.0002156433993506096,-0.00012452841994103903,-7.791851058458477e-05,-5.139738298989838e-05,1.9289652407827873e-05,-6.815592449083141e-06,-0.0003362148891554957,-0.00022146997205292328,0.0006255707977148881,-0.0002701825788181319,0.00024331874171276037,0.00014643877147043965,0.0005321982295756788,0.06972616910934448,18.130334854125977,-0.9418671131134033,-18.023714065551758,-0.3262229561805725,-2.2552523612976074,0.19351522624492645,0
65,0.32001209259033203,-0.06972616910934448,-18.130334854125977,0.8942596912384033,18.047517776489258,0.3198142647743225,2.2360262870788574,-0.20724813640117645,0.0,0.0,0.0,0.0,0.0,0.0,0.0,-0.04772641718083294,0.5492823852738112,0.09491896486442139,0.3858765434292193,-0.10187770520101688,0.06530099221189604,-0.21175028026493187,-0.6089759410984622,-0.057747611559257395,-0.6664730820237543,-2.594480059397901,-0.05556616970993033,2.507958873801761,0.8763191901759968,-0.6090851748156966,-0.05753196718556838,-0.666603097082616,-2.5945565370258534,-0.05562143941554,2.507976027223799,0.8763108487046415,0.0009637942832427164,0.0006758170088791215,0.00025034377812976834,-0.0006825670495191009,0.0001667679487524254,0.0005938218305514576,4.511943519005212e-05,0.0,0.0,0.0,0.0,0.0,0.0,0.0,-0.00010923371723436937,0.00021564437368901124,-0.00013001505886167664,-7.647762795226498e-05,-5.526970560967154e-05,1.7153422037896604e-05,-8.341471355310937e-06,-0.0009637942832427164,-0.0006758170088791215,-0.00025034377812976834,0.0006825670495191009,-0.0001667679487524254,-0.0005938218305514576,-4.511943519005212e-05,0.06972616910934448,18.130334854125977,-0.8942596912384033,-18.047517776489258,-0.3198142647743225,-2.2360262870788574,0.20724813640117645,0
66,0.32500433921813965,-0.06972616910934448,-18.130334854125977,0.8942596912384033,18.047517776489258,0.3198142647743225,2.2360262870788574,-0.20724813640117645,0.0,0.0,0.0,0.0,0.0,0.0,0.0,-0.04772641718083294,0.5492823852738112,0.09491896486442139,0.3858765434292193,-0.10187770520101688,0.06530099221189604,-0.21175028026493187,-0.6089759410984622,-0.057747611559257395,-0.6664730820237543,-2.594480059397901,-0.05556616970993033,2.507958873801761,0.8763191901759968,-0.6090851748156966,-0.05753196718556838,-0.666603097082616,-2.5945565370258534,-0.05562143941554,2.507976027223799,0.8763108487046415,0.0009637942832427164,0.0006758170088791215,0.00025034377812976834,-0.0006825670495191009,0.0001667679487524254,0.0005938218305514576,4.511943519005212e-05,0.0,0.0,0.0,0.0,0.0,0.0,0.0,-0.00010923371723436937,0.00021564437368901124,-0.00013001505886167664,-7.647762795226498e-05,-5.526970560967154e-05,1.7153422037896604e-05,-8.341471355310937e-06,-0.0009637942832427164,-0.0006758170088791215,-0.00025034377812976834,0.0006825670495191009,-0.0001667679487524254,-0.0005938218305514576,-4.511943519005212e-05,0.06972616910934448,18.130334854125977,-0.8942596912384033,-18.047517776489258,-0.3198142647743225,-2.2360262870788574,0.20724813640117645,0
67,0.3300139904022217,-0.018151462078094482,-18.106531143188477,0.9180634021759033,18.023714065551758,0.3198142647743225,2.2360262870788574,-0.22098104655742645,0.0,0.0,0.0,0.0,0.0,0.0,0.0,-0.044374003093011524,0.5480796325183488,0.0976855509954216,0.38880186986105364,-0.10230394526827706,0.06631680915801712,-0.21052504209002917,-0.6089795597343102,-0.05774927286526903,-0.666476898222784,-2.5944785902989618,-0.0555672266814155,2.5079588752553112,0.876320716054903,-0.6090851748156966,-0.05753196718556838,-0.666603097082616,-2.5945565370258534,-0.05562143941554,2.507976027223799,0.8763108487046415,-0.00044227372680366296,-3.574111115627052e-05,0.00021274523592970716,-0.00011562551324574174,5.7415204005999605e-05,0.0004030783935563308,0.0007422989436229874,0.0,0.0,0.0,0.0,0.0,0.0,0.0,-0.00010561508138640097,0.00021730567970064396,-0.00012619885983200518,-7.794672689165338e-05,-5.421273412450217e-05,1.7151968487727487e-05,-9.867350261538732e-06,0.00044227372680366296,3.574111115627052e-05,-0.00021274523592970716,0.00011562551324574174,-5.7415204005999605e-05,-0.0004030783935563308,-0.0007422989436229874,0.018151462078094482,18.106531143188477,-0.9180634021759033,-18.023714065551758,-0.3198142647743225,-2.2360262870788574,0.22098104655742645,0
68,0.3350372314453125,-0.018151462078094482,-18.106531143188477,0.9180634021759033,18.023714065551758,0.3198142647743225,2.2360262870788574,-0.22098104655742645,0.0,0.0,0.0,0.0,0.0,0.0,0.0,-0.044374003093011524,0.5480796325183488,0.0976855509954216,0.38880186986105364,-0.10230394526827706,0.06631680915801712,-0.21052504209002917,-0.6089795597343102,-0.05774927286526903,-0.666476898222784,-2.5944785902989618,-0.0555672266814155,2.5079588752553112,0.876320716054903,-0.6090851748156966,-0.05753196718556838,-0.666603097082616,-2.5945565370258534,-0.05562143941554,2.507976027223799,0.8763108487046415,-0.00044227372680366296,-3.574111115627052e-05,0.00021274523592970716,-0.00011562551324574174,5.7415204005999605e-05,0.0004030783935563308,0.0007422989436229874,0.0,0.0,0.0,0.0,0.0,0.0,0.0,-0.00010561508138640097,0.00021730567970064396,-0.00012619885983200518,-7.794672689165338e-05,-5.421273412450217e-05,1.7151968487727487e-05,-9.867350261538732e-06,0.00044227372680366296,3.574111115627052e-05,-0.00021274523592970716,0.00011562551324574174,-5.7415204005999605e-05,-0.0004030783935563308,-0.0007422989436229874,0.018151462078094482,18.106531143188477,-0.9180634021759033,-18.023714065551758,-0.3198142647743225,-2.2360262870788574,0.22098104655742645,0
69,0.34002137184143066,0.005652248859405518,-18.130334854125977,0.9418671131134033,18.023714065551758,0.3198142647743225,2.2488436698913574,-0.19351522624492645,0.0,0.0,0.0,0.0,0.0,0.0,0.0,-0.0441934324353176,0.5564384626544029,0.09826148479809442,0.3849399154834261,-0.1028278624649243,0.06544972845663995,-0.20700484689306206,-0.6089805291228769,-0.057747611450963146,-0.6664785657192375,-2.594477929890344,-0.05556688491015468,2.5079574496481234,0.8763176599364398,-0.6090851748156966,-0.05753196718556838,-0.666603097082616,-2.5945565370258534,-0.05562143941554,2.507976027223799,0.8763108487046415,-0.0011557657393295106,0.0010398432356593414,-0.00022019356337555612,-0.00031418455531955424,0.00010031774757976495,1.926412173460477e-05,0.00010239738300164242,0.0,0.0,0.0,0.0,0.0,0.0,0.0,-0.0001046456928196493,0.00021564426539476267,-0.00012453136337853277,-7.860713550922327e-05,-5.4554505385322194e-05,1.857757567558238e-05,-6.811231798353745e-06,0.0011557657393295106,-0.0010398432356593414,0.00022019356337555612,0.00031418455531955424,-0.00010031774757976495,-1.926412173460477e-05,-0.00010239738300164242,-0.005652248859405518,18.130334854125977,-0.9418671131134033,-18.023714065551758,-0.3198142647743225,-2.2488436698913574,0.19351522624492645,0
70,0.3450632095336914,0.005652248859405518,-18.130334854125977,0.9418671131134033,18.023714065551758,0.3198142647743225,2.2488436698913574,-0.19351522624492645,0.0,0.0,0.0,0.0,0.0,0.0,0.0,-0.0441934324353176,0.5564384626544029,0.09826148479809442,0.3849399154834261,-0.1028278624649243,0.06544972845663995,-0.20700484689306206,-0.6089805291228769,-0.057747611450963146,-0.6664785657192375,-2.594477929890344,-0.05556688491015468,2.5079574496481234,0.8763176599364398,-0.6090851748156966,-0.05753196718556838,-0.666603097082616,-2.5945565370258534,-0.05562143941554,2.507976027223799,0.8763108487046415,-0.0011557657393295106,0.0010398432356593414,-0.00022019356337555612,-0.00031418455531955424,0.00010031774757976495,1.926412173460477e-05,0.00010239738300164242,0.0,0.0,0.0,0.0,0.0,0.0,0.0,-0.0001046456928196493,0.00021564426539476267,-0.00012453136337853277,-7.860713550922327e-05,-5.4554505385322194e-05,1.857757567558238e-05,-6.811231798353745e-06,0.0011557657393295106,-0.0010398432356593414,0.00022019356337555612,0.00031418455531955424,-0.00010031774757976495,-1.926412173460477e-05,-0.00010239738300164242,-0.005652248859405518,18.130334854125977,-0.9418671131134033,-18.023714065551758,-0.3198142647743225,-2.2488436698913574,0.19351522624492645,0
71,0.3500094413757324,0.005652248859405518,-18.130334854125977,0.9418671131134033,18.023714065551758,0.3198142647743225,2.2488436698913574,-0.19351522624492645,0.0,0.0,0.0,0.0,0.0,0.0,0.0,-0.0441934324353176,0.5564384626544029,0.09826148479809442,0.3849399154834261,-0.1028278624649243,0.06544972845663995,-0.20700484689306206,-0.6089805291228769,-0.057747611450963146,-0.6664785657192375,-2.594477929890344,-0.05556688491015468,2.5079574496481234,0.8763176599364398,-0.6090851748156966,-0.05753196718556838,-0.666603097082616,-2.5945565370258534,-0.05562143941554,2.507976027223799,0.8763108487046415,-0.0011557657393295106,0.0010398432356593414,-0.00022019356337555612,-0.00031418455531955424,0.00010031774757976495,1.926412173460477e-05,0.00010239738300164242,0.0,0.0,0.0,0.0,0.0,0.0,0.0,-0.0001046456928196493,0.00021564426539476267,-0.00012453136337853277,-7.860713550922327e-05,-5.4554505385322194e-05,1.857757567558238e-05,-6.811231798353745e-06,0.0011557657393295106,-0.0010398432356593414,0.00022019356337555612,0.00031418455531955424,-0.00010031774757976495,-1.926412173460477e-05,-0.00010239738300164242,-0.005652248859405518,18.130334854125977,-0.9418671131134033,-18.023714065551758,-0.3198142647743225,-2.2488436698913574,0.19351522624492645,0
72,0.355013370513916,0.005652248859405518,-18.130334854125977,0.9418671131134033,18.023714065551758,0.3198142647743225,2.2488436698913574,-0.19351522624492645,0.0,0.0,0.0,0.0,0.0,0.0,0.0,-0.0441934324353176,0.5564384626544029,0.09826148479809442,0.3849399154834261,-0.1028278624649243,0.06544972845663995,-0.20700484689306206,-0.6089805291228769,-0.057747611450963146,-0.6664785657192375,-2.594477929890344,-0.05556688491015468,2.5079574496481234,0.8763176599364398,-0.6090851748156966,-0.05753196718556838,-0.666603097082616,-2.5945565370258534,-0.05562143941554,2.507976027223799,0.8763108487046415,-0.0011557657393295106,0.0010398432356593414,-0.00022019356337555612,-0.00031418455531955424,0.00010031774757976495,1.926412173460477e-05,0.00010239738300164242,0.0,0.0,0.0,0.0,0.0,0.0,0.0,-0.0001046456928196493,0.00021564426539476267,-0.00012453136337853277,-7.860713550922327e-05,-5.4554505385322194e-05,1.857757567558238e-05,-6.811231798353745e-06,0.0011557657393295106,-0.0010398432356593414,0.00022019356337555612,0.00031418455531955424,-0.00010031774757976495,-1.926412173460477e-05,-0.00010239738300164242,-0.005652248859405518,18.130334854125977,-0.9418671131134033,-18.023714065551758,-0.3198142647743225,-2.2488436698913574,0.19351522624492645,0
73,0.3600127696990967,-0.018151462078094482,-18.106531143188477,0.9180634021759033,18.023714065551758,0.3262229561805725,2.2424349784851074,-0.22830526530742645,0.0,0.0,0.0,0.0,0.0,0.0,0.0,-0.04770675547431192,0.5462457217417289,0.09522055967169966,0.39135418149257883,-0.10224151341806506,0.06639957999356409,-0.20487641372359844,-0.6089795597303479,-0.05774928199512855,-0.666476898226805,-2.5944785930366145,-0.0555678997671351,2.507958162209455,0.8763215298569618,-0.6090851748156966,-0.05753196718556838,-0.666603097082616,-2.5945565370258534,-0.05562143941554,2.507976027223799,0.8763108487046415,-0.0006724242930906371,-0.0005691565429886132,-2.1722445965478654e-05,-0.0002423818376190528,-0.0002819892283526557,0.00025327683819329177,2.4166134412568043e-05,0.0,0.0,0.0,0.0,0.0,0.0,0.0,-0.00010561508534867592,0.00021731480956016513,-0.00012619885581099943,-7.794398923888224e-05,-5.35396484048975e-05,1.7865014343865226e-05,-1.0681152320279885e-05,0.0006724242930906371,0.0005691565429886132,2.1722445965478654e-05,0.0002423818376190528,0.0002819892283526557,-0.00025327683819329177,-2.4166134412568043e-05,0.018151462078094482,18.106531143188477,-0.9180634021759033,-18.023714065551758,-0.3262229561805725,-2.2424349784851074,0.22830526530742645,0
74,0.36499857902526855,-0.018151462078094482,-18.106531143188477,0.9180634021759033,18.023714065551758,0.3262229561805725,2.2424349784851074,-0.22830526530742645,0.0,0.0,0.0,0.0,0.0,0.0,0.0,-0.04770675547431192,0.5462457217417289,0.09522055967169966,0.39135418149257883,-0.10224151341806506,0.06639957999356409,-0.20487641372359844,-0.6089795597303479,-0.05774928199512855,-0.666476898226805,-2.5944785930366145,-0.0555678997671351,2.507958162209455,0.8763215298569618,-0.6090851748156966,-0.05753196718556838,-0.666603097082616,-2.5945565370258534,-0.05562143941554,2.507976027223799,0.8763108487046415,-0.0006724242930906371,-0.0005691565429886132,-2.1722445965478654e-05,-0.0002423818376190528,-0.0002819892283526557,0.00025327683819329177,2.4166134412568043e-05,0.0,0.0,0.0,0.0,0.0,0.0,0.0,-0.00010561508534867592,0.00021731480956016513,-0.00012619885581099943,-7.794398923888224e-05,-5.35396484048975e-05,1.7865014343865226e-05,-1.0681152320279885e-05,0.0006724242930906371,0.0005691565429886132,2.1722445965478654e-05,0.0002423818376190528,0.0002819892283526557,-0.00025327683819329177,-2.4166134412568043e-05,0.018151462078094482,18.106531143188477,-0.9180634021759033,-18.023714065551758,-0.3262229561805725,-2.2424349784851074,0.22830526530742645,0
75,0.3700070381164551,-0.04592245817184448,-18.130334854125977,0.9418671131134033,18.047517776489258,0.3143211007118225,2.2424349784851074,-0.18710653483867645,0.0,0.0,0.0,0.0,0.0,0.0,0.0,-0.043799248743688554,0.5483669593354501,0.09868662259454584,0.389236981702315,-0.10242506463909895,0.06594292257911097,-0.20852516228115206,-0.6089775848920942,-0.05774761152318749,-0.6664785686626767,-2.5944802125615785,-0.05556544636985593,2.507958161724941,0.8763169522202676,-0.6090851748156966,-0.05753196718556838,-0.666603097082616,-2.5945565370258534,-0.05562143941554,2.507976027223799,0.8763108487046415,-0.0002442414768225476,0.00015034835985508526,-0.00044705668004127366,-0.0006040466876146817,0.00014621742534637203,0.00042397218824787855,-0.0012059144880356043,0.0,0.0,0.0,0.0,0.0,0.0,0.0,-0.00010758992360238029,0.00021564433761910723,-0.00012452841993926267,-7.63244642749683e-05,-5.599304568407182e-05,1.786549885807176e-05,-6.1035156261324275e-06,0.0002442414768225476,-0.00015034835985508526,0.00044705668004127366,0.0006040466876146817,-0.00014621742534637203,-0.00042397218824787855,0.0012059144880356043,0.04592245817184448,18.130334854125977,-0.9418671131134033,-18.047517776489258,-0.3143211007118225,-2.2424349784851074,0.18710653483867645,0
76,0.3750417232513428,-0.04592245817184448,-18.130334854125977,0.9418671131134033,18.047517776489258,0.3143211007118225,2.2424349784851074,-0.18710653483867645,0.0,0.0,0.0,0.0,0.0,0.0,0.0,-0.043799248743688554,0.5483669593354501,0.09868662259454584,0.389236981702315,-0.10242506463909895,0.06594292257911097,-0.20852516228115206,-0.6089775848920942,-0.05774761152318749,-0.6664785686626767,-2.5944802125615785,-0.05556544636985593,2.507958161724941,0.8763169522202676,-0.6090851748156966,-0.05753196718556838,-0.666603097082616,-2.5945565370258534,-0.05562143941554,2.507976027223799,0.8763108487046415,-0.0002442414768225476,0.00015034835985508526,-0.00044705668004127366,-0.0006040466876146817,0.00014621742534637203,0.00042397218824787855,-0.0012059144880356043,0.0,0.0,0.0,0.0,0.0,0.0,0.0,-0.00010758992360238029,0.00021564433761910723,-0.00012452841993926267,-7.63244642749683e-05,-5.599304568407182e-05,1.786549885807176e-05,-6.1035156261324275e-06,0.0002442414768225476,-0.00015034835985508526,0.00044705668004127366,0.0006040466876146817,-0.00014621742534637203,-0.00042397218824787855,0.0012059144880356043,0.04592245817184448,18.130334854125977,-0.9418671131134033,-18.047517776489258,-0.3143211007118225,-2.2424349784851074,0.18710653483867645,0
77,0.38001275062561035,-0.04592245817184448,-18.154138565063477,0.9418671131134033,18.023714065551758,0.3198142647743225,2.2552523612976074,-0.16604940593242645,0.0,0.0,0.0,0.0,0.0,0.0,0.0,-0.046993946737461705,0.5479641263362225,0.09617291543612942,0.3874711493902637,-0.10281052906864285,0.06599184655333495,-0.20940346070901958,-0.6089769097380463,-0.05774594112341843,-0.666478568335628,-2.594477929855079,-0.055569312352649246,2.5079567375712926,0.876314612539278,-0.6090851748156966,-0.05753196718556838,-0.666603097082616,-2.5945565370258534,-0.05562143941554,2.507976027223799,0.8763108487046415,-0.0005504480009652364,0.0010210749205974434,-0.0008343843806838435,-1.2471457512676061e-05,1.748093108010223e-05,-0.0001568549757515393,-0.0012081331184437517,0.0,0.0,0.0,0.0,0.0,0.0,0.0,-0.00010826507765027138,0.00021397393785004687,-0.0001245287469879841,-7.860717077434742e-05,-5.212706289075414e-05,1.9289652506415678e-05,-3.7638346365165276e-06,0.0005504480009652364,-0.0010210749205974434,0.0008343843806838435,1.2471457512676061e-05,-1.748093108010223e-05,0.0001568549757515393,0.0012081331184437517,0.04592245817184448,18.154138565063477,-0.9418671131134033,-18.023714065551758,-0.3198142647743225,-2.2552523612976074,0.16604940593242645,0
78,0.3850243091583252,-0.04592245817184448,-18.154138565063477,0.9418671131134033,18.023714065551758,0.3198142647743225,2.2552523612976074,-0.16604940593242645,0.0,0.0,0.0,0.0,0.0,0.0,0.0,-0.046993946737461705,0.5479641263362225,0.09617291543612942,0.3874711493902637,-0.10281052906864285,0.06599184655333495,-0.20940346070901958,-0.6089769097380463,-0.05774594112341843,-0.666478568335628,-2.594477929855079,-0.055569312352649246,2.5079567375712926,0.876314612539278,-0.6090851748156966,-0.05753196718556838,-0.666603097082616,-2.5945565370258534,-0.05562143941554,2.507976027223799,0.8763108487046415,-0.0005504480009652364,0.0010210749205974434,-0.0008343843806838435,-1.2471457512676061e-05,1.748093108010223e-05,-0.0001568549757515393,-0.0012081331184437517,0.0,0.0,0.0,0.0,0.0,0.0,0.0,-0.00010826507765027138,0.00021397393785004687,-0.0001245287469879841,-7.860717077434742e-05,-5.212706289075414e-05,1.9289652506415678e-05,-3.7638346365165276e-06,0.0005504480009652364,-0.0010210749205974434,0.0008343843806838435,1.2471457512676061e-05,-1.748093108010223e-05,0.0001568549757515393,0.0012081331184437517,0.04592245817184448,18.154138565063477,-0.9418671131134033,-18.023714065551758,-0.3198142647743225,-2.2552523612976074,0.16604940593242645,0
79,0.39000725746154785,-0.06972616910934448,-18.130334854125977,0.8942596912384033,18.023714065551758,0.3198142647743225,2.2488436698913574,-0.20083944499492645,0.0,0.0,0.0,0.0,0.0,0.0,0.0,-0.044136257295428485,0.5442635351396146,0.09992398702489098,0.3888811122542546,-0.10310373016780769,0.06614078084419756,-0.2069910159188931,-0.6089757063422432,-0.05774758189625007,-0.6664749893723854,-2.5944786186514,-0.05556896188372431,2.5079574496481154,0.8763184780991738,-0.6090851748156966,-0.05753196718556838,-0.666603097082616,-2.5945565370258534,-0.05562143941554,2.507976027223799,0.8763108487046415,0.0003582340363527082,8.90241474940787e-05,0.00040848361802592445,-3.94470027136943e-05,0.000180779982236551,-0.00013649326797609935,0.0004738812500969658,0.0,0.0,0.0,0.0,0.0,0.0,0.0,-0.00010946847345338906,0.00021561471068168997,-0.0001281077102306405,-7.791837445347838e-05,-5.247753181569087e-05,1.8577575683575986e-05,-7.629394532360223e-06,-0.0003582340363527082,-8.90241474940787e-05,-0.00040848361802592445,3.94470027136943e-05,-0.000180779982236551,0.00013649326797609935,-0.0004738812500969658,0.06972616910934448,18.130334854125977,-0.8942596912384033,-18.023714065551758,-0.3198142647743225,-2.2488436698913574,0.20083944499492645,0
