rezayati/contactInterpretation/dataset/franka_main/labeled_data/link5/c11_8.csv
index,time,tau_J0,tau_J1,tau_J2,tau_J3,tau_J4,tau_J5,tau_J6,tau_J_d0,tau_J_d1,tau_J_d2,tau_J_d3,tau_J_d4,tau_J_d5,tau_J_d6,tau_ext0,tau_ext1,tau_ext2,tau_ext3,tau_ext4,tau_ext5,tau_ext6,q0,q1,q2,q3,q4,q5,q6,q_d0,q_d1,q_d2,q_d3,q_d4,q_d5,q_d6,dq0,dq1,dq2,dq3,dq4,dq5,dq6,dq_d0,dq_d1,dq_d2,dq_d3,dq_d4,dq_d5,dq_d6,e0,e1,e2,e3,e4,e5,e6,de0,de1,de2,de3,de4,de5,de6,etau_J0,etau_J1,etau_J2,etau_J3,etau_J4,etau_J5,etau_J6,label
1,0.0,-0.4505855441093445,-22.720483779907227,-0.1491362750530243,13.981050491333008,-0.11414569616317749,2.1325716972351074,-0.41965049505233765,0.0,0.0,0.0,0.0,0.0,0.0,0.0,-0.4333464911892568,0.05766288666070472,-0.20693165298600397,0.1273318515526154,-0.3437550462754594,-0.054039878992062765,-0.4104924026919834,1.6756373939639644,0.05195053978551897,0.029996595777129594,-2.752230286868682,0.03435468125343323,2.766330639856833,0.7691975437186941,1.6754973547542302,0.052104326824870026,0.029969505109285054,-2.752394845125968,0.0342448039870148,2.7663679543071322,0.7691630533470046,0.0001865922229961109,-0.00034924524499801594,0.0006319889688139777,0.0004871038060000376,8.165308153886668e-05,-0.00018231955043762632,0.0006765102218975389,0.0,0.0,0.0,0.0,0.0,0.0,0.0,-0.00014003920973415518,0.00015378703935105265,-2.7090667844540534e-05,-0.00016455825728600715,-0.00010987726641843026,3.731445029941938e-05,-3.4490371689455124e-05,-0.0001865922229961109,0.00034924524499801594,-0.0006319889688139777,-0.0004871038060000376,-8.165308153886668e-05,0.00018231955043762632,-0.0006765102218975389,0.4505855441093445,22.720483779907227,0.1491362750530243,-13.981050491333008,0.11414569616317749,-2.1325716972351074,0.41965049505233765,0
2,0.004997968673706055,-0.4505855441093445,-22.720483779907227,-0.1491362750530243,13.981050491333008,-0.11414569616317749,2.1325716972351074,-0.41965049505233765,0.0,0.0,0.0,0.0,0.0,0.0,0.0,-0.4333464911892568,0.05766288666070472,-0.20693165298600397,0.1273318515526154,-0.3437550462754594,-0.054039878992062765,-0.4104924026919834,1.6756373939639644,0.05195053978551897,0.029996595777129594,-2.752230286868682,0.03435468125343323,2.766330639856833,0.7691975437186941,1.6754973547542302,0.052104326824870026,0.029969505109285054,-2.752394845125968,0.0342448039870148,2.7663679543071322,0.7691630533470046,0.0001865922229961109,-0.00034924524499801594,0.0006319889688139777,0.0004871038060000376,8.165308153886668e-05,-0.00018231955043762632,0.0006765102218975389,0.0,0.0,0.0,0.0,0.0,0.0,0.0,-0.00014003920973415518,0.00015378703935105265,-2.7090667844540534e-05,-0.00016455825728600715,-0.00010987726641843026,3.731445029941938e-05,-3.4490371689455124e-05,-0.0001865922229961109,0.00034924524499801594,-0.0006319889688139777,-0.0004871038060000376,-8.165308153886668e-05,0.00018231955043762632,-0.0006765102218975389,0.4505855441093445,22.720483779907227,0.1491362750530243,-13.981050491333008,0.11414569616317749,-2.1325716972351074,0.41965049505233765,0
3,0.009993553161621094,-0.4267818331718445,-22.772058486938477,-0.1253325641155243,13.957246780395508,-0.11414569616317749,2.1453890800476074,-0.42605918645858765,0.0,0.0,0.0,0.0,0.0,0.0,0.0,-0.43530361592740674,0.06718006847807727,-0.20796389548862393,0.12066454389311142,-0.3442479104504384,-0.055736611881239316,-0.4083313315426457,1.6756357235281092,0.05195415906320538,0.02999421546656137,-2.7522287872570734,0.03435468125343323,2.7663295558319505,0.7691996394066986,1.6754973547542302,0.052104326824870026,0.029969505109285054,-2.752394845125968,0.0342448039870148,2.7663679543071322,0.7691630533470046,-0.0004562845495697523,0.0008078434612417649,-0.00028645263455397347,0.0009308365831067738,0.00015184964137777016,-0.0007092363789367282,0.000913998682493202,0.0,0.0,0.0,0.0,0.0,0.0,0.0,-0.00013836877387896074,0.00015016776166464768,-2.4710357276316874e-05,-0.00016605786889467566,-0.00010987726641843026,3.839847518172235e-05,-3.658605969392159e-05,0.0004562845495697523,-0.0008078434612417649,0.00028645263455397347,-0.0009308365831067738,-0.00015184964137777016,0.0007092363789367282,-0.000913998682493202,0.4267818331718445,22.772058486938477,0.1253325641155243,-13.957246780395508,0.11414569616317749,-2.1453890800476074,0.42605918645858765,0
4,0.014995336532592773,-0.4267818331718445,-22.772058486938477,-0.1253325641155243,13.957246780395508,-0.11414569616317749,2.1453890800476074,-0.42605918645858765,0.0,0.0,0.0,0.0,0.0,0.0,0.0,-0.43530361592740674,0.06718006847807727,-0.20796389548862393,0.12066454389311142,-0.3442479104504384,-0.055736611881239316,-0.4083313315426457,1.6756357235281092,0.05195415906320538,0.02999421546656137,-2.7522287872570734,0.03435468125343323,2.7663295558319505,0.7691996394066986,1.6754973547542302,0.052104326824870026,0.029969505109285054,-2.752394845125968,0.0342448039870148,2.7663679543071322,0.7691630533470046,-0.0004562845495697523,0.0008078434612417649,-0.00028645263455397347,0.0009308365831067738,0.00015184964137777016,-0.0007092363789367282,0.000913998682493202,0.0,0.0,0.0,0.0,0.0,0.0,0.0,-0.00013836877387896074,0.00015016776166464768,-2.4710357276316874e-05,-0.00016605786889467566,-0.00010987726641843026,3.839847518172235e-05,-3.658605969392159e-05,0.0004562845495697523,-0.0008078434612417649,0.00028645263455397347,-0.0009308365831067738,-0.00015184964137777016,0.0007092363789367282,-0.000913998682493202,0.4267818331718445,22.772058486938477,0.1253325641155243,-13.957246780395508,0.11414569616317749,-2.1453890800476074,0.42605918645858765,0
5,0.019995689392089844,-0.4505855441093445,-22.748254776000977,-0.1253325641155243,13.981050491333008,-0.10865253210067749,2.1261630058288574,-0.43338340520858765,0.0,0.0,0.0,0.0,0.0,0.0,0.0,-0.4338724227290768,0.057855478631260504,-0.20433980848320762,0.1246357489331522,-0.34465653788527834,-0.05536841746002218,-0.4084145722342857,1.6756373939639644,0.051952488627350114,0.029994925337316538,-2.752232426527701,0.034354070901870724,2.7663284084943336,0.7692004837411477,1.6754973547542302,0.052104326824870026,0.029969505109285054,-2.752394845125968,0.0342448039870148,2.7663679543071322,0.7691630533470046,0.0005521780538088325,-0.0004553824047051943,0.00012398234548565066,0.0009691621305334458,-3.201851076148384e-05,0.00021611955606813644,0.0007209771294192714,0.0,0.0,0.0,0.0,0.0,0.0,0.0,-0.00014003920973415518,0.0001518381975199115,-2.5420228031484277e-05,-0.00016241859826715555,-0.00010926691485592388,3.954581279863589e-05,-3.743039414305649e-05,-0.0005521780538088325,0.0004553824047051943,-0.00012398234548565066,-0.0009691621305334458,3.201851076148384e-05,-0.00021611955606813644,-0.0007209771294192714,0.4505855441093445,22.748254776000977,0.1253325641155243,-13.981050491333008,0.10865253210067749,-2.1261630058288574,0.43338340520858765,0
6,0.024999618530273438,-0.4505855441093445,-22.748254776000977,-0.1253325641155243,13.981050491333008,-0.10865253210067749,2.1261630058288574,-0.43338340520858765,0.0,0.0,0.0,0.0,0.0,0.0,0.0,-0.4338724227290768,0.057855478631260504,-0.20433980848320762,0.1246357489331522,-0.34465653788527834,-0.05536841746002218,-0.4084145722342857,1.6756373939639644,0.051952488627350114,0.029994925337316538,-2.752232426527701,0.034354070901870724,2.7663284084943336,0.7692004837411477,1.6754973547542302,0.052104326824870026,0.029969505109285054,-2.752394845125968,0.0342448039870148,2.7663679543071322,0.7691630533470046,0.0005521780538088325,-0.0004553824047051943,0.00012398234548565066,0.0009691621305334458,-3.201851076148384e-05,0.00021611955606813644,0.0007209771294192714,0.0,0.0,0.0,0.0,0.0,0.0,0.0,-0.00014003920973415518,0.0001518381975199115,-2.5420228031484277e-05,-0.00016241859826715555,-0.00010926691485592388,3.954581279863589e-05,-3.743039414305649e-05,-0.0005521780538088325,0.0004553824047051943,-0.00012398234548565066,-0.0009691621305334458,3.201851076148384e-05,-0.00021611955606813644,-0.0007209771294192714,0.4505855441093445,22.748254776000977,0.1253325641155243,-13.981050491333008,0.10865253210067749,-2.1261630058288574,0.43338340520858765,0
7,0.029996633529663086,-0.4029781222343445,-22.748254776000977,-0.09756157547235489,14.008821487426758,-0.10865253210067749,2.1325716972351074,-0.43338340520858765,0.0,0.0,0.0,0.0,0.0,0.0,0.0,-0.4311173913128402,0.06110253551054504,-0.20089093230885965,0.1179601039081454,-0.3447119349843584,-0.05681929324360565,-0.4101786375834993,1.6756340530922538,0.051952488627350114,0.029992976500015485,-2.7522321531930305,0.034354070901870724,2.7663299288906473,0.7692004832029681,1.6754973547542302,0.052104326824870026,0.029969505109285054,-2.752394845125968,0.0342448039870148,2.7663679543071322,0.7691630533470046,-0.00037513084395384403,0.00010777807057448606,-0.00012625360352494432,-0.00032975468970543467,-0.00012415493627313486,-3.067195657776191e-05,0.0009545426059296131,0.0,0.0,0.0,0.0,0.0,0.0,0.0,-0.00013669833802354425,0.0001518381975199115,-2.3471390730431252e-05,-0.00016269193293760864,-0.00010926691485592388,3.802541648489921e-05,-3.74298559634445e-05,0.00037513084395384403,-0.00010777807057448606,0.00012625360352494432,0.00032975468970543467,0.00012415493627313486,3.067195657776191e-05,-0.0009545426059296131,0.4029781222343445,22.748254776000977,0.09756157547235489,-14.008821487426758,0.10865253210067749,-2.1325716972351074,0.43338340520858765,0
8,0.03499627113342285,-0.4029781222343445,-22.748254776000977,-0.09756157547235489,14.008821487426758,-0.10865253210067749,2.1325716972351074,-0.43338340520858765,0.0,0.0,0.0,0.0,0.0,0.0,0.0,-0.4311173913128402,0.06110253551054504,-0.20089093230885965,0.1179601039081454,-0.3447119349843584,-0.05681929324360565,-0.4101786375834993,1.6756340530922538,0.051952488627350114,0.029992976500015485,-2.7522321531930305,0.034354070901870724,2.7663299288906473,0.7692004832029681,1.6754973547542302,0.052104326824870026,0.029969505109285054,-2.752394845125968,0.0342448039870148,2.7663679543071322,0.7691630533470046,-0.00037513084395384403,0.00010777807057448606,-0.00012625360352494432,-0.00032975468970543467,-0.00012415493627313486,-3.067195657776191e-05,0.0009545426059296131,0.0,0.0,0.0,0.0,0.0,0.0,0.0,-0.00013669833802354425,0.0001518381975199115,-2.3471390730431252e-05,-0.00016269193293760864,-0.00010926691485592388,3.802541648489921e-05,-3.74298559634445e-05,0.00037513084395384403,-0.00010777807057448606,0.00012625360352494432,0.00032975468970543467,0.00012415493627313486,3.067195657776191e-05,-0.0009545426059296131,0.4029781222343445,22.748254776000977,0.09756157547235489,-14.008821487426758,0.10865253210067749,-2.1325716972351074,0.43338340520858765,0
9,0.040561676025390625,-0.4267818331718445,-22.720483779907227,-0.09756157547235489,14.008821487426758,-0.10865253210067749,2.1325716972351074,-0.41324180364608765,0.0,0.0,0.0,0.0,0.0,0.0,0.0,-0.43154706019937206,0.06359757881053962,-0.2023767698872052,0.11534953550071375,-0.3440941043191203,-0.0571053630412076,-0.41042699698539015,1.6756357235281092,0.05195053978551897,0.02999297617542714,-2.7522321511455505,0.034354070901870724,2.7663309785160184,0.7691981020454635,1.6754973547542302,0.052104326824870026,0.029969505109285054,-2.752394845125968,0.0342448039870148,2.7663679543071322,0.7691630533470046,0.00018356829967153417,0.0004789909376811919,-0.00011963576764568065,-0.00043109981130671934,1.2917372409038435e-05,-0.00014079109910209114,0.000304787720783852,0.0,0.0,0.0,0.0,0.0,0.0,0.0,-0.00013836877387896074,0.00015378703935105265,-2.3471066142085467e-05,-0.000162693980417572,-0.00010926691485592388,3.6975791113835754e-05,-3.50486984588283e-05,-0.00018356829967153417,-0.0004789909376811919,0.00011963576764568065,0.00043109981130671934,-1.2917372409038435e-05,0.00014079109910209114,-0.000304787720783852,0.4267818331718445,22.720483779907227,0.09756157547235489,-14.008821487426758,0.10865253210067749,-2.1325716972351074,0.41324180364608765,0
10,0.045008182525634766,-0.4267818331718445,-22.720483779907227,-0.09756157547235489,14.008821487426758,-0.10865253210067749,2.1325716972351074,-0.41324180364608765,0.0,0.0,0.0,0.0,0.0,0.0,0.0,-0.43154706019937206,0.06359757881053962,-0.2023767698872052,0.11534953550071375,-0.3440941043191203,-0.0571053630412076,-0.41042699698539015,1.6756357235281092,0.05195053978551897,0.02999297617542714,-2.7522321511455505,0.034354070901870724,2.7663309785160184,0.7691981020454635,1.6754973547542302,0.052104326824870026,0.029969505109285054,-2.752394845125968,0.0342448039870148,2.7663679543071322,0.7691630533470046,0.00018356829967153417,0.0004789909376811919,-0.00011963576764568065,-0.00043109981130671934,1.2917372409038435e-05,-0.00014079109910209114,0.000304787720783852,0.0,0.0,0.0,0.0,0.0,0.0,0.0,-0.00013836877387896074,0.00015378703935105265,-2.3471066142085467e-05,-0.000162693980417572,-0.00010926691485592388,3.6975791113835754e-05,-3.50486984588283e-05,-0.00018356829967153417,-0.0004789909376811919,0.00011963576764568065,0.00043109981130671934,-1.2917372409038435e-05,0.00014079109910209114,-0.000304787720783852,0.4267818331718445,22.720483779907227,0.09756157547235489,-14.008821487426758,0.10865253210067749,-2.1325716972351074,0.41324180364608765,0
11,0.05061793327331543,-0.4505855441093445,-22.720483779907227,-0.1253325641155243,13.981050491333008,-0.11414569616317749,2.1389803886413574,-0.43979209661483765,0.0,0.0,0.0,0.0,0.0,0.0,0.0,-0.43455851067785667,0.06309512929097022,-0.20618411245042553,0.11908874219163142,-0.34337578430835763,-0.05627621785388009,-0.4115869200604758,1.6756373939639644,0.05195053978551897,0.02999492500471303,-2.7522302012861837,0.03435468125343323,2.766329221354563,0.76920120906138,1.6754973547542302,0.052104326824870026,0.029969505109285054,-2.752394845125968,0.0342448039870148,2.7663679543071322,0.7691630533470046,0.0003159096781276,0.00033933104216169374,-0.00046354641156959206,0.00030845018961763403,0.00016754242175811445,-0.000440360021376913,0.0005385348150670916,0.0,0.0,0.0,0.0,0.0,0.0,0.0,-0.00014003920973415518,0.00015378703935105265,-2.541989542797704e-05,-0.00016464383978442854,-0.00010987726641843026,3.8732952569286994e-05,-3.815571437537635e-05,-0.0003159096781276,-0.00033933104216169374,0.00046354641156959206,-0.00030845018961763403,-0.00016754242175811445,0.000440360021376913,-0.0005385348150670916,0.4505855441093445,22.720483779907227,0.1253325641155243,-13.981050491333008,0.11414569616317749,-2.1389803886413574,0.43979209661483765,0
12,0.05579662322998047,-0.4505855441093445,-22.720483779907227,-0.1253325641155243,13.981050491333008,-0.11414569616317749,2.1389803886413574,-0.43979209661483765,0.0,0.0,0.0,0.0,0.0,0.0,0.0,-0.43455851067785667,0.06309512929097022,-0.20618411245042553,0.11908874219163142,-0.34337578430835763,-0.05627621785388009,-0.4115869200604758,1.6756373939639644,0.05195053978551897,0.02999492500471303,-2.7522302012861837,0.03435468125343323,2.766329221354563,0.76920120906138,1.6754973547542302,0.052104326824870026,0.029969505109285054,-2.752394845125968,0.0342448039870148,2.7663679543071322,0.7691630533470046,0.0003159096781276,0.00033933104216169374,-0.00046354641156959206,0.00030845018961763403,0.00016754242175811445,-0.000440360021376913,0.0005385348150670916,0.0,0.0,0.0,0.0,0.0,0.0,0.0,-0.00014003920973415518,0.00015378703935105265,-2.541989542797704e-05,-0.00016464383978442854,-0.00010987726641843026,3.8732952569286994e-05,-3.815571437537635e-05,-0.0003159096781276,-0.00033933104216169374,0.00046354641156959206,-0.00030845018961763403,-0.00016754242175811445,0.000440360021376913,-0.0005385348150670916,0.4505855441093445,22.720483779907227,0.1253325641155243,-13.981050491333008,0.11414569616317749,-2.1389803886413574,0.43979209661483765,0
13,0.05999636650085449,-0.4267818331718445,-22.772058486938477,-0.1253325641155243,13.981050491333008,-0.10865253210067749,2.1261630058288574,-0.39950889348983765,0.0,0.0,0.0,0.0,0.0,0.0,0.0,-0.4309681673694251,0.06190927072436388,-0.20481186434543971,0.12112243120943302,-0.34405439688269357,-0.05588570841147636,-0.41337010854761025,1.6756357235281092,0.05195415906320538,0.029994846105695822,-2.7522302053686842,0.034354070901870724,2.7663274665380193,0.7691967329887116,1.6754973547542302,0.052104326824870026,0.029969505109285054,-2.752394845125968,0.0342448039870148,2.7663679543071322,0.7691630533470046,-0.0002445593837603201,0.0012055742660307754,0.0005901672572032815,0.0004789214050084525,-0.00014497848470275396,0.00027003365246142596,-0.0005094866553303223,0.0,0.0,0.0,0.0,0.0,0.0,0.0,-0.00013836877387896074,0.00015016776166464768,-2.5340996410768563e-05,-0.0001646397572838687,-0.00010926691485592388,4.048776911291796e-05,-3.367964170697402e-05,0.0002445593837603201,-0.0012055742660307754,-0.0005901672572032815,-0.0004789214050084525,0.00014497848470275396,-0.00027003365246142596,0.0005094866553303223,0.4267818331718445,22.772058486938477,0.1253325641155243,-13.981050491333008,0.10865253210067749,-2.1261630058288574,0.39950889348983765,0
14,0.06499910354614258,-0.4267818331718445,-22.772058486938477,-0.1253325641155243,13.981050491333008,-0.10865253210067749,2.1261630058288574,-0.39950889348983765,0.0,0.0,0.0,0.0,0.0,0.0,0.0,-0.4309681673694251,0.06190927072436388,-0.20481186434543971,0.12112243120943302,-0.34405439688269357,-0.05588570841147636,-0.41337010854761025,1.6756357235281092,0.05195415906320538,0.029994846105695822,-2.7522302053686842,0.034354070901870724,2.7663274665380193,0.7691967329887116,1.6754973547542302,0.052104326824870026,0.029969505109285054,-2.752394845125968,0.0342448039870148,2.7663679543071322,0.7691630533470046,-0.0002445593837603201,0.0012055742660307754,0.0005901672572032815,0.0004789214050084525,-0.00014497848470275396,0.00027003365246142596,-0.0005094866553303223,0.0,0.0,0.0,0.0,0.0,0.0,0.0,-0.00013836877387896074,0.00015016776166464768,-2.5340996410768563e-05,-0.0001646397572838687,-0.00010926691485592388,4.048776911291796e-05,-3.367964170697402e-05,0.0002445593837603201,-0.0012055742660307754,-0.0005901672572032815,-0.0004789214050084525,0.00014497848470275396,-0.00027003365246142596,0.0005094866553303223,0.4267818331718445,22.772058486938477,0.1253325641155243,-13.981050491333008,0.10865253210067749,-2.1261630058288574,0.39950889348983765,0
15,0.07000303268432617,-0.4267818331718445,-22.772058486938477,-0.1253325641155243,13.981050491333008,-0.10865253210067749,2.1261630058288574,-0.39950889348983765,0.0,0.0,0.0,0.0,0.0,0.0,0.0,-0.4309681673694251,0.06190927072436388,-0.20481186434543971,0.12112243120943302,-0.34405439688269357,-0.05588570841147636,-0.41337010854761025,1.6756357235281092,0.05195415906320538,0.029994846105695822,-2.7522302053686842,0.034354070901870724,2.7663274665380193,0.7691967329887116,1.6754973547542302,0.052104326824870026,0.029969505109285054,-2.752394845125968,0.0342448039870148,2.7663679543071322,0.7691630533470046,-0.0002445593837603201,0.0012055742660307754,0.0005901672572032815,0.0004789214050084525,-0.00014497848470275396,0.00027003365246142596,-0.0005094866553303223,0.0,0.0,0.0,0.0,0.0,0.0,0.0,-0.00013836877387896074,0.00015016776166464768,-2.5340996410768563e-05,-0.0001646397572838687,-0.00010926691485592388,4.048776911291796e-05,-3.367964170697402e-05,0.0002445593837603201,-0.0012055742660307754,-0.0005901672572032815,-0.0004789214050084525,0.00014497848470275396,-0.00027003365246142596,0.0005094866553303223,0.4267818331718445,22.772058486938477,0.1253325641155243,-13.981050491333008,0.10865253210067749,-2.1261630058288574,0.39950889348983765,0
16,0.07500076293945312,-0.4267818331718445,-22.772058486938477,-0.1253325641155243,13.981050491333008,-0.10865253210067749,2.1261630058288574,-0.39950889348983765,0.0,0.0,0.0,0.0,0.0,0.0,0.0,-0.4309681673694251,0.06190927072436388,-0.20481186434543971,0.12112243120943302,-0.34405439688269357,-0.05588570841147636,-0.41337010854761025,1.6756357235281092,0.05195415906320538,0.029994846105695822,-2.7522302053686842,0.034354070901870724,2.7663274665380193,0.7691967329887116,1.6754973547542302,0.052104326824870026,0.029969505109285054,-2.752394845125968,0.0342448039870148,2.7663679543071322,0.7691630533470046,-0.0002445593837603201,0.0012055742660307754,0.0005901672572032815,0.0004789214050084525,-0.00014497848470275396,0.00027003365246142596,-0.0005094866553303223,0.0,0.0,0.0,0.0,0.0,0.0,0.0,-0.00013836877387896074,0.00015016776166464768,-2.5340996410768563e-05,-0.0001646397572838687,-0.00010926691485592388,4.048776911291796e-05,-3.367964170697402e-05,0.0002445593837603201,-0.0012055742660307754,-0.0005901672572032815,-0.0004789214050084525,0.00014497848470275396,-0.00027003365246142596,0.0005094866553303223,0.4267818331718445,22.772058486938477,0.1253325641155243,-13.981050491333008,0.10865253210067749,-2.1261630058288574,0.39950889348983765,0
17,0.08043217658996582,-0.4505855441093445,-22.748254776000977,-0.1253325641155243,13.981050491333008,-0.11414569616317749,2.1261630058288574,-0.41324180364608765,0.0,0.0,0.0,0.0,0.0,0.0,0.0,-0.43747149378149586,0.06810580236250009,-0.20784145329424947,0.11572358439998266,-0.34413601122137205,-0.05657540336287407,-0.41145932205272234,1.6756373939639644,0.051952488627350114,0.029994925340876513,-2.752230201286205,0.03435468125343323,2.7663317051224388,0.7691982590291225,1.6754973547542302,0.052104326824870026,0.029969505109285054,-2.752394845125968,0.0342448039870148,2.7663679543071322,0.7691630533470046,-0.00012115072075611347,0.0005200070516075254,0.00020440721530354524,6.120952839693016e-05,6.89235182080161e-05,6.737266144919756e-05,0.0006972008975828112,0.0,0.0,0.0,0.0,0.0,0.0,0.0,-0.00014003920973415518,0.0001518381975199115,-2.5420231591459508e-05,-0.00016464383976311225,-0.00010987726641843026,3.624918469347094e-05,-3.5205682117900317e-05,0.00012115072075611347,-0.0005200070516075254,-0.00020440721530354524,-6.120952839693016e-05,-6.89235182080161e-05,-6.737266144919756e-05,-0.0006972008975828112,0.4505855441093445,22.748254776000977,0.1253325641155243,-13.981050491333008,0.11414569616317749,-2.1261630058288574,0.41324180364608765,0
18,0.08499717712402344,-0.4505855441093445,-22.748254776000977,-0.1253325641155243,13.981050491333008,-0.11414569616317749,2.1261630058288574,-0.41324180364608765,0.0,0.0,0.0,0.0,0.0,0.0,0.0,-0.43747149378149586,0.06810580236250009,-0.20784145329424947,0.11572358439998266,-0.34413601122137205,-0.05657540336287407,-0.41145932205272234,1.6756373939639644,0.051952488627350114,0.029994925340876513,-2.752230201286205,0.03435468125343323,2.7663317051224388,0.7691982590291225,1.6754973547542302,0.052104326824870026,0.029969505109285054,-2.752394845125968,0.0342448039870148,2.7663679543071322,0.7691630533470046,-0.00012115072075611347,0.0005200070516075254,0.00020440721530354524,6.120952839693016e-05,6.89235182080161e-05,6.737266144919756e-05,0.0006972008975828112,0.0,0.0,0.0,0.0,0.0,0.0,0.0,-0.00014003920973415518,0.0001518381975199115,-2.5420231591459508e-05,-0.00016464383976311225,-0.00010987726641843026,3.624918469347094e-05,-3.5205682117900317e-05,0.00012115072075611347,-0.0005200070516075254,-0.00020440721530354524,-6.120952839693016e-05,-6.89235182080161e-05,-6.737266144919756e-05,-0.0006972008975828112,0.4505855441093445,22.748254776000977,0.1253325641155243,-13.981050491333008,0.11414569616317749,-2.1261630058288574,0.41324180364608765,0
19,0.08999848365783691,-0.4029781222343445,-22.720483779907227,-0.1491362750530243,14.032625198364258,-0.11414569616317749,2.1389803886413574,-0.42605918645858765,0.0,0.0,0.0,0.0,0.0,0.0,0.0,-0.43990971367318077,0.06214092899209267,-0.20694436647109346,0.11991930621702462,-0.34477924352269423,-0.05596918205918886,-0.410690219577243,1.6756347418570379,0.05195053978551897,0.02999659577717906,-2.752236403280397,0.03435468125343323,2.766330280831214,0.7691996698854762,1.6754973547542302,0.052104326824870026,0.029969505109285054,-2.752394845125968,0.0342448039870148,2.7663679543071322,0.7691630533470046,-0.0009730421493916327,-0.0006285901142200286,0.0005347333662035102,-0.0004795323304746266,0.00014682428823636125,-0.0003078974642412561,6.166068277081568e-05,0.0,0.0,0.0,0.0,0.0,0.0,0.0,-0.0001373871028076401,0.00015378703935105265,-2.7090667894007908e-05,-0.00015844184557112229,-0.00010987726641843026,3.767347591843162e-05,-3.6616538471534454e-05,0.0009730421493916327,0.0006285901142200286,-0.0005347333662035102,0.0004795323304746266,-0.00014682428823636125,0.0003078974642412561,-6.166068277081568e-05,0.4029781222343445,22.720483779907227,0.1491362750530243,-14.032625198364258,0.11414569616317749,-2.1389803886413574,0.42605918645858765,0
20,0.09499549865722656,-0.4029781222343445,-22.720483779907227,-0.1491362750530243,14.032625198364258,-0.11414569616317749,2.1389803886413574,-0.42605918645858765,0.0,0.0,0.0,0.0,0.0,0.0,0.0,-0.43990971367318077,0.06214092899209267,-0.20694436647109346,0.11991930621702462,-0.34477924352269423,-0.05596918205918886,-0.410690219577243,1.6756347418570379,0.05195053978551897,0.02999659577717906,-2.752236403280397,0.03435468125343323,2.766330280831214,0.7691996698854762,1.6754973547542302,0.052104326824870026,0.029969505109285054,-2.752394845125968,0.0342448039870148,2.7663679543071322,0.7691630533470046,-0.0009730421493916327,-0.0006285901142200286,0.0005347333662035102,-0.0004795323304746266,0.00014682428823636125,-0.0003078974642412561,6.166068277081568e-05,0.0,0.0,0.0,0.0,0.0,0.0,0.0,-0.0001373871028076401,0.00015378703935105265,-2.7090667894007908e-05,-0.00015844184557112229,-0.00010987726641843026,3.767347591843162e-05,-3.6616538471534454e-05,0.0009730421493916327,0.0006285901142200286,-0.0005347333662035102,0.0004795323304746266,-0.00014682428823636125,0.0003078974642412561,-6.166068277081568e-05,0.4029781222343445,22.720483779907227,0.1491362750530243,-14.032625198364258,0.11414569616317749,-2.1389803886413574,0.42605918645858765,0
21,0.09999895095825195,-0.4267818331718445,-22.720483779907227,-0.1253325641155243,14.008821487426758,-0.09675067663192749,2.1325716972351074,-0.41965049505233765,0.0,0.0,0.0,0.0,0.0,0.0,0.0,-0.4382387147022163,0.06467707293626901,-0.20484122508781674,0.11782763782373393,-0.3450688580103801,-0.05660016441359065,-0.41193833645629824,1.6756357235319972,0.05195053978551897,0.0299949253413238,-2.752234375420349,0.03435274847348531,2.7663309870938355,0.769198913932895,1.6754973547542302,0.052104326824870026,0.029969505109285054,-2.752394845125968,0.0342448039870148,2.7663679543071322,0.7691630533470046,0.00025920269856587224,-0.0005374261626019943,0.00014952695465083937,-0.00041414830782965167,-0.0005817744268039294,-0.00023180992194303705,0.0004157009531569123,0.0,0.0,0.0,0.0,0.0,0.0,0.0,-0.00013836877776696177,0.00015378703935105265,-2.5420232038747548e-05,-0.0001604697056190041,-0.00010794448647050842,3.696721329671249e-05,-3.586058589033492e-05,-0.00025920269856587224,0.0005374261626019943,-0.00014952695465083937,0.00041414830782965167,0.0005817744268039294,0.00023180992194303705,-0.0004157009531569123,0.4267818331718445,22.720483779907227,0.1253325641155243,-14.008821487426758,0.09675067663192749,-2.1325716972351074,0.41965049505233765,0
22,0.1049959659576416,-0.4267818331718445,-22.720483779907227,-0.1253325641155243,14.008821487426758,-0.09675067663192749,2.1325716972351074,-0.41965049505233765,0.0,0.0,0.0,0.0,0.0,0.0,0.0,-0.4382387147022163,0.06467707293626901,-0.20484122508781674,0.11782763782373393,-0.3450688580103801,-0.05660016441359065,-0.41193833645629824,1.6756357235319972,0.05195053978551897,0.0299949253413238,-2.752234375420349,0.03435274847348531,2.7663309870938355,0.769198913932895,1.6754973547542302,0.052104326824870026,0.029969505109285054,-2.752394845125968,0.0342448039870148,2.7663679543071322,0.7691630533470046,0.00025920269856587224,-0.0005374261626019943,0.00014952695465083937,-0.00041414830782965167,-0.0005817744268039294,-0.00023180992194303705,0.0004157009531569123,0.0,0.0,0.0,0.0,0.0,0.0,0.0,-0.00013836877776696177,0.00015378703935105265,-2.5420232038747548e-05,-0.0001604697056190041,-0.00010794448647050842,3.696721329671249e-05,-3.586058589033492e-05,-0.00025920269856587224,0.0005374261626019943,-0.00014952695465083937,0.00041414830782965167,0.0005817744268039294,0.00023180992194303705,-0.0004157009531569123,0.4267818331718445,22.720483779907227,0.1253325641155243,-14.008821487426758,0.09675067663192749,-2.1325716972351074,0.41965049505233765,0
23,0.11063027381896973,-0.4029781222343445,-22.748254776000977,-0.09756157547235489,13.957246780395508,-0.10865253210067749,2.1325716972351074,-0.43338340520858765,0.0,0.0,0.0,0.0,0.0,0.0,0.0,-0.4360148103464984,0.0645397879953295,-0.20618558950079546,0.12083151411576398,-0.3444513191164374,-0.056455008133705055,-0.41018282561801217,1.6756340530922538,0.051952488627350114,0.029992657970629655,-2.752229602274775,0.034354070901870724,2.76633082300413,0.7691994314783643,1.6754973547542302,0.052104326824870026,0.029969505109285054,-2.752394845125968,0.0342448039870148,2.7663679543071322,0.7691630533470046,-0.00044398491914946094,0.0006658401950333465,-0.000366284078680758,0.001092604339794485,-0.00012882010672134035,-3.687952000041965e-05,0.0008940852398683647,0.0,0.0,0.0,0.0,0.0,0.0,0.0,-0.00013669833802354425,0.0001518381975199115,-2.315286134460179e-05,-0.00016524285119290383,-0.00010926691485592388,3.713130300209144e-05,-3.637813135970447e-05,0.00044398491914946094,-0.0006658401950333465,0.000366284078680758,-0.001092604339794485,0.00012882010672134035,3.687952000041965e-05,-0.0008940852398683647,0.4029781222343445,22.748254776000977,0.09756157547235489,-13.957246780395508,0.10865253210067749,-2.1325716972351074,0.43338340520858765,0
24,0.11500716209411621,-0.4029781222343445,-22.748254776000977,-0.09756157547235489,13.957246780395508,-0.10865253210067749,2.1325716972351074,-0.43338340520858765,0.0,0.0,0.0,0.0,0.0,0.0,0.0,-0.4360148103464984,0.0645397879953295,-0.20618558950079546,0.12083151411576398,-0.3444513191164374,-0.056455008133705055,-0.41018282561801217,1.6756340530922538,0.051952488627350114,0.029992657970629655,-2.752229602274775,0.034354070901870724,2.76633082300413,0.7691994314783643,1.6754973547542302,0.052104326824870026,0.029969505109285054,-2.752394845125968,0.0342448039870148,2.7663679543071322,0.7691630533470046,-0.00044398491914946094,0.0006658401950333465,-0.000366284078680758,0.001092604339794485,-0.00012882010672134035,-3.687952000041965e-05,0.0008940852398683647,0.0,0.0,0.0,0.0,0.0,0.0,0.0,-0.00013669833802354425,0.0001518381975199115,-2.315286134460179e-05,-0.00016524285119290383,-0.00010926691485592388,3.713130300209144e-05,-3.637813135970447e-05,0.00044398491914946094,-0.0006658401950333465,0.000366284078680758,-0.001092604339794485,0.00012882010672134035,3.687952000041965e-05,-0.0008940852398683647,0.4029781222343445,22.748254776000977,0.09756157547235489,-13.957246780395508,0.10865253210067749,-2.1325716972351074,0.43338340520858765,0
25,0.11999702453613281,-0.4505855441093445,-22.748254776000977,-0.1253325641155243,14.008821487426758,-0.11414569616317749,2.1389803886413574,-0.39950889348983765,0.0,0.0,0.0,0.0,0.0,0.0,0.0,-0.43349061460466365,0.06161618298744015,-0.20160883937058055,0.1219907238503294,-0.34433229729329345,-0.05551517104378151,-0.4106342421788168,1.6756373939639644,0.051952488627350114,0.029994688679738247,-2.752234387579923,0.03435468125343323,2.7663302809923995,0.769196731694662,1.6754973547542302,0.052104326824870026,0.029969505109285054,-2.752394845125968,0.0342448039870148,2.7663679543071322,0.7691630533470046,0.0006652833910275574,0.00022589171043532104,0.0002254217444425721,-8.45155461635804e-05,0.0001232782914517334,-8.744059945352752e-05,-0.0007725237204462121,0.0,0.0,0.0,0.0,0.0,0.0,0.0,-0.00014003920973415518,0.0001518381975199115,-2.5183570453193166e-05,-0.00016045754604521179,-0.00010987726641843026,3.767331473270019e-05,-3.36783476573288e-05,-0.0006652833910275574,-0.00022589171043532104,-0.0002254217444425721,8.45155461635804e-05,-0.0001232782914517334,8.744059945352752e-05,0.0007725237204462121,0.4505855441093445,22.748254776000977,0.1253325641155243,-14.008821487426758,0.11414569616317749,-2.1389803886413574,0.39950889348983765,0
26,0.12499809265136719,-0.4505855441093445,-22.748254776000977,-0.1253325641155243,14.008821487426758,-0.11414569616317749,2.1389803886413574,-0.39950889348983765,0.0,0.0,0.0,0.0,0.0,0.0,0.0,-0.43349061460466365,0.06161618298744015,-0.20160883937058055,0.1219907238503294,-0.34433229729329345,-0.05551517104378151,-0.4106342421788168,1.6756373939639644,0.051952488627350114,0.029994688679738247,-2.752234387579923,0.03435468125343323,2.7663302809923995,0.769196731694662,1.6754973547542302,0.052104326824870026,0.029969505109285054,-2.752394845125968,0.0342448039870148,2.7663679543071322,0.7691630533470046,0.0006652833910275574,0.00022589171043532104,0.0002254217444425721,-8.45155461635804e-05,0.0001232782914517334,-8.744059945352752e-05,-0.0007725237204462121,0.0,0.0,0.0,0.0,0.0,0.0,0.0,-0.00014003920973415518,0.0001518381975199115,-2.5183570453193166e-05,-0.00016045754604521179,-0.00010987726641843026,3.767331473270019e-05,-3.36783476573288e-05,-0.0006652833910275574,-0.00022589171043532104,-0.0002254217444425721,8.45155461635804e-05,-0.0001232782914517334,8.744059945352752e-05,0.0007725237204462121,0.4505855441093445,22.748254776000977,0.1253325641155243,-14.008821487426758,0.11414569616317749,-2.1389803886413574,0.39950889348983765,0
27,0.12999534606933594,-0.4267818331718445,-22.696680068969727,-0.1491362750530243,14.008821487426758,-0.12055438756942749,2.1261630058288574,-0.39950889348983765,0.0,0.0,0.0,0.0,0.0,0.0,0.0,-0.43202466413477014,0.06693206570135522,-0.19851798432825368,0.1180163159582125,-0.3447005278325754,-0.056025454355922814,-0.41053571096724817,1.6756357235281092,0.05194886934966371,0.02999658409066183,-2.752232480182686,0.03435539333025615,2.7663317051463654,0.7691935540743154,1.6754973547542302,0.052104326824870026,0.029969505109285054,-2.752394845125968,0.0342448039870148,2.7663679543071322,0.7691630533470046,-0.000198657879816758,-0.0008001447869364784,0.0007852960711459633,-0.0006093174108907446,0.00040262576339910867,-3.153399686674966e-06,4.9597886858002034e-05,0.0,0.0,0.0,0.0,0.0,0.0,0.0,-0.00013836877387896074,0.00015545747520631648,-2.7078981376774808e-05,-0.00016236494328225604,-0.00011058934324134628,3.624916076683249e-05,-3.050072731081155e-05,0.000198657879816758,0.0008001447869364784,-0.0007852960711459633,0.0006093174108907446,-0.00040262576339910867,3.153399686674966e-06,-4.9597886858002034e-05,0.4267818331718445,22.696680068969727,0.1491362750530243,-14.008821487426758,0.12055438756942749,-2.1261630058288574,0.39950889348983765,0
28,0.1349954605102539,-0.4267818331718445,-22.696680068969727,-0.1491362750530243,14.008821487426758,-0.12055438756942749,2.1261630058288574,-0.39950889348983765,0.0,0.0,0.0,0.0,0.0,0.0,0.0,-0.43202466413477014,0.06693206570135522,-0.19851798432825368,0.1180163159582125,-0.3447005278325754,-0.056025454355922814,-0.41053571096724817,1.6756357235281092,0.05194886934966371,0.02999658409066183,-2.752232480182686,0.03435539333025615,2.7663317051463654,0.7691935540743154,1.6754973547542302,0.052104326824870026,0.029969505109285054,-2.752394845125968,0.0342448039870148,2.7663679543071322,0.7691630533470046,-0.000198657879816758,-0.0008001447869364784,0.0007852960711459633,-0.0006093174108907446,0.00040262576339910867,-3.153399686674966e-06,4.9597886858002034e-05,0.0,0.0,0.0,0.0,0.0,0.0,0.0,-0.00013836877387896074,0.00015545747520631648,-2.7078981376774808e-05,-0.00016236494328225604,-0.00011058934324134628,3.624916076683249e-05,-3.050072731081155e-05,0.000198657879816758,0.0008001447869364784,-0.0007852960711459633,0.0006093174108907446,-0.00040262576339910867,3.153399686674966e-06,-4.9597886858002034e-05,0.4267818331718445,22.696680068969727,0.1491362750530243,-14.008821487426758,0.12055438756942749,-2.1261630058288574,0.39950889348983765,0
29,0.13999700546264648,-0.4029781222343445,-22.748254776000977,-0.09756157547235489,14.008821487426758,-0.10865253210067749,2.1325716972351074,-0.41324180364608765,0.0,0.0,0.0,0.0,0.0,0.0,0.0,-0.4352744690958034,0.06196628688972786,-0.20361218000625847,0.12688065189466174,-0.34356320545056745,-0.05529640087832914,-0.4086012588077896,1.6756340530922538,0.051952488627350114,0.029992265615356627,-2.7522321501298763,0.034354070901870724,2.7663278127016047,0.7691978925550099,1.6754973547542302,0.052104326824870026,0.029969505109285054,-2.752394845125968,0.0342448039870148,2.7663679543071322,0.7691630533470046,-0.0007121142911976998,0.0001220952344906467,-1.6022881265727114e-05,-0.00012037311937548268,-0.0008677774982625762,-5.45435140381057e-05,0.00012788229538970332,0.0,0.0,0.0,0.0,0.0,0.0,0.0,-0.00013669833802354425,0.0001518381975199115,-2.2760506071573677e-05,-0.0001626949960917834,-0.00010926691485592388,4.014160552756607e-05,-3.483920800528839e-05,0.0007121142911976998,-0.0001220952344906467,1.6022881265727114e-05,0.00012037311937548268,0.0008677774982625762,5.45435140381057e-05,-0.00012788229538970332,0.4029781222343445,22.748254776000977,0.09756157547235489,-14.008821487426758,0.10865253210067749,-2.1325716972351074,0.41324180364608765,0
30,0.1450176239013672,-0.4029781222343445,-22.748254776000977,-0.09756157547235489,14.008821487426758,-0.10865253210067749,2.1325716972351074,-0.41324180364608765,0.0,0.0,0.0,0.0,0.0,0.0,0.0,-0.4352744690958034,0.06196628688972786,-0.20361218000625847,0.12688065189466174,-0.34356320545056745,-0.05529640087832914,-0.4086012588077896,1.6756340530922538,0.051952488627350114,0.029992265615356627,-2.7522321501298763,0.034354070901870724,2.7663278127016047,0.7691978925550099,1.6754973547542302,0.052104326824870026,0.029969505109285054,-2.752394845125968,0.0342448039870148,2.7663679543071322,0.7691630533470046,-0.0007121142911976998,0.0001220952344906467,-1.6022881265727114e-05,-0.00012037311937548268,-0.0008677774982625762,-5.45435140381057e-05,0.00012788229538970332,0.0,0.0,0.0,0.0,0.0,0.0,0.0,-0.00013669833802354425,0.0001518381975199115,-2.2760506071573677e-05,-0.0001626949960917834,-0.00010926691485592388,4.014160552756607e-05,-3.483920800528839e-05,0.0007121142911976998,-0.0001220952344906467,1.6022881265727114e-05,0.00012037311937548268,0.0008677774982625762,5.45435140381057e-05,-0.00012788229538970332,0.4029781222343445,22.748254776000977,0.09756157547235489,-14.008821487426758,0.10865253210067749,-2.1325716972351074,0.41324180364608765,0
31,0.15000462532043457,-0.4783565402030945,-22.720483779907227,-0.1253325641155243,13.981050491333008,-0.10865253210067749,2.1261630058288574,-0.42605918645858765,0.0,0.0,0.0,0.0,0.0,0.0,0.0,-0.4351870316250656,0.07217706346019358,-0.20353398615392448,0.11868837857940184,-0.3444516884796581,-0.05675814246090503,-0.41000005713516396,1.6756393428057954,0.051950538811186074,0.029994925337310838,-2.7522304795118497,0.034354070901870724,2.7663316993142115,0.7691991729845641,1.6754973547542302,0.052104326824870026,0.029969505109285054,-2.752394845125968,0.0342448039870148,2.7663679543071322,0.7691630533470046,0.0006583844235106945,0.00038680486407782164,0.00029765516872165885,-0.0002493728161932831,-0.00016938899533281972,9.833831981507566e-05,0.0005011075270589174,0.0,0.0,0.0,0.0,0.0,0.0,0.0,-0.00014198805156517835,0.00015378801368395173,-2.5420228025783975e-05,-0.00016436561411836692,-0.00010926691485592388,3.6254992920703444e-05,-3.61196375594508e-05,-0.0006583844235106945,-0.00038680486407782164,-0.00029765516872165885,0.0002493728161932831,0.00016938899533281972,-9.833831981507566e-05,-0.0005011075270589174,0.4783565402030945,22.720483779907227,0.1253325641155243,-13.981050491333008,0.10865253210067749,-2.1261630058288574,0.42605918645858765,0
32,0.1550920009613037,-0.4783565402030945,-22.720483779907227,-0.1253325641155243,13.981050491333008,-0.10865253210067749,2.1261630058288574,-0.42605918645858765,0.0,0.0,0.0,0.0,0.0,0.0,0.0,-0.4351870316250656,0.07217706346019358,-0.20353398615392448,0.11868837857940184,-0.3444516884796581,-0.05675814246090503,-0.41000005713516396,1.6756393428057954,0.051950538811186074,0.029994925337310838,-2.7522304795118497,0.034354070901870724,2.7663316993142115,0.7691991729845641,1.6754973547542302,0.052104326824870026,0.029969505109285054,-2.752394845125968,0.0342448039870148,2.7663679543071322,0.7691630533470046,0.0006583844235106945,0.00038680486407782164,0.00029765516872165885,-0.0002493728161932831,-0.00016938899533281972,9.833831981507566e-05,0.0005011075270589174,0.0,0.0,0.0,0.0,0.0,0.0,0.0,-0.00014198805156517835,0.00015378801368395173,-2.5420228025783975e-05,-0.00016436561411836692,-0.00010926691485592388,3.6254992920703444e-05,-3.61196375594508e-05,-0.0006583844235106945,-0.00038680486407782164,-0.00029765516872165885,0.0002493728161932831,0.00016938899533281972,-9.833831981507566e-05,-0.0005011075270589174,0.4783565402030945,22.720483779907227,0.1253325641155243,-13.981050491333008,0.10865253210067749,-2.1261630058288574,0.42605918645858765,0
33,0.15995264053344727,-0.4267818331718445,-22.748254776000977,-0.1253325641155243,13.933443069458008,-0.11414569616317749,2.1325716972351074,-0.41324180364608765,0.0,0.0,0.0,0.0,0.0,0.0,0.0,-0.43586128746216823,0.05874354074988761,-0.20290452339892648,0.1208333689884046,-0.34476952659701093,-0.05627712698262682,-0.4107221025140549,1.6756357235281092,0.05195248862734462,0.029994898725077542,-2.7522268635061824,0.03435468130752078,2.76633052211923,0.769197866567677,1.6754973547542302,0.052104326824870026,0.029969505109285054,-2.752394845125968,0.0342448039870148,2.7663679543071322,0.7691630533470046,-0.0005764583581076638,-0.0005087090594449819,-0.0001992399110361251,0.0007449581288858584,0.00019691124449295398,-0.00029662197936499525,0.0005489597026163299,0.0,0.0,0.0,0.0,0.0,0.0,0.0,-0.00013836877387896074,0.00015183819752540711,-2.5393615792488472e-05,-0.00016798161978570647,-0.0001098773205059772,3.743218790219771e-05,-3.4813220672336165e-05,0.0005764583581076638,0.0005087090594449819,0.0001992399110361251,-0.0007449581288858584,-0.00019691124449295398,0.00029662197936499525,-0.0005489597026163299,0.4267818331718445,22.748254776000977,0.1253325641155243,-13.933443069458008,0.11414569616317749,-2.1325716972351074,0.41324180364608765,0
34,0.16494178771972656,-0.4267818331718445,-22.748254776000977,-0.1253325641155243,13.933443069458008,-0.11414569616317749,2.1325716972351074,-0.41324180364608765,0.0,0.0,0.0,0.0,0.0,0.0,0.0,-0.43586128746216823,0.05874354074988761,-0.20290452339892648,0.1208333689884046,-0.34476952659701093,-0.05627712698262682,-0.4107221025140549,1.6756357235281092,0.05195248862734462,0.029994898725077542,-2.7522268635061824,0.03435468130752078,2.76633052211923,0.769197866567677,1.6754973547542302,0.052104326824870026,0.029969505109285054,-2.752394845125968,0.0342448039870148,2.7663679543071322,0.7691630533470046,-0.0005764583581076638,-0.0005087090594449819,-0.0001992399110361251,0.0007449581288858584,0.00019691124449295398,-0.00029662197936499525,0.0005489597026163299,0.0,0.0,0.0,0.0,0.0,0.0,0.0,-0.00013836877387896074,0.00015183819752540711,-2.5393615792488472e-05,-0.00016798161978570647,-0.0001098773205059772,3.743218790219771e-05,-3.4813220672336165e-05,0.0005764583581076638,0.0005087090594449819,0.0001992399110361251,-0.0007449581288858584,-0.00019691124449295398,0.00029662197936499525,-0.0005489597026163299,0.4267818331718445,22.748254776000977,0.1253325641155243,-13.933443069458008,0.11414569616317749,-2.1325716972351074,0.41324180364608765,0
35,0.17000555992126465,-0.4267818331718445,-22.772058486938477,-0.1253325641155243,14.008821487426758,-0.12055438756942749,2.1325716972351074,-0.43979209661483765,0.0,0.0,0.0,0.0,0.0,0.0,0.0,-0.4363295779223543,0.058444610098090655,-0.20362011118241644,0.12006047570871388,-0.3439225349518669,-0.05659086220792079,-0.40926558163900345,1.6756357235281092,0.05195415906320538,0.029994925341173553,-2.7522328919877754,0.03435539333025645,2.7663306398541745,0.7692012085749432,1.6754973547542302,0.052104326824870026,0.029969505109285054,-2.752394845125968,0.0342448039870148,2.7663679543071322,0.7691630533470046,-0.00011706689760947432,0.00013443527795855537,0.0003773675493664565,-0.00038119235179193584,-0.003728254434332327,-7.391861550241425e-05,0.0013258083849404846,0.0,0.0,0.0,0.0,0.0,0.0,0.0,-0.00013836877387896074,0.00015016776166464768,-2.5420231888499678e-05,-0.00016195313819267199,-0.0001105893432416516,3.731445295773739e-05,-3.81552279385966e-05,0.00011706689760947432,-0.00013443527795855537,-0.0003773675493664565,0.00038119235179193584,0.003728254434332327,7.391861550241425e-05,-0.0013258083849404846,0.4267818331718445,22.772058486938477,0.1253325641155243,-14.008821487426758,0.12055438756942749,-2.1325716972351074,0.43979209661483765,0
36,0.17499423027038574,-0.4267818331718445,-22.772058486938477,-0.1253325641155243,14.008821487426758,-0.12055438756942749,2.1325716972351074,-0.43979209661483765,0.0,0.0,0.0,0.0,0.0,0.0,0.0,-0.4363295779223543,0.058444610098090655,-0.20362011118241644,0.12006047570871388,-0.3439225349518669,-0.05659086220792079,-0.40926558163900345,1.6756357235281092,0.05195415906320538,0.029994925341173553,-2.7522328919877754,0.03435539333025645,2.7663306398541745,0.7692012085749432,1.6754973547542302,0.052104326824870026,0.029969505109285054,-2.752394845125968,0.0342448039870148,2.7663679543071322,0.7691630533470046,-0.00011706689760947432,0.00013443527795855537,0.0003773675493664565,-0.00038119235179193584,-0.003728254434332327,-7.391861550241425e-05,0.0013258083849404846,0.0,0.0,0.0,0.0,0.0,0.0,0.0,-0.00013836877387896074,0.00015016776166464768,-2.5420231888499678e-05,-0.00016195313819267199,-0.0001105893432416516,3.731445295773739e-05,-3.81552279385966e-05,0.00011706689760947432,-0.00013443527795855537,-0.0003773675493664565,0.00038119235179193584,0.003728254434332327,7.391861550241425e-05,-0.0013258083849404846,0.4267818331718445,22.772058486938477,0.1253325641155243,-14.008821487426758,0.12055438756942749,-2.1325716972351074,0.43979209661483765,0
37,0.1799912452697754,-0.4267818331718445,-22.696680068969727,-0.09756157547235489,14.008821487426758,-0.11414569616317749,2.1389803886413574,-0.40591758489608765,0.0,0.0,0.0,0.0,0.0,0.0,0.0,-0.43905063369706526,0.06616389378320967,-0.2075624791007424,0.11787558280891507,-0.34366404842396525,-0.057277508125172745,-0.41045021727126674,1.675635723843045,0.05194886934966371,0.02999297357872019,-2.752234624099246,0.03435468125343323,2.766330280986738,0.7691970905607718,1.6754973547542302,0.052104326824870026,0.029969505109285054,-2.752394845125968,0.0342448039870148,2.7663679543071322,0.7691630533470046,-3.84191743293245e-05,-0.0005142537118042804,-0.0009078262498238047,0.0004736515190192499,-1.6315903462896003e-05,-0.00023584309547708775,-0.000590640087447997,0.0,0.0,0.0,0.0,0.0,0.0,0.0,-0.0001383690888148159,0.00015545747520631648,-2.346846943513531e-05,-0.00016022102672197391,-0.00010987726641843026,3.767332039439353e-05,-3.4037213767157404e-05,3.84191743293245e-05,0.0005142537118042804,0.0009078262498238047,-0.0004736515190192499,1.6315903462896003e-05,0.00023584309547708775,0.000590640087447997,0.4267818331718445,22.696680068969727,0.09756157547235489,-14.008821487426758,0.11414569616317749,-2.1389803886413574,0.40591758489608765,0
38,0.18499159812927246,-0.4267818331718445,-22.696680068969727,-0.09756157547235489,14.008821487426758,-0.11414569616317749,2.1389803886413574,-0.40591758489608765,0.0,0.0,0.0,0.0,0.0,0.0,0.0,-0.43905063369706526,0.06616389378320967,-0.2075624791007424,0.11787558280891507,-0.34366404842396525,-0.057277508125172745,-0.41045021727126674,1.675635723843045,0.05194886934966371,0.02999297357872019,-2.752234624099246,0.03435468125343323,2.766330280986738,0.7691970905607718,1.6754973547542302,0.052104326824870026,0.029969505109285054,-2.752394845125968,0.0342448039870148,2.7663679543071322,0.7691630533470046,-3.84191743293245e-05,-0.0005142537118042804,-0.0009078262498238047,0.0004736515190192499,-1.6315903462896003e-05,-0.00023584309547708775,-0.000590640087447997,0.0,0.0,0.0,0.0,0.0,0.0,0.0,-0.0001383690888148159,0.00015545747520631648,-2.346846943513531e-05,-0.00016022102672197391,-0.00010987726641843026,3.767332039439353e-05,-3.4037213767157404e-05,3.84191743293245e-05,0.0005142537118042804,0.0009078262498238047,-0.0004736515190192499,1.6315903462896003e-05,0.00023584309547708775,0.000590640087447997,0.4267818331718445,22.696680068969727,0.09756157547235489,-14.008821487426758,0.11414569616317749,-2.1389803886413574,0.40591758489608765,0
39,0.19004297256469727,-0.4267818331718445,-22.696680068969727,-0.09756157547235489,14.008821487426758,-0.11414569616317749,2.1389803886413574,-0.40591758489608765,0.0,0.0,0.0,0.0,0.0,0.0,0.0,-0.43905063369706526,0.06616389378320967,-0.2075624791007424,0.11787558280891507,-0.34366404842396525,-0.057277508125172745,-0.41045021727126674,1.675635723843045,0.05194886934966371,0.02999297357872019,-2.752234624099246,0.03435468125343323,2.766330280986738,0.7691970905607718,1.6754973547542302,0.052104326824870026,0.029969505109285054,-2.752394845125968,0.0342448039870148,2.7663679543071322,0.7691630533470046,-3.84191743293245e-05,-0.0005142537118042804,-0.0009078262498238047,0.0004736515190192499,-1.6315903462896003e-05,-0.00023584309547708775,-0.000590640087447997,0.0,0.0,0.0,0.0,0.0,0.0,0.0,-0.0001383690888148159,0.00015545747520631648,-2.346846943513531e-05,-0.00016022102672197391,-0.00010987726641843026,3.767332039439353e-05,-3.4037213767157404e-05,3.84191743293245e-05,0.0005142537118042804,0.0009078262498238047,-0.0004736515190192499,1.6315903462896003e-05,0.00023584309547708775,0.000590640087447997,0.4267818331718445,22.696680068969727,0.09756157547235489,-14.008821487426758,0.11414569616317749,-2.1389803886413574,0.40591758489608765,0
40,0.19500350952148438,-0.4267818331718445,-22.696680068969727,-0.09756157547235489,14.008821487426758,-0.11414569616317749,2.1389803886413574,-0.40591758489608765,0.0,0.0,0.0,0.0,0.0,0.0,0.0,-0.43905063369706526,0.06616389378320967,-0.2075624791007424,0.11787558280891507,-0.34366404842396525,-0.057277508125172745,-0.41045021727126674,1.675635723843045,0.05194886934966371,0.02999297357872019,-2.752234624099246,0.03435468125343323,2.766330280986738,0.7691970905607718,1.6754973547542302,0.052104326824870026,0.029969505109285054,-2.752394845125968,0.0342448039870148,2.7663679543071322,0.7691630533470046,-3.84191743293245e-05,-0.0005142537118042804,-0.0009078262498238047,0.0004736515190192499,-1.6315903462896003e-05,-0.00023584309547708775,-0.000590640087447997,0.0,0.0,0.0,0.0,0.0,0.0,0.0,-0.0001383690888148159,0.00015545747520631648,-2.346846943513531e-05,-0.00016022102672197391,-0.00010987726641843026,3.767332039439353e-05,-3.4037213767157404e-05,3.84191743293245e-05,0.0005142537118042804,0.0009078262498238047,-0.0004736515190192499,1.6315903462896003e-05,0.00023584309547708775,0.000590640087447997,0.4267818331718445,22.696680068969727,0.09756157547235489,-14.008821487426758,0.11414569616317749,-2.1389803886413574,0.40591758489608765,0
41,0.2000408172607422,-0.4505855441093445,-22.696680068969727,-0.1253325641155243,13.981050491333008,-0.12055438756942749,2.1261630058288574,-0.38577598333358765,0.0,0.0,0.0,0.0,0.0,0.0,0.0,-0.4392200666089907,0.06458965423054122,-0.2091879019476886,0.11878021848739347,-0.34310567685983623,-0.05689439131782634,-0.4118381480421137,1.6756373939639662,0.05194886934966371,0.0299946887163865,-2.752231199490786,0.03435645939580298,2.7663315873549603,0.7691937938801178,1.6754973547542302,0.052104326824870026,0.029969505109285054,-2.752394845125968,0.0342448039870148,2.7663679543071322,0.7691630533470046,-2.4885841735217334e-05,-0.0006521881379336097,-0.0005164657886041831,0.00036041770020893345,0.0005462725841030641,9.850138005144506e-05,-0.0002875087389941319,0.0,0.0,0.0,0.0,0.0,0.0,0.0,-0.00014003920973593154,0.00015545747520631648,-2.5183607101447042e-05,-0.00016364563518189712,-0.00011165540878817909,3.6366952171906775e-05,-3.074053311313829e-05,2.4885841735217334e-05,0.0006521881379336097,0.0005164657886041831,-0.00036041770020893345,-0.0005462725841030641,-9.850138005144506e-05,0.0002875087389941319,0.4505855441093445,22.696680068969727,0.1253325641155243,-13.981050491333008,0.12055438756942749,-2.1261630058288574,0.38577598333358765,0
42,0.20500755310058594,-0.4505855441093445,-22.696680068969727,-0.1253325641155243,13.981050491333008,-0.12055438756942749,2.1261630058288574,-0.38577598333358765,0.0,0.0,0.0,0.0,0.0,0.0,0.0,-0.4392200666089907,0.06458965423054122,-0.2091879019476886,0.11878021848739347,-0.34310567685983623,-0.05689439131782634,-0.4118381480421137,1.6756373939639662,0.05194886934966371,0.0299946887163865,-2.752231199490786,0.03435645939580298,2.7663315873549603,0.7691937938801178,1.6754973547542302,0.052104326824870026,0.029969505109285054,-2.752394845125968,0.0342448039870148,2.7663679543071322,0.7691630533470046,-2.4885841735217334e-05,-0.0006521881379336097,-0.0005164657886041831,0.00036041770020893345,0.0005462725841030641,9.850138005144506e-05,-0.0002875087389941319,0.0,0.0,0.0,0.0,0.0,0.0,0.0,-0.00014003920973593154,0.00015545747520631648,-2.5183607101447042e-05,-0.00016364563518189712,-0.00011165540878817909,3.6366952171906775e-05,-3.074053311313829e-05,2.4885841735217334e-05,0.0006521881379336097,0.0005164657886041831,-0.00036041770020893345,-0.0005462725841030641,-9.850138005144506e-05,0.0002875087389941319,0.4505855441093445,22.696680068969727,0.1253325641155243,-13.981050491333008,0.12055438756942749,-2.1261630058288574,0.38577598333358765,0
43,0.21000123023986816,-0.4267818331718445,-22.720483779907227,-0.1729399859905243,14.032625198364258,-0.11414569616317749,2.1197543144226074,-0.45352500677108765,0.0,0.0,0.0,0.0,0.0,0.0,0.0,-0.43256677018933337,0.06106085141080028,-0.20138419004572758,0.1261216144889654,-0.3439429174576038,-0.05562948409472761,-0.40873187922024906,1.6756357235281092,0.05195053978551897,0.029998019850017207,-2.75223464589696,0.03435468125543922,2.7663320596496064,0.7691991969966235,1.6754973547542302,0.052104326824870026,0.029969505109285054,-2.752394845125968,0.0342448039870148,2.7663679543071322,0.7691630533470046,-5.8538344570790873e-05,-0.0003947906057669441,0.0009839270826097158,-0.0006413401598070835,-8.76769545408574e-05,0.00055225457121501,0.0020941284505400703,0.0,0.0,0.0,0.0,0.0,0.0,0.0,-0.00013836877387896074,0.00015378703935105265,-2.8514740732153016e-05,-0.00016019922900811778,-0.00010987726842442286,3.589465752584786e-05,-3.614364961890271e-05,5.8538344570790873e-05,0.0003947906057669441,-0.0009839270826097158,0.0006413401598070835,8.76769545408574e-05,-0.00055225457121501,-0.0020941284505400703,0.4267818331718445,22.720483779907227,0.1729399859905243,-14.032625198364258,0.11414569616317749,-2.1197543144226074,0.45352500677108765,0
44,0.2150106430053711,-0.4267818331718445,-22.720483779907227,-0.1729399859905243,14.032625198364258,-0.11414569616317749,2.1197543144226074,-0.45352500677108765,0.0,0.0,0.0,0.0,0.0,0.0,0.0,-0.43256677018933337,0.06106085141080028,-0.20138419004572758,0.1261216144889654,-0.3439429174576038,-0.05562948409472761,-0.40873187922024906,1.6756357235281092,0.05195053978551897,0.029998019850017207,-2.75223464589696,0.03435468125543922,2.7663320596496064,0.7691991969966235,1.6754973547542302,0.052104326824870026,0.029969505109285054,-2.752394845125968,0.0342448039870148,2.7663679543071322,0.7691630533470046,-5.8538344570790873e-05,-0.0003947906057669441,0.0009839270826097158,-0.0006413401598070835,-8.76769545408574e-05,0.00055225457121501,0.0020941284505400703,0.0,0.0,0.0,0.0,0.0,0.0,0.0,-0.00013836877387896074,0.00015378703935105265,-2.8514740732153016e-05,-0.00016019922900811778,-0.00010987726842442286,3.589465752584786e-05,-3.614364961890271e-05,5.8538344570790873e-05,0.0003947906057669441,-0.0009839270826097158,0.0006413401598070835,8.76769545408574e-05,-0.00055225457121501,-0.0020941284505400703,0.4267818331718445,22.720483779907227,0.1729399859905243,-14.032625198364258,0.11414569616317749,-2.1197543144226074,0.45352500677108765,0
45,0.21999168395996094,-0.3752071261405945,-22.720483779907227,-0.1253325641155243,14.032625198364258,-0.11414569616317749,2.1389803886413574,-0.43338340520858765,0.0,0.0,0.0,0.0,0.0,0.0,0.0,-0.42498840602706134,0.0600053789393803,-0.1973616620962017,0.12939124122971432,-0.3447789303716938,-0.05502608888793078,-0.40794679774583414,1.675634170544775,0.05195053978551897,0.029992795715645785,-2.7522338209076893,0.034354681253433245,2.766330267747243,0.7691973178889873,1.6754973547542302,0.052104326824870026,0.029969505109285054,-2.752394845125968,0.0342448039870148,2.7663679543071322,0.7691630533470046,-0.0007065291947223323,-0.000603521996043645,0.0005488468129094141,-0.00018497503091720525,-6.472807830510424e-05,-0.00030150387468855667,0.0005742928208048836,0.0,0.0,0.0,0.0,0.0,0.0,0.0,-0.00013681579054480864,0.00015378703935105265,-2.3290606360731186e-05,-0.00016102421827879354,-0.00010987726641844414,3.768655988922731e-05,-3.4264541982631513e-05,0.0007065291947223323,0.000603521996043645,-0.0005488468129094141,0.00018497503091720525,6.472807830510424e-05,0.00030150387468855667,-0.0005742928208048836,0.3752071261405945,22.720483779907227,0.1253325641155243,-14.032625198364258,0.11414569616317749,-2.1389803886413574,0.43338340520858765,0
46,0.2250068187713623,-0.3752071261405945,-22.720483779907227,-0.1253325641155243,14.032625198364258,-0.11414569616317749,2.1389803886413574,-0.43338340520858765,0.0,0.0,0.0,0.0,0.0,0.0,0.0,-0.42498840602706134,0.0600053789393803,-0.1973616620962017,0.12939124122971432,-0.3447789303716938,-0.05502608888793078,-0.40794679774583414,1.675634170544775,0.05195053978551897,0.029992795715645785,-2.7522338209076893,0.034354681253433245,2.766330267747243,0.7691973178889873,1.6754973547542302,0.052104326824870026,0.029969505109285054,-2.752394845125968,0.0342448039870148,2.7663679543071322,0.7691630533470046,-0.0007065291947223323,-0.000603521996043645,0.0005488468129094141,-0.00018497503091720525,-6.472807830510424e-05,-0.00030150387468855667,0.0005742928208048836,0.0,0.0,0.0,0.0,0.0,0.0,0.0,-0.00013681579054480864,0.00015378703935105265,-2.3290606360731186e-05,-0.00016102421827879354,-0.00010987726641844414,3.768655988922731e-05,-3.4264541982631513e-05,0.0007065291947223323,0.000603521996043645,-0.0005488468129094141,0.00018497503091720525,6.472807830510424e-05,0.00030150387468855667,-0.0005742928208048836,0.3752071261405945,22.720483779907227,0.1253325641155243,-14.032625198364258,0.11414569616317749,-2.1389803886413574,0.43338340520858765,0
47,0.2300417423248291,-0.4267818331718445,-22.772058486938477,-0.09756157547235489,13.981050491333008,-0.12055438756942749,2.1261630058288574,-0.37845176458358765,0.0,0.0,0.0,0.0,0.0,0.0,0.0,-0.43010302389410104,0.05604987588828341,-0.20350794950666506,0.13011660858200802,-0.3446367277647174,-0.055604460194839445,-0.40988219221987743,1.6756357235319972,0.05195415906320538,0.029992967732122285,-2.7522304495525645,0.034355393384343694,2.766331648439936,0.7691897973194227,1.6754973547542302,0.052104326824870026,0.029969505109285054,-2.752394845125968,0.0342448039870148,2.7663679543071322,0.7691630533470046,0.00011912452484904866,-0.0004157333592601622,-0.000423922880755456,0.0006217978038833912,0.0003478854414163447,0.00013326988015221556,-0.0011984694130811988,0.0,0.0,0.0,0.0,0.0,0.0,0.0,-0.00013836877776696177,0.00015016776166464768,-2.3462622837231578e-05,-0.00016439557340364175,-0.00011058939732889322,3.630586719616247e-05,-2.6743972418086237e-05,-0.00011912452484904866,0.0004157333592601622,0.000423922880755456,-0.0006217978038833912,-0.0003478854414163447,-0.00013326988015221556,0.0011984694130811988,0.4267818331718445,22.772058486938477,0.09756157547235489,-13.981050491333008,0.12055438756942749,-2.1261630058288574,0.37845176458358765,0
48,0.23500347137451172,-0.4267818331718445,-22.772058486938477,-0.09756157547235489,13.981050491333008,-0.12055438756942749,2.1261630058288574,-0.37845176458358765,0.0,0.0,0.0,0.0,0.0,0.0,0.0,-0.43010302389410104,0.05604987588828341,-0.20350794950666506,0.13011660858200802,-0.3446367277647174,-0.055604460194839445,-0.40988219221987743,1.6756357235319972,0.05195415906320538,0.029992967732122285,-2.7522304495525645,0.034355393384343694,2.766331648439936,0.7691897973194227,1.6754973547542302,0.052104326824870026,0.029969505109285054,-2.752394845125968,0.0342448039870148,2.7663679543071322,0.7691630533470046,0.00011912452484904866,-0.0004157333592601622,-0.000423922880755456,0.0006217978038833912,0.0003478854414163447,0.00013326988015221556,-0.0011984694130811988,0.0,0.0,0.0,0.0,0.0,0.0,0.0,-0.00013836877776696177,0.00015016776166464768,-2.3462622837231578e-05,-0.00016439557340364175,-0.00011058939732889322,3.630586719616247e-05,-2.6743972418086237e-05,-0.00011912452484904866,0.0004157333592601622,0.000423922880755456,-0.0006217978038833912,-0.0003478854414163447,-0.00013326988015221556,0.0011984694130811988,0.4267818331718445,22.772058486938477,0.09756157547235489,-13.981050491333008,0.12055438756942749,-2.1261630058288574,0.37845176458358765,0
49,0.24000191688537598,-0.4267818331718445,-22.720483779907227,-0.1491362750530243,14.032625198364258,-0.10865253210067749,2.1389803886413574,-0.39950889348983765,0.0,0.0,0.0,0.0,0.0,0.0,0.0,-0.4288210943434049,0.05794363326482068,-0.20194408755527815,0.1299926827562865,-0.3447818244690373,-0.05592542450251232,-0.4086346801915857,1.6756357235281092,0.05195053978551897,0.029996595668933448,-2.752234070904307,0.03435407090187103,2.7663292199007197,0.7691967329627662,1.6754973547542302,0.052104326824870026,0.029969505109285054,-2.752394845125968,0.0342448039870148,2.7663679543071322,0.7691630533470046,6.895956918018308e-05,-0.0006504660749065146,0.0005000478230729604,-0.0002664852417088501,-6.650881006248429e-05,-9.890339061056596e-05,2.436257810620863e-05,0.0,0.0,0.0,0.0,0.0,0.0,0.0,-0.00013836877387896074,0.00015378703935105265,-2.7090559648394047e-05,-0.00016077422166116406,-0.00010926691485622919,3.873440641255499e-05,-3.367961576161704e-05,-6.895956918018308e-05,0.0006504660749065146,-0.0005000478230729604,0.0002664852417088501,6.650881006248429e-05,9.890339061056596e-05,-2.436257810620863e-05,0.4267818331718445,22.720483779907227,0.1491362750530243,-14.032625198364258,0.10865253210067749,-2.1389803886413574,0.39950889348983765,0
50,0.24500441551208496,-0.4267818331718445,-22.720483779907227,-0.1491362750530243,14.032625198364258,-0.10865253210067749,2.1389803886413574,-0.39950889348983765,0.0,0.0,0.0,0.0,0.0,0.0,0.0,-0.4288210943434049,0.05794363326482068,-0.20194408755527815,0.1299926827562865,-0.3447818244690373,-0.05592542450251232,-0.4086346801915857,1.6756357235281092,0.05195053978551897,0.029996595668933448,-2.752234070904307,0.03435407090187103,2.7663292199007197,0.7691967329627662,1.6754973547542302,0.052104326824870026,0.029969505109285054,-2.752394845125968,0.0342448039870148,2.7663679543071322,0.7691630533470046,6.895956918018308e-05,-0.0006504660749065146,0.0005000478230729604,-0.0002664852417088501,-6.650881006248429e-05,-9.890339061056596e-05,2.436257810620863e-05,0.0,0.0,0.0,0.0,0.0,0.0,0.0,-0.00013836877387896074,0.00015378703935105265,-2.7090559648394047e-05,-0.00016077422166116406,-0.00010926691485622919,3.873440641255499e-05,-3.367961576161704e-05,-6.895956918018308e-05,0.0006504660749065146,-0.0005000478230729604,0.0002664852417088501,6.650881006248429e-05,9.890339061056596e-05,-2.436257810620863e-05,0.4267818331718445,22.720483779907227,0.1491362750530243,-14.032625198364258,0.10865253210067749,-2.1389803886413574,0.39950889348983765,0
51,0.24999070167541504,-0.4267818331718445,-22.696680068969727,-0.1491362750530243,13.957246780395508,-0.10865253210067749,2.1325716972351074,-0.42605918645858765,0.0,0.0,0.0,0.0,0.0,0.0,0.0,-0.43409598088426427,0.058888457355250466,-0.20842511274892742,0.13008136943280346,-0.34425903822631326,-0.055797707517330715,-0.40858003772361223,1.6756357235281092,0.05194886934966371,0.029996513656321163,-2.7522308481553774,0.034354070901870724,2.766327812695615,0.769199565391363,1.6754973547542302,0.052104326824870026,0.029969505109285054,-2.752394845125968,0.0342448039870148,2.7663679543071322,0.7691630533470046,-0.0007874688394335728,-0.0007714811868182239,0.0001753671973387061,0.001369269339241599,-0.00021486587905550778,-1.9726471779449756e-05,0.00040276447941224336,0.0,0.0,0.0,0.0,0.0,0.0,0.0,-0.00013836877387896074,0.00015545747520631648,-2.700854703610936e-05,-0.00016399697059066298,-0.00010926691485592388,4.0141611517441333e-05,-3.651204435839439e-05,0.0007874688394335728,0.0007714811868182239,-0.0001753671973387061,-0.001369269339241599,0.00021486587905550778,1.9726471779449756e-05,-0.00040276447941224336,0.4267818331718445,22.696680068969727,0.1491362750530243,-13.957246780395508,0.10865253210067749,-2.1325716972351074,0.42605918645858765,0
52,0.2550055980682373,-0.4267818331718445,-22.696680068969727,-0.1491362750530243,13.957246780395508,-0.10865253210067749,2.1325716972351074,-0.42605918645858765,0.0,0.0,0.0,0.0,0.0,0.0,0.0,-0.43409598088426427,0.058888457355250466,-0.20842511274892742,0.13008136943280346,-0.34425903822631326,-0.055797707517330715,-0.40858003772361223,1.6756357235281092,0.05194886934966371,0.029996513656321163,-2.7522308481553774,0.034354070901870724,2.766327812695615,0.769199565391363,1.6754973547542302,0.052104326824870026,0.029969505109285054,-2.752394845125968,0.0342448039870148,2.7663679543071322,0.7691630533470046,-0.0007874688394335728,-0.0007714811868182239,0.0001753671973387061,0.001369269339241599,-0.00021486587905550778,-1.9726471779449756e-05,0.00040276447941224336,0.0,0.0,0.0,0.0,0.0,0.0,0.0,-0.00013836877387896074,0.00015545747520631648,-2.700854703610936e-05,-0.00016399697059066298,-0.00010926691485592388,4.0141611517441333e-05,-3.651204435839439e-05,0.0007874688394335728,0.0007714811868182239,-0.0001753671973387061,-0.001369269339241599,0.00021486587905550778,1.9726471779449756e-05,-0.00040276447941224336,0.4267818331718445,22.696680068969727,0.1491362750530243,-13.957246780395508,0.10865253210067749,-2.1325716972351074,0.42605918645858765,0
53,0.2599942684173584,-0.4783565402030945,-22.672876358032227,-0.09756157547235489,13.981050491333008,-0.10865253210067749,2.1325716972351074,-0.42605918645858765,0.0,0.0,0.0,0.0,0.0,0.0,0.0,-0.434004040549625,0.0651234319082583,-0.20854402823552518,0.12930763523922123,-0.34506459018422136,-0.056220544667553544,-0.4098104382681174,1.6756393428057954,0.051947198913808446,0.029990607329048517,-2.752230297282031,0.034354070901870724,2.766330949445082,0.7691965028141661,1.6754973547542302,0.052104326824870026,0.029969505109285054,-2.752394845125968,0.0342448039870148,2.7663679543071322,0.7691630533470046,0.0006986155613359424,-0.0007807084337658973,-0.0014807721818182727,0.00019519484282363834,-0.00022348227881962437,-6.599829966506242e-05,0.0009747993012023138,0.0,0.0,0.0,0.0,0.0,0.0,0.0,-0.00014198805156517835,0.0001571279110615803,-2.110221976346291e-05,-0.00016454784393715727,-0.00010926691485592388,3.7004862050160625e-05,-3.344946716143937e-05,-0.0006986155613359424,0.0007807084337658973,0.0014807721818182727,-0.00019519484282363834,0.00022348227881962437,6.599829966506242e-05,-0.0009747993012023138,0.4783565402030945,22.672876358032227,0.09756157547235489,-13.981050491333008,0.10865253210067749,-2.1325716972351074,0.42605918645858765,0
54,0.26500916481018066,-0.4783565402030945,-22.672876358032227,-0.09756157547235489,13.981050491333008,-0.10865253210067749,2.1325716972351074,-0.42605918645858765,0.0,0.0,0.0,0.0,0.0,0.0,0.0,-0.434004040549625,0.0651234319082583,-0.20854402823552518,0.12930763523922123,-0.34506459018422136,-0.056220544667553544,-0.4098104382681174,1.6756393428057954,0.051947198913808446,0.029990607329048517,-2.752230297282031,0.034354070901870724,2.766330949445082,0.7691965028141661,1.6754973547542302,0.052104326824870026,0.029969505109285054,-2.752394845125968,0.0342448039870148,2.7663679543071322,0.7691630533470046,0.0006986155613359424,-0.0007807084337658973,-0.0014807721818182727,0.00019519484282363834,-0.00022348227881962437,-6.599829966506242e-05,0.0009747993012023138,0.0,0.0,0.0,0.0,0.0,0.0,0.0,-0.00014198805156517835,0.0001571279110615803,-2.110221976346291e-05,-0.00016454784393715727,-0.00010926691485592388,3.7004862050160625e-05,-3.344946716143937e-05,-0.0006986155613359424,0.0007807084337658973,0.0014807721818182727,-0.00019519484282363834,0.00022348227881962437,6.599829966506242e-05,-0.0009747993012023138,0.4783565402030945,22.672876358032227,0.09756157547235489,-13.981050491333008,0.10865253210067749,-2.1325716972351074,0.42605918645858765,0
55,0.27007508277893066,-0.4267818331718445,-22.748254776000977,-0.07375786453485489,13.957246780395508,-0.11414569616317749,2.1261630058288574,-0.45352500677108765,0.0,0.0,0.0,0.0,0.0,0.0,0.0,-0.43243852758504253,0.05965509715785881,-0.20610692932641547,0.1346118470377879,-0.34567487479475917,-0.05501889646066516,-0.40902351445396967,1.6756357235281092,0.051952487653017215,0.029991306050786207,-2.7522308419365413,0.03435468125343323,2.7663281730190215,0.769198494916561,1.6754973547542302,0.052104326824870026,0.029969505109285054,-2.752394845125968,0.0342448039870148,2.7663679543071322,0.7691630533470046,8.393203103244542e-05,-1.962472282154577e-05,-0.0010778033482879822,0.0009290931488198554,0.00014626101059196262,9.404952668925451e-05,0.001715079783544045,0.0,0.0,0.0,0.0,0.0,0.0,0.0,-0.00013836877387896074,0.0001518391718528106,-2.180094150115372e-05,-0.00016400318942677572,-0.00010987726641843026,3.978128811077397e-05,-3.5441569556371455e-05,-8.393203103244542e-05,1.962472282154577e-05,0.0010778033482879822,-0.0009290931488198554,-0.00014626101059196262,-9.404952668925451e-05,-0.001715079783544045,0.4267818331718445,22.748254776000977,0.07375786453485489,-13.957246780395508,0.11414569616317749,-2.1261630058288574,0.45352500677108765,0
56,0.2750096321105957,-0.4267818331718445,-22.748254776000977,-0.07375786453485489,13.957246780395508,-0.11414569616317749,2.1261630058288574,-0.45352500677108765,0.0,0.0,0.0,0.0,0.0,0.0,0.0,-0.43243852758504253,0.05965509715785881,-0.20610692932641547,0.1346118470377879,-0.34567487479475917,-0.05501889646066516,-0.40902351445396967,1.6756357235281092,0.051952487653017215,0.029991306050786207,-2.7522308419365413,0.03435468125343323,2.7663281730190215,0.769198494916561,1.6754973547542302,0.052104326824870026,0.029969505109285054,-2.752394845125968,0.0342448039870148,2.7663679543071322,0.7691630533470046,8.393203103244542e-05,-1.962472282154577e-05,-0.0010778033482879822,0.0009290931488198554,0.00014626101059196262,9.404952668925451e-05,0.001715079783544045,0.0,0.0,0.0,0.0,0.0,0.0,0.0,-0.00013836877387896074,0.0001518391718528106,-2.180094150115372e-05,-0.00016400318942677572,-0.00010987726641843026,3.978128811077397e-05,-3.5441569556371455e-05,-8.393203103244542e-05,1.962472282154577e-05,0.0010778033482879822,-0.0009290931488198554,-0.00014626101059196262,-9.404952668925451e-05,-0.001715079783544045,0.4267818331718445,22.748254776000977,0.07375786453485489,-13.957246780395508,0.11414569616317749,-2.1261630058288574,0.45352500677108765,0
57,0.28000855445861816,-0.3752071261405945,-22.795862197875977,-0.09756157547235489,14.008821487426758,-0.10865253210067749,2.1261630058288574,-0.40591758489608765,0.0,0.0,0.0,0.0,0.0,0.0,0.0,-0.42868375040460804,0.05864794483298502,-0.2014224324449241,0.1328796885456975,-0.34530916604280043,-0.0552532805135696,-0.4104060142821028,1.6756321042504227,0.051955829499055146,0.029992739875094623,-2.7522321633683666,0.034354070901870724,2.7663317045880746,0.7691974392273984,1.6754973547542302,0.052104326824870026,0.029969505109285054,-2.752394845125968,0.0342448039870148,2.7663679543071322,0.7691630533470046,-0.0006539619316715526,0.0006709574075405314,0.0006031139656350729,0.0002365910342156004,0.00010995565559869302,0.0002228578741259802,-0.00015300845588144853,0.0,0.0,0.0,0.0,0.0,0.0,0.0,-0.00013474949619252108,0.00014849732581487946,-2.3234765809568986e-05,-0.0001626817576014794,-0.00010926691485592388,3.6249719057579455e-05,-3.438588039372803e-05,0.0006539619316715526,-0.0006709574075405314,-0.0006031139656350729,-0.0002365910342156004,-0.00010995565559869302,-0.0002228578741259802,0.00015300845588144853,0.3752071261405945,22.795862197875977,0.09756157547235489,-14.008821487426758,0.10865253210067749,-2.1261630058288574,0.40591758489608765,0
58,0.2850217819213867,-0.3752071261405945,-22.795862197875977,-0.09756157547235489,14.008821487426758,-0.10865253210067749,2.1261630058288574,-0.40591758489608765,0.0,0.0,0.0,0.0,0.0,0.0,0.0,-0.42868375040460804,0.05864794483298502,-0.2014224324449241,0.1328796885456975,-0.34530916604280043,-0.0552532805135696,-0.4104060142821028,1.6756321042504227,0.051955829499055146,0.029992739875094623,-2.7522321633683666,0.034354070901870724,2.7663317045880746,0.7691974392273984,1.6754973547542302,0.052104326824870026,0.029969505109285054,-2.752394845125968,0.0342448039870148,2.7663679543071322,0.7691630533470046,-0.0006539619316715526,0.0006709574075405314,0.0006031139656350729,0.0002365910342156004,0.00010995565559869302,0.0002228578741259802,-0.00015300845588144853,0.0,0.0,0.0,0.0,0.0,0.0,0.0,-0.00013474949619252108,0.00014849732581487946,-2.3234765809568986e-05,-0.0001626817576014794,-0.00010926691485592388,3.6249719057579455e-05,-3.438588039372803e-05,0.0006539619316715526,-0.0006709574075405314,-0.0006031139656350729,-0.0002365910342156004,-0.00010995565559869302,-0.0002228578741259802,0.00015300845588144853,0.3752071261405945,22.795862197875977,0.09756157547235489,-14.008821487426758,0.10865253210067749,-2.1261630058288574,0.40591758489608765,0
59,0.2899963855743408,-0.4783565402030945,-22.720483779907227,-0.09756157547235489,14.056428909301758,-0.12055438756942749,2.1261630058288574,-0.42605918645858765,0.0,0.0,0.0,0.0,0.0,0.0,0.0,-0.42783011678327243,0.05112133446395194,-0.20018873686605662,0.13838595384807592,-0.34364475553440377,-0.05471729333472823,-0.4093335716608943,1.6756393428057954,0.05195053978551897,0.029990846874392466,-2.7522379910739203,0.03435539333025615,2.7663306018478906,0.7691996439368787,1.6754973547542302,0.052104326824870026,0.029969505109285054,-2.752394845125968,0.0342448039870148,2.7663679543071322,0.7691630533470046,0.00209731550818231,-0.0017346884965050307,0.00024020585198580442,0.00020326636824840303,0.00037593831093849785,0.0004088550275875027,0.0005443019710946311,0.0,0.0,0.0,0.0,0.0,0.0,0.0,-0.00014198805156517835,0.00015378703935105265,-2.1341765107412564e-05,-0.00015685405204779457,-0.00011058934324134628,3.7352459241635216e-05,-3.659058987404151e-05,-0.00209731550818231,0.0017346884965050307,-0.00024020585198580442,-0.00020326636824840303,-0.00037593831093849785,-0.0004088550275875027,-0.0005443019710946311,0.4783565402030945,22.720483779907227,0.09756157547235489,-14.056428909301758,0.12055438756942749,-2.1261630058288574,0.42605918645858765,0
60,0.2949957847595215,-0.4783565402030945,-22.720483779907227,-0.09756157547235489,14.056428909301758,-0.12055438756942749,2.1261630058288574,-0.42605918645858765,0.0,0.0,0.0,0.0,0.0,0.0,0.0,-0.42783011678327243,0.05112133446395194,-0.20018873686605662,0.13838595384807592,-0.34364475553440377,-0.05471729333472823,-0.4093335716608943,1.6756393428057954,0.05195053978551897,0.029990846874392466,-2.7522379910739203,0.03435539333025615,2.7663306018478906,0.7691996439368787,1.6754973547542302,0.052104326824870026,0.029969505109285054,-2.752394845125968,0.0342448039870148,2.7663679543071322,0.7691630533470046,0.00209731550818231,-0.0017346884965050307,0.00024020585198580442,0.00020326636824840303,0.00037593831093849785,0.0004088550275875027,0.0005443019710946311,0.0,0.0,0.0,0.0,0.0,0.0,0.0,-0.00014198805156517835,0.00015378703935105265,-2.1341765107412564e-05,-0.00015685405204779457,-0.00011058934324134628,3.7352459241635216e-05,-3.659058987404151e-05,-0.00209731550818231,0.0017346884965050307,-0.00024020585198580442,-0.00020326636824840303,-0.00037593831093849785,-0.0004088550275875027,-0.0005443019710946311,0.4783565402030945,22.720483779907227,0.09756157547235489,-14.056428909301758,0.12055438756942749,-2.1261630058288574,0.42605918645858765,0
61,0.29999232292175293,-0.4783565402030945,-22.720483779907227,-0.09756157547235489,14.056428909301758,-0.12055438756942749,2.1261630058288574,-0.42605918645858765,0.0,0.0,0.0,0.0,0.0,0.0,0.0,-0.42783011678327243,0.05112133446395194,-0.20018873686605662,0.13838595384807592,-0.34364475553440377,-0.05471729333472823,-0.4093335716608943,1.6756393428057954,0.05195053978551897,0.029990846874392466,-2.7522379910739203,0.03435539333025615,2.7663306018478906,0.7691996439368787,1.6754973547542302,0.052104326824870026,0.029969505109285054,-2.752394845125968,0.0342448039870148,2.7663679543071322,0.7691630533470046,0.00209731550818231,-0.0017346884965050307,0.00024020585198580442,0.00020326636824840303,0.00037593831093849785,0.0004088550275875027,0.0005443019710946311,0.0,0.0,0.0,0.0,0.0,0.0,0.0,-0.00014198805156517835,0.00015378703935105265,-2.1341765107412564e-05,-0.00015685405204779457,-0.00011058934324134628,3.7352459241635216e-05,-3.659058987404151e-05,-0.00209731550818231,0.0017346884965050307,-0.00024020585198580442,-0.00020326636824840303,-0.00037593831093849785,-0.0004088550275875027,-0.0005443019710946311,0.4783565402030945,22.720483779907227,0.09756157547235489,-14.056428909301758,0.12055438756942749,-2.1261630058288574,0.42605918645858765,0
62,0.30500149726867676,-0.4783565402030945,-22.720483779907227,-0.09756157547235489,14.056428909301758,-0.12055438756942749,2.1261630058288574,-0.42605918645858765,0.0,0.0,0.0,0.0,0.0,0.0,0.0,-0.42783011678327243,0.05112133446395194,-0.20018873686605662,0.13838595384807592,-0.34364475553440377,-0.05471729333472823,-0.4093335716608943,1.6756393428057954,0.05195053978551897,0.029990846874392466,-2.7522379910739203,0.03435539333025615,2.7663306018478906,0.7691996439368787,1.6754973547542302,0.052104326824870026,0.029969505109285054,-2.752394845125968,0.0342448039870148,2.7663679543071322,0.7691630533470046,0.00209731550818231,-0.0017346884965050307,0.00024020585198580442,0.00020326636824840303,0.00037593831093849785,0.0004088550275875027,0.0005443019710946311,0.0,0.0,0.0,0.0,0.0,0.0,0.0,-0.00014198805156517835,0.00015378703935105265,-2.1341765107412564e-05,-0.00015685405204779457,-0.00011058934324134628,3.7352459241635216e-05,-3.659058987404151e-05,-0.00209731550818231,0.0017346884965050307,-0.00024020585198580442,-0.00020326636824840303,-0.00037593831093849785,-0.0004088550275875027,-0.0005443019710946311,0.4783565402030945,22.720483779907227,0.09756157547235489,-14.056428909301758,0.12055438756942749,-2.1261630058288574,0.42605918645858765,0
63,0.3100430965423584,-0.5021602511405945,-22.696680068969727,-0.2007109820842743,14.008821487426758,-0.11414569616317749,2.1389803886413574,-0.42605918645858765,0.0,0.0,0.0,0.0,0.0,0.0,0.0,-0.4384395228877952,0.06254079772677516,-0.20996626522529394,0.13133393328923745,-0.3428212090958099,-0.05686067079000487,-0.40918314094089214,1.6756410132416508,0.05194886934966371,0.02999808541855638,-2.7522344069242384,0.03435468125343323,2.7663299277737816,0.7691995126326522,1.6754973547542302,0.052104326824870026,0.029969505109285054,-2.752394845125968,0.0342448039870148,2.7663679543071322,0.7691630533470046,0.0009199877306301509,-0.0006890168012829626,0.0005169637701409776,0.00037008781975266506,0.0002752133446970122,-0.00036748487118108344,0.00011074904165678632,0.0,0.0,0.0,0.0,0.0,0.0,0.0,-0.00014365848742059484,0.00015545747520631648,-2.858030927132757e-05,-0.000160438201729729,-0.00010987726641843026,3.8026533350610237e-05,-3.6459285647549855e-05,-0.0009199877306301509,0.0006890168012829626,-0.0005169637701409776,-0.00037008781975266506,-0.0002752133446970122,0.00036748487118108344,-0.00011074904165678632,0.5021602511405945,22.696680068969727,0.2007109820842743,-14.008821487426758,0.11414569616317749,-2.1389803886413574,0.42605918645858765,0
64,0.3149995803833008,-0.5021602511405945,-22.696680068969727,-0.2007109820842743,14.008821487426758,-0.11414569616317749,2.1389803886413574,-0.42605918645858765,0.0,0.0,0.0,0.0,0.0,0.0,0.0,-0.4384395228877952,0.06254079772677516,-0.20996626522529394,0.13133393328923745,-0.3428212090958099,-0.05686067079000487,-0.40918314094089214,1.6756410132416508,0.05194886934966371,0.02999808541855638,-2.7522344069242384,0.03435468125343323,2.7663299277737816,0.7691995126326522,1.6754973547542302,0.052104326824870026,0.029969505109285054,-2.752394845125968,0.0342448039870148,2.7663679543071322,0.7691630533470046,0.0009199877306301509,-0.0006890168012829626,0.0005169637701409776,0.00037008781975266506,0.0002752133446970122,-0.00036748487118108344,0.00011074904165678632,0.0,0.0,0.0,0.0,0.0,0.0,0.0,-0.00014365848742059484,0.00015545747520631648,-2.858030927132757e-05,-0.000160438201729729,-0.00010987726641843026,3.8026533350610237e-05,-3.6459285647549855e-05,-0.0009199877306301509,0.0006890168012829626,-0.0005169637701409776,-0.00037008781975266506,-0.0002752133446970122,0.00036748487118108344,-0.00011074904165678632,0.5021602511405945,22.696680068969727,0.2007109820842743,-14.008821487426758,0.11414569616317749,-2.1389803886413574,0.42605918645858765,0
65,0.3200032711029053,-0.4783565402030945,-22.649072647094727,-0.1491362750530243,14.080232620239258,-0.11414569616317749,2.1261630058288574,-0.38577598333358765,0.0,0.0,0.0,0.0,0.0,0.0,0.0,-0.43811227031845446,0.06431125976125511,-0.2111286625848644,0.14157557708039709,-0.3435825556282845,-0.055566970295359466,-0.4116501593940013,1.6756393428057954,0.05194552847795318,0.029996595773171777,-2.752240238817448,0.03435468125343323,2.7663285204171117,0.7691948534122578,1.6754973547542302,0.052104326824870026,0.029969505109285054,-2.752394845125968,0.0342448039870148,2.7663679543071322,0.7691630533470046,-0.00013154890146104383,-0.0005770433073008891,-0.0009229537091501918,-0.0010249584655876358,0.0002492680617425151,5.298380474950533e-05,-0.0009935286838924126,0.0,0.0,0.0,0.0,0.0,0.0,0.0,-0.00014198805156517835,0.00015879834691684414,-2.709066388672382e-05,-0.00015460630852004442,-0.00010987726641843026,3.943389002047937e-05,-3.180006525316248e-05,0.00013154890146104383,0.0005770433073008891,0.0009229537091501918,0.0010249584655876358,-0.0002492680617425151,-5.298380474950533e-05,0.0009935286838924126,0.4783565402030945,22.649072647094727,0.1491362750530243,-14.080232620239258,0.11414569616317749,-2.1261630058288574,0.38577598333358765,0
66,0.3250281810760498,-0.4783565402030945,-22.649072647094727,-0.1491362750530243,14.080232620239258,-0.11414569616317749,2.1261630058288574,-0.38577598333358765,0.0,0.0,0.0,0.0,0.0,0.0,0.0,-0.43811227031845446,0.06431125976125511,-0.2111286625848644,0.14157557708039709,-0.3435825556282845,-0.055566970295359466,-0.4116501593940013,1.6756393428057954,0.05194552847795318,0.029996595773171777,-2.752240238817448,0.03435468125343323,2.7663285204171117,0.7691948534122578,1.6754973547542302,0.052104326824870026,0.029969505109285054,-2.752394845125968,0.0342448039870148,2.7663679543071322,0.7691630533470046,-0.00013154890146104383,-0.0005770433073008891,-0.0009229537091501918,-0.0010249584655876358,0.0002492680617425151,5.298380474950533e-05,-0.0009935286838924126,0.0,0.0,0.0,0.0,0.0,0.0,0.0,-0.00014198805156517835,0.00015879834691684414,-2.709066388672382e-05,-0.00015460630852004442,-0.00010987726641843026,3.943389002047937e-05,-3.180006525316248e-05,0.00013154890146104383,0.0005770433073008891,0.0009229537091501918,0.0010249584655876358,-0.0002492680617425151,-5.298380474950533e-05,0.0009935286838924126,0.4783565402030945,22.649072647094727,0.1491362750530243,-14.080232620239258,0.11414569616317749,-2.1261630058288574,0.38577598333358765,0
67,0.3299987316131592,-0.4029781222343445,-22.696680068969727,-0.1253325641155243,14.032625198364258,-0.10865253210067749,2.1453890800476074,-0.40591758489608765,0.0,0.0,0.0,0.0,0.0,0.0,0.0,-0.43114553240416814,0.0649042762398388,-0.20409363748426806,0.1492412754960837,-0.3450588419840818,-0.05539418712986655,-0.4113765558853394,1.6756340530922538,0.05194886934966371,0.029994925305258404,-2.7522346461385614,0.034354070901870724,2.7663292150391867,0.7691974447405258,1.6754973547542302,0.052104326824870026,0.029969505109285054,-2.752394845125968,0.0342448039870148,2.7663679543071322,0.7691630533470046,-0.00028062461013846546,-0.0001840525301964328,0.00036256649009955673,-0.00014698601262962284,-3.127642240724557e-05,-0.0006270828489922217,-0.0005599901734951363,0.0,0.0,0.0,0.0,0.0,0.0,0.0,-0.00013669833802354425,0.00015545747520631648,-2.542019597335035e-05,-0.00016019898740671223,-0.00010926691485592388,3.873926794550897e-05,-3.439139352112708e-05,0.00028062461013846546,0.0001840525301964328,-0.00036256649009955673,0.00014698601262962284,3.127642240724557e-05,0.0006270828489922217,0.0005599901734951363,0.4029781222343445,22.696680068969727,0.1253325641155243,-14.032625198364258,0.10865253210067749,-2.1453890800476074,0.40591758489608765,0
68,0.3349955081939697,-0.4029781222343445,-22.696680068969727,-0.1253325641155243,14.032625198364258,-0.10865253210067749,2.1453890800476074,-0.40591758489608765,0.0,0.0,0.0,0.0,0.0,0.0,0.0,-0.43114553240416814,0.0649042762398388,-0.20409363748426806,0.1492412754960837,-0.3450588419840818,-0.05539418712986655,-0.4113765558853394,1.6756340530922538,0.05194886934966371,0.029994925305258404,-2.7522346461385614,0.034354070901870724,2.7663292150391867,0.7691974447405258,1.6754973547542302,0.052104326824870026,0.029969505109285054,-2.752394845125968,0.0342448039870148,2.7663679543071322,0.7691630533470046,-0.00028062461013846546,-0.0001840525301964328,0.00036256649009955673,-0.00014698601262962284,-3.127642240724557e-05,-0.0006270828489922217,-0.0005599901734951363,0.0,0.0,0.0,0.0,0.0,0.0,0.0,-0.00013669833802354425,0.00015545747520631648,-2.542019597335035e-05,-0.00016019898740671223,-0.00010926691485592388,3.873926794550897e-05,-3.439139352112708e-05,0.00028062461013846546,0.0001840525301964328,-0.00036256649009955673,0.00014698601262962284,3.127642240724557e-05,0.0006270828489922217,0.0005599901734951363,0.4029781222343445,22.696680068969727,0.1253325641155243,-14.032625198364258,0.10865253210067749,-2.1453890800476074,0.40591758489608765,0
69,0.3399937152862549,-0.3752071261405945,-22.772058486938477,-0.04995415359735489,14.056428909301758,-0.11414569616317749,2.1389803886413574,-0.42605918645858765,0.0,0.0,0.0,0.0,0.0,0.0,0.0,-0.4360333611179686,0.06613473392468727,-0.20971792008673323,0.15418496581562674,-0.34400683009562205,-0.05490758999732848,-0.41217710249500633,1.6756321042504227,0.05195415906320538,0.02998963562830478,-2.7522356049627232,0.03435468563452452,2.7663302795371716,0.7691995261993398,1.6754973547542302,0.052104326824870026,0.029969505109285054,-2.752394845125968,0.0342448039870148,2.7663679543071322,0.7691630533470046,-5.50414252260783e-05,0.000730789290569611,-0.0009166805661994609,-0.000707697899695835,9.810484931202126e-05,-0.00039724449813394516,0.00027031004713743323,0.0,0.0,0.0,0.0,0.0,0.0,0.0,-0.00013474949619252108,0.00015016776166464768,-2.013051901972665e-05,-0.000159240163244867,-0.00010988164750971863,3.7674769960638343e-05,-3.6472852335212025e-05,5.50414252260783e-05,-0.000730789290569611,0.0009166805661994609,0.000707697899695835,-9.810484931202126e-05,0.00039724449813394516,-0.00027031004713743323,0.3752071261405945,22.772058486938477,0.04995415359735489,-14.056428909301758,0.11414569616317749,-2.1389803886413574,0.42605918645858765,0
70,0.34499454498291016,-0.3752071261405945,-22.772058486938477,-0.04995415359735489,14.056428909301758,-0.11414569616317749,2.1389803886413574,-0.42605918645858765,0.0,0.0,0.0,0.0,0.0,0.0,0.0,-0.4360333611179686,0.06613473392468727,-0.20971792008673323,0.15418496581562674,-0.34400683009562205,-0.05490758999732848,-0.41217710249500633,1.6756321042504227,0.05195415906320538,0.02998963562830478,-2.7522356049627232,0.03435468563452452,2.7663302795371716,0.7691995261993398,1.6754973547542302,0.052104326824870026,0.029969505109285054,-2.752394845125968,0.0342448039870148,2.7663679543071322,0.7691630533470046,-5.50414252260783e-05,0.000730789290569611,-0.0009166805661994609,-0.000707697899695835,9.810484931202126e-05,-0.00039724449813394516,0.00027031004713743323,0.0,0.0,0.0,0.0,0.0,0.0,0.0,-0.00013474949619252108,0.00015016776166464768,-2.013051901972665e-05,-0.000159240163244867,-0.00010988164750971863,3.7674769960638343e-05,-3.6472852335212025e-05,5.50414252260783e-05,-0.000730789290569611,0.0009166805661994609,0.000707697899695835,-9.810484931202126e-05,0.00039724449813394516,-0.00027031004713743323,0.3752071261405945,22.772058486938477,0.04995415359735489,-14.056428909301758,0.11414569616317749,-2.1389803886413574,0.42605918645858765,0
71,0.35001444816589355,-0.4029781222343445,-22.772058486938477,-0.09756157547235489,14.056428909301758,-0.10224384069442749,2.1325716972351074,-0.39950889348983765,0.0,0.0,0.0,0.0,0.0,0.0,0.0,-0.4421263781644048,0.06346824910095061,-0.21579665905692483,0.15665743996052925,-0.34270343825510835,-0.05513193346132317,-0.41284556357052876,1.6756340530922538,0.05195415906320538,0.029992976463950136,-2.752237994466106,0.03435335882507254,2.7663299332699,0.7691967326648143,1.6754973547542302,0.052104326824870026,0.029969505109285054,-2.752394845125968,0.0342448039870148,2.7663679543071322,0.7691630533470046,-0.00041872228242994467,-0.00019386467062713165,-0.00025446278995778013,-0.00024984501796395807,-0.0004417201457062298,-6.032159621723759e-05,0.00039079703147301383,0.0,0.0,0.0,0.0,0.0,0.0,0.0,-0.00013669833802354425,0.00015016776166464768,-2.3471354665082628e-05,-0.00015685065986215108,-0.00010855483805773808,3.802103723238304e-05,-3.3679317809620635e-05,0.00041872228242994467,0.00019386467062713165,0.00025446278995778013,0.00024984501796395807,0.0004417201457062298,6.032159621723759e-05,-0.00039079703147301383,0.4029781222343445,22.772058486938477,0.09756157547235489,-14.056428909301758,0.10224384069442749,-2.1325716972351074,0.39950889348983765,0
72,0.35501646995544434,-0.4029781222343445,-22.772058486938477,-0.09756157547235489,14.056428909301758,-0.10224384069442749,2.1325716972351074,-0.39950889348983765,0.0,0.0,0.0,0.0,0.0,0.0,0.0,-0.4421263781644048,0.06346824910095061,-0.21579665905692483,0.15665743996052925,-0.34270343825510835,-0.05513193346132317,-0.41284556357052876,1.6756340530922538,0.05195415906320538,0.029992976463950136,-2.752237994466106,0.03435335882507254,2.7663299332699,0.7691967326648143,1.6754973547542302,0.052104326824870026,0.029969505109285054,-2.752394845125968,0.0342448039870148,2.7663679543071322,0.7691630533470046,-0.00041872228242994467,-0.00019386467062713165,-0.00025446278995778013,-0.00024984501796395807,-0.0004417201457062298,-6.032159621723759e-05,0.00039079703147301383,0.0,0.0,0.0,0.0,0.0,0.0,0.0,-0.00013669833802354425,0.00015016776166464768,-2.3471354665082628e-05,-0.00015685065986215108,-0.00010855483805773808,3.802103723238304e-05,-3.3679317809620635e-05,0.00041872228242994467,0.00019386467062713165,0.00025446278995778013,0.00024984501796395807,0.0004417201457062298,6.032159621723759e-05,-0.00039079703147301383,0.4029781222343445,22.772058486938477,0.09756157547235489,-14.056428909301758,0.10224384069442749,-2.1325716972351074,0.39950889348983765,0
73,0.3600199222564697,-0.4505855441093445,-22.748254776000977,-0.1491362750530243,14.008821487426758,-0.11414569616317749,2.1389803886413574,-0.44711631536483765,0.0,0.0,0.0,0.0,0.0,0.0,0.0,-0.4385552020550147,0.06258742948739467,-0.20921224122848484,0.15648161240852237,-0.34264603523542575,-0.05565224427243011,-0.40942542530886994,1.6756373939639644,0.051952488627350114,0.029996513944844566,-2.752235148105678,0.03435468125343323,2.7663271020723488,0.769202022863756,1.6754973547542302,0.052104326824870026,0.029969505109285054,-2.752394845125968,0.0342448039870148,2.7663679543071322,0.7691630533470046,0.00031771949887139114,-0.00027930352275108515,0.00030390868355277263,0.0012516711281073986,-7.120608333057277e-07,-6.401560705874914e-05,0.001591462968998372,0.0,0.0,0.0,0.0,0.0,0.0,0.0,-0.00014003920973415518,0.0001518381975199115,-2.7008835559512445e-05,-0.00015969702028995059,-0.00010987726641843026,4.085223478345057e-05,-3.896951675141924e-05,-0.00031771949887139114,0.00027930352275108515,-0.00030390868355277263,-0.0012516711281073986,7.120608333057277e-07,6.401560705874914e-05,-0.001591462968998372,0.4505855441093445,22.748254776000977,0.1491362750530243,-14.008821487426758,0.11414569616317749,-2.1389803886413574,0.44711631536483765,0
74,0.3650174140930176,-0.4505855441093445,-22.748254776000977,-0.1491362750530243,14.008821487426758,-0.11414569616317749,2.1389803886413574,-0.44711631536483765,0.0,0.0,0.0,0.0,0.0,0.0,0.0,-0.4385552020550147,0.06258742948739467,-0.20921224122848484,0.15648161240852237,-0.34264603523542575,-0.05565224427243011,-0.40942542530886994,1.6756373939639644,0.051952488627350114,0.029996513944844566,-2.752235148105678,0.03435468125343323,2.7663271020723488,0.769202022863756,1.6754973547542302,0.052104326824870026,0.029969505109285054,-2.752394845125968,0.0342448039870148,2.7663679543071322,0.7691630533470046,0.00031771949887139114,-0.00027930352275108515,0.00030390868355277263,0.0012516711281073986,-7.120608333057277e-07,-6.401560705874914e-05,0.001591462968998372,0.0,0.0,0.0,0.0,0.0,0.0,0.0,-0.00014003920973415518,0.0001518381975199115,-2.7008835559512445e-05,-0.00015969702028995059,-0.00010987726641843026,4.085223478345057e-05,-3.896951675141924e-05,-0.00031771949887139114,0.00027930352275108515,-0.00030390868355277263,-0.0012516711281073986,7.120608333057277e-07,6.401560705874914e-05,-0.001591462968998372,0.4505855441093445,22.748254776000977,0.1491362750530243,-14.008821487426758,0.11414569616317749,-2.1389803886413574,0.44711631536483765,0
75,0.3700070381164551,-0.5021602511405945,-22.720483779907227,-0.1729399859905243,14.056428909301758,-0.10865253210067749,2.1325716972351074,-0.46084922552108765,0.0,0.0,0.0,0.0,0.0,0.0,0.0,-0.44024192867834866,0.06343184647033191,-0.21164588525160077,0.15554874766340412,-0.3431392242063726,-0.05554425363615387,-0.40935760735410226,1.6756410132416508,0.051950539460741345,0.029998265887984016,-2.752236603617841,0.034354070901870724,2.7663278141372096,0.7692003304209148,1.6754973547542302,0.052104326824870026,0.029969505109285054,-2.752394845125968,0.0342448039870148,2.7663679543071322,0.7691630533470046,0.0007775102935188305,8.794005569409447e-05,0.0001559156478894886,-0.0006062272986078125,3.1954655847773184e-05,-9.448740101338902e-05,0.0017649263380371029,0.0,0.0,0.0,0.0,0.0,0.0,0.0,-0.00014365848742059484,0.00015378736412868105,-2.8760778698962153e-05,-0.00015824150812715487,-0.00010926691485592388,4.0140169922597835e-05,-3.727707391021351e-05,-0.0007775102935188305,-8.794005569409447e-05,-0.0001559156478894886,0.0006062272986078125,-3.1954655847773184e-05,9.448740101338902e-05,-0.0017649263380371029,0.5021602511405945,22.720483779907227,0.1729399859905243,-14.056428909301758,0.10865253210067749,-2.1325716972351074,0.46084922552108765,0
76,0.37500476837158203,-0.5021602511405945,-22.720483779907227,-0.1729399859905243,14.056428909301758,-0.10865253210067749,2.1325716972351074,-0.46084922552108765,0.0,0.0,0.0,0.0,0.0,0.0,0.0,-0.44024192867834866,0.06343184647033191,-0.21164588525160077,0.15554874766340412,-0.3431392242063726,-0.05554425363615387,-0.40935760735410226,1.6756410132416508,0.051950539460741345,0.029998265887984016,-2.752236603617841,0.034354070901870724,2.7663278141372096,0.7692003304209148,1.6754973547542302,0.052104326824870026,0.029969505109285054,-2.752394845125968,0.0342448039870148,2.7663679543071322,0.7691630533470046,0.0007775102935188305,8.794005569409447e-05,0.0001559156478894886,-0.0006062272986078125,3.1954655847773184e-05,-9.448740101338902e-05,0.0017649263380371029,0.0,0.0,0.0,0.0,0.0,0.0,0.0,-0.00014365848742059484,0.00015378736412868105,-2.8760778698962153e-05,-0.00015824150812715487,-0.00010926691485592388,4.0140169922597835e-05,-3.727707391021351e-05,-0.0007775102935188305,-8.794005569409447e-05,-0.0001559156478894886,0.0006062272986078125,-3.1954655847773184e-05,9.448740101338902e-05,-0.0017649263380371029,0.5021602511405945,22.720483779907227,0.1729399859905243,-14.056428909301758,0.10865253210067749,-2.1325716972351074,0.46084922552108765,0
77,0.3800086975097656,-0.4267818331718445,-22.720483779907227,-0.1253325641155243,13.981050491333008,-0.11414569616317749,2.1325716972351074,-0.38577598333358765,0.0,0.0,0.0,0.0,0.0,0.0,0.0,-0.43711914240734434,0.06522768799044448,-0.2090939391619799,0.1574909251383311,-0.3440808956661783,-0.05519174845321541,-0.4107250689956339,1.6756357235281092,0.05195053978546948,0.02999421546651183,-2.7522334167089064,0.03435468125343323,2.7663278136706353,0.7691950890432179,1.6754973547542302,0.052104326824870026,0.029969505109285054,-2.752394845125968,0.0342448039870148,2.7663679543071322,0.7691630533470046,-0.0007586706417192051,0.0005612616389482193,-0.0005632038440196194,0.0012627165020992993,8.739002267520651e-05,-3.795282957223641e-06,-0.0008074982094183435,0.0,0.0,0.0,0.0,0.0,0.0,0.0,-0.00013836877387896074,0.00015378703940054778,-2.471035722677664e-05,-0.00016142841706168198,-0.00010987726641843026,4.014063649693256e-05,-3.203569621323954e-05,0.0007586706417192051,-0.0005612616389482193,0.0005632038440196194,-0.0012627165020992993,-8.739002267520651e-05,3.795282957223641e-06,0.0008074982094183435,0.4267818331718445,22.720483779907227,0.1253325641155243,-13.981050491333008,0.11414569616317749,-2.1325716972351074,0.38577598333358765,0
78,0.3850069046020508,-0.4267818331718445,-22.720483779907227,-0.1253325641155243,13.981050491333008,-0.11414569616317749,2.1325716972351074,-0.38577598333358765,0.0,0.0,0.0,0.0,0.0,0.0,0.0,-0.43711914240734434,0.06522768799044448,-0.2090939391619799,0.1574909251383311,-0.3440808956661783,-0.05519174845321541,-0.4107250689956339,1.6756357235281092,0.05195053978546948,0.02999421546651183,-2.7522334167089064,0.03435468125343323,2.7663278136706353,0.7691950890432179,1.6754973547542302,0.052104326824870026,0.029969505109285054,-2.752394845125968,0.0342448039870148,2.7663679543071322,0.7691630533470046,-0.0007586706417192051,0.0005612616389482193,-0.0005632038440196194,0.0012627165020992993,8.739002267520651e-05,-3.795282957223641e-06,-0.0008074982094183435,0.0,0.0,0.0,0.0,0.0,0.0,0.0,-0.00013836877387896074,0.00015378703940054778,-2.471035722677664e-05,-0.00016142841706168198,-0.00010987726641843026,4.014063649693256e-05,-3.203569621323954e-05,0.0007586706417192051,-0.0005612616389482193,0.0005632038440196194,-0.0012627165020992993,-8.739002267520651e-05,3.795282957223641e-06,0.0008074982094183435,0.4267818331718445,22.720483779907227,0.1253325641155243,-13.981050491333008,0.11414569616317749,-2.1325716972351074,0.38577598333358765,0
79,0.39000558853149414,-0.4029781222343445,-22.696680068969727,-0.09756157547235489,14.008821487426758,-0.10865253210067749,2.1325716972351074,-0.44711631536483765,0.0,0.0,0.0,0.0,0.0,0.0,0.0,-0.4367825400081158,0.06726188960249195,-0.20853072766980874,0.16119583810821192,-0.3445832710296038,-0.05469282171928276,-0.4085672547270124,1.6756340530922538,0.05194886931357731,0.029992660999675843,-2.7522332493950494,0.034354070901870724,2.766330836084122,0.76920196615728,1.6754973547542302,0.052104326824870026,0.029969505109285054,-2.752394845125968,0.0342448039870148,2.7663679543071322,0.7691630533470046,-0.00012862799566997976,-0.0001987473695004082,-8.303439820135696e-05,0.000804636843760877,-0.00023857795645234613,-0.00019838472549419368,0.001445252872679904,0.0,0.0,0.0,0.0,0.0,0.0,0.0,-0.00013669833802354425,0.00015545751129271423,-2.3155890390789274e-05,-0.0001615957309186733,-0.00010926691485592388,3.711822301033507e-05,-3.8912810275348875e-05,0.00012862799566997976,0.0001987473695004082,8.303439820135696e-05,-0.000804636843760877,0.00023857795645234613,0.00019838472549419368,-0.001445252872679904,0.4029781222343445,22.696680068969727,0.09756157547235489,-14.008821487426758,0.10865253210067749,-2.1325716972351074,0.44711631536483765,0
