rezayati/contactInterpretation/dataset/franka_main/labeled_data/link5/c11_4.csv
index,time,tau_J0,tau_J1,tau_J2,tau_J3,tau_J4,tau_J5,tau_J6,tau_J_d0,tau_J_d1,tau_J_d2,tau_J_d3,tau_J_d4,tau_J_d5,tau_J_d6,tau_ext0,tau_ext1,tau_ext2,tau_ext3,tau_ext4,tau_ext5,tau_ext6,q0,q1,q2,q3,q4,q5,q6,q_d0,q_d1,q_d2,q_d3,q_d4,q_d5,q_d6,dq0,dq1,dq2,dq3,dq4,dq5,dq6,dq_d0,dq_d1,dq_d2,dq_d3,dq_d4,dq_d5,dq_d6,e0,e1,e2,e3,e4,e5,e6,de0,de1,de2,de3,de4,de5,de6,etau_J0,etau_J1,etau_J2,etau_J3,etau_J4,etau_J5,etau_J6,label
1,0.0,-0.22445029020309448,-19.745019912719727,-0.2483184039592743,19.931978225708008,0.6713767647743225,2.4630770683288574,-0.22830526530742645,0.0,0.0,0.0,0.0,0.0,0.0,0.0,-0.2214677940817303,-0.020304171399622505,-0.05635229997504722,0.192425983645457,0.07678274239274535,0.09554355647728134,-0.27369412691987566,1.2132796201831415,-0.22033214449817887,-0.007540625643834733,-2.6037558844382303,-0.10879655485691306,2.4682321841451853,0.8264756091703332,1.2134413937687574,-0.2202432315892585,-0.0075118285948192216,-2.6038483821997875,-0.10888392708698907,2.4681821257803174,0.826474908251239,0.0003041081161601442,-0.0005253160926085993,0.00018176601937775445,0.0007317654739072762,-0.00036872707826754995,9.567343639910155e-05,-0.002030989867696168,0.0,0.0,0.0,0.0,0.0,0.0,0.0,0.0001617735856158653,8.891290892037995e-05,2.8797049015511812e-05,-9.24977615572864e-05,-8.737223007601602e-05,-5.0058364867933136e-05,-7.009190942097732e-07,-0.0003041081161601442,0.0005253160926085993,-0.00018176601937775445,-0.0007317654739072762,0.00036872707826754995,-9.567343639910155e-05,0.002030989867696168,0.22445029020309448,19.745019912719727,0.2483184039592743,-19.931978225708008,-0.6713767647743225,-2.4630770683288574,0.22830526530742645,0
2,0.005002021789550781,-0.22445029020309448,-19.745019912719727,-0.2483184039592743,19.931978225708008,0.6713767647743225,2.4630770683288574,-0.22830526530742645,0.0,0.0,0.0,0.0,0.0,0.0,0.0,-0.2214677940817303,-0.020304171399622505,-0.05635229997504722,0.192425983645457,0.07678274239274535,0.09554355647728134,-0.27369412691987566,1.2132796201831415,-0.22033214449817887,-0.007540625643834733,-2.6037558844382303,-0.10879655485691306,2.4682321841451853,0.8264756091703332,1.2134413937687574,-0.2202432315892585,-0.0075118285948192216,-2.6038483821997875,-0.10888392708698907,2.4681821257803174,0.826474908251239,0.0003041081161601442,-0.0005253160926085993,0.00018176601937775445,0.0007317654739072762,-0.00036872707826754995,9.567343639910155e-05,-0.002030989867696168,0.0,0.0,0.0,0.0,0.0,0.0,0.0,0.0001617735856158653,8.891290892037995e-05,2.8797049015511812e-05,-9.24977615572864e-05,-8.737223007601602e-05,-5.0058364867933136e-05,-7.009190942097732e-07,-0.0003041081161601442,0.0005253160926085993,-0.00018176601937775445,-0.0007317654739072762,0.00036872707826754995,-9.567343639910155e-05,0.002030989867696168,0.22445029020309448,19.745019912719727,0.2483184039592743,-19.931978225708008,-0.6713767647743225,-2.4630770683288574,0.22830526530742645,0
3,0.010001420974731445,-0.19667929410934448,-19.745019912719727,-0.2483184039592743,19.955781936645508,0.6713767647743225,2.4630770683288574,-0.30337852239608765,0.0,0.0,0.0,0.0,0.0,0.0,0.0,-0.21780503513652036,-0.023116023571467643,-0.05182283255967044,0.19313397554026376,0.07709533353861707,0.096019110227061,-0.2742795454109987,1.2132776713413105,-0.2203321416181933,-0.007540625643834733,-2.6037575548740857,-0.10879584402227081,2.4682321841451853,0.8264850102934358,1.2134413937687574,-0.2202432315892585,-0.0075118285948192216,-2.6038483821997875,-0.10888392708698907,2.4681821257803174,0.826474908251239,-0.00023542705172847867,-0.0004566223109741406,2.9202241391115578e-05,0.00040878199614995776,-0.00028173146235771154,0.0001238876733599928,0.0014213937794258415,0.0,0.0,0.0,0.0,0.0,0.0,0.0,0.00016372242744688847,8.891002893482436e-05,2.8797049015511812e-05,-9.082732570186991e-05,-8.808306471826122e-05,-5.0058364867933136e-05,-1.0102042196757921e-05,0.00023542705172847867,0.0004566223109741406,-2.9202241391115578e-05,-0.00040878199614995776,0.00028173146235771154,-0.0001238876733599928,-0.0014213937794258415,0.19667929410934448,19.745019912719727,0.2483184039592743,-19.955781936645508,-0.6713767647743225,-2.4630770683288574,0.30337852239608765,0
4,0.014998912811279297,-0.19667929410934448,-19.745019912719727,-0.2483184039592743,19.955781936645508,0.6713767647743225,2.4630770683288574,-0.30337852239608765,0.0,0.0,0.0,0.0,0.0,0.0,0.0,-0.21780503513652036,-0.023116023571467643,-0.05182283255967044,0.19313397554026376,0.07709533353861707,0.096019110227061,-0.2742795454109987,1.2132776713413105,-0.2203321416181933,-0.007540625643834733,-2.6037575548740857,-0.10879584402227081,2.4682321841451853,0.8264850102934358,1.2134413937687574,-0.2202432315892585,-0.0075118285948192216,-2.6038483821997875,-0.10888392708698907,2.4681821257803174,0.826474908251239,-0.00023542705172847867,-0.0004566223109741406,2.9202241391115578e-05,0.00040878199614995776,-0.00028173146235771154,0.0001238876733599928,0.0014213937794258415,0.0,0.0,0.0,0.0,0.0,0.0,0.0,0.00016372242744688847,8.891002893482436e-05,2.8797049015511812e-05,-9.082732570186991e-05,-8.808306471826122e-05,-5.0058364867933136e-05,-1.0102042196757921e-05,0.00023542705172847867,0.0004566223109741406,-2.9202241391115578e-05,-0.00040878199614995776,0.00028173146235771154,-0.0001238876733599928,-0.0014213937794258415,0.19667929410934448,19.745019912719727,0.2483184039592743,-19.955781936645508,-0.6713767647743225,-2.4630770683288574,0.30337852239608765,0
5,0.019998788833618164,-0.22445029020309448,-19.717248916625977,-0.2721221148967743,20.007356643676758,0.6594749093055725,2.4758944511413574,-0.30337852239608765,0.0,0.0,0.0,0.0,0.0,0.0,0.0,-0.22188232089814727,-0.017364934877024917,-0.057001321289020156,0.18820003409051417,0.0775925727385469,0.09528325432970311,-0.2745321143311052,1.2132796201831415,-0.22033306104663927,-0.0075389552079794695,-2.603761174151772,-0.10879416828227839,2.4682307599915396,0.8264850102994176,1.2134413937687574,-0.2202432315892585,-0.0075118285948192216,-2.6038483821997875,-0.10888392708698907,2.4681821257803174,0.826474908251239,-0.00020836692998171366,-0.0007415703916039252,0.0002199543726930061,-0.0011145699067649695,2.521611586756424e-05,-0.0001446193114379288,0.0008372935621308712,0.0,0.0,0.0,0.0,0.0,0.0,0.0,0.0001617735856158653,8.982945738078563e-05,2.7126613160247982e-05,-8.720804801543025e-05,-8.975880471068232e-05,-4.8634211222253754e-05,-1.0102048178528555e-05,0.00020836692998171366,0.0007415703916039252,-0.0002199543726930061,0.0011145699067649695,-2.521611586756424e-05,0.0001446193114379288,-0.0008372935621308712,0.22445029020309448,19.717248916625977,0.2721221148967743,-20.007356643676758,-0.6594749093055725,-2.4758944511413574,0.30337852239608765,0
6,0.024999380111694336,-0.22445029020309448,-19.717248916625977,-0.2721221148967743,20.007356643676758,0.6594749093055725,2.4758944511413574,-0.30337852239608765,0.0,0.0,0.0,0.0,0.0,0.0,0.0,-0.22188232089814727,-0.017364934877024917,-0.057001321289020156,0.18820003409051417,0.0775925727385469,0.09528325432970311,-0.2745321143311052,1.2132796201831415,-0.22033306104663927,-0.0075389552079794695,-2.603761174151772,-0.10879416828227839,2.4682307599915396,0.8264850102994176,1.2134413937687574,-0.2202432315892585,-0.0075118285948192216,-2.6038483821997875,-0.10888392708698907,2.4681821257803174,0.826474908251239,-0.00020836692998171366,-0.0007415703916039252,0.0002199543726930061,-0.0011145699067649695,2.521611586756424e-05,-0.0001446193114379288,0.0008372935621308712,0.0,0.0,0.0,0.0,0.0,0.0,0.0,0.0001617735856158653,8.982945738078563e-05,2.7126613160247982e-05,-8.720804801543025e-05,-8.975880471068232e-05,-4.8634211222253754e-05,-1.0102048178528555e-05,0.00020836692998171366,0.0007415703916039252,-0.0002199543726930061,0.0011145699067649695,-2.521611586756424e-05,0.0001446193114379288,-0.0008372935621308712,0.22445029020309448,19.717248916625977,0.2721221148967743,-20.007356643676758,-0.6594749093055725,-2.4758944511413574,0.30337852239608765,0
7,0.03000473976135254,-0.24825400114059448,-19.768823623657227,-0.2483184039592743,19.931978225708008,0.6658836007118225,2.4694857597351074,-0.24112264811992645,0.0,0.0,0.0,0.0,0.0,0.0,0.0,-0.21927098480073193,-0.02039848265611084,-0.055742632261110425,0.18715290078112282,0.07725895317171312,0.09580649056049868,-0.2756236048518933,1.213281290618997,-0.22033047405669365,-0.007540625643834733,-2.6037558844382303,-0.1087959445052796,2.4682314720683625,0.8264769939345621,1.2134413937687574,-0.2202432315892585,-0.0075118285948192216,-2.6038483821997875,-0.10888392708698907,2.4681821257803174,0.826474908251239,0.00043629967806179255,-6.5773655361977104e-06,-0.00021701729015265338,0.0005744093321167934,-0.0001528232337080639,-7.596394059159924e-05,-0.001304220691531331,0.0,0.0,0.0,0.0,0.0,0.0,0.0,0.00016010314976044882,8.724246743516129e-05,2.8797049015511812e-05,-9.24977615572864e-05,-8.79825817094726e-05,-4.9346288045093445e-05,-2.085683323049814e-06,-0.00043629967806179255,6.5773655361977104e-06,0.00021701729015265338,-0.0005744093321167934,0.0001528232337080639,7.596394059159924e-05,0.001304220691531331,0.24825400114059448,19.768823623657227,0.2483184039592743,-19.931978225708008,-0.6658836007118225,-2.4694857597351074,0.24112264811992645,0
8,0.03500843048095703,-0.24825400114059448,-19.768823623657227,-0.2483184039592743,19.931978225708008,0.6658836007118225,2.4694857597351074,-0.24112264811992645,0.0,0.0,0.0,0.0,0.0,0.0,0.0,-0.21927098480073193,-0.02039848265611084,-0.055742632261110425,0.18715290078112282,0.07725895317171312,0.09580649056049868,-0.2756236048518933,1.213281290618997,-0.22033047405669365,-0.007540625643834733,-2.6037558844382303,-0.1087959445052796,2.4682314720683625,0.8264769939345621,1.2134413937687574,-0.2202432315892585,-0.0075118285948192216,-2.6038483821997875,-0.10888392708698907,2.4681821257803174,0.826474908251239,0.00043629967806179255,-6.5773655361977104e-06,-0.00021701729015265338,0.0005744093321167934,-0.0001528232337080639,-7.596394059159924e-05,-0.001304220691531331,0.0,0.0,0.0,0.0,0.0,0.0,0.0,0.00016010314976044882,8.724246743516129e-05,2.8797049015511812e-05,-9.24977615572864e-05,-8.79825817094726e-05,-4.9346288045093445e-05,-2.085683323049814e-06,-0.00043629967806179255,6.5773655361977104e-06,0.00021701729015265338,-0.0005744093321167934,0.0001528232337080639,7.596394059159924e-05,0.001304220691531331,0.24825400114059448,19.768823623657227,0.2483184039592743,-19.931978225708008,-0.6658836007118225,-2.4694857597351074,0.24112264811992645,0
9,0.04000282287597656,-0.22445029020309448,-19.792627334594727,-0.2721221148967743,19.955781936645508,0.6658836007118225,2.4694857597351074,-0.22830526530742645,0.0,0.0,0.0,0.0,0.0,0.0,0.0,-0.2142730059471117,-0.021044171476383412,-0.053439949285501574,0.1864809404464721,0.07674295669870614,0.09589630330753855,-0.27543444733437417,1.2132796201831415,-0.22032880366266794,-0.0075389552079794695,-2.6037575548740857,-0.10879489141413351,2.4682314720683625,0.8264766688202035,1.2134413937687574,-0.2202432315892585,-0.0075118285948192216,-2.6038483821997875,-0.10888392708698907,2.4681821257803174,0.826474908251239,0.0004811554251711108,0.0006174723462241306,0.0006980550232786142,9.72346378185353e-05,-0.00017162357780296138,-0.0001048636978445449,-0.0021405459965802903,0.0,0.0,0.0,0.0,0.0,0.0,0.0,0.0001617735856158653,8.557207340945117e-05,2.7126613160247982e-05,-9.082732570186991e-05,-8.903567285556413e-05,-4.9346288045093445e-05,-1.760568964503939e-06,-0.0004811554251711108,-0.0006174723462241306,-0.0006980550232786142,-9.72346378185353e-05,0.00017162357780296138,0.0001048636978445449,0.0021405459965802903,0.22445029020309448,19.792627334594727,0.2721221148967743,-19.955781936645508,-0.6658836007118225,-2.4694857597351074,0.22830526530742645,0
10,0.044997453689575195,-0.22445029020309448,-19.792627334594727,-0.2721221148967743,19.955781936645508,0.6658836007118225,2.4694857597351074,-0.22830526530742645,0.0,0.0,0.0,0.0,0.0,0.0,0.0,-0.2142730059471117,-0.021044171476383412,-0.053439949285501574,0.1864809404464721,0.07674295669870614,0.09589630330753855,-0.27543444733437417,1.2132796201831415,-0.22032880366266794,-0.0075389552079794695,-2.6037575548740857,-0.10879489141413351,2.4682314720683625,0.8264766688202035,1.2134413937687574,-0.2202432315892585,-0.0075118285948192216,-2.6038483821997875,-0.10888392708698907,2.4681821257803174,0.826474908251239,0.0004811554251711108,0.0006174723462241306,0.0006980550232786142,9.72346378185353e-05,-0.00017162357780296138,-0.0001048636978445449,-0.0021405459965802903,0.0,0.0,0.0,0.0,0.0,0.0,0.0,0.0001617735856158653,8.557207340945117e-05,2.7126613160247982e-05,-9.082732570186991e-05,-8.903567285556413e-05,-4.9346288045093445e-05,-1.760568964503939e-06,-0.0004811554251711108,-0.0006174723462241306,-0.0006980550232786142,-9.72346378185353e-05,0.00017162357780296138,0.0001048636978445449,0.0021405459965802903,0.22445029020309448,19.792627334594727,0.2721221148967743,-19.955781936645508,-0.6658836007118225,-2.4694857597351074,0.22830526530742645,0
11,0.049997806549072266,-0.19667929410934448,-19.745019912719727,-0.2483184039592743,19.955781936645508,0.6539817452430725,2.4630770683288574,-0.28964561223983765,0.0,0.0,0.0,0.0,0.0,0.0,0.0,-0.21756422300468495,-0.024628026601491562,-0.05955119784310263,0.18794111451020917,0.07713192115220163,0.09576489431392482,-0.275677216913027,1.2132776713413105,-0.22033214442637183,-0.007540625643834733,-2.6037575548740857,-0.10879355597860393,2.4682321841451853,0.8264834844205113,1.2134413937687574,-0.2202432315892585,-0.0075118285948192216,-2.6038483821997875,-0.10888392708698907,2.4681821257803174,0.826474908251239,-0.0007634842176670647,-0.0007115051544784473,3.56913734222043e-06,0.00023815747730417312,0.00023904937238831048,0.00022819565393432536,0.0006127813119445641,0.0,0.0,0.0,0.0,0.0,0.0,0.0,0.00016372242744688847,8.891283711334741e-05,2.8797049015511812e-05,-9.082732570186991e-05,-9.037110838513995e-05,-5.0058364867933136e-05,-8.57616927230076e-06,0.0007634842176670647,0.0007115051544784473,-3.56913734222043e-06,-0.00023815747730417312,-0.00023904937238831048,-0.00022819565393432536,-0.0006127813119445641,0.19667929410934448,19.745019912719727,0.2483184039592743,-19.955781936645508,-0.6539817452430725,-2.4630770683288574,0.28964561223983765,0
12,0.05499839782714844,-0.19667929410934448,-19.745019912719727,-0.2483184039592743,19.955781936645508,0.6539817452430725,2.4630770683288574,-0.28964561223983765,0.0,0.0,0.0,0.0,0.0,0.0,0.0,-0.21756422300468495,-0.024628026601491562,-0.05955119784310263,0.18794111451020917,0.07713192115220163,0.09576489431392482,-0.275677216913027,1.2132776713413105,-0.22033214442637183,-0.007540625643834733,-2.6037575548740857,-0.10879355597860393,2.4682321841451853,0.8264834844205113,1.2134413937687574,-0.2202432315892585,-0.0075118285948192216,-2.6038483821997875,-0.10888392708698907,2.4681821257803174,0.826474908251239,-0.0007634842176670647,-0.0007115051544784473,3.56913734222043e-06,0.00023815747730417312,0.00023904937238831048,0.00022819565393432536,0.0006127813119445641,0.0,0.0,0.0,0.0,0.0,0.0,0.0,0.00016372242744688847,8.891283711334741e-05,2.8797049015511812e-05,-9.082732570186991e-05,-9.037110838513995e-05,-5.0058364867933136e-05,-8.57616927230076e-06,0.0007634842176670647,0.0007115051544784473,-3.56913734222043e-06,-0.00023815747730417312,-0.00023904937238831048,-0.00022819565393432536,-0.0006127813119445641,0.19667929410934448,19.745019912719727,0.2483184039592743,-19.955781936645508,-0.6539817452430725,-2.4630770683288574,0.28964561223983765,0
13,0.059999942779541016,-0.22445029020309448,-19.745019912719727,-0.2721221148967743,19.955781936645508,0.6594749093055725,2.4694857597351074,-0.31711143255233765,0.0,0.0,0.0,0.0,0.0,0.0,0.0,-0.2207493483866053,-0.01956438062703354,-0.06151999981458872,0.19032221977234604,0.07712229228039683,0.0953165905060302,-0.2761460261144699,1.2132796201831415,-0.22032907379138245,-0.0075389552079794695,-2.6037575548740857,-0.10879416768438462,2.4682314720683625,0.8264864925718164,1.2134413937687574,-0.2202432315892585,-0.0075118285948192216,-2.6038483821997875,-0.10888392708698907,2.4681821257803174,0.826474908251239,-0.0002701256585721238,-0.00011133904968006506,0.0006636441061466824,0.0010156197656687644,1.715875483511578e-05,8.598654011885674e-05,0.0013551268845371732,0.0,0.0,0.0,0.0,0.0,0.0,0.0,0.0001617735856158653,8.58422021239591e-05,2.7126613160247982e-05,-9.082732570186991e-05,-8.975940260445847e-05,-4.9346288045093445e-05,-1.158432057735137e-05,0.0002701256585721238,0.00011133904968006506,-0.0006636441061466824,-0.0010156197656687644,-1.715875483511578e-05,-8.598654011885674e-05,-0.0013551268845371732,0.22445029020309448,19.745019912719727,0.2721221148967743,-19.955781936645508,-0.6594749093055725,-2.4694857597351074,0.31711143255233765,0
14,0.06500744819641113,-0.22445029020309448,-19.745019912719727,-0.2721221148967743,19.955781936645508,0.6594749093055725,2.4694857597351074,-0.31711143255233765,0.0,0.0,0.0,0.0,0.0,0.0,0.0,-0.2207493483866053,-0.01956438062703354,-0.06151999981458872,0.19032221977234604,0.07712229228039683,0.0953165905060302,-0.2761460261144699,1.2132796201831415,-0.22032907379138245,-0.0075389552079794695,-2.6037575548740857,-0.10879416768438462,2.4682314720683625,0.8264864925718164,1.2134413937687574,-0.2202432315892585,-0.0075118285948192216,-2.6038483821997875,-0.10888392708698907,2.4681821257803174,0.826474908251239,-0.0002701256585721238,-0.00011133904968006506,0.0006636441061466824,0.0010156197656687644,1.715875483511578e-05,8.598654011885674e-05,0.0013551268845371732,0.0,0.0,0.0,0.0,0.0,0.0,0.0,0.0001617735856158653,8.58422021239591e-05,2.7126613160247982e-05,-9.082732570186991e-05,-8.975940260445847e-05,-4.9346288045093445e-05,-1.158432057735137e-05,0.0002701256585721238,0.00011133904968006506,-0.0006636441061466824,-0.0010156197656687644,-1.715875483511578e-05,-8.598654011885674e-05,-0.0013551268845371732,0.22445029020309448,19.745019912719727,0.2721221148967743,-19.955781936645508,-0.6594749093055725,-2.4694857597351074,0.31711143255233765,0
15,0.07000112533569336,-0.22445029020309448,-19.768823623657227,-0.2721221148967743,20.007356643676758,0.6658836007118225,2.4694857597351074,-0.24112264811992645,0.0,0.0,0.0,0.0,0.0,0.0,0.0,-0.22047794779158264,0.0003750947404756669,-0.05822419070761979,0.16375002748245773,0.07622454101688012,0.09151881431305309,-0.27684643868404474,1.2132796201831415,-0.22032952923719035,-0.007539192044624004,-2.603761174151772,-0.10879807718952653,2.4682314720683625,0.8264780798978553,1.2134413937687574,-0.2202432315892585,-0.0075118285948192216,-2.6038483821997875,-0.10888392708698907,2.4681821257803174,0.826474908251239,-0.00010844907923980319,0.0008682484080546716,0.0003556268307597584,0.0027407713493084974,-0.00013238321123337172,-0.00016996753499243743,-0.0012919909207481854,0.0,0.0,0.0,0.0,0.0,0.0,0.0,0.0001617735856158653,8.629764793186001e-05,2.7363449804782697e-05,-8.720804801543025e-05,-8.584989746254768e-05,-4.9346288045093445e-05,-3.17164661622904e-06,0.00010844907923980319,-0.0008682484080546716,-0.0003556268307597584,-0.0027407713493084974,0.00013238321123337172,0.00016996753499243743,0.0012919909207481854,0.22445029020309448,19.768823623657227,0.2721221148967743,-20.007356643676758,-0.6658836007118225,-2.4694857597351074,0.24112264811992645,0
16,0.07496881484985352,-0.22445029020309448,-19.768823623657227,-0.2721221148967743,20.007356643676758,0.6658836007118225,2.4694857597351074,-0.24112264811992645,0.0,0.0,0.0,0.0,0.0,0.0,0.0,-0.22047794779158264,0.0003750947404756669,-0.05822419070761979,0.16375002748245773,0.07622454101688012,0.09151881431305309,-0.27684643868404474,1.2132796201831415,-0.22032952923719035,-0.007539192044624004,-2.603761174151772,-0.10879807718952653,2.4682314720683625,0.8264780798978553,1.2134413937687574,-0.2202432315892585,-0.0075118285948192216,-2.6038483821997875,-0.10888392708698907,2.4681821257803174,0.826474908251239,-0.00010844907923980319,0.0008682484080546716,0.0003556268307597584,0.0027407713493084974,-0.00013238321123337172,-0.00016996753499243743,-0.0012919909207481854,0.0,0.0,0.0,0.0,0.0,0.0,0.0,0.0001617735856158653,8.629764793186001e-05,2.7363449804782697e-05,-8.720804801543025e-05,-8.584989746254768e-05,-4.9346288045093445e-05,-3.17164661622904e-06,0.00010844907923980319,-0.0008682484080546716,-0.0003556268307597584,-0.0027407713493084974,0.00013238321123337172,0.00016996753499243743,0.0012919909207481854,0.22445029020309448,19.768823623657227,0.2721221148967743,-20.007356643676758,-0.6658836007118225,-2.4694857597351074,0.24112264811992645,0
17,0.07999777793884277,-0.22445029020309448,-19.768823623657227,-0.2245146930217743,19.955781936645508,0.6594749093055725,2.4758944511413574,-0.25485557317733765,0.0,0.0,0.0,0.0,0.0,0.0,0.0,-0.22189761638344685,0.002217888319167187,-0.05629366224983726,0.16088672904765716,0.07607191504797609,0.0914788543171877,-0.2761138554507051,1.2132796201831415,-0.22032976544952315,-0.007542296083700845,-2.6037575548740857,-0.10879878668551134,2.46823040677883,0.8264792656476841,1.2134413937687574,-0.2202432315892585,-0.0075118285948192216,-2.6038483821997875,-0.10888392708698907,2.4681821257803174,0.826474908251239,-0.00017085073787241782,0.0004114702028764351,-0.0007620200812032896,4.086968857640918e-05,-0.00014485821282026463,-9.635715805762597e-05,-0.0007653960525852058,0.0,0.0,0.0,0.0,0.0,0.0,0.0,0.0001617735856158653,8.653386026466481e-05,3.046748888162372e-05,-9.082732570186991e-05,-8.514040147773738e-05,-4.8280998512506557e-05,-4.357396445109352e-06,0.00017085073787241782,-0.0004114702028764351,0.0007620200812032896,-4.086968857640918e-05,0.00014485821282026463,9.635715805762597e-05,0.0007653960525852058,0.22445029020309448,19.768823623657227,0.2245146930217743,-19.955781936645508,-0.6594749093055725,-2.4758944511413574,0.25485557317733765,0
18,0.08497095108032227,-0.22445029020309448,-19.768823623657227,-0.2245146930217743,19.955781936645508,0.6594749093055725,2.4758944511413574,-0.25485557317733765,0.0,0.0,0.0,0.0,0.0,0.0,0.0,-0.22189761638344685,0.002217888319167187,-0.05629366224983726,0.16088672904765716,0.07607191504797609,0.0914788543171877,-0.2761138554507051,1.2132796201831415,-0.22032976544952315,-0.007542296083700845,-2.6037575548740857,-0.10879878668551134,2.46823040677883,0.8264792656476841,1.2134413937687574,-0.2202432315892585,-0.0075118285948192216,-2.6038483821997875,-0.10888392708698907,2.4681821257803174,0.826474908251239,-0.00017085073787241782,0.0004114702028764351,-0.0007620200812032896,4.086968857640918e-05,-0.00014485821282026463,-9.635715805762597e-05,-0.0007653960525852058,0.0,0.0,0.0,0.0,0.0,0.0,0.0,0.0001617735856158653,8.653386026466481e-05,3.046748888162372e-05,-9.082732570186991e-05,-8.514040147773738e-05,-4.8280998512506557e-05,-4.357396445109352e-06,0.00017085073787241782,-0.0004114702028764351,0.0007620200812032896,-4.086968857640918e-05,0.00014485821282026463,9.635715805762597e-05,0.0007653960525852058,0.22445029020309448,19.768823623657227,0.2245146930217743,-19.955781936645508,-0.6594749093055725,-2.4758944511413574,0.25485557317733765,0
19,0.08999443054199219,-0.22445029020309448,-19.792627334594727,-0.2483184039592743,19.983552932739258,0.6539817452430725,2.4694857597351074,-0.29605430364608765,0.0,0.0,0.0,0.0,0.0,0.0,0.0,-0.22050868878917315,-0.023457627045406788,-0.05198008069883322,0.19703165220318197,0.07646023884629848,0.097978527506352,-0.27539348430034477,1.2132796201831415,-0.22032856711431373,-0.007540625643834741,-2.6037595037159167,-0.10879391124499813,2.468231472067698,0.8264841557972628,1.2134413937687574,-0.2202432315892585,-0.0075118285948192216,-2.6038483821997875,-0.10888392708698907,2.4681821257803174,0.826474908251239,-6.473440784229084e-05,0.0007825012520767672,0.00017302739099448654,-0.00036291589101365403,0.0001823086959948609,-8.851670728270691e-05,0.00127605249466572,0.0,0.0,0.0,0.0,0.0,0.0,0.0,0.0001617735856158653,8.533552505524122e-05,2.879704901551962e-05,-8.887848387084674e-05,-9.001584199094803e-05,-4.934628738073599e-05,-9.247546023716247e-06,6.473440784229084e-05,-0.0007825012520767672,-0.00017302739099448654,0.00036291589101365403,-0.0001823086959948609,8.851670728270691e-05,-0.00127605249466572,0.22445029020309448,19.792627334594727,0.2483184039592743,-19.983552932739258,-0.6539817452430725,-2.4694857597351074,0.29605430364608765,0
20,0.09499621391296387,-0.22445029020309448,-19.792627334594727,-0.2483184039592743,19.983552932739258,0.6539817452430725,2.4694857597351074,-0.29605430364608765,0.0,0.0,0.0,0.0,0.0,0.0,0.0,-0.22050868878917315,-0.023457627045406788,-0.05198008069883322,0.19703165220318197,0.07646023884629848,0.097978527506352,-0.27539348430034477,1.2132796201831415,-0.22032856711431373,-0.007540625643834741,-2.6037595037159167,-0.10879391124499813,2.468231472067698,0.8264841557972628,1.2134413937687574,-0.2202432315892585,-0.0075118285948192216,-2.6038483821997875,-0.10888392708698907,2.4681821257803174,0.826474908251239,-6.473440784229084e-05,0.0007825012520767672,0.00017302739099448654,-0.00036291589101365403,0.0001823086959948609,-8.851670728270691e-05,0.00127605249466572,0.0,0.0,0.0,0.0,0.0,0.0,0.0,0.0001617735856158653,8.533552505524122e-05,2.879704901551962e-05,-8.887848387084674e-05,-9.001584199094803e-05,-4.934628738073599e-05,-9.247546023716247e-06,6.473440784229084e-05,-0.0007825012520767672,-0.00017302739099448654,0.00036291589101365403,-0.0001823086959948609,8.851670728270691e-05,-0.00127605249466572,0.22445029020309448,19.792627334594727,0.2483184039592743,-19.983552932739258,-0.6539817452430725,-2.4694857597351074,0.29605430364608765,0
21,0.1000359058380127,-0.22445029020309448,-19.745019912719727,-0.2483184039592743,19.955781936645508,0.6777854561805725,2.4630770683288574,-0.28964561223983765,0.0,0.0,0.0,0.0,0.0,0.0,0.0,-0.22930964090054567,-0.027889851418071387,-0.057684275998207996,0.1996914213940161,0.07642835433857965,0.09769628386636033,-0.2750359646986216,1.2132796201831415,-0.22032978242304674,-0.007540625643834733,-2.6037575548740857,-0.10879655755771599,2.4682321841451853,0.8264831312075718,1.2134413937687574,-0.2202432315892585,-0.0075118285948192216,-2.6038483821997875,-0.10888392708698907,2.4681821257803174,0.826474908251239,-0.000148668317932691,-0.0007091634876789627,-0.0005526946201243651,0.000707751893024372,-0.0006594949930000369,0.00010722702966818996,2.6635312035778494e-05,0.0,0.0,0.0,0.0,0.0,0.0,0.0,0.0001617735856158653,8.655083378825146e-05,2.8797049015511812e-05,-9.082732570186991e-05,-8.73695292730875e-05,-5.0058364867933136e-05,-8.222956332737397e-06,0.000148668317932691,0.0007091634876789627,0.0005526946201243651,-0.000707751893024372,0.0006594949930000369,-0.00010722702966818996,-2.6635312035778494e-05,0.22445029020309448,19.745019912719727,0.2483184039592743,-19.955781936645508,-0.6777854561805725,-2.4630770683288574,0.28964561223983765,0
22,0.10502815246582031,-0.22445029020309448,-19.745019912719727,-0.2483184039592743,19.955781936645508,0.6777854561805725,2.4630770683288574,-0.28964561223983765,0.0,0.0,0.0,0.0,0.0,0.0,0.0,-0.22930964090054567,-0.027889851418071387,-0.057684275998207996,0.1996914213940161,0.07642835433857965,0.09769628386636033,-0.2750359646986216,1.2132796201831415,-0.22032978242304674,-0.007540625643834733,-2.6037575548740857,-0.10879655755771599,2.4682321841451853,0.8264831312075718,1.2134413937687574,-0.2202432315892585,-0.0075118285948192216,-2.6038483821997875,-0.10888392708698907,2.4681821257803174,0.826474908251239,-0.000148668317932691,-0.0007091634876789627,-0.0005526946201243651,0.000707751893024372,-0.0006594949930000369,0.00010722702966818996,2.6635312035778494e-05,0.0,0.0,0.0,0.0,0.0,0.0,0.0,0.0001617735856158653,8.655083378825146e-05,2.8797049015511812e-05,-9.082732570186991e-05,-8.73695292730875e-05,-5.0058364867933136e-05,-8.222956332737397e-06,0.000148668317932691,0.0007091634876789627,0.0005526946201243651,-0.000707751893024372,0.0006594949930000369,-0.00010722702966818996,-2.6635312035778494e-05,0.22445029020309448,19.745019912719727,0.2483184039592743,-19.955781936645508,-0.6777854561805725,-2.4630770683288574,0.28964561223983765,0
23,0.11002302169799805,-0.22445029020309448,-19.745019912719727,-0.2245146930217743,19.955781936645508,0.6594749093055725,2.4630770683288574,-0.22830526530742645,0.0,0.0,0.0,0.0,0.0,0.0,0.0,-0.22447685767289954,-0.02290317806283587,-0.05690269088187039,0.19290184181401937,0.07624521213582705,0.09569139222722935,-0.27547258915724154,1.2132796201831415,-0.22033001473380062,-0.007542299002262849,-2.6037575548740857,-0.10879843126723399,2.4682321841451853,0.826476315611704,1.2134413937687574,-0.2202432315892585,-0.0075118285948192216,-2.6038483821997875,-0.10888392708698907,2.4681821257803174,0.826474908251239,0.0001763603584114808,-0.000463094847310519,-0.0008159825420215322,1.1267795082777766e-05,0.00015944497956330342,0.00012840670926717428,-0.001778058736349503,0.0,0.0,0.0,0.0,0.0,0.0,0.0,0.0001617735856158653,8.67831445421352e-05,3.047040744362777e-05,-9.082732570186991e-05,-8.549581975508813e-05,-5.0058364867933136e-05,-1.407360464944496e-06,-0.0001763603584114808,0.000463094847310519,0.0008159825420215322,-1.1267795082777766e-05,-0.00015944497956330342,-0.00012840670926717428,0.001778058736349503,0.22445029020309448,19.745019912719727,0.2245146930217743,-19.955781936645508,-0.6594749093055725,-2.4630770683288574,0.22830526530742645,0
24,0.11506819725036621,-0.22445029020309448,-19.745019912719727,-0.2245146930217743,19.955781936645508,0.6594749093055725,2.4630770683288574,-0.22830526530742645,0.0,0.0,0.0,0.0,0.0,0.0,0.0,-0.22447685767289954,-0.02290317806283587,-0.05690269088187039,0.19290184181401937,0.07624521213582705,0.09569139222722935,-0.27547258915724154,1.2132796201831415,-0.22033001473380062,-0.007542299002262849,-2.6037575548740857,-0.10879843126723399,2.4682321841451853,0.826476315611704,1.2134413937687574,-0.2202432315892585,-0.0075118285948192216,-2.6038483821997875,-0.10888392708698907,2.4681821257803174,0.826474908251239,0.0001763603584114808,-0.000463094847310519,-0.0008159825420215322,1.1267795082777766e-05,0.00015944497956330342,0.00012840670926717428,-0.001778058736349503,0.0,0.0,0.0,0.0,0.0,0.0,0.0,0.0001617735856158653,8.67831445421352e-05,3.047040744362777e-05,-9.082732570186991e-05,-8.549581975508813e-05,-5.0058364867933136e-05,-1.407360464944496e-06,-0.0001763603584114808,0.000463094847310519,0.0008159825420215322,-1.1267795082777766e-05,-0.00015944497956330342,-0.00012840670926717428,0.001778058736349503,0.22445029020309448,19.745019912719727,0.2245146930217743,-19.955781936645508,-0.6594749093055725,-2.4630770683288574,0.22830526530742645,0
25,0.12003612518310547,-0.22445029020309448,-19.745019912719727,-0.2245146930217743,19.955781936645508,0.6594749093055725,2.4630770683288574,-0.22830526530742645,0.0,0.0,0.0,0.0,0.0,0.0,0.0,-0.22447685767289954,-0.02290317806283587,-0.05690269088187039,0.19290184181401937,0.07624521213582705,0.09569139222722935,-0.27547258915724154,1.2132796201831415,-0.22033001473380062,-0.007542299002262849,-2.6037575548740857,-0.10879843126723399,2.4682321841451853,0.826476315611704,1.2134413937687574,-0.2202432315892585,-0.0075118285948192216,-2.6038483821997875,-0.10888392708698907,2.4681821257803174,0.826474908251239,0.0001763603584114808,-0.000463094847310519,-0.0008159825420215322,1.1267795082777766e-05,0.00015944497956330342,0.00012840670926717428,-0.001778058736349503,0.0,0.0,0.0,0.0,0.0,0.0,0.0,0.0001617735856158653,8.67831445421352e-05,3.047040744362777e-05,-9.082732570186991e-05,-8.549581975508813e-05,-5.0058364867933136e-05,-1.407360464944496e-06,-0.0001763603584114808,0.000463094847310519,0.0008159825420215322,-1.1267795082777766e-05,-0.00015944497956330342,-0.00012840670926717428,0.001778058736349503,0.22445029020309448,19.745019912719727,0.2245146930217743,-19.955781936645508,-0.6594749093055725,-2.4630770683288574,0.22830526530742645,0
26,0.12502837181091309,-0.22445029020309448,-19.745019912719727,-0.2245146930217743,19.955781936645508,0.6594749093055725,2.4630770683288574,-0.22830526530742645,0.0,0.0,0.0,0.0,0.0,0.0,0.0,-0.22447685767289954,-0.02290317806283587,-0.05690269088187039,0.19290184181401937,0.07624521213582705,0.09569139222722935,-0.27547258915724154,1.2132796201831415,-0.22033001473380062,-0.007542299002262849,-2.6037575548740857,-0.10879843126723399,2.4682321841451853,0.826476315611704,1.2134413937687574,-0.2202432315892585,-0.0075118285948192216,-2.6038483821997875,-0.10888392708698907,2.4681821257803174,0.826474908251239,0.0001763603584114808,-0.000463094847310519,-0.0008159825420215322,1.1267795082777766e-05,0.00015944497956330342,0.00012840670926717428,-0.001778058736349503,0.0,0.0,0.0,0.0,0.0,0.0,0.0,0.0001617735856158653,8.67831445421352e-05,3.047040744362777e-05,-9.082732570186991e-05,-8.549581975508813e-05,-5.0058364867933136e-05,-1.407360464944496e-06,-0.0001763603584114808,0.000463094847310519,0.0008159825420215322,-1.1267795082777766e-05,-0.00015944497956330342,-0.00012840670926717428,0.001778058736349503,0.22445029020309448,19.745019912719727,0.2245146930217743,-19.955781936645508,-0.6594749093055725,-2.4630770683288574,0.22830526530742645,0
27,0.1300358772277832,-0.22445029020309448,-19.792627334594727,-0.2998931109905243,19.931978225708008,0.6594749093055725,2.4758944511413574,-0.22830526530742645,0.0,0.0,0.0,0.0,0.0,0.0,0.0,-0.2302759035067336,-0.0239108169200903,-0.0665943521976793,0.1958302795188077,0.07693726712478663,0.0952755068324641,-0.27468130180907063,1.2132796201831415,-0.22032809404558468,-0.007537006366164827,-2.6037558844382303,-0.10879464008537267,2.4682307599915396,0.8264734899100258,1.2134413937687574,-0.2202432315892585,-0.0075118285948192216,-2.6038483821997875,-0.10888392708698907,2.4681821257803174,0.826474908251239,-0.0005091963595373837,0.0009566694222454272,0.0003512508776200313,0.001141428997540898,0.00010868108417679373,-0.0004281467530955576,-0.0018891880444957445,0.0,0.0,0.0,0.0,0.0,0.0,0.0,0.0001617735856158653,8.486245632619016e-05,2.5177771345605802e-05,-9.24977615572864e-05,-8.928700161640879e-05,-4.8634211222253754e-05,1.4183412132551254e-06,0.0005091963595373837,-0.0009566694222454272,-0.0003512508776200313,-0.001141428997540898,-0.00010868108417679373,0.0004281467530955576,0.0018891880444957445,0.22445029020309448,19.792627334594727,0.2998931109905243,-19.931978225708008,-0.6594749093055725,-2.4758944511413574,0.22830526530742645,0
28,0.1349959373474121,-0.22445029020309448,-19.792627334594727,-0.2998931109905243,19.931978225708008,0.6594749093055725,2.4758944511413574,-0.22830526530742645,0.0,0.0,0.0,0.0,0.0,0.0,0.0,-0.2302759035067336,-0.0239108169200903,-0.0665943521976793,0.1958302795188077,0.07693726712478663,0.0952755068324641,-0.27468130180907063,1.2132796201831415,-0.22032809404558468,-0.007537006366164827,-2.6037558844382303,-0.10879464008537267,2.4682307599915396,0.8264734899100258,1.2134413937687574,-0.2202432315892585,-0.0075118285948192216,-2.6038483821997875,-0.10888392708698907,2.4681821257803174,0.826474908251239,-0.0005091963595373837,0.0009566694222454272,0.0003512508776200313,0.001141428997540898,0.00010868108417679373,-0.0004281467530955576,-0.0018891880444957445,0.0,0.0,0.0,0.0,0.0,0.0,0.0,0.0001617735856158653,8.486245632619016e-05,2.5177771345605802e-05,-9.24977615572864e-05,-8.928700161640879e-05,-4.8634211222253754e-05,1.4183412132551254e-06,0.0005091963595373837,-0.0009566694222454272,-0.0003512508776200313,-0.001141428997540898,-0.00010868108417679373,0.0004281467530955576,0.0018891880444957445,0.22445029020309448,19.792627334594727,0.2998931109905243,-19.931978225708008,-0.6594749093055725,-2.4758944511413574,0.22830526530742645,0
29,0.14003443717956543,-0.14510458707809448,-19.745019912719727,-0.2483184039592743,19.983552932739258,0.6539817452430725,2.4694857597351074,-0.28964561223983765,0.0,0.0,0.0,0.0,0.0,0.0,0.0,-0.2239342073902018,-0.02113629682448502,-0.06260138141081568,0.1944578077804241,0.07711752869238948,0.09484749782604257,-0.2739751931653296,1.213274052063624,-0.22033135705236714,-0.007540625643834733,-2.6037595037159167,-0.1087939156268839,2.4682314720683625,0.8264834653449075,1.2134413937687574,-0.2202432315892585,-0.0075118285948192216,-2.6038483821997875,-0.10888392708698907,2.4681821257803174,0.826474908251239,-0.0019892836468975716,-0.00022599213076542036,-0.0004586117013837351,-0.0002489201413237461,0.00039832016490440797,-4.392534533805325e-05,0.0010986434675810417,0.0,0.0,0.0,0.0,0.0,0.0,0.0,0.00016734170513332813,8.812546310865699e-05,2.8797049015511812e-05,-8.887848387084674e-05,-9.001146010517713e-05,-4.9346288045093445e-05,-8.557093668426496e-06,0.0019892836468975716,0.00022599213076542036,0.0004586117013837351,0.0002489201413237461,-0.00039832016490440797,4.392534533805325e-05,-0.0010986434675810417,0.14510458707809448,19.745019912719727,0.2483184039592743,-19.983552932739258,-0.6539817452430725,-2.4694857597351074,0.28964561223983765,0
30,0.14502358436584473,-0.14510458707809448,-19.745019912719727,-0.2483184039592743,19.983552932739258,0.6539817452430725,2.4694857597351074,-0.28964561223983765,0.0,0.0,0.0,0.0,0.0,0.0,0.0,-0.2239342073902018,-0.02113629682448502,-0.06260138141081568,0.1944578077804241,0.07711752869238948,0.09484749782604257,-0.2739751931653296,1.213274052063624,-0.22033135705236714,-0.007540625643834733,-2.6037595037159167,-0.1087939156268839,2.4682314720683625,0.8264834653449075,1.2134413937687574,-0.2202432315892585,-0.0075118285948192216,-2.6038483821997875,-0.10888392708698907,2.4681821257803174,0.826474908251239,-0.0019892836468975716,-0.00022599213076542036,-0.0004586117013837351,-0.0002489201413237461,0.00039832016490440797,-4.392534533805325e-05,0.0010986434675810417,0.0,0.0,0.0,0.0,0.0,0.0,0.0,0.00016734170513332813,8.812546310865699e-05,2.8797049015511812e-05,-8.887848387084674e-05,-9.001146010517713e-05,-4.9346288045093445e-05,-8.557093668426496e-06,0.0019892836468975716,0.00022599213076542036,0.0004586117013837351,0.0002489201413237461,-0.00039832016490440797,4.392534533805325e-05,-0.0010986434675810417,0.14510458707809448,19.745019912719727,0.2483184039592743,-19.983552932739258,-0.6539817452430725,-2.4694857597351074,0.28964561223983765,0
31,0.1500263214111328,-0.22445029020309448,-19.745019912719727,-0.2721221148967743,19.983552932739258,0.6594749093055725,2.4630770683288574,-0.28964561223983765,0.0,0.0,0.0,0.0,0.0,0.0,0.0,-0.22607499930198083,-0.022415562541177558,-0.06563267198057078,0.19424590797994815,0.07731270667764047,0.09515339936884827,-0.2735906416012741,1.2132796201831415,-0.22033206579293346,-0.0075389552079794695,-2.6037595037159167,-0.10879736495221119,2.468232144899329,0.826483013470124,1.2134413937687574,-0.2202432315892585,-0.0075118285948192216,-2.6038483821997875,-0.10888392708698907,2.4681821257803174,0.826474908251239,0.00010993018756638633,-0.00040667360035357016,0.00019342805063160627,-0.0005632714207736776,4.7415882359326215e-05,0.00019214005717202003,0.0009353730672077255,0.0,0.0,0.0,0.0,0.0,0.0,0.0,0.0001617735856158653,8.883420367497563e-05,2.7126613160247982e-05,-8.887848387084674e-05,-8.656213477788166e-05,-5.001911901159062e-05,-8.105218884946197e-06,-0.00010993018756638633,0.00040667360035357016,-0.00019342805063160627,0.0005632714207736776,-4.7415882359326215e-05,-0.00019214005717202003,-0.0009353730672077255,0.22445029020309448,19.745019912719727,0.2721221148967743,-19.983552932739258,-0.6594749093055725,-2.4630770683288574,0.28964561223983765,0
32,0.15501666069030762,-0.22445029020309448,-19.745019912719727,-0.2721221148967743,19.983552932739258,0.6594749093055725,2.4630770683288574,-0.28964561223983765,0.0,0.0,0.0,0.0,0.0,0.0,0.0,-0.22607499930198083,-0.022415562541177558,-0.06563267198057078,0.19424590797994815,0.07731270667764047,0.09515339936884827,-0.2735906416012741,1.2132796201831415,-0.22033206579293346,-0.0075389552079794695,-2.6037595037159167,-0.10879736495221119,2.468232144899329,0.826483013470124,1.2134413937687574,-0.2202432315892585,-0.0075118285948192216,-2.6038483821997875,-0.10888392708698907,2.4681821257803174,0.826474908251239,0.00010993018756638633,-0.00040667360035357016,0.00019342805063160627,-0.0005632714207736776,4.7415882359326215e-05,0.00019214005717202003,0.0009353730672077255,0.0,0.0,0.0,0.0,0.0,0.0,0.0,0.0001617735856158653,8.883420367497563e-05,2.7126613160247982e-05,-8.887848387084674e-05,-8.656213477788166e-05,-5.001911901159062e-05,-8.105218884946197e-06,-0.00010993018756638633,0.00040667360035357016,-0.00019342805063160627,0.0005632714207736776,-4.7415882359326215e-05,-0.00019214005717202003,-0.0009353730672077255,0.22445029020309448,19.745019912719727,0.2721221148967743,-19.983552932739258,-0.6594749093055725,-2.4630770683288574,0.28964561223983765,0
33,0.16001129150390625,-0.19667929410934448,-19.768823623657227,-0.2721221148967743,19.983552932739258,0.6658836007118225,2.4630770683288574,-0.29605430364608765,0.0,0.0,0.0,0.0,0.0,0.0,0.0,-0.22361413999112498,-0.02526623788619745,-0.06279148044312867,0.19282551130132047,0.07691282983315763,0.09455668937054978,-0.27275264095117163,1.2132776713413105,-0.2203283471913143,-0.0075389552079794695,-2.6037595037159167,-0.10879847194445451,2.4682321841451116,0.8264810175820602,1.2134413937687574,-0.2202432315892585,-0.0075118285948192216,-2.6038483821997875,-0.10888392708698907,2.4681821257803174,0.826474908251239,-0.0005724430113131049,-0.0001713814987773229,0.0009351575309329511,-0.0006004953900118594,-0.00026880343852310663,4.301620195376331e-05,0.0006494037360591274,0.0,0.0,0.0,0.0,0.0,0.0,0.0,0.00016372242744688847,8.511560205581858e-05,2.7126613160247982e-05,-8.887848387084674e-05,-8.545514253456565e-05,-5.005836479421433e-05,-6.109330821124637e-06,0.0005724430113131049,0.0001713814987773229,-0.0009351575309329511,0.0006004953900118594,0.00026880343852310663,-4.301620195376331e-05,-0.0006494037360591274,0.19667929410934448,19.768823623657227,0.2721221148967743,-19.983552932739258,-0.6658836007118225,-2.4630770683288574,0.29605430364608765,0
34,0.1650376319885254,-0.19667929410934448,-19.768823623657227,-0.2721221148967743,19.983552932739258,0.6658836007118225,2.4630770683288574,-0.29605430364608765,0.0,0.0,0.0,0.0,0.0,0.0,0.0,-0.22361413999112498,-0.02526623788619745,-0.06279148044312867,0.19282551130132047,0.07691282983315763,0.09455668937054978,-0.27275264095117163,1.2132776713413105,-0.2203283471913143,-0.0075389552079794695,-2.6037595037159167,-0.10879847194445451,2.4682321841451116,0.8264810175820602,1.2134413937687574,-0.2202432315892585,-0.0075118285948192216,-2.6038483821997875,-0.10888392708698907,2.4681821257803174,0.826474908251239,-0.0005724430113131049,-0.0001713814987773229,0.0009351575309329511,-0.0006004953900118594,-0.00026880343852310663,4.301620195376331e-05,0.0006494037360591274,0.0,0.0,0.0,0.0,0.0,0.0,0.0,0.00016372242744688847,8.511560205581858e-05,2.7126613160247982e-05,-8.887848387084674e-05,-8.545514253456565e-05,-5.005836479421433e-05,-6.109330821124637e-06,0.0005724430113131049,0.0001713814987773229,-0.0009351575309329511,0.0006004953900118594,0.00026880343852310663,-4.301620195376331e-05,-0.0006494037360591274,0.19667929410934448,19.768823623657227,0.2721221148967743,-19.983552932739258,-0.6658836007118225,-2.4630770683288574,0.29605430364608765,0
35,0.17002415657043457,-0.22445029020309448,-19.745019912719727,-0.2245146930217743,20.007356643676758,0.6713767647743225,2.4694857597351074,-0.25485557317733765,0.0,0.0,0.0,0.0,0.0,0.0,0.0,-0.22010671276562888,-0.01861802918225201,-0.060010789918833775,0.18852234702872925,0.07672104972196771,0.09388164799167903,-0.2739375071830417,1.2132796201831415,-0.22033143586536036,-0.007542296079689996,-2.603761174151772,-0.10879668655483395,2.4682314720683625,0.826479614284624,1.2134413937687574,-0.2202432315892585,-0.0075118285948192216,-2.6038483821997875,-0.10888392708698907,2.4681821257803174,0.826474908251239,0.00027833764706509777,-0.00027166072936099604,-0.000478755183794207,-0.0011655420576681425,-0.00032373103106469764,3.5557332137756245e-06,-0.0008099962820982758,0.0,0.0,0.0,0.0,0.0,0.0,0.0,0.0001617735856158653,8.820427610187198e-05,3.0467484870774775e-05,-8.720804801543025e-05,-8.724053215512784e-05,-4.9346288045093445e-05,-4.706033384982433e-06,-0.00027833764706509777,0.00027166072936099604,0.000478755183794207,0.0011655420576681425,0.00032373103106469764,-3.5557332137756245e-06,0.0008099962820982758,0.22445029020309448,19.745019912719727,0.2245146930217743,-20.007356643676758,-0.6713767647743225,-2.4694857597351074,0.25485557317733765,0
36,0.17503666877746582,-0.22445029020309448,-19.745019912719727,-0.2245146930217743,20.007356643676758,0.6713767647743225,2.4694857597351074,-0.25485557317733765,0.0,0.0,0.0,0.0,0.0,0.0,0.0,-0.22010671276562888,-0.01861802918225201,-0.060010789918833775,0.18852234702872925,0.07672104972196771,0.09388164799167903,-0.2739375071830417,1.2132796201831415,-0.22033143586536036,-0.007542296079689996,-2.603761174151772,-0.10879668655483395,2.4682314720683625,0.826479614284624,1.2134413937687574,-0.2202432315892585,-0.0075118285948192216,-2.6038483821997875,-0.10888392708698907,2.4681821257803174,0.826474908251239,0.00027833764706509777,-0.00027166072936099604,-0.000478755183794207,-0.0011655420576681425,-0.00032373103106469764,3.5557332137756245e-06,-0.0008099962820982758,0.0,0.0,0.0,0.0,0.0,0.0,0.0,0.0001617735856158653,8.820427610187198e-05,3.0467484870774775e-05,-8.720804801543025e-05,-8.724053215512784e-05,-4.9346288045093445e-05,-4.706033384982433e-06,-0.00027833764706509777,0.00027166072936099604,0.000478755183794207,0.0011655420576681425,0.00032373103106469764,-3.5557332137756245e-06,0.0008099962820982758,0.22445029020309448,19.745019912719727,0.2245146930217743,-20.007356643676758,-0.6713767647743225,-2.4694857597351074,0.25485557317733765,0
37,0.18001699447631836,-0.17287558317184448,-19.768823623657227,-0.2483184039592743,19.931978225708008,0.6658836007118225,2.4694857597351074,-0.29605430364608765,0.0,0.0,0.0,0.0,0.0,0.0,0.0,-0.2207771505525037,-0.02021529406552873,-0.05854740182903077,0.18785043789558376,0.07692934110511652,0.09423683223766262,-0.2739958079043363,1.2132760009054553,-0.22033047409718998,-0.007540625643834733,-2.6037558844382303,-0.1087948782466542,2.4682314720683625,0.8264831324985457,1.2134413937687574,-0.2202432315892585,-0.0075118285948192216,-2.6038483821997875,-0.10888392708698907,2.4681821257803174,0.826474908251239,-0.0011957876709362328,0.00028612375296767204,-5.0310167710214725e-05,0.0005144602940771217,-0.00018014320906087835,-9.868825244630898e-05,0.0011783302334700716,0.0,0.0,0.0,0.0,0.0,0.0,0.0,0.00016539286330208292,8.72425079314898e-05,2.8797049015511812e-05,-9.24977615572864e-05,-8.904884033487936e-05,-4.9346288045093445e-05,-8.224247306620747e-06,0.0011957876709362328,-0.00028612375296767204,5.0310167710214725e-05,-0.0005144602940771217,0.00018014320906087835,9.868825244630898e-05,-0.0011783302334700716,0.17287558317184448,19.768823623657227,0.2483184039592743,-19.931978225708008,-0.6658836007118225,-2.4694857597351074,0.29605430364608765,0
38,0.18503546714782715,-0.17287558317184448,-19.768823623657227,-0.2483184039592743,19.931978225708008,0.6658836007118225,2.4694857597351074,-0.29605430364608765,0.0,0.0,0.0,0.0,0.0,0.0,0.0,-0.2207771505525037,-0.02021529406552873,-0.05854740182903077,0.18785043789558376,0.07692934110511652,0.09423683223766262,-0.2739958079043363,1.2132760009054553,-0.22033047409718998,-0.007540625643834733,-2.6037558844382303,-0.1087948782466542,2.4682314720683625,0.8264831324985457,1.2134413937687574,-0.2202432315892585,-0.0075118285948192216,-2.6038483821997875,-0.10888392708698907,2.4681821257803174,0.826474908251239,-0.0011957876709362328,0.00028612375296767204,-5.0310167710214725e-05,0.0005144602940771217,-0.00018014320906087835,-9.868825244630898e-05,0.0011783302334700716,0.0,0.0,0.0,0.0,0.0,0.0,0.0,0.00016539286330208292,8.72425079314898e-05,2.8797049015511812e-05,-9.24977615572864e-05,-8.904884033487936e-05,-4.9346288045093445e-05,-8.224247306620747e-06,0.0011957876709362328,-0.00028612375296767204,5.0310167710214725e-05,-0.0005144602940771217,0.00018014320906087835,9.868825244630898e-05,-0.0011783302334700716,0.17287558317184448,19.768823623657227,0.2483184039592743,-19.931978225708008,-0.6658836007118225,-2.4694857597351074,0.29605430364608765,0
39,0.19002175331115723,-0.22445029020309448,-19.768823623657227,-0.2721221148967743,19.983552932739258,0.6594749093055725,2.4630770683288574,-0.28232139348983765,0.0,0.0,0.0,0.0,0.0,0.0,0.0,-0.2218889151309104,-0.017867997177915252,-0.06018671441357238,0.18693243522938038,0.07675392512792135,0.09415363863616218,-0.27266067439177183,1.2132796201831415,-0.22033044785285683,-0.0075389552079794695,-2.6037595037159167,-0.1087941661675771,2.4682321841451853,0.8264783927602126,1.2134413937687574,-0.2202432315892585,-0.0075118285948192216,-2.6038483821997875,-0.10888392708698907,2.4681821257803174,0.826474908251239,-4.0711626984281026e-05,0.0004467376107968398,-9.015868533219806e-05,-0.0006383102115133019,-2.011498879326688e-05,0.0001021410938204474,0.00013241517813208787,0.0,0.0,0.0,0.0,0.0,0.0,0.0,0.0001617735856158653,8.721626359833867e-05,2.7126613160247982e-05,-8.887848387084674e-05,-8.97609194119714e-05,-5.0058364867933136e-05,-3.4845089735835444e-06,4.0711626984281026e-05,-0.0004467376107968398,9.015868533219806e-05,0.0006383102115133019,2.011498879326688e-05,-0.0001021410938204474,-0.00013241517813208787,0.22445029020309448,19.768823623657227,0.2721221148967743,-19.983552932739258,-0.6594749093055725,-2.4630770683288574,0.28232139348983765,0
40,0.19506549835205078,-0.22445029020309448,-19.768823623657227,-0.2721221148967743,19.983552932739258,0.6594749093055725,2.4630770683288574,-0.28232139348983765,0.0,0.0,0.0,0.0,0.0,0.0,0.0,-0.2218889151309104,-0.017867997177915252,-0.06018671441357238,0.18693243522938038,0.07675392512792135,0.09415363863616218,-0.27266067439177183,1.2132796201831415,-0.22033044785285683,-0.0075389552079794695,-2.6037595037159167,-0.1087941661675771,2.4682321841451853,0.8264783927602126,1.2134413937687574,-0.2202432315892585,-0.0075118285948192216,-2.6038483821997875,-0.10888392708698907,2.4681821257803174,0.826474908251239,-4.0711626984281026e-05,0.0004467376107968398,-9.015868533219806e-05,-0.0006383102115133019,-2.011498879326688e-05,0.0001021410938204474,0.00013241517813208787,0.0,0.0,0.0,0.0,0.0,0.0,0.0,0.0001617735856158653,8.721626359833867e-05,2.7126613160247982e-05,-8.887848387084674e-05,-8.97609194119714e-05,-5.0058364867933136e-05,-3.4845089735835444e-06,4.0711626984281026e-05,-0.0004467376107968398,9.015868533219806e-05,0.0006383102115133019,2.011498879326688e-05,-0.0001021410938204474,-0.00013241517813208787,0.22445029020309448,19.768823623657227,0.2721221148967743,-19.983552932739258,-0.6594749093055725,-2.4630770683288574,0.28232139348983765,0
41,0.2000114917755127,-0.24825400114059448,-19.745019912719727,-0.2721221148967743,19.931978225708008,0.6777854561805725,2.4694857597351074,-0.27591270208358765,0.0,0.0,0.0,0.0,0.0,0.0,0.0,-0.2228389792238749,-0.02419804200255067,-0.05971816772551489,0.19023507875938503,0.0765162758333987,0.09497485706926137,-0.27245776828561064,1.213281290618997,-0.22033206288114424,-0.0075389552079794695,-2.6037558844382303,-0.10879766184508555,2.4682314720683625,0.8264819178341487,1.2134413937687574,-0.2202432315892585,-0.0075118285948192216,-2.6038483821997875,-0.10888392708698907,2.4681821257803174,0.826474908251239,0.00037186544412270994,-0.0008371292408829407,7.899830968860411e-05,0.000984193432500757,-0.000582845355058882,9.012762704026062e-05,0.0003399760814389625,0.0,0.0,0.0,0.0,0.0,0.0,0.0,0.00016010314976044882,8.883129188574923e-05,2.7126613160247982e-05,-9.24977615572864e-05,-8.626524190352702e-05,-4.9346288045093445e-05,-7.009582909667245e-06,-0.00037186544412270994,0.0008371292408829407,-7.899830968860411e-05,-0.000984193432500757,0.000582845355058882,-9.012762704026062e-05,-0.0003399760814389625,0.24825400114059448,19.745019912719727,0.2721221148967743,-19.931978225708008,-0.6777854561805725,-2.4694857597351074,0.27591270208358765,0
42,0.20503735542297363,-0.24825400114059448,-19.745019912719727,-0.2721221148967743,19.931978225708008,0.6777854561805725,2.4694857597351074,-0.27591270208358765,0.0,0.0,0.0,0.0,0.0,0.0,0.0,-0.2228389792238749,-0.02419804200255067,-0.05971816772551489,0.19023507875938503,0.0765162758333987,0.09497485706926137,-0.27245776828561064,1.213281290618997,-0.22033206288114424,-0.0075389552079794695,-2.6037558844382303,-0.10879766184508555,2.4682314720683625,0.8264819178341487,1.2134413937687574,-0.2202432315892585,-0.0075118285948192216,-2.6038483821997875,-0.10888392708698907,2.4681821257803174,0.826474908251239,0.00037186544412270994,-0.0008371292408829407,7.899830968860411e-05,0.000984193432500757,-0.000582845355058882,9.012762704026062e-05,0.0003399760814389625,0.0,0.0,0.0,0.0,0.0,0.0,0.0,0.00016010314976044882,8.883129188574923e-05,2.7126613160247982e-05,-9.24977615572864e-05,-8.626524190352702e-05,-4.9346288045093445e-05,-7.009582909667245e-06,-0.00037186544412270994,0.0008371292408829407,-7.899830968860411e-05,-0.000984193432500757,0.000582845355058882,-9.012762704026062e-05,-0.0003399760814389625,0.24825400114059448,19.745019912719727,0.2721221148967743,-19.931978225708008,-0.6777854561805725,-2.4694857597351074,0.27591270208358765,0
43,0.21001696586608887,-0.24825400114059448,-19.745019912719727,-0.2483184039592743,19.983552932739258,0.6539817452430725,2.4694857597351074,-0.30978721380233765,0.0,0.0,0.0,0.0,0.0,0.0,0.0,-0.22441858563687855,-0.016533989095643176,-0.06028140576110517,0.1888890435497223,0.07693124795844271,0.09473986954459246,-0.27286825752462807,1.213281290618997,-0.22033205280009258,-0.007540625643834733,-2.6037595037159167,-0.1087939556111452,2.4682314720683625,0.8264853559198432,1.2134413937687574,-0.2202432315892585,-0.0075118285948192216,-2.6038483821997875,-0.10888392708698907,2.4681821257803174,0.826474908251239,0.0007857302948246007,-0.0001580160382308084,-0.00037154881148874775,-0.0001174874440338519,0.00036841233646218394,8.768246270794477e-05,0.0020400180221092795,0.0,0.0,0.0,0.0,0.0,0.0,0.0,0.00016010314976044882,8.882121083408911e-05,2.8797049015511812e-05,-8.887848387084674e-05,-8.997147584387244e-05,-4.9346288045093445e-05,-1.0447668604141036e-05,-0.0007857302948246007,0.0001580160382308084,0.00037154881148874775,0.0001174874440338519,-0.00036841233646218394,-8.768246270794477e-05,-0.0020400180221092795,0.24825400114059448,19.745019912719727,0.2483184039592743,-19.983552932739258,-0.6539817452430725,-2.4694857597351074,0.30978721380233765,0
44,0.21501445770263672,-0.24825400114059448,-19.745019912719727,-0.2483184039592743,19.983552932739258,0.6539817452430725,2.4694857597351074,-0.30978721380233765,0.0,0.0,0.0,0.0,0.0,0.0,0.0,-0.22441858563687855,-0.016533989095643176,-0.06028140576110517,0.1888890435497223,0.07693124795844271,0.09473986954459246,-0.27286825752462807,1.213281290618997,-0.22033205280009258,-0.007540625643834733,-2.6037595037159167,-0.1087939556111452,2.4682314720683625,0.8264853559198432,1.2134413937687574,-0.2202432315892585,-0.0075118285948192216,-2.6038483821997875,-0.10888392708698907,2.4681821257803174,0.826474908251239,0.0007857302948246007,-0.0001580160382308084,-0.00037154881148874775,-0.0001174874440338519,0.00036841233646218394,8.768246270794477e-05,0.0020400180221092795,0.0,0.0,0.0,0.0,0.0,0.0,0.0,0.00016010314976044882,8.882121083408911e-05,2.8797049015511812e-05,-8.887848387084674e-05,-8.997147584387244e-05,-4.9346288045093445e-05,-1.0447668604141036e-05,-0.0007857302948246007,0.0001580160382308084,0.00037154881148874775,0.0001174874440338519,-0.00036841233646218394,-8.768246270794477e-05,-0.0020400180221092795,0.24825400114059448,19.745019912719727,0.2483184039592743,-19.983552932739258,-0.6539817452430725,-2.4694857597351074,0.30978721380233765,0
45,0.22002267837524414,-0.24825400114059448,-19.745019912719727,-0.2483184039592743,19.983552932739258,0.6539817452430725,2.4694857597351074,-0.30978721380233765,0.0,0.0,0.0,0.0,0.0,0.0,0.0,-0.22441858563687855,-0.016533989095643176,-0.06028140576110517,0.1888890435497223,0.07693124795844271,0.09473986954459246,-0.27286825752462807,1.213281290618997,-0.22033205280009258,-0.007540625643834733,-2.6037595037159167,-0.1087939556111452,2.4682314720683625,0.8264853559198432,1.2134413937687574,-0.2202432315892585,-0.0075118285948192216,-2.6038483821997875,-0.10888392708698907,2.4681821257803174,0.826474908251239,0.0007857302948246007,-0.0001580160382308084,-0.00037154881148874775,-0.0001174874440338519,0.00036841233646218394,8.768246270794477e-05,0.0020400180221092795,0.0,0.0,0.0,0.0,0.0,0.0,0.0,0.00016010314976044882,8.882121083408911e-05,2.8797049015511812e-05,-8.887848387084674e-05,-8.997147584387244e-05,-4.9346288045093445e-05,-1.0447668604141036e-05,-0.0007857302948246007,0.0001580160382308084,0.00037154881148874775,0.0001174874440338519,-0.00036841233646218394,-8.768246270794477e-05,-0.0020400180221092795,0.24825400114059448,19.745019912719727,0.2483184039592743,-19.983552932739258,-0.6539817452430725,-2.4694857597351074,0.30978721380233765,0
46,0.2250356674194336,-0.24825400114059448,-19.745019912719727,-0.2483184039592743,19.983552932739258,0.6539817452430725,2.4694857597351074,-0.30978721380233765,0.0,0.0,0.0,0.0,0.0,0.0,0.0,-0.22441858563687855,-0.016533989095643176,-0.06028140576110517,0.1888890435497223,0.07693124795844271,0.09473986954459246,-0.27286825752462807,1.213281290618997,-0.22033205280009258,-0.007540625643834733,-2.6037595037159167,-0.1087939556111452,2.4682314720683625,0.8264853559198432,1.2134413937687574,-0.2202432315892585,-0.0075118285948192216,-2.6038483821997875,-0.10888392708698907,2.4681821257803174,0.826474908251239,0.0007857302948246007,-0.0001580160382308084,-0.00037154881148874775,-0.0001174874440338519,0.00036841233646218394,8.768246270794477e-05,0.0020400180221092795,0.0,0.0,0.0,0.0,0.0,0.0,0.0,0.00016010314976044882,8.882121083408911e-05,2.8797049015511812e-05,-8.887848387084674e-05,-8.997147584387244e-05,-4.9346288045093445e-05,-1.0447668604141036e-05,-0.0007857302948246007,0.0001580160382308084,0.00037154881148874775,0.0001174874440338519,-0.00036841233646218394,-8.768246270794477e-05,-0.0020400180221092795,0.24825400114059448,19.745019912719727,0.2483184039592743,-19.983552932739258,-0.6539817452430725,-2.4694857597351074,0.30978721380233765,0
47,0.23002314567565918,-0.22445029020309448,-19.745019912719727,-0.2721221148967743,19.955781936645508,0.6658836007118225,2.4694857597351074,-0.24844686686992645,0.0,0.0,0.0,0.0,0.0,0.0,0.0,-0.21979295450762446,-0.017080623081330785,-0.05789440058936001,0.19034536657891252,0.07720262113263601,0.0953872932364546,-0.27214723480876624,1.2132796201831415,-0.22033001733878158,-0.0075389552079794695,-2.6037575548740857,-0.10879523512958103,2.4682314720683625,0.8264789067800682,1.2134413937687574,-0.2202432315892585,-0.0075118285948192216,-2.6038483821997875,-0.10888392708698907,2.4681821257803174,0.826474908251239,0.0006289597851234233,-3.2628808658988174e-05,0.007303765491146105,0.0005828012606382941,-9.999901982903813e-05,-2.4422928143241467e-05,-0.0011539663824946564,0.0,0.0,0.0,0.0,0.0,0.0,0.0,0.0001617735856158653,8.678574952308837e-05,2.7126613160247982e-05,-9.082732570186991e-05,-8.869195740804359e-05,-4.9346288045093445e-05,-3.9985288291521925e-06,-0.0006289597851234233,3.2628808658988174e-05,-0.007303765491146105,-0.0005828012606382941,9.999901982903813e-05,2.4422928143241467e-05,0.0011539663824946564,0.22445029020309448,19.745019912719727,0.2721221148967743,-19.955781936645508,-0.6658836007118225,-2.4694857597351074,0.24844686686992645,0
48,0.23503494262695312,-0.22445029020309448,-19.745019912719727,-0.2721221148967743,19.955781936645508,0.6658836007118225,2.4694857597351074,-0.24844686686992645,0.0,0.0,0.0,0.0,0.0,0.0,0.0,-0.21979295450762446,-0.017080623081330785,-0.05789440058936001,0.19034536657891252,0.07720262113263601,0.0953872932364546,-0.27214723480876624,1.2132796201831415,-0.22033001733878158,-0.0075389552079794695,-2.6037575548740857,-0.10879523512958103,2.4682314720683625,0.8264789067800682,1.2134413937687574,-0.2202432315892585,-0.0075118285948192216,-2.6038483821997875,-0.10888392708698907,2.4681821257803174,0.826474908251239,0.0006289597851234233,-3.2628808658988174e-05,0.007303765491146105,0.0005828012606382941,-9.999901982903813e-05,-2.4422928143241467e-05,-0.0011539663824946564,0.0,0.0,0.0,0.0,0.0,0.0,0.0,0.0001617735856158653,8.678574952308837e-05,2.7126613160247982e-05,-9.082732570186991e-05,-8.869195740804359e-05,-4.9346288045093445e-05,-3.9985288291521925e-06,-0.0006289597851234233,3.2628808658988174e-05,-0.007303765491146105,-0.0005828012606382941,9.999901982903813e-05,2.4422928143241467e-05,0.0011539663824946564,0.22445029020309448,19.745019912719727,0.2721221148967743,-19.955781936645508,-0.6658836007118225,-2.4694857597351074,0.24844686686992645,0
49,0.24001288414001465,-0.19667929410934448,-19.792627334594727,-0.2998931109905243,19.955781936645508,0.6594749093055725,2.4630770683288574,-0.24844686686992645,0.0,0.0,0.0,0.0,0.0,0.0,0.0,-0.24767445668090018,-0.015603484677871326,-0.08641077923880254,0.191822458779094,0.07863775177897049,0.09526005414696638,-0.2729602738188251,1.2132776713413105,-0.22032880361465781,-0.007537006366148329,-2.6037575548740857,-0.10879736934009948,2.4682321972271377,0.8264788937001847,1.2134413937687574,-0.2202432315892585,-0.0075118285948192216,-2.6038483821997875,-0.10888392708698907,2.4681821257803174,0.826474908251239,-0.0001818498302157253,0.0011329358098106333,0.0009395768536466459,0.00046990849711556296,7.580038644103087e-05,0.00011092651428460622,-0.0010422770692537844,0.0,0.0,0.0,0.0,0.0,0.0,0.0,0.00016372242744688847,8.557202539932751e-05,2.5177771329107715e-05,-9.082732570186991e-05,-8.655774688959283e-05,-5.007144682034337e-05,-3.985448945642567e-06,0.0001818498302157253,-0.0011329358098106333,-0.0009395768536466459,-0.00046990849711556296,-7.580038644103087e-05,-0.00011092651428460622,0.0010422770692537844,0.19667929410934448,19.792627334594727,0.2998931109905243,-19.955781936645508,-0.6594749093055725,-2.4630770683288574,0.24844686686992645,0
50,0.24501824378967285,-0.19667929410934448,-19.792627334594727,-0.2998931109905243,19.955781936645508,0.6594749093055725,2.4630770683288574,-0.24844686686992645,0.0,0.0,0.0,0.0,0.0,0.0,0.0,-0.24767445668090018,-0.015603484677871326,-0.08641077923880254,0.191822458779094,0.07863775177897049,0.09526005414696638,-0.2729602738188251,1.2132776713413105,-0.22032880361465781,-0.007537006366148329,-2.6037575548740857,-0.10879736934009948,2.4682321972271377,0.8264788937001847,1.2134413937687574,-0.2202432315892585,-0.0075118285948192216,-2.6038483821997875,-0.10888392708698907,2.4681821257803174,0.826474908251239,-0.0001818498302157253,0.0011329358098106333,0.0009395768536466459,0.00046990849711556296,7.580038644103087e-05,0.00011092651428460622,-0.0010422770692537844,0.0,0.0,0.0,0.0,0.0,0.0,0.0,0.00016372242744688847,8.557202539932751e-05,2.5177771329107715e-05,-9.082732570186991e-05,-8.655774688959283e-05,-5.007144682034337e-05,-3.985448945642567e-06,0.0001818498302157253,-0.0011329358098106333,-0.0009395768536466459,-0.00046990849711556296,-7.580038644103087e-05,-0.00011092651428460622,0.0010422770692537844,0.19667929410934448,19.792627334594727,0.2998931109905243,-19.955781936645508,-0.6594749093055725,-2.4630770683288574,0.24844686686992645,0
51,0.25003528594970703,-0.24825400114059448,-19.768823623657227,-0.3236968219280243,19.955781936645508,0.6594749093055725,2.4823031425476074,-0.30978721380233765,0.0,0.0,0.0,0.0,0.0,0.0,0.0,-0.25535237873417166,-0.015826293995914092,-0.09709348881026333,0.18954298145651544,0.07897100255188995,0.09439442192331028,-0.2720633643322453,1.213281290618997,-0.22032834528334103,-0.007535335930293066,-2.6037575548740857,-0.1087941661856591,2.4682300479147905,0.826485718015516,1.2134413937687574,-0.2202432315892585,-0.0075118285948192216,-2.6038483821997875,-0.10888392708698907,2.4681821257803174,0.826474908251239,0.0005650633481471961,0.00030408774969972936,0.003184335007015242,-0.00018801683894523207,0.00027089930831940886,-0.000620711896875931,0.0017938276190565118,0.0,0.0,0.0,0.0,0.0,0.0,0.0,0.00016010314976044882,8.511369408253922e-05,2.3507335473844752e-05,-9.082732570186991e-05,-8.976090132997716e-05,-4.792213447313287e-05,-1.0809764276920042e-05,-0.0005650633481471961,-0.00030408774969972936,-0.003184335007015242,0.00018801683894523207,-0.00027089930831940886,0.000620711896875931,-0.0017938276190565118,0.24825400114059448,19.768823623657227,0.3236968219280243,-19.955781936645508,-0.6594749093055725,-2.4823031425476074,0.30978721380233765,0
52,0.2550361156463623,-0.24825400114059448,-19.768823623657227,-0.3236968219280243,19.955781936645508,0.6594749093055725,2.4823031425476074,-0.30978721380233765,0.0,0.0,0.0,0.0,0.0,0.0,0.0,-0.25535237873417166,-0.015826293995914092,-0.09709348881026333,0.18954298145651544,0.07897100255188995,0.09439442192331028,-0.2720633643322453,1.213281290618997,-0.22032834528334103,-0.007535335930293066,-2.6037575548740857,-0.1087941661856591,2.4682300479147905,0.826485718015516,1.2134413937687574,-0.2202432315892585,-0.0075118285948192216,-2.6038483821997875,-0.10888392708698907,2.4681821257803174,0.826474908251239,0.0005650633481471961,0.00030408774969972936,0.003184335007015242,-0.00018801683894523207,0.00027089930831940886,-0.000620711896875931,0.0017938276190565118,0.0,0.0,0.0,0.0,0.0,0.0,0.0,0.00016010314976044882,8.511369408253922e-05,2.3507335473844752e-05,-9.082732570186991e-05,-8.976090132997716e-05,-4.792213447313287e-05,-1.0809764276920042e-05,-0.0005650633481471961,-0.00030408774969972936,-0.003184335007015242,0.00018801683894523207,-0.00027089930831940886,0.000620711896875931,-0.0017938276190565118,0.24825400114059448,19.768823623657227,0.3236968219280243,-19.955781936645508,-0.6594749093055725,-2.4823031425476074,0.30978721380233765,0
53,0.2600228786468506,-0.22445029020309448,-19.768823623657227,-0.2721221148967743,19.955781936645508,0.6594749093055725,2.4630770683288574,-0.28964561223983765,0.0,0.0,0.0,0.0,0.0,0.0,0.0,-0.21857274880102817,-0.0187049774387877,-0.05831461304852568,0.18862465391932115,0.07744419606201607,0.09608596285316376,-0.27211108560231717,1.2132796201831415,-0.22032968671650735,-0.007538245347506499,-2.6037576314035062,-0.10879772042464103,2.4682321841451857,0.8264834451746301,1.2134413937687574,-0.2202432315892585,-0.0075118285948192216,-2.6038483821997875,-0.10888392708698907,2.4681821257803174,0.826474908251239,7.841342983906389e-05,8.487466494264965e-05,0.0002626519438395994,0.0003281614431940223,0.00015549207594952114,0.0002588995759144722,0.0004587985383009414,0.0,0.0,0.0,0.0,0.0,0.0,0.0,0.0001617735856158653,8.64551272488634e-05,2.641675268727755e-05,-9.075079628129146e-05,-8.620666234804286e-05,-5.0058364868377225e-05,-8.536923391089246e-06,-7.841342983906389e-05,-8.487466494264965e-05,-0.0002626519438395994,-0.0003281614431940223,-0.00015549207594952114,-0.0002588995759144722,-0.0004587985383009414,0.22445029020309448,19.768823623657227,0.2721221148967743,-19.955781936645508,-0.6594749093055725,-2.4630770683288574,0.28964561223983765,0
54,0.26503825187683105,-0.22445029020309448,-19.768823623657227,-0.2721221148967743,19.955781936645508,0.6594749093055725,2.4630770683288574,-0.28964561223983765,0.0,0.0,0.0,0.0,0.0,0.0,0.0,-0.21857274880102817,-0.0187049774387877,-0.05831461304852568,0.18862465391932115,0.07744419606201607,0.09608596285316376,-0.27211108560231717,1.2132796201831415,-0.22032968671650735,-0.007538245347506499,-2.6037576314035062,-0.10879772042464103,2.4682321841451857,0.8264834451746301,1.2134413937687574,-0.2202432315892585,-0.0075118285948192216,-2.6038483821997875,-0.10888392708698907,2.4681821257803174,0.826474908251239,7.841342983906389e-05,8.487466494264965e-05,0.0002626519438395994,0.0003281614431940223,0.00015549207594952114,0.0002588995759144722,0.0004587985383009414,0.0,0.0,0.0,0.0,0.0,0.0,0.0,0.0001617735856158653,8.64551272488634e-05,2.641675268727755e-05,-9.075079628129146e-05,-8.620666234804286e-05,-5.0058364868377225e-05,-8.536923391089246e-06,-7.841342983906389e-05,-8.487466494264965e-05,-0.0002626519438395994,-0.0003281614431940223,-0.00015549207594952114,-0.0002588995759144722,-0.0004587985383009414,0.22445029020309448,19.768823623657227,0.2721221148967743,-19.955781936645508,-0.6594749093055725,-2.4630770683288574,0.28964561223983765,0
55,0.26999974250793457,-0.22445029020309448,-19.768823623657227,-0.2483184039592743,19.931978225708008,0.6594749093055725,2.4630770683288574,-0.27591270208358765,0.0,0.0,0.0,0.0,0.0,0.0,0.0,-0.2076512165066834,-0.018032118301212718,-0.046236579315236156,0.1850147443707203,0.07709192423800411,0.09624744354614129,-0.2720812122751641,1.2132796201831415,-0.22033022816246173,-0.00754062563982755,-2.6037558844386623,-0.10879418081399034,2.4682321841451857,0.8264819585413836,1.2134413937687574,-0.2202432315892585,-0.0075118285948192216,-2.6038483821997875,-0.10888392708698907,2.4681821257803174,0.826474908251239,-0.00011060861160523013,0.00027486569193901656,-0.0003090218309388814,0.0008305518326229952,7.139406345161572e-05,0.0001971644863444621,-0.00015639766097376887,0.0,0.0,0.0,0.0,0.0,0.0,0.0,0.0001617735856158653,8.699657320324072e-05,2.8797045008328338e-05,-9.24977611251876e-05,-8.974627299873639e-05,-5.0058364868377225e-05,-7.050290144583471e-06,0.00011060861160523013,-0.00027486569193901656,0.0003090218309388814,-0.0008305518326229952,-7.139406345161572e-05,-0.0001971644863444621,0.00015639766097376887,0.22445029020309448,19.768823623657227,0.2483184039592743,-19.931978225708008,-0.6594749093055725,-2.4630770683288574,0.27591270208358765,0
56,0.27503514289855957,-0.22445029020309448,-19.768823623657227,-0.2483184039592743,19.931978225708008,0.6594749093055725,2.4630770683288574,-0.27591270208358765,0.0,0.0,0.0,0.0,0.0,0.0,0.0,-0.2076512165066834,-0.018032118301212718,-0.046236579315236156,0.1850147443707203,0.07709192423800411,0.09624744354614129,-0.2720812122751641,1.2132796201831415,-0.22033022816246173,-0.00754062563982755,-2.6037558844386623,-0.10879418081399034,2.4682321841451857,0.8264819585413836,1.2134413937687574,-0.2202432315892585,-0.0075118285948192216,-2.6038483821997875,-0.10888392708698907,2.4681821257803174,0.826474908251239,-0.00011060861160523013,0.00027486569193901656,-0.0003090218309388814,0.0008305518326229952,7.139406345161572e-05,0.0001971644863444621,-0.00015639766097376887,0.0,0.0,0.0,0.0,0.0,0.0,0.0,0.0001617735856158653,8.699657320324072e-05,2.8797045008328338e-05,-9.24977611251876e-05,-8.974627299873639e-05,-5.0058364868377225e-05,-7.050290144583471e-06,0.00011060861160523013,-0.00027486569193901656,0.0003090218309388814,-0.0008305518326229952,-7.139406345161572e-05,-0.0001971644863444621,0.00015639766097376887,0.22445029020309448,19.768823623657227,0.2483184039592743,-19.931978225708008,-0.6594749093055725,-2.4630770683288574,0.27591270208358765,0
57,0.2800278663635254,-0.22445029020309448,-19.745019912719727,-0.2245146930217743,19.983552932739258,0.6658836007118225,2.4630770683288574,-0.27591270208358765,0.0,0.0,0.0,0.0,0.0,0.0,0.0,-0.2101972106146185,-0.02206432159841207,-0.04832409632810062,0.18763648476714925,0.07678592084380138,0.09709084375711201,-0.27387126011367996,1.2132796201831415,-0.22033190832199073,-0.007542296079689974,-2.6037595037159167,-0.10879523382728691,2.4682321841451857,0.8264819580570884,1.2134413937687574,-0.2202432315892585,-0.0075118285948192216,-2.6038483821997875,-0.10888392708698907,2.4681821257803174,0.826474908251239,1.0866652808184316e-05,-0.0006444041243888198,-0.0009804169934053645,3.368851936248288e-05,-0.0001385758946017705,0.0004956647657960393,-1.7777593781851273e-05,0.0,0.0,0.0,0.0,0.0,0.0,0.0,0.0001617735856158653,8.867673273224574e-05,3.0467484870752223e-05,-8.887848387084674e-05,-8.869325970216335e-05,-5.0058364868377225e-05,-7.049805849312918e-06,-1.0866652808184316e-05,0.0006444041243888198,0.0009804169934053645,-3.368851936248288e-05,0.0001385758946017705,-0.0004956647657960393,1.7777593781851273e-05,0.22445029020309448,19.745019912719727,0.2245146930217743,-19.983552932739258,-0.6658836007118225,-2.4630770683288574,0.27591270208358765,0
58,0.2850158214569092,-0.22445029020309448,-19.745019912719727,-0.2245146930217743,19.983552932739258,0.6658836007118225,2.4630770683288574,-0.27591270208358765,0.0,0.0,0.0,0.0,0.0,0.0,0.0,-0.2101972106146185,-0.02206432159841207,-0.04832409632810062,0.18763648476714925,0.07678592084380138,0.09709084375711201,-0.27387126011367996,1.2132796201831415,-0.22033190832199073,-0.007542296079689974,-2.6037595037159167,-0.10879523382728691,2.4682321841451857,0.8264819580570884,1.2134413937687574,-0.2202432315892585,-0.0075118285948192216,-2.6038483821997875,-0.10888392708698907,2.4681821257803174,0.826474908251239,1.0866652808184316e-05,-0.0006444041243888198,-0.0009804169934053645,3.368851936248288e-05,-0.0001385758946017705,0.0004956647657960393,-1.7777593781851273e-05,0.0,0.0,0.0,0.0,0.0,0.0,0.0,0.0001617735856158653,8.867673273224574e-05,3.0467484870752223e-05,-8.887848387084674e-05,-8.869325970216335e-05,-5.0058364868377225e-05,-7.049805849312918e-06,-1.0866652808184316e-05,0.0006444041243888198,0.0009804169934053645,-3.368851936248288e-05,0.0001385758946017705,-0.0004956647657960393,1.7777593781851273e-05,0.22445029020309448,19.745019912719727,0.2245146930217743,-19.983552932739258,-0.6658836007118225,-2.4630770683288574,0.27591270208358765,0
59,0.29000282287597656,-0.19667929410934448,-19.792627334594727,-0.2998931109905243,19.983552932739258,0.6658836007118225,2.4630770683288574,-0.30337852239608765,0.0,0.0,0.0,0.0,0.0,0.0,0.0,-0.2168380648294806,-0.018324494156007155,-0.0537213829409424,0.18412132159353742,0.0765650391802163,0.09651257849708363,-0.2758387206972933,1.2132776713413105,-0.22032880362533247,-0.00753699759842977,-2.6037595037159167,-0.10879819550243998,2.4682321841451857,0.8264838285630649,1.2134413937687574,-0.2202432315892585,-0.0075118285948192216,-2.6038483821997875,-0.10888392708698907,2.4681821257803174,0.826474908251239,-0.0006852455821730727,0.0010387895892474024,0.0007754089115580591,-0.0005904336875800221,-0.00040919335931904167,0.00018129858724608117,0.0012933763820305747,0.0,0.0,0.0,0.0,0.0,0.0,0.0,0.00016372242744688847,8.557203607398312e-05,2.5169003610548725e-05,-8.887848387084674e-05,-8.573158454909524e-05,-5.0058364868377225e-05,-8.920311825866278e-06,0.0006852455821730727,-0.0010387895892474024,-0.0007754089115580591,0.0005904336875800221,0.00040919335931904167,-0.00018129858724608117,-0.0012933763820305747,0.19667929410934448,19.792627334594727,0.2998931109905243,-19.983552932739258,-0.6658836007118225,-2.4630770683288574,0.30337852239608765,0
60,0.29503583908081055,-0.19667929410934448,-19.792627334594727,-0.2998931109905243,19.983552932739258,0.6658836007118225,2.4630770683288574,-0.30337852239608765,0.0,0.0,0.0,0.0,0.0,0.0,0.0,-0.2168380648294806,-0.018324494156007155,-0.0537213829409424,0.18412132159353742,0.0765650391802163,0.09651257849708363,-0.2758387206972933,1.2132776713413105,-0.22032880362533247,-0.00753699759842977,-2.6037595037159167,-0.10879819550243998,2.4682321841451857,0.8264838285630649,1.2134413937687574,-0.2202432315892585,-0.0075118285948192216,-2.6038483821997875,-0.10888392708698907,2.4681821257803174,0.826474908251239,-0.0006852455821730727,0.0010387895892474024,0.0007754089115580591,-0.0005904336875800221,-0.00040919335931904167,0.00018129858724608117,0.0012933763820305747,0.0,0.0,0.0,0.0,0.0,0.0,0.0,0.00016372242744688847,8.557203607398312e-05,2.5169003610548725e-05,-8.887848387084674e-05,-8.573158454909524e-05,-5.0058364868377225e-05,-8.920311825866278e-06,0.0006852455821730727,-0.0010387895892474024,-0.0007754089115580591,0.0005904336875800221,0.00040919335931904167,-0.00018129858724608117,-0.0012933763820305747,0.19667929410934448,19.792627334594727,0.2998931109905243,-19.983552932739258,-0.6658836007118225,-2.4630770683288574,0.30337852239608765,0
61,0.30002260208129883,-0.22445029020309448,-19.693445205688477,-0.2245146930217743,19.983552932739258,0.6594749093055725,2.4630770683288574,-0.26858848333358765,0.0,0.0,0.0,0.0,0.0,0.0,0.0,-0.21804251695751992,-0.01765284189967572,-0.056572755193830496,0.18557795229630902,0.07579915486787664,0.09660718326467038,-0.2753352109153148,1.2132796201831415,-0.22033576284000317,-0.007542296079640502,-2.6037595037159167,-0.10879452599449714,2.4682321841451857,0.8264800720127693,1.2134413937687574,-0.2202432315892585,-0.0075118285948192216,-2.6038483821997875,-0.10888392708698907,2.4681821257803174,0.826474908251239,-0.0001855769189737808,-0.0013412739421809598,-0.0010757919081978563,-0.000530434565401845,-0.00013503540671077542,0.00017216525149994763,-0.00032637892831375356,0.0,0.0,0.0,0.0,0.0,0.0,0.0,0.0001617735856158653,9.253125074468183e-05,3.0467484821280512e-05,-8.887848387084674e-05,-8.940109249193362e-05,-5.0058364868377225e-05,-5.163761530257993e-06,0.0001855769189737808,0.0013412739421809598,0.0010757919081978563,0.000530434565401845,0.00013503540671077542,-0.00017216525149994763,0.00032637892831375356,0.22445029020309448,19.693445205688477,0.2245146930217743,-19.983552932739258,-0.6594749093055725,-2.4630770683288574,0.26858848333358765,0
62,0.3050503730773926,-0.22445029020309448,-19.693445205688477,-0.2245146930217743,19.983552932739258,0.6594749093055725,2.4630770683288574,-0.26858848333358765,0.0,0.0,0.0,0.0,0.0,0.0,0.0,-0.21804251695751992,-0.01765284189967572,-0.056572755193830496,0.18557795229630902,0.07579915486787664,0.09660718326467038,-0.2753352109153148,1.2132796201831415,-0.22033576284000317,-0.007542296079640502,-2.6037595037159167,-0.10879452599449714,2.4682321841451857,0.8264800720127693,1.2134413937687574,-0.2202432315892585,-0.0075118285948192216,-2.6038483821997875,-0.10888392708698907,2.4681821257803174,0.826474908251239,-0.0001855769189737808,-0.0013412739421809598,-0.0010757919081978563,-0.000530434565401845,-0.00013503540671077542,0.00017216525149994763,-0.00032637892831375356,0.0,0.0,0.0,0.0,0.0,0.0,0.0,0.0001617735856158653,9.253125074468183e-05,3.0467484821280512e-05,-8.887848387084674e-05,-8.940109249193362e-05,-5.0058364868377225e-05,-5.163761530257993e-06,0.0001855769189737808,0.0013412739421809598,0.0010757919081978563,0.000530434565401845,0.00013503540671077542,-0.00017216525149994763,0.00032637892831375356,0.22445029020309448,19.693445205688477,0.2245146930217743,-19.983552932739258,-0.6594749093055725,-2.4630770683288574,0.26858848333358765,0
63,0.3100249767303467,-0.2720577120780945,-19.745019912719727,-0.2483184039592743,19.931978225708008,0.6658836007118225,2.4630770683288574,-0.25485557317733765,0.0,0.0,0.0,0.0,0.0,0.0,0.0,-0.21807675649038044,-0.02088871133485896,-0.05652954468332249,0.1890581937127003,0.07547964645507994,0.09684757820974751,-0.27465458851459884,1.2132829610548521,-0.22033213578581767,-0.007540625643834733,-2.6037558844382303,-0.10879500257040073,2.4682321841451857,0.8264796188545599,1.2134413937687574,-0.2202432315892585,-0.0075118285948192216,-2.6038483821997875,-0.10888392708698907,2.4681821257803174,0.826474908251239,0.0010277462137209493,-0.0003174284693466678,-0.0002762131049733891,0.0007942681177023883,-0.00036127384638932127,0.00012279830463405756,-0.0006099573095680896,0.0,0.0,0.0,0.0,0.0,0.0,0.0,0.00015843271390525437,8.890419655918635e-05,2.8797049015511812e-05,-9.24977615572864e-05,-8.892451658834566e-05,-5.0058364868377225e-05,-4.710603320856599e-06,-0.0010277462137209493,0.0003174284693466678,0.0002762131049733891,-0.0007942681177023883,0.00036127384638932127,-0.00012279830463405756,0.0006099573095680896,0.2720577120780945,19.745019912719727,0.2483184039592743,-19.931978225708008,-0.6658836007118225,-2.4630770683288574,0.25485557317733765,0
64,0.3150362968444824,-0.2720577120780945,-19.745019912719727,-0.2483184039592743,19.931978225708008,0.6658836007118225,2.4630770683288574,-0.25485557317733765,0.0,0.0,0.0,0.0,0.0,0.0,0.0,-0.21807675649038044,-0.02088871133485896,-0.05652954468332249,0.1890581937127003,0.07547964645507994,0.09684757820974751,-0.27465458851459884,1.2132829610548521,-0.22033213578581767,-0.007540625643834733,-2.6037558844382303,-0.10879500257040073,2.4682321841451857,0.8264796188545599,1.2134413937687574,-0.2202432315892585,-0.0075118285948192216,-2.6038483821997875,-0.10888392708698907,2.4681821257803174,0.826474908251239,0.0010277462137209493,-0.0003174284693466678,-0.0002762131049733891,0.0007942681177023883,-0.00036127384638932127,0.00012279830463405756,-0.0006099573095680896,0.0,0.0,0.0,0.0,0.0,0.0,0.0,0.00015843271390525437,8.890419655918635e-05,2.8797049015511812e-05,-9.24977615572864e-05,-8.892451658834566e-05,-5.0058364868377225e-05,-4.710603320856599e-06,-0.0010277462137209493,0.0003174284693466678,0.0002762131049733891,-0.0007942681177023883,0.00036127384638932127,-0.00012279830463405756,0.0006099573095680896,0.2720577120780945,19.745019912719727,0.2483184039592743,-19.931978225708008,-0.6658836007118225,-2.4630770683288574,0.25485557317733765,0
65,0.3200230598449707,-0.22445029020309448,-19.745019912719727,-0.2007109820842743,20.007356643676758,0.6594749093055725,2.4758944511413574,-0.26217979192733765,0.0,0.0,0.0,0.0,0.0,0.0,0.0,-0.22116691233139033,-0.011393486563289595,-0.055569690343858016,0.18470343633519454,0.0752099615327676,0.09555162159502906,-0.27364139954166355,1.2132796201831415,-0.22033119969033066,-0.007543966515545259,-2.603761174151772,-0.10879736495088187,2.46823075999154,0.8264768946675649,1.2134413937687574,-0.2202432315892585,-0.0075118285948192216,-2.6038483821997875,-0.10888392708698907,2.4681821257803174,0.826474908251239,-0.0003561483781795079,0.00014879679267812692,-0.0008547858359516087,-0.0013400052444360827,-3.0184117606711754e-05,-6.170158920201793e-05,-0.0009069918105620962,0.0,0.0,0.0,0.0,0.0,0.0,0.0,0.0001617735856158653,8.796810107217223e-05,3.213792072603774e-05,-8.720804801543025e-05,-8.65621361072072e-05,-4.863421122269784e-05,-1.9864163258720424e-06,0.0003561483781795079,-0.00014879679267812692,0.0008547858359516087,0.0013400052444360827,3.0184117606711754e-05,6.170158920201793e-05,0.0009069918105620962,0.22445029020309448,19.745019912719727,0.2007109820842743,-20.007356643676758,-0.6594749093055725,-2.4758944511413574,0.26217979192733765,0
66,0.32503557205200195,-0.22445029020309448,-19.745019912719727,-0.2007109820842743,20.007356643676758,0.6594749093055725,2.4758944511413574,-0.26217979192733765,0.0,0.0,0.0,0.0,0.0,0.0,0.0,-0.22116691233139033,-0.011393486563289595,-0.055569690343858016,0.18470343633519454,0.0752099615327676,0.09555162159502906,-0.27364139954166355,1.2132796201831415,-0.22033119969033066,-0.007543966515545259,-2.603761174151772,-0.10879736495088187,2.46823075999154,0.8264768946675649,1.2134413937687574,-0.2202432315892585,-0.0075118285948192216,-2.6038483821997875,-0.10888392708698907,2.4681821257803174,0.826474908251239,-0.0003561483781795079,0.00014879679267812692,-0.0008547858359516087,-0.0013400052444360827,-3.0184117606711754e-05,-6.170158920201793e-05,-0.0009069918105620962,0.0,0.0,0.0,0.0,0.0,0.0,0.0,0.0001617735856158653,8.796810107217223e-05,3.213792072603774e-05,-8.720804801543025e-05,-8.65621361072072e-05,-4.863421122269784e-05,-1.9864163258720424e-06,0.0003561483781795079,-0.00014879679267812692,0.0008547858359516087,0.0013400052444360827,3.0184117606711754e-05,6.170158920201793e-05,0.0009069918105620962,0.22445029020309448,19.745019912719727,0.2007109820842743,-20.007356643676758,-0.6594749093055725,-2.4758944511413574,0.26217979192733765,0
67,0.33002734184265137,-0.19667929410934448,-19.792627334594727,-0.2721221148967743,19.983552932739258,0.6539817452430725,2.4630770683288574,-0.28964561223983765,0.0,0.0,0.0,0.0,0.0,0.0,0.0,-0.2238010250424828,-0.021229328421113868,-0.05615162183702288,0.18993079434582494,0.07544217203150562,0.0969323365356295,-0.2743302124093865,1.2132776713413105,-0.22032880268527277,-0.0075389552079794695,-2.6037595037159167,-0.10879462258248446,2.4682321841451857,0.8264834844005392,1.2134413937687574,-0.2202432315892585,-0.0075118285948192216,-2.6038483821997875,-0.10888392708698907,2.4681821257803174,0.826474908251239,-0.0004892655512197311,0.000194066433002324,0.00026307815154779306,-0.0003660394116751228,0.00031645350130621156,0.0003540327463708442,0.0005857326960221742,0.0,0.0,0.0,0.0,0.0,0.0,0.0,0.00016372242744688847,8.557109601428636e-05,2.7126613160247982e-05,-8.887848387084674e-05,-8.930450450461702e-05,-5.0058364868377225e-05,-8.576149300165703e-06,0.0004892655512197311,-0.000194066433002324,-0.00026307815154779306,0.0003660394116751228,-0.00031645350130621156,-0.0003540327463708442,-0.0005857326960221742,0.19667929410934448,19.792627334594727,0.2721221148967743,-19.983552932739258,-0.6539817452430725,-2.4630770683288574,0.28964561223983765,0
68,0.3350358009338379,-0.19667929410934448,-19.792627334594727,-0.2721221148967743,19.983552932739258,0.6539817452430725,2.4630770683288574,-0.28964561223983765,0.0,0.0,0.0,0.0,0.0,0.0,0.0,-0.2238010250424828,-0.021229328421113868,-0.05615162183702288,0.18993079434582494,0.07544217203150562,0.0969323365356295,-0.2743302124093865,1.2132776713413105,-0.22032880268527277,-0.0075389552079794695,-2.6037595037159167,-0.10879462258248446,2.4682321841451857,0.8264834844005392,1.2134413937687574,-0.2202432315892585,-0.0075118285948192216,-2.6038483821997875,-0.10888392708698907,2.4681821257803174,0.826474908251239,-0.0004892655512197311,0.000194066433002324,0.00026307815154779306,-0.0003660394116751228,0.00031645350130621156,0.0003540327463708442,0.0005857326960221742,0.0,0.0,0.0,0.0,0.0,0.0,0.0,0.00016372242744688847,8.557109601428636e-05,2.7126613160247982e-05,-8.887848387084674e-05,-8.930450450461702e-05,-5.0058364868377225e-05,-8.576149300165703e-06,0.0004892655512197311,-0.000194066433002324,-0.00026307815154779306,0.0003660394116751228,-0.00031645350130621156,-0.0003540327463708442,-0.0005857326960221742,0.19667929410934448,19.792627334594727,0.2721221148967743,-19.983552932739258,-0.6539817452430725,-2.4630770683288574,0.28964561223983765,0
69,0.34002208709716797,-0.22445029020309448,-19.768823623657227,-0.2483184039592743,19.983552932739258,0.6658836007118225,2.4630770683288574,-0.23471395671367645,0.0,0.0,0.0,0.0,0.0,0.0,0.0,-0.224879637713836,-0.01539577534934832,-0.06206259726496813,0.1850685342147817,0.07586524814119924,0.09640734011040876,-0.2750169709598198,1.2132796201831415,-0.2203304731264562,-0.007540625643834733,-2.6037595037159167,-0.10879487879213859,2.4682321841451857,0.8264772631656606,1.2134413937687574,-0.2202432315892585,-0.0075118285948192216,-2.6038483821997875,-0.10888392708698907,2.4681821257803174,0.826474908251239,-0.00011657749109134534,0.00033431220122176854,-0.0006378547719372216,-0.0002584931221890657,-0.00025725008312541925,0.0001858756243533783,-0.0016491677026316401,0.0,0.0,0.0,0.0,0.0,0.0,0.0,0.0001617735856158653,8.724153719771865e-05,2.8797049015511812e-05,-8.887848387084674e-05,-8.90482948504856e-05,-5.0058364868377225e-05,-2.354914421576204e-06,0.00011657749109134534,-0.00033431220122176854,0.0006378547719372216,0.0002584931221890657,0.00025725008312541925,-0.0001858756243533783,0.0016491677026316401,0.22445029020309448,19.768823623657227,0.2483184039592743,-19.983552932739258,-0.6658836007118225,-2.4630770683288574,0.23471395671367645,0
70,0.34503650665283203,-0.22445029020309448,-19.768823623657227,-0.2483184039592743,19.983552932739258,0.6658836007118225,2.4630770683288574,-0.23471395671367645,0.0,0.0,0.0,0.0,0.0,0.0,0.0,-0.224879637713836,-0.01539577534934832,-0.06206259726496813,0.1850685342147817,0.07586524814119924,0.09640734011040876,-0.2750169709598198,1.2132796201831415,-0.2203304731264562,-0.007540625643834733,-2.6037595037159167,-0.10879487879213859,2.4682321841451857,0.8264772631656606,1.2134413937687574,-0.2202432315892585,-0.0075118285948192216,-2.6038483821997875,-0.10888392708698907,2.4681821257803174,0.826474908251239,-0.00011657749109134534,0.00033431220122176854,-0.0006378547719372216,-0.0002584931221890657,-0.00025725008312541925,0.0001858756243533783,-0.0016491677026316401,0.0,0.0,0.0,0.0,0.0,0.0,0.0,0.0001617735856158653,8.724153719771865e-05,2.8797049015511812e-05,-8.887848387084674e-05,-8.90482948504856e-05,-5.0058364868377225e-05,-2.354914421576204e-06,0.00011657749109134534,-0.00033431220122176854,0.0006378547719372216,0.0002584931221890657,0.00025725008312541925,-0.0001858756243533783,0.0016491677026316401,0.22445029020309448,19.768823623657227,0.2483184039592743,-19.983552932739258,-0.6658836007118225,-2.4630770683288574,0.23471395671367645,0
71,0.35001254081726074,-0.22445029020309448,-19.768823623657227,-0.2483184039592743,19.983552932739258,0.6658836007118225,2.4630770683288574,-0.23471395671367645,0.0,0.0,0.0,0.0,0.0,0.0,0.0,-0.224879637713836,-0.01539577534934832,-0.06206259726496813,0.1850685342147817,0.07586524814119924,0.09640734011040876,-0.2750169709598198,1.2132796201831415,-0.2203304731264562,-0.007540625643834733,-2.6037595037159167,-0.10879487879213859,2.4682321841451857,0.8264772631656606,1.2134413937687574,-0.2202432315892585,-0.0075118285948192216,-2.6038483821997875,-0.10888392708698907,2.4681821257803174,0.826474908251239,-0.00011657749109134534,0.00033431220122176854,-0.0006378547719372216,-0.0002584931221890657,-0.00025725008312541925,0.0001858756243533783,-0.0016491677026316401,0.0,0.0,0.0,0.0,0.0,0.0,0.0,0.0001617735856158653,8.724153719771865e-05,2.8797049015511812e-05,-8.887848387084674e-05,-8.90482948504856e-05,-5.0058364868377225e-05,-2.354914421576204e-06,0.00011657749109134534,-0.00033431220122176854,0.0006378547719372216,0.0002584931221890657,0.00025725008312541925,-0.0001858756243533783,0.0016491677026316401,0.22445029020309448,19.768823623657227,0.2483184039592743,-19.983552932739258,-0.6658836007118225,-2.4630770683288574,0.23471395671367645,0
72,0.35503482818603516,-0.22445029020309448,-19.768823623657227,-0.2483184039592743,19.983552932739258,0.6658836007118225,2.4630770683288574,-0.23471395671367645,0.0,0.0,0.0,0.0,0.0,0.0,0.0,-0.224879637713836,-0.01539577534934832,-0.06206259726496813,0.1850685342147817,0.07586524814119924,0.09640734011040876,-0.2750169709598198,1.2132796201831415,-0.2203304731264562,-0.007540625643834733,-2.6037595037159167,-0.10879487879213859,2.4682321841451857,0.8264772631656606,1.2134413937687574,-0.2202432315892585,-0.0075118285948192216,-2.6038483821997875,-0.10888392708698907,2.4681821257803174,0.826474908251239,-0.00011657749109134534,0.00033431220122176854,-0.0006378547719372216,-0.0002584931221890657,-0.00025725008312541925,0.0001858756243533783,-0.0016491677026316401,0.0,0.0,0.0,0.0,0.0,0.0,0.0,0.0001617735856158653,8.724153719771865e-05,2.8797049015511812e-05,-8.887848387084674e-05,-8.90482948504856e-05,-5.0058364868377225e-05,-2.354914421576204e-06,0.00011657749109134534,-0.00033431220122176854,0.0006378547719372216,0.0002584931221890657,0.00025725008312541925,-0.0001858756243533783,0.0016491677026316401,0.22445029020309448,19.768823623657227,0.2483184039592743,-19.983552932739258,-0.6658836007118225,-2.4630770683288574,0.23471395671367645,0
73,0.3600330352783203,-0.22445029020309448,-19.717248916625977,-0.2721221148967743,19.955781936645508,0.6594749093055725,2.4758944511413574,-0.28964561223983765,0.0,0.0,0.0,0.0,0.0,0.0,0.0,-0.21806140563994025,-0.01535061197297674,-0.057456864694329285,0.18751623521605848,0.07602588893837622,0.09637127730601248,-0.27395022513996226,1.2132796201831415,-0.2203317312662077,-0.007539034153527648,-2.6037575548740857,-0.10879417071799999,2.468230755630889,0.8264834829662965,1.2134413937687574,-0.2202432315892585,-0.0075118285948192216,-2.6038483821997875,-0.10888392708698907,2.4681821257803174,0.826474908251239,4.228317164034282e-06,-0.0001305453735757244,0.0005640819609010255,0.0008291051230439365,-1.2656943168028235e-05,-0.0005316504400151623,0.0002065393380949854,0.0,0.0,0.0,0.0,0.0,0.0,0.0,0.0001617735856158653,8.849967694921079e-05,2.720555870842651e-05,-9.082732570186991e-05,-8.975636898908568e-05,-4.86298505717464e-05,-8.574715057441118e-06,-4.228317164034282e-06,0.0001305453735757244,-0.0005640819609010255,-0.0008291051230439365,1.2656943168028235e-05,0.0005316504400151623,-0.0002065393380949854,0.22445029020309448,19.717248916625977,0.2721221148967743,-19.955781936645508,-0.6594749093055725,-2.4758944511413574,0.28964561223983765,0
74,0.3650379180908203,-0.22445029020309448,-19.717248916625977,-0.2721221148967743,19.955781936645508,0.6594749093055725,2.4758944511413574,-0.28964561223983765,0.0,0.0,0.0,0.0,0.0,0.0,0.0,-0.21806140563994025,-0.01535061197297674,-0.057456864694329285,0.18751623521605848,0.07602588893837622,0.09637127730601248,-0.27395022513996226,1.2132796201831415,-0.2203317312662077,-0.007539034153527648,-2.6037575548740857,-0.10879417071799999,2.468230755630889,0.8264834829662965,1.2134413937687574,-0.2202432315892585,-0.0075118285948192216,-2.6038483821997875,-0.10888392708698907,2.4681821257803174,0.826474908251239,4.228317164034282e-06,-0.0001305453735757244,0.0005640819609010255,0.0008291051230439365,-1.2656943168028235e-05,-0.0005316504400151623,0.0002065393380949854,0.0,0.0,0.0,0.0,0.0,0.0,0.0,0.0001617735856158653,8.849967694921079e-05,2.720555870842651e-05,-9.082732570186991e-05,-8.975636898908568e-05,-4.86298505717464e-05,-8.574715057441118e-06,-4.228317164034282e-06,0.0001305453735757244,-0.0005640819609010255,-0.0008291051230439365,1.2656943168028235e-05,0.0005316504400151623,-0.0002065393380949854,0.22445029020309448,19.717248916625977,0.2721221148967743,-19.955781936645508,-0.6594749093055725,-2.4758944511413574,0.28964561223983765,0
75,0.3700273036956787,-0.24825400114059448,-19.768823623657227,-0.2483184039592743,19.983552932739258,0.6658836007118225,2.4493441581726074,-0.24112264811992645,0.0,0.0,0.0,0.0,0.0,0.0,0.0,-0.2225776426369748,-0.018309046983283523,-0.06070647517651013,0.1890041558813327,0.07618502610259446,0.0954331107959356,-0.2746919171705051,1.213281290618997,-0.22032975670363472,-0.007540625644280383,-2.6037615700102688,-0.1087948782444257,2.468233710024067,0.8264748748198008,1.2134413937687574,-0.2202432315892585,-0.0075118285948192216,-2.6038483821997875,-0.10888392708698907,2.4681821257803174,0.826474908251239,0.00046318659996952776,0.0005575674039277557,-0.00048639521756645946,-0.0004255761879267845,-0.0002745611090828627,0.00043746534177914974,-0.0015025329548089027,0.0,0.0,0.0,0.0,0.0,0.0,0.0,0.00016010314976044882,8.652511437623467e-05,2.8797049461161406e-05,-8.681218951878122e-05,-8.904884256337453e-05,-5.158424374984705e-05,3.343143828438144e-08,-0.00046318659996952776,-0.0005575674039277557,0.00048639521756645946,0.0004255761879267845,0.0002745611090828627,-0.00043746534177914974,0.0015025329548089027,0.24825400114059448,19.768823623657227,0.2483184039592743,-19.983552932739258,-0.6658836007118225,-2.4493441581726074,0.24112264811992645,0
76,0.37504029273986816,-0.24825400114059448,-19.768823623657227,-0.2483184039592743,19.983552932739258,0.6658836007118225,2.4493441581726074,-0.24112264811992645,0.0,0.0,0.0,0.0,0.0,0.0,0.0,-0.2225776426369748,-0.018309046983283523,-0.06070647517651013,0.1890041558813327,0.07618502610259446,0.0954331107959356,-0.2746919171705051,1.213281290618997,-0.22032975670363472,-0.007540625644280383,-2.6037615700102688,-0.1087948782444257,2.468233710024067,0.8264748748198008,1.2134413937687574,-0.2202432315892585,-0.0075118285948192216,-2.6038483821997875,-0.10888392708698907,2.4681821257803174,0.826474908251239,0.00046318659996952776,0.0005575674039277557,-0.00048639521756645946,-0.0004255761879267845,-0.0002745611090828627,0.00043746534177914974,-0.0015025329548089027,0.0,0.0,0.0,0.0,0.0,0.0,0.0,0.00016010314976044882,8.652511437623467e-05,2.8797049461161406e-05,-8.681218951878122e-05,-8.904884256337453e-05,-5.158424374984705e-05,3.343143828438144e-08,-0.00046318659996952776,-0.0005575674039277557,0.00048639521756645946,0.0004255761879267845,0.0002745611090828627,-0.00043746534177914974,0.0015025329548089027,0.24825400114059448,19.768823623657227,0.2483184039592743,-19.983552932739258,-0.6658836007118225,-2.4493441581726074,0.24112264811992645,0
77,0.3800218105316162,-0.22445029020309448,-19.745019912719727,-0.2245146930217743,19.983552932739258,0.6658836007118225,2.4694857597351074,-0.30337852239608765,0.0,0.0,0.0,0.0,0.0,0.0,0.0,-0.21954672918616672,-0.011965164465285779,-0.05783425778495136,0.1883070897570677,0.07587398547717986,0.09357494999473623,-0.274573800584016,1.2132796201831415,-0.22033000988277646,-0.007542296079689999,-2.603759503727581,-0.10879487878611666,2.4682314720683625,0.826484969581844,1.2134413937687574,-0.2202432315892585,-0.0075118285948192216,-2.6038483821997875,-0.10888392708698907,2.4681821257803174,0.826474908251239,0.0004324414667329429,0.00013438295037187728,-0.0007093304090743834,-0.00039467148763760334,-0.00031525237741933984,-0.00010925567534680972,0.0017842319502519109,0.0,0.0,0.0,0.0,0.0,0.0,0.0,0.0001617735856158653,8.677829351796951e-05,3.0467484870777377e-05,-8.887847220639955e-05,-8.904830087241855e-05,-4.9346288045093445e-05,-1.006133060499348e-05,-0.0004324414667329429,-0.00013438295037187728,0.0007093304090743834,0.00039467148763760334,0.00031525237741933984,0.00010925567534680972,-0.0017842319502519109,0.22445029020309448,19.745019912719727,0.2245146930217743,-19.983552932739258,-0.6658836007118225,-2.4694857597351074,0.30337852239608765,0
78,0.3850250244140625,-0.22445029020309448,-19.745019912719727,-0.2245146930217743,19.983552932739258,0.6658836007118225,2.4694857597351074,-0.30337852239608765,0.0,0.0,0.0,0.0,0.0,0.0,0.0,-0.21954672918616672,-0.011965164465285779,-0.05783425778495136,0.1883070897570677,0.07587398547717986,0.09357494999473623,-0.274573800584016,1.2132796201831415,-0.22033000988277646,-0.007542296079689999,-2.603759503727581,-0.10879487878611666,2.4682314720683625,0.826484969581844,1.2134413937687574,-0.2202432315892585,-0.0075118285948192216,-2.6038483821997875,-0.10888392708698907,2.4681821257803174,0.826474908251239,0.0004324414667329429,0.00013438295037187728,-0.0007093304090743834,-0.00039467148763760334,-0.00031525237741933984,-0.00010925567534680972,0.0017842319502519109,0.0,0.0,0.0,0.0,0.0,0.0,0.0,0.0001617735856158653,8.677829351796951e-05,3.0467484870777377e-05,-8.887847220639955e-05,-8.904830087241855e-05,-4.9346288045093445e-05,-1.006133060499348e-05,-0.0004324414667329429,-0.00013438295037187728,0.0007093304090743834,0.00039467148763760334,0.00031525237741933984,0.00010925567534680972,-0.0017842319502519109,0.22445029020309448,19.745019912719727,0.2245146930217743,-19.983552932739258,-0.6658836007118225,-2.4694857597351074,0.30337852239608765,0
79,0.39002037048339844,-0.19667929410934448,-19.717248916625977,-0.2721221148967743,19.983552932739258,0.6594749093055725,2.4758944511413574,-0.26858848333358765,0.0,0.0,0.0,0.0,0.0,0.0,0.0,-0.21545989617504135,-0.017581485007998086,-0.05475793173071737,0.1948558875436483,0.07592033624830456,0.09400784160008067,-0.2739102216953479,1.2132776713413105,-0.22033409336415966,-0.0075389552079794695,-2.6037595037159167,-0.10879429049154964,2.4682307599915396,0.8264811054934352,1.2134413937687574,-0.2202432315892585,-0.0075118285948192216,-2.6038483821997875,-0.10888392708698907,2.4681821257803174,0.826474908251239,0.00037180378136660887,-0.0010456902129270143,0.00034435551874316026,-7.289011619682327e-05,2.9794625342955427e-05,-0.0002873085878884948,-0.0005240771030589438,0.0,0.0,0.0,0.0,0.0,0.0,0.0,0.00016372242744688847,9.086177490116865e-05,2.7126613160247982e-05,-8.887848387084674e-05,-8.963659543943792e-05,-4.8634211222253754e-05,-6.197242196193109e-06,-0.00037180378136660887,0.0010456902129270143,-0.00034435551874316026,7.289011619682327e-05,-2.9794625342955427e-05,0.0002873085878884948,0.0005240771030589438,0.19667929410934448,19.717248916625977,0.2721221148967743,-19.983552932739258,-0.6594749093055725,-2.4758944511413574,0.26858848333358765,0
