rezayati/contactInterpretation/dataset/franka_main/labeled_data/link5/c12_6.csv
index,time,tau_J0,tau_J1,tau_J2,tau_J3,tau_J4,tau_J5,tau_J6,tau_J_d0,tau_J_d1,tau_J_d2,tau_J_d3,tau_J_d4,tau_J_d5,tau_J_d6,tau_ext0,tau_ext1,tau_ext2,tau_ext3,tau_ext4,tau_ext5,tau_ext6,q0,q1,q2,q3,q4,q5,q6,q_d0,q_d1,q_d2,q_d3,q_d4,q_d5,q_d6,dq0,dq1,dq2,dq3,dq4,dq5,dq6,dq_d0,dq_d1,dq_d2,dq_d3,dq_d4,dq_d5,dq_d6,e0,e1,e2,e3,e4,e5,e6,de0,de1,de2,de3,de4,de5,de6,etau_J0,etau_J1,etau_J2,etau_J3,etau_J4,etau_J5,etau_J6,label
1,0.0,-0.06972616910934448,-18.154138565063477,0.9180634021759033,18.122896194458008,0.3555198311805725,2.2488436698913574,-0.20724813640117645,0.0,0.0,0.0,0.0,0.0,0.0,0.0,-0.04620020329309039,0.5151681296267733,0.10791461759397536,0.5026833400900883,-0.056850311328917186,0.06737520545632704,-0.2123087655029535,-0.6089919164630441,-0.0578162485272215,-0.6665279784442703,-2.5943546870047585,-0.05557440143823623,2.5079574496481154,0.876319190174003,-0.6090851748156966,-0.05753196718556838,-0.666603097082616,-2.5945565370258534,-0.05562143941554,2.507976027223799,0.8763108487046415,3.6101938883823855e-05,2.6945039367149277e-06,-0.0003664047658342363,0.00017108728383421522,0.004333611716719083,7.041555277474031e-05,0.0003701342341516237,0.0,0.0,0.0,0.0,0.0,0.0,0.0,-9.325835265250326e-05,0.0002842813416531198,-7.511863834575028e-05,-0.00020185002109496253,-4.7037977303772405e-05,1.8577575683575986e-05,-8.341469361461407e-06,-3.6101938883823855e-05,-2.6945039367149277e-06,0.0003664047658342363,-0.00017108728383421522,-0.004333611716719083,-7.041555277474031e-05,-0.0003701342341516237,0.06972616910934448,18.154138565063477,-0.9180634021759033,-18.122896194458008,-0.3555198311805725,-2.2488436698913574,0.20724813640117645,0
2,0.004996061325073242,-0.06972616910934448,-18.154138565063477,0.9180634021759033,18.122896194458008,0.3555198311805725,2.2488436698913574,-0.20724813640117645,0.0,0.0,0.0,0.0,0.0,0.0,0.0,-0.04620020329309039,0.5151681296267733,0.10791461759397536,0.5026833400900883,-0.056850311328917186,0.06737520545632704,-0.2123087655029535,-0.6089919164630441,-0.0578162485272215,-0.6665279784442703,-2.5943546870047585,-0.05557440143823623,2.5079574496481154,0.876319190174003,-0.6090851748156966,-0.05753196718556838,-0.666603097082616,-2.5945565370258534,-0.05562143941554,2.507976027223799,0.8763108487046415,3.6101938883823855e-05,2.6945039367149277e-06,-0.0003664047658342363,0.00017108728383421522,0.004333611716719083,7.041555277474031e-05,0.0003701342341516237,0.0,0.0,0.0,0.0,0.0,0.0,0.0,-9.325835265250326e-05,0.0002842813416531198,-7.511863834575028e-05,-0.00020185002109496253,-4.7037977303772405e-05,1.8577575683575986e-05,-8.341469361461407e-06,-3.6101938883823855e-05,-2.6945039367149277e-06,0.0003664047658342363,-0.00017108728383421522,-0.004333611716719083,-7.041555277474031e-05,-0.0003701342341516237,0.06972616910934448,18.154138565063477,-0.9180634021759033,-18.122896194458008,-0.3555198311805725,-2.2488436698913574,0.20724813640117645,0
3,0.010014533996582031,-0.06972616910934448,-18.130334854125977,0.9180634021759033,18.122896194458008,0.3619285225868225,2.2424349784851074,-0.18710653483867645,0.0,0.0,0.0,0.0,0.0,0.0,0.0,-0.038772274165244876,0.5256235487907954,0.11453804866186329,0.49879189783146444,-0.057698740308304006,0.0672972841182627,-0.2109002727747466,-0.608994801827582,-0.05781791896307677,-0.6665277194035885,-2.5943546870047585,-0.055575113515059144,2.507961340639326,0.8763169522202676,-0.6090851748156966,-0.05753196718556838,-0.666603097082616,-2.5945565370258534,-0.05562143941554,2.507976027223799,0.8763108487046415,0.0004885059700424527,0.0006359343703111897,0.0002692523957491171,6.370449325049309e-05,0.00028242005172335024,0.00026993951379068515,-0.0017432095548789706,0.0,0.0,0.0,0.0,0.0,0.0,0.0,-9.037298811453987e-05,0.00028595177750838363,-7.5377679027544e-05,-0.00020185002109496253,-4.6325900480856386e-05,1.4686584473011521e-05,-6.1035156261324275e-06,-0.0004885059700424527,-0.0006359343703111897,-0.0002692523957491171,-6.370449325049309e-05,-0.00028242005172335024,-0.00026993951379068515,0.0017432095548789706,0.06972616910934448,18.130334854125977,-0.9180634021759033,-18.122896194458008,-0.3619285225868225,-2.2424349784851074,0.18710653483867645,0
4,0.01501917839050293,-0.06972616910934448,-18.130334854125977,0.9180634021759033,18.122896194458008,0.3619285225868225,2.2424349784851074,-0.18710653483867645,0.0,0.0,0.0,0.0,0.0,0.0,0.0,-0.038772274165244876,0.5256235487907954,0.11453804866186329,0.49879189783146444,-0.057698740308304006,0.0672972841182627,-0.2109002727747466,-0.608994801827582,-0.05781791896307677,-0.6665277194035885,-2.5943546870047585,-0.055575113515059144,2.507961340639326,0.8763169522202676,-0.6090851748156966,-0.05753196718556838,-0.666603097082616,-2.5945565370258534,-0.05562143941554,2.507976027223799,0.8763108487046415,0.0004885059700424527,0.0006359343703111897,0.0002692523957491171,6.370449325049309e-05,0.00028242005172335024,0.00026993951379068515,-0.0017432095548789706,0.0,0.0,0.0,0.0,0.0,0.0,0.0,-9.037298811453987e-05,0.00028595177750838363,-7.5377679027544e-05,-0.00020185002109496253,-4.6325900480856386e-05,1.4686584473011521e-05,-6.1035156261324275e-06,-0.0004885059700424527,-0.0006359343703111897,-0.0002692523957491171,-6.370449325049309e-05,-0.00028242005172335024,-0.00026993951379068515,0.0017432095548789706,0.06972616910934448,18.130334854125977,-0.9180634021759033,-18.122896194458008,-0.3619285225868225,-2.2424349784851074,0.18710653483867645,0
5,0.019997596740722656,-0.06972616910934448,-18.106531143188477,0.9180634021759033,18.146699905395508,0.3674216866493225,2.2552523612976074,-0.17337362468242645,0.0,0.0,0.0,0.0,0.0,0.0,0.0,-0.04282152150741401,0.5222961521637269,0.11305044858891727,0.5047676156998158,-0.057868881278331105,0.06778245369741981,-0.21350768566789213,-0.608994099512617,-0.05781958939893203,-0.6665279794059263,-2.594356357440614,-0.05557572386662164,2.5079567375892378,0.8763154263413614,-0.6090851748156966,-0.05753196718556838,-0.666603097082616,-2.5945565370258534,-0.05562143941554,2.507976027223799,0.8763108487046415,0.0008551514887270002,-0.0008177997163952005,0.0004620637799003501,-5.9198425566764464e-05,0.0001291791073854766,-0.00017627761552420923,-0.0013872444986976424,0.0,0.0,0.0,0.0,0.0,0.0,0.0,-9.107530307961298e-05,0.00028762221336364746,-7.511767668966218e-05,-0.00020017958523954604,-4.571554891835694e-05,1.9289634561214797e-05,-4.577636719904632e-06,-0.0008551514887270002,0.0008177997163952005,-0.0004620637799003501,5.9198425566764464e-05,-0.0001291791073854766,0.00017627761552420923,0.0013872444986976424,0.06972616910934448,18.106531143188477,-0.9180634021759033,-18.146699905395508,-0.3674216866493225,-2.2552523612976074,0.17337362468242645,0
6,0.025104522705078125,-0.06972616910934448,-18.106531143188477,0.9180634021759033,18.146699905395508,0.3674216866493225,2.2552523612976074,-0.17337362468242645,0.0,0.0,0.0,0.0,0.0,0.0,0.0,-0.04282152150741401,0.5222961521637269,0.11305044858891727,0.5047676156998158,-0.057868881278331105,0.06778245369741981,-0.21350768566789213,-0.608994099512617,-0.05781958939893203,-0.6665279794059263,-2.594356357440614,-0.05557572386662164,2.5079567375892378,0.8763154263413614,-0.6090851748156966,-0.05753196718556838,-0.666603097082616,-2.5945565370258534,-0.05562143941554,2.507976027223799,0.8763108487046415,0.0008551514887270002,-0.0008177997163952005,0.0004620637799003501,-5.9198425566764464e-05,0.0001291791073854766,-0.00017627761552420923,-0.0013872444986976424,0.0,0.0,0.0,0.0,0.0,0.0,0.0,-9.107530307961298e-05,0.00028762221336364746,-7.511767668966218e-05,-0.00020017958523954604,-4.571554891835694e-05,1.9289634561214797e-05,-4.577636719904632e-06,-0.0008551514887270002,0.0008177997163952005,-0.0004620637799003501,5.9198425566764464e-05,-0.0001291791073854766,0.00017627761552420923,0.0013872444986976424,0.06972616910934448,18.106531143188477,-0.9180634021759033,-18.146699905395508,-0.3674216866493225,-2.2552523612976074,0.17337362468242645,0
7,0.029995203018188477,-0.09352988004684448,-18.205713272094727,0.9418671131134033,18.146699905395508,0.3555198311805725,2.2488436698913574,-0.20083944499492645,0.0,0.0,0.0,0.0,0.0,0.0,0.0,-0.04747884959009832,0.5265943734825352,0.10887611827513924,0.5025884076020702,-0.05800035930437877,0.06756710730048325,-0.21171205106545238,-0.6089905053656676,-0.05781262892475747,-0.6665275438124673,-2.594356357440614,-0.05557440143823623,2.5079574496481154,0.8763184780991738,-0.6090851748156966,-0.05753196718556838,-0.666603097082616,-2.5945565370258534,-0.05562143941554,2.507976027223799,0.8763108487046415,0.0013249608532896167,0.0021016480946405135,-0.0007026746099868642,-0.00013972472049436903,0.005468869131180604,0.00012204025830195736,-0.00014876368001692254,0.0,0.0,0.0,0.0,0.0,0.0,0.0,-9.466945002900573e-05,0.00028066173918908643,-7.555327014874269e-05,-0.00020017958523954604,-4.7037977303772405e-05,1.8577575683575986e-05,-7.629394532360223e-06,-0.0013249608532896167,-0.0021016480946405135,0.0007026746099868642,0.00013972472049436903,-0.005468869131180604,-0.00012204025830195736,0.00014876368001692254,0.09352988004684448,18.205713272094727,-0.9418671131134033,-18.146699905395508,-0.3555198311805725,-2.2488436698913574,0.20083944499492645,0
8,0.03513145446777344,-0.09352988004684448,-18.205713272094727,0.9418671131134033,18.146699905395508,0.3555198311805725,2.2488436698913574,-0.20083944499492645,0.0,0.0,0.0,0.0,0.0,0.0,0.0,-0.04747884959009832,0.5265943734825352,0.10887611827513924,0.5025884076020702,-0.05800035930437877,0.06756710730048325,-0.21171205106545238,-0.6089905053656676,-0.05781262892475747,-0.6665275438124673,-2.594356357440614,-0.05557440143823623,2.5079574496481154,0.8763184780991738,-0.6090851748156966,-0.05753196718556838,-0.666603097082616,-2.5945565370258534,-0.05562143941554,2.507976027223799,0.8763108487046415,0.0013249608532896167,0.0021016480946405135,-0.0007026746099868642,-0.00013972472049436903,0.005468869131180604,0.00012204025830195736,-0.00014876368001692254,0.0,0.0,0.0,0.0,0.0,0.0,0.0,-9.466945002900573e-05,0.00028066173918908643,-7.555327014874269e-05,-0.00020017958523954604,-4.7037977303772405e-05,1.8577575683575986e-05,-7.629394532360223e-06,-0.0013249608532896167,-0.0021016480946405135,0.0007026746099868642,0.00013972472049436903,-0.005468869131180604,-0.00012204025830195736,0.00014876368001692254,0.09352988004684448,18.205713272094727,-0.9418671131134033,-18.146699905395508,-0.3555198311805725,-2.2488436698913574,0.20083944499492645,0
9,0.0399479866027832,-0.09352988004684448,-18.205713272094727,0.9418671131134033,18.146699905395508,0.3555198311805725,2.2488436698913574,-0.20083944499492645,0.0,0.0,0.0,0.0,0.0,0.0,0.0,-0.04747884959009832,0.5265943734825352,0.10887611827513924,0.5025884076020702,-0.05800035930437877,0.06756710730048325,-0.21171205106545238,-0.6089905053656676,-0.05781262892475747,-0.6665275438124673,-2.594356357440614,-0.05557440143823623,2.5079574496481154,0.8763184780991738,-0.6090851748156966,-0.05753196718556838,-0.666603097082616,-2.5945565370258534,-0.05562143941554,2.507976027223799,0.8763108487046415,0.0013249608532896167,0.0021016480946405135,-0.0007026746099868642,-0.00013972472049436903,0.005468869131180604,0.00012204025830195736,-0.00014876368001692254,0.0,0.0,0.0,0.0,0.0,0.0,0.0,-9.466945002900573e-05,0.00028066173918908643,-7.555327014874269e-05,-0.00020017958523954604,-4.7037977303772405e-05,1.8577575683575986e-05,-7.629394532360223e-06,-0.0013249608532896167,-0.0021016480946405135,0.0007026746099868642,0.00013972472049436903,-0.005468869131180604,-0.00012204025830195736,0.00014876368001692254,0.09352988004684448,18.205713272094727,-0.9418671131134033,-18.146699905395508,-0.3555198311805725,-2.2488436698913574,0.20083944499492645,0
10,0.04509449005126953,-0.09352988004684448,-18.205713272094727,0.9418671131134033,18.146699905395508,0.3555198311805725,2.2488436698913574,-0.20083944499492645,0.0,0.0,0.0,0.0,0.0,0.0,0.0,-0.04747884959009832,0.5265943734825352,0.10887611827513924,0.5025884076020702,-0.05800035930437877,0.06756710730048325,-0.21171205106545238,-0.6089905053656676,-0.05781262892475747,-0.6665275438124673,-2.594356357440614,-0.05557440143823623,2.5079574496481154,0.8763184780991738,-0.6090851748156966,-0.05753196718556838,-0.666603097082616,-2.5945565370258534,-0.05562143941554,2.507976027223799,0.8763108487046415,0.0013249608532896167,0.0021016480946405135,-0.0007026746099868642,-0.00013972472049436903,0.005468869131180604,0.00012204025830195736,-0.00014876368001692254,0.0,0.0,0.0,0.0,0.0,0.0,0.0,-9.466945002900573e-05,0.00028066173918908643,-7.555327014874269e-05,-0.00020017958523954604,-4.7037977303772405e-05,1.8577575683575986e-05,-7.629394532360223e-06,-0.0013249608532896167,-0.0021016480946405135,0.0007026746099868642,0.00013972472049436903,-0.005468869131180604,-0.00012204025830195736,0.00014876368001692254,0.09352988004684448,18.205713272094727,-0.9418671131134033,-18.146699905395508,-0.3555198311805725,-2.2488436698913574,0.20083944499492645,0
11,0.049994468688964844,-0.06972616910934448,-18.130334854125977,0.9180634021759033,18.170503616333008,0.3738303780555725,2.2360262870788574,-0.22830526530742645,0.0,0.0,0.0,0.0,0.0,0.0,0.0,-0.04407878822454308,0.5252998770647086,0.11263315077423881,0.5052692689355764,-0.058629079290560736,0.06765401704799306,-0.2118691689206547,-0.6089942642738639,-0.057817918963074935,-0.6665279793598397,-2.5943580278764693,-0.055576435943444566,2.5079588738555962,0.8763215298569863,-0.6090851748156966,-0.05753196718556838,-0.666603097082616,-2.5945565370258534,-0.05562143941554,2.507976027223799,0.8763108487046415,0.0003553639859333413,-0.0003607472257057049,0.0005803153938521891,-0.0005495068543409018,-0.00025496062296386185,0.0004942501488864258,-0.0001149662207509817,0.0,0.0,0.0,0.0,0.0,0.0,0.0,-9.091054183263392e-05,0.00028595177750655176,-7.51177227763522e-05,-0.00019850914938412956,-4.500347209543398e-05,1.715336820273805e-05,-1.0681152344815814e-05,-0.0003553639859333413,0.0003607472257057049,-0.0005803153938521891,0.0005495068543409018,0.00025496062296386185,-0.0004942501488864258,0.0001149662207509817,0.06972616910934448,18.130334854125977,-0.9180634021759033,-18.170503616333008,-0.3738303780555725,-2.2360262870788574,0.22830526530742645,0
12,0.054995059967041016,-0.06972616910934448,-18.130334854125977,0.9180634021759033,18.170503616333008,0.3738303780555725,2.2360262870788574,-0.22830526530742645,0.0,0.0,0.0,0.0,0.0,0.0,0.0,-0.04407878822454308,0.5252998770647086,0.11263315077423881,0.5052692689355764,-0.058629079290560736,0.06765401704799306,-0.2118691689206547,-0.6089942642738639,-0.057817918963074935,-0.6665279793598397,-2.5943580278764693,-0.055576435943444566,2.5079588738555962,0.8763215298569863,-0.6090851748156966,-0.05753196718556838,-0.666603097082616,-2.5945565370258534,-0.05562143941554,2.507976027223799,0.8763108487046415,0.0003553639859333413,-0.0003607472257057049,0.0005803153938521891,-0.0005495068543409018,-0.00025496062296386185,0.0004942501488864258,-0.0001149662207509817,0.0,0.0,0.0,0.0,0.0,0.0,0.0,-9.091054183263392e-05,0.00028595177750655176,-7.51177227763522e-05,-0.00019850914938412956,-4.500347209543398e-05,1.715336820273805e-05,-1.0681152344815814e-05,-0.0003553639859333413,0.0003607472257057049,-0.0005803153938521891,0.0005495068543409018,0.00025496062296386185,-0.0004942501488864258,0.0001149662207509817,0.06972616910934448,18.130334854125977,-0.9180634021759033,-18.170503616333008,-0.3738303780555725,-2.2360262870788574,0.22830526530742645,0
13,0.05999326705932617,-0.06972616910934448,-18.154138565063477,0.9696381092071533,18.198274612426758,0.3674216866493225,2.2552523612976074,-0.20724813640117645,0.0,0.0,0.0,0.0,0.0,0.0,0.0,-0.04731431097023953,0.526035384462998,0.1127259619885736,0.5073620556211378,-0.0582795795799825,0.06654562135955541,-0.213665904517189,-0.6089926176217448,-0.0578162485272215,-0.6665315977221034,-2.5943599767183003,-0.05557572386662164,2.5079599164856807,0.8763191901759968,-0.6090851748156966,-0.05753196718556838,-0.666603097082616,-2.5945565370258534,-0.05562143941554,2.507976027223799,0.8763108487046415,0.0002722249554725234,0.00025759134856002524,-0.00037073030826317366,-0.0014168154900127152,-0.00024534532336922474,-0.0002290473344907893,0.0006211886298960474,0.0,0.0,0.0,0.0,0.0,0.0,0.0,-9.255719395173667e-05,0.0002842813416531198,-7.149936051265016e-05,-0.00019656030755310638,-4.571554891835694e-05,1.6110738118246815e-05,-8.341471355310937e-06,-0.0002722249554725234,-0.00025759134856002524,0.00037073030826317366,0.0014168154900127152,0.00024534532336922474,0.0002290473344907893,-0.0006211886298960474,0.06972616910934448,18.154138565063477,-0.9696381092071533,-18.198274612426758,-0.3674216866493225,-2.2552523612976074,0.20724813640117645,0
14,0.06499600410461426,-0.06972616910934448,-18.154138565063477,0.9696381092071533,18.198274612426758,0.3674216866493225,2.2552523612976074,-0.20724813640117645,0.0,0.0,0.0,0.0,0.0,0.0,0.0,-0.04731431097023953,0.526035384462998,0.1127259619885736,0.5073620556211378,-0.0582795795799825,0.06654562135955541,-0.213665904517189,-0.6089926176217448,-0.0578162485272215,-0.6665315977221034,-2.5943599767183003,-0.05557572386662164,2.5079599164856807,0.8763191901759968,-0.6090851748156966,-0.05753196718556838,-0.666603097082616,-2.5945565370258534,-0.05562143941554,2.507976027223799,0.8763108487046415,0.0002722249554725234,0.00025759134856002524,-0.00037073030826317366,-0.0014168154900127152,-0.00024534532336922474,-0.0002290473344907893,0.0006211886298960474,0.0,0.0,0.0,0.0,0.0,0.0,0.0,-9.255719395173667e-05,0.0002842813416531198,-7.149936051265016e-05,-0.00019656030755310638,-4.571554891835694e-05,1.6110738118246815e-05,-8.341471355310937e-06,-0.0002722249554725234,-0.00025759134856002524,0.00037073030826317366,0.0014168154900127152,0.00024534532336922474,0.0002290473344907893,-0.0006211886298960474,0.06972616910934448,18.154138565063477,-0.9696381092071533,-18.198274612426758,-0.3674216866493225,-2.2552523612976074,0.20724813640117645,0
15,0.07000422477722168,0.005652248859405518,-18.154138565063477,0.9418671131134033,18.146699905395508,0.3619285225868225,2.2488436698913574,-0.21457235515117645,0.0,0.0,0.0,0.0,0.0,0.0,0.0,-0.046982821529900194,0.5224934733426593,0.11746511114715881,0.5062805557596527,-0.058430732269296605,0.06650010363083736,-0.21179769452097127,-0.6089979071921673,-0.0578162485272215,-0.666529646526323,-2.594356357440614,-0.055575113515059144,2.5079574496660606,0.8763200039780801,-0.6090851748156966,-0.05753196718556838,-0.666603097082616,-2.5945565370258534,-0.05562143941554,2.507976027223799,0.8763108487046415,-0.0010962960693984133,-0.0005220701256985967,2.1161486731813284e-05,-0.00025405753790583914,6.913577649716333e-05,0.00021807168187740005,-6.661140338711149e-05,0.0,0.0,0.0,0.0,0.0,0.0,0.0,-8.726762352928574e-05,0.0002842813416531198,-7.345055629304209e-05,-0.00020017958523954604,-4.6325900480856386e-05,1.8577557738375106e-05,-9.155273438588019e-06,0.0010962960693984133,0.0005220701256985967,-2.1161486731813284e-05,0.00025405753790583914,-6.913577649716333e-05,-0.00021807168187740005,6.661140338711149e-05,-0.005652248859405518,18.154138565063477,-0.9418671131134033,-18.146699905395508,-0.3619285225868225,-2.2488436698913574,0.21457235515117645,0
16,0.07501077651977539,0.005652248859405518,-18.154138565063477,0.9418671131134033,18.146699905395508,0.3619285225868225,2.2488436698913574,-0.21457235515117645,0.0,0.0,0.0,0.0,0.0,0.0,0.0,-0.046982821529900194,0.5224934733426593,0.11746511114715881,0.5062805557596527,-0.058430732269296605,0.06650010363083736,-0.21179769452097127,-0.6089979071921673,-0.0578162485272215,-0.666529646526323,-2.594356357440614,-0.055575113515059144,2.5079574496660606,0.8763200039780801,-0.6090851748156966,-0.05753196718556838,-0.666603097082616,-2.5945565370258534,-0.05562143941554,2.507976027223799,0.8763108487046415,-0.0010962960693984133,-0.0005220701256985967,2.1161486731813284e-05,-0.00025405753790583914,6.913577649716333e-05,0.00021807168187740005,-6.661140338711149e-05,0.0,0.0,0.0,0.0,0.0,0.0,0.0,-8.726762352928574e-05,0.0002842813416531198,-7.345055629304209e-05,-0.00020017958523954604,-4.6325900480856386e-05,1.8577557738375106e-05,-9.155273438588019e-06,0.0010962960693984133,0.0005220701256985967,-2.1161486731813284e-05,0.00025405753790583914,-6.913577649716333e-05,-0.00021807168187740005,6.661140338711149e-05,-0.005652248859405518,18.154138565063477,-0.9418671131134033,-18.146699905395508,-0.3619285225868225,-2.2488436698913574,0.21457235515117645,0
17,0.08002901077270508,-0.04592245817184448,-18.154138565063477,0.9696381092071533,18.122896194458008,0.3674216866493225,2.2424349784851074,-0.22830526530742645,0.0,0.0,0.0,0.0,0.0,0.0,0.0,-0.046096624938632626,0.5207677992075372,0.11821320359930507,0.5072941720343946,-0.05849046457485983,0.06688552201255854,-0.2115572905786905,-0.6089942879144801,-0.0578162485272215,-0.6665315206839216,-2.5943546870047585,-0.05557572386662164,2.5079582011323005,0.8763215298569863,-0.6090851748156966,-0.05753196718556838,-0.666603097082616,-2.5945565370258534,-0.05562143941554,2.507976027223799,0.8763108487046415,0.0004296820181098066,0.00027624118788278603,-0.0005416873010155531,0.0007843828089762228,-7.140392546729665e-05,0.00039996440579601923,0.0014318444327664588,0.0,0.0,0.0,0.0,0.0,0.0,0.0,-9.088690121650256e-05,0.0002842813416531198,-7.157639869437293e-05,-0.00020185002109496253,-4.571554891835694e-05,1.7826091498474028e-05,-1.0681152344815814e-05,-0.0004296820181098066,-0.00027624118788278603,0.0005416873010155531,-0.0007843828089762228,7.140392546729665e-05,-0.00039996440579601923,-0.0014318444327664588,0.04592245817184448,18.154138565063477,-0.9696381092071533,-18.122896194458008,-0.3674216866493225,-2.2424349784851074,0.22830526530742645,0
18,0.08499932289123535,-0.04592245817184448,-18.154138565063477,0.9696381092071533,18.122896194458008,0.3674216866493225,2.2424349784851074,-0.22830526530742645,0.0,0.0,0.0,0.0,0.0,0.0,0.0,-0.046096624938632626,0.5207677992075372,0.11821320359930507,0.5072941720343946,-0.05849046457485983,0.06688552201255854,-0.2115572905786905,-0.6089942879144801,-0.0578162485272215,-0.6665315206839216,-2.5943546870047585,-0.05557572386662164,2.5079582011323005,0.8763215298569863,-0.6090851748156966,-0.05753196718556838,-0.666603097082616,-2.5945565370258534,-0.05562143941554,2.507976027223799,0.8763108487046415,0.0004296820181098066,0.00027624118788278603,-0.0005416873010155531,0.0007843828089762228,-7.140392546729665e-05,0.00039996440579601923,0.0014318444327664588,0.0,0.0,0.0,0.0,0.0,0.0,0.0,-9.088690121650256e-05,0.0002842813416531198,-7.157639869437293e-05,-0.00020185002109496253,-4.571554891835694e-05,1.7826091498474028e-05,-1.0681152344815814e-05,-0.0004296820181098066,-0.00027624118788278603,0.0005416873010155531,-0.0007843828089762228,7.140392546729665e-05,-0.00039996440579601923,-0.0014318444327664588,0.04592245817184448,18.154138565063477,-0.9696381092071533,-18.122896194458008,-0.3674216866493225,-2.2424349784851074,0.22830526530742645,0
19,0.08999300003051758,-0.018151462078094482,-18.106531143188477,0.9180634021759033,18.099092483520508,0.3674216866493225,2.2552523612976074,-0.20724813640117645,0.0,0.0,0.0,0.0,0.0,0.0,0.0,-0.04703972234429502,0.525385363220961,0.11579770910912177,0.5009684084390369,-0.05853862022539927,0.06587613486865036,-0.2090304436732902,-0.6089955434128439,-0.05781951047796719,-0.6665279534065738,-2.5943530165689035,-0.05557572386662164,2.507956737571515,0.8763191901759968,-0.6090851748156966,-0.05753196718556838,-0.666603097082616,-2.5945565370258534,-0.05562143941554,2.507976027223799,0.8763108487046415,-0.0010905058185934496,-0.0003109460398959785,0.0006450692556247664,0.0004332709183765557,1.2129774146762181e-05,7.230187016848674e-05,-0.00033534425695083356,0.0,0.0,0.0,0.0,0.0,0.0,0.0,-8.963140285267457e-05,0.00028754329239880777,-7.514367604222194e-05,-0.00020352045694993492,-4.571554891835694e-05,1.9289652283926984e-05,-8.341471355310937e-06,0.0010905058185934496,0.0003109460398959785,-0.0006450692556247664,-0.0004332709183765557,-1.2129774146762181e-05,-7.230187016848674e-05,0.00033534425695083356,0.018151462078094482,18.106531143188477,-0.9180634021759033,-18.099092483520508,-0.3674216866493225,-2.2552523612976074,0.20724813640117645,0
20,0.09499669075012207,-0.018151462078094482,-18.106531143188477,0.9180634021759033,18.099092483520508,0.3674216866493225,2.2552523612976074,-0.20724813640117645,0.0,0.0,0.0,0.0,0.0,0.0,0.0,-0.04703972234429502,0.525385363220961,0.11579770910912177,0.5009684084390369,-0.05853862022539927,0.06587613486865036,-0.2090304436732902,-0.6089955434128439,-0.05781951047796719,-0.6665279534065738,-2.5943530165689035,-0.05557572386662164,2.507956737571515,0.8763191901759968,-0.6090851748156966,-0.05753196718556838,-0.666603097082616,-2.5945565370258534,-0.05562143941554,2.507976027223799,0.8763108487046415,-0.0010905058185934496,-0.0003109460398959785,0.0006450692556247664,0.0004332709183765557,1.2129774146762181e-05,7.230187016848674e-05,-0.00033534425695083356,0.0,0.0,0.0,0.0,0.0,0.0,0.0,-8.963140285267457e-05,0.00028754329239880777,-7.514367604222194e-05,-0.00020352045694993492,-4.571554891835694e-05,1.9289652283926984e-05,-8.341471355310937e-06,0.0010905058185934496,0.0003109460398959785,-0.0006450692556247664,-0.0004332709183765557,-1.2129774146762181e-05,-7.230187016848674e-05,0.00033534425695083356,0.018151462078094482,18.106531143188477,-0.9180634021759033,-18.099092483520508,-0.3674216866493225,-2.2552523612976074,0.20724813640117645,0
21,0.10001564025878906,-0.06972616910934448,-18.106531143188477,0.9418671131134033,18.146699905395508,0.3619285225868225,2.2424349784851074,-0.16604940593242645,0.0,0.0,0.0,0.0,0.0,0.0,0.0,-0.04607669038837022,0.5308359072605378,0.11758904289806656,0.5018005376787713,-0.05834640285813622,0.06686212400103335,-0.2094571662322504,-0.6089919154644502,-0.05781958939848652,-0.6665296498431025,-2.594356357440614,-0.055575113515059144,2.507958166085589,0.876314612539278,-0.6090851748156966,-0.05753196718556838,-0.666603097082616,-2.5945565370258534,-0.05562143941554,2.507976027223799,0.8763108487046415,0.0003817189896919711,0.0004443186780087761,-0.00031029357075921756,-0.0003998439384750135,0.00024651478991777705,5.68784641862929e-05,-0.0018884791153389972,0.0,0.0,0.0,0.0,0.0,0.0,0.0,-9.325935124637752e-05,0.0002876222129181358,-7.344723951352439e-05,-0.00020017958523954604,-4.6325900480856386e-05,1.7861138209784855e-05,-3.7638346365165276e-06,-0.0003817189896919711,-0.0004443186780087761,0.00031029357075921756,0.0003998439384750135,-0.00024651478991777705,-5.68784641862929e-05,0.0018884791153389972,0.06972616910934448,18.106531143188477,-0.9418671131134033,-18.146699905395508,-0.3619285225868225,-2.2424349784851074,0.16604940593242645,0
22,0.10500025749206543,-0.06972616910934448,-18.106531143188477,0.9418671131134033,18.146699905395508,0.3619285225868225,2.2424349784851074,-0.16604940593242645,0.0,0.0,0.0,0.0,0.0,0.0,0.0,-0.04607669038837022,0.5308359072605378,0.11758904289806656,0.5018005376787713,-0.05834640285813622,0.06686212400103335,-0.2094571662322504,-0.6089919154644502,-0.05781958939848652,-0.6665296498431025,-2.594356357440614,-0.055575113515059144,2.507958166085589,0.876314612539278,-0.6090851748156966,-0.05753196718556838,-0.666603097082616,-2.5945565370258534,-0.05562143941554,2.507976027223799,0.8763108487046415,0.0003817189896919711,0.0004443186780087761,-0.00031029357075921756,-0.0003998439384750135,0.00024651478991777705,5.68784641862929e-05,-0.0018884791153389972,0.0,0.0,0.0,0.0,0.0,0.0,0.0,-9.325935124637752e-05,0.0002876222129181358,-7.344723951352439e-05,-0.00020017958523954604,-4.6325900480856386e-05,1.7861138209784855e-05,-3.7638346365165276e-06,-0.0003817189896919711,-0.0004443186780087761,0.00031029357075921756,0.0003998439384750135,-0.00024651478991777705,-5.68784641862929e-05,0.0018884791153389972,0.06972616910934448,18.106531143188477,-0.9418671131134033,-18.146699905395508,-0.3619285225868225,-2.2424349784851074,0.16604940593242645,0
23,0.11000204086303711,-0.018151462078094482,-18.130334854125977,0.9180634021759033,18.122896194458008,0.3555198311805725,2.2552523612976074,-0.22830526530742645,0.0,0.0,0.0,0.0,0.0,0.0,0.0,-0.045387703328642066,0.5318355294125192,0.11858557365419911,0.4992959134735699,-0.0586869933378024,0.06550940348832539,-0.20846507149570573,-0.6089955347420877,-0.05781791896307677,-0.6665279793598397,-2.5943546870047585,-0.05557440143823623,2.5079577972094302,0.8763215298569863,-0.6090851748156966,-0.05753196718556838,-0.666603097082616,-2.5945565370258534,-0.05562143941554,2.507976027223799,0.8763108487046415,-0.0008115840713484247,0.0002799702317113948,0.00040826069256368253,-0.0004158855024311016,0.00018959042261176303,-0.0003065644460714384,0.0008559711263526483,0.0,0.0,0.0,0.0,0.0,0.0,0.0,-8.96400736088987e-05,0.00028595177750838363,-7.51177227763522e-05,-0.00020185002109496253,-4.7037977303772405e-05,1.823001436873639e-05,-1.0681152344815814e-05,0.0008115840713484247,-0.0002799702317113948,-0.00040826069256368253,0.0004158855024311016,-0.00018959042261176303,0.0003065644460714384,-0.0008559711263526483,0.018151462078094482,18.130334854125977,-0.9180634021759033,-18.122896194458008,-0.3555198311805725,-2.2552523612976074,0.22830526530742645,0
24,0.11499643325805664,-0.018151462078094482,-18.130334854125977,0.9180634021759033,18.122896194458008,0.3555198311805725,2.2552523612976074,-0.22830526530742645,0.0,0.0,0.0,0.0,0.0,0.0,0.0,-0.045387703328642066,0.5318355294125192,0.11858557365419911,0.4992959134735699,-0.0586869933378024,0.06550940348832539,-0.20846507149570573,-0.6089955347420877,-0.05781791896307677,-0.6665279793598397,-2.5943546870047585,-0.05557440143823623,2.5079577972094302,0.8763215298569863,-0.6090851748156966,-0.05753196718556838,-0.666603097082616,-2.5945565370258534,-0.05562143941554,2.507976027223799,0.8763108487046415,-0.0008115840713484247,0.0002799702317113948,0.00040826069256368253,-0.0004158855024311016,0.00018959042261176303,-0.0003065644460714384,0.0008559711263526483,0.0,0.0,0.0,0.0,0.0,0.0,0.0,-8.96400736088987e-05,0.00028595177750838363,-7.51177227763522e-05,-0.00020185002109496253,-4.7037977303772405e-05,1.823001436873639e-05,-1.0681152344815814e-05,0.0008115840713484247,-0.0002799702317113948,-0.00040826069256368253,0.0004158855024311016,-0.00018959042261176303,0.0003065644460714384,-0.0008559711263526483,0.018151462078094482,18.130334854125977,-0.9180634021759033,-18.122896194458008,-0.3555198311805725,-2.2552523612976074,0.22830526530742645,0
25,0.1199960708618164,-0.018151462078094482,-18.177942276000977,0.9418671131134033,18.146699905395508,0.3619285225868225,2.2552523612976074,-0.23471395671367645,0.0,0.0,0.0,0.0,0.0,0.0,0.0,-0.04918040252653065,0.52707760177214,0.11179393098229007,0.5007911872991722,-0.05946584740461099,0.06551827861202618,-0.2092699675938599,-0.608995547296455,-0.05781457809136624,-0.6665296199909608,-2.594356357440614,-0.055575113515059144,2.507957090789984,0.8763222419338093,-0.6090851748156966,-0.05753196718556838,-0.666603097082616,-2.5945565370258534,-0.05562143941554,2.507976027223799,0.8763108487046415,-0.0010449180629058346,0.0005169268612274592,-0.0002548031731284312,-0.0003269535111084814,-1.4014401091831626e-05,4.539902840589235e-05,0.0005346561066153712,0.0,0.0,0.0,0.0,0.0,0.0,0.0,-8.962751924157519e-05,0.00028261090579785597,-7.347709165517191e-05,-0.00020017958523954604,-4.6325900480856386e-05,1.8936433814786824e-05,-1.1393229167766528e-05,0.0010449180629058346,-0.0005169268612274592,0.0002548031731284312,0.0003269535111084814,1.4014401091831626e-05,-4.539902840589235e-05,-0.0005346561066153712,0.018151462078094482,18.177942276000977,-0.9418671131134033,-18.146699905395508,-0.3619285225868225,-2.2552523612976074,0.23471395671367645,0
26,0.12499523162841797,-0.018151462078094482,-18.177942276000977,0.9418671131134033,18.146699905395508,0.3619285225868225,2.2552523612976074,-0.23471395671367645,0.0,0.0,0.0,0.0,0.0,0.0,0.0,-0.04918040252653065,0.52707760177214,0.11179393098229007,0.5007911872991722,-0.05946584740461099,0.06551827861202618,-0.2092699675938599,-0.608995547296455,-0.05781457809136624,-0.6665296199909608,-2.594356357440614,-0.055575113515059144,2.507957090789984,0.8763222419338093,-0.6090851748156966,-0.05753196718556838,-0.666603097082616,-2.5945565370258534,-0.05562143941554,2.507976027223799,0.8763108487046415,-0.0010449180629058346,0.0005169268612274592,-0.0002548031731284312,-0.0003269535111084814,-1.4014401091831626e-05,4.539902840589235e-05,0.0005346561066153712,0.0,0.0,0.0,0.0,0.0,0.0,0.0,-8.962751924157519e-05,0.00028261090579785597,-7.347709165517191e-05,-0.00020017958523954604,-4.6325900480856386e-05,1.8936433814786824e-05,-1.1393229167766528e-05,0.0010449180629058346,-0.0005169268612274592,0.0002548031731284312,0.0003269535111084814,1.4014401091831626e-05,-4.539902840589235e-05,-0.0005346561066153712,0.018151462078094482,18.177942276000977,-0.9418671131134033,-18.146699905395508,-0.3619285225868225,-2.2552523612976074,0.23471395671367645,0
27,0.12999534606933594,-0.018151462078094482,-18.154138565063477,0.9418671131134033,18.146699905395508,0.3738303780555725,2.2552523612976074,-0.19351522624492645,0.0,0.0,0.0,0.0,0.0,0.0,0.0,-0.044780269976518905,0.524023537417365,0.11451855056624671,0.4971080913279677,-0.05983071211661647,0.06587252666802844,-0.21116714770153572,-0.6089983432111911,-0.0578162485272215,-0.666526815801658,-2.594356356495806,-0.055576435943444566,2.507956737734792,0.8763176642970906,-0.6090851748156966,-0.05753196718556838,-0.666603097082616,-2.5945565370258534,-0.05562143941554,2.507976027223799,0.8763108487046415,-3.2805138087146306e-05,-0.0005410430488235736,-0.0006569492346819229,-0.00039152750630364167,-0.00011392741472034499,0.00019150169360738226,-0.0005974351180870168,0.0,0.0,0.0,0.0,0.0,0.0,0.0,-8.683160450551064e-05,0.0002842813416531198,-7.628128095804598e-05,-0.0002001805300473336,-4.500347209543398e-05,1.9289489006979466e-05,-6.815592449083141e-06,3.2805138087146306e-05,0.0005410430488235736,0.0006569492346819229,0.00039152750630364167,0.00011392741472034499,-0.00019150169360738226,0.0005974351180870168,0.018151462078094482,18.154138565063477,-0.9418671131134033,-18.146699905395508,-0.3738303780555725,-2.2552523612976074,0.19351522624492645,0
28,0.1349945068359375,-0.018151462078094482,-18.154138565063477,0.9418671131134033,18.146699905395508,0.3738303780555725,2.2552523612976074,-0.19351522624492645,0.0,0.0,0.0,0.0,0.0,0.0,0.0,-0.044780269976518905,0.524023537417365,0.11451855056624671,0.4971080913279677,-0.05983071211661647,0.06587252666802844,-0.21116714770153572,-0.6089983432111911,-0.0578162485272215,-0.666526815801658,-2.594356356495806,-0.055576435943444566,2.507956737734792,0.8763176642970906,-0.6090851748156966,-0.05753196718556838,-0.666603097082616,-2.5945565370258534,-0.05562143941554,2.507976027223799,0.8763108487046415,-3.2805138087146306e-05,-0.0005410430488235736,-0.0006569492346819229,-0.00039152750630364167,-0.00011392741472034499,0.00019150169360738226,-0.0005974351180870168,0.0,0.0,0.0,0.0,0.0,0.0,0.0,-8.683160450551064e-05,0.0002842813416531198,-7.628128095804598e-05,-0.0002001805300473336,-4.500347209543398e-05,1.9289489006979466e-05,-6.815592449083141e-06,3.2805138087146306e-05,0.0005410430488235736,0.0006569492346819229,0.00039152750630364167,0.00011392741472034499,-0.00019150169360738226,0.0005974351180870168,0.018151462078094482,18.154138565063477,-0.9418671131134033,-18.146699905395508,-0.3738303780555725,-2.2552523612976074,0.19351522624492645,0
29,0.13999390602111816,-0.04592245817184448,-18.154138565063477,0.8942596912384033,18.122896194458008,0.3674216866493225,2.2625765800476074,-0.19351522624492645,0.0,0.0,0.0,0.0,0.0,0.0,0.0,-0.04405504998430752,0.5211445773178753,0.11459862432552004,0.49554030661343645,-0.058685544079234285,0.06659928105339608,-0.21017873385124464,-0.6089956919468924,-0.0578162485272215,-0.6665256027723794,-2.5943546870047527,-0.05557572386662164,2.50795592376921,0.8763176642970906,-0.6090851748156966,-0.05753196718556838,-0.666603097082616,-2.5945565370258534,-0.05562143941554,2.507976027223799,0.8763108487046415,0.00015377366609136976,0.0001527384759075877,0.0012966667506766648,0.0004512184061136447,3.9440887545198645e-06,-0.00021947908809334194,-0.0006397579004578973,0.0,0.0,0.0,0.0,0.0,0.0,0.0,-8.948286880416934e-05,0.0002842813416531198,-7.749431023662545e-05,-0.0002018500211007357,-4.571554891835694e-05,2.0103454589026626e-05,-6.815592449083141e-06,-0.00015377366609136976,-0.0001527384759075877,-0.0012966667506766648,-0.0004512184061136447,-3.9440887545198645e-06,0.00021947908809334194,0.0006397579004578973,0.04592245817184448,18.154138565063477,-0.8942596912384033,-18.122896194458008,-0.3674216866493225,-2.2625765800476074,0.19351522624492645,0
30,0.14499306678771973,-0.04592245817184448,-18.154138565063477,0.8942596912384033,18.122896194458008,0.3674216866493225,2.2625765800476074,-0.19351522624492645,0.0,0.0,0.0,0.0,0.0,0.0,0.0,-0.04405504998430752,0.5211445773178753,0.11459862432552004,0.49554030661343645,-0.058685544079234285,0.06659928105339608,-0.21017873385124464,-0.6089956919468924,-0.0578162485272215,-0.6665256027723794,-2.5943546870047527,-0.05557572386662164,2.50795592376921,0.8763176642970906,-0.6090851748156966,-0.05753196718556838,-0.666603097082616,-2.5945565370258534,-0.05562143941554,2.507976027223799,0.8763108487046415,0.00015377366609136976,0.0001527384759075877,0.0012966667506766648,0.0004512184061136447,3.9440887545198645e-06,-0.00021947908809334194,-0.0006397579004578973,0.0,0.0,0.0,0.0,0.0,0.0,0.0,-8.948286880416934e-05,0.0002842813416531198,-7.749431023662545e-05,-0.0002018500211007357,-4.571554891835694e-05,2.0103454589026626e-05,-6.815592449083141e-06,-0.00015377366609136976,-0.0001527384759075877,-0.0012966667506766648,-0.0004512184061136447,-3.9440887545198645e-06,0.00021947908809334194,0.0006397579004578973,0.04592245817184448,18.154138565063477,-0.8942596912384033,-18.122896194458008,-0.3674216866493225,-2.2625765800476074,0.19351522624492645,0
31,0.1499919891357422,-0.04592245817184448,-18.154138565063477,0.8942596912384033,18.122896194458008,0.3674216866493225,2.2625765800476074,-0.19351522624492645,0.0,0.0,0.0,0.0,0.0,0.0,0.0,-0.04405504998430752,0.5211445773178753,0.11459862432552004,0.49554030661343645,-0.058685544079234285,0.06659928105339608,-0.21017873385124464,-0.6089956919468924,-0.0578162485272215,-0.6665256027723794,-2.5943546870047527,-0.05557572386662164,2.50795592376921,0.8763176642970906,-0.6090851748156966,-0.05753196718556838,-0.666603097082616,-2.5945565370258534,-0.05562143941554,2.507976027223799,0.8763108487046415,0.00015377366609136976,0.0001527384759075877,0.0012966667506766648,0.0004512184061136447,3.9440887545198645e-06,-0.00021947908809334194,-0.0006397579004578973,0.0,0.0,0.0,0.0,0.0,0.0,0.0,-8.948286880416934e-05,0.0002842813416531198,-7.749431023662545e-05,-0.0002018500211007357,-4.571554891835694e-05,2.0103454589026626e-05,-6.815592449083141e-06,-0.00015377366609136976,-0.0001527384759075877,-0.0012966667506766648,-0.0004512184061136447,-3.9440887545198645e-06,0.00021947908809334194,0.0006397579004578973,0.04592245817184448,18.154138565063477,-0.8942596912384033,-18.122896194458008,-0.3674216866493225,-2.2625765800476074,0.19351522624492645,0
32,0.1550006866455078,-0.04592245817184448,-18.154138565063477,0.8942596912384033,18.122896194458008,0.3674216866493225,2.2625765800476074,-0.19351522624492645,0.0,0.0,0.0,0.0,0.0,0.0,0.0,-0.04405504998430752,0.5211445773178753,0.11459862432552004,0.49554030661343645,-0.058685544079234285,0.06659928105339608,-0.21017873385124464,-0.6089956919468924,-0.0578162485272215,-0.6665256027723794,-2.5943546870047527,-0.05557572386662164,2.50795592376921,0.8763176642970906,-0.6090851748156966,-0.05753196718556838,-0.666603097082616,-2.5945565370258534,-0.05562143941554,2.507976027223799,0.8763108487046415,0.00015377366609136976,0.0001527384759075877,0.0012966667506766648,0.0004512184061136447,3.9440887545198645e-06,-0.00021947908809334194,-0.0006397579004578973,0.0,0.0,0.0,0.0,0.0,0.0,0.0,-8.948286880416934e-05,0.0002842813416531198,-7.749431023662545e-05,-0.0002018500211007357,-4.571554891835694e-05,2.0103454589026626e-05,-6.815592449083141e-06,-0.00015377366609136976,-0.0001527384759075877,-0.0012966667506766648,-0.0004512184061136447,-3.9440887545198645e-06,0.00021947908809334194,0.0006397579004578973,0.04592245817184448,18.154138565063477,-0.8942596912384033,-18.122896194458008,-0.3674216866493225,-2.2625765800476074,0.19351522624492645,0
33,0.16000008583068848,-0.09352988004684448,-18.130334854125977,0.9418671131134033,18.099092483520508,0.3674216866493225,2.2424349784851074,-0.24112264811992645,0.0,0.0,0.0,0.0,0.0,0.0,0.0,-0.04083817784054045,0.526322269215115,0.11448998519106063,0.4908994475575529,-0.05859195150158667,0.0665139304571009,-0.21076531057951825,-0.6089910251865729,-0.05781791896307677,-0.6665296407471373,-2.594353016568903,-0.05557572386662164,2.5079592213630675,0.876322953956797,-0.6090851748156966,-0.05753196718556838,-0.666603097082616,-2.5945565370258534,-0.05562143941554,2.507976027223799,0.8763108487046415,0.001470582801504758,0.0009063066300276693,-5.972118267321782e-05,0.0006116624322590186,7.928154688451153e-05,0.00035510701084549856,0.0005880179377672871,0.0,0.0,0.0,0.0,0.0,0.0,0.0,-9.414962912368541e-05,0.00028595177750838363,-7.345633547872765e-05,-0.00020352045695037901,-4.571554891835694e-05,1.6805860731494704e-05,-1.2105252155558688e-05,-0.001470582801504758,-0.0009063066300276693,5.972118267321782e-05,-0.0006116624322590186,-7.928154688451153e-05,-0.00035510701084549856,-0.0005880179377672871,0.09352988004684448,18.130334854125977,-0.9418671131134033,-18.099092483520508,-0.3674216866493225,-2.2424349784851074,0.24112264811992645,0
34,0.16500115394592285,-0.09352988004684448,-18.130334854125977,0.9418671131134033,18.099092483520508,0.3674216866493225,2.2424349784851074,-0.24112264811992645,0.0,0.0,0.0,0.0,0.0,0.0,0.0,-0.04083817784054045,0.526322269215115,0.11448998519106063,0.4908994475575529,-0.05859195150158667,0.0665139304571009,-0.21076531057951825,-0.6089910251865729,-0.05781791896307677,-0.6665296407471373,-2.594353016568903,-0.05557572386662164,2.5079592213630675,0.876322953956797,-0.6090851748156966,-0.05753196718556838,-0.666603097082616,-2.5945565370258534,-0.05562143941554,2.507976027223799,0.8763108487046415,0.001470582801504758,0.0009063066300276693,-5.972118267321782e-05,0.0006116624322590186,7.928154688451153e-05,0.00035510701084549856,0.0005880179377672871,0.0,0.0,0.0,0.0,0.0,0.0,0.0,-9.414962912368541e-05,0.00028595177750838363,-7.345633547872765e-05,-0.00020352045695037901,-4.571554891835694e-05,1.6805860731494704e-05,-1.2105252155558688e-05,-0.001470582801504758,-0.0009063066300276693,5.972118267321782e-05,-0.0006116624322590186,-7.928154688451153e-05,-0.00035510701084549856,-0.0005880179377672871,0.09352988004684448,18.130334854125977,-0.9418671131134033,-18.099092483520508,-0.3674216866493225,-2.2424349784851074,0.24112264811992645,0
35,0.17016339302062988,-0.06972616910934448,-18.078760147094727,0.9418671131134033,18.047517776489258,0.3674216866493225,2.2552523612976074,-0.17978231608867645,0.0,0.0,0.0,0.0,0.0,0.0,0.0,-0.046790352617556,0.5184211574014748,0.11130766946467843,0.4994935845472097,-0.0575911185414212,0.06702056859791994,-0.21293122434207498,-0.6089919416118486,-0.05782153824076317,-0.6665296498075322,-2.5943493972912166,-0.05557572386662164,2.5079567375772744,0.876316138418184,-0.6090851748156966,-0.05753196718556838,-0.666603097082616,-2.5945565370258534,-0.05562143941554,2.507976027223799,0.8763108487046415,0.00021019629674853832,-0.001019934046028451,-0.00022527349001092667,-0.00491142659955668,-0.0001149798307370391,-0.00020095529637001615,-0.0011333187766502096,0.0,0.0,0.0,0.0,0.0,0.0,0.0,-9.323320384801992e-05,0.0002895710551947886,-7.344727508384885e-05,-0.00020713973463681867,-4.571554891835694e-05,1.928964652453402e-05,-5.2897135425222785e-06,-0.00021019629674853832,0.001019934046028451,0.00022527349001092667,0.00491142659955668,0.0001149798307370391,0.00020095529637001615,0.0011333187766502096,0.06972616910934448,18.078760147094727,-0.9418671131134033,-18.047517776489258,-0.3674216866493225,-2.2552523612976074,0.17978231608867645,0
36,0.17500638961791992,-0.06972616910934448,-18.078760147094727,0.9418671131134033,18.047517776489258,0.3674216866493225,2.2552523612976074,-0.17978231608867645,0.0,0.0,0.0,0.0,0.0,0.0,0.0,-0.046790352617556,0.5184211574014748,0.11130766946467843,0.4994935845472097,-0.0575911185414212,0.06702056859791994,-0.21293122434207498,-0.6089919416118486,-0.05782153824076317,-0.6665296498075322,-2.5943493972912166,-0.05557572386662164,2.5079567375772744,0.876316138418184,-0.6090851748156966,-0.05753196718556838,-0.666603097082616,-2.5945565370258534,-0.05562143941554,2.507976027223799,0.8763108487046415,0.00021019629674853832,-0.001019934046028451,-0.00022527349001092667,-0.00491142659955668,-0.0001149798307370391,-0.00020095529637001615,-0.0011333187766502096,0.0,0.0,0.0,0.0,0.0,0.0,0.0,-9.323320384801992e-05,0.0002895710551947886,-7.344727508384885e-05,-0.00020713973463681867,-4.571554891835694e-05,1.928964652453402e-05,-5.2897135425222785e-06,-0.00021019629674853832,0.001019934046028451,0.00022527349001092667,0.00491142659955668,0.0001149798307370391,0.00020095529637001615,0.0011333187766502096,0.06972616910934448,18.078760147094727,-0.9418671131134033,-18.047517776489258,-0.3674216866493225,-2.2552523612976074,0.17978231608867645,0
37,0.18009662628173828,-0.06972616910934448,-18.106531143188477,0.9418671131134033,18.122896194458008,0.3738303780555725,2.2424349784851074,-0.22830526530742645,0.0,0.0,0.0,0.0,0.0,0.0,0.0,-0.05172614682340936,0.5090836175935436,0.11174532958853213,0.5299350977297016,-0.05679481250705213,0.07112236953686261,-0.21030879748607567,-0.6089921755040149,-0.05781958939893203,-0.666528938203218,-2.594354687004758,-0.055576435943444566,2.5079581617249382,0.8763215298569863,-0.6090851748156966,-0.05753196718556838,-0.666603097082616,-2.5945565370258534,-0.05562143941554,2.507976027223799,0.8763108487046415,0.00017586980700546028,5.84987741527725e-05,-0.0004794716915559142,0.00010676637989748424,-0.00034559716869361724,0.00019910766327519685,0.0007317384576254322,0.0,0.0,0.0,0.0,0.0,0.0,0.0,-9.299931168171849e-05,0.00028762221336364746,-7.415887939798971e-05,-0.00020185002109540662,-4.500347209543398e-05,1.7865498860736295e-05,-1.0681152344815814e-05,-0.00017586980700546028,-5.84987741527725e-05,0.0004794716915559142,-0.00010676637989748424,0.00034559716869361724,-0.00019910766327519685,-0.0007317384576254322,0.06972616910934448,18.106531143188477,-0.9418671131134033,-18.122896194458008,-0.3738303780555725,-2.2424349784851074,0.22830526530742645,0
38,0.18527913093566895,-0.06972616910934448,-18.106531143188477,0.9418671131134033,18.122896194458008,0.3738303780555725,2.2424349784851074,-0.22830526530742645,0.0,0.0,0.0,0.0,0.0,0.0,0.0,-0.05172614682340936,0.5090836175935436,0.11174532958853213,0.5299350977297016,-0.05679481250705213,0.07112236953686261,-0.21030879748607567,-0.6089921755040149,-0.05781958939893203,-0.666528938203218,-2.594354687004758,-0.055576435943444566,2.5079581617249382,0.8763215298569863,-0.6090851748156966,-0.05753196718556838,-0.666603097082616,-2.5945565370258534,-0.05562143941554,2.507976027223799,0.8763108487046415,0.00017586980700546028,5.84987741527725e-05,-0.0004794716915559142,0.00010676637989748424,-0.00034559716869361724,0.00019910766327519685,0.0007317384576254322,0.0,0.0,0.0,0.0,0.0,0.0,0.0,-9.299931168171849e-05,0.00028762221336364746,-7.415887939798971e-05,-0.00020185002109540662,-4.500347209543398e-05,1.7865498860736295e-05,-1.0681152344815814e-05,-0.00017586980700546028,-5.84987741527725e-05,0.0004794716915559142,-0.00010676637989748424,0.00034559716869361724,-0.00019910766327519685,-0.0007317384576254322,0.06972616910934448,18.106531143188477,-0.9418671131134033,-18.122896194458008,-0.3738303780555725,-2.2424349784851074,0.22830526530742645,0
39,0.18999576568603516,-0.018151462078094482,-18.154138565063477,0.9696381092071533,18.170503616333008,0.3793235421180725,2.2689852714538574,-0.22098104655742645,0.0,0.0,0.0,0.0,0.0,0.0,0.0,-0.04825063783041848,0.5274251948794714,0.1141399253144281,0.49736493726011777,-0.05816505271289287,0.06574337591524422,-0.21053970943215378,-0.6089955351715454,-0.0578162485272215,-0.6665294839834878,-2.594358027876469,-0.055577046295007065,2.507955329429956,0.876320716054903,-0.6090851748156966,-0.05753196718556838,-0.666603097082616,-2.5945565370258534,-0.05562143941554,2.507976027223799,0.8763108487046415,-0.0005457262444841537,0.00011406795852599445,-0.0010781999304870199,6.537503479543397e-05,-0.0003909760399315561,-0.0005263126324767113,-0.00041508409327650254,0.0,0.0,0.0,0.0,0.0,0.0,0.0,-8.963964415120707e-05,0.0002842813416531198,-7.361309912823355e-05,-0.00019850914938457365,-4.439312053293454e-05,2.0697793842838763e-05,-9.867350261538732e-06,0.0005457262444841537,-0.00011406795852599445,0.0010781999304870199,-6.537503479543397e-05,0.0003909760399315561,0.0005263126324767113,0.00041508409327650254,0.018151462078094482,18.154138565063477,-0.9696381092071533,-18.170503616333008,-0.3793235421180725,-2.2689852714538574,0.22098104655742645,0
40,0.1949920654296875,-0.018151462078094482,-18.154138565063477,0.9696381092071533,18.170503616333008,0.3793235421180725,2.2689852714538574,-0.22098104655742645,0.0,0.0,0.0,0.0,0.0,0.0,0.0,-0.04825063783041848,0.5274251948794714,0.1141399253144281,0.49736493726011777,-0.05816505271289287,0.06574337591524422,-0.21053970943215378,-0.6089955351715454,-0.0578162485272215,-0.6665294839834878,-2.594358027876469,-0.055577046295007065,2.507955329429956,0.876320716054903,-0.6090851748156966,-0.05753196718556838,-0.666603097082616,-2.5945565370258534,-0.05562143941554,2.507976027223799,0.8763108487046415,-0.0005457262444841537,0.00011406795852599445,-0.0010781999304870199,6.537503479543397e-05,-0.0003909760399315561,-0.0005263126324767113,-0.00041508409327650254,0.0,0.0,0.0,0.0,0.0,0.0,0.0,-8.963964415120707e-05,0.0002842813416531198,-7.361309912823355e-05,-0.00019850914938457365,-4.439312053293454e-05,2.0697793842838763e-05,-9.867350261538732e-06,0.0005457262444841537,-0.00011406795852599445,0.0010781999304870199,-6.537503479543397e-05,0.0003909760399315561,0.0005263126324767113,0.00041508409327650254,0.018151462078094482,18.154138565063477,-0.9696381092071533,-18.170503616333008,-0.3793235421180725,-2.2689852714538574,0.22098104655742645,0
41,0.19999384880065918,0.03342324495315552,-18.154138565063477,0.9418671131134033,18.170503616333008,0.3674216866493225,2.2488436698913574,-0.15964071452617645,0.0,0.0,0.0,0.0,0.0,0.0,0.0,-0.046131850786935207,0.5305719305943057,0.11370179438467065,0.4890430829896592,-0.057863217282313695,0.06516005731521914,-0.21238261354178145,-0.6089992416506869,-0.0578162485272215,-0.6665296498313118,-2.594358027876469,-0.055575725328120995,2.50795756738635,0.8763138990089049,-0.6090851748156966,-0.05753196718556838,-0.666603097082616,-2.5945565370258534,-0.05562143941554,2.507976027223799,0.8763108487046415,-0.0019220010158825472,-0.0005397016737103024,1.6919299075561393e-05,-0.000784628874572795,0.0003112493172081977,0.0003950159116515885,-0.0013893676382885696,0.0,0.0,0.0,0.0,0.0,0.0,0.0,-8.59331650097106e-05,0.0002842813416531198,-7.344725130420393e-05,-0.00019850914938457365,-4.5714087419004845e-05,1.8459837448858707e-05,-3.050304263396697e-06,0.0019220010158825472,0.0005397016737103024,-1.6919299075561393e-05,0.000784628874572795,-0.0003112493172081977,-0.0003950159116515885,0.0013893676382885696,-0.03342324495315552,18.154138565063477,-0.9418671131134033,-18.170503616333008,-0.3674216866493225,-2.2488436698913574,0.15964071452617645,0
42,0.20499062538146973,0.03342324495315552,-18.154138565063477,0.9418671131134033,18.170503616333008,0.3674216866493225,2.2488436698913574,-0.15964071452617645,0.0,0.0,0.0,0.0,0.0,0.0,0.0,-0.046131850786935207,0.5305719305943057,0.11370179438467065,0.4890430829896592,-0.057863217282313695,0.06516005731521914,-0.21238261354178145,-0.6089992416506869,-0.0578162485272215,-0.6665296498313118,-2.594358027876469,-0.055575725328120995,2.50795756738635,0.8763138990089049,-0.6090851748156966,-0.05753196718556838,-0.666603097082616,-2.5945565370258534,-0.05562143941554,2.507976027223799,0.8763108487046415,-0.0019220010158825472,-0.0005397016737103024,1.6919299075561393e-05,-0.000784628874572795,0.0003112493172081977,0.0003950159116515885,-0.0013893676382885696,0.0,0.0,0.0,0.0,0.0,0.0,0.0,-8.59331650097106e-05,0.0002842813416531198,-7.344725130420393e-05,-0.00019850914938457365,-4.5714087419004845e-05,1.8459837448858707e-05,-3.050304263396697e-06,0.0019220010158825472,0.0005397016737103024,-1.6919299075561393e-05,0.000784628874572795,-0.0003112493172081977,-0.0003950159116515885,0.0013893676382885696,-0.03342324495315552,18.154138565063477,-0.9418671131134033,-18.170503616333008,-0.3674216866493225,-2.2488436698913574,0.15964071452617645,0
43,0.2099926471710205,-0.04592245817184448,-18.154138565063477,0.9180634021759033,18.099092483520508,0.3619285225868225,2.2424349784851074,-0.18710653483867645,0.0,0.0,0.0,0.0,0.0,0.0,0.0,-0.039099834808869416,0.5277106950804852,0.11843898596401067,0.49027187042987924,-0.05711913082792025,0.06651659647907188,-0.2086959602532086,-0.6089935859364171,-0.0578162485272215,-0.6665277194035938,-2.594353016568903,-0.055575113515067394,2.507958161725603,0.8763169522202595,-0.6090851748156966,-0.05753196718556838,-0.666603097082616,-2.5945565370258534,-0.05562143941554,2.507976027223799,0.8763108487046415,0.0007779444487327413,-6.847525316542498e-05,0.0009289934708365911,0.0007080492669154378,0.00010473042791954265,0.0004877478484416659,-0.0006532334712295579,0.0,0.0,0.0,0.0,0.0,0.0,0.0,-9.158887927951387e-05,0.0002842813416531198,-7.537767902221493e-05,-0.00020352045695037901,-4.632590047260604e-05,1.7865498195934748e-05,-6.103515618027799e-06,-0.0007779444487327413,6.847525316542498e-05,-0.0009289934708365911,-0.0007080492669154378,-0.00010473042791954265,-0.0004877478484416659,0.0006532334712295579,0.04592245817184448,18.154138565063477,-0.9180634021759033,-18.099092483520508,-0.3619285225868225,-2.2424349784851074,0.18710653483867645,0
44,0.21499276161193848,-0.04592245817184448,-18.154138565063477,0.9180634021759033,18.099092483520508,0.3619285225868225,2.2424349784851074,-0.18710653483867645,0.0,0.0,0.0,0.0,0.0,0.0,0.0,-0.039099834808869416,0.5277106950804852,0.11843898596401067,0.49027187042987924,-0.05711913082792025,0.06651659647907188,-0.2086959602532086,-0.6089935859364171,-0.0578162485272215,-0.6665277194035938,-2.594353016568903,-0.055575113515067394,2.507958161725603,0.8763169522202595,-0.6090851748156966,-0.05753196718556838,-0.666603097082616,-2.5945565370258534,-0.05562143941554,2.507976027223799,0.8763108487046415,0.0007779444487327413,-6.847525316542498e-05,0.0009289934708365911,0.0007080492669154378,0.00010473042791954265,0.0004877478484416659,-0.0006532334712295579,0.0,0.0,0.0,0.0,0.0,0.0,0.0,-9.158887927951387e-05,0.0002842813416531198,-7.537767902221493e-05,-0.00020352045695037901,-4.632590047260604e-05,1.7865498195934748e-05,-6.103515618027799e-06,-0.0007779444487327413,6.847525316542498e-05,-0.0009289934708365911,-0.0007080492669154378,-0.00010473042791954265,-0.0004877478484416659,0.0006532334712295579,0.04592245817184448,18.154138565063477,-0.9180634021759033,-18.099092483520508,-0.3619285225868225,-2.2424349784851074,0.18710653483867645,0
45,0.21999454498291016,-0.04592245817184448,-18.154138565063477,0.9180634021759033,18.146699905395508,0.3619285225868225,2.2488436698913574,-0.20083944499492645,0.0,0.0,0.0,0.0,0.0,0.0,0.0,-0.04626580751794312,0.5223861098819544,0.11188495547965044,0.49582340759541615,-0.05672006091418918,0.06750314179602923,-0.208003150016499,-0.6089935859002568,-0.0578162485272215,-0.6665258618194199,-2.5943563574406134,-0.055575113515059144,2.5079574496481154,0.8763184780991738,-0.6090851748156966,-0.05753196718556838,-0.666603097082616,-2.5945565370258534,-0.05562143941554,2.507976027223799,0.8763108487046415,-0.00031603709497796264,0.0006248536776260434,0.0004711935186750275,-0.000200238606129597,0.00031098050839588765,6.584584693646726e-05,-0.0008549294882590744,0.0,0.0,0.0,0.0,0.0,0.0,0.0,-9.158891543981085e-05,0.0002842813416531198,-7.723526319614038e-05,-0.00020017958523999013,-4.6325900480856386e-05,1.8577575683575986e-05,-7.629394532360223e-06,0.00031603709497796264,-0.0006248536776260434,-0.0004711935186750275,0.000200238606129597,-0.00031098050839588765,-6.584584693646726e-05,0.0008549294882590744,0.04592245817184448,18.154138565063477,-0.9180634021759033,-18.146699905395508,-0.3619285225868225,-2.2488436698913574,0.20083944499492645,0
46,0.22499918937683105,-0.04592245817184448,-18.154138565063477,0.9180634021759033,18.146699905395508,0.3619285225868225,2.2488436698913574,-0.20083944499492645,0.0,0.0,0.0,0.0,0.0,0.0,0.0,-0.04626580751794312,0.5223861098819544,0.11188495547965044,0.49582340759541615,-0.05672006091418918,0.06750314179602923,-0.208003150016499,-0.6089935859002568,-0.0578162485272215,-0.6665258618194199,-2.5943563574406134,-0.055575113515059144,2.5079574496481154,0.8763184780991738,-0.6090851748156966,-0.05753196718556838,-0.666603097082616,-2.5945565370258534,-0.05562143941554,2.507976027223799,0.8763108487046415,-0.00031603709497796264,0.0006248536776260434,0.0004711935186750275,-0.000200238606129597,0.00031098050839588765,6.584584693646726e-05,-0.0008549294882590744,0.0,0.0,0.0,0.0,0.0,0.0,0.0,-9.158891543981085e-05,0.0002842813416531198,-7.723526319614038e-05,-0.00020017958523999013,-4.6325900480856386e-05,1.8577575683575986e-05,-7.629394532360223e-06,0.00031603709497796264,-0.0006248536776260434,-0.0004711935186750275,0.000200238606129597,-0.00031098050839588765,-6.584584693646726e-05,0.0008549294882590744,0.04592245817184448,18.154138565063477,-0.9180634021759033,-18.146699905395508,-0.3619285225868225,-2.2488436698913574,0.20083944499492645,0
47,0.23000431060791016,-0.04592245817184448,-18.154138565063477,0.9180634021759033,18.146699905395508,0.3619285225868225,2.2488436698913574,-0.20083944499492645,0.0,0.0,0.0,0.0,0.0,0.0,0.0,-0.04626580751794312,0.5223861098819544,0.11188495547965044,0.49582340759541615,-0.05672006091418918,0.06750314179602923,-0.208003150016499,-0.6089935859002568,-0.0578162485272215,-0.6665258618194199,-2.5943563574406134,-0.055575113515059144,2.5079574496481154,0.8763184780991738,-0.6090851748156966,-0.05753196718556838,-0.666603097082616,-2.5945565370258534,-0.05562143941554,2.507976027223799,0.8763108487046415,-0.00031603709497796264,0.0006248536776260434,0.0004711935186750275,-0.000200238606129597,0.00031098050839588765,6.584584693646726e-05,-0.0008549294882590744,0.0,0.0,0.0,0.0,0.0,0.0,0.0,-9.158891543981085e-05,0.0002842813416531198,-7.723526319614038e-05,-0.00020017958523999013,-4.6325900480856386e-05,1.8577575683575986e-05,-7.629394532360223e-06,0.00031603709497796264,-0.0006248536776260434,-0.0004711935186750275,0.000200238606129597,-0.00031098050839588765,-6.584584693646726e-05,0.0008549294882590744,0.04592245817184448,18.154138565063477,-0.9180634021759033,-18.146699905395508,-0.3619285225868225,-2.2488436698913574,0.20083944499492645,0
48,0.2349996566772461,-0.04592245817184448,-18.106531143188477,0.9418671131134033,18.198274612426758,0.3674216866493225,2.2424349784851074,-0.17978231608867645,0.0,0.0,0.0,0.0,0.0,0.0,0.0,-0.04209448960901776,0.5227318426620552,0.11900989257483473,0.49654328755428145,-0.056851497968940796,0.06696679300892788,-0.2108079690325524,-0.6089944005788307,-0.05781958939893203,-0.666529623723918,-2.5943599767183,-0.05557572386662164,2.5079592213630675,0.8763161384181842,-0.6090851748156966,-0.05753196718556838,-0.666603097082616,-2.5945565370258534,-0.05562143941554,2.507976027223799,0.8763108487046415,2.4833289574393775e-05,-0.00039692182192724426,8.665098869213223e-05,-0.00158391873850531,9.790049774280068e-07,0.00034725891169448285,-0.0005958806645856291,0.0,0.0,0.0,0.0,0.0,0.0,0.0,-9.077423686587593e-05,0.00028762221336364746,-7.347335869800631e-05,-0.00019656030755355047,-4.571554891835694e-05,1.6805860731494704e-05,-5.289713542744323e-06,-2.4833289574393775e-05,0.00039692182192724426,-8.665098869213223e-05,0.00158391873850531,-9.790049774280068e-07,-0.00034725891169448285,0.0005958806645856291,0.04592245817184448,18.106531143188477,-0.9418671131134033,-18.198274612426758,-0.3674216866493225,-2.2424349784851074,0.17978231608867645,0
49,0.24000263214111328,-0.04592245817184448,-18.106531143188477,0.9418671131134033,18.198274612426758,0.3674216866493225,2.2424349784851074,-0.17978231608867645,0.0,0.0,0.0,0.0,0.0,0.0,0.0,-0.04209448960901776,0.5227318426620552,0.11900989257483473,0.49654328755428145,-0.056851497968940796,0.06696679300892788,-0.2108079690325524,-0.6089944005788307,-0.05781958939893203,-0.666529623723918,-2.5943599767183,-0.05557572386662164,2.5079592213630675,0.8763161384181842,-0.6090851748156966,-0.05753196718556838,-0.666603097082616,-2.5945565370258534,-0.05562143941554,2.507976027223799,0.8763108487046415,2.4833289574393775e-05,-0.00039692182192724426,8.665098869213223e-05,-0.00158391873850531,9.790049774280068e-07,0.00034725891169448285,-0.0005958806645856291,0.0,0.0,0.0,0.0,0.0,0.0,0.0,-9.077423686587593e-05,0.00028762221336364746,-7.347335869800631e-05,-0.00019656030755355047,-4.571554891835694e-05,1.6805860731494704e-05,-5.289713542744323e-06,-2.4833289574393775e-05,0.00039692182192724426,-8.665098869213223e-05,0.00158391873850531,-9.790049774280068e-07,-0.00034725891169448285,0.0005958806645856291,0.04592245817184448,18.106531143188477,-0.9418671131134033,-18.198274612426758,-0.3674216866493225,-2.2424349784851074,0.17978231608867645,0
50,0.2449946403503418,0.005652248859405518,-18.106531143188477,0.9180634021759033,18.122896194458008,0.3555198311805725,2.2552523612976074,-0.24112264811992645,0.0,0.0,0.0,0.0,0.0,0.0,0.0,-0.04761177005446686,0.5206230442798018,0.11579042911223733,0.5005712327313727,-0.056162745749410777,0.06678548214039863,-0.20863313929882532,-0.6089972051825417,-0.05781958939893203,-0.6665277453681606,-2.594354687004758,-0.05557440143823623,2.507956776823131,0.8763229540106322,-0.6090851748156966,-0.05753196718556838,-0.666603097082616,-2.5945565370258534,-0.05562143941554,2.507976027223799,0.8763108487046415,-0.0012554999205052486,-0.0006683016770699355,0.0003927506828105803,0.0005735188459305282,0.0004298435686437677,-0.000215801178453639,0.0011704083269766276,0.0,0.0,0.0,0.0,0.0,0.0,0.0,-8.796963315482742e-05,0.00028762221336364746,-7.535171445538502e-05,-0.00020185002109540662,-4.7037977303772405e-05,1.9250400668191503e-05,-1.2105305990717241e-05,0.0012554999205052486,0.0006683016770699355,-0.0003927506828105803,-0.0005735188459305282,-0.0004298435686437677,0.000215801178453639,-0.0011704083269766276,-0.005652248859405518,18.106531143188477,-0.9180634021759033,-18.122896194458008,-0.3555198311805725,-2.2552523612976074,0.24112264811992645,0
51,0.24999403953552246,0.005652248859405518,-18.106531143188477,0.9180634021759033,18.122896194458008,0.3555198311805725,2.2552523612976074,-0.24112264811992645,0.0,0.0,0.0,0.0,0.0,0.0,0.0,-0.04761177005446686,0.5206230442798018,0.11579042911223733,0.5005712327313727,-0.056162745749410777,0.06678548214039863,-0.20863313929882532,-0.6089972051825417,-0.05781958939893203,-0.6665277453681606,-2.594354687004758,-0.05557440143823623,2.507956776823131,0.8763229540106322,-0.6090851748156966,-0.05753196718556838,-0.666603097082616,-2.5945565370258534,-0.05562143941554,2.507976027223799,0.8763108487046415,-0.0012554999205052486,-0.0006683016770699355,0.0003927506828105803,0.0005735188459305282,0.0004298435686437677,-0.000215801178453639,0.0011704083269766276,0.0,0.0,0.0,0.0,0.0,0.0,0.0,-8.796963315482742e-05,0.00028762221336364746,-7.535171445538502e-05,-0.00020185002109540662,-4.7037977303772405e-05,1.9250400668191503e-05,-1.2105305990717241e-05,0.0012554999205052486,0.0006683016770699355,-0.0003927506828105803,-0.0005735188459305282,-0.0004298435686437677,0.000215801178453639,-0.0011704083269766276,-0.005652248859405518,18.106531143188477,-0.9180634021759033,-18.122896194458008,-0.3555198311805725,-2.2552523612976074,0.24112264811992645,0
52,0.25499629974365234,-0.018151462078094482,-18.130334854125977,0.8942596912384033,18.146699905395508,0.3793235421180725,2.2552523612976074,-0.17978231608867645,0.0,0.0,0.0,0.0,0.0,0.0,0.0,-0.04644673301880246,0.521922762138713,0.1157573819654057,0.5008809151332667,-0.05633601952746026,0.06647406404873778,-0.21007749001981513,-0.6089955607424677,-0.05781791896307677,-0.6665262714141131,-2.5943563574406134,-0.05557704580821914,2.507956737571514,0.8763161384181842,-0.6090851748156966,-0.05753196718556838,-0.666603097082616,-2.5945565370258534,-0.05562143941554,2.507976027223799,0.8763108487046415,-0.0002434795602002361,-0.00041425772057525383,0.0007439201838562339,-0.0001987475166918957,-0.0003433439899082216,-0.00014852349227991758,-0.0013954240668898794,0.0,0.0,0.0,0.0,0.0,0.0,0.0,-8.961407322882753e-05,0.00028595177750838363,-7.682566850286676e-05,-0.00020017958523999013,-4.439360732085701e-05,1.9289652284815162e-05,-5.289713542744323e-06,0.0002434795602002361,0.00041425772057525383,-0.0007439201838562339,0.0001987475166918957,0.0003433439899082216,0.00014852349227991758,0.0013954240668898794,0.018151462078094482,18.130334854125977,-0.8942596912384033,-18.146699905395508,-0.3793235421180725,-2.2552523612976074,0.17978231608867645,0
53,0.2599971294403076,-0.018151462078094482,-18.130334854125977,0.8942596912384033,18.146699905395508,0.3793235421180725,2.2552523612976074,-0.17978231608867645,0.0,0.0,0.0,0.0,0.0,0.0,0.0,-0.04644673301880246,0.521922762138713,0.1157573819654057,0.5008809151332667,-0.05633601952746026,0.06647406404873778,-0.21007749001981513,-0.6089955607424677,-0.05781791896307677,-0.6665262714141131,-2.5943563574406134,-0.05557704580821914,2.507956737571514,0.8763161384181842,-0.6090851748156966,-0.05753196718556838,-0.666603097082616,-2.5945565370258534,-0.05562143941554,2.507976027223799,0.8763108487046415,-0.0002434795602002361,-0.00041425772057525383,0.0007439201838562339,-0.0001987475166918957,-0.0003433439899082216,-0.00014852349227991758,-0.0013954240668898794,0.0,0.0,0.0,0.0,0.0,0.0,0.0,-8.961407322882753e-05,0.00028595177750838363,-7.682566850286676e-05,-0.00020017958523999013,-4.439360732085701e-05,1.9289652284815162e-05,-5.289713542744323e-06,0.0002434795602002361,0.00041425772057525383,-0.0007439201838562339,0.0001987475166918957,0.0003433439899082216,0.00014852349227991758,0.0013954240668898794,0.018151462078094482,18.130334854125977,-0.8942596912384033,-18.146699905395508,-0.3793235421180725,-2.2552523612976074,0.17978231608867645,0
54,0.26499462127685547,-0.06972616910934448,-18.177942276000977,0.9418671131134033,18.122896194458008,0.3619285225868225,2.2552523612976074,-0.17337362468242645,0.0,0.0,0.0,0.0,0.0,0.0,0.0,-0.041276710758756656,0.5225378515454768,0.11652993693643407,0.5023326883601983,-0.056280177947334455,0.06698442126648207,-0.20994683967359346,-0.6089921497889605,-0.05781457809136624,-0.6665296459554634,-2.594354687004758,-0.055575113515056396,2.5079613293365193,0.8763154263413614,-0.6090851748156966,-0.05753196718556838,-0.666603097082616,-2.5945565370258534,-0.05562143941554,2.507976027223799,0.8763108487046415,0.0007174759396935298,0.000661067290080889,1.0593277413390277e-05,0.0005228305725144451,2.0793634177354818e-05,-0.00018909112282808498,-0.0014687352720564868,0.0,0.0,0.0,0.0,0.0,0.0,0.0,-9.302502673602664e-05,0.00028261090579785597,-7.345112715262392e-05,-0.00020185002109540662,-4.632590048360419e-05,1.4697887279702115e-05,-4.577636719904632e-06,-0.0007174759396935298,-0.000661067290080889,-1.0593277413390277e-05,-0.0005228305725144451,-2.0793634177354818e-05,0.00018909112282808498,0.0014687352720564868,0.06972616910934448,18.177942276000977,-0.9418671131134033,-18.122896194458008,-0.3619285225868225,-2.2552523612976074,0.17337362468242645,0
55,0.26999735832214355,-0.06972616910934448,-18.177942276000977,0.9418671131134033,18.122896194458008,0.3619285225868225,2.2552523612976074,-0.17337362468242645,0.0,0.0,0.0,0.0,0.0,0.0,0.0,-0.041276710758756656,0.5225378515454768,0.11652993693643407,0.5023326883601983,-0.056280177947334455,0.06698442126648207,-0.20994683967359346,-0.6089921497889605,-0.05781457809136624,-0.6665296459554634,-2.594354687004758,-0.055575113515056396,2.5079613293365193,0.8763154263413614,-0.6090851748156966,-0.05753196718556838,-0.666603097082616,-2.5945565370258534,-0.05562143941554,2.507976027223799,0.8763108487046415,0.0007174759396935298,0.000661067290080889,1.0593277413390277e-05,0.0005228305725144451,2.0793634177354818e-05,-0.00018909112282808498,-0.0014687352720564868,0.0,0.0,0.0,0.0,0.0,0.0,0.0,-9.302502673602664e-05,0.00028261090579785597,-7.345112715262392e-05,-0.00020185002109540662,-4.632590048360419e-05,1.4697887279702115e-05,-4.577636719904632e-06,-0.0007174759396935298,-0.000661067290080889,-1.0593277413390277e-05,-0.0005228305725144451,-2.0793634177354818e-05,0.00018909112282808498,0.0014687352720564868,0.06972616910934448,18.177942276000977,-0.9418671131134033,-18.122896194458008,-0.3619285225868225,-2.2552523612976074,0.17337362468242645,0
56,0.2749931812286377,-0.09352988004684448,-18.106531143188477,0.9418671131134033,18.099092483520508,0.3738303780555725,2.2488436698913574,-0.20083944499492645,0.0,0.0,0.0,0.0,0.0,0.0,0.0,-0.03933906953478908,0.526279718465737,0.11779762816948058,0.49777647071486536,-0.0571627685724091,0.06594489051005524,-0.21008847688761445,-0.6089902479187999,-0.05781958939893203,-0.6665295458060414,-2.594353016568903,-0.055576435943444566,2.507957449674036,0.8763184780991738,-0.6090851748156966,-0.05753196718556838,-0.666603097082616,-2.5945565370258534,-0.05562143941554,2.507976027223799,0.8763108487046415,0.0013088365069368311,-0.000890975629781636,-1.5662780569628153e-05,0.0005348974666185361,-0.0004589987912608514,4.527042711308826e-05,-0.0009153197820506229,0.0,0.0,0.0,0.0,0.0,0.0,0.0,-9.492689689671874e-05,0.00028762221336364746,-7.355127657460159e-05,-0.00020352045695037901,-4.500347209543398e-05,1.8577549762976986e-05,-7.629394532360223e-06,-0.0013088365069368311,0.000890975629781636,1.5662780569628153e-05,-0.0005348974666185361,0.0004589987912608514,-4.527042711308826e-05,0.0009153197820506229,0.09352988004684448,18.106531143188477,-0.9418671131134033,-18.099092483520508,-0.3738303780555725,-2.2488436698913574,0.20083944499492645,0
57,0.28000450134277344,-0.09352988004684448,-18.106531143188477,0.9418671131134033,18.099092483520508,0.3738303780555725,2.2488436698913574,-0.20083944499492645,0.0,0.0,0.0,0.0,0.0,0.0,0.0,-0.03933906953478908,0.526279718465737,0.11779762816948058,0.49777647071486536,-0.0571627685724091,0.06594489051005524,-0.21008847688761445,-0.6089902479187999,-0.05781958939893203,-0.6665295458060414,-2.594353016568903,-0.055576435943444566,2.507957449674036,0.8763184780991738,-0.6090851748156966,-0.05753196718556838,-0.666603097082616,-2.5945565370258534,-0.05562143941554,2.507976027223799,0.8763108487046415,0.0013088365069368311,-0.000890975629781636,-1.5662780569628153e-05,0.0005348974666185361,-0.0004589987912608514,4.527042711308826e-05,-0.0009153197820506229,0.0,0.0,0.0,0.0,0.0,0.0,0.0,-9.492689689671874e-05,0.00028762221336364746,-7.355127657460159e-05,-0.00020352045695037901,-4.500347209543398e-05,1.8577549762976986e-05,-7.629394532360223e-06,-0.0013088365069368311,0.000890975629781636,1.5662780569628153e-05,-0.0005348974666185361,0.0004589987912608514,-4.527042711308826e-05,0.0009153197820506229,0.09352988004684448,18.106531143188477,-0.9418671131134033,-18.099092483520508,-0.3738303780555725,-2.2488436698913574,0.20083944499492645,0
58,0.2850077152252197,-0.09352988004684448,-18.130334854125977,0.8942596912384033,18.170503616333008,0.3857322335243225,2.2488436698913574,-0.17978231608867645,0.0,0.0,0.0,0.0,0.0,0.0,0.0,-0.03917961677470162,0.5221799443084063,0.11523292636675495,0.5014439473887875,-0.057138934528498296,0.06640829047586178,-0.21236370866795318,-0.6089902479174933,-0.05781791896307677,-0.6665263089709516,-2.594358028215631,-0.05557775837182998,2.5079574496481154,0.8763161384181842,-0.6090851748156966,-0.05753196718556838,-0.666603097082616,-2.5945565370258534,-0.05562143941554,2.507976027223799,0.8763108487046415,0.0012711809624716746,-0.00011717634548338622,0.0008299966970194614,-0.0008263040809859524,-0.0005432432601277243,5.784019629288872e-05,-0.0012477463785055285,0.0,0.0,0.0,0.0,0.0,0.0,0.0,-9.492689820322919e-05,0.00028595177750838363,-7.678811166444977e-05,-0.00019850881022254185,-4.368104371001852e-05,1.8577575683575986e-05,-5.289713542744323e-06,-0.0012711809624716746,0.00011717634548338622,-0.0008299966970194614,0.0008263040809859524,0.0005432432601277243,-5.784019629288872e-05,0.0012477463785055285,0.09352988004684448,18.130334854125977,-0.8942596912384033,-18.170503616333008,-0.3857322335243225,-2.2488436698913574,0.17978231608867645,0
59,0.28999996185302734,-0.09352988004684448,-18.130334854125977,0.8942596912384033,18.170503616333008,0.3857322335243225,2.2488436698913574,-0.17978231608867645,0.0,0.0,0.0,0.0,0.0,0.0,0.0,-0.03917961677470162,0.5221799443084063,0.11523292636675495,0.5014439473887875,-0.057138934528498296,0.06640829047586178,-0.21236370866795318,-0.6089902479174933,-0.05781791896307677,-0.6665263089709516,-2.594358028215631,-0.05557775837182998,2.5079574496481154,0.8763161384181842,-0.6090851748156966,-0.05753196718556838,-0.666603097082616,-2.5945565370258534,-0.05562143941554,2.507976027223799,0.8763108487046415,0.0012711809624716746,-0.00011717634548338622,0.0008299966970194614,-0.0008263040809859524,-0.0005432432601277243,5.784019629288872e-05,-0.0012477463785055285,0.0,0.0,0.0,0.0,0.0,0.0,0.0,-9.492689820322919e-05,0.00028595177750838363,-7.678811166444977e-05,-0.00019850881022254185,-4.368104371001852e-05,1.8577575683575986e-05,-5.289713542744323e-06,-0.0012711809624716746,0.00011717634548338622,-0.0008299966970194614,0.0008263040809859524,0.0005432432601277243,-5.784019629288872e-05,0.0012477463785055285,0.09352988004684448,18.130334854125977,-0.8942596912384033,-18.170503616333008,-0.3857322335243225,-2.2488436698913574,0.17978231608867645,0
60,0.2950000762939453,-0.09352988004684448,-18.130334854125977,0.8942596912384033,18.170503616333008,0.3857322335243225,2.2488436698913574,-0.17978231608867645,0.0,0.0,0.0,0.0,0.0,0.0,0.0,-0.03917961677470162,0.5221799443084063,0.11523292636675495,0.5014439473887875,-0.057138934528498296,0.06640829047586178,-0.21236370866795318,-0.6089902479174933,-0.05781791896307677,-0.6665263089709516,-2.594358028215631,-0.05557775837182998,2.5079574496481154,0.8763161384181842,-0.6090851748156966,-0.05753196718556838,-0.666603097082616,-2.5945565370258534,-0.05562143941554,2.507976027223799,0.8763108487046415,0.0012711809624716746,-0.00011717634548338622,0.0008299966970194614,-0.0008263040809859524,-0.0005432432601277243,5.784019629288872e-05,-0.0012477463785055285,0.0,0.0,0.0,0.0,0.0,0.0,0.0,-9.492689820322919e-05,0.00028595177750838363,-7.678811166444977e-05,-0.00019850881022254185,-4.368104371001852e-05,1.8577575683575986e-05,-5.289713542744323e-06,-0.0012711809624716746,0.00011717634548338622,-0.0008299966970194614,0.0008263040809859524,0.0005432432601277243,-5.784019629288872e-05,0.0012477463785055285,0.09352988004684448,18.130334854125977,-0.8942596912384033,-18.170503616333008,-0.3857322335243225,-2.2488436698913574,0.17978231608867645,0
61,0.2999405860900879,-0.09352988004684448,-18.130334854125977,0.8942596912384033,18.170503616333008,0.3857322335243225,2.2488436698913574,-0.17978231608867645,0.0,0.0,0.0,0.0,0.0,0.0,0.0,-0.03917961677470162,0.5221799443084063,0.11523292636675495,0.5014439473887875,-0.057138934528498296,0.06640829047586178,-0.21236370866795318,-0.6089902479174933,-0.05781791896307677,-0.6665263089709516,-2.594358028215631,-0.05557775837182998,2.5079574496481154,0.8763161384181842,-0.6090851748156966,-0.05753196718556838,-0.666603097082616,-2.5945565370258534,-0.05562143941554,2.507976027223799,0.8763108487046415,0.0012711809624716746,-0.00011717634548338622,0.0008299966970194614,-0.0008263040809859524,-0.0005432432601277243,5.784019629288872e-05,-0.0012477463785055285,0.0,0.0,0.0,0.0,0.0,0.0,0.0,-9.492689820322919e-05,0.00028595177750838363,-7.678811166444977e-05,-0.00019850881022254185,-4.368104371001852e-05,1.8577575683575986e-05,-5.289713542744323e-06,-0.0012711809624716746,0.00011717634548338622,-0.0008299966970194614,0.0008263040809859524,0.0005432432601277243,-5.784019629288872e-05,0.0012477463785055285,0.09352988004684448,18.130334854125977,-0.8942596912384033,-18.170503616333008,-0.3857322335243225,-2.2488436698913574,0.17978231608867645,0
62,0.3049931526184082,-0.06972616910934448,-18.106531143188477,0.9180634021759033,18.099092483520508,0.3674216866493225,2.2424349784851074,-0.20724813640117645,0.0,0.0,0.0,0.0,0.0,0.0,0.0,-0.03843803291031749,0.525931777659333,0.11524201461305432,0.5014388614555524,-0.056735822066647706,0.06548577752419611,-0.21060047678623706,-0.6089919934655577,-0.05781958939893203,-0.6665279794073941,-2.5943530165689053,-0.05557572386662164,2.507958162209455,0.8763191901759968,-0.6090851748156966,-0.05753196718556838,-0.666603097082616,-2.5945565370258534,-0.05562143941554,2.507976027223799,0.8763108487046415,0.0006138142666441675,-0.0002674030854372059,0.00040344418817294205,0.0013627171103717383,7.588957471512646e-05,0.00025116399428556934,0.0006383588111962209,0.0,0.0,0.0,0.0,0.0,0.0,0.0,-9.31813501389156e-05,0.00028762221336364746,-7.511767522194734e-05,-0.00020352045694815857,-4.571554891835694e-05,1.7865014343865226e-05,-8.341471355310937e-06,-0.0006138142666441675,0.0002674030854372059,-0.00040344418817294205,-0.0013627171103717383,-7.588957471512646e-05,-0.00025116399428556934,-0.0006383588111962209,0.06972616910934448,18.106531143188477,-0.9180634021759033,-18.099092483520508,-0.3674216866493225,-2.2424349784851074,0.20724813640117645,0
63,0.30999326705932617,-0.06972616910934448,-18.106531143188477,0.9180634021759033,18.099092483520508,0.3674216866493225,2.2424349784851074,-0.20724813640117645,0.0,0.0,0.0,0.0,0.0,0.0,0.0,-0.03843803291031749,0.525931777659333,0.11524201461305432,0.5014388614555524,-0.056735822066647706,0.06548577752419611,-0.21060047678623706,-0.6089919934655577,-0.05781958939893203,-0.6665279794073941,-2.5943530165689053,-0.05557572386662164,2.507958162209455,0.8763191901759968,-0.6090851748156966,-0.05753196718556838,-0.666603097082616,-2.5945565370258534,-0.05562143941554,2.507976027223799,0.8763108487046415,0.0006138142666441675,-0.0002674030854372059,0.00040344418817294205,0.0013627171103717383,7.588957471512646e-05,0.00025116399428556934,0.0006383588111962209,0.0,0.0,0.0,0.0,0.0,0.0,0.0,-9.31813501389156e-05,0.00028762221336364746,-7.511767522194734e-05,-0.00020352045694815857,-4.571554891835694e-05,1.7865014343865226e-05,-8.341471355310937e-06,-0.0006138142666441675,0.0002674030854372059,-0.00040344418817294205,-0.0013627171103717383,-7.588957471512646e-05,-0.00025116399428556934,-0.0006383588111962209,0.06972616910934448,18.106531143188477,-0.9180634021759033,-18.099092483520508,-0.3674216866493225,-2.2424349784851074,0.20724813640117645,0
64,0.31499361991882324,-0.09352988004684448,-18.154138565063477,0.9418671131134033,18.122896194458008,0.3738303780555725,2.2552523612976074,-0.24112264811992645,0.0,0.0,0.0,0.0,0.0,0.0,0.0,-0.03735969165871666,0.5224730099176625,0.11752938312689969,0.5041852582792002,-0.05701406521229867,0.06546895843552782,-0.20877928386242597,-0.6089904790680722,-0.0578162485272215,-0.6665296469543182,-2.5943546870047585,-0.055576435943444566,2.507957090784005,0.8763229540106322,-0.6090851748156966,-0.05753196718556838,-0.666603097082616,-2.5945565370258534,-0.05562143941554,2.507976027223799,0.8763108487046415,0.00111326450520412,6.11528163781068e-05,7.373648064703789e-05,0.0003404647175398294,-0.00012833227360371427,-1.8346690187710325e-05,0.0010701953461144833,0.0,0.0,0.0,0.0,0.0,0.0,0.0,-9.469574762432931e-05,0.0002842813416531198,-7.345012829784725e-05,-0.00020185002109496253,-4.500347209543398e-05,1.8936439794003945e-05,-1.2105305990717241e-05,-0.00111326450520412,-6.11528163781068e-05,-7.373648064703789e-05,-0.0003404647175398294,0.00012833227360371427,1.8346690187710325e-05,-0.0010701953461144833,0.09352988004684448,18.154138565063477,-0.9418671131134033,-18.122896194458008,-0.3738303780555725,-2.2552523612976074,0.24112264811992645,0
65,0.3199946880340576,-0.09352988004684448,-18.154138565063477,0.9418671131134033,18.122896194458008,0.3738303780555725,2.2552523612976074,-0.24112264811992645,0.0,0.0,0.0,0.0,0.0,0.0,0.0,-0.03735969165871666,0.5224730099176625,0.11752938312689969,0.5041852582792002,-0.05701406521229867,0.06546895843552782,-0.20877928386242597,-0.6089904790680722,-0.0578162485272215,-0.6665296469543182,-2.5943546870047585,-0.055576435943444566,2.507957090784005,0.8763229540106322,-0.6090851748156966,-0.05753196718556838,-0.666603097082616,-2.5945565370258534,-0.05562143941554,2.507976027223799,0.8763108487046415,0.00111326450520412,6.11528163781068e-05,7.373648064703789e-05,0.0003404647175398294,-0.00012833227360371427,-1.8346690187710325e-05,0.0010701953461144833,0.0,0.0,0.0,0.0,0.0,0.0,0.0,-9.469574762432931e-05,0.0002842813416531198,-7.345012829784725e-05,-0.00020185002109496253,-4.500347209543398e-05,1.8936439794003945e-05,-1.2105305990717241e-05,-0.00111326450520412,-6.11528163781068e-05,-7.373648064703789e-05,-0.0003404647175398294,0.00012833227360371427,1.8346690187710325e-05,-0.0010701953461144833,0.09352988004684448,18.154138565063477,-0.9418671131134033,-18.122896194458008,-0.3738303780555725,-2.2552523612976074,0.24112264811992645,0
66,0.324993371963501,-0.018151462078094482,-18.154138565063477,0.8704559803009033,18.146699905395508,0.3793235421180725,2.2488436698913574,-0.24112264811992645,0.0,0.0,0.0,0.0,0.0,0.0,0.0,-0.042595856100082215,0.5236026151861276,0.11524132505490743,0.504721320715154,-0.05653161632255874,0.06617652191418016,-0.21045611966377517,-0.6089955434102021,-0.0578162485272215,-0.6665245334285069,-2.594356357440614,-0.055577046295007065,2.5079574496501094,0.8763229540106322,-0.6090851748156966,-0.05753196718556838,-0.666603097082616,-2.5945565370258534,-0.05562143941554,2.507976027223799,0.8763108487046415,-0.0005914355292597952,0.0005335958950508558,0.0016346258088446577,-0.000116084584126561,-0.0002934214307272985,0.0003139654935273022,0.0014915460351152385,0.0,0.0,0.0,0.0,0.0,0.0,0.0,-8.963140549445026e-05,0.0002842813416531198,-7.856365410907618e-05,-0.00020017958523954604,-4.439312053293454e-05,1.8577573689615434e-05,-1.2105305990717241e-05,0.0005914355292597952,-0.0005335958950508558,-0.0016346258088446577,0.000116084584126561,0.0002934214307272985,-0.0003139654935273022,-0.0014915460351152385,0.018151462078094482,18.154138565063477,-0.8704559803009033,-18.146699905395508,-0.3793235421180725,-2.2488436698913574,0.24112264811992645,0
67,0.32999587059020996,-0.018151462078094482,-18.154138565063477,0.8704559803009033,18.146699905395508,0.3793235421180725,2.2488436698913574,-0.24112264811992645,0.0,0.0,0.0,0.0,0.0,0.0,0.0,-0.042595856100082215,0.5236026151861276,0.11524132505490743,0.504721320715154,-0.05653161632255874,0.06617652191418016,-0.21045611966377517,-0.6089955434102021,-0.0578162485272215,-0.6665245334285069,-2.594356357440614,-0.055577046295007065,2.5079574496501094,0.8763229540106322,-0.6090851748156966,-0.05753196718556838,-0.666603097082616,-2.5945565370258534,-0.05562143941554,2.507976027223799,0.8763108487046415,-0.0005914355292597952,0.0005335958950508558,0.0016346258088446577,-0.000116084584126561,-0.0002934214307272985,0.0003139654935273022,0.0014915460351152385,0.0,0.0,0.0,0.0,0.0,0.0,0.0,-8.963140549445026e-05,0.0002842813416531198,-7.856365410907618e-05,-0.00020017958523954604,-4.439312053293454e-05,1.8577573689615434e-05,-1.2105305990717241e-05,0.0005914355292597952,-0.0005335958950508558,-0.0016346258088446577,0.000116084584126561,0.0002934214307272985,-0.0003139654935273022,-0.0014915460351152385,0.018151462078094482,18.154138565063477,-0.8704559803009033,-18.146699905395508,-0.3793235421180725,-2.2488436698913574,0.24112264811992645,0
68,0.33503150939941406,-0.018151462078094482,-18.106531143188477,0.9418671131134033,18.146699905395508,0.3793235421180725,2.2552523612976074,-0.23471395671367645,0.0,0.0,0.0,0.0,0.0,0.0,0.0,-0.042844336380474614,0.5256917603545885,0.11554404213275837,0.5026774907650593,-0.05577763316107239,0.06670537792804371,-0.20995003329206516,-0.6089962367523973,-0.05781958939893203,-0.6665296469537249,-2.594356357440614,-0.055577046295007065,2.5079567375712926,0.8763222419338093,-0.6090851748156966,-0.05753196718556838,-0.666603097082616,-2.5945565370258534,-0.05562143941554,2.507976027223799,0.8763108487046415,-0.0008844544169943057,-0.0002353482359275826,1.84547475899479e-05,-0.00029297312923173905,-0.0003624457204725826,5.848136409729727e-05,0.0012368145130922305,0.0,0.0,0.0,0.0,0.0,0.0,0.0,-8.893806329923759e-05,0.00028762221336364746,-7.345012889115043e-05,-0.00020017958523954604,-4.439312053293454e-05,1.9289652506415678e-05,-1.1393229167766528e-05,0.0008844544169943057,0.0002353482359275826,-1.84547475899479e-05,0.00029297312923173905,0.0003624457204725826,-5.848136409729727e-05,-0.0012368145130922305,0.018151462078094482,18.106531143188477,-0.9418671131134033,-18.146699905395508,-0.3793235421180725,-2.2552523612976074,0.23471395671367645,0
69,0.3399982452392578,-0.018151462078094482,-18.106531143188477,0.9418671131134033,18.146699905395508,0.3793235421180725,2.2552523612976074,-0.23471395671367645,0.0,0.0,0.0,0.0,0.0,0.0,0.0,-0.042844336380474614,0.5256917603545885,0.11554404213275837,0.5026774907650593,-0.05577763316107239,0.06670537792804371,-0.20995003329206516,-0.6089962367523973,-0.05781958939893203,-0.6665296469537249,-2.594356357440614,-0.055577046295007065,2.5079567375712926,0.8763222419338093,-0.6090851748156966,-0.05753196718556838,-0.666603097082616,-2.5945565370258534,-0.05562143941554,2.507976027223799,0.8763108487046415,-0.0008844544169943057,-0.0002353482359275826,1.84547475899479e-05,-0.00029297312923173905,-0.0003624457204725826,5.848136409729727e-05,0.0012368145130922305,0.0,0.0,0.0,0.0,0.0,0.0,0.0,-8.893806329923759e-05,0.00028762221336364746,-7.345012889115043e-05,-0.00020017958523954604,-4.439312053293454e-05,1.9289652506415678e-05,-1.1393229167766528e-05,0.0008844544169943057,0.0002353482359275826,-1.84547475899479e-05,0.00029297312923173905,0.0003624457204725826,-5.848136409729727e-05,-0.0012368145130922305,0.018151462078094482,18.106531143188477,-0.9418671131134033,-18.146699905395508,-0.3793235421180725,-2.2552523612976074,0.23471395671367645,0
70,0.3449976444244385,-0.04592245817184448,-18.106531143188477,0.9180634021759033,18.146699905395508,0.3674216866493225,2.2424349784851074,-0.23471395671367645,0.0,0.0,0.0,0.0,0.0,0.0,0.0,-0.047842288003775234,0.5289676718668094,0.11031072538768867,0.5004777574614822,-0.05545706931294567,0.0662058312301632,-0.208644679557466,-0.6089935859042194,-0.05781958939893203,-0.6665279707049186,-2.594356357440614,-0.05557572386662164,2.5079581617249382,0.8763222288518571,-0.6090851748156966,-0.05753196718556838,-0.666603097082616,-2.5945565370258534,-0.05562143941554,2.507976027223799,0.8763108487046415,-6.57596019667329e-05,-0.00031172137111155207,-0.000103324303362322,-0.0005689874624080908,-3.365115749035838e-05,0.00015653171935522015,0.001183700898222065,0.0,0.0,0.0,0.0,0.0,0.0,0.0,-9.158891147720283e-05,0.00028762221336364746,-7.512637769735431e-05,-0.00020017958523954604,-4.571554891835694e-05,1.7865498860736295e-05,-1.138014721557834e-05,6.57596019667329e-05,0.00031172137111155207,0.000103324303362322,0.0005689874624080908,3.365115749035838e-05,-0.00015653171935522015,-0.001183700898222065,0.04592245817184448,18.106531143188477,-0.9180634021759033,-18.146699905395508,-0.3674216866493225,-2.2424349784851074,0.23471395671367645,0
71,0.34999728202819824,-0.04592245817184448,-18.106531143188477,0.9180634021759033,18.146699905395508,0.3674216866493225,2.2424349784851074,-0.23471395671367645,0.0,0.0,0.0,0.0,0.0,0.0,0.0,-0.047842288003775234,0.5289676718668094,0.11031072538768867,0.5004777574614822,-0.05545706931294567,0.0662058312301632,-0.208644679557466,-0.6089935859042194,-0.05781958939893203,-0.6665279707049186,-2.594356357440614,-0.05557572386662164,2.5079581617249382,0.8763222288518571,-0.6090851748156966,-0.05753196718556838,-0.666603097082616,-2.5945565370258534,-0.05562143941554,2.507976027223799,0.8763108487046415,-6.57596019667329e-05,-0.00031172137111155207,-0.000103324303362322,-0.0005689874624080908,-3.365115749035838e-05,0.00015653171935522015,0.001183700898222065,0.0,0.0,0.0,0.0,0.0,0.0,0.0,-9.158891147720283e-05,0.00028762221336364746,-7.512637769735431e-05,-0.00020017958523954604,-4.571554891835694e-05,1.7865498860736295e-05,-1.138014721557834e-05,6.57596019667329e-05,0.00031172137111155207,0.000103324303362322,0.0005689874624080908,3.365115749035838e-05,-0.00015653171935522015,-0.001183700898222065,0.04592245817184448,18.106531143188477,-0.9180634021759033,-18.146699905395508,-0.3674216866493225,-2.2424349784851074,0.23471395671367645,0
72,0.3549964427947998,-0.09352988004684448,-18.154138565063477,0.9180634021759033,18.146699905395508,0.3674216866493225,2.2488436698913574,-0.24844686686992645,0.0,0.0,0.0,0.0,0.0,0.0,0.0,-0.04380166713322297,0.5264304520363142,0.11160742061549998,0.5037685780370594,-0.05610587288572434,0.06601325167240288,-0.2090840079365088,-0.608992429060468,-0.0578162485272215,-0.6665279505180338,-2.594356357440614,-0.05557572386662164,2.5079574496481154,0.8763236500750717,-0.6090851748156966,-0.05753196718556838,-0.666603097082616,-2.5945565370258534,-0.05562143941554,2.507976027223799,0.8763108487046415,0.0012071303878086021,0.0005546320133196864,0.00023088195381546002,-0.0004271691689687908,-2.026241134786507e-05,0.00012701338812210524,0.0009717852922127436,0.0,0.0,0.0,0.0,0.0,0.0,0.0,-9.274575522855155e-05,0.0002842813416531198,-7.514656458218472e-05,-0.00020017958523954604,-4.571554891835694e-05,1.8577575683575986e-05,-1.280137043024876e-05,-0.0012071303878086021,-0.0005546320133196864,-0.00023088195381546002,0.0004271691689687908,2.026241134786507e-05,-0.00012701338812210524,-0.0009717852922127436,0.09352988004684448,18.154138565063477,-0.9180634021759033,-18.146699905395508,-0.3674216866493225,-2.2488436698913574,0.24844686686992645,0
73,0.35999035835266113,-0.09352988004684448,-18.154138565063477,0.9180634021759033,18.146699905395508,0.3674216866493225,2.2488436698913574,-0.24844686686992645,0.0,0.0,0.0,0.0,0.0,0.0,0.0,-0.04380166713322297,0.5264304520363142,0.11160742061549998,0.5037685780370594,-0.05610587288572434,0.06601325167240288,-0.2090840079365088,-0.608992429060468,-0.0578162485272215,-0.6665279505180338,-2.594356357440614,-0.05557572386662164,2.5079574496481154,0.8763236500750717,-0.6090851748156966,-0.05753196718556838,-0.666603097082616,-2.5945565370258534,-0.05562143941554,2.507976027223799,0.8763108487046415,0.0012071303878086021,0.0005546320133196864,0.00023088195381546002,-0.0004271691689687908,-2.026241134786507e-05,0.00012701338812210524,0.0009717852922127436,0.0,0.0,0.0,0.0,0.0,0.0,0.0,-9.274575522855155e-05,0.0002842813416531198,-7.514656458218472e-05,-0.00020017958523954604,-4.571554891835694e-05,1.8577575683575986e-05,-1.280137043024876e-05,-0.0012071303878086021,-0.0005546320133196864,-0.00023088195381546002,0.0004271691689687908,2.026241134786507e-05,-0.00012701338812210524,-0.0009717852922127436,0.09352988004684448,18.154138565063477,-0.9180634021759033,-18.146699905395508,-0.3674216866493225,-2.2488436698913574,0.24844686686992645,0
74,0.365004301071167,-0.018151462078094482,-18.205713272094727,0.9696381092071533,18.122896194458008,0.3555198311805725,2.2424349784851074,-0.24112264811992645,0.0,0.0,0.0,0.0,0.0,0.0,0.0,-0.03702292690404857,0.5218513982590158,0.12068801923121471,0.5056040314021831,-0.0566548296533148,0.06702993595139262,-0.21048759620964616,-0.6089955357530594,-0.057812629249535105,-0.6665315986849174,-2.5943546870047585,-0.05557546687126159,2.5079581617249382,0.8763229540099676,-0.6090851748156966,-0.05753196718556838,-0.666603097082616,-2.5945565370258534,-0.05562143941554,2.507976027223799,0.8763108487046415,-0.0002591477056448906,0.0012159120761657564,-0.00039055227658942715,0.0006391449372546341,0.0004279143184494327,0.0004453558036273612,0.0011818376302873558,0.0,0.0,0.0,0.0,0.0,0.0,0.0,-8.963906263714794e-05,0.0002806620639667218,-7.149839769859945e-05,-0.00020185002109496253,-4.59725442784123e-05,1.7865498860736295e-05,-1.2105305326137739e-05,0.0002591477056448906,-0.0012159120761657564,0.00039055227658942715,-0.0006391449372546341,-0.0004279143184494327,-0.0004453558036273612,-0.0011818376302873558,0.018151462078094482,18.205713272094727,-0.9696381092071533,-18.122896194458008,-0.3555198311805725,-2.2424349784851074,0.24112264811992645,0
75,0.3699920177459717,-0.018151462078094482,-18.205713272094727,0.9696381092071533,18.122896194458008,0.3555198311805725,2.2424349784851074,-0.24112264811992645,0.0,0.0,0.0,0.0,0.0,0.0,0.0,-0.03702292690404857,0.5218513982590158,0.12068801923121471,0.5056040314021831,-0.0566548296533148,0.06702993595139262,-0.21048759620964616,-0.6089955357530594,-0.057812629249535105,-0.6665315986849174,-2.5943546870047585,-0.05557546687126159,2.5079581617249382,0.8763229540099676,-0.6090851748156966,-0.05753196718556838,-0.666603097082616,-2.5945565370258534,-0.05562143941554,2.507976027223799,0.8763108487046415,-0.0002591477056448906,0.0012159120761657564,-0.00039055227658942715,0.0006391449372546341,0.0004279143184494327,0.0004453558036273612,0.0011818376302873558,0.0,0.0,0.0,0.0,0.0,0.0,0.0,-8.963906263714794e-05,0.0002806620639667218,-7.149839769859945e-05,-0.00020185002109496253,-4.59725442784123e-05,1.7865498860736295e-05,-1.2105305326137739e-05,0.0002591477056448906,-0.0012159120761657564,0.00039055227658942715,-0.0006391449372546341,-0.0004279143184494327,-0.0004453558036273612,-0.0011818376302873558,0.018151462078094482,18.205713272094727,-0.9696381092071533,-18.122896194458008,-0.3555198311805725,-2.2424349784851074,0.24112264811992645,0
76,0.37499284744262695,-0.018151462078094482,-18.154138565063477,0.9180634021759033,18.122896194458008,0.3674216866493225,2.2488436698913574,-0.22098104655742645,0.0,0.0,0.0,0.0,0.0,0.0,0.0,-0.04464447672803404,0.49549650189243116,0.11330312941982537,0.5469575176352849,-0.05552227156901887,0.07344801238583035,-0.20940796163425285,-0.6089955347420879,-0.0578162485272215,-0.6665279784404542,-2.5943546870047585,-0.055578920165920476,2.5079574496481154,0.876320716054903,-0.6090851748156966,-0.05753196718556838,-0.666603097082616,-2.5945565370258534,-0.05562143941554,2.507976027223799,0.8763108487046415,-0.00035812080354245444,-0.0001740653645258392,0.0007718630891933223,-0.0014615278126714267,6.0023342252542e-05,0.00011595197107057213,0.0002749644650090429,0.0,0.0,0.0,0.0,0.0,0.0,0.0,-8.964007360867665e-05,0.0002842813416531198,-7.511864216180886e-05,-0.00020185002109496253,-4.2519249619524246e-05,1.8577575683575986e-05,-9.867350261538732e-06,0.00035812080354245444,0.0001740653645258392,-0.0007718630891933223,0.0014615278126714267,-6.0023342252542e-05,-0.00011595197107057213,-0.0002749644650090429,0.018151462078094482,18.154138565063477,-0.9180634021759033,-18.122896194458008,-0.3674216866493225,-2.2488436698913574,0.22098104655742645,0
77,0.3799898624420166,-0.018151462078094482,-18.154138565063477,0.9180634021759033,18.122896194458008,0.3674216866493225,2.2488436698913574,-0.22098104655742645,0.0,0.0,0.0,0.0,0.0,0.0,0.0,-0.04464447672803404,0.49549650189243116,0.11330312941982537,0.5469575176352849,-0.05552227156901887,0.07344801238583035,-0.20940796163425285,-0.6089955347420879,-0.0578162485272215,-0.6665279784404542,-2.5943546870047585,-0.055578920165920476,2.5079574496481154,0.876320716054903,-0.6090851748156966,-0.05753196718556838,-0.666603097082616,-2.5945565370258534,-0.05562143941554,2.507976027223799,0.8763108487046415,-0.00035812080354245444,-0.0001740653645258392,0.0007718630891933223,-0.0014615278126714267,6.0023342252542e-05,0.00011595197107057213,0.0002749644650090429,0.0,0.0,0.0,0.0,0.0,0.0,0.0,-8.964007360867665e-05,0.0002842813416531198,-7.511864216180886e-05,-0.00020185002109496253,-4.2519249619524246e-05,1.8577575683575986e-05,-9.867350261538732e-06,0.00035812080354245444,0.0001740653645258392,-0.0007718630891933223,0.0014615278126714267,-6.0023342252542e-05,-0.00011595197107057213,-0.0002749644650090429,0.018151462078094482,18.154138565063477,-0.9180634021759033,-18.122896194458008,-0.3674216866493225,-2.2488436698913574,0.22098104655742645,0
78,0.385009765625,-0.018151462078094482,-18.154138565063477,0.9180634021759033,18.122896194458008,0.3674216866493225,2.2488436698913574,-0.22098104655742645,0.0,0.0,0.0,0.0,0.0,0.0,0.0,-0.04464447672803404,0.49549650189243116,0.11330312941982537,0.5469575176352849,-0.05552227156901887,0.07344801238583035,-0.20940796163425285,-0.6089955347420879,-0.0578162485272215,-0.6665279784404542,-2.5943546870047585,-0.055578920165920476,2.5079574496481154,0.876320716054903,-0.6090851748156966,-0.05753196718556838,-0.666603097082616,-2.5945565370258534,-0.05562143941554,2.507976027223799,0.8763108487046415,-0.00035812080354245444,-0.0001740653645258392,0.0007718630891933223,-0.0014615278126714267,6.0023342252542e-05,0.00011595197107057213,0.0002749644650090429,0.0,0.0,0.0,0.0,0.0,0.0,0.0,-8.964007360867665e-05,0.0002842813416531198,-7.511864216180886e-05,-0.00020185002109496253,-4.2519249619524246e-05,1.8577575683575986e-05,-9.867350261538732e-06,0.00035812080354245444,0.0001740653645258392,-0.0007718630891933223,0.0014615278126714267,-6.0023342252542e-05,-0.00011595197107057213,-0.0002749644650090429,0.018151462078094482,18.154138565063477,-0.9180634021759033,-18.122896194458008,-0.3674216866493225,-2.2488436698913574,0.22098104655742645,0
79,0.39000463485717773,-0.018151462078094482,-18.154138565063477,0.9180634021759033,18.122896194458008,0.3674216866493225,2.2488436698913574,-0.22098104655742645,0.0,0.0,0.0,0.0,0.0,0.0,0.0,-0.04464447672803404,0.49549650189243116,0.11330312941982537,0.5469575176352849,-0.05552227156901887,0.07344801238583035,-0.20940796163425285,-0.6089955347420879,-0.0578162485272215,-0.6665279784404542,-2.5943546870047585,-0.055578920165920476,2.5079574496481154,0.876320716054903,-0.6090851748156966,-0.05753196718556838,-0.666603097082616,-2.5945565370258534,-0.05562143941554,2.507976027223799,0.8763108487046415,-0.00035812080354245444,-0.0001740653645258392,0.0007718630891933223,-0.0014615278126714267,6.0023342252542e-05,0.00011595197107057213,0.0002749644650090429,0.0,0.0,0.0,0.0,0.0,0.0,0.0,-8.964007360867665e-05,0.0002842813416531198,-7.511864216180886e-05,-0.00020185002109496253,-4.2519249619524246e-05,1.8577575683575986e-05,-9.867350261538732e-06,0.00035812080354245444,0.0001740653645258392,-0.0007718630891933223,0.0014615278126714267,-6.0023342252542e-05,-0.00011595197107057213,-0.0002749644650090429,0.018151462078094482,18.154138565063477,-0.9180634021759033,-18.122896194458008,-0.3674216866493225,-2.2488436698913574,0.22098104655742645,0
