rezayati/contactInterpretation/dataset/franka_main/labeled_data/link5/c12_5.csv
index,time,tau_J0,tau_J1,tau_J2,tau_J3,tau_J4,tau_J5,tau_J6,tau_J_d0,tau_J_d1,tau_J_d2,tau_J_d3,tau_J_d4,tau_J_d5,tau_J_d6,tau_ext0,tau_ext1,tau_ext2,tau_ext3,tau_ext4,tau_ext5,tau_ext6,q0,q1,q2,q3,q4,q5,q6,q_d0,q_d1,q_d2,q_d3,q_d4,q_d5,q_d6,dq0,dq1,dq2,dq3,dq4,dq5,dq6,dq_d0,dq_d1,dq_d2,dq_d3,dq_d4,dq_d5,dq_d6,e0,e1,e2,e3,e4,e5,e6,de0,de1,de2,de3,de4,de5,de6,etau_J0,etau_J1,etau_J2,etau_J3,etau_J4,etau_J5,etau_J6,label
1,0.0,-0.8076412081718445,-46.40121078491211,-5.810451984405518,19.586824417114258,0.9277244210243225,2.3852572441101074,-0.17337362468242645,0.0,0.0,0.0,0.0,0.0,0.0,0.0,-0.8173741052621306,-0.07383847351467797,-0.5892662054063491,0.39564528742436295,0.3406087640191236,0.11395099740198382,-0.19045052286411748,0.8782735488843102,0.7557100886115,-0.2824838801099543,-1.669210158711842,0.14135396526864447,2.403569314373864,1.027345371257852,0.878092876070424,0.7554597494309409,-0.2825552651693207,-1.6690993614607135,0.1414185955172306,2.4034451173676383,1.0273381002308042,-0.000630242333322421,-3.968048652145765e-05,0.0005391096187502329,0.0006339366771354123,2.077126881052358e-05,-0.0002876833729557299,-0.0001536653051365643,0.0,0.0,0.0,0.0,0.0,0.0,0.0,-0.00018067281388622902,-0.00025033918055916704,-7.138505936643558e-05,0.0001107972511285027,6.463024858613386e-05,-0.00012419700622556817,-7.271027047783818e-06,0.000630242333322421,3.968048652145765e-05,-0.0005391096187502329,-0.0006339366771354123,-2.077126881052358e-05,0.0002876833729557299,0.0001536653051365643,0.8076412081718445,46.40121078491211,5.810451984405518,-19.586824417114258,-0.9277244210243225,-2.3852572441101074,0.17337362468242645,0
2,0.0050487518310546875,-0.8076412081718445,-46.40121078491211,-5.810451984405518,19.586824417114258,0.9277244210243225,2.3852572441101074,-0.17337362468242645,0.0,0.0,0.0,0.0,0.0,0.0,0.0,-0.8173741052621306,-0.07383847351467797,-0.5892662054063491,0.39564528742436295,0.3406087640191236,0.11395099740198382,-0.19045052286411748,0.8782735488843102,0.7557100886115,-0.2824838801099543,-1.669210158711842,0.14135396526864447,2.403569314373864,1.027345371257852,0.878092876070424,0.7554597494309409,-0.2825552651693207,-1.6690993614607135,0.1414185955172306,2.4034451173676383,1.0273381002308042,-0.000630242333322421,-3.968048652145765e-05,0.0005391096187502329,0.0006339366771354123,2.077126881052358e-05,-0.0002876833729557299,-0.0001536653051365643,0.0,0.0,0.0,0.0,0.0,0.0,0.0,-0.00018067281388622902,-0.00025033918055916704,-7.138505936643558e-05,0.0001107972511285027,6.463024858613386e-05,-0.00012419700622556817,-7.271027047783818e-06,0.000630242333322421,3.968048652145765e-05,-0.0005391096187502329,-0.0006339366771354123,-2.077126881052358e-05,0.0002876833729557299,0.0001536653051365643,0.8076412081718445,46.40121078491211,5.810451984405518,-19.586824417114258,-0.9277244210243225,-2.3852572441101074,0.17337362468242645,0
3,0.010042190551757812,-0.8076412081718445,-46.37740707397461,-5.735073566436768,19.559053421020508,0.9213157296180725,2.3724398612976074,-0.21457235515117645,0.0,0.0,0.0,0.0,0.0,0.0,0.0,-0.8057661957133874,-0.055601205308625085,-0.5793821047673732,0.3889911102709375,0.3404797179115295,0.11274731344397382,-0.18876309480960976,0.8782735421435253,0.7557105642582393,-0.282489169823496,-1.669208508020997,0.14135504543095637,2.40357073852751,1.027349948397944,0.878092876070424,0.7554597494309409,-0.2825552651693207,-1.6690993614607135,0.1414185955172306,2.4034451173676383,1.0273381002308042,-0.0003733534760952175,-0.0001685518535019899,-8.637288366942263e-05,0.0007922255053673658,-3.3935305649621775e-05,0.000343457151642593,0.00122380076405399,0.0,0.0,0.0,0.0,0.0,0.0,0.0,-0.00018066607310129879,-0.0002508148272984956,-6.609534582474597e-05,0.0001091465602836017,6.355008627423331e-05,-0.00012562115987169165,-1.1848167139838495e-05,0.0003733534760952175,0.0001685518535019899,8.637288366942263e-05,-0.0007922255053673658,3.3935305649621775e-05,-0.000343457151642593,-0.00122380076405399,0.8076412081718445,46.37740707397461,5.735073566436768,-19.559053421020508,-0.9213157296180725,-2.3724398612976074,0.21457235515117645,0
4,0.015043020248413086,-0.8076412081718445,-46.37740707397461,-5.735073566436768,19.559053421020508,0.9213157296180725,2.3724398612976074,-0.21457235515117645,0.0,0.0,0.0,0.0,0.0,0.0,0.0,-0.8057661957133874,-0.055601205308625085,-0.5793821047673732,0.3889911102709375,0.3404797179115295,0.11274731344397382,-0.18876309480960976,0.8782735421435253,0.7557105642582393,-0.282489169823496,-1.669208508020997,0.14135504543095637,2.40357073852751,1.027349948397944,0.878092876070424,0.7554597494309409,-0.2825552651693207,-1.6690993614607135,0.1414185955172306,2.4034451173676383,1.0273381002308042,-0.0003733534760952175,-0.0001685518535019899,-8.637288366942263e-05,0.0007922255053673658,-3.3935305649621775e-05,0.000343457151642593,0.00122380076405399,0.0,0.0,0.0,0.0,0.0,0.0,0.0,-0.00018066607310129879,-0.0002508148272984956,-6.609534582474597e-05,0.0001091465602836017,6.355008627423331e-05,-0.00012562115987169165,-1.1848167139838495e-05,0.0003733534760952175,0.0001685518535019899,8.637288366942263e-05,-0.0007922255053673658,3.3935305649621775e-05,-0.000343457151642593,-0.00122380076405399,0.8076412081718445,46.37740707397461,5.735073566436768,-19.559053421020508,-0.9213157296180725,-2.3724398612976074,0.21457235515117645,0
5,0.020038843154907227,-0.8354122042655945,-46.44881820678711,-5.735073566436768,19.634431838989258,0.9332175850868225,2.3724398612976074,-0.22098104655742645,0.0,0.0,0.0,0.0,0.0,0.0,0.0,-0.8245390616091554,-0.06709807154673084,-0.5911994746026255,0.3930319489675698,0.3402496975572883,0.11425957588470864,-0.18899863055621083,0.8782754882033846,0.7557155755779198,-0.282489169823496,-1.6692138195717765,0.14135451015863396,2.40357073852751,1.027350660474764,0.878092876070424,0.7554597494309409,-0.2825552651693207,-1.6690993614607135,0.1414185955172306,2.4034451173676383,1.0273381002308042,-0.00010583920218100179,0.0013551396455256698,-0.0004530548536587969,-0.0009561427143586405,-0.0003717431901879255,0.0004976816534723014,0.0016783501474716342,0.0,0.0,0.0,0.0,0.0,0.0,0.0,-0.00018261213296066892,-0.00025582614697894357,-6.609534582474597e-05,0.00011445811106303161,6.408535859664388e-05,-0.00012562115987169165,-1.2560243959791606e-05,0.00010583920218100179,-0.0013551396455256698,0.0004530548536587969,0.0009561427143586405,0.0003717431901879255,-0.0004976816534723014,-0.0016783501474716342,0.8354122042655945,46.44881820678711,5.735073566436768,-19.634431838989258,-0.9332175850868225,-2.3724398612976074,0.22098104655742645,0
6,0.025048017501831055,-0.8354122042655945,-46.44881820678711,-5.735073566436768,19.634431838989258,0.9332175850868225,2.3724398612976074,-0.22098104655742645,0.0,0.0,0.0,0.0,0.0,0.0,0.0,-0.8245390616091554,-0.06709807154673084,-0.5911994746026255,0.3930319489675698,0.3402496975572883,0.11425957588470864,-0.18899863055621083,0.8782754882033846,0.7557155755779198,-0.282489169823496,-1.6692138195717765,0.14135451015863396,2.40357073852751,1.027350660474764,0.878092876070424,0.7554597494309409,-0.2825552651693207,-1.6690993614607135,0.1414185955172306,2.4034451173676383,1.0273381002308042,-0.00010583920218100179,0.0013551396455256698,-0.0004530548536587969,-0.0009561427143586405,-0.0003717431901879255,0.0004976816534723014,0.0016783501474716342,0.0,0.0,0.0,0.0,0.0,0.0,0.0,-0.00018261213296066892,-0.00025582614697894357,-6.609534582474597e-05,0.00011445811106303161,6.408535859664388e-05,-0.00012562115987169165,-1.2560243959791606e-05,0.00010583920218100179,-0.0013551396455256698,0.0004530548536587969,0.0009561427143586405,0.0003717431901879255,-0.0004976816534723014,-0.0016783501474716342,0.8354122042655945,46.44881820678711,5.735073566436768,-19.634431838989258,-0.9332175850868225,-2.3724398612976074,0.22098104655742645,0
7,0.030048370361328125,-0.8076412081718445,-46.37740707397461,-5.810451984405518,19.559053421020508,0.9213157296180725,2.3724398612976074,-0.22830526530742645,0.0,0.0,0.0,0.0,0.0,0.0,0.0,-0.8320911275711015,-0.06664750286245835,-0.5935534402932214,0.39009647163819006,0.34021114661544377,0.11440245473752814,-0.18823689141608355,0.8782756542731082,0.7557105642703541,-0.2824838801099543,-1.66920682105123,0.1413549987245114,2.40357073852751,1.0273514742768473,0.878092876070424,0.7554597494309409,-0.2825552651693207,-1.6690993614607135,0.1414185955172306,2.4034451173676383,1.0273381002308042,-0.0007129664347206017,-0.00037941706870440496,0.0008653366589621462,0.0009404002095605457,0.0001400546675065137,0.00034383815346217185,0.0015847551715991346,0.0,0.0,0.0,0.0,0.0,0.0,0.0,-0.0001827782026841973,-0.0002508148394132492,-7.138505936643558e-05,0.00010745959051661202,6.359679271919494e-05,-0.00012562115987169165,-1.3374046043068688e-05,0.0007129664347206017,0.00037941706870440496,-0.0008653366589621462,-0.0009404002095605457,-0.0001400546675065137,-0.00034383815346217185,-0.0015847551715991346,0.8076412081718445,46.37740707397461,5.810451984405518,-19.559053421020508,-0.9213157296180725,-2.3724398612976074,0.22830526530742645,0
8,0.035047292709350586,-0.8076412081718445,-46.37740707397461,-5.810451984405518,19.559053421020508,0.9213157296180725,2.3724398612976074,-0.22830526530742645,0.0,0.0,0.0,0.0,0.0,0.0,0.0,-0.8320911275711015,-0.06664750286245835,-0.5935534402932214,0.39009647163819006,0.34021114661544377,0.11440245473752814,-0.18823689141608355,0.8782756542731082,0.7557105642703541,-0.2824838801099543,-1.66920682105123,0.1413549987245114,2.40357073852751,1.0273514742768473,0.878092876070424,0.7554597494309409,-0.2825552651693207,-1.6690993614607135,0.1414185955172306,2.4034451173676383,1.0273381002308042,-0.0007129664347206017,-0.00037941706870440496,0.0008653366589621462,0.0009404002095605457,0.0001400546675065137,0.00034383815346217185,0.0015847551715991346,0.0,0.0,0.0,0.0,0.0,0.0,0.0,-0.0001827782026841973,-0.0002508148394132492,-7.138505936643558e-05,0.00010745959051661202,6.359679271919494e-05,-0.00012562115987169165,-1.3374046043068688e-05,0.0007129664347206017,0.00037941706870440496,-0.0008653366589621462,-0.0009404002095605457,-0.0001400546675065137,-0.00034383815346217185,-0.0015847551715991346,0.8076412081718445,46.37740707397461,5.810451984405518,-19.559053421020508,-0.9213157296180725,-2.3724398612976074,0.22830526530742645,0
9,0.04004549980163574,-0.8592159152030945,-46.34963607788086,-5.762844562530518,19.634431838989258,0.9332175850868225,2.3724398612976074,-0.19351522624492645,0.0,0.0,0.0,0.0,0.0,0.0,0.0,-0.812876412394483,-0.06662198835624211,-0.5805772631996802,0.3891037639579219,0.3396167283551825,0.113928439156333,-0.18917615305904675,0.8782771855075227,0.7557086153921843,-0.28248722098166484,-1.6692144101020339,0.14135477266904004,2.40357073852751,1.0273476087169515,0.878092876070424,0.7554597494309409,-0.2825552651693207,-1.6690993614607135,0.1414185955172306,2.4034451173676383,1.0273381002308042,0.0008416525731542765,-0.001122465865824354,0.000359057157693346,-0.0012771314640672336,-0.00031209788303204636,0.0003120686249700044,-0.0002242711970759241,0.0,0.0,0.0,0.0,0.0,0.0,0.0,-0.0001843094370986842,-0.0002488659612434052,-6.804418765588016e-05,0.00011504864132039216,6.38228481905645e-05,-0.00012562115987169165,-9.508486147336015e-06,-0.0008416525731542765,0.001122465865824354,-0.000359057157693346,0.0012771314640672336,0.00031209788303204636,-0.0003120686249700044,0.0002242711970759241,0.8592159152030945,46.34963607788086,5.762844562530518,-19.634431838989258,-0.9332175850868225,-2.3724398612976074,0.19351522624492645,0
10,0.0450439453125,-0.8592159152030945,-46.34963607788086,-5.762844562530518,19.634431838989258,0.9332175850868225,2.3724398612976074,-0.19351522624492645,0.0,0.0,0.0,0.0,0.0,0.0,0.0,-0.812876412394483,-0.06662198835624211,-0.5805772631996802,0.3891037639579219,0.3396167283551825,0.113928439156333,-0.18917615305904675,0.8782771855075227,0.7557086153921843,-0.28248722098166484,-1.6692144101020339,0.14135477266904004,2.40357073852751,1.0273476087169515,0.878092876070424,0.7554597494309409,-0.2825552651693207,-1.6690993614607135,0.1414185955172306,2.4034451173676383,1.0273381002308042,0.0008416525731542765,-0.001122465865824354,0.000359057157693346,-0.0012771314640672336,-0.00031209788303204636,0.0003120686249700044,-0.0002242711970759241,0.0,0.0,0.0,0.0,0.0,0.0,0.0,-0.0001843094370986842,-0.0002488659612434052,-6.804418765588016e-05,0.00011504864132039216,6.38228481905645e-05,-0.00012562115987169165,-9.508486147336015e-06,-0.0008416525731542765,0.001122465865824354,-0.000359057157693346,0.0012771314640672336,0.00031209788303204636,-0.0003120686249700044,0.0002242711970759241,0.8592159152030945,46.34963607788086,5.762844562530518,-19.634431838989258,-0.9332175850868225,-2.3724398612976074,0.19351522624492645,0
11,0.05001473426818848,-0.7838374972343445,-46.40121078491211,-5.735073566436768,19.610628128051758,0.9332175850868225,2.3852572441101074,-0.22098104655742645,0.0,0.0,0.0,0.0,0.0,0.0,0.0,-0.8110997890356292,-0.06101025767255291,-0.5785890126194729,0.3886735670781986,0.34020987423134236,0.11351842884313672,-0.1898873629299703,0.8782718727777423,0.7557122347062092,-0.282489169823496,-1.6692107754240333,0.1413536894204412,2.4035691907494154,1.027350660474764,0.878092876070424,0.7554597494309409,-0.2825552651693207,-1.6690993614607135,0.1414185955172306,2.4034451173676383,1.0273381002308042,-0.0006847451856288907,0.0008236649559241068,-0.00042917006665623407,-0.00046058980417052804,-0.00010621604033227375,-0.00010867429508031566,0.0013430028038072604,0.0,0.0,0.0,0.0,0.0,0.0,0.0,-0.00017899670731835737,-0.00025248527526833264,-6.609534582474597e-05,0.00011141396331981746,6.490609678941328e-05,-0.00012407338177711225,-1.2560243959791606e-05,0.0006847451856288907,-0.0008236649559241068,0.00042917006665623407,0.00046058980417052804,0.00010621604033227375,0.00010867429508031566,-0.0013430028038072604,0.7838374972343445,46.40121078491211,5.735073566436768,-19.610628128051758,-0.9332175850868225,-2.3852572441101074,0.22098104655742645,0
12,0.05504560470581055,-0.7838374972343445,-46.40121078491211,-5.735073566436768,19.610628128051758,0.9332175850868225,2.3852572441101074,-0.22098104655742645,0.0,0.0,0.0,0.0,0.0,0.0,0.0,-0.8110997890356292,-0.06101025767255291,-0.5785890126194729,0.3886735670781986,0.34020987423134236,0.11351842884313672,-0.1898873629299703,0.8782718727777423,0.7557122347062092,-0.282489169823496,-1.6692107754240333,0.1413536894204412,2.4035691907494154,1.027350660474764,0.878092876070424,0.7554597494309409,-0.2825552651693207,-1.6690993614607135,0.1414185955172306,2.4034451173676383,1.0273381002308042,-0.0006847451856288907,0.0008236649559241068,-0.00042917006665623407,-0.00046058980417052804,-0.00010621604033227375,-0.00010867429508031566,0.0013430028038072604,0.0,0.0,0.0,0.0,0.0,0.0,0.0,-0.00017899670731835737,-0.00025248527526833264,-6.609534582474597e-05,0.00011141396331981746,6.490609678941328e-05,-0.00012407338177711225,-1.2560243959791606e-05,0.0006847451856288907,-0.0008236649559241068,0.00042917006665623407,0.00046058980417052804,0.00010621604033227375,0.00010867429508031566,-0.0013430028038072604,0.7838374972343445,46.40121078491211,5.735073566436768,-19.610628128051758,-0.9332175850868225,-2.3852572441101074,0.22098104655742645,0
13,0.06003856658935547,-0.8076412081718445,-46.40121078491211,-5.786648273468018,19.586824417114258,0.9158225655555725,2.3852572441101074,-0.22098104655742645,0.0,0.0,0.0,0.0,0.0,0.0,0.0,-0.8093404724660749,-0.0680461879302982,-0.5787817933411441,0.39537311101437667,0.3405388192635656,0.11448020516493536,-0.19189551635115815,0.8782736175766945,0.7557122343791606,-0.2824855515269559,-1.669210176703912,0.14135951810966915,2.4035693143731662,1.027350660474764,0.878092876070424,0.7554597494309409,-0.2825552651693207,-1.6690993614607135,0.1414185955172306,2.4034451173676383,1.0273381002308042,0.00032466458739358755,9.878670509579826e-05,0.0014191856552473359,-8.850391255972472e-05,0.00029356551881860784,-8.005847681746133e-05,0.001582217921026037,0.0,0.0,0.0,0.0,0.0,0.0,0.0,-0.0001807415062705653,-0.00025248494821972223,-6.971364236479927e-05,0.00011081524319855873,5.9077407561447526e-05,-0.00012419700552790403,-1.2560243959791606e-05,-0.00032466458739358755,-9.878670509579826e-05,-0.0014191856552473359,8.850391255972472e-05,-0.00029356551881860784,8.005847681746133e-05,-0.001582217921026037,0.8076412081718445,46.40121078491211,5.786648273468018,-19.586824417114258,-0.9158225655555725,-2.3852572441101074,0.22098104655742645,0
14,0.0649867057800293,-0.8076412081718445,-46.40121078491211,-5.786648273468018,19.586824417114258,0.9158225655555725,2.3852572441101074,-0.22098104655742645,0.0,0.0,0.0,0.0,0.0,0.0,0.0,-0.8093404724660749,-0.0680461879302982,-0.5787817933411441,0.39537311101437667,0.3405388192635656,0.11448020516493536,-0.19189551635115815,0.8782736175766945,0.7557122343791606,-0.2824855515269559,-1.669210176703912,0.14135951810966915,2.4035693143731662,1.027350660474764,0.878092876070424,0.7554597494309409,-0.2825552651693207,-1.6690993614607135,0.1414185955172306,2.4034451173676383,1.0273381002308042,0.00032466458739358755,9.878670509579826e-05,0.0014191856552473359,-8.850391255972472e-05,0.00029356551881860784,-8.005847681746133e-05,0.001582217921026037,0.0,0.0,0.0,0.0,0.0,0.0,0.0,-0.0001807415062705653,-0.00025248494821972223,-6.971364236479927e-05,0.00011081524319855873,5.9077407561447526e-05,-0.00012419700552790403,-1.2560243959791606e-05,-0.00032466458739358755,-9.878670509579826e-05,-0.0014191856552473359,8.850391255972472e-05,-0.00029356551881860784,8.005847681746133e-05,-0.001582217921026037,0.8076412081718445,46.40121078491211,5.786648273468018,-19.586824417114258,-0.9158225655555725,-2.3852572441101074,0.22098104655742645,0
15,0.07057952880859375,-0.7838374972343445,-46.34963607788086,-5.711269855499268,19.586824417114258,0.9332175850868225,2.3788485527038574,-0.22830526530742645,0.0,0.0,0.0,0.0,0.0,0.0,0.0,-0.8189405708921516,-0.0655716550566101,-0.5863494207574459,0.3927125813423594,0.3401697416235707,0.114843491894033,-0.19088061619609445,0.8782718691401189,0.7557086144473747,-0.2824910787142746,-1.6692103776040648,0.14135371524995793,2.403570026450687,1.0273514742768473,0.878092876070424,0.7554597494309409,-0.2825552651693207,-1.6690993614607135,0.1414185955172306,2.4034451173676383,1.0273381002308042,-0.0002457616176349844,-0.0013808923654646725,-0.0005781044959543756,-0.0002021861172543213,-0.00014981731357679583,6.964419912616551e-05,0.0016904332862659665,0.0,0.0,0.0,0.0,0.0,0.0,0.0,-0.00017899306969493267,-0.0002488650164338413,-6.418645504613352e-05,0.00011101614335129462,6.48802672726656e-05,-0.00012490908304885195,-1.3374046043068688e-05,0.0002457616176349844,0.0013808923654646725,0.0005781044959543756,0.0002021861172543213,0.00014981731357679583,-6.964419912616551e-05,-0.0016904332862659665,0.7838374972343445,46.34963607788086,5.711269855499268,-19.586824417114258,-0.9332175850868225,-2.3788485527038574,0.22830526530742645,0
16,0.07504582405090332,-0.7838374972343445,-46.34963607788086,-5.711269855499268,19.586824417114258,0.9332175850868225,2.3788485527038574,-0.22830526530742645,0.0,0.0,0.0,0.0,0.0,0.0,0.0,-0.8189405708921516,-0.0655716550566101,-0.5863494207574459,0.3927125813423594,0.3401697416235707,0.114843491894033,-0.19088061619609445,0.8782718691401189,0.7557086144473747,-0.2824910787142746,-1.6692103776040648,0.14135371524995793,2.403570026450687,1.0273514742768473,0.878092876070424,0.7554597494309409,-0.2825552651693207,-1.6690993614607135,0.1414185955172306,2.4034451173676383,1.0273381002308042,-0.0002457616176349844,-0.0013808923654646725,-0.0005781044959543756,-0.0002021861172543213,-0.00014981731357679583,6.964419912616551e-05,0.0016904332862659665,0.0,0.0,0.0,0.0,0.0,0.0,0.0,-0.00017899306969493267,-0.0002488650164338413,-6.418645504613352e-05,0.00011101614335129462,6.48802672726656e-05,-0.00012490908304885195,-1.3374046043068688e-05,0.0002457616176349844,0.0013808923654646725,0.0005781044959543756,0.0002021861172543213,0.00014981731357679583,-6.964419912616551e-05,-0.0016904332862659665,0.7838374972343445,46.34963607788086,5.711269855499268,-19.586824417114258,-0.9332175850868225,-2.3788485527038574,0.22830526530742645,0
17,0.08004212379455566,-0.8076412081718445,-46.40121078491211,-5.786648273468018,19.634431838989258,0.9213157296180725,2.3788485527038574,-0.13858358561992645,0.0,0.0,0.0,0.0,0.0,0.0,0.0,-0.8258073521647357,-0.061818386844330366,-0.5891811053294568,0.38927436726019365,0.3400700893166204,0.11453923733385929,-0.1898095726528763,0.8782735482423261,0.7557122347062075,-0.2824855505462582,-1.6692115323932974,0.14135924619623932,2.403570026450687,1.0273415052013264,0.878092876070424,0.7554597494309409,-0.2825552651693207,-1.6690993614607135,0.1414185955172306,2.4034451173676383,1.0273381002308042,-0.0002697981247468188,0.00022250321448909267,0.0011404930560810188,-0.000639591068977697,0.00016666391485405536,-5.2997519467244205e-05,-0.002296610760269752,0.0,0.0,0.0,0.0,0.0,0.0,0.0,-0.0001806721719020965,-0.0002524852752666673,-6.97146230625445e-05,0.00011217093258397703,5.9349320991275434e-05,-0.00012490908304885195,-3.404970522202788e-06,0.0002697981247468188,-0.00022250321448909267,-0.0011404930560810188,0.000639591068977697,-0.00016666391485405536,5.2997519467244205e-05,0.002296610760269752,0.8076412081718445,46.40121078491211,5.786648273468018,-19.634431838989258,-0.9213157296180725,-2.3788485527038574,0.13858358561992645,0
18,0.08503985404968262,-0.8076412081718445,-46.40121078491211,-5.786648273468018,19.634431838989258,0.9213157296180725,2.3788485527038574,-0.13858358561992645,0.0,0.0,0.0,0.0,0.0,0.0,0.0,-0.8258073521647357,-0.061818386844330366,-0.5891811053294568,0.38927436726019365,0.3400700893166204,0.11453923733385929,-0.1898095726528763,0.8782735482423261,0.7557122347062075,-0.2824855505462582,-1.6692115323932974,0.14135924619623932,2.403570026450687,1.0273415052013264,0.878092876070424,0.7554597494309409,-0.2825552651693207,-1.6690993614607135,0.1414185955172306,2.4034451173676383,1.0273381002308042,-0.0002697981247468188,0.00022250321448909267,0.0011404930560810188,-0.000639591068977697,0.00016666391485405536,-5.2997519467244205e-05,-0.002296610760269752,0.0,0.0,0.0,0.0,0.0,0.0,0.0,-0.0001806721719020965,-0.0002524852752666673,-6.97146230625445e-05,0.00011217093258397703,5.9349320991275434e-05,-0.00012490908304885195,-3.404970522202788e-06,0.0002697981247468188,-0.00022250321448909267,-0.0011404930560810188,0.000639591068977697,-0.00016666391485405536,5.2997519467244205e-05,0.002296610760269752,0.8076412081718445,46.40121078491211,5.786648273468018,-19.634431838989258,-0.9213157296180725,-2.3788485527038574,0.13858358561992645,0
19,0.09005498886108398,-0.8869869112968445,-46.32583236694336,-5.762844562530518,19.610628128051758,0.9277244210243225,2.3724398612976074,-0.17337362468242645,0.0,0.0,0.0,0.0,0.0,0.0,0.0,-0.8313424926452954,-0.0546617317537623,-0.5947568944412025,0.38571656492078776,0.3399615743644203,0.11355376751099312,-0.18873258883923127,0.8782793426614977,0.75570670653775,-0.2824872242521529,-1.669212135300947,0.14135870452549743,2.40357073852751,1.02734573280425,0.878092876070424,0.7554597494309409,-0.2825552651693207,-1.6690993614607135,0.1414185955172306,2.4034451173676383,1.0273381002308042,0.0015456992546051607,-0.0010195744145804716,-0.0010463501148211655,-0.0002558092695914633,-0.00015456794172168063,0.00040366405001581693,-0.00017276238233378187,0.0,0.0,0.0,0.0,0.0,0.0,0.0,-0.00018646659107368624,-0.0002469571068091092,-6.804091716783311e-05,0.00011277384023355985,5.989099173317469e-05,-0.00012562115987169165,-7.632573445714996e-06,-0.0015456992546051607,0.0010195744145804716,0.0010463501148211655,0.0002558092695914633,0.00015456794172168063,-0.00040366405001581693,0.00017276238233378187,0.8869869112968445,46.32583236694336,5.762844562530518,-19.610628128051758,-0.9277244210243225,-2.3724398612976074,0.17337362468242645,0
20,0.0950784683227539,-0.8869869112968445,-46.32583236694336,-5.762844562530518,19.610628128051758,0.9277244210243225,2.3724398612976074,-0.17337362468242645,0.0,0.0,0.0,0.0,0.0,0.0,0.0,-0.8313424926452954,-0.0546617317537623,-0.5947568944412025,0.38571656492078776,0.3399615743644203,0.11355376751099312,-0.18873258883923127,0.8782793426614977,0.75570670653775,-0.2824872242521529,-1.669212135300947,0.14135870452549743,2.40357073852751,1.02734573280425,0.878092876070424,0.7554597494309409,-0.2825552651693207,-1.6690993614607135,0.1414185955172306,2.4034451173676383,1.0273381002308042,0.0015456992546051607,-0.0010195744145804716,-0.0010463501148211655,-0.0002558092695914633,-0.00015456794172168063,0.00040366405001581693,-0.00017276238233378187,0.0,0.0,0.0,0.0,0.0,0.0,0.0,-0.00018646659107368624,-0.0002469571068091092,-6.804091716783311e-05,0.00011277384023355985,5.989099173317469e-05,-0.00012562115987169165,-7.632573445714996e-06,-0.0015456992546051607,0.0010195744145804716,0.0010463501148211655,0.0002558092695914633,0.00015456794172168063,-0.00040366405001581693,0.00017276238233378187,0.8869869112968445,46.32583236694336,5.762844562530518,-19.610628128051758,-0.9277244210243225,-2.3724398612976074,0.17337362468242645,0
21,0.10004353523254395,-0.8869869112968445,-46.32583236694336,-5.762844562530518,19.610628128051758,0.9277244210243225,2.3724398612976074,-0.17337362468242645,0.0,0.0,0.0,0.0,0.0,0.0,0.0,-0.8313424926452954,-0.0546617317537623,-0.5947568944412025,0.38571656492078776,0.3399615743644203,0.11355376751099312,-0.18873258883923127,0.8782793426614977,0.75570670653775,-0.2824872242521529,-1.669212135300947,0.14135870452549743,2.40357073852751,1.02734573280425,0.878092876070424,0.7554597494309409,-0.2825552651693207,-1.6690993614607135,0.1414185955172306,2.4034451173676383,1.0273381002308042,0.0015456992546051607,-0.0010195744145804716,-0.0010463501148211655,-0.0002558092695914633,-0.00015456794172168063,0.00040366405001581693,-0.00017276238233378187,0.0,0.0,0.0,0.0,0.0,0.0,0.0,-0.00018646659107368624,-0.0002469571068091092,-6.804091716783311e-05,0.00011277384023355985,5.989099173317469e-05,-0.00012562115987169165,-7.632573445714996e-06,-0.0015456992546051607,0.0010195744145804716,0.0010463501148211655,0.0002558092695914633,0.00015456794172168063,-0.00040366405001581693,0.00017276238233378187,0.8869869112968445,46.32583236694336,5.762844562530518,-19.610628128051758,-0.9277244210243225,-2.3724398612976074,0.17337362468242645,0
22,0.10507035255432129,-0.8869869112968445,-46.32583236694336,-5.762844562530518,19.610628128051758,0.9277244210243225,2.3724398612976074,-0.17337362468242645,0.0,0.0,0.0,0.0,0.0,0.0,0.0,-0.8313424926452954,-0.0546617317537623,-0.5947568944412025,0.38571656492078776,0.3399615743644203,0.11355376751099312,-0.18873258883923127,0.8782793426614977,0.75570670653775,-0.2824872242521529,-1.669212135300947,0.14135870452549743,2.40357073852751,1.02734573280425,0.878092876070424,0.7554597494309409,-0.2825552651693207,-1.6690993614607135,0.1414185955172306,2.4034451173676383,1.0273381002308042,0.0015456992546051607,-0.0010195744145804716,-0.0010463501148211655,-0.0002558092695914633,-0.00015456794172168063,0.00040366405001581693,-0.00017276238233378187,0.0,0.0,0.0,0.0,0.0,0.0,0.0,-0.00018646659107368624,-0.0002469571068091092,-6.804091716783311e-05,0.00011277384023355985,5.989099173317469e-05,-0.00012562115987169165,-7.632573445714996e-06,-0.0015456992546051607,0.0010195744145804716,0.0010463501148211655,0.0002558092695914633,0.00015456794172168063,-0.00040366405001581693,0.00017276238233378187,0.8869869112968445,46.32583236694336,5.762844562530518,-19.610628128051758,-0.9277244210243225,-2.3724398612976074,0.17337362468242645,0
23,0.1100473403930664,-0.8592159152030945,-46.37740707397461,-5.762844562530518,19.610628128051758,0.9277244210243225,2.3788485527038574,-0.20083944499492645,0.0,0.0,0.0,0.0,0.0,0.0,0.0,-0.8103881427814962,-0.06025294081762008,-0.5832706902695225,0.3905297768132519,0.3397300697788836,0.11381516959178355,-0.18787559261802553,0.8782780945472354,0.7557105642690081,-0.28248944622175487,-1.669209993434815,0.14135729185075285,2.403570026450687,1.0273484225210785,0.878092876070424,0.7554597494309409,-0.2825552651693207,-1.6690993614607135,0.1414185955172306,2.4034451173676383,1.0273381002308042,9.156421891586544e-05,-0.0002152730813038677,0.0002614811157720347,-0.0007787339147185524,-1.5285541243063732e-06,-6.43634456441008e-05,7.756220707055916e-05,0.0,0.0,0.0,0.0,0.0,0.0,0.0,-0.00018521847681141068,-0.00025081483806721483,-6.581894756585438e-05,0.00011063197410154935,6.130366647774665e-05,-0.00012490908304885195,-1.032229027431164e-05,-9.156421891586544e-05,0.0002152730813038677,-0.0002614811157720347,0.0007787339147185524,1.5285541243063732e-06,6.43634456441008e-05,-7.756220707055916e-05,0.8592159152030945,46.37740707397461,5.762844562530518,-19.610628128051758,-0.9277244210243225,-2.3788485527038574,0.20083944499492645,0
24,0.1150517463684082,-0.8592159152030945,-46.37740707397461,-5.762844562530518,19.610628128051758,0.9277244210243225,2.3788485527038574,-0.20083944499492645,0.0,0.0,0.0,0.0,0.0,0.0,0.0,-0.8103881427814962,-0.06025294081762008,-0.5832706902695225,0.3905297768132519,0.3397300697788836,0.11381516959178355,-0.18787559261802553,0.8782780945472354,0.7557105642690081,-0.28248944622175487,-1.669209993434815,0.14135729185075285,2.403570026450687,1.0273484225210785,0.878092876070424,0.7554597494309409,-0.2825552651693207,-1.6690993614607135,0.1414185955172306,2.4034451173676383,1.0273381002308042,9.156421891586544e-05,-0.0002152730813038677,0.0002614811157720347,-0.0007787339147185524,-1.5285541243063732e-06,-6.43634456441008e-05,7.756220707055916e-05,0.0,0.0,0.0,0.0,0.0,0.0,0.0,-0.00018521847681141068,-0.00025081483806721483,-6.581894756585438e-05,0.00011063197410154935,6.130366647774665e-05,-0.00012490908304885195,-1.032229027431164e-05,-9.156421891586544e-05,0.0002152730813038677,-0.0002614811157720347,0.0007787339147185524,1.5285541243063732e-06,6.43634456441008e-05,-7.756220707055916e-05,0.8592159152030945,46.37740707397461,5.762844562530518,-19.610628128051758,-0.9277244210243225,-2.3788485527038574,0.20083944499492645,0
25,0.12005114555358887,-0.8076412081718445,-46.40121078491211,-5.786648273468018,19.586824417114258,0.9277244210243225,2.3852572441101074,-0.19351522624492645,0.0,0.0,0.0,0.0,0.0,0.0,0.0,-0.8177913433282729,-0.06494346502821144,-0.5853215480875259,0.39343837229019607,0.3406420924612585,0.11448625251022497,-0.18963903941366986,0.878273539580816,0.7557122347062094,-0.28248555055837105,-1.6692108369800807,0.14135751293281773,2.403569314373864,1.0273476087169515,0.878092876070424,0.7554597494309409,-0.2825552651693207,-1.6690993614607135,0.1414185955172306,2.4034451173676383,1.0273381002308042,-0.0006059380227653024,0.000300948230091409,0.0005072551599157081,0.00012411554195897428,-7.518710741874872e-05,-0.00022021942718718985,0.00043807120770948286,0.0,0.0,0.0,0.0,0.0,0.0,0.0,-0.00018066351039203177,-0.0002524852752685547,-6.971461094967824e-05,0.00011147551936718791,6.108258441286929e-05,-0.00012419700622556817,-9.508486147336015e-06,0.0006059380227653024,-0.000300948230091409,-0.0005072551599157081,-0.00012411554195897428,7.518710741874872e-05,0.00022021942718718985,-0.00043807120770948286,0.8076412081718445,46.40121078491211,5.786648273468018,-19.586824417114258,-0.9277244210243225,-2.3852572441101074,0.19351522624492645,0
26,0.12504839897155762,-0.8076412081718445,-46.40121078491211,-5.786648273468018,19.586824417114258,0.9277244210243225,2.3852572441101074,-0.19351522624492645,0.0,0.0,0.0,0.0,0.0,0.0,0.0,-0.8177913433282729,-0.06494346502821144,-0.5853215480875259,0.39343837229019607,0.3406420924612585,0.11448625251022497,-0.18963903941366986,0.878273539580816,0.7557122347062094,-0.28248555055837105,-1.6692108369800807,0.14135751293281773,2.403569314373864,1.0273476087169515,0.878092876070424,0.7554597494309409,-0.2825552651693207,-1.6690993614607135,0.1414185955172306,2.4034451173676383,1.0273381002308042,-0.0006059380227653024,0.000300948230091409,0.0005072551599157081,0.00012411554195897428,-7.518710741874872e-05,-0.00022021942718718985,0.00043807120770948286,0.0,0.0,0.0,0.0,0.0,0.0,0.0,-0.00018066351039203177,-0.0002524852752685547,-6.971461094967824e-05,0.00011147551936718791,6.108258441286929e-05,-0.00012419700622556817,-9.508486147336015e-06,0.0006059380227653024,-0.000300948230091409,-0.0005072551599157081,-0.00012411554195897428,7.518710741874872e-05,0.00022021942718718985,-0.00043807120770948286,0.8076412081718445,46.40121078491211,5.786648273468018,-19.586824417114258,-0.9277244210243225,-2.3852572441101074,0.19351522624492645,0
27,0.130049467086792,-0.7838374972343445,-46.40121078491211,-5.786648273468018,19.610628128051758,0.9332175850868225,2.3788485527038574,-0.17337362468242645,0.0,0.0,0.0,0.0,0.0,0.0,0.0,-0.8077403552358591,-0.05870325419408524,-0.577007947389038,0.3906051653476793,0.3409307355421144,0.11427551246538199,-0.18856232360951836,0.8782721057110376,0.755712233725063,-0.28248555087285837,-1.6692100699313432,0.1413544224210102,2.403570026450687,1.0273454914422315,0.878092876070424,0.7554597494309409,-0.2825552651693207,-1.6690993614607135,0.1414185955172306,2.4034451173676383,1.0273381002308042,-0.0009725725128623631,0.0002634486888342956,0.0008386918960205336,-0.0007855817502755666,-0.00032390969177378023,1.6808867863776336e-05,-0.0006273626005238384,0.0,0.0,0.0,0.0,0.0,0.0,0.0,-0.0001792296406136762,-0.00025248429412216833,-6.971429646235316e-05,0.00011070847062977229,6.417309622039347e-05,-0.00012490908304885195,-7.391211427343336e-06,0.0009725725128623631,-0.0002634486888342956,-0.0008386918960205336,0.0007855817502755666,0.00032390969177378023,-1.6808867863776336e-05,0.0006273626005238384,0.7838374972343445,46.40121078491211,5.786648273468018,-19.610628128051758,-0.9332175850868225,-2.3788485527038574,0.17337362468242645,0
28,0.13505196571350098,-0.7838374972343445,-46.40121078491211,-5.786648273468018,19.610628128051758,0.9332175850868225,2.3788485527038574,-0.17337362468242645,0.0,0.0,0.0,0.0,0.0,0.0,0.0,-0.8077403552358591,-0.05870325419408524,-0.577007947389038,0.3906051653476793,0.3409307355421144,0.11427551246538199,-0.18856232360951836,0.8782721057110376,0.755712233725063,-0.28248555087285837,-1.6692100699313432,0.1413544224210102,2.403570026450687,1.0273454914422315,0.878092876070424,0.7554597494309409,-0.2825552651693207,-1.6690993614607135,0.1414185955172306,2.4034451173676383,1.0273381002308042,-0.0009725725128623631,0.0002634486888342956,0.0008386918960205336,-0.0007855817502755666,-0.00032390969177378023,1.6808867863776336e-05,-0.0006273626005238384,0.0,0.0,0.0,0.0,0.0,0.0,0.0,-0.0001792296406136762,-0.00025248429412216833,-6.971429646235316e-05,0.00011070847062977229,6.417309622039347e-05,-0.00012490908304885195,-7.391211427343336e-06,0.0009725725128623631,-0.0002634486888342956,-0.0008386918960205336,0.0007855817502755666,0.00032390969177378023,-1.6808867863776336e-05,0.0006273626005238384,0.7838374972343445,46.40121078491211,5.786648273468018,-19.610628128051758,-0.9332175850868225,-2.3788485527038574,0.17337362468242645,0
29,0.14004755020141602,-0.8354122042655945,-46.40121078491211,-5.786648273468018,19.610628128051758,0.9213157296180725,2.3852572441101074,-0.17337362468242645,0.0,0.0,0.0,0.0,0.0,0.0,0.0,-0.8270732984050357,-0.06732080721117736,-0.5936754057350411,0.3931591115043407,0.34197034007362226,0.11454681361047915,-0.18816363871817107,0.8782755169870193,0.7557100889389919,-0.28248555054581137,-1.669209751237459,0.14135516435253373,2.403569314373864,1.0273453707619036,0.878092876070424,0.7554597494309409,-0.2825552651693207,-1.6690993614607135,0.1414185955172306,2.4034451173676383,1.0273381002308042,0.000314173612078045,-0.00021930563064783836,0.0003885044069652979,-0.00031460308746459524,0.00012327991699806164,-0.00022379912907824186,-0.0008705552757613728,0.0,0.0,0.0,0.0,0.0,0.0,0.0,-0.00018264091659536685,-0.0002503395080510895,-6.971462350935376e-05,0.0001103897767456008,6.343116469686993e-05,-0.00012419700622556817,-7.270531099390354e-06,-0.000314173612078045,0.00021930563064783836,-0.0003885044069652979,0.00031460308746459524,-0.00012327991699806164,0.00022379912907824186,0.0008705552757613728,0.8354122042655945,46.40121078491211,5.786648273468018,-19.610628128051758,-0.9213157296180725,-2.3852572441101074,0.17337362468242645,0
30,0.14504671096801758,-0.8354122042655945,-46.40121078491211,-5.786648273468018,19.610628128051758,0.9213157296180725,2.3852572441101074,-0.17337362468242645,0.0,0.0,0.0,0.0,0.0,0.0,0.0,-0.8270732984050357,-0.06732080721117736,-0.5936754057350411,0.3931591115043407,0.34197034007362226,0.11454681361047915,-0.18816363871817107,0.8782755169870193,0.7557100889389919,-0.28248555054581137,-1.669209751237459,0.14135516435253373,2.403569314373864,1.0273453707619036,0.878092876070424,0.7554597494309409,-0.2825552651693207,-1.6690993614607135,0.1414185955172306,2.4034451173676383,1.0273381002308042,0.000314173612078045,-0.00021930563064783836,0.0003885044069652979,-0.00031460308746459524,0.00012327991699806164,-0.00022379912907824186,-0.0008705552757613728,0.0,0.0,0.0,0.0,0.0,0.0,0.0,-0.00018264091659536685,-0.0002503395080510895,-6.971462350935376e-05,0.0001103897767456008,6.343116469686993e-05,-0.00012419700622556817,-7.270531099390354e-06,-0.000314173612078045,0.00021930563064783836,-0.0003885044069652979,0.00031460308746459524,-0.00012327991699806164,0.00022379912907824186,0.0008705552757613728,0.8354122042655945,46.40121078491211,5.786648273468018,-19.610628128051758,-0.9213157296180725,-2.3852572441101074,0.17337362468242645,0
31,0.1500415802001953,-0.7838374972343445,-46.37740707397461,-5.786648273468018,19.586824417114258,0.9332175850868225,2.3852572441101074,-0.21457235515117645,0.0,0.0,0.0,0.0,0.0,0.0,0.0,-0.8093828287061204,-0.06093695030004586,-0.5807107785624673,0.3937605962231558,0.3410854503527135,0.11430488598224482,-0.18941365857618578,0.87827189514022,0.7557105642582412,-0.28248555054580954,-1.669208395315777,0.14135473864781456,2.403569314373864,1.0273499483979411,0.878092876070424,0.7554597494309409,-0.2825552651693207,-1.6690993614607135,0.1414185955172306,2.4034451173676383,1.0273381002308042,-0.0005995265597978898,-0.0006847146688610289,0.000593203996349102,0.0005718738335692591,-0.0002419431426818102,-0.00012078646318716558,0.0013147952194462855,0.0,0.0,0.0,0.0,0.0,0.0,0.0,-0.0001790190697960048,-0.00025081482730038296,-6.971462351118562e-05,0.00010903385506355612,6.385686941604019e-05,-0.00012419700622556817,-1.1848167136951915e-05,0.0005995265597978898,0.0006847146688610289,-0.000593203996349102,-0.0005718738335692591,0.0002419431426818102,0.00012078646318716558,-0.0013147952194462855,0.7838374972343445,46.37740707397461,5.786648273468018,-19.586824417114258,-0.9332175850868225,-2.3852572441101074,0.21457235515117645,0
32,0.1558690071105957,-0.7838374972343445,-46.37740707397461,-5.786648273468018,19.586824417114258,0.9332175850868225,2.3852572441101074,-0.21457235515117645,0.0,0.0,0.0,0.0,0.0,0.0,0.0,-0.8093828287061204,-0.06093695030004586,-0.5807107785624673,0.3937605962231558,0.3410854503527135,0.11430488598224482,-0.18941365857618578,0.87827189514022,0.7557105642582412,-0.28248555054580954,-1.669208395315777,0.14135473864781456,2.403569314373864,1.0273499483979411,0.878092876070424,0.7554597494309409,-0.2825552651693207,-1.6690993614607135,0.1414185955172306,2.4034451173676383,1.0273381002308042,-0.0005995265597978898,-0.0006847146688610289,0.000593203996349102,0.0005718738335692591,-0.0002419431426818102,-0.00012078646318716558,0.0013147952194462855,0.0,0.0,0.0,0.0,0.0,0.0,0.0,-0.0001790190697960048,-0.00025081482730038296,-6.971462351118562e-05,0.00010903385506355612,6.385686941604019e-05,-0.00012419700622556817,-1.1848167136951915e-05,0.0005995265597978898,0.0006847146688610289,-0.000593203996349102,-0.0005718738335692591,0.0002419431426818102,0.00012078646318716558,-0.0013147952194462855,0.7838374972343445,46.37740707397461,5.786648273468018,-19.586824417114258,-0.9332175850868225,-2.3852572441101074,0.21457235515117645,0
33,0.16004037857055664,-0.7838374972343445,-46.40121078491211,-5.711269855499268,19.610628128051758,0.9277244210243225,2.3724398612976074,-0.21457235515117645,0.0,0.0,0.0,0.0,0.0,0.0,0.0,-0.8140171520889301,-0.05587875330211194,-0.5846602599102246,0.3921342069442358,0.34066936684368804,0.11387931201082645,-0.18994437735987543,0.8782718775926238,0.7557122347062093,-0.28249084025935123,-1.6692125359005452,0.14135764452820743,2.40357073852751,1.0273499483979411,0.878092876070424,0.7554597494309409,-0.2825552651693207,-1.6690993614607135,0.1414185955172306,2.4034451173676383,1.0273381002308042,-0.0006827391041418587,0.0004270034609253761,-0.0007815274815066801,-0.00036477568656759435,-0.00032747931970848987,0.00027565298982922714,0.00048092734756950294,0.0,0.0,0.0,0.0,0.0,0.0,0.0,-0.00017900152219985088,-0.00025248527526844367,-6.442490996949601e-05,0.00011317443983172026,6.0950989023172975e-05,-0.00012562115987169165,-1.1848167136951915e-05,0.0006827391041418587,-0.0004270034609253761,0.0007815274815066801,0.00036477568656759435,0.00032747931970848987,-0.00027565298982922714,-0.00048092734756950294,0.7838374972343445,46.40121078491211,5.711269855499268,-19.610628128051758,-0.9277244210243225,-2.3724398612976074,0.21457235515117645,0
34,0.16536641120910645,-0.7838374972343445,-46.40121078491211,-5.711269855499268,19.610628128051758,0.9277244210243225,2.3724398612976074,-0.21457235515117645,0.0,0.0,0.0,0.0,0.0,0.0,0.0,-0.8140171520889301,-0.05587875330211194,-0.5846602599102246,0.3921342069442358,0.34066936684368804,0.11387931201082645,-0.18994437735987543,0.8782718775926238,0.7557122347062093,-0.28249084025935123,-1.6692125359005452,0.14135764452820743,2.40357073852751,1.0273499483979411,0.878092876070424,0.7554597494309409,-0.2825552651693207,-1.6690993614607135,0.1414185955172306,2.4034451173676383,1.0273381002308042,-0.0006827391041418587,0.0004270034609253761,-0.0007815274815066801,-0.00036477568656759435,-0.00032747931970848987,0.00027565298982922714,0.00048092734756950294,0.0,0.0,0.0,0.0,0.0,0.0,0.0,-0.00017900152219985088,-0.00025248527526844367,-6.442490996949601e-05,0.00011317443983172026,6.0950989023172975e-05,-0.00012562115987169165,-1.1848167136951915e-05,0.0006827391041418587,-0.0004270034609253761,0.0007815274815066801,0.00036477568656759435,0.00032747931970848987,-0.00027565298982922714,-0.00048092734756950294,0.7838374972343445,46.40121078491211,5.711269855499268,-19.610628128051758,-0.9277244210243225,-2.3724398612976074,0.21457235515117645,0
35,0.1700451374053955,-0.8354122042655945,-46.37740707397461,-5.762844562530518,19.610628128051758,0.9277244210243225,2.3852572441101074,-0.20083944499492645,0.0,0.0,0.0,0.0,0.0,0.0,0.0,-0.8236847234838465,-0.06875012226797832,-0.5931952228914985,0.39729397558904833,0.3407050271453406,0.11483609145923772,-0.1908700037683285,0.8782755694145805,0.7557105641613379,-0.28248722098166484,-1.6692118953313437,0.1413539843927237,2.403569314373864,1.0273484225190348,0.878092876070424,0.7554597494309409,-0.2825552651693207,-1.6690993614607135,0.1414185955172306,2.4034451173676383,1.0273381002308042,0.00047904474818900714,-0.0007030256380495495,0.00022948715648791172,-0.0006226200110731193,-7.165079291838547e-05,-6.700747963958387e-05,0.0009147817016641675,0.0,0.0,0.0,0.0,0.0,0.0,0.0,-0.00018269334415654814,-0.00025081473039700874,-6.804418765588016e-05,0.00011253387063026032,6.461112450689699e-05,-0.00012419700622556817,-1.0322288230613097e-05,-0.00047904474818900714,0.0007030256380495495,-0.00022948715648791172,0.0006226200110731193,7.165079291838547e-05,6.700747963958387e-05,-0.0009147817016641675,0.8354122042655945,46.37740707397461,5.762844562530518,-19.610628128051758,-0.9277244210243225,-2.3852572441101074,0.20083944499492645,0
36,0.17499256134033203,-0.8354122042655945,-46.37740707397461,-5.762844562530518,19.610628128051758,0.9277244210243225,2.3852572441101074,-0.20083944499492645,0.0,0.0,0.0,0.0,0.0,0.0,0.0,-0.8236847234838465,-0.06875012226797832,-0.5931952228914985,0.39729397558904833,0.3407050271453406,0.11483609145923772,-0.1908700037683285,0.8782755694145805,0.7557105641613379,-0.28248722098166484,-1.6692118953313437,0.1413539843927237,2.403569314373864,1.0273484225190348,0.878092876070424,0.7554597494309409,-0.2825552651693207,-1.6690993614607135,0.1414185955172306,2.4034451173676383,1.0273381002308042,0.00047904474818900714,-0.0007030256380495495,0.00022948715648791172,-0.0006226200110731193,-7.165079291838547e-05,-6.700747963958387e-05,0.0009147817016641675,0.0,0.0,0.0,0.0,0.0,0.0,0.0,-0.00018269334415654814,-0.00025081473039700874,-6.804418765588016e-05,0.00011253387063026032,6.461112450689699e-05,-0.00012419700622556817,-1.0322288230613097e-05,-0.00047904474818900714,0.0007030256380495495,-0.00022948715648791172,0.0006226200110731193,7.165079291838547e-05,6.700747963958387e-05,-0.0009147817016641675,0.8354122042655945,46.37740707397461,5.762844562530518,-19.610628128051758,-0.9277244210243225,-2.3852572441101074,0.20083944499492645,0
37,0.17999720573425293,-0.8076412081718445,-46.37740707397461,-5.786648273468018,19.634431838989258,0.9213157296180725,2.3852572441101074,-0.16604940593242645,0.0,0.0,0.0,0.0,0.0,0.0,0.0,-0.8112038306198457,-0.06272460374820048,-0.5814375256739838,0.3966285101913645,0.34056782586398215,0.1146980185753059,-0.18978399497324142,0.8782737761470442,0.7557104847974941,-0.28248555054580954,-1.6692123484035566,0.14135499679175534,2.403569314373864,1.027344556959139,0.878092876070424,0.7554597494309409,-0.2825552651693207,-1.6690993614607135,0.1414185955172306,2.4034451173676383,1.0273381002308042,0.0001303660159445563,-0.00033248933817434887,0.0011652425344377377,-0.0009318536993663657,0.0001639118405500682,-0.0002708811024454808,-0.00137173874809732,0.0,0.0,0.0,0.0,0.0,0.0,0.0,-0.00018090007662019403,-0.00025073536655328965,-6.971462351118562e-05,0.0001129869428431185,6.359872547526124e-05,-0.00012419700622556817,-6.456728334880424e-06,-0.0001303660159445563,0.00033248933817434887,-0.0011652425344377377,0.0009318536993663657,-0.0001639118405500682,0.0002708811024454808,0.00137173874809732,0.8076412081718445,46.37740707397461,5.786648273468018,-19.634431838989258,-0.9213157296180725,-2.3852572441101074,0.16604940593242645,0
38,0.18500208854675293,-0.8076412081718445,-46.37740707397461,-5.786648273468018,19.634431838989258,0.9213157296180725,2.3852572441101074,-0.16604940593242645,0.0,0.0,0.0,0.0,0.0,0.0,0.0,-0.8112038306198457,-0.06272460374820048,-0.5814375256739838,0.3966285101913645,0.34056782586398215,0.1146980185753059,-0.18978399497324142,0.8782737761470442,0.7557104847974941,-0.28248555054580954,-1.6692123484035566,0.14135499679175534,2.403569314373864,1.027344556959139,0.878092876070424,0.7554597494309409,-0.2825552651693207,-1.6690993614607135,0.1414185955172306,2.4034451173676383,1.0273381002308042,0.0001303660159445563,-0.00033248933817434887,0.0011652425344377377,-0.0009318536993663657,0.0001639118405500682,-0.0002708811024454808,-0.00137173874809732,0.0,0.0,0.0,0.0,0.0,0.0,0.0,-0.00018090007662019403,-0.00025073536655328965,-6.971462351118562e-05,0.0001129869428431185,6.359872547526124e-05,-0.00012419700622556817,-6.456728334880424e-06,-0.0001303660159445563,0.00033248933817434887,-0.0011652425344377377,0.0009318536993663657,-0.0001639118405500682,0.0002708811024454808,0.00137173874809732,0.8076412081718445,46.37740707397461,5.786648273468018,-19.634431838989258,-0.9213157296180725,-2.3852572441101074,0.16604940593242645,0
39,0.19005775451660156,-0.8354122042655945,-46.40121078491211,-5.762844562530518,19.586824417114258,0.9277244210243225,2.3724398612976074,-0.17978231608867645,0.0,0.0,0.0,0.0,0.0,0.0,0.0,-0.8253714293253622,-0.07083800984874972,-0.5925982088994229,0.40261763578080145,0.34117683456800874,0.11521414292939866,-0.19065742936374988,0.8782775970530872,0.7557122347057608,-0.28248937012838105,-1.6692087697797777,0.14135715557515083,2.40357073852751,1.0273460828380452,0.878092876070424,0.7554597494309409,-0.2825552651693207,-1.6690993614607135,0.1414185955172306,2.4034451173676383,1.0273381002308042,0.0005546038301022031,0.0005059454681965121,-7.0685173814648e-05,0.0005666708670903131,-9.487915720995679e-05,0.00012883892854730105,-1.1155656450805173e-05,0.0,0.0,0.0,0.0,0.0,0.0,0.0,-0.00018472098266320014,-0.00025248527481991356,-6.589504093967857e-05,0.00010940831906425252,6.143994207977177e-05,-0.00012562115987169165,-7.982607240997197e-06,-0.0005546038301022031,-0.0005059454681965121,7.0685173814648e-05,-0.0005666708670903131,9.487915720995679e-05,-0.00012883892854730105,1.1155656450805173e-05,0.8354122042655945,46.40121078491211,5.762844562530518,-19.586824417114258,-0.9277244210243225,-2.3724398612976074,0.17978231608867645,0
40,0.19504642486572266,-0.8354122042655945,-46.40121078491211,-5.762844562530518,19.586824417114258,0.9277244210243225,2.3724398612976074,-0.17978231608867645,0.0,0.0,0.0,0.0,0.0,0.0,0.0,-0.8253714293253622,-0.07083800984874972,-0.5925982088994229,0.40261763578080145,0.34117683456800874,0.11521414292939866,-0.19065742936374988,0.8782775970530872,0.7557122347057608,-0.28248937012838105,-1.6692087697797777,0.14135715557515083,2.40357073852751,1.0273460828380452,0.878092876070424,0.7554597494309409,-0.2825552651693207,-1.6690993614607135,0.1414185955172306,2.4034451173676383,1.0273381002308042,0.0005546038301022031,0.0005059454681965121,-7.0685173814648e-05,0.0005666708670903131,-9.487915720995679e-05,0.00012883892854730105,-1.1155656450805173e-05,0.0,0.0,0.0,0.0,0.0,0.0,0.0,-0.00018472098266320014,-0.00025248527481991356,-6.589504093967857e-05,0.00010940831906425252,6.143994207977177e-05,-0.00012562115987169165,-7.982607240997197e-06,-0.0005546038301022031,-0.0005059454681965121,7.0685173814648e-05,-0.0005666708670903131,9.487915720995679e-05,-0.00012883892854730105,1.1155656450805173e-05,0.8354122042655945,46.40121078491211,5.762844562530518,-19.586824417114258,-0.9277244210243225,-2.3724398612976074,0.17978231608867645,0
41,0.20004701614379883,-0.7838374972343445,-46.40121078491211,-5.735073566436768,19.610628128051758,0.9277244210243225,2.3852572441101074,-0.20724813640117645,0.0,0.0,0.0,0.0,0.0,0.0,0.0,-0.8120960763325464,-0.06455857486997824,-0.5852421304225702,0.40138937217624343,0.34054880279895416,0.11422930839056585,-0.19011400916461654,0.8782746768636956,0.7557122347062094,-0.28248924930039965,-1.669210007244839,0.14135441576922128,2.403569314373864,1.0273491345958576,0.878092876070424,0.7554597494309409,-0.2825552651693207,-1.6690993614607135,0.1414185955172306,2.4034451173676383,1.0273381002308042,-0.0005260956153886857,0.000210426847254356,-0.0006258805093828136,-3.447323784180165e-05,2.6251602778039068e-05,-0.00010625378307609533,0.0005691056329584728,0.0,0.0,0.0,0.0,0.0,0.0,0.0,-0.0001818007932716803,-0.0002524852752685547,-6.601586892107658e-05,0.00011064578412556259,6.41797480093187e-05,-0.00012419700622556817,-1.1034365053452788e-05,0.0005260956153886857,-0.000210426847254356,0.0006258805093828136,3.447323784180165e-05,-2.6251602778039068e-05,0.00010625378307609533,-0.0005691056329584728,0.7838374972343445,46.40121078491211,5.735073566436768,-19.610628128051758,-0.9277244210243225,-2.3852572441101074,0.20724813640117645,0
42,0.2050473690032959,-0.7838374972343445,-46.40121078491211,-5.735073566436768,19.610628128051758,0.9277244210243225,2.3852572441101074,-0.20724813640117645,0.0,0.0,0.0,0.0,0.0,0.0,0.0,-0.8120960763325464,-0.06455857486997824,-0.5852421304225702,0.40138937217624343,0.34054880279895416,0.11422930839056585,-0.19011400916461654,0.8782746768636956,0.7557122347062094,-0.28248924930039965,-1.669210007244839,0.14135441576922128,2.403569314373864,1.0273491345958576,0.878092876070424,0.7554597494309409,-0.2825552651693207,-1.6690993614607135,0.1414185955172306,2.4034451173676383,1.0273381002308042,-0.0005260956153886857,0.000210426847254356,-0.0006258805093828136,-3.447323784180165e-05,2.6251602778039068e-05,-0.00010625378307609533,0.0005691056329584728,0.0,0.0,0.0,0.0,0.0,0.0,0.0,-0.0001818007932716803,-0.0002524852752685547,-6.601586892107658e-05,0.00011064578412556259,6.41797480093187e-05,-0.00012419700622556817,-1.1034365053452788e-05,0.0005260956153886857,-0.000210426847254356,0.0006258805093828136,3.447323784180165e-05,-2.6251602778039068e-05,0.00010625378307609533,-0.0005691056329584728,0.7838374972343445,46.40121078491211,5.735073566436768,-19.610628128051758,-0.9277244210243225,-2.3852572441101074,0.20724813640117645,0
43,0.21004676818847656,-0.7838374972343445,-46.40121078491211,-5.735073566436768,19.610628128051758,0.9277244210243225,2.3852572441101074,-0.20724813640117645,0.0,0.0,0.0,0.0,0.0,0.0,0.0,-0.8120960763325464,-0.06455857486997824,-0.5852421304225702,0.40138937217624343,0.34054880279895416,0.11422930839056585,-0.19011400916461654,0.8782746768636956,0.7557122347062094,-0.28248924930039965,-1.669210007244839,0.14135441576922128,2.403569314373864,1.0273491345958576,0.878092876070424,0.7554597494309409,-0.2825552651693207,-1.6690993614607135,0.1414185955172306,2.4034451173676383,1.0273381002308042,-0.0005260956153886857,0.000210426847254356,-0.0006258805093828136,-3.447323784180165e-05,2.6251602778039068e-05,-0.00010625378307609533,0.0005691056329584728,0.0,0.0,0.0,0.0,0.0,0.0,0.0,-0.0001818007932716803,-0.0002524852752685547,-6.601586892107658e-05,0.00011064578412556259,6.41797480093187e-05,-0.00012419700622556817,-1.1034365053452788e-05,0.0005260956153886857,-0.000210426847254356,0.0006258805093828136,3.447323784180165e-05,-2.6251602778039068e-05,0.00010625378307609533,-0.0005691056329584728,0.7838374972343445,46.40121078491211,5.735073566436768,-19.610628128051758,-0.9277244210243225,-2.3852572441101074,0.20724813640117645,0
44,0.21504688262939453,-0.7838374972343445,-46.40121078491211,-5.735073566436768,19.610628128051758,0.9277244210243225,2.3852572441101074,-0.20724813640117645,0.0,0.0,0.0,0.0,0.0,0.0,0.0,-0.8120960763325464,-0.06455857486997824,-0.5852421304225702,0.40138937217624343,0.34054880279895416,0.11422930839056585,-0.19011400916461654,0.8782746768636956,0.7557122347062094,-0.28248924930039965,-1.669210007244839,0.14135441576922128,2.403569314373864,1.0273491345958576,0.878092876070424,0.7554597494309409,-0.2825552651693207,-1.6690993614607135,0.1414185955172306,2.4034451173676383,1.0273381002308042,-0.0005260956153886857,0.000210426847254356,-0.0006258805093828136,-3.447323784180165e-05,2.6251602778039068e-05,-0.00010625378307609533,0.0005691056329584728,0.0,0.0,0.0,0.0,0.0,0.0,0.0,-0.0001818007932716803,-0.0002524852752685547,-6.601586892107658e-05,0.00011064578412556259,6.41797480093187e-05,-0.00012419700622556817,-1.1034365053452788e-05,0.0005260956153886857,-0.000210426847254356,0.0006258805093828136,3.447323784180165e-05,-2.6251602778039068e-05,0.00010625378307609533,-0.0005691056329584728,0.7838374972343445,46.40121078491211,5.735073566436768,-19.610628128051758,-0.9277244210243225,-2.3852572441101074,0.20724813640117645,0
45,0.2201986312866211,-0.8592159152030945,-46.40121078491211,-5.786648273468018,19.559053421020508,0.9277244210243225,2.3788485527038574,-0.14590780436992645,0.0,0.0,0.0,0.0,0.0,0.0,0.0,-0.8207201301907379,-0.06646943062054683,-0.5912270357801669,0.4009320145405844,0.340973580533842,0.1145864694761226,-0.18964381968899346,0.8782771585480778,0.7557122347062094,-0.2824855505462582,-1.669206157434233,0.14135441581991304,2.403570026450687,1.0273423190034099,0.878092876070424,0.7554597494309409,-0.2825552651693207,-1.6690993614607135,0.1414185955172306,2.4034451173676383,1.0273381002308042,0.0003398841396095323,-0.00018531176760042535,0.0004932590661689719,0.0014460121787543008,-3.414413814168783e-05,-1.5321451048483344e-05,-0.0013529082302345358,0.0,0.0,0.0,0.0,0.0,0.0,0.0,-0.00018428247765378547,-0.0002524852752685547,-6.97146230625445e-05,0.00010679597351948011,6.417969731756235e-05,-0.00012490908304885195,-4.218772605701915e-06,-0.0003398841396095323,0.00018531176760042535,-0.0004932590661689719,-0.0014460121787543008,3.414413814168783e-05,1.5321451048483344e-05,0.0013529082302345358,0.8592159152030945,46.40121078491211,5.786648273468018,-19.559053421020508,-0.9277244210243225,-2.3788485527038574,0.14590780436992645,0
46,0.22504687309265137,-0.8592159152030945,-46.40121078491211,-5.786648273468018,19.559053421020508,0.9277244210243225,2.3788485527038574,-0.14590780436992645,0.0,0.0,0.0,0.0,0.0,0.0,0.0,-0.8207201301907379,-0.06646943062054683,-0.5912270357801669,0.4009320145405844,0.340973580533842,0.1145864694761226,-0.18964381968899346,0.8782771585480778,0.7557122347062094,-0.2824855505462582,-1.669206157434233,0.14135441581991304,2.403570026450687,1.0273423190034099,0.878092876070424,0.7554597494309409,-0.2825552651693207,-1.6690993614607135,0.1414185955172306,2.4034451173676383,1.0273381002308042,0.0003398841396095323,-0.00018531176760042535,0.0004932590661689719,0.0014460121787543008,-3.414413814168783e-05,-1.5321451048483344e-05,-0.0013529082302345358,0.0,0.0,0.0,0.0,0.0,0.0,0.0,-0.00018428247765378547,-0.0002524852752685547,-6.97146230625445e-05,0.00010679597351948011,6.417969731756235e-05,-0.00012490908304885195,-4.218772605701915e-06,-0.0003398841396095323,0.00018531176760042535,-0.0004932590661689719,-0.0014460121787543008,3.414413814168783e-05,1.5321451048483344e-05,0.0013529082302345358,0.8592159152030945,46.40121078491211,5.786648273468018,-19.559053421020508,-0.9277244210243225,-2.3788485527038574,0.14590780436992645,0
47,0.23000359535217285,-0.8354122042655945,-46.40121078491211,-5.762844562530518,19.610628128051758,0.9213157296180725,2.3852572441101074,-0.20724813640117645,0.0,0.0,0.0,0.0,0.0,0.0,0.0,-0.8126908294744248,-0.06475701260066358,-0.5816161245436474,0.399196934472896,0.3406323347036813,0.11366867884375266,-0.1873225966490588,0.8782757567669646,0.755712233725063,-0.2824872213087136,-1.6692098531350597,0.14135784054299233,2.4035693128476363,1.0273491345958576,0.878092876070424,0.7554597494309409,-0.2825552651693207,-1.6690993614607135,0.1414185955172306,2.4034451173676383,1.0273381002308042,0.0001805563555852175,-0.0002247672193542852,-0.0001039124965818925,-0.00021791769339854803,7.696485397651379e-05,-0.00024201803194920393,0.000795629251003701,0.0,0.0,0.0,0.0,0.0,0.0,0.0,-0.00018288069654059935,-0.00025248429412216833,-6.804386060710321e-05,0.00011049167434618035,6.075497423826959e-05,-0.00012419547999797942,-1.1034365053452788e-05,-0.0001805563555852175,0.0002247672193542852,0.0001039124965818925,0.00021791769339854803,-7.696485397651379e-05,0.00024201803194920393,-0.000795629251003701,0.8354122042655945,46.40121078491211,5.762844562530518,-19.610628128051758,-0.9213157296180725,-2.3852572441101074,0.20724813640117645,0
48,0.23504972457885742,-0.8354122042655945,-46.40121078491211,-5.762844562530518,19.610628128051758,0.9213157296180725,2.3852572441101074,-0.20724813640117645,0.0,0.0,0.0,0.0,0.0,0.0,0.0,-0.8126908294744248,-0.06475701260066358,-0.5816161245436474,0.399196934472896,0.3406323347036813,0.11366867884375266,-0.1873225966490588,0.8782757567669646,0.755712233725063,-0.2824872213087136,-1.6692098531350597,0.14135784054299233,2.4035693128476363,1.0273491345958576,0.878092876070424,0.7554597494309409,-0.2825552651693207,-1.6690993614607135,0.1414185955172306,2.4034451173676383,1.0273381002308042,0.0001805563555852175,-0.0002247672193542852,-0.0001039124965818925,-0.00021791769339854803,7.696485397651379e-05,-0.00024201803194920393,0.000795629251003701,0.0,0.0,0.0,0.0,0.0,0.0,0.0,-0.00018288069654059935,-0.00025248429412216833,-6.804386060710321e-05,0.00011049167434618035,6.075497423826959e-05,-0.00012419547999797942,-1.1034365053452788e-05,-0.0001805563555852175,0.0002247672193542852,0.0001039124965818925,0.00021791769339854803,-7.696485397651379e-05,0.00024201803194920393,-0.000795629251003701,0.8354122042655945,46.40121078491211,5.762844562530518,-19.610628128051758,-0.9213157296180725,-2.3852572441101074,0.20724813640117645,0
49,0.2400522232055664,-0.8354122042655945,-46.40121078491211,-5.762844562530518,19.559053421020508,0.9396262764930725,2.3852572441101074,-0.21457235515117645,0.0,0.0,0.0,0.0,0.0,0.0,0.0,-0.808334709661905,-0.06517276572188344,-0.5780709710079023,0.39926236619335514,0.3408891723093533,0.11346886595583712,-0.1885922355326985,0.8782754971322165,0.7557122347062075,-0.28248722130871423,-1.669207059665973,0.14135736702816884,2.4035693143738612,1.0273510345454173,0.878092876070424,0.7554597494309409,-0.2825552651693207,-1.6690993614607135,0.1414185955172306,2.4034451173676383,1.0273381002308042,0.0005152986123773619,0.000506392690330119,4.821282789838591e-06,0.001048748331318907,-0.0005627558884021378,-0.00018590970968410141,0.0013776309008355875,0.0,0.0,0.0,0.0,0.0,0.0,0.0,-0.000182621061792565,-0.0002524852752666673,-6.804386060649259e-05,0.0001076982052594655,6.122848906175982e-05,-0.00012419700622290364,-1.2934314613133324e-05,-0.0005152986123773619,-0.000506392690330119,-4.821282789838591e-06,-0.001048748331318907,0.0005627558884021378,0.00018590970968410141,-0.0013776309008355875,0.8354122042655945,46.40121078491211,5.762844562530518,-19.559053421020508,-0.9396262764930725,-2.3852572441101074,0.21457235515117645,0
50,0.24505186080932617,-0.8354122042655945,-46.40121078491211,-5.762844562530518,19.559053421020508,0.9396262764930725,2.3852572441101074,-0.21457235515117645,0.0,0.0,0.0,0.0,0.0,0.0,0.0,-0.808334709661905,-0.06517276572188344,-0.5780709710079023,0.39926236619335514,0.3408891723093533,0.11346886595583712,-0.1885922355326985,0.8782754971322165,0.7557122347062075,-0.28248722130871423,-1.669207059665973,0.14135736702816884,2.4035693143738612,1.0273510345454173,0.878092876070424,0.7554597494309409,-0.2825552651693207,-1.6690993614607135,0.1414185955172306,2.4034451173676383,1.0273381002308042,0.0005152986123773619,0.000506392690330119,4.821282789838591e-06,0.001048748331318907,-0.0005627558884021378,-0.00018590970968410141,0.0013776309008355875,0.0,0.0,0.0,0.0,0.0,0.0,0.0,-0.000182621061792565,-0.0002524852752666673,-6.804386060649259e-05,0.0001076982052594655,6.122848906175982e-05,-0.00012419700622290364,-1.2934314613133324e-05,-0.0005152986123773619,-0.000506392690330119,-4.821282789838591e-06,-0.001048748331318907,0.0005627558884021378,0.00018590970968410141,-0.0013776309008355875,0.8354122042655945,46.40121078491211,5.762844562530518,-19.559053421020508,-0.9396262764930725,-2.3852572441101074,0.21457235515117645,0
51,0.2500455379486084,-0.8076412081718445,-46.37740707397461,-5.762844562530518,19.586824417114258,0.9332175850868225,2.3852572441101074,-0.17337362468242645,0.0,0.0,0.0,0.0,0.0,0.0,0.0,-0.8272418452839849,-0.056141753966271066,-0.5903794423640808,0.39212588419322136,0.3417991982879408,0.11340163543884807,-0.18801014931021282,0.8782763501845647,0.7557105642703541,-0.2824893667488786,-1.6692088460642536,0.14135662738766916,2.403569314373864,1.0273453707673537,0.878092876070424,0.7554597494309409,-0.2825552651693207,-1.6690993614607135,0.1414185955172306,2.4034451173676383,1.0273381002308042,-0.0009915465581864626,0.00024168548014925475,0.0005508845718777248,-0.00016091121931228696,-0.00031660306786065903,-0.00022966803467933014,-0.000878848565414218,0.0,0.0,0.0,0.0,0.0,0.0,0.0,-0.0001834741141407692,-0.0002508148394132492,-6.589842044213423e-05,0.00010948460354009981,6.196812956144049e-05,-0.00012419700622556817,-7.270536549475182e-06,0.0009915465581864626,-0.00024168548014925475,-0.0005508845718777248,0.00016091121931228696,0.00031660306786065903,0.00022966803467933014,0.000878848565414218,0.8076412081718445,46.37740707397461,5.762844562530518,-19.586824417114258,-0.9332175850868225,-2.3852572441101074,0.17337362468242645,0
52,0.2550530433654785,-0.8076412081718445,-46.37740707397461,-5.762844562530518,19.586824417114258,0.9332175850868225,2.3852572441101074,-0.17337362468242645,0.0,0.0,0.0,0.0,0.0,0.0,0.0,-0.8272418452839849,-0.056141753966271066,-0.5903794423640808,0.39212588419322136,0.3417991982879408,0.11340163543884807,-0.18801014931021282,0.8782763501845647,0.7557105642703541,-0.2824893667488786,-1.6692088460642536,0.14135662738766916,2.403569314373864,1.0273453707673537,0.878092876070424,0.7554597494309409,-0.2825552651693207,-1.6690993614607135,0.1414185955172306,2.4034451173676383,1.0273381002308042,-0.0009915465581864626,0.00024168548014925475,0.0005508845718777248,-0.00016091121931228696,-0.00031660306786065903,-0.00022966803467933014,-0.000878848565414218,0.0,0.0,0.0,0.0,0.0,0.0,0.0,-0.0001834741141407692,-0.0002508148394132492,-6.589842044213423e-05,0.00010948460354009981,6.196812956144049e-05,-0.00012419700622556817,-7.270536549475182e-06,0.0009915465581864626,-0.00024168548014925475,-0.0005508845718777248,0.00016091121931228696,0.00031660306786065903,0.00022966803467933014,0.000878848565414218,0.8076412081718445,46.37740707397461,5.762844562530518,-19.586824417114258,-0.9332175850868225,-2.3852572441101074,0.17337362468242645,0
53,0.2600584030151367,-0.7838374972343445,-46.32583236694336,-5.786648273468018,19.559053421020508,0.9213157296180725,2.3852572441101074,-0.17978231608867645,0.0,0.0,0.0,0.0,0.0,0.0,0.0,-0.8206939800151261,-0.06628744625502991,-0.5841198046816236,0.3969770723157827,0.3419674499972836,0.11439687092332813,-0.1885012908673595,0.8782725713084686,0.7557069449926678,-0.2824855506669387,-1.669206467683949,0.141354762579467,2.403569314373864,1.0273460828380452,0.878092876070424,0.7554597494309409,-0.2825552651693207,-1.6690993614607135,0.1414185955172306,2.4034451173676383,1.0273381002308042,-0.0008931882968126758,-0.0012664993033364073,0.000784238670536888,0.0005372003203144832,6.867357403820765e-05,-0.0002817345469947648,-0.0002793966526930999,0.0,0.0,0.0,0.0,0.0,0.0,0.0,-0.0001796952380446193,-0.0002471955617269206,-6.971450238202337e-05,0.00010710622323562013,6.383293776360266e-05,-0.00012419700622556817,-7.982607240997197e-06,0.0008931882968126758,0.0012664993033364073,-0.000784238670536888,-0.0005372003203144832,-6.867357403820765e-05,0.0002817345469947648,0.0002793966526930999,0.7838374972343445,46.32583236694336,5.786648273468018,-19.559053421020508,-0.9213157296180725,-2.3852572441101074,0.17978231608867645,0
54,0.26639509201049805,-0.7838374972343445,-46.32583236694336,-5.786648273468018,19.559053421020508,0.9213157296180725,2.3852572441101074,-0.17978231608867645,0.0,0.0,0.0,0.0,0.0,0.0,0.0,-0.8206939800151261,-0.06628744625502991,-0.5841198046816236,0.3969770723157827,0.3419674499972836,0.11439687092332813,-0.1885012908673595,0.8782725713084686,0.7557069449926678,-0.2824855506669387,-1.669206467683949,0.141354762579467,2.403569314373864,1.0273460828380452,0.878092876070424,0.7554597494309409,-0.2825552651693207,-1.6690993614607135,0.1414185955172306,2.4034451173676383,1.0273381002308042,-0.0008931882968126758,-0.0012664993033364073,0.000784238670536888,0.0005372003203144832,6.867357403820765e-05,-0.0002817345469947648,-0.0002793966526930999,0.0,0.0,0.0,0.0,0.0,0.0,0.0,-0.0001796952380446193,-0.0002471955617269206,-6.971450238202337e-05,0.00010710622323562013,6.383293776360266e-05,-0.00012419700622556817,-7.982607240997197e-06,0.0008931882968126758,0.0012664993033364073,-0.000784238670536888,-0.0005372003203144832,-6.867357403820765e-05,0.0002817345469947648,0.0002793966526930999,0.7838374972343445,46.32583236694336,5.786648273468018,-19.559053421020508,-0.9213157296180725,-2.3852572441101074,0.17978231608867645,0
55,0.2704188823699951,-0.7838374972343445,-46.37740707397461,-5.762844562530518,19.586824417114258,0.9332175850868225,2.3724398612976074,-0.22830526530742645,0.0,0.0,0.0,0.0,0.0,0.0,0.0,-0.819357150558166,-0.061997968592026845,-0.5855623403586849,0.3947101477406105,0.3417313629302049,0.11406482928051354,-0.18827395084212345,0.8782725708329108,0.7557105642703541,-0.2824872210180043,-1.6692104870868385,0.14135333320629956,2.40357073852751,1.0273514742768473,0.878092876070424,0.7554597494309409,-0.2825552651693207,-1.6690993614607135,0.1414185955172306,2.4034451173676383,1.0273381002308042,-0.0009234425107868189,-0.00014732990287497197,0.00028050405656848367,0.0001162672804774122,-0.00020772369632197509,5.379036573347589e-05,0.0015607055408465684,0.0,0.0,0.0,0.0,0.0,0.0,0.0,-0.00017969476248680394,-0.0002508148394132492,-6.80441513164487e-05,0.00011112562612503041,6.526231093104129e-05,-0.00012562115987169165,-1.3374046043068688e-05,0.0009234425107868189,0.00014732990287497197,-0.00028050405656848367,-0.0001162672804774122,0.00020772369632197509,-5.379036573347589e-05,-0.0015607055408465684,0.7838374972343445,46.37740707397461,5.762844562530518,-19.586824417114258,-0.9332175850868225,-2.3724398612976074,0.22830526530742645,0
56,0.2750427722930908,-0.7838374972343445,-46.37740707397461,-5.762844562530518,19.586824417114258,0.9332175850868225,2.3724398612976074,-0.22830526530742645,0.0,0.0,0.0,0.0,0.0,0.0,0.0,-0.819357150558166,-0.061997968592026845,-0.5855623403586849,0.3947101477406105,0.3417313629302049,0.11406482928051354,-0.18827395084212345,0.8782725708329108,0.7557105642703541,-0.2824872210180043,-1.6692104870868385,0.14135333320629956,2.40357073852751,1.0273514742768473,0.878092876070424,0.7554597494309409,-0.2825552651693207,-1.6690993614607135,0.1414185955172306,2.4034451173676383,1.0273381002308042,-0.0009234425107868189,-0.00014732990287497197,0.00028050405656848367,0.0001162672804774122,-0.00020772369632197509,5.379036573347589e-05,0.0015607055408465684,0.0,0.0,0.0,0.0,0.0,0.0,0.0,-0.00017969476248680394,-0.0002508148394132492,-6.80441513164487e-05,0.00011112562612503041,6.526231093104129e-05,-0.00012562115987169165,-1.3374046043068688e-05,0.0009234425107868189,0.00014732990287497197,-0.00028050405656848367,-0.0001162672804774122,0.00020772369632197509,-5.379036573347589e-05,-0.0015607055408465684,0.7838374972343445,46.37740707397461,5.762844562530518,-19.586824417114258,-0.9332175850868225,-2.3724398612976074,0.22830526530742645,0
57,0.2800455093383789,-0.8354122042655945,-46.40121078491211,-5.735073566436768,19.610628128051758,0.9213157296180725,2.3852572441101074,-0.22098104655742645,0.0,0.0,0.0,0.0,0.0,0.0,0.0,-0.8224108860241568,-0.07117049385487113,-0.5895876394121373,0.3977391637232572,0.3423410019103111,0.11424547423726635,-0.1898139967217837,0.8782755141363796,0.7557122082152562,-0.28248916982349614,-1.669212773898905,0.14135818178799603,2.403569314373864,1.027350660474764,0.878092876070424,0.7554597494309409,-0.2825552651693207,-1.6690993614607135,0.1414185955172306,2.4034451173676383,1.0273381002308042,0.0003883023771779825,0.00019449020736178057,-0.0009850435307672957,-0.00013116140407537329,0.00024438420103834016,-0.000139110748978007,0.0012374354782327531,0.0,0.0,0.0,0.0,0.0,0.0,0.0,-0.00018263806595564258,-0.00025245878431534585,-6.609534582457943e-05,0.00011341243819162905,6.041372923457078e-05,-0.00012419700622556817,-1.2560243959791606e-05,-0.0003883023771779825,-0.00019449020736178057,0.0009850435307672957,0.00013116140407537329,-0.00024438420103834016,0.000139110748978007,-0.0012374354782327531,0.8354122042655945,46.40121078491211,5.735073566436768,-19.610628128051758,-0.9213157296180725,-2.3852572441101074,0.22098104655742645,0
58,0.28504061698913574,-0.8354122042655945,-46.40121078491211,-5.735073566436768,19.610628128051758,0.9213157296180725,2.3852572441101074,-0.22098104655742645,0.0,0.0,0.0,0.0,0.0,0.0,0.0,-0.8224108860241568,-0.07117049385487113,-0.5895876394121373,0.3977391637232572,0.3423410019103111,0.11424547423726635,-0.1898139967217837,0.8782755141363796,0.7557122082152562,-0.28248916982349614,-1.669212773898905,0.14135818178799603,2.403569314373864,1.027350660474764,0.878092876070424,0.7554597494309409,-0.2825552651693207,-1.6690993614607135,0.1414185955172306,2.4034451173676383,1.0273381002308042,0.0003883023771779825,0.00019449020736178057,-0.0009850435307672957,-0.00013116140407537329,0.00024438420103834016,-0.000139110748978007,0.0012374354782327531,0.0,0.0,0.0,0.0,0.0,0.0,0.0,-0.00018263806595564258,-0.00025245878431534585,-6.609534582457943e-05,0.00011341243819162905,6.041372923457078e-05,-0.00012419700622556817,-1.2560243959791606e-05,-0.0003883023771779825,-0.00019449020736178057,0.0009850435307672957,0.00013116140407537329,-0.00024438420103834016,0.000139110748978007,-0.0012374354782327531,0.8354122042655945,46.40121078491211,5.735073566436768,-19.610628128051758,-0.9213157296180725,-2.3852572441101074,0.22098104655742645,0
59,0.29004716873168945,-0.7322627902030945,-46.40121078491211,-5.735073566436768,19.610628128051758,0.9213157296180725,2.3788485527038574,-0.20083944499492645,0.0,0.0,0.0,0.0,0.0,0.0,0.0,-0.8108814685112887,-0.05934775124912182,-0.5805632380519801,0.39236810780075854,0.342136365534334,0.11286203845364491,-0.18982049523267003,0.8782703555719272,0.7557122347060599,-0.28248924929635566,-1.6692098390848427,0.14135479984314267,2.403570026450687,1.0273484225190348,0.878092876070424,0.7554597494309409,-0.2825552651693207,-1.6690993614607135,0.1414185955172306,2.4034451173676383,1.0273381002308042,-0.0015035883815921066,0.000161600317604978,-0.0008373555397672529,4.597140460498291e-05,0.00022519138532356753,3.681197795915564e-05,0.00013411932770138074,0.0,0.0,0.0,0.0,0.0,0.0,0.0,-0.00017747950150326375,-0.00025248527511900765,-6.601587296506395e-05,0.00011047762412919049,6.379567408792974e-05,-0.00012490908304885195,-1.0322288230613097e-05,0.0015035883815921066,-0.000161600317604978,0.0008373555397672529,-4.597140460498291e-05,-0.00022519138532356753,-3.681197795915564e-05,-0.00013411932770138074,0.7322627902030945,46.40121078491211,5.735073566436768,-19.610628128051758,-0.9213157296180725,-2.3788485527038574,0.20083944499492645,0
60,0.29503917694091797,-0.7322627902030945,-46.40121078491211,-5.735073566436768,19.610628128051758,0.9213157296180725,2.3788485527038574,-0.20083944499492645,0.0,0.0,0.0,0.0,0.0,0.0,0.0,-0.8108814685112887,-0.05934775124912182,-0.5805632380519801,0.39236810780075854,0.342136365534334,0.11286203845364491,-0.18982049523267003,0.8782703555719272,0.7557122347060599,-0.28248924929635566,-1.6692098390848427,0.14135479984314267,2.403570026450687,1.0273484225190348,0.878092876070424,0.7554597494309409,-0.2825552651693207,-1.6690993614607135,0.1414185955172306,2.4034451173676383,1.0273381002308042,-0.0015035883815921066,0.000161600317604978,-0.0008373555397672529,4.597140460498291e-05,0.00022519138532356753,3.681197795915564e-05,0.00013411932770138074,0.0,0.0,0.0,0.0,0.0,0.0,0.0,-0.00017747950150326375,-0.00025248527511900765,-6.601587296506395e-05,0.00011047762412919049,6.379567408792974e-05,-0.00012490908304885195,-1.0322288230613097e-05,0.0015035883815921066,-0.000161600317604978,0.0008373555397672529,-4.597140460498291e-05,-0.00022519138532356753,-3.681197795915564e-05,-0.00013411932770138074,0.7322627902030945,46.40121078491211,5.735073566436768,-19.610628128051758,-0.9213157296180725,-2.3788485527038574,0.20083944499492645,0
61,0.30004191398620605,-0.8354122042655945,-46.40121078491211,-5.711269855499268,19.610628128051758,0.9277244210243225,2.3788485527038574,-0.15964071452617645,0.0,0.0,0.0,0.0,0.0,0.0,0.0,-0.8136788389632286,-0.05539228663964031,-0.5821783794386362,0.3884632641634521,0.3424089404617071,0.11182256097261101,-0.19043554073445892,0.878277594460034,0.7557122347062094,-0.2824908668597693,-1.6692105420051746,0.14135504182581365,2.403570026450687,1.027343844882316,0.878092876070424,0.7554597494309409,-0.2825552651693207,-1.6690993614607135,0.1414185955172306,2.4034451173676383,1.0273381002308042,0.0007323141889917262,-6.277204997755508e-05,-0.0004882076043764941,-0.0006558199589547726,-0.00011761241305415984,6.893323750235175e-05,-0.0013250347675570577,0.0,0.0,0.0,0.0,0.0,0.0,0.0,-0.00018471838960998355,-0.0002524852752685547,-6.439830955140557e-05,0.00011118054446113135,6.355369141694545e-05,-0.00012490908304885195,-5.744651511818688e-06,-0.0007323141889917262,6.277204997755508e-05,0.0004882076043764941,0.0006558199589547726,0.00011761241305415984,-6.893323750235175e-05,0.0013250347675570577,0.8354122042655945,46.40121078491211,5.711269855499268,-19.610628128051758,-0.9277244210243225,-2.3788485527038574,0.15964071452617645,0
62,0.3050401210784912,-0.8354122042655945,-46.40121078491211,-5.711269855499268,19.610628128051758,0.9277244210243225,2.3788485527038574,-0.15964071452617645,0.0,0.0,0.0,0.0,0.0,0.0,0.0,-0.8136788389632286,-0.05539228663964031,-0.5821783794386362,0.3884632641634521,0.3424089404617071,0.11182256097261101,-0.19043554073445892,0.878277594460034,0.7557122347062094,-0.2824908668597693,-1.6692105420051746,0.14135504182581365,2.403570026450687,1.027343844882316,0.878092876070424,0.7554597494309409,-0.2825552651693207,-1.6690993614607135,0.1414185955172306,2.4034451173676383,1.0273381002308042,0.0007323141889917262,-6.277204997755508e-05,-0.0004882076043764941,-0.0006558199589547726,-0.00011761241305415984,6.893323750235175e-05,-0.0013250347675570577,0.0,0.0,0.0,0.0,0.0,0.0,0.0,-0.00018471838960998355,-0.0002524852752685547,-6.439830955140557e-05,0.00011118054446113135,6.355369141694545e-05,-0.00012490908304885195,-5.744651511818688e-06,-0.0007323141889917262,6.277204997755508e-05,0.0004882076043764941,0.0006558199589547726,0.00011761241305415984,-6.893323750235175e-05,0.0013250347675570577,0.8354122042655945,46.40121078491211,5.711269855499268,-19.610628128051758,-0.9277244210243225,-2.3788485527038574,0.15964071452617645,0
63,0.310042142868042,-0.8354122042655945,-46.40121078491211,-5.711269855499268,19.610628128051758,0.9277244210243225,2.3788485527038574,-0.15964071452617645,0.0,0.0,0.0,0.0,0.0,0.0,0.0,-0.8136788389632286,-0.05539228663964031,-0.5821783794386362,0.3884632641634521,0.3424089404617071,0.11182256097261101,-0.19043554073445892,0.878277594460034,0.7557122347062094,-0.2824908668597693,-1.6692105420051746,0.14135504182581365,2.403570026450687,1.027343844882316,0.878092876070424,0.7554597494309409,-0.2825552651693207,-1.6690993614607135,0.1414185955172306,2.4034451173676383,1.0273381002308042,0.0007323141889917262,-6.277204997755508e-05,-0.0004882076043764941,-0.0006558199589547726,-0.00011761241305415984,6.893323750235175e-05,-0.0013250347675570577,0.0,0.0,0.0,0.0,0.0,0.0,0.0,-0.00018471838960998355,-0.0002524852752685547,-6.439830955140557e-05,0.00011118054446113135,6.355369141694545e-05,-0.00012490908304885195,-5.744651511818688e-06,-0.0007323141889917262,6.277204997755508e-05,0.0004882076043764941,0.0006558199589547726,0.00011761241305415984,-6.893323750235175e-05,0.0013250347675570577,0.8354122042655945,46.40121078491211,5.711269855499268,-19.610628128051758,-0.9277244210243225,-2.3788485527038574,0.15964071452617645,0
64,0.31504154205322266,-0.8354122042655945,-46.40121078491211,-5.711269855499268,19.610628128051758,0.9277244210243225,2.3788485527038574,-0.15964071452617645,0.0,0.0,0.0,0.0,0.0,0.0,0.0,-0.8136788389632286,-0.05539228663964031,-0.5821783794386362,0.3884632641634521,0.3424089404617071,0.11182256097261101,-0.19043554073445892,0.878277594460034,0.7557122347062094,-0.2824908668597693,-1.6692105420051746,0.14135504182581365,2.403570026450687,1.027343844882316,0.878092876070424,0.7554597494309409,-0.2825552651693207,-1.6690993614607135,0.1414185955172306,2.4034451173676383,1.0273381002308042,0.0007323141889917262,-6.277204997755508e-05,-0.0004882076043764941,-0.0006558199589547726,-0.00011761241305415984,6.893323750235175e-05,-0.0013250347675570577,0.0,0.0,0.0,0.0,0.0,0.0,0.0,-0.00018471838960998355,-0.0002524852752685547,-6.439830955140557e-05,0.00011118054446113135,6.355369141694545e-05,-0.00012490908304885195,-5.744651511818688e-06,-0.0007323141889917262,6.277204997755508e-05,0.0004882076043764941,0.0006558199589547726,0.00011761241305415984,-6.893323750235175e-05,0.0013250347675570577,0.8354122042655945,46.40121078491211,5.711269855499268,-19.610628128051758,-0.9277244210243225,-2.3788485527038574,0.15964071452617645,0
65,0.3200497627258301,-0.8592159152030945,-46.40121078491211,-5.810451984405518,19.610628128051758,0.9213157296180725,2.3788485527038574,-0.19351522624492645,0.0,0.0,0.0,0.0,0.0,0.0,0.0,-0.8232689416586871,-0.06085042207783897,-0.5863944546686034,0.39007177330049764,0.3426169460751226,0.11302146678480626,-0.18901798918694293,0.8782773925514985,0.7557122347062094,-0.2824838801100043,-1.6692098559708264,0.14135784579866012,2.403570026450687,1.0273476087169515,0.878092876070424,0.7554597494309409,-0.2825552651693207,-1.6690993614607135,0.1414185955172306,2.4034451173676383,1.0273381002308042,0.0008831855810667268,0.0007089990446343225,0.0011646264839846395,-0.00023186308357081535,0.00030308865991363374,-0.00011005452323959128,0.0008698703238177993,0.0,0.0,0.0,0.0,0.0,0.0,0.0,-0.000184516481074537,-0.0002524852752685547,-7.138505931642003e-05,0.00011049451011291289,6.074971857047973e-05,-0.00012490908304885195,-9.508486147336015e-06,-0.0008831855810667268,-0.0007089990446343225,-0.0011646264839846395,0.00023186308357081535,-0.00030308865991363374,0.00011005452323959128,-0.0008698703238177993,0.8592159152030945,46.40121078491211,5.810451984405518,-19.610628128051758,-0.9213157296180725,-2.3788485527038574,0.19351522624492645,0
66,0.32504796981811523,-0.8592159152030945,-46.40121078491211,-5.810451984405518,19.610628128051758,0.9213157296180725,2.3788485527038574,-0.19351522624492645,0.0,0.0,0.0,0.0,0.0,0.0,0.0,-0.8232689416586871,-0.06085042207783897,-0.5863944546686034,0.39007177330049764,0.3426169460751226,0.11302146678480626,-0.18901798918694293,0.8782773925514985,0.7557122347062094,-0.2824838801100043,-1.6692098559708264,0.14135784579866012,2.403570026450687,1.0273476087169515,0.878092876070424,0.7554597494309409,-0.2825552651693207,-1.6690993614607135,0.1414185955172306,2.4034451173676383,1.0273381002308042,0.0008831855810667268,0.0007089990446343225,0.0011646264839846395,-0.00023186308357081535,0.00030308865991363374,-0.00011005452323959128,0.0008698703238177993,0.0,0.0,0.0,0.0,0.0,0.0,0.0,-0.000184516481074537,-0.0002524852752685547,-7.138505931642003e-05,0.00011049451011291289,6.074971857047973e-05,-0.00012490908304885195,-9.508486147336015e-06,-0.0008831855810667268,-0.0007089990446343225,-0.0011646264839846395,0.00023186308357081535,-0.00030308865991363374,0.00011005452323959128,-0.0008698703238177993,0.8592159152030945,46.40121078491211,5.810451984405518,-19.610628128051758,-0.9213157296180725,-2.3788485527038574,0.19351522624492645,0
67,0.33004260063171387,-0.8354122042655945,-46.37740707397461,-5.735073566436768,19.586824417114258,0.9158225655555725,2.3660311698913574,-0.15231649577617645,0.0,0.0,0.0,0.0,0.0,0.0,0.0,-0.8077094331852765,-0.0552242068461971,-0.5744617515799725,0.38787019813667106,0.341731531209824,0.11233213286959189,-0.1876547679707109,0.8782757231710867,0.7557104847974944,-0.282489169823496,-1.6692081868987971,0.14135849400463402,2.403571450604333,1.0273430310802327,0.878092876070424,0.7554597494309409,-0.2825552651693207,-1.6690993614607135,0.1414185955172306,2.4034451173676383,1.0273381002308042,0.0004674829943453795,0.00017228696833010402,-0.0006737928736135331,-0.0002808602377875088,0.00041015181495472337,0.00042455399511186984,-0.0014823807567537972,0.0,0.0,0.0,0.0,0.0,0.0,0.0,-0.0001828471006627419,-0.0002507353665535117,-6.609534582474597e-05,0.00010882543808365952,6.010151259658314e-05,-0.00012633323669453134,-4.930849428541606e-06,-0.0004674829943453795,-0.00017228696833010402,0.0006737928736135331,0.0002808602377875088,-0.00041015181495472337,-0.00042455399511186984,0.0014823807567537972,0.8354122042655945,46.37740707397461,5.735073566436768,-19.586824417114258,-0.9158225655555725,-2.3660311698913574,0.15231649577617645,0
68,0.33500027656555176,-0.8354122042655945,-46.37740707397461,-5.735073566436768,19.586824417114258,0.9158225655555725,2.3660311698913574,-0.15231649577617645,0.0,0.0,0.0,0.0,0.0,0.0,0.0,-0.8077094331852765,-0.0552242068461971,-0.5744617515799725,0.38787019813667106,0.341731531209824,0.11233213286959189,-0.1876547679707109,0.8782757231710867,0.7557104847974944,-0.282489169823496,-1.6692081868987971,0.14135849400463402,2.403571450604333,1.0273430310802327,0.878092876070424,0.7554597494309409,-0.2825552651693207,-1.6690993614607135,0.1414185955172306,2.4034451173676383,1.0273381002308042,0.0004674829943453795,0.00017228696833010402,-0.0006737928736135331,-0.0002808602377875088,0.00041015181495472337,0.00042455399511186984,-0.0014823807567537972,0.0,0.0,0.0,0.0,0.0,0.0,0.0,-0.0001828471006627419,-0.0002507353665535117,-6.609534582474597e-05,0.00010882543808365952,6.010151259658314e-05,-0.00012633323669453134,-4.930849428541606e-06,-0.0004674829943453795,-0.00017228696833010402,0.0006737928736135331,0.0002808602377875088,-0.00041015181495472337,-0.00042455399511186984,0.0014823807567537972,0.8354122042655945,46.37740707397461,5.735073566436768,-19.586824417114258,-0.9158225655555725,-2.3660311698913574,0.15231649577617645,0
69,0.34005188941955566,-0.8592159152030945,-46.40121078491211,-5.711269855499268,19.610628128051758,0.9277244210243225,2.3788485527038574,-0.17337362468242645,0.0,0.0,0.0,0.0,0.0,0.0,0.0,-0.8245244590586877,-0.06975663473911643,-0.5890340651605555,0.3943917211440339,0.3413595909980829,0.11336252007119475,-0.1863262790812392,0.8782781725483743,0.7557122347057608,-0.2824930664805692,-1.6692105168104066,0.1413582230772338,2.403570026450687,1.0273453707612223,0.878092876070424,0.7554597494309409,-0.2825552651693207,-1.6690993614607135,0.1414185955172306,2.4034451173676383,1.0273381002308042,0.0008448375655578319,0.0005548574524160535,-0.0017739130558166157,-0.0003983308959835877,3.117872984634107e-05,5.426817796210843e-06,-0.0007707702582282682,0.0,0.0,0.0,0.0,0.0,0.0,0.0,-0.00018529647795029192,-0.00025248527481991356,-6.219868875151358e-05,0.00011115534969308172,6.037243999679198e-05,-0.00012490908304885195,-7.270530418157506e-06,-0.0008448375655578319,-0.0005548574524160535,0.0017739130558166157,0.0003983308959835877,-3.117872984634107e-05,-5.426817796210843e-06,0.0007707702582282682,0.8592159152030945,46.40121078491211,5.711269855499268,-19.610628128051758,-0.9277244210243225,-2.3788485527038574,0.17337362468242645,0
70,0.3451204299926758,-0.8592159152030945,-46.40121078491211,-5.711269855499268,19.610628128051758,0.9277244210243225,2.3788485527038574,-0.17337362468242645,0.0,0.0,0.0,0.0,0.0,0.0,0.0,-0.8245244590586877,-0.06975663473911643,-0.5890340651605555,0.3943917211440339,0.3413595909980829,0.11336252007119475,-0.1863262790812392,0.8782781725483743,0.7557122347057608,-0.2824930664805692,-1.6692105168104066,0.1413582230772338,2.403570026450687,1.0273453707612223,0.878092876070424,0.7554597494309409,-0.2825552651693207,-1.6690993614607135,0.1414185955172306,2.4034451173676383,1.0273381002308042,0.0008448375655578319,0.0005548574524160535,-0.0017739130558166157,-0.0003983308959835877,3.117872984634107e-05,5.426817796210843e-06,-0.0007707702582282682,0.0,0.0,0.0,0.0,0.0,0.0,0.0,-0.00018529647795029192,-0.00025248527481991356,-6.219868875151358e-05,0.00011115534969308172,6.037243999679198e-05,-0.00012490908304885195,-7.270530418157506e-06,-0.0008448375655578319,-0.0005548574524160535,0.0017739130558166157,0.0003983308959835877,-3.117872984634107e-05,-5.426817796210843e-06,0.0007707702582282682,0.8592159152030945,46.40121078491211,5.711269855499268,-19.610628128051758,-0.9277244210243225,-2.3788485527038574,0.17337362468242645,0
71,0.3500525951385498,-0.8592159152030945,-46.40121078491211,-5.711269855499268,19.610628128051758,0.9277244210243225,2.3788485527038574,-0.17337362468242645,0.0,0.0,0.0,0.0,0.0,0.0,0.0,-0.8245244590586877,-0.06975663473911643,-0.5890340651605555,0.3943917211440339,0.3413595909980829,0.11336252007119475,-0.1863262790812392,0.8782781725483743,0.7557122347057608,-0.2824930664805692,-1.6692105168104066,0.1413582230772338,2.403570026450687,1.0273453707612223,0.878092876070424,0.7554597494309409,-0.2825552651693207,-1.6690993614607135,0.1414185955172306,2.4034451173676383,1.0273381002308042,0.0008448375655578319,0.0005548574524160535,-0.0017739130558166157,-0.0003983308959835877,3.117872984634107e-05,5.426817796210843e-06,-0.0007707702582282682,0.0,0.0,0.0,0.0,0.0,0.0,0.0,-0.00018529647795029192,-0.00025248527481991356,-6.219868875151358e-05,0.00011115534969308172,6.037243999679198e-05,-0.00012490908304885195,-7.270530418157506e-06,-0.0008448375655578319,-0.0005548574524160535,0.0017739130558166157,0.0003983308959835877,-3.117872984634107e-05,-5.426817796210843e-06,0.0007707702582282682,0.8592159152030945,46.40121078491211,5.711269855499268,-19.610628128051758,-0.9277244210243225,-2.3788485527038574,0.17337362468242645,0
72,0.3550593852996826,-0.7838374972343445,-46.37740707397461,-5.786648273468018,19.535249710083008,0.9277244210243225,2.3724398612976074,-0.14590780436992645,0.0,0.0,0.0,0.0,0.0,0.0,0.0,-0.8090625082062419,-0.06492467241876125,-0.5771382061704401,0.3942746518355317,0.3411517223687981,0.11264416145260599,-0.18708836859897768,0.8782719583812731,0.7557105642703541,-0.2824856300312363,-1.669207446138845,0.14135866375115247,2.40357073852751,1.0273423190034099,0.878092876070424,0.7554597494309409,-0.2825552651693207,-1.6690993614607135,0.1414185955172306,2.4034451173676383,1.0273381002308042,-0.0006146617113996404,-0.00023130699277230848,0.0006514587068569914,0.0014791659232415246,-0.00014451794576310982,0.0003849565280290567,-0.0017318277561872897,0.0,0.0,0.0,0.0,0.0,0.0,0.0,-0.0001790823108491768,-0.0002508148394132492,-6.96351380844451e-05,0.00010808467813161471,5.9931766078130666e-05,-0.00012562115987169165,-4.218772605701915e-06,0.0006146617113996404,0.00023130699277230848,-0.0006514587068569914,-0.0014791659232415246,0.00014451794576310982,-0.0003849565280290567,0.0017318277561872897,0.7838374972343445,46.37740707397461,5.786648273468018,-19.535249710083008,-0.9277244210243225,-2.3724398612976074,0.14590780436992645,0
73,0.36004114151000977,-0.7838374972343445,-46.37740707397461,-5.786648273468018,19.535249710083008,0.9277244210243225,2.3724398612976074,-0.14590780436992645,0.0,0.0,0.0,0.0,0.0,0.0,0.0,-0.8090625082062419,-0.06492467241876125,-0.5771382061704401,0.3942746518355317,0.3411517223687981,0.11264416145260599,-0.18708836859897768,0.8782719583812731,0.7557105642703541,-0.2824856300312363,-1.669207446138845,0.14135866375115247,2.40357073852751,1.0273423190034099,0.878092876070424,0.7554597494309409,-0.2825552651693207,-1.6690993614607135,0.1414185955172306,2.4034451173676383,1.0273381002308042,-0.0006146617113996404,-0.00023130699277230848,0.0006514587068569914,0.0014791659232415246,-0.00014451794576310982,0.0003849565280290567,-0.0017318277561872897,0.0,0.0,0.0,0.0,0.0,0.0,0.0,-0.0001790823108491768,-0.0002508148394132492,-6.96351380844451e-05,0.00010808467813161471,5.9931766078130666e-05,-0.00012562115987169165,-4.218772605701915e-06,0.0006146617113996404,0.00023130699277230848,-0.0006514587068569914,-0.0014791659232415246,0.00014451794576310982,-0.0003849565280290567,0.0017318277561872897,0.7838374972343445,46.37740707397461,5.786648273468018,-19.535249710083008,-0.9277244210243225,-2.3724398612976074,0.14590780436992645,0
74,0.36507153511047363,-0.8076412081718445,-46.37740707397461,-5.786648273468018,19.610628128051758,0.9158225655555725,2.3724398612976074,-0.20724813640117645,0.0,0.0,0.0,0.0,0.0,0.0,0.0,-0.8263111700078419,-0.06406756555842166,-0.5907284276573393,0.39060385747706733,0.34127826271669026,0.11243593156937501,-0.18733299811157753,0.8782738512596057,0.7557105642703541,-0.28248555054625824,-1.6692105432812705,0.14135530224859041,2.40357073852751,1.0273491345958576,0.878092876070424,0.7554597494309409,-0.2825552651693207,-1.6690993614607135,0.1414185955172306,2.4034451173676383,1.0273381002308042,6.530895225743005e-05,-0.00015819280069165903,0.00038672012992281536,-0.0005163320164015559,0.0003950334503321163,0.00035986958148121904,0.00041777701539079187,0.0,0.0,0.0,0.0,0.0,0.0,0.0,-0.00018097518918169797,-0.0002508148394132492,-6.971462306248899e-05,0.00011118182055702697,6.329326864018547e-05,-0.00012562115987169165,-1.1034365053452788e-05,-6.530895225743005e-05,0.00015819280069165903,-0.00038672012992281536,0.0005163320164015559,-0.0003950334503321163,-0.00035986958148121904,-0.00041777701539079187,0.8076412081718445,46.37740707397461,5.786648273468018,-19.610628128051758,-0.9158225655555725,-2.3724398612976074,0.20724813640117645,0
75,0.37010622024536133,-0.8076412081718445,-46.37740707397461,-5.786648273468018,19.610628128051758,0.9158225655555725,2.3724398612976074,-0.20724813640117645,0.0,0.0,0.0,0.0,0.0,0.0,0.0,-0.8263111700078419,-0.06406756555842166,-0.5907284276573393,0.39060385747706733,0.34127826271669026,0.11243593156937501,-0.18733299811157753,0.8782738512596057,0.7557105642703541,-0.28248555054625824,-1.6692105432812705,0.14135530224859041,2.40357073852751,1.0273491345958576,0.878092876070424,0.7554597494309409,-0.2825552651693207,-1.6690993614607135,0.1414185955172306,2.4034451173676383,1.0273381002308042,6.530895225743005e-05,-0.00015819280069165903,0.00038672012992281536,-0.0005163320164015559,0.0003950334503321163,0.00035986958148121904,0.00041777701539079187,0.0,0.0,0.0,0.0,0.0,0.0,0.0,-0.00018097518918169797,-0.0002508148394132492,-6.971462306248899e-05,0.00011118182055702697,6.329326864018547e-05,-0.00012562115987169165,-1.1034365053452788e-05,-6.530895225743005e-05,0.00015819280069165903,-0.00038672012992281536,0.0005163320164015559,-0.0003950334503321163,-0.00035986958148121904,-0.00041777701539079187,0.8076412081718445,46.37740707397461,5.786648273468018,-19.610628128051758,-0.9158225655555725,-2.3724398612976074,0.20724813640117645,0
76,0.3750741481781006,-0.8354122042655945,-46.42501449584961,-5.762844562530518,19.610628128051758,0.9277244210243225,2.3852572441101074,-0.17337362468242645,0.0,0.0,0.0,0.0,0.0,0.0,0.0,-0.8083667991474488,-0.06422159489530933,-0.5810738252816556,0.39060090153289756,0.3411455769171216,0.11270635897972445,-0.18935357956572726,0.8782762950728901,0.7557139041609183,-0.2824873004545245,-1.6692118296770115,0.14135546121583606,2.403569314373864,1.0273453707612223,0.878092876070424,0.7554597494309409,-0.2825552651693207,-1.6690993614607135,0.1414185955172306,2.4034451173676383,1.0273381002308042,0.0006708502018033687,0.0004552644345781175,0.0005502359850241625,-0.00015212904382331808,-3.724529842694811e-05,-0.00014978982053329655,-0.0005586066310120178,0.0,0.0,0.0,0.0,0.0,0.0,0.0,-0.00018341900246610088,-0.0002541547299774738,-6.796471479619814e-05,0.00011246821629806725,6.313430139454068e-05,-0.00012419700622556817,-7.270530418157506e-06,-0.0006708502018033687,-0.0004552644345781175,-0.0005502359850241625,0.00015212904382331808,3.724529842694811e-05,0.00014978982053329655,0.0005586066310120178,0.8354122042655945,46.42501449584961,5.762844562530518,-19.610628128051758,-0.9277244210243225,-2.3852572441101074,0.17337362468242645,0
77,0.3800511360168457,-0.8354122042655945,-46.42501449584961,-5.762844562530518,19.610628128051758,0.9277244210243225,2.3852572441101074,-0.17337362468242645,0.0,0.0,0.0,0.0,0.0,0.0,0.0,-0.8083667991474488,-0.06422159489530933,-0.5810738252816556,0.39060090153289756,0.3411455769171216,0.11270635897972445,-0.18935357956572726,0.8782762950728901,0.7557139041609183,-0.2824873004545245,-1.6692118296770115,0.14135546121583606,2.403569314373864,1.0273453707612223,0.878092876070424,0.7554597494309409,-0.2825552651693207,-1.6690993614607135,0.1414185955172306,2.4034451173676383,1.0273381002308042,0.0006708502018033687,0.0004552644345781175,0.0005502359850241625,-0.00015212904382331808,-3.724529842694811e-05,-0.00014978982053329655,-0.0005586066310120178,0.0,0.0,0.0,0.0,0.0,0.0,0.0,-0.00018341900246610088,-0.0002541547299774738,-6.796471479619814e-05,0.00011246821629806725,6.313430139454068e-05,-0.00012419700622556817,-7.270530418157506e-06,-0.0006708502018033687,-0.0004552644345781175,-0.0005502359850241625,0.00015212904382331808,3.724529842694811e-05,0.00014978982053329655,0.0005586066310120178,0.8354122042655945,46.42501449584961,5.762844562530518,-19.610628128051758,-0.9277244210243225,-2.3852572441101074,0.17337362468242645,0
78,0.38504648208618164,-0.8076412081718445,-46.34963607788086,-5.762844562530518,19.586824417114258,0.9213157296180725,2.3852572441101074,-0.16604940593242645,0.0,0.0,0.0,0.0,0.0,0.0,0.0,-0.8180471884186721,-0.058485316329276664,-0.5869504429773562,0.3847272091274346,0.3411845375844835,0.1124599627027864,-0.18915017251163765,0.8782738512636555,0.755708614447371,-0.28248722098211343,-1.6692104053533172,0.14135505121776795,2.403569314373864,1.027344556959139,0.878092876070424,0.7554597494309409,-0.2825552651693207,-1.6690993614607135,0.1414185955172306,2.4034451173676383,1.0273381002308042,2.3775132095996737e-05,-0.0010927686406553584,2.8778732562458e-05,-0.00018816741508771823,0.0002752486693161773,-0.00021881130528455948,-0.0011254922027083562,0.0,0.0,0.0,0.0,0.0,0.0,0.0,-0.00018097519323156952,-0.00024886501643017755,-6.804418720729455e-05,0.00011104389260374603,6.354429946264784e-05,-0.00012419700622556817,-6.456728334880424e-06,-2.3775132095996737e-05,0.0010927686406553584,-2.8778732562458e-05,0.00018816741508771823,-0.0002752486693161773,0.00021881130528455948,0.0011254922027083562,0.8076412081718445,46.34963607788086,5.762844562530518,-19.586824417114258,-0.9213157296180725,-2.3852572441101074,0.16604940593242645,0
79,0.39005565643310547,-0.8076412081718445,-46.34963607788086,-5.762844562530518,19.586824417114258,0.9213157296180725,2.3852572441101074,-0.16604940593242645,0.0,0.0,0.0,0.0,0.0,0.0,0.0,-0.8180471884186721,-0.058485316329276664,-0.5869504429773562,0.3847272091274346,0.3411845375844835,0.1124599627027864,-0.18915017251163765,0.8782738512636555,0.755708614447371,-0.28248722098211343,-1.6692104053533172,0.14135505121776795,2.403569314373864,1.027344556959139,0.878092876070424,0.7554597494309409,-0.2825552651693207,-1.6690993614607135,0.1414185955172306,2.4034451173676383,1.0273381002308042,2.3775132095996737e-05,-0.0010927686406553584,2.8778732562458e-05,-0.00018816741508771823,0.0002752486693161773,-0.00021881130528455948,-0.0011254922027083562,0.0,0.0,0.0,0.0,0.0,0.0,0.0,-0.00018097519323156952,-0.00024886501643017755,-6.804418720729455e-05,0.00011104389260374603,6.354429946264784e-05,-0.00012419700622556817,-6.456728334880424e-06,-2.3775132095996737e-05,0.0010927686406553584,-2.8778732562458e-05,0.00018816741508771823,-0.0002752486693161773,0.00021881130528455948,0.0011254922027083562,0.8076412081718445,46.34963607788086,5.762844562530518,-19.586824417114258,-0.9213157296180725,-2.3852572441101074,0.16604940593242645,0
80,0.39505481719970703,-0.8354122042655945,-46.32583236694336,-5.810451984405518,19.586824417114258,0.9277244210243225,2.3788485527038574,-0.16604940593242645,0.0,0.0,0.0,0.0,0.0,0.0,0.0,-0.819735506695894,-0.057737629071118936,-0.5910252471082398,0.3856729352240841,0.34156884654357117,0.11292497953090744,-0.18930811310987988,0.8782761902153904,0.755706918501709,-0.2824839066009075,-1.6692090085090705,0.14135410297761464,2.403570026450687,1.027344556959139,0.878092876070424,0.7554597494309409,-0.2825552651693207,-1.6690993614607135,0.1414185955172306,2.4034451173676383,1.0273381002308042,0.0006761786986063148,-0.0008969501120233075,0.0006323933444355371,-2.6023015597555597e-05,5.5667880781739854e-05,0.0001456885137099893,-0.001355849360717493,0.0,0.0,0.0,0.0,0.0,0.0,0.0,-0.00018331414496641774,-0.00024716907076816064,-7.135856841322674e-05,0.0001096470483570311,6.449253961596235e-05,-0.00012490908304885195,-6.456728334880424e-06,-0.0006761786986063148,0.0008969501120233075,-0.0006323933444355371,2.6023015597555597e-05,-5.5667880781739854e-05,-0.0001456885137099893,0.001355849360717493,0.8354122042655945,46.32583236694336,5.810451984405518,-19.586824417114258,-0.9277244210243225,-2.3788485527038574,0.16604940593242645,0
