rezayati/contactInterpretation/dataset/franka_main/labeled_data/link5/c12_4.csv
index,time,tau_J0,tau_J1,tau_J2,tau_J3,tau_J4,tau_J5,tau_J6,tau_J_d0,tau_J_d1,tau_J_d2,tau_J_d3,tau_J_d4,tau_J_d5,tau_J_d6,tau_ext0,tau_ext1,tau_ext2,tau_ext3,tau_ext4,tau_ext5,tau_ext6,q0,q1,q2,q3,q4,q5,q6,q_d0,q_d1,q_d2,q_d3,q_d4,q_d5,q_d6,dq0,dq1,dq2,dq3,dq4,dq5,dq6,dq_d0,dq_d1,dq_d2,dq_d3,dq_d4,dq_d5,dq_d6,e0,e1,e2,e3,e4,e5,e6,de0,de1,de2,de3,de4,de5,de6,etau_J0,etau_J1,etau_J2,etau_J3,etau_J4,etau_J5,etau_J6,label
1,0.0,-0.4029781222343445,-19.693445205688477,-0.3990752398967743,20.054964065551758,0.4388328194618225,2.4823031425476074,-0.27591270208358765,0.0,0.0,0.0,0.0,0.0,0.0,0.0,-0.400714166293999,0.02533221418352033,-0.2207357520403676,0.26090293893901584,-0.14241518349852636,0.1031676487545406,-0.27554490475783633,1.2135285375176663,-0.2203517378568649,-0.007494892514849964,-2.603908511014942,-0.10889920084520131,2.4682252795431343,0.8264808852831461,1.2134413937687574,-0.2202432315892585,-0.0075118285948192216,-2.6038483821997875,-0.10888392708698907,2.4681821257803174,0.826474908251239,-0.00041070142195469983,3.7483311960277984e-05,-0.001042490668537896,-0.0001564227741353253,-1.3480532888578726e-05,-0.00038960228099860385,0.00020356211209677193,0.0,0.0,0.0,0.0,0.0,0.0,0.0,-8.71437489089466e-05,0.00010850626760641746,-1.6936079969257292e-05,6.012881515449209e-05,1.5273758212239197e-05,-4.315376281693872e-05,-5.977031907078434e-06,0.00041070142195469983,-3.7483311960277984e-05,0.001042490668537896,0.0001564227741353253,1.3480532888578726e-05,0.00038960228099860385,-0.00020356211209677193,0.4029781222343445,19.693445205688477,0.3990752398967743,-20.054964065551758,-0.4388328194618225,-2.4823031425476074,0.27591270208358765,0
2,0.004996061325073242,-0.4029781222343445,-19.693445205688477,-0.3990752398967743,20.054964065551758,0.4388328194618225,2.4823031425476074,-0.27591270208358765,0.0,0.0,0.0,0.0,0.0,0.0,0.0,-0.400714166293999,0.02533221418352033,-0.2207357520403676,0.26090293893901584,-0.14241518349852636,0.1031676487545406,-0.27554490475783633,1.2135285375176663,-0.2203517378568649,-0.007494892514849964,-2.603908511014942,-0.10889920084520131,2.4682252795431343,0.8264808852831461,1.2134413937687574,-0.2202432315892585,-0.0075118285948192216,-2.6038483821997875,-0.10888392708698907,2.4681821257803174,0.826474908251239,-0.00041070142195469983,3.7483311960277984e-05,-0.001042490668537896,-0.0001564227741353253,-1.3480532888578726e-05,-0.00038960228099860385,0.00020356211209677193,0.0,0.0,0.0,0.0,0.0,0.0,0.0,-8.71437489089466e-05,0.00010850626760641746,-1.6936079969257292e-05,6.012881515449209e-05,1.5273758212239197e-05,-4.315376281693872e-05,-5.977031907078434e-06,0.00041070142195469983,-3.7483311960277984e-05,0.001042490668537896,0.0001564227741353253,1.3480532888578726e-05,0.00038960228099860385,-0.00020356211209677193,0.4029781222343445,19.693445205688477,0.3990752398967743,-20.054964065551758,-0.4388328194618225,-2.4823031425476074,0.27591270208358765,0
3,0.009994268417358398,-0.4029781222343445,-19.693445205688477,-0.3990752398967743,20.054964065551758,0.4388328194618225,2.4823031425476074,-0.27591270208358765,0.0,0.0,0.0,0.0,0.0,0.0,0.0,-0.400714166293999,0.02533221418352033,-0.2207357520403676,0.26090293893901584,-0.14241518349852636,0.1031676487545406,-0.27554490475783633,1.2135285375176663,-0.2203517378568649,-0.007494892514849964,-2.603908511014942,-0.10889920084520131,2.4682252795431343,0.8264808852831461,1.2134413937687574,-0.2202432315892585,-0.0075118285948192216,-2.6038483821997875,-0.10888392708698907,2.4681821257803174,0.826474908251239,-0.00041070142195469983,3.7483311960277984e-05,-0.001042490668537896,-0.0001564227741353253,-1.3480532888578726e-05,-0.00038960228099860385,0.00020356211209677193,0.0,0.0,0.0,0.0,0.0,0.0,0.0,-8.71437489089466e-05,0.00010850626760641746,-1.6936079969257292e-05,6.012881515449209e-05,1.5273758212239197e-05,-4.315376281693872e-05,-5.977031907078434e-06,0.00041070142195469983,-3.7483311960277984e-05,0.001042490668537896,0.0001564227741353253,1.3480532888578726e-05,0.00038960228099860385,-0.00020356211209677193,0.4029781222343445,19.693445205688477,0.3990752398967743,-20.054964065551758,-0.4388328194618225,-2.4823031425476074,0.27591270208358765,0
4,0.014993667602539062,-0.4029781222343445,-19.693445205688477,-0.3990752398967743,20.054964065551758,0.4388328194618225,2.4823031425476074,-0.27591270208358765,0.0,0.0,0.0,0.0,0.0,0.0,0.0,-0.400714166293999,0.02533221418352033,-0.2207357520403676,0.26090293893901584,-0.14241518349852636,0.1031676487545406,-0.27554490475783633,1.2135285375176663,-0.2203517378568649,-0.007494892514849964,-2.603908511014942,-0.10889920084520131,2.4682252795431343,0.8264808852831461,1.2134413937687574,-0.2202432315892585,-0.0075118285948192216,-2.6038483821997875,-0.10888392708698907,2.4681821257803174,0.826474908251239,-0.00041070142195469983,3.7483311960277984e-05,-0.001042490668537896,-0.0001564227741353253,-1.3480532888578726e-05,-0.00038960228099860385,0.00020356211209677193,0.0,0.0,0.0,0.0,0.0,0.0,0.0,-8.71437489089466e-05,0.00010850626760641746,-1.6936079969257292e-05,6.012881515449209e-05,1.5273758212239197e-05,-4.315376281693872e-05,-5.977031907078434e-06,0.00041070142195469983,-3.7483311960277984e-05,0.001042490668537896,0.0001564227741353253,1.3480532888578726e-05,0.00038960228099860385,-0.00020356211209677193,0.4029781222343445,19.693445205688477,0.3990752398967743,-20.054964065551758,-0.4388328194618225,-2.4823031425476074,0.27591270208358765,0
5,0.019994020462036133,-0.4267818331718445,-19.693445205688477,-0.4466826617717743,20.007356643676758,0.4507346749305725,2.4758944511413574,-0.26217979192733765,0.0,0.0,0.0,0.0,0.0,0.0,0.0,-0.40690799733159333,0.026153301369070125,-0.22714331937950846,0.2619144998702583,-0.14283230288659718,0.10339529787586413,-0.27473280023820507,1.213530210872735,-0.2203517378568649,-0.0074915516431394375,-2.603904940556266,-0.1089015890293009,2.4682259916199576,0.8264804312030901,1.2134413937687574,-0.2202432315892585,-0.0075118285948192216,-2.6038483821997875,-0.10888392708698907,2.4681821257803174,0.826474908251239,0.0005373346966042323,-0.0001556746643239058,-0.00011376056057417872,0.0006154665203472394,-0.0003998059357268233,-3.309226707801133e-05,-0.0007779978303874965,0.0,0.0,0.0,0.0,0.0,0.0,0.0,-8.881710397767861e-05,0.00010850626760641746,-2.0276951679784085e-05,5.655835647866425e-05,1.766194231182794e-05,-4.3865839640222504e-05,-5.522951851077984e-06,-0.0005373346966042323,0.0001556746643239058,0.00011376056057417872,-0.0006154665203472394,0.0003998059357268233,3.309226707801133e-05,0.0007779978303874965,0.4267818331718445,19.693445205688477,0.4466826617717743,-20.007356643676758,-0.4507346749305725,-2.4758944511413574,0.26217979192733765,0
6,0.025002002716064453,-0.4267818331718445,-19.693445205688477,-0.4466826617717743,20.007356643676758,0.4507346749305725,2.4758944511413574,-0.26217979192733765,0.0,0.0,0.0,0.0,0.0,0.0,0.0,-0.40690799733159333,0.026153301369070125,-0.22714331937950846,0.2619144998702583,-0.14283230288659718,0.10339529787586413,-0.27473280023820507,1.213530210872735,-0.2203517378568649,-0.0074915516431394375,-2.603904940556266,-0.1089015890293009,2.4682259916199576,0.8264804312030901,1.2134413937687574,-0.2202432315892585,-0.0075118285948192216,-2.6038483821997875,-0.10888392708698907,2.4681821257803174,0.826474908251239,0.0005373346966042323,-0.0001556746643239058,-0.00011376056057417872,0.0006154665203472394,-0.0003998059357268233,-3.309226707801133e-05,-0.0007779978303874965,0.0,0.0,0.0,0.0,0.0,0.0,0.0,-8.881710397767861e-05,0.00010850626760641746,-2.0276951679784085e-05,5.655835647866425e-05,1.766194231182794e-05,-4.3865839640222504e-05,-5.522951851077984e-06,-0.0005373346966042323,0.0001556746643239058,0.00011376056057417872,-0.0006154665203472394,0.0003998059357268233,3.309226707801133e-05,0.0007779978303874965,0.4267818331718445,19.693445205688477,0.4466826617717743,-20.007356643676758,-0.4507346749305725,-2.4758944511413574,0.26217979192733765,0
7,0.03002166748046875,-0.4267818331718445,-19.717248916625977,-0.3990752398967743,20.031160354614258,0.4452415108680725,2.4758944511413574,-0.23471395671367645,0.0,0.0,0.0,0.0,0.0,0.0,0.0,-0.40466059496912565,0.023512226006901935,-0.22855280168657255,0.2630504015869509,-0.14295839479760744,0.10386762019703677,-0.27434359578567846,1.2135302105820416,-0.22035006742100963,-0.007494893489040915,-2.6039066109908253,-0.10889991258540196,2.468222812221053,0.8264773678212702,1.2134413937687574,-0.2202432315892585,-0.0075118285948192216,-2.6038483821997875,-0.10888392708698907,2.4681821257803174,0.826474908251239,0.00045724531413848004,-0.0002973991458921062,-0.0005880003005129288,-0.00011850335720160597,-3.019201540077939e-05,0.0001941384762463241,-0.0015846651822123217,0.0,0.0,0.0,0.0,0.0,0.0,0.0,-8.881681328420932e-05,0.00010683583175113975,-1.6935105778306293e-05,5.822879103778433e-05,1.598549841289043e-05,-4.068644073562666e-05,-2.459570031199121e-06,-0.00045724531413848004,0.0002973991458921062,0.0005880003005129288,0.00011850335720160597,3.019201540077939e-05,-0.0001941384762463241,0.0015846651822123217,0.4267818331718445,19.717248916625977,0.3990752398967743,-20.031160354614258,-0.4452415108680725,-2.4758944511413574,0.23471395671367645,0
8,0.035015106201171875,-0.4267818331718445,-19.717248916625977,-0.3990752398967743,20.031160354614258,0.4452415108680725,2.4758944511413574,-0.23471395671367645,0.0,0.0,0.0,0.0,0.0,0.0,0.0,-0.40466059496912565,0.023512226006901935,-0.22855280168657255,0.2630504015869509,-0.14295839479760744,0.10386762019703677,-0.27434359578567846,1.2135302105820416,-0.22035006742100963,-0.007494893489040915,-2.6039066109908253,-0.10889991258540196,2.468222812221053,0.8264773678212702,1.2134413937687574,-0.2202432315892585,-0.0075118285948192216,-2.6038483821997875,-0.10888392708698907,2.4681821257803174,0.826474908251239,0.00045724531413848004,-0.0002973991458921062,-0.0005880003005129288,-0.00011850335720160597,-3.019201540077939e-05,0.0001941384762463241,-0.0015846651822123217,0.0,0.0,0.0,0.0,0.0,0.0,0.0,-8.881681328420932e-05,0.00010683583175113975,-1.6935105778306293e-05,5.822879103778433e-05,1.598549841289043e-05,-4.068644073562666e-05,-2.459570031199121e-06,-0.00045724531413848004,0.0002973991458921062,0.0005880003005129288,0.00011850335720160597,3.019201540077939e-05,-0.0001941384762463241,0.0015846651822123217,0.4267818331718445,19.717248916625977,0.3990752398967743,-20.031160354614258,-0.4452415108680725,-2.4758944511413574,0.23471395671367645,0
9,0.039964914321899414,-0.4029781222343445,-19.768823623657227,-0.3990752398967743,20.031160354614258,0.4388328194618225,2.4823031425476074,-0.28964561223983765,0.0,0.0,0.0,0.0,0.0,0.0,0.0,-0.40056286291110504,0.025657176395871714,-0.22339935617509543,0.26092717230681856,-0.14289239904810264,0.10408219652951979,-0.2740508164958838,1.213528539492087,-0.22034644814332324,-0.007494892514855463,-2.6039066109908253,-0.10889956014823995,2.468225279525187,0.8264830134701578,1.2134413937687574,-0.2202432315892585,-0.0075118285948192216,-2.6038483821997875,-0.10888392708698907,2.4681821257803174,0.826474908251239,0.00046727823490203685,0.0012083719934687517,-3.0032563705955507e-05,0.00014360156233674237,-3.1644094959148614e-05,-0.0004934321303106885,0.0008857097275012114,0.0,0.0,0.0,0.0,0.0,0.0,0.0,-8.71457233295736e-05,0.0001032165540647556,-1.693607996375822e-05,5.822879103778433e-05,1.5633061250880376e-05,-4.3153744869517396e-05,-8.105218918808e-06,-0.00046727823490203685,-0.0012083719934687517,3.0032563705955507e-05,-0.00014360156233674237,3.1644094959148614e-05,0.0004934321303106885,-0.0008857097275012114,0.4029781222343445,19.768823623657227,0.3990752398967743,-20.031160354614258,-0.4388328194618225,-2.4823031425476074,0.28964561223983765,0
10,0.04498910903930664,-0.4029781222343445,-19.768823623657227,-0.3990752398967743,20.031160354614258,0.4388328194618225,2.4823031425476074,-0.28964561223983765,0.0,0.0,0.0,0.0,0.0,0.0,0.0,-0.40056286291110504,0.025657176395871714,-0.22339935617509543,0.26092717230681856,-0.14289239904810264,0.10408219652951979,-0.2740508164958838,1.213528539492087,-0.22034644814332324,-0.007494892514855463,-2.6039066109908253,-0.10889956014823995,2.468225279525187,0.8264830134701578,1.2134413937687574,-0.2202432315892585,-0.0075118285948192216,-2.6038483821997875,-0.10888392708698907,2.4681821257803174,0.826474908251239,0.00046727823490203685,0.0012083719934687517,-3.0032563705955507e-05,0.00014360156233674237,-3.1644094959148614e-05,-0.0004934321303106885,0.0008857097275012114,0.0,0.0,0.0,0.0,0.0,0.0,0.0,-8.71457233295736e-05,0.0001032165540647556,-1.693607996375822e-05,5.822879103778433e-05,1.5633061250880376e-05,-4.3153744869517396e-05,-8.105218918808e-06,-0.00046727823490203685,-0.0012083719934687517,3.0032563705955507e-05,-0.00014360156233674237,3.1644094959148614e-05,0.0004934321303106885,-0.0008857097275012114,0.4029781222343445,19.768823623657227,0.3990752398967743,-20.031160354614258,-0.4388328194618225,-2.4823031425476074,0.28964561223983765,0
11,0.04994940757751465,-0.3514034152030945,-19.717248916625977,-0.3713042438030243,20.007356643676758,0.4388328194618225,2.4758944511413574,-0.25485557317733765,0.0,0.0,0.0,0.0,0.0,0.0,0.0,-0.4055986903711361,0.02579117411469445,-0.22725523052204374,0.26053604091108,-0.14274582733548916,0.10332534654756519,-0.2745503391914072,1.2135227754283202,-0.22035006742100963,-0.007497551541884391,-2.6039049405549703,-0.10889908772458594,2.4682259916199576,0.8264796188526399,1.2134413937687574,-0.2202432315892585,-0.0075118285948192216,-2.6038483821997875,-0.10888392708698907,2.4681821257803174,0.826474908251239,-0.001037697759534562,-6.494446228038717e-05,-0.0008726558543763726,0.0009434948312301056,8.847312026948943e-05,-9.80955632033463e-05,-0.00032230855870190456,0.0,0.0,0.0,0.0,0.0,0.0,0.0,-8.138165956284027e-05,0.00010683583175113975,-1.427705293483017e-05,5.655835518281194e-05,1.5160637596864368e-05,-4.3865839640222504e-05,-4.7106014008369e-06,0.001037697759534562,6.494446228038717e-05,0.0008726558543763726,-0.0009434948312301056,-8.847312026948943e-05,9.80955632033463e-05,0.00032230855870190456,0.3514034152030945,19.717248916625977,0.3713042438030243,-20.007356643676758,-0.4388328194618225,-2.4758944511413574,0.25485557317733765,0
12,0.05500292778015137,-0.3514034152030945,-19.717248916625977,-0.3713042438030243,20.007356643676758,0.4388328194618225,2.4758944511413574,-0.25485557317733765,0.0,0.0,0.0,0.0,0.0,0.0,0.0,-0.4055986903711361,0.02579117411469445,-0.22725523052204374,0.26053604091108,-0.14274582733548916,0.10332534654756519,-0.2745503391914072,1.2135227754283202,-0.22035006742100963,-0.007497551541884391,-2.6039049405549703,-0.10889908772458594,2.4682259916199576,0.8264796188526399,1.2134413937687574,-0.2202432315892585,-0.0075118285948192216,-2.6038483821997875,-0.10888392708698907,2.4681821257803174,0.826474908251239,-0.001037697759534562,-6.494446228038717e-05,-0.0008726558543763726,0.0009434948312301056,8.847312026948943e-05,-9.80955632033463e-05,-0.00032230855870190456,0.0,0.0,0.0,0.0,0.0,0.0,0.0,-8.138165956284027e-05,0.00010683583175113975,-1.427705293483017e-05,5.655835518281194e-05,1.5160637596864368e-05,-4.3865839640222504e-05,-4.7106014008369e-06,0.001037697759534562,6.494446228038717e-05,0.0008726558543763726,-0.0009434948312301056,-8.847312026948943e-05,9.80955632033463e-05,0.00032230855870190456,0.3514034152030945,19.717248916625977,0.3713042438030243,-20.007356643676758,-0.4388328194618225,-2.4758944511413574,0.25485557317733765,0
13,0.06002044677734375,-0.4029781222343445,-19.693445205688477,-0.3990752398967743,20.007356643676758,0.4388328194618225,2.4823031425476074,-0.24844686686992645,0.0,0.0,0.0,0.0,0.0,0.0,0.0,-0.39398602194101306,0.022214109224552286,-0.21454982954614765,0.26063341374341276,-0.14336230823774238,0.10359652556122204,-0.2744570342265155,1.2135263593807146,-0.2203517378568649,-0.007494892516186303,-2.6039049405549703,-0.1089001486143701,2.4682252795431343,0.8264789067821369,1.2134413937687574,-0.2202432315892585,-0.0075118285948192216,-2.6038483821997875,-0.10888392708698907,2.4681821257803174,0.826474908251239,0.0010882005206710595,-0.0006926108244220488,0.0002810861998669667,0.0007137387729245779,6.050949474243707e-05,-0.00019559198918415465,-0.0006546270991308986,0.0,0.0,0.0,0.0,0.0,0.0,0.0,-8.496561195725505e-05,0.00010850626760641746,-1.6936078632918267e-05,5.655835518281194e-05,1.622152738102456e-05,-4.315376281693872e-05,-3.998530897830754e-06,-0.0010882005206710595,0.0006926108244220488,-0.0002810861998669667,-0.0007137387729245779,-6.050949474243707e-05,0.00019559198918415465,0.0006546270991308986,0.4029781222343445,19.693445205688477,0.3990752398967743,-20.007356643676758,-0.4388328194618225,-2.4823031425476074,0.24844686686992645,0
14,0.06502938270568848,-0.4029781222343445,-19.693445205688477,-0.3990752398967743,20.007356643676758,0.4388328194618225,2.4823031425476074,-0.24844686686992645,0.0,0.0,0.0,0.0,0.0,0.0,0.0,-0.39398602194101306,0.022214109224552286,-0.21454982954614765,0.26063341374341276,-0.14336230823774238,0.10359652556122204,-0.2744570342265155,1.2135263593807146,-0.2203517378568649,-0.007494892516186303,-2.6039049405549703,-0.1089001486143701,2.4682252795431343,0.8264789067821369,1.2134413937687574,-0.2202432315892585,-0.0075118285948192216,-2.6038483821997875,-0.10888392708698907,2.4681821257803174,0.826474908251239,0.0010882005206710595,-0.0006926108244220488,0.0002810861998669667,0.0007137387729245779,6.050949474243707e-05,-0.00019559198918415465,-0.0006546270991308986,0.0,0.0,0.0,0.0,0.0,0.0,0.0,-8.496561195725505e-05,0.00010850626760641746,-1.6936078632918267e-05,5.655835518281194e-05,1.622152738102456e-05,-4.315376281693872e-05,-3.998530897830754e-06,-0.0010882005206710595,0.0006926108244220488,-0.0002810861998669667,-0.0007137387729245779,-6.050949474243707e-05,0.00019559198918415465,0.0006546270991308986,0.4029781222343445,19.693445205688477,0.3990752398967743,-20.007356643676758,-0.4388328194618225,-2.4823031425476074,0.24844686686992645,0
15,0.07002997398376465,-0.4267818331718445,-19.717248916625977,-0.4466826617717743,20.031160354614258,0.4269309639930725,2.4823031425476074,-0.31711143255233765,0.0,0.0,0.0,0.0,0.0,0.0,0.0,-0.3942261847177297,0.022951118191806345,-0.21335886758970704,0.2553507262961571,-0.14320939816573275,0.10260148954660729,-0.2746145141334754,1.2135280649924194,-0.22035006742100963,-0.007491788383567585,-2.6039066109908253,-0.10889894904931548,2.468225279381629,0.8264865230963716,1.2134413937687574,-0.2202432315892585,-0.0075118285948192216,-2.6038483821997875,-0.10888392708698907,2.4681821257803174,0.826474908251239,0.0008714780913848281,-4.510201721322797e-05,0.001302427387764821,-0.0004949184138204002,0.0005375463644259124,-0.0002984302694426184,0.0016488544554810903,0.0,0.0,0.0,0.0,0.0,0.0,0.0,-8.667122366201596e-05,0.00010683583175113975,-2.0040211251636658e-05,5.822879103778433e-05,1.5021962326403071e-05,-4.3153601311463063e-05,-1.1614845132568163e-05,-0.0008714780913848281,4.510201721322797e-05,-0.001302427387764821,0.0004949184138204002,-0.0005375463644259124,0.0002984302694426184,-0.0016488544554810903,0.4267818331718445,19.717248916625977,0.4466826617717743,-20.031160354614258,-0.4269309639930725,-2.4823031425476074,0.31711143255233765,0
16,0.07499265670776367,-0.4267818331718445,-19.717248916625977,-0.4466826617717743,20.031160354614258,0.4269309639930725,2.4823031425476074,-0.31711143255233765,0.0,0.0,0.0,0.0,0.0,0.0,0.0,-0.3942261847177297,0.022951118191806345,-0.21335886758970704,0.2553507262961571,-0.14320939816573275,0.10260148954660729,-0.2746145141334754,1.2135280649924194,-0.22035006742100963,-0.007491788383567585,-2.6039066109908253,-0.10889894904931548,2.468225279381629,0.8264865230963716,1.2134413937687574,-0.2202432315892585,-0.0075118285948192216,-2.6038483821997875,-0.10888392708698907,2.4681821257803174,0.826474908251239,0.0008714780913848281,-4.510201721322797e-05,0.001302427387764821,-0.0004949184138204002,0.0005375463644259124,-0.0002984302694426184,0.0016488544554810903,0.0,0.0,0.0,0.0,0.0,0.0,0.0,-8.667122366201596e-05,0.00010683583175113975,-2.0040211251636658e-05,5.822879103778433e-05,1.5021962326403071e-05,-4.3153601311463063e-05,-1.1614845132568163e-05,-0.0008714780913848281,4.510201721322797e-05,-0.001302427387764821,0.0004949184138204002,-0.0005375463644259124,0.0002984302694426184,-0.0016488544554810903,0.4267818331718445,19.717248916625977,0.4466826617717743,-20.031160354614258,-0.4269309639930725,-2.4823031425476074,0.31711143255233765,0
17,0.08000993728637695,-0.4505855441093445,-19.693445205688477,-0.3990752398967743,20.031160354614258,0.4388328194618225,2.4694857597351074,-0.27591270208358765,0.0,0.0,0.0,0.0,0.0,0.0,0.0,-0.39225024168382816,0.017779050510674577,-0.20999388668210242,0.25998319252650354,-0.14317966346086006,0.10362499149460082,-0.27522606686494194,1.2135309266894145,-0.2203517378568649,-0.007494892623098903,-2.6039066109908253,-0.10889924476237109,2.468223407044749,0.8264819585356235,1.2134413937687574,-0.2202432315892585,-0.0075118285948192216,-2.6038483821997875,-0.10888392708698907,2.4681821257803174,0.826474908251239,0.0012649421955474027,-0.0006243748716906739,-0.00019568562361215686,0.00018642585926620912,-1.588952009951987e-05,0.0003022681141360364,-0.0001808569224243724,0.0,0.0,0.0,0.0,0.0,0.0,0.0,-8.95329206571649e-05,0.00010850626760641746,-1.6935971720318833e-05,5.822879103778433e-05,1.5317675382015006e-05,-4.128126443170288e-05,-7.050284384413352e-06,-0.0012649421955474027,0.0006243748716906739,0.00019568562361215686,-0.00018642585926620912,1.588952009951987e-05,-0.0003022681141360364,0.0001808569224243724,0.4505855441093445,19.693445205688477,0.3990752398967743,-20.031160354614258,-0.4388328194618225,-2.4694857597351074,0.27591270208358765,0
18,0.08502054214477539,-0.4505855441093445,-19.693445205688477,-0.3990752398967743,20.031160354614258,0.4388328194618225,2.4694857597351074,-0.27591270208358765,0.0,0.0,0.0,0.0,0.0,0.0,0.0,-0.39225024168382816,0.017779050510674577,-0.20999388668210242,0.25998319252650354,-0.14317966346086006,0.10362499149460082,-0.27522606686494194,1.2135309266894145,-0.2203517378568649,-0.007494892623098903,-2.6039066109908253,-0.10889924476237109,2.468223407044749,0.8264819585356235,1.2134413937687574,-0.2202432315892585,-0.0075118285948192216,-2.6038483821997875,-0.10888392708698907,2.4681821257803174,0.826474908251239,0.0012649421955474027,-0.0006243748716906739,-0.00019568562361215686,0.00018642585926620912,-1.588952009951987e-05,0.0003022681141360364,-0.0001808569224243724,0.0,0.0,0.0,0.0,0.0,0.0,0.0,-8.95329206571649e-05,0.00010850626760641746,-1.6935971720318833e-05,5.822879103778433e-05,1.5317675382015006e-05,-4.128126443170288e-05,-7.050284384413352e-06,-0.0012649421955474027,0.0006243748716906739,0.00019568562361215686,-0.00018642585926620912,1.588952009951987e-05,-0.0003022681141360364,0.0001808569224243724,0.4505855441093445,19.693445205688477,0.3990752398967743,-20.031160354614258,-0.4388328194618225,-2.4694857597351074,0.27591270208358765,0
19,0.09001684188842773,-0.4267818331718445,-19.693445205688477,-0.4466826617717743,20.031160354614258,0.4452415108680725,2.4630770683288574,-0.30337852239608765,0.0,0.0,0.0,0.0,0.0,0.0,0.0,-0.4012728493037321,0.022231943058633376,-0.21456746329711285,0.25572829354862403,-0.1433452929726878,0.1026717904179099,-0.2767579317571443,1.2135298929812464,-0.2203517378568649,-0.007491551643139445,-2.6039066109908253,-0.10889991259878903,2.4682274157733737,0.8264850102794786,1.2134413937687574,-0.2202432315892585,-0.0075118285948192216,-2.6038483821997875,-0.10888392708698907,2.4681821257803174,0.826474908251239,-0.00029829939524954026,-0.0004938236333152367,0.0002062103908149326,9.264081593305244e-05,-5.067340590876801e-05,0.0003070046456567432,0.0013512979977845926,0.0,0.0,0.0,0.0,0.0,0.0,0.0,-8.849921248899051e-05,0.00010850626760641746,-2.027695167977628e-05,5.822879103778433e-05,1.5985511799959662e-05,-4.5289993056307765e-05,-1.0102028239589167e-05,0.00029829939524954026,0.0004938236333152367,-0.0002062103908149326,-9.264081593305244e-05,5.067340590876801e-05,-0.0003070046456567432,-0.0013512979977845926,0.4267818331718445,19.693445205688477,0.4466826617717743,-20.031160354614258,-0.4452415108680725,-2.4630770683288574,0.30337852239608765,0
20,0.09502959251403809,-0.4267818331718445,-19.693445205688477,-0.4466826617717743,20.031160354614258,0.4452415108680725,2.4630770683288574,-0.30337852239608765,0.0,0.0,0.0,0.0,0.0,0.0,0.0,-0.4012728493037321,0.022231943058633376,-0.21456746329711285,0.25572829354862403,-0.1433452929726878,0.1026717904179099,-0.2767579317571443,1.2135298929812464,-0.2203517378568649,-0.007491551643139445,-2.6039066109908253,-0.10889991259878903,2.4682274157733737,0.8264850102794786,1.2134413937687574,-0.2202432315892585,-0.0075118285948192216,-2.6038483821997875,-0.10888392708698907,2.4681821257803174,0.826474908251239,-0.00029829939524954026,-0.0004938236333152367,0.0002062103908149326,9.264081593305244e-05,-5.067340590876801e-05,0.0003070046456567432,0.0013512979977845926,0.0,0.0,0.0,0.0,0.0,0.0,0.0,-8.849921248899051e-05,0.00010850626760641746,-2.027695167977628e-05,5.822879103778433e-05,1.5985511799959662e-05,-4.5289993056307765e-05,-1.0102028239589167e-05,0.00029829939524954026,0.0004938236333152367,-0.0002062103908149326,-9.264081593305244e-05,5.067340590876801e-05,-0.0003070046456567432,-0.0013512979977845926,0.4267818331718445,19.693445205688477,0.4466826617717743,-20.031160354614258,-0.4452415108680725,-2.4630770683288574,0.30337852239608765,0
21,0.10001802444458008,-0.4029781222343445,-19.693445205688477,-0.4228789508342743,20.031160354614258,0.4388328194618225,2.4823031425476074,-0.27591270208358765,0.0,0.0,0.0,0.0,0.0,0.0,0.0,-0.40127713198451936,0.027763072197922848,-0.21552578408302114,0.25500410265360657,-0.14330540304533607,0.10198238286494327,-0.27673484569924073,1.2135285401443916,-0.2203517378568649,-0.0074932220789947004,-2.6039066109908253,-0.10890263801968833,2.4682210409906173,0.8264819541809543,1.2134413937687574,-0.2202432315892585,-0.0075118285948192216,-2.6038483821997875,-0.10888392708698907,2.4681821257803174,0.826474908251239,-0.00042858483460634684,0.00036682844492343634,-0.0005903643808896178,6.847422696659803e-05,4.243695405722889e-05,-0.00021565671374513583,-0.0005355413473144614,0.0,0.0,0.0,0.0,0.0,0.0,0.0,-8.714637563422833e-05,0.00010850626760641746,-1.8606515824521122e-05,5.822879103778433e-05,1.8710932699256277e-05,-3.891521029997236e-05,-7.045929715232546e-06,0.00042858483460634684,-0.00036682844492343634,0.0005903643808896178,-6.847422696659803e-05,-4.243695405722889e-05,0.00021565671374513583,0.0005355413473144614,0.4029781222343445,19.693445205688477,0.4228789508342743,-20.031160354614258,-0.4388328194618225,-2.4823031425476074,0.27591270208358765,0
22,0.10502767562866211,-0.4029781222343445,-19.693445205688477,-0.4228789508342743,20.031160354614258,0.4388328194618225,2.4823031425476074,-0.27591270208358765,0.0,0.0,0.0,0.0,0.0,0.0,0.0,-0.40127713198451936,0.027763072197922848,-0.21552578408302114,0.25500410265360657,-0.14330540304533607,0.10198238286494327,-0.27673484569924073,1.2135285401443916,-0.2203517378568649,-0.0074932220789947004,-2.6039066109908253,-0.10890263801968833,2.4682210409906173,0.8264819541809543,1.2134413937687574,-0.2202432315892585,-0.0075118285948192216,-2.6038483821997875,-0.10888392708698907,2.4681821257803174,0.826474908251239,-0.00042858483460634684,0.00036682844492343634,-0.0005903643808896178,6.847422696659803e-05,4.243695405722889e-05,-0.00021565671374513583,-0.0005355413473144614,0.0,0.0,0.0,0.0,0.0,0.0,0.0,-8.714637563422833e-05,0.00010850626760641746,-1.8606515824521122e-05,5.822879103778433e-05,1.8710932699256277e-05,-3.891521029997236e-05,-7.045929715232546e-06,0.00042858483460634684,-0.00036682844492343634,0.0005903643808896178,-6.847422696659803e-05,-4.243695405722889e-05,0.00021565671374513583,0.0005355413473144614,0.4029781222343445,19.693445205688477,0.4228789508342743,-20.031160354614258,-0.4388328194618225,-2.4823031425476074,0.27591270208358765,0
23,0.11001753807067871,-0.4505855441093445,-19.717248916625977,-0.4228789508342743,20.031160354614258,0.4388328194618225,2.4630770683288574,-0.25485557317733765,0.0,0.0,0.0,0.0,0.0,0.0,0.0,-0.4091111260471798,0.022935486528399444,-0.22344634911254144,0.26009400666346855,-0.14305217174287,0.10333892194988538,-0.2773400640503838,1.2135318813449438,-0.22035006742100963,-0.007493222403725018,-2.6039066109908253,-0.10890054522518772,2.468224119097719,0.8264796188605908,1.2134413937687574,-0.2202432315892585,-0.0075118285948192216,-2.6038483821997875,-0.10888392708698907,2.4681821257803174,0.826474908251239,0.00034656396140621173,0.00028963897921273254,-0.00013361641327219967,0.00016806435815080553,0.00021163138514042977,0.0004397897553949425,-0.0008167236195162665,0.0,0.0,0.0,0.0,0.0,0.0,0.0,-9.048757618645986e-05,0.00010683583175113975,-1.8606191094203833e-05,5.822879103778433e-05,1.6618138198642995e-05,-4.199331740162293e-05,-4.710609351810113e-06,-0.00034656396140621173,-0.00028963897921273254,0.00013361641327219967,-0.00016806435815080553,-0.00021163138514042977,-0.0004397897553949425,0.0008167236195162665,0.4505855441093445,19.717248916625977,0.4228789508342743,-20.031160354614258,-0.4388328194618225,-2.4630770683288574,0.25485557317733765,0
24,0.11501145362854004,-0.4505855441093445,-19.717248916625977,-0.4228789508342743,20.031160354614258,0.4388328194618225,2.4630770683288574,-0.25485557317733765,0.0,0.0,0.0,0.0,0.0,0.0,0.0,-0.4091111260471798,0.022935486528399444,-0.22344634911254144,0.26009400666346855,-0.14305217174287,0.10333892194988538,-0.2773400640503838,1.2135318813449438,-0.22035006742100963,-0.007493222403725018,-2.6039066109908253,-0.10890054522518772,2.468224119097719,0.8264796188605908,1.2134413937687574,-0.2202432315892585,-0.0075118285948192216,-2.6038483821997875,-0.10888392708698907,2.4681821257803174,0.826474908251239,0.00034656396140621173,0.00028963897921273254,-0.00013361641327219967,0.00016806435815080553,0.00021163138514042977,0.0004397897553949425,-0.0008167236195162665,0.0,0.0,0.0,0.0,0.0,0.0,0.0,-9.048757618645986e-05,0.00010683583175113975,-1.8606191094203833e-05,5.822879103778433e-05,1.6618138198642995e-05,-4.199331740162293e-05,-4.710609351810113e-06,-0.00034656396140621173,-0.00028963897921273254,0.00013361641327219967,-0.00016806435815080553,-0.00021163138514042977,-0.0004397897553949425,0.0008167236195162665,0.4505855441093445,19.717248916625977,0.4228789508342743,-20.031160354614258,-0.4388328194618225,-2.4630770683288574,0.25485557317733765,0
25,0.12003064155578613,-0.4505855441093445,-19.717248916625977,-0.4228789508342743,20.031160354614258,0.4388328194618225,2.4630770683288574,-0.25485557317733765,0.0,0.0,0.0,0.0,0.0,0.0,0.0,-0.4091111260471798,0.022935486528399444,-0.22344634911254144,0.26009400666346855,-0.14305217174287,0.10333892194988538,-0.2773400640503838,1.2135318813449438,-0.22035006742100963,-0.007493222403725018,-2.6039066109908253,-0.10890054522518772,2.468224119097719,0.8264796188605908,1.2134413937687574,-0.2202432315892585,-0.0075118285948192216,-2.6038483821997875,-0.10888392708698907,2.4681821257803174,0.826474908251239,0.00034656396140621173,0.00028963897921273254,-0.00013361641327219967,0.00016806435815080553,0.00021163138514042977,0.0004397897553949425,-0.0008167236195162665,0.0,0.0,0.0,0.0,0.0,0.0,0.0,-9.048757618645986e-05,0.00010683583175113975,-1.8606191094203833e-05,5.822879103778433e-05,1.6618138198642995e-05,-4.199331740162293e-05,-4.710609351810113e-06,-0.00034656396140621173,-0.00028963897921273254,0.00013361641327219967,-0.00016806435815080553,-0.00021163138514042977,-0.0004397897553949425,0.0008167236195162665,0.4505855441093445,19.717248916625977,0.4228789508342743,-20.031160354614258,-0.4388328194618225,-2.4630770683288574,0.25485557317733765,0
26,0.1250150203704834,-0.4505855441093445,-19.717248916625977,-0.4228789508342743,20.031160354614258,0.4388328194618225,2.4630770683288574,-0.25485557317733765,0.0,0.0,0.0,0.0,0.0,0.0,0.0,-0.4091111260471798,0.022935486528399444,-0.22344634911254144,0.26009400666346855,-0.14305217174287,0.10333892194988538,-0.2773400640503838,1.2135318813449438,-0.22035006742100963,-0.007493222403725018,-2.6039066109908253,-0.10890054522518772,2.468224119097719,0.8264796188605908,1.2134413937687574,-0.2202432315892585,-0.0075118285948192216,-2.6038483821997875,-0.10888392708698907,2.4681821257803174,0.826474908251239,0.00034656396140621173,0.00028963897921273254,-0.00013361641327219967,0.00016806435815080553,0.00021163138514042977,0.0004397897553949425,-0.0008167236195162665,0.0,0.0,0.0,0.0,0.0,0.0,0.0,-9.048757618645986e-05,0.00010683583175113975,-1.8606191094203833e-05,5.822879103778433e-05,1.6618138198642995e-05,-4.199331740162293e-05,-4.710609351810113e-06,-0.00034656396140621173,-0.00028963897921273254,0.00013361641327219967,-0.00016806435815080553,-0.00021163138514042977,-0.0004397897553949425,0.0008167236195162665,0.4505855441093445,19.717248916625977,0.4228789508342743,-20.031160354614258,-0.4388328194618225,-2.4630770683288574,0.25485557317733765,0
27,0.13002395629882812,-0.4267818331718445,-19.768823623657227,-0.3990752398967743,20.054964065551758,0.4333396553993225,2.4694857597351074,-0.27591270208358765,0.0,0.0,0.0,0.0,0.0,0.0,0.0,-0.4063262334505439,0.029899879684927886,-0.21915187396187372,0.25429495779847194,-0.1434079939862543,0.10243924564273597,-0.2762348824232137,1.2135302109090904,-0.22034644814332324,-0.007494892514851797,-2.6039082814266807,-0.10890172296010525,2.46822669931752,0.8264815922469432,1.2134413937687574,-0.2202432315892585,-0.0075118285948192216,-2.6038483821997875,-0.10888392708698907,2.4681821257803174,0.826474908251239,0.0008144292713830702,0.0014491934670019812,-0.0006598292574545576,-0.0007306283759713196,0.00020770720651020584,0.00033628140465637824,0.0003945523709618441,0.0,0.0,0.0,0.0,0.0,0.0,0.0,-8.881714033304178e-05,0.0001032165540647556,-1.6936079967424557e-05,5.989922689320082e-05,1.7795873116177585e-05,-4.4573537202552416e-05,-6.68399570413758e-06,-0.0008144292713830702,-0.0014491934670019812,0.0006598292574545576,0.0007306283759713196,-0.00020770720651020584,-0.00033628140465637824,-0.0003945523709618441,0.4267818331718445,19.768823623657227,0.3990752398967743,-20.054964065551758,-0.4333396553993225,-2.4694857597351074,0.27591270208358765,0
28,0.13502979278564453,-0.4267818331718445,-19.768823623657227,-0.3990752398967743,20.054964065551758,0.4333396553993225,2.4694857597351074,-0.27591270208358765,0.0,0.0,0.0,0.0,0.0,0.0,0.0,-0.4063262334505439,0.029899879684927886,-0.21915187396187372,0.25429495779847194,-0.1434079939862543,0.10243924564273597,-0.2762348824232137,1.2135302109090904,-0.22034644814332324,-0.007494892514851797,-2.6039082814266807,-0.10890172296010525,2.46822669931752,0.8264815922469432,1.2134413937687574,-0.2202432315892585,-0.0075118285948192216,-2.6038483821997875,-0.10888392708698907,2.4681821257803174,0.826474908251239,0.0008144292713830702,0.0014491934670019812,-0.0006598292574545576,-0.0007306283759713196,0.00020770720651020584,0.00033628140465637824,0.0003945523709618441,0.0,0.0,0.0,0.0,0.0,0.0,0.0,-8.881714033304178e-05,0.0001032165540647556,-1.6936079967424557e-05,5.989922689320082e-05,1.7795873116177585e-05,-4.4573537202552416e-05,-6.68399570413758e-06,-0.0008144292713830702,-0.0014491934670019812,0.0006598292574545576,0.0007306283759713196,-0.00020770720651020584,-0.00033628140465637824,-0.0003945523709618441,0.4267818331718445,19.768823623657227,0.3990752398967743,-20.054964065551758,-0.4333396553993225,-2.4694857597351074,0.27591270208358765,0
29,0.14002060890197754,-0.3752071261405945,-19.792627334594727,-0.3713042438030243,20.007356643676758,0.4452415108680725,2.4758944511413574,-0.25485557317733765,0.0,0.0,0.0,0.0,0.0,0.0,0.0,-0.405167506027117,0.024799148176233743,-0.21981987953479576,0.25550578469947494,-0.14382458785516214,0.10292592116623496,-0.27580526482004114,1.2135265120495282,-0.22034477770746796,-0.0074968413566811045,-2.6039049405549703,-0.10889991750922741,2.4682259916198834,0.8264795665266034,1.2134413937687574,-0.2202432315892585,-0.0075118285948192216,-2.6038483821997875,-0.10888392708698907,2.4681821257803174,0.826474908251239,-0.000374576536255843,0.0015141828757417185,-0.0008426150526011946,0.0006186831946479793,-0.0001773721511382885,-0.00015565155341003154,-0.0007751238276793486,0.0,0.0,0.0,0.0,0.0,0.0,0.0,-8.511828077084616e-05,0.0001015461182094779,-1.4987238138117025e-05,5.655835518281194e-05,1.5990422238335023e-05,-4.3865839566059606e-05,-4.658275364333164e-06,0.000374576536255843,-0.0015141828757417185,0.0008426150526011946,-0.0006186831946479793,0.0001773721511382885,0.00015565155341003154,0.0007751238276793486,0.3752071261405945,19.792627334594727,0.3713042438030243,-20.007356643676758,-0.4452415108680725,-2.4758944511413574,0.25485557317733765,0
30,0.1450176239013672,-0.3752071261405945,-19.792627334594727,-0.3713042438030243,20.007356643676758,0.4452415108680725,2.4758944511413574,-0.25485557317733765,0.0,0.0,0.0,0.0,0.0,0.0,0.0,-0.405167506027117,0.024799148176233743,-0.21981987953479576,0.25550578469947494,-0.14382458785516214,0.10292592116623496,-0.27580526482004114,1.2135265120495282,-0.22034477770746796,-0.0074968413566811045,-2.6039049405549703,-0.10889991750922741,2.4682259916198834,0.8264795665266034,1.2134413937687574,-0.2202432315892585,-0.0075118285948192216,-2.6038483821997875,-0.10888392708698907,2.4681821257803174,0.826474908251239,-0.000374576536255843,0.0015141828757417185,-0.0008426150526011946,0.0006186831946479793,-0.0001773721511382885,-0.00015565155341003154,-0.0007751238276793486,0.0,0.0,0.0,0.0,0.0,0.0,0.0,-8.511828077084616e-05,0.0001015461182094779,-1.4987238138117025e-05,5.655835518281194e-05,1.5990422238335023e-05,-4.3865839566059606e-05,-4.658275364333164e-06,0.000374576536255843,-0.0015141828757417185,0.0008426150526011946,-0.0006186831946479793,0.0001773721511382885,0.00015565155341003154,0.0007751238276793486,0.3752071261405945,19.792627334594727,0.3713042438030243,-20.007356643676758,-0.4452415108680725,-2.4758944511413574,0.25485557317733765,0
31,0.15003252029418945,-0.4029781222343445,-19.717248916625977,-0.4466826617717743,20.082735061645508,0.4388328194618225,2.4823031425476074,-0.28964561223983765,0.0,0.0,0.0,0.0,0.0,0.0,0.0,-0.39974968498011054,0.021417127286986283,-0.21404676536672262,0.25590311366698126,-0.14409489018147567,0.10284713608390755,-0.27629494079358907,1.2135278242362015,-0.22035006742100963,-0.0074915516431394375,-2.6039102302685118,-0.10889908235372393,2.4682252795431343,0.8264834843665777,1.2134413937687574,-0.2202432315892585,-0.0075118285948192216,-2.6038483821997875,-0.10888392708698907,2.4681821257803174,0.826474908251239,0.0007356769286460921,-0.0006210016568953341,0.0015279275994259571,-0.0008710546824641249,0.0001756612345283666,-0.0002803620844273651,0.0006827917094926544,0.0,0.0,0.0,0.0,0.0,0.0,0.0,-8.643046744416516e-05,0.00010683583175113975,-2.0276951679784085e-05,6.184806872422399e-05,1.515526673485923e-05,-4.315376281693872e-05,-8.576115338665424e-06,-0.0007356769286460921,0.0006210016568953341,-0.0015279275994259571,0.0008710546824641249,-0.0001756612345283666,0.0002803620844273651,-0.0006827917094926544,0.4029781222343445,19.717248916625977,0.4466826617717743,-20.082735061645508,-0.4388328194618225,-2.4823031425476074,0.28964561223983765,0
32,0.15500283241271973,-0.4029781222343445,-19.717248916625977,-0.4466826617717743,20.082735061645508,0.4388328194618225,2.4823031425476074,-0.28964561223983765,0.0,0.0,0.0,0.0,0.0,0.0,0.0,-0.39974968498011054,0.021417127286986283,-0.21404676536672262,0.25590311366698126,-0.14409489018147567,0.10284713608390755,-0.27629494079358907,1.2135278242362015,-0.22035006742100963,-0.0074915516431394375,-2.6039102302685118,-0.10889908235372393,2.4682252795431343,0.8264834843665777,1.2134413937687574,-0.2202432315892585,-0.0075118285948192216,-2.6038483821997875,-0.10888392708698907,2.4681821257803174,0.826474908251239,0.0007356769286460921,-0.0006210016568953341,0.0015279275994259571,-0.0008710546824641249,0.0001756612345283666,-0.0002803620844273651,0.0006827917094926544,0.0,0.0,0.0,0.0,0.0,0.0,0.0,-8.643046744416516e-05,0.00010683583175113975,-2.0276951679784085e-05,6.184806872422399e-05,1.515526673485923e-05,-4.315376281693872e-05,-8.576115338665424e-06,-0.0007356769286460921,0.0006210016568953341,-0.0015279275994259571,0.0008710546824641249,-0.0001756612345283666,0.0002803620844273651,-0.0006827917094926544,0.4029781222343445,19.717248916625977,0.4466826617717743,-20.082735061645508,-0.4388328194618225,-2.4823031425476074,0.28964561223983765,0
33,0.16002249717712402,-0.4029781222343445,-19.717248916625977,-0.4466826617717743,20.031160354614258,0.4333396553993225,2.4694857597351074,-0.24112264811992645,0.0,0.0,0.0,0.0,0.0,0.0,0.0,-0.40184846792102685,0.02303967621292013,-0.21703901849273247,0.25653869783077815,-0.14372340615366763,0.10222313863454124,-0.27557017396914985,1.2135285394880455,-0.22035006742100963,-0.0074915516431394375,-2.6039066109908253,-0.10889860315153085,2.4682267036967804,0.8264780923340309,1.2134413937687574,-0.2202432315892585,-0.0075118285948192216,-2.6038483821997875,-0.10888392708698907,2.4681821257803174,0.826474908251239,-4.0827658571231275e-05,-0.00023082107044783193,0.0012490788940513384,0.0004983360868133817,0.0005966814587895313,0.00032722987289392804,-0.001420735944441617,0.0,0.0,0.0,0.0,0.0,0.0,0.0,-8.714571928813974e-05,0.00010683583175113975,-2.0276951679784085e-05,5.822879103778433e-05,1.4676064541779832e-05,-4.4577916463062195e-05,-3.1840827918738768e-06,4.0827658571231275e-05,0.00023082107044783193,-0.0012490788940513384,-0.0004983360868133817,-0.0005966814587895313,-0.00032722987289392804,0.001420735944441617,0.4029781222343445,19.717248916625977,0.4466826617717743,-20.031160354614258,-0.4333396553993225,-2.4694857597351074,0.24112264811992645,0
34,0.16501760482788086,-0.4029781222343445,-19.717248916625977,-0.4466826617717743,20.031160354614258,0.4333396553993225,2.4694857597351074,-0.24112264811992645,0.0,0.0,0.0,0.0,0.0,0.0,0.0,-0.40184846792102685,0.02303967621292013,-0.21703901849273247,0.25653869783077815,-0.14372340615366763,0.10222313863454124,-0.27557017396914985,1.2135285394880455,-0.22035006742100963,-0.0074915516431394375,-2.6039066109908253,-0.10889860315153085,2.4682267036967804,0.8264780923340309,1.2134413937687574,-0.2202432315892585,-0.0075118285948192216,-2.6038483821997875,-0.10888392708698907,2.4681821257803174,0.826474908251239,-4.0827658571231275e-05,-0.00023082107044783193,0.0012490788940513384,0.0004983360868133817,0.0005966814587895313,0.00032722987289392804,-0.001420735944441617,0.0,0.0,0.0,0.0,0.0,0.0,0.0,-8.714571928813974e-05,0.00010683583175113975,-2.0276951679784085e-05,5.822879103778433e-05,1.4676064541779832e-05,-4.4577916463062195e-05,-3.1840827918738768e-06,4.0827658571231275e-05,0.00023082107044783193,-0.0012490788940513384,-0.0004983360868133817,-0.0005966814587895313,-0.00032722987289392804,0.001420735944441617,0.4029781222343445,19.717248916625977,0.4466826617717743,-20.031160354614258,-0.4333396553993225,-2.4694857597351074,0.24112264811992645,0
35,0.17003273963928223,-0.3752071261405945,-19.717248916625977,-0.3990752398967743,20.007356643676758,0.4452415108680725,2.4887118339538574,-0.25485557317733765,0.0,0.0,0.0,0.0,0.0,0.0,0.0,-0.39932992493087777,0.022226263207717586,-0.21365162979570762,0.2612870836086863,-0.14311851995828875,0.10249398640510811,-0.27384850976746494,1.2135263532128193,-0.22035006742100963,-0.007494892550931111,-2.6039049405549703,-0.10889979443105745,2.4682245674663115,0.8264764267027661,1.2134413937687574,-0.2202432315892585,-0.0075118285948192216,-2.6038483821997875,-0.10888392708698907,2.4681821257803174,0.826474908251239,-0.0005879696440876238,0.0005587356688324963,-0.0004968449306689165,0.0009609197524822031,-9.547648195544684e-05,-0.000480196147002917,-0.0007165634253562912,0.0,0.0,0.0,0.0,0.0,0.0,0.0,-8.495944406194944e-05,0.00010683583175113975,-1.693604388811054e-05,5.655835518281194e-05,1.5867344068373757e-05,-4.244168599409903e-05,-1.5184515270716403e-06,0.0005879696440876238,-0.0005587356688324963,0.0004968449306689165,-0.0009609197524822031,9.547648195544684e-05,0.000480196147002917,0.0007165634253562912,0.3752071261405945,19.717248916625977,0.3990752398967743,-20.007356643676758,-0.4452415108680725,-2.4887118339538574,0.25485557317733765,0
36,0.17502903938293457,-0.3752071261405945,-19.717248916625977,-0.3990752398967743,20.007356643676758,0.4452415108680725,2.4887118339538574,-0.25485557317733765,0.0,0.0,0.0,0.0,0.0,0.0,0.0,-0.39932992493087777,0.022226263207717586,-0.21365162979570762,0.2612870836086863,-0.14311851995828875,0.10249398640510811,-0.27384850976746494,1.2135263532128193,-0.22035006742100963,-0.007494892550931111,-2.6039049405549703,-0.10889979443105745,2.4682245674663115,0.8264764267027661,1.2134413937687574,-0.2202432315892585,-0.0075118285948192216,-2.6038483821997875,-0.10888392708698907,2.4681821257803174,0.826474908251239,-0.0005879696440876238,0.0005587356688324963,-0.0004968449306689165,0.0009609197524822031,-9.547648195544684e-05,-0.000480196147002917,-0.0007165634253562912,0.0,0.0,0.0,0.0,0.0,0.0,0.0,-8.495944406194944e-05,0.00010683583175113975,-1.693604388811054e-05,5.655835518281194e-05,1.5867344068373757e-05,-4.244168599409903e-05,-1.5184515270716403e-06,0.0005879696440876238,-0.0005587356688324963,0.0004968449306689165,-0.0009609197524822031,9.547648195544684e-05,0.000480196147002917,0.0007165634253562912,0.3752071261405945,19.717248916625977,0.3990752398967743,-20.007356643676758,-0.4452415108680725,-2.4887118339538574,0.25485557317733765,0
37,0.18001723289489746,-0.4267818331718445,-19.669641494750977,-0.4228789508342743,20.031160354614258,0.4452415108680725,2.4758944511413574,-0.28232139348983765,0.0,0.0,0.0,0.0,0.0,0.0,0.0,-0.39859760705234054,0.028939099312219198,-0.2151151767162133,0.2599200122686286,-0.14337144154733664,0.1023667437875598,-0.2725309997197725,1.213529247411197,-0.22035340829272015,-0.007493222078996533,-2.6039066109908253,-0.1089001537509882,2.4682259916199576,0.8264826704562497,1.2134413937687574,-0.2202432315892585,-0.0075118285948192216,-2.6038483821997875,-0.10888392708698907,2.4681821257803174,0.826474908251239,0.0007522562527664995,-9.392594424549498e-05,0.0001899927615420274,0.0003361461957332408,-0.00010051357508228024,-0.0001534013947328106,0.0005610855675362117,0.0,0.0,0.0,0.0,0.0,0.0,0.0,-8.785364243957261e-05,0.00011017670346166741,-1.8606515822688387e-05,5.822879103778433e-05,1.6226663999127644e-05,-4.3865839640222504e-05,-7.762205010641843e-06,-0.0007522562527664995,9.392594424549498e-05,-0.0001899927615420274,-0.0003361461957332408,0.00010051357508228024,0.0001534013947328106,-0.0005610855675362117,0.4267818331718445,19.669641494750977,0.4228789508342743,-20.031160354614258,-0.4452415108680725,-2.4758944511413574,0.28232139348983765,0
38,0.18501496315002441,-0.4267818331718445,-19.669641494750977,-0.4228789508342743,20.031160354614258,0.4452415108680725,2.4758944511413574,-0.28232139348983765,0.0,0.0,0.0,0.0,0.0,0.0,0.0,-0.39859760705234054,0.028939099312219198,-0.2151151767162133,0.2599200122686286,-0.14337144154733664,0.1023667437875598,-0.2725309997197725,1.213529247411197,-0.22035340829272015,-0.007493222078996533,-2.6039066109908253,-0.1089001537509882,2.4682259916199576,0.8264826704562497,1.2134413937687574,-0.2202432315892585,-0.0075118285948192216,-2.6038483821997875,-0.10888392708698907,2.4681821257803174,0.826474908251239,0.0007522562527664995,-9.392594424549498e-05,0.0001899927615420274,0.0003361461957332408,-0.00010051357508228024,-0.0001534013947328106,0.0005610855675362117,0.0,0.0,0.0,0.0,0.0,0.0,0.0,-8.785364243957261e-05,0.00011017670346166741,-1.8606515822688387e-05,5.822879103778433e-05,1.6226663999127644e-05,-4.3865839640222504e-05,-7.762205010641843e-06,-0.0007522562527664995,9.392594424549498e-05,-0.0001899927615420274,-0.0003361461957332408,0.00010051357508228024,0.0001534013947328106,-0.0005610855675362117,0.4267818331718445,19.669641494750977,0.4228789508342743,-20.031160354614258,-0.4452415108680725,-2.4758944511413574,0.28232139348983765,0
39,0.1900038719177246,-0.4029781222343445,-19.669641494750977,-0.4228789508342743,20.031160354614258,0.4452415108680725,2.4694857597351074,-0.31711143255233765,0.0,0.0,0.0,0.0,0.0,0.0,0.0,-0.4023120675474136,0.023994772126975202,-0.21942010240183213,0.2671546779849724,-0.14250469151822623,0.10316785576090777,-0.2718422249166911,1.2135282725837233,-0.22035340829272015,-0.0074932220789947004,-2.6039066109908253,-0.10889984678028083,2.4682267036967804,0.8264854760556777,1.2134413937687574,-0.2202432315892585,-0.0075118285948192216,-2.6038483821997875,-0.10888392708698907,2.4681821257803174,0.826474908251239,-0.0006511033198334977,-0.0008345371572874654,-0.00010821564650028388,0.00043269091643533165,4.166953900814055e-05,0.00021556511391218245,0.0021896051712836325,0.0,0.0,0.0,0.0,0.0,0.0,0.0,-8.687881496594052e-05,0.00011017670346166741,-1.8606515824521122e-05,5.822879103778433e-05,1.591969329176046e-05,-4.4577916463062195e-05,-1.0567804438643691e-05,0.0006511033198334977,0.0008345371572874654,0.00010821564650028388,-0.00043269091643533165,-4.166953900814055e-05,-0.00021556511391218245,-0.0021896051712836325,0.4029781222343445,19.669641494750977,0.4228789508342743,-20.031160354614258,-0.4452415108680725,-2.4694857597351074,0.31711143255233765,0
40,0.1950082778930664,-0.4029781222343445,-19.669641494750977,-0.4228789508342743,20.031160354614258,0.4452415108680725,2.4694857597351074,-0.31711143255233765,0.0,0.0,0.0,0.0,0.0,0.0,0.0,-0.4023120675474136,0.023994772126975202,-0.21942010240183213,0.2671546779849724,-0.14250469151822623,0.10316785576090777,-0.2718422249166911,1.2135282725837233,-0.22035340829272015,-0.0074932220789947004,-2.6039066109908253,-0.10889984678028083,2.4682267036967804,0.8264854760556777,1.2134413937687574,-0.2202432315892585,-0.0075118285948192216,-2.6038483821997875,-0.10888392708698907,2.4681821257803174,0.826474908251239,-0.0006511033198334977,-0.0008345371572874654,-0.00010821564650028388,0.00043269091643533165,4.166953900814055e-05,0.00021556511391218245,0.0021896051712836325,0.0,0.0,0.0,0.0,0.0,0.0,0.0,-8.687881496594052e-05,0.00011017670346166741,-1.8606515824521122e-05,5.822879103778433e-05,1.591969329176046e-05,-4.4577916463062195e-05,-1.0567804438643691e-05,0.0006511033198334977,0.0008345371572874654,0.00010821564650028388,-0.00043269091643533165,-4.166953900814055e-05,-0.00021556511391218245,-0.0021896051712836325,0.4029781222343445,19.669641494750977,0.4228789508342743,-20.031160354614258,-0.4452415108680725,-2.4694857597351074,0.31711143255233765,0
41,0.20000338554382324,-0.4267818331718445,-19.693445205688477,-0.4982573688030243,20.054964065551758,0.4333396553993225,2.4823031425476074,-0.28964561223983765,0.0,0.0,0.0,0.0,0.0,0.0,0.0,-0.40452462779505577,0.02383024703119453,-0.22069590059807564,0.26846598172449154,-0.14174343699444547,0.1029770127076156,-0.27135857956437226,1.2135302109075783,-0.2203517378568649,-0.007487932365453034,-2.6039082814266807,-0.1088984720022272,2.468225275182484,0.826480305500139,1.2134413937687574,-0.2202432315892585,-0.0075118285948192216,-2.6038483821997875,-0.10888392708698907,2.4681821257803174,0.826474908251239,0.00025837954401455735,-0.0008823772130293647,0.001183137698446252,-0.00018221410734325274,0.00044417160241272744,-0.0002858043571898711,0.0005981641997038561,0.0,0.0,0.0,0.0,0.0,0.0,0.0,-8.881713882091802e-05,0.00010850626760641746,-2.3896229366187315e-05,5.989922689320082e-05,1.4544915238126621e-05,-4.314940216643137e-05,-5.397248899918772e-06,-0.00025837954401455735,0.0008823772130293647,-0.001183137698446252,0.00018221410734325274,-0.00044417160241272744,0.0002858043571898711,-0.0005981641997038561,0.4267818331718445,19.693445205688477,0.4982573688030243,-20.054964065551758,-0.4333396553993225,-2.4823031425476074,0.28964561223983765,0
42,0.20500850677490234,-0.4267818331718445,-19.693445205688477,-0.4982573688030243,20.054964065551758,0.4333396553993225,2.4823031425476074,-0.28964561223983765,0.0,0.0,0.0,0.0,0.0,0.0,0.0,-0.40452462779505577,0.02383024703119453,-0.22069590059807564,0.26846598172449154,-0.14174343699444547,0.1029770127076156,-0.27135857956437226,1.2135302109075783,-0.2203517378568649,-0.007487932365453034,-2.6039082814266807,-0.1088984720022272,2.468225275182484,0.826480305500139,1.2134413937687574,-0.2202432315892585,-0.0075118285948192216,-2.6038483821997875,-0.10888392708698907,2.4681821257803174,0.826474908251239,0.00025837954401455735,-0.0008823772130293647,0.001183137698446252,-0.00018221410734325274,0.00044417160241272744,-0.0002858043571898711,0.0005981641997038561,0.0,0.0,0.0,0.0,0.0,0.0,0.0,-8.881713882091802e-05,0.00010850626760641746,-2.3896229366187315e-05,5.989922689320082e-05,1.4544915238126621e-05,-4.314940216643137e-05,-5.397248899918772e-06,-0.00025837954401455735,0.0008823772130293647,-0.001183137698446252,0.00018221410734325274,-0.00044417160241272744,0.0002858043571898711,-0.0005981641997038561,0.4267818331718445,19.693445205688477,0.4982573688030243,-20.054964065551758,-0.4333396553993225,-2.4823031425476074,0.28964561223983765,0
43,0.21000218391418457,-0.4029781222343445,-19.717248916625977,-0.4228789508342743,20.007356643676758,0.4452415108680725,2.4694857597351074,-0.24844686686992645,0.0,0.0,0.0,0.0,0.0,0.0,0.0,-0.40551787656129673,0.029811023084791954,-0.22424282420208572,0.26143610240652293,-0.1415799521979303,0.10258212865734917,-0.272413805823037,1.213526394706023,-0.22035006742100963,-0.0074932220789947004,-2.6039049405549703,-0.10890086020363977,2.468225290845917,0.8264789066026862,1.2134413937687574,-0.2202432315892585,-0.0075118285948192216,-2.6038483821997875,-0.10888392708698907,2.4681821257803174,0.826474908251239,-0.00039428441506824855,-9.154488376037579e-06,6.401724771554283e-06,0.0008656248119542507,1.361778064893149e-05,0.00030584649500230355,-0.000868328154889235,0.0,0.0,0.0,0.0,0.0,0.0,0.0,-8.500093726571123e-05,0.00010683583175113975,-1.8606515824521122e-05,5.655835518281194e-05,1.6933116650699742e-05,-4.31650655996485e-05,-3.998351447154214e-06,0.00039428441506824855,9.154488376037579e-06,-6.401724771554283e-06,-0.0008656248119542507,-1.361778064893149e-05,-0.00030584649500230355,0.000868328154889235,0.4029781222343445,19.717248916625977,0.4228789508342743,-20.007356643676758,-0.4452415108680725,-2.4694857597351074,0.24844686686992645,0
44,0.21500492095947266,-0.4029781222343445,-19.717248916625977,-0.4228789508342743,20.007356643676758,0.4452415108680725,2.4694857597351074,-0.24844686686992645,0.0,0.0,0.0,0.0,0.0,0.0,0.0,-0.40551787656129673,0.029811023084791954,-0.22424282420208572,0.26143610240652293,-0.1415799521979303,0.10258212865734917,-0.272413805823037,1.213526394706023,-0.22035006742100963,-0.0074932220789947004,-2.6039049405549703,-0.10890086020363977,2.468225290845917,0.8264789066026862,1.2134413937687574,-0.2202432315892585,-0.0075118285948192216,-2.6038483821997875,-0.10888392708698907,2.4681821257803174,0.826474908251239,-0.00039428441506824855,-9.154488376037579e-06,6.401724771554283e-06,0.0008656248119542507,1.361778064893149e-05,0.00030584649500230355,-0.000868328154889235,0.0,0.0,0.0,0.0,0.0,0.0,0.0,-8.500093726571123e-05,0.00010683583175113975,-1.8606515824521122e-05,5.655835518281194e-05,1.6933116650699742e-05,-4.31650655996485e-05,-3.998351447154214e-06,0.00039428441506824855,9.154488376037579e-06,-6.401724771554283e-06,-0.0008656248119542507,-1.361778064893149e-05,-0.00030584649500230355,0.000868328154889235,0.4029781222343445,19.717248916625977,0.4228789508342743,-20.007356643676758,-0.4452415108680725,-2.4694857597351074,0.24844686686992645,0
45,0.2200021743774414,-0.4029781222343445,-19.717248916625977,-0.3990752398967743,20.054964065551758,0.4452415108680725,2.4823031425476074,-0.26858848333358765,0.0,0.0,0.0,0.0,0.0,0.0,0.0,-0.40224406053952627,0.02559587949005799,-0.2205939511485282,0.2617029954395007,-0.14135929331542899,0.10299006335236673,-0.27290811141313287,1.2135285404611222,-0.22035006742100963,-0.007494892514849964,-2.6039082814266807,-0.108900862322351,2.468224924868899,0.8264779527431806,1.2134413937687574,-0.2202432315892585,-0.0075118285948192216,-2.6038483821997875,-0.10888392708698907,2.4681821257803174,0.826474908251239,0.00040804427054852226,-0.00011527969386090838,3.9952039629460486e-05,-0.00025668211848730335,6.781317739929317e-06,-0.0004656669636516911,-0.0004160386719903908,0.0,0.0,0.0,0.0,0.0,0.0,0.0,-8.714669236487005e-05,0.00010683583175113975,-1.6936079969257292e-05,5.989922689320082e-05,1.6935235361920098e-05,-4.279908858162429e-05,-3.0444919415506533e-06,-0.00040804427054852226,0.00011527969386090838,-3.9952039629460486e-05,0.00025668211848730335,-6.781317739929317e-06,0.0004656669636516911,0.0004160386719903908,0.4029781222343445,19.717248916625977,0.3990752398967743,-20.054964065551758,-0.4452415108680725,-2.4823031425476074,0.26858848333358765,0
46,0.22501254081726074,-0.4029781222343445,-19.717248916625977,-0.3990752398967743,20.054964065551758,0.4452415108680725,2.4823031425476074,-0.26858848333358765,0.0,0.0,0.0,0.0,0.0,0.0,0.0,-0.40224406053952627,0.02559587949005799,-0.2205939511485282,0.2617029954395007,-0.14135929331542899,0.10299006335236673,-0.27290811141313287,1.2135285404611222,-0.22035006742100963,-0.007494892514849964,-2.6039082814266807,-0.108900862322351,2.468224924868899,0.8264779527431806,1.2134413937687574,-0.2202432315892585,-0.0075118285948192216,-2.6038483821997875,-0.10888392708698907,2.4681821257803174,0.826474908251239,0.00040804427054852226,-0.00011527969386090838,3.9952039629460486e-05,-0.00025668211848730335,6.781317739929317e-06,-0.0004656669636516911,-0.0004160386719903908,0.0,0.0,0.0,0.0,0.0,0.0,0.0,-8.714669236487005e-05,0.00010683583175113975,-1.6936079969257292e-05,5.989922689320082e-05,1.6935235361920098e-05,-4.279908858162429e-05,-3.0444919415506533e-06,-0.00040804427054852226,0.00011527969386090838,-3.9952039629460486e-05,0.00025668211848730335,-6.781317739929317e-06,0.0004656669636516911,0.0004160386719903908,0.4029781222343445,19.717248916625977,0.3990752398967743,-20.054964065551758,-0.4452415108680725,-2.4823031425476074,0.26858848333358765,0
47,0.23000144958496094,-0.4029781222343445,-19.717248916625977,-0.3990752398967743,20.054964065551758,0.4452415108680725,2.4823031425476074,-0.26858848333358765,0.0,0.0,0.0,0.0,0.0,0.0,0.0,-0.40224406053952627,0.02559587949005799,-0.2205939511485282,0.2617029954395007,-0.14135929331542899,0.10299006335236673,-0.27290811141313287,1.2135285404611222,-0.22035006742100963,-0.007494892514849964,-2.6039082814266807,-0.108900862322351,2.468224924868899,0.8264779527431806,1.2134413937687574,-0.2202432315892585,-0.0075118285948192216,-2.6038483821997875,-0.10888392708698907,2.4681821257803174,0.826474908251239,0.00040804427054852226,-0.00011527969386090838,3.9952039629460486e-05,-0.00025668211848730335,6.781317739929317e-06,-0.0004656669636516911,-0.0004160386719903908,0.0,0.0,0.0,0.0,0.0,0.0,0.0,-8.714669236487005e-05,0.00010683583175113975,-1.6936079969257292e-05,5.989922689320082e-05,1.6935235361920098e-05,-4.279908858162429e-05,-3.0444919415506533e-06,-0.00040804427054852226,0.00011527969386090838,-3.9952039629460486e-05,0.00025668211848730335,-6.781317739929317e-06,0.0004656669636516911,0.0004160386719903908,0.4029781222343445,19.717248916625977,0.3990752398967743,-20.054964065551758,-0.4452415108680725,-2.4823031425476074,0.26858848333358765,0
48,0.2350015640258789,-0.4029781222343445,-19.717248916625977,-0.3990752398967743,20.054964065551758,0.4452415108680725,2.4823031425476074,-0.26858848333358765,0.0,0.0,0.0,0.0,0.0,0.0,0.0,-0.40224406053952627,0.02559587949005799,-0.2205939511485282,0.2617029954395007,-0.14135929331542899,0.10299006335236673,-0.27290811141313287,1.2135285404611222,-0.22035006742100963,-0.007494892514849964,-2.6039082814266807,-0.108900862322351,2.468224924868899,0.8264779527431806,1.2134413937687574,-0.2202432315892585,-0.0075118285948192216,-2.6038483821997875,-0.10888392708698907,2.4681821257803174,0.826474908251239,0.00040804427054852226,-0.00011527969386090838,3.9952039629460486e-05,-0.00025668211848730335,6.781317739929317e-06,-0.0004656669636516911,-0.0004160386719903908,0.0,0.0,0.0,0.0,0.0,0.0,0.0,-8.714669236487005e-05,0.00010683583175113975,-1.6936079969257292e-05,5.989922689320082e-05,1.6935235361920098e-05,-4.279908858162429e-05,-3.0444919415506533e-06,-0.00040804427054852226,0.00011527969386090838,-3.9952039629460486e-05,0.00025668211848730335,-6.781317739929317e-06,0.0004656669636516911,0.0004160386719903908,0.4029781222343445,19.717248916625977,0.3990752398967743,-20.054964065551758,-0.4452415108680725,-2.4823031425476074,0.26858848333358765,0
49,0.24000954627990723,-0.4029781222343445,-19.693445205688477,-0.3990752398967743,20.082735061645508,0.4507346749305725,2.4758944511413574,-0.24112264811992645,0.0,0.0,0.0,0.0,0.0,0.0,0.0,-0.4061097896100714,0.030612951397129037,-0.22125714702605115,0.2564473389788645,-0.14100254236523047,0.10176434304483507,-0.27357890336169405,1.213528540473235,-0.2203517378568649,-0.007494901282568523,-2.6039102302685118,-0.10890040435453457,2.4682259916179556,0.8264780929620347,1.2134413937687574,-0.2202432315892585,-0.0075118285948192216,-2.6038483821997875,-0.10888392708698907,2.4681821257803174,0.826474908251239,0.00011802419404746033,-0.00031626451199910855,-0.00041408479563254146,-0.0012468480092816022,-0.00028673484354811897,-2.448115365902752e-05,-0.0013881256448756779,0.0,0.0,0.0,0.0,0.0,0.0,0.0,-8.714670447762529e-05,0.00010850626760641746,-1.6927312250698302e-05,6.184806872422399e-05,1.6477267545500496e-05,-4.3865837638268346e-05,-3.1847107956339826e-06,-0.00011802419404746033,0.00031626451199910855,0.00041408479563254146,0.0012468480092816022,0.00028673484354811897,2.448115365902752e-05,0.0013881256448756779,0.4029781222343445,19.693445205688477,0.3990752398967743,-20.082735061645508,-0.4507346749305725,-2.4758944511413574,0.24112264811992645,0
50,0.2450242042541504,-0.4029781222343445,-19.693445205688477,-0.3990752398967743,20.082735061645508,0.4507346749305725,2.4758944511413574,-0.24112264811992645,0.0,0.0,0.0,0.0,0.0,0.0,0.0,-0.4061097896100714,0.030612951397129037,-0.22125714702605115,0.2564473389788645,-0.14100254236523047,0.10176434304483507,-0.27357890336169405,1.213528540473235,-0.2203517378568649,-0.007494901282568523,-2.6039102302685118,-0.10890040435453457,2.4682259916179556,0.8264780929620347,1.2134413937687574,-0.2202432315892585,-0.0075118285948192216,-2.6038483821997875,-0.10888392708698907,2.4681821257803174,0.826474908251239,0.00011802419404746033,-0.00031626451199910855,-0.00041408479563254146,-0.0012468480092816022,-0.00028673484354811897,-2.448115365902752e-05,-0.0013881256448756779,0.0,0.0,0.0,0.0,0.0,0.0,0.0,-8.714670447762529e-05,0.00010850626760641746,-1.6927312250698302e-05,6.184806872422399e-05,1.6477267545500496e-05,-4.3865837638268346e-05,-3.1847107956339826e-06,-0.00011802419404746033,0.00031626451199910855,0.00041408479563254146,0.0012468480092816022,0.00028673484354811897,2.448115365902752e-05,0.0013881256448756779,0.4029781222343445,19.693445205688477,0.3990752398967743,-20.082735061645508,-0.4507346749305725,-2.4758944511413574,0.24112264811992645,0
51,0.2500324249267578,-0.4029781222343445,-19.745019912719727,-0.4228789508342743,20.031160354614258,0.4333396553993225,2.4758944511413574,-0.24844686686992645,0.0,0.0,0.0,0.0,0.0,0.0,0.0,-0.3990666161803151,0.023670544672282835,-0.21586239287396303,0.2615494299376866,-0.141520787148862,0.10283249896061981,-0.2735511120924815,1.2135285139822818,-0.2203481185791785,-0.007495352634654056,-2.6039066109908253,-0.10889851604349231,2.4682259916199576,0.8264778035375001,1.2134413937687574,-0.2202432315892585,-0.0075118285948192216,-2.6038483821997875,-0.10888392708698907,2.4681821257803174,0.826474908251239,0.00025320553409244356,0.0008277142863081494,0.0007433524962842624,0.0004963065140243699,0.0003944401409331358,-0.000141410481568838,-0.0005497960706650662,0.0,0.0,0.0,0.0,0.0,0.0,0.0,-8.712021352441646e-05,0.00010488698992000556,-1.6475960165165428e-05,5.822879103778433e-05,1.4588956503233663e-05,-4.3865839640222504e-05,-2.89528626107316e-06,-0.00025320553409244356,-0.0008277142863081494,-0.0007433524962842624,-0.0004963065140243699,-0.0003944401409331358,0.000141410481568838,0.0005497960706650662,0.4029781222343445,19.745019912719727,0.4228789508342743,-20.031160354614258,-0.4333396553993225,-2.4758944511413574,0.24844686686992645,0
52,0.25501060485839844,-0.4029781222343445,-19.745019912719727,-0.4228789508342743,20.031160354614258,0.4333396553993225,2.4758944511413574,-0.24844686686992645,0.0,0.0,0.0,0.0,0.0,0.0,0.0,-0.3990666161803151,0.023670544672282835,-0.21586239287396303,0.2615494299376866,-0.141520787148862,0.10283249896061981,-0.2735511120924815,1.2135285139822818,-0.2203481185791785,-0.007495352634654056,-2.6039066109908253,-0.10889851604349231,2.4682259916199576,0.8264778035375001,1.2134413937687574,-0.2202432315892585,-0.0075118285948192216,-2.6038483821997875,-0.10888392708698907,2.4681821257803174,0.826474908251239,0.00025320553409244356,0.0008277142863081494,0.0007433524962842624,0.0004963065140243699,0.0003944401409331358,-0.000141410481568838,-0.0005497960706650662,0.0,0.0,0.0,0.0,0.0,0.0,0.0,-8.712021352441646e-05,0.00010488698992000556,-1.6475960165165428e-05,5.822879103778433e-05,1.4588956503233663e-05,-4.3865839640222504e-05,-2.89528626107316e-06,-0.00025320553409244356,-0.0008277142863081494,-0.0007433524962842624,-0.0004963065140243699,-0.0003944401409331358,0.000141410481568838,0.0005497960706650662,0.4029781222343445,19.745019912719727,0.4228789508342743,-20.031160354614258,-0.4333396553993225,-2.4758944511413574,0.24844686686992645,0
53,0.26003313064575195,-0.3752071261405945,-19.693445205688477,-0.3990752398967743,19.983552932739258,0.4452415108680725,2.4694857597351074,-0.28232139348983765,0.0,0.0,0.0,0.0,0.0,0.0,0.0,-0.3994274770456404,0.02771209570768908,-0.21416376184829206,0.25770866494215405,-0.14180527653372163,0.10215721195878029,-0.27341475782645636,1.213526590541092,-0.2203517378568649,-0.00749489285160733,-2.603903270119115,-0.10889979881847052,2.4682235247823927,0.8264816109740709,1.2134413937687574,-0.2202432315892585,-0.0075118285948192216,-2.6038483821997875,-0.10888392708698907,2.4681821257803174,0.826474908251239,-0.0003700487147246636,-0.00037834495951670044,-0.00011820357229522242,0.0011220208769370892,-6.899798218260696e-05,5.031166272247965e-05,0.0005636154486275287,0.0,0.0,0.0,0.0,0.0,0.0,0.0,-8.519677233453926e-05,0.00010850626760641746,-1.6935743211891376e-05,5.488791932739545e-05,1.5871731481445495e-05,-4.139900207533742e-05,-6.702722831875008e-06,0.0003700487147246636,0.00037834495951670044,0.00011820357229522242,-0.0011220208769370892,6.899798218260696e-05,-5.031166272247965e-05,-0.0005636154486275287,0.3752071261405945,19.693445205688477,0.3990752398967743,-19.983552932739258,-0.4452415108680725,-2.4694857597351074,0.28232139348983765,0
54,0.2650327682495117,-0.3752071261405945,-19.693445205688477,-0.3990752398967743,19.983552932739258,0.4452415108680725,2.4694857597351074,-0.28232139348983765,0.0,0.0,0.0,0.0,0.0,0.0,0.0,-0.3994274770456404,0.02771209570768908,-0.21416376184829206,0.25770866494215405,-0.14180527653372163,0.10215721195878029,-0.27341475782645636,1.213526590541092,-0.2203517378568649,-0.00749489285160733,-2.603903270119115,-0.10889979881847052,2.4682235247823927,0.8264816109740709,1.2134413937687574,-0.2202432315892585,-0.0075118285948192216,-2.6038483821997875,-0.10888392708698907,2.4681821257803174,0.826474908251239,-0.0003700487147246636,-0.00037834495951670044,-0.00011820357229522242,0.0011220208769370892,-6.899798218260696e-05,5.031166272247965e-05,0.0005636154486275287,0.0,0.0,0.0,0.0,0.0,0.0,0.0,-8.519677233453926e-05,0.00010850626760641746,-1.6935743211891376e-05,5.488791932739545e-05,1.5871731481445495e-05,-4.139900207533742e-05,-6.702722831875008e-06,0.0003700487147246636,0.00037834495951670044,0.00011820357229522242,-0.0011220208769370892,6.899798218260696e-05,-5.031166272247965e-05,-0.0005636154486275287,0.3752071261405945,19.693445205688477,0.3990752398967743,-19.983552932739258,-0.4452415108680725,-2.4694857597351074,0.28232139348983765,0
55,0.2700209617614746,-0.4029781222343445,-19.693445205688477,-0.4228789508342743,20.031160354614258,0.4507346749305725,2.4694857597351074,-0.30337852239608765,0.0,0.0,0.0,0.0,0.0,0.0,0.0,-0.39925514220081837,0.02497056404947524,-0.2154593013848418,0.2608842946382795,-0.1414123617453484,0.10256660251978449,-0.2737484003551174,1.2135256765068405,-0.2203517378568649,-0.007493222078996602,-2.6039066109558324,-0.10890052423042407,2.468223485518591,0.8264807673802679,1.2134413937687574,-0.2202432315892585,-0.0075118285948192216,-2.6038483821997875,-0.10888392708698907,2.4681821257803174,0.826474908251239,-0.0002303479357470734,-0.0006587405456211473,0.00022885857784884516,0.00021688808800619225,-0.00026300350825520603,0.00020433996872033664,0.001118976191288107,0.0,0.0,0.0,0.0,0.0,0.0,0.0,-8.428273808314124e-05,0.00010850626760641746,-1.8606515822619865e-05,5.8228756044886865e-05,1.659714343499319e-05,-4.135973827379402e-05,-5.8591290288401154e-06,0.0002303479357470734,0.0006587405456211473,-0.00022885857784884516,-0.00021688808800619225,0.00026300350825520603,-0.00020433996872033664,-0.001118976191288107,0.4029781222343445,19.693445205688477,0.4228789508342743,-20.031160354614258,-0.4507346749305725,-2.4694857597351074,0.30337852239608765,0
56,0.27503275871276855,-0.4029781222343445,-19.693445205688477,-0.4228789508342743,20.031160354614258,0.4507346749305725,2.4694857597351074,-0.30337852239608765,0.0,0.0,0.0,0.0,0.0,0.0,0.0,-0.39925514220081837,0.02497056404947524,-0.2154593013848418,0.2608842946382795,-0.1414123617453484,0.10256660251978449,-0.2737484003551174,1.2135256765068405,-0.2203517378568649,-0.007493222078996602,-2.6039066109558324,-0.10890052423042407,2.468223485518591,0.8264807673802679,1.2134413937687574,-0.2202432315892585,-0.0075118285948192216,-2.6038483821997875,-0.10888392708698907,2.4681821257803174,0.826474908251239,-0.0002303479357470734,-0.0006587405456211473,0.00022885857784884516,0.00021688808800619225,-0.00026300350825520603,0.00020433996872033664,0.001118976191288107,0.0,0.0,0.0,0.0,0.0,0.0,0.0,-8.428273808314124e-05,0.00010850626760641746,-1.8606515822619865e-05,5.8228756044886865e-05,1.659714343499319e-05,-4.135973827379402e-05,-5.8591290288401154e-06,0.0002303479357470734,0.0006587405456211473,-0.00022885857784884516,-0.00021688808800619225,0.00026300350825520603,-0.00020433996872033664,-0.001118976191288107,0.4029781222343445,19.693445205688477,0.4228789508342743,-20.031160354614258,-0.4507346749305725,-2.4694857597351074,0.30337852239608765,0
57,0.28003740310668945,-0.4029781222343445,-19.717248916625977,-0.4466826617717743,20.054964065551758,0.4388328194618225,2.4694857597351074,-0.28232139348983765,0.0,0.0,0.0,0.0,0.0,0.0,0.0,-0.402708248352322,0.029263678589011587,-0.21905242420612003,0.2593673402202551,-0.1410513971134606,0.10206484424456358,-0.2745129579044405,1.213525676349329,-0.22035006742100963,-0.0074915779462951144,-2.6039082814266803,-0.1089026365584147,2.468226703480775,0.8264826690930236,1.2134413937687574,-0.2202432315892585,-0.0075118285948192216,-2.6038483821997875,-0.10888392708698907,2.4681821257803174,0.826474908251239,-0.00035563601041639674,0.00015342573492953512,0.0002587392927266713,-0.00031619659829734166,0.00010681336675446102,0.00011849075181647938,0.0005404330459533549,0.0,0.0,0.0,0.0,0.0,0.0,0.0,-8.428258057158189e-05,0.00010683583175113975,-2.0250648524107115e-05,5.989922689275673e-05,1.87094714256264e-05,-4.4577700457626435e-05,-7.760841784554273e-06,0.00035563601041639674,-0.00015342573492953512,-0.0002587392927266713,0.00031619659829734166,-0.00010681336675446102,-0.00011849075181647938,-0.0005404330459533549,0.4029781222343445,19.717248916625977,0.4466826617717743,-20.054964065551758,-0.4388328194618225,-2.4694857597351074,0.28232139348983765,0
58,0.2850313186645508,-0.4029781222343445,-19.717248916625977,-0.4466826617717743,20.054964065551758,0.4388328194618225,2.4694857597351074,-0.28232139348983765,0.0,0.0,0.0,0.0,0.0,0.0,0.0,-0.402708248352322,0.029263678589011587,-0.21905242420612003,0.2593673402202551,-0.1410513971134606,0.10206484424456358,-0.2745129579044405,1.213525676349329,-0.22035006742100963,-0.0074915779462951144,-2.6039082814266803,-0.1089026365584147,2.468226703480775,0.8264826690930236,1.2134413937687574,-0.2202432315892585,-0.0075118285948192216,-2.6038483821997875,-0.10888392708698907,2.4681821257803174,0.826474908251239,-0.00035563601041639674,0.00015342573492953512,0.0002587392927266713,-0.00031619659829734166,0.00010681336675446102,0.00011849075181647938,0.0005404330459533549,0.0,0.0,0.0,0.0,0.0,0.0,0.0,-8.428258057158189e-05,0.00010683583175113975,-2.0250648524107115e-05,5.989922689275673e-05,1.87094714256264e-05,-4.4577700457626435e-05,-7.760841784554273e-06,0.00035563601041639674,-0.00015342573492953512,-0.0002587392927266713,0.00031619659829734166,-0.00010681336675446102,-0.00011849075181647938,-0.0005404330459533549,0.4029781222343445,19.717248916625977,0.4466826617717743,-20.054964065551758,-0.4388328194618225,-2.4694857597351074,0.28232139348983765,0
59,0.29004406929016113,-0.4029781222343445,-19.717248916625977,-0.4228789508342743,20.031160354614258,0.4388328194618225,2.4823031425476074,-0.24844686686992645,0.0,0.0,0.0,0.0,0.0,0.0,0.0,-0.401697005308019,0.023332438607513564,-0.2165076575321432,0.26258499718200545,-0.14181302141070368,0.10321064909152432,-0.27465013947604644,1.2135285128418711,-0.22035006742100963,-0.0074932220790111985,-2.6039066109908253,-0.10889943793852523,2.468225240297278,0.8264778470901714,1.2134413937687574,-0.2202432315892585,-0.0075118285948192216,-2.6038483821997875,-0.10888392708698907,2.4681821257803174,0.826474908251239,-3.0236284112356058e-05,-5.2182774213208066e-05,8.522196839911667e-06,0.0002621113541721063,0.00015200243478160773,-0.000178664629209274,-0.0012508786783278763,0.0,0.0,0.0,0.0,0.0,0.0,0.0,-8.711907311376166e-05,0.00010683583175113975,-1.8606515808023034e-05,5.822879103778433e-05,1.551085153615739e-05,-4.3114516960596205e-05,-2.9388389323203867e-06,3.0236284112356058e-05,5.2182774213208066e-05,-8.522196839911667e-06,-0.0002621113541721063,-0.00015200243478160773,0.000178664629209274,0.0012508786783278763,0.4029781222343445,19.717248916625977,0.4228789508342743,-20.031160354614258,-0.4388328194618225,-2.4823031425476074,0.24844686686992645,0
60,0.29503369331359863,-0.4029781222343445,-19.717248916625977,-0.4228789508342743,20.031160354614258,0.4388328194618225,2.4823031425476074,-0.24844686686992645,0.0,0.0,0.0,0.0,0.0,0.0,0.0,-0.401697005308019,0.023332438607513564,-0.2165076575321432,0.26258499718200545,-0.14181302141070368,0.10321064909152432,-0.27465013947604644,1.2135285128418711,-0.22035006742100963,-0.0074932220790111985,-2.6039066109908253,-0.10889943793852523,2.468225240297278,0.8264778470901714,1.2134413937687574,-0.2202432315892585,-0.0075118285948192216,-2.6038483821997875,-0.10888392708698907,2.4681821257803174,0.826474908251239,-3.0236284112356058e-05,-5.2182774213208066e-05,8.522196839911667e-06,0.0002621113541721063,0.00015200243478160773,-0.000178664629209274,-0.0012508786783278763,0.0,0.0,0.0,0.0,0.0,0.0,0.0,-8.711907311376166e-05,0.00010683583175113975,-1.8606515808023034e-05,5.822879103778433e-05,1.551085153615739e-05,-4.3114516960596205e-05,-2.9388389323203867e-06,3.0236284112356058e-05,5.2182774213208066e-05,-8.522196839911667e-06,-0.0002621113541721063,-0.00015200243478160773,0.000178664629209274,0.0012508786783278763,0.4029781222343445,19.717248916625977,0.4228789508342743,-20.031160354614258,-0.4388328194618225,-2.4823031425476074,0.24844686686992645,0
61,0.3000335693359375,-0.4029781222343445,-19.693445205688477,-0.4466826617717743,20.007356643676758,0.4507346749305725,2.4758944511413574,-0.30337852239608765,0.0,0.0,0.0,0.0,0.0,0.0,0.0,-0.4093034542120038,0.02571408361358078,-0.22400565713475953,0.25953800160273605,-0.14190025210855656,0.10336221003062376,-0.2745904475632674,1.213527816387024,-0.2203517378568649,-0.0074915516431394375,-2.6039049405549703,-0.1089004179476013,2.468224931981607,0.8264850098089188,1.2134413937687574,-0.2202432315892585,-0.0075118285948192216,-2.6038483821997875,-0.10888392708698907,2.4681821257803174,0.826474908251239,-0.0006783420656476439,-0.0007858628787761335,0.0004877722150856231,0.0008614074454550294,-0.00015007230078823764,-5.581599012506413e-07,0.0011701557865492328,0.0,0.0,0.0,0.0,0.0,0.0,0.0,-8.6422618266635e-05,0.00010850626760641746,-2.0276951679784085e-05,5.655835518281194e-05,1.6490860612228264e-05,-4.2806201289824486e-05,-1.010155767977583e-05,0.0006783420656476439,0.0007858628787761335,-0.0004877722150856231,-0.0008614074454550294,0.00015007230078823764,5.581599012506413e-07,-0.0011701557865492328,0.4029781222343445,19.693445205688477,0.4466826617717743,-20.007356643676758,-0.4507346749305725,-2.4758944511413574,0.30337852239608765,0
62,0.3050379753112793,-0.4029781222343445,-19.693445205688477,-0.4466826617717743,20.007356643676758,0.4507346749305725,2.4758944511413574,-0.30337852239608765,0.0,0.0,0.0,0.0,0.0,0.0,0.0,-0.4093034542120038,0.02571408361358078,-0.22400565713475953,0.25953800160273605,-0.14190025210855656,0.10336221003062376,-0.2745904475632674,1.213527816387024,-0.2203517378568649,-0.0074915516431394375,-2.6039049405549703,-0.1089004179476013,2.468224931981607,0.8264850098089188,1.2134413937687574,-0.2202432315892585,-0.0075118285948192216,-2.6038483821997875,-0.10888392708698907,2.4681821257803174,0.826474908251239,-0.0006783420656476439,-0.0007858628787761335,0.0004877722150856231,0.0008614074454550294,-0.00015007230078823764,-5.581599012506413e-07,0.0011701557865492328,0.0,0.0,0.0,0.0,0.0,0.0,0.0,-8.6422618266635e-05,0.00010850626760641746,-2.0276951679784085e-05,5.655835518281194e-05,1.6490860612228264e-05,-4.2806201289824486e-05,-1.010155767977583e-05,0.0006783420656476439,0.0007858628787761335,-0.0004877722150856231,-0.0008614074454550294,0.00015007230078823764,5.581599012506413e-07,-0.0011701557865492328,0.4029781222343445,19.693445205688477,0.4466826617717743,-20.007356643676758,-0.4507346749305725,-2.4758944511413574,0.30337852239608765,0
63,0.3100316524505615,-0.4029781222343445,-19.717248916625977,-0.3713042438030243,20.031160354614258,0.4388328194618225,2.4758944511413574,-0.28232139348983765,0.0,0.0,0.0,0.0,0.0,0.0,0.0,-0.4083668390660279,0.02323723267935384,-0.2226151831129864,0.2592497404018918,-0.14165990296024744,0.10353476285923582,-0.2754228810370826,1.2135285139781944,-0.22035006742100963,-0.0074968413566811045,-2.6039066109908253,-0.10889908192019518,2.4682259911294593,0.8264823174057155,1.2134413937687574,-0.2202432315892585,-0.0075118285948192216,-2.6038483821997875,-0.10888392708698907,2.4681821257803174,0.826474908251239,-0.0003917897636945383,0.00014951206328042555,-0.0012707171044983936,5.699388922389049e-05,0.0001901525935990911,8.153305018649386e-05,0.0003764429220493378,0.0,0.0,0.0,0.0,0.0,0.0,0.0,-8.712020943701937e-05,0.00010683583175113975,-1.4987238138117025e-05,5.822879103778433e-05,1.5154833206104668e-05,-4.386534914191387e-05,-7.409154476500923e-06,0.0003917897636945383,-0.00014951206328042555,0.0012707171044983936,-5.699388922389049e-05,-0.0001901525935990911,-8.153305018649386e-05,-0.0003764429220493378,0.4029781222343445,19.717248916625977,0.3713042438030243,-20.031160354614258,-0.4388328194618225,-2.4758944511413574,0.28232139348983765,0
64,0.3150341510772705,-0.4029781222343445,-19.717248916625977,-0.3713042438030243,20.031160354614258,0.4388328194618225,2.4758944511413574,-0.28232139348983765,0.0,0.0,0.0,0.0,0.0,0.0,0.0,-0.4083668390660279,0.02323723267935384,-0.2226151831129864,0.2592497404018918,-0.14165990296024744,0.10353476285923582,-0.2754228810370826,1.2135285139781944,-0.22035006742100963,-0.0074968413566811045,-2.6039066109908253,-0.10889908192019518,2.4682259911294593,0.8264823174057155,1.2134413937687574,-0.2202432315892585,-0.0075118285948192216,-2.6038483821997875,-0.10888392708698907,2.4681821257803174,0.826474908251239,-0.0003917897636945383,0.00014951206328042555,-0.0012707171044983936,5.699388922389049e-05,0.0001901525935990911,8.153305018649386e-05,0.0003764429220493378,0.0,0.0,0.0,0.0,0.0,0.0,0.0,-8.712020943701937e-05,0.00010683583175113975,-1.4987238138117025e-05,5.822879103778433e-05,1.5154833206104668e-05,-4.386534914191387e-05,-7.409154476500923e-06,0.0003917897636945383,-0.00014951206328042555,0.0012707171044983936,-5.699388922389049e-05,-0.0001901525935990911,-8.153305018649386e-05,-0.0003764429220493378,0.4029781222343445,19.717248916625977,0.3713042438030243,-20.031160354614258,-0.4388328194618225,-2.4758944511413574,0.28232139348983765,0
65,0.32003307342529297,-0.4267818331718445,-19.745019912719727,-0.3713042438030243,20.031160354614258,0.4571433663368225,2.4694857597351074,-0.24112264811992645,0.0,0.0,0.0,0.0,0.0,0.0,0.0,-0.4033177440369662,0.021484544267433285,-0.2175492183768475,0.25751607640796176,-0.14172921313624134,0.10342142521610737,-0.2765093313330939,1.213530210908941,-0.2203481185791785,-0.0074968413566811045,-2.6039066109908253,-0.10890230110545247,2.4682267036967778,0.8264780794115907,1.2134413937687574,-0.2202432315892585,-0.0075118285948192216,-2.6038483821997875,-0.10888392708698907,2.4681821257803174,0.826474908251239,0.000954806328839925,0.00040991017388030624,-0.000698245216526744,-9.769243896461253e-05,-0.0003846955156918095,0.00018870253566371115,-0.0012140883657755413,0.0,0.0,0.0,0.0,0.0,0.0,0.0,-8.881714018360576e-05,0.00010488698992000556,-1.4987238138117025e-05,5.822879103778433e-05,1.8374018463399033e-05,-4.457791646039766e-05,-3.171160351644886e-06,-0.000954806328839925,-0.00040991017388030624,0.000698245216526744,9.769243896461253e-05,0.0003846955156918095,-0.00018870253566371115,0.0012140883657755413,0.4267818331718445,19.745019912719727,0.3713042438030243,-20.031160354614258,-0.4571433663368225,-2.4694857597351074,0.24112264811992645,0
66,0.3250303268432617,-0.4267818331718445,-19.745019912719727,-0.3713042438030243,20.031160354614258,0.4571433663368225,2.4694857597351074,-0.24112264811992645,0.0,0.0,0.0,0.0,0.0,0.0,0.0,-0.4033177440369662,0.021484544267433285,-0.2175492183768475,0.25751607640796176,-0.14172921313624134,0.10342142521610737,-0.2765093313330939,1.213530210908941,-0.2203481185791785,-0.0074968413566811045,-2.6039066109908253,-0.10890230110545247,2.4682267036967778,0.8264780794115907,1.2134413937687574,-0.2202432315892585,-0.0075118285948192216,-2.6038483821997875,-0.10888392708698907,2.4681821257803174,0.826474908251239,0.000954806328839925,0.00040991017388030624,-0.000698245216526744,-9.769243896461253e-05,-0.0003846955156918095,0.00018870253566371115,-0.0012140883657755413,0.0,0.0,0.0,0.0,0.0,0.0,0.0,-8.881714018360576e-05,0.00010488698992000556,-1.4987238138117025e-05,5.822879103778433e-05,1.8374018463399033e-05,-4.457791646039766e-05,-3.171160351644886e-06,-0.000954806328839925,-0.00040991017388030624,0.000698245216526744,9.769243896461253e-05,0.0003846955156918095,-0.00018870253566371115,0.0012140883657755413,0.4267818331718445,19.745019912719727,0.3713042438030243,-20.031160354614258,-0.4571433663368225,-2.4694857597351074,0.24112264811992645,0
67,0.33002138137817383,-0.3752071261405945,-19.693445205688477,-0.3990752398967743,20.054964065551758,0.4507346749305725,2.4887118339538574,-0.24844686686992645,0.0,0.0,0.0,0.0,0.0,0.0,0.0,-0.4034421952859894,0.028652002519838418,-0.21787418311379314,0.2532284447315029,-0.1411173293616491,0.10295054261162276,-0.2763482000712799,1.213526565104112,-0.2203517378568649,-0.007494892514849964,-2.6039082814266807,-0.10890040451770638,2.4682245543843595,0.8264789067282251,1.2134413937687574,-0.2202432315892585,-0.0075118285948192216,-2.6038483821997875,-0.10888392708698907,2.4681821257803174,0.826474908251239,-0.0001459527193848069,2.9476119247934705e-05,0.0002949323868860333,-0.00040977785430524564,-0.00020191783641958466,-0.0003716861726679931,-0.0013060404990732739,0.0,0.0,0.0,0.0,0.0,0.0,0.0,-8.517133535468346e-05,0.00010850626760641746,-1.6936079969257292e-05,5.989922689320082e-05,1.6477430717309893e-05,-4.242860404213289e-05,-3.998476986066812e-06,0.0001459527193848069,-2.9476119247934705e-05,-0.0002949323868860333,0.00040977785430524564,0.00020191783641958466,0.0003716861726679931,0.0013060404990732739,0.3752071261405945,19.693445205688477,0.3990752398967743,-20.054964065551758,-0.4507346749305725,-2.4887118339538574,0.24844686686992645,0
68,0.33501243591308594,-0.3752071261405945,-19.693445205688477,-0.3990752398967743,20.054964065551758,0.4507346749305725,2.4887118339538574,-0.24844686686992645,0.0,0.0,0.0,0.0,0.0,0.0,0.0,-0.4034421952859894,0.028652002519838418,-0.21787418311379314,0.2532284447315029,-0.1411173293616491,0.10295054261162276,-0.2763482000712799,1.213526565104112,-0.2203517378568649,-0.007494892514849964,-2.6039082814266807,-0.10890040451770638,2.4682245543843595,0.8264789067282251,1.2134413937687574,-0.2202432315892585,-0.0075118285948192216,-2.6038483821997875,-0.10888392708698907,2.4681821257803174,0.826474908251239,-0.0001459527193848069,2.9476119247934705e-05,0.0002949323868860333,-0.00040977785430524564,-0.00020191783641958466,-0.0003716861726679931,-0.0013060404990732739,0.0,0.0,0.0,0.0,0.0,0.0,0.0,-8.517133535468346e-05,0.00010850626760641746,-1.6936079969257292e-05,5.989922689320082e-05,1.6477430717309893e-05,-4.242860404213289e-05,-3.998476986066812e-06,0.0001459527193848069,-2.9476119247934705e-05,-0.0002949323868860333,0.00040977785430524564,0.00020191783641958466,0.0003716861726679931,0.0013060404990732739,0.3752071261405945,19.693445205688477,0.3990752398967743,-20.054964065551758,-0.4507346749305725,-2.4887118339538574,0.24844686686992645,0
69,0.3400137424468994,-0.3752071261405945,-19.693445205688477,-0.3990752398967743,20.054964065551758,0.4507346749305725,2.4887118339538574,-0.24844686686992645,0.0,0.0,0.0,0.0,0.0,0.0,0.0,-0.4034421952859894,0.028652002519838418,-0.21787418311379314,0.2532284447315029,-0.1411173293616491,0.10295054261162276,-0.2763482000712799,1.213526565104112,-0.2203517378568649,-0.007494892514849964,-2.6039082814266807,-0.10890040451770638,2.4682245543843595,0.8264789067282251,1.2134413937687574,-0.2202432315892585,-0.0075118285948192216,-2.6038483821997875,-0.10888392708698907,2.4681821257803174,0.826474908251239,-0.0001459527193848069,2.9476119247934705e-05,0.0002949323868860333,-0.00040977785430524564,-0.00020191783641958466,-0.0003716861726679931,-0.0013060404990732739,0.0,0.0,0.0,0.0,0.0,0.0,0.0,-8.517133535468346e-05,0.00010850626760641746,-1.6936079969257292e-05,5.989922689320082e-05,1.6477430717309893e-05,-4.242860404213289e-05,-3.998476986066812e-06,0.0001459527193848069,-2.9476119247934705e-05,-0.0002949323868860333,0.00040977785430524564,0.00020191783641958466,0.0003716861726679931,0.0013060404990732739,0.3752071261405945,19.693445205688477,0.3990752398967743,-20.054964065551758,-0.4507346749305725,-2.4887118339538574,0.24844686686992645,0
70,0.3450305461883545,-0.3752071261405945,-19.693445205688477,-0.3990752398967743,20.054964065551758,0.4507346749305725,2.4887118339538574,-0.24844686686992645,0.0,0.0,0.0,0.0,0.0,0.0,0.0,-0.4034421952859894,0.028652002519838418,-0.21787418311379314,0.2532284447315029,-0.1411173293616491,0.10295054261162276,-0.2763482000712799,1.213526565104112,-0.2203517378568649,-0.007494892514849964,-2.6039082814266807,-0.10890040451770638,2.4682245543843595,0.8264789067282251,1.2134413937687574,-0.2202432315892585,-0.0075118285948192216,-2.6038483821997875,-0.10888392708698907,2.4681821257803174,0.826474908251239,-0.0001459527193848069,2.9476119247934705e-05,0.0002949323868860333,-0.00040977785430524564,-0.00020191783641958466,-0.0003716861726679931,-0.0013060404990732739,0.0,0.0,0.0,0.0,0.0,0.0,0.0,-8.517133535468346e-05,0.00010850626760641746,-1.6936079969257292e-05,5.989922689320082e-05,1.6477430717309893e-05,-4.242860404213289e-05,-3.998476986066812e-06,0.0001459527193848069,-2.9476119247934705e-05,-0.0002949323868860333,0.00040977785430524564,0.00020191783641958466,0.0003716861726679931,0.0013060404990732739,0.3752071261405945,19.693445205688477,0.3990752398967743,-20.054964065551758,-0.4507346749305725,-2.4887118339538574,0.24844686686992645,0
71,0.35003185272216797,-0.3514034152030945,-19.669641494750977,-0.4228789508342743,20.082735061645508,0.4388328194618225,2.4758944511413574,-0.29605430364608765,0.0,0.0,0.0,0.0,0.0,0.0,0.0,-0.3996409935263208,0.021307858249065552,-0.21441933925973988,0.258976684845294,-0.14069792613852775,0.10473830454519849,-0.2761313164023414,1.2135249172708134,-0.22035340829272015,-0.0074932220789947004,-2.6039102302685118,-0.10890229820016986,2.4682259784840967,0.8264841958513116,1.2134413937687574,-0.2202432315892585,-0.0075118285948192216,-2.6038483821997875,-0.10888392708698907,2.4681821257803174,0.826474908251239,-0.0005186432874307138,-0.0007903361579456383,0.0005156665307888837,-0.001115244851057715,0.00018631620376498864,-0.00020933364869265295,0.0009548706311075845,0.0,0.0,0.0,0.0,0.0,0.0,0.0,-8.352350205598214e-05,0.00011017670346166741,-1.8606515824521122e-05,6.184806872422399e-05,1.8371113180787324e-05,-4.3852703779379e-05,-9.287600072571678e-06,0.0005186432874307138,0.0007903361579456383,-0.0005156665307888837,0.001115244851057715,-0.00018631620376498864,0.00020933364869265295,-0.0009548706311075845,0.3514034152030945,19.669641494750977,0.4228789508342743,-20.082735061645508,-0.4388328194618225,-2.4758944511413574,0.29605430364608765,0
72,0.35503411293029785,-0.3514034152030945,-19.669641494750977,-0.4228789508342743,20.082735061645508,0.4388328194618225,2.4758944511413574,-0.29605430364608765,0.0,0.0,0.0,0.0,0.0,0.0,0.0,-0.3996409935263208,0.021307858249065552,-0.21441933925973988,0.258976684845294,-0.14069792613852775,0.10473830454519849,-0.2761313164023414,1.2135249172708134,-0.22035340829272015,-0.0074932220789947004,-2.6039102302685118,-0.10890229820016986,2.4682259784840967,0.8264841958513116,1.2134413937687574,-0.2202432315892585,-0.0075118285948192216,-2.6038483821997875,-0.10888392708698907,2.4681821257803174,0.826474908251239,-0.0005186432874307138,-0.0007903361579456383,0.0005156665307888837,-0.001115244851057715,0.00018631620376498864,-0.00020933364869265295,0.0009548706311075845,0.0,0.0,0.0,0.0,0.0,0.0,0.0,-8.352350205598214e-05,0.00011017670346166741,-1.8606515824521122e-05,6.184806872422399e-05,1.8371113180787324e-05,-4.3852703779379e-05,-9.287600072571678e-06,0.0005186432874307138,0.0007903361579456383,-0.0005156665307888837,0.001115244851057715,-0.00018631620376498864,0.00020933364869265295,-0.0009548706311075845,0.3514034152030945,19.669641494750977,0.4228789508342743,-20.082735061645508,-0.4388328194618225,-2.4758944511413574,0.29605430364608765,0
73,0.3600318431854248,-0.3514034152030945,-19.717248916625977,-0.3990752398967743,20.031160354614258,0.4388328194618225,2.4758944511413574,-0.30978721380233765,0.0,0.0,0.0,0.0,0.0,0.0,0.0,-0.3971472585140732,0.024111021238233214,-0.21547150107055263,0.25765724049812516,-0.14098289114129253,0.1040767844900778,-0.2765987094391226,1.2135249210865102,-0.22035006742100963,-0.0074948928395802816,-2.6039066109908253,-0.10890269020448749,2.468225869521663,0.8264846627381075,1.2134413937687574,-0.2202432315892585,-0.0075118285948192216,-2.6038483821997875,-0.10888392708698907,2.4681821257803174,0.826474908251239,-0.0007993604302371695,6.211341355425587e-05,-0.00016867565911033241,5.808053433390254e-05,7.638972351174841e-05,7.076244771572922e-05,0.0017994825713934985,0.0,0.0,0.0,0.0,0.0,0.0,0.0,-8.352731775285172e-05,0.00010683583175113975,-1.6935755238940003e-05,5.822879103778433e-05,1.8763117498418747e-05,-4.374374134563652e-05,-9.75448686846292e-06,0.0007993604302371695,-6.211341355425587e-05,0.00016867565911033241,-5.808053433390254e-05,-7.638972351174841e-05,-7.076244771572922e-05,-0.0017994825713934985,0.3514034152030945,19.717248916625977,0.3990752398967743,-20.031160354614258,-0.4388328194618225,-2.4758944511413574,0.30978721380233765,0
74,0.36503005027770996,-0.3514034152030945,-19.717248916625977,-0.3990752398967743,20.031160354614258,0.4388328194618225,2.4758944511413574,-0.30978721380233765,0.0,0.0,0.0,0.0,0.0,0.0,0.0,-0.3971472585140732,0.024111021238233214,-0.21547150107055263,0.25765724049812516,-0.14098289114129253,0.1040767844900778,-0.2765987094391226,1.2135249210865102,-0.22035006742100963,-0.0074948928395802816,-2.6039066109908253,-0.10890269020448749,2.468225869521663,0.8264846627381075,1.2134413937687574,-0.2202432315892585,-0.0075118285948192216,-2.6038483821997875,-0.10888392708698907,2.4681821257803174,0.826474908251239,-0.0007993604302371695,6.211341355425587e-05,-0.00016867565911033241,5.808053433390254e-05,7.638972351174841e-05,7.076244771572922e-05,0.0017994825713934985,0.0,0.0,0.0,0.0,0.0,0.0,0.0,-8.352731775285172e-05,0.00010683583175113975,-1.6935755238940003e-05,5.822879103778433e-05,1.8763117498418747e-05,-4.374374134563652e-05,-9.75448686846292e-06,0.0007993604302371695,-6.211341355425587e-05,0.00016867565911033241,-5.808053433390254e-05,-7.638972351174841e-05,-7.076244771572922e-05,-0.0017994825713934985,0.3514034152030945,19.717248916625977,0.3990752398967743,-20.031160354614258,-0.4388328194618225,-2.4758944511413574,0.30978721380233765,0
75,0.3700249195098877,-0.4505855441093445,-19.717248916625977,-0.3713042438030243,20.031160354614258,0.4452415108680725,2.4694857597351074,-0.28964561223983765,0.0,0.0,0.0,0.0,0.0,0.0,0.0,-0.39819991555741663,0.025683356627426313,-0.2178969246748954,0.2567802339051187,-0.14119447753355754,0.10407875300453687,-0.27603953682770777,1.2135318813449452,-0.22035006742100963,-0.007496841356682937,-2.6039066109908253,-0.10889995263194317,2.4682266906141392,0.8264834829609794,1.2134413937687574,-0.2202432315892585,-0.0075118285948192216,-2.6038483821997875,-0.10888392708698907,2.4681821257803174,0.826474908251239,0.000765769702761809,-4.304495437866413e-05,-0.0010633572278176127,0.0001517629011114916,-8.98195407180549e-05,0.0003253762599923189,0.0005595016180190082,0.0,0.0,0.0,0.0,0.0,0.0,0.0,-9.048757618779213e-05,0.00010683583175113975,-1.498723813628429e-05,5.822879103778433e-05,1.602554495409858e-05,-4.45648338218696e-05,-8.574709740361008e-06,-0.000765769702761809,4.304495437866413e-05,0.0010633572278176127,-0.0001517629011114916,8.98195407180549e-05,-0.0003253762599923189,-0.0005595016180190082,0.4505855441093445,19.717248916625977,0.3713042438030243,-20.031160354614258,-0.4452415108680725,-2.4694857597351074,0.28964561223983765,0
76,0.3750143051147461,-0.4505855441093445,-19.717248916625977,-0.3713042438030243,20.031160354614258,0.4452415108680725,2.4694857597351074,-0.28964561223983765,0.0,0.0,0.0,0.0,0.0,0.0,0.0,-0.39819991555741663,0.025683356627426313,-0.2178969246748954,0.2567802339051187,-0.14119447753355754,0.10407875300453687,-0.27603953682770777,1.2135318813449452,-0.22035006742100963,-0.007496841356682937,-2.6039066109908253,-0.10889995263194317,2.4682266906141392,0.8264834829609794,1.2134413937687574,-0.2202432315892585,-0.0075118285948192216,-2.6038483821997875,-0.10888392708698907,2.4681821257803174,0.826474908251239,0.000765769702761809,-4.304495437866413e-05,-0.0010633572278176127,0.0001517629011114916,-8.98195407180549e-05,0.0003253762599923189,0.0005595016180190082,0.0,0.0,0.0,0.0,0.0,0.0,0.0,-9.048757618779213e-05,0.00010683583175113975,-1.498723813628429e-05,5.822879103778433e-05,1.602554495409858e-05,-4.45648338218696e-05,-8.574709740361008e-06,-0.000765769702761809,4.304495437866413e-05,0.0010633572278176127,-0.0001517629011114916,8.98195407180549e-05,-0.0003253762599923189,-0.0005595016180190082,0.4505855441093445,19.717248916625977,0.3713042438030243,-20.031160354614258,-0.4452415108680725,-2.4694857597351074,0.28964561223983765,0
77,0.38001012802124023,-0.4267818331718445,-19.693445205688477,-0.4704863727092743,20.031160354614258,0.4388328194618225,2.4823031425476074,-0.26217979192733765,0.0,0.0,0.0,0.0,0.0,0.0,0.0,-0.3958287928214307,0.02340322399921098,-0.21345112545905184,0.2579876060479855,-0.1417467024134236,0.10467569086093324,-0.27522179599456775,1.2135301284927915,-0.2203517378568649,-0.0074898812072841745,-2.6039066109908253,-0.1088995557605612,2.4682251618054907,0.8264800794499809,1.2134413937687574,-0.2202432315892585,-0.0075118285948192216,-2.6038483821997875,-0.10888392708698907,2.4681821257803174,0.826474908251239,0.00024145762787393656,-0.0009365123426396068,0.001356691869558772,0.0001501773712415025,0.0002693796515842954,-0.0001652503938304905,-0.0006210873181988089,0.0,0.0,0.0,0.0,0.0,0.0,0.0,-8.873472403414517e-05,0.00010850626760641746,-2.1947387535047047e-05,5.822879103778433e-05,1.5628673572132268e-05,-4.303602517330418e-05,-5.171198741882321e-06,-0.00024145762787393656,0.0009365123426396068,-0.001356691869558772,-0.0001501773712415025,-0.0002693796515842954,0.0001652503938304905,0.0006210873181988089,0.4267818331718445,19.693445205688477,0.4704863727092743,-20.031160354614258,-0.4388328194618225,-2.4823031425476074,0.26217979192733765,0
78,0.38503074645996094,-0.4267818331718445,-19.693445205688477,-0.4704863727092743,20.031160354614258,0.4388328194618225,2.4823031425476074,-0.26217979192733765,0.0,0.0,0.0,0.0,0.0,0.0,0.0,-0.3958287928214307,0.02340322399921098,-0.21345112545905184,0.2579876060479855,-0.1417467024134236,0.10467569086093324,-0.27522179599456775,1.2135301284927915,-0.2203517378568649,-0.0074898812072841745,-2.6039066109908253,-0.1088995557605612,2.4682251618054907,0.8264800794499809,1.2134413937687574,-0.2202432315892585,-0.0075118285948192216,-2.6038483821997875,-0.10888392708698907,2.4681821257803174,0.826474908251239,0.00024145762787393656,-0.0009365123426396068,0.001356691869558772,0.0001501773712415025,0.0002693796515842954,-0.0001652503938304905,-0.0006210873181988089,0.0,0.0,0.0,0.0,0.0,0.0,0.0,-8.873472403414517e-05,0.00010850626760641746,-2.1947387535047047e-05,5.822879103778433e-05,1.5628673572132268e-05,-4.303602517330418e-05,-5.171198741882321e-06,-0.00024145762787393656,0.0009365123426396068,-0.001356691869558772,-0.0001501773712415025,-0.0002693796515842954,0.0001652503938304905,0.0006210873181988089,0.4267818331718445,19.693445205688477,0.4704863727092743,-20.031160354614258,-0.4388328194618225,-2.4823031425476074,0.26217979192733765,0
79,0.3900294303894043,-0.4505855441093445,-19.717248916625977,-0.4466826617717743,20.031160354614258,0.4507346749305725,2.4694857597351074,-0.28964561223983765,0.0,0.0,0.0,0.0,0.0,0.0,0.0,-0.39674610353121365,0.024697441048002755,-0.21580443935412277,0.2572873397543586,-0.14223402630171336,0.10452609741235244,-0.2750009595201608,1.2135318813447906,-0.22035006742100963,-0.0074915516431394375,-2.6039066109908253,-0.10890041800065464,2.4682267036965593,0.8264834843660115,1.2134413937687574,-0.2202432315892585,-0.0075118285948192216,-2.6038483821997875,-0.10888392708698907,2.4681821257803174,0.826474908251239,0.0010966255825515868,0.000197044111197338,0.0004067127806533054,0.0002833337370416371,-0.0003141183272014718,0.0003414495313364307,0.001151634697458401,0.0,0.0,0.0,0.0,0.0,0.0,0.0,-9.048757603324908e-05,0.00010683583175113975,-2.0276951679784085e-05,5.822879103778433e-05,1.6490913665567764e-05,-4.457791624190577e-05,-8.576114772451682e-06,-0.0010966255825515868,-0.000197044111197338,-0.0004067127806533054,-0.0002833337370416371,0.0003141183272014718,-0.0003414495313364307,-0.001151634697458401,0.4505855441093445,19.717248916625977,0.4466826617717743,-20.031160354614258,-0.4507346749305725,-2.4694857597351074,0.28964561223983765,0
