rezayati/contactInterpretation/dataset/franka_main/labeled_data/link5/c12_7.csv
index,time,tau_J0,tau_J1,tau_J2,tau_J3,tau_J4,tau_J5,tau_J6,tau_J_d0,tau_J_d1,tau_J_d2,tau_J_d3,tau_J_d4,tau_J_d5,tau_J_d6,tau_ext0,tau_ext1,tau_ext2,tau_ext3,tau_ext4,tau_ext5,tau_ext6,q0,q1,q2,q3,q4,q5,q6,q_d0,q_d1,q_d2,q_d3,q_d4,q_d5,q_d6,dq0,dq1,dq2,dq3,dq4,dq5,dq6,dq_d0,dq_d1,dq_d2,dq_d3,dq_d4,dq_d5,dq_d6,e0,e1,e2,e3,e4,e5,e6,de0,de1,de2,de3,de4,de5,de6,etau_J0,etau_J1,etau_J2,etau_J3,etau_J4,etau_J5,etau_J6,label
1,0.0,-0.2998287081718445,-11.774744033813477,1.0688202381134033,21.717256546020508,0.4983420968055725,2.5271639823913574,-0.18710653483867645,0.0,0.0,0.0,0.0,0.0,0.0,0.0,-0.2447031409010978,0.5855425518470136,-0.14639002545024138,0.4570068804888094,-0.040774100243436244,0.12834736220110626,-0.2243326148643791,0.17290140501844659,-0.48768270152075244,-0.11140047007171731,-1.9463912716339555,0.1335830755535467,2.595545591407352,0.9452453727639384,0.1728802376190821,-0.48752024683155326,-0.11147110072896137,-1.9463801863486305,0.1336059019074957,2.595550359778934,0.9452445589611904,0.0004833395545501462,0.0010829882300831067,-0.0011644616583109668,0.0008537347670812665,-0.00026719514512702625,-2.3469433871578535e-05,-0.0013502587770481975,0.0,0.0,0.0,0.0,0.0,0.0,0.0,-2.1167399364474537e-05,0.00016245468919917627,-7.063065724405293e-05,1.1085285325007632e-05,2.28263539489848e-05,4.76837158203125e-06,-8.138027479676069e-07,-0.0004833395545501462,-0.0010829882300831067,0.0011644616583109668,-0.0008537347670812665,0.00026719514512702625,2.3469433871578535e-05,0.0013502587770481975,0.2998287081718445,11.774744033813477,-1.0688202381134033,-21.717256546020508,-0.4983420968055725,-2.5271639823913574,0.18710653483867645,0
2,0.004983425140380859,-0.2720577120780945,-11.727136611938477,0.9696381092071533,21.717256546020508,0.4864402413368225,2.5335726737976074,-0.18710653483867645,0.0,0.0,0.0,0.0,0.0,0.0,0.0,-0.2517900011630669,0.5750251714642698,-0.15108554017471099,0.4599111207785612,-0.040708442604349256,0.12868146095890717,-0.22399351289476718,0.17290119171971882,-0.48768604239246294,-0.11139272255232151,-1.946393497527977,0.13358443735020983,2.595544879330529,0.9452453727639384,0.1728802376190821,-0.48752024683155326,-0.11147110072896137,-1.9463801863486305,0.1336059019074957,2.595550359778934,0.9452445589611904,-0.00028423425183474936,-0.0004241670734589161,0.0015004238587894726,0.0012439719901698623,1.6447815388777023e-05,-0.00013096365811477798,-0.001371241430699321,0.0,0.0,0.0,0.0,0.0,0.0,0.0,-2.0954100636710882e-05,0.00016579556090967618,-7.837817663985946e-05,1.3311179346553459e-05,2.1464557285855168e-05,5.480448404870941e-06,-8.138027479676069e-07,0.00028423425183474936,0.0004241670734589161,-0.0015004238587894726,-0.0012439719901698623,-1.6447815388777023e-05,0.00013096365811477798,0.001371241430699321,0.2720577120780945,11.727136611938477,-0.9696381092071533,-21.717256546020508,-0.4864402413368225,-2.5335726737976074,0.18710653483867645,0
3,0.009975194931030273,-0.2720577120780945,-11.727136611938477,0.9696381092071533,21.717256546020508,0.4864402413368225,2.5335726737976074,-0.18710653483867645,0.0,0.0,0.0,0.0,0.0,0.0,0.0,-0.2517900011630669,0.5750251714642698,-0.15108554017471099,0.4599111207785612,-0.040708442604349256,0.12868146095890717,-0.22399351289476718,0.17290119171971882,-0.48768604239246294,-0.11139272255232151,-1.946393497527977,0.13358443735020983,2.595544879330529,0.9452453727639384,0.1728802376190821,-0.48752024683155326,-0.11147110072896137,-1.9463801863486305,0.1336059019074957,2.595550359778934,0.9452445589611904,-0.00028423425183474936,-0.0004241670734589161,0.0015004238587894726,0.0012439719901698623,1.6447815388777023e-05,-0.00013096365811477798,-0.001371241430699321,0.0,0.0,0.0,0.0,0.0,0.0,0.0,-2.0954100636710882e-05,0.00016579556090967618,-7.837817663985946e-05,1.3311179346553459e-05,2.1464557285855168e-05,5.480448404870941e-06,-8.138027479676069e-07,0.00028423425183474936,0.0004241670734589161,-0.0015004238587894726,-0.0012439719901698623,-1.6447815388777023e-05,0.00013096365811477798,0.001371241430699321,0.2720577120780945,11.727136611938477,-0.9696381092071533,-21.717256546020508,-0.4864402413368225,-2.5335726737976074,0.18710653483867645,0
4,0.014975547790527344,-0.2720577120780945,-11.727136611938477,0.9696381092071533,21.717256546020508,0.4864402413368225,2.5335726737976074,-0.18710653483867645,0.0,0.0,0.0,0.0,0.0,0.0,0.0,-0.2517900011630669,0.5750251714642698,-0.15108554017471099,0.4599111207785612,-0.040708442604349256,0.12868146095890717,-0.22399351289476718,0.17290119171971882,-0.48768604239246294,-0.11139272255232151,-1.946393497527977,0.13358443735020983,2.595544879330529,0.9452453727639384,0.1728802376190821,-0.48752024683155326,-0.11147110072896137,-1.9463801863486305,0.1336059019074957,2.595550359778934,0.9452445589611904,-0.00028423425183474936,-0.0004241670734589161,0.0015004238587894726,0.0012439719901698623,1.6447815388777023e-05,-0.00013096365811477798,-0.001371241430699321,0.0,0.0,0.0,0.0,0.0,0.0,0.0,-2.0954100636710882e-05,0.00016579556090967618,-7.837817663985946e-05,1.3311179346553459e-05,2.1464557285855168e-05,5.480448404870941e-06,-8.138027479676069e-07,0.00028423425183474936,0.0004241670734589161,-0.0015004238587894726,-0.0012439719901698623,-1.6447815388777023e-05,0.00013096365811477798,0.001371241430699321,0.2720577120780945,11.727136611938477,-0.9696381092071533,-21.717256546020508,-0.4864402413368225,-2.5335726737976074,0.18710653483867645,0
5,0.019976139068603516,-0.2720577120780945,-11.727136611938477,0.9696381092071533,21.717256546020508,0.4864402413368225,2.5335726737976074,-0.18710653483867645,0.0,0.0,0.0,0.0,0.0,0.0,0.0,-0.2517900011630669,0.5750251714642698,-0.15108554017471099,0.4599111207785612,-0.040708442604349256,0.12868146095890717,-0.22399351289476718,0.17290119171971882,-0.48768604239246294,-0.11139272255232151,-1.946393497527977,0.13358443735020983,2.595544879330529,0.9452453727639384,0.1728802376190821,-0.48752024683155326,-0.11147110072896137,-1.9463801863486305,0.1336059019074957,2.595550359778934,0.9452445589611904,-0.00028423425183474936,-0.0004241670734589161,0.0015004238587894726,0.0012439719901698623,1.6447815388777023e-05,-0.00013096365811477798,-0.001371241430699321,0.0,0.0,0.0,0.0,0.0,0.0,0.0,-2.0954100636710882e-05,0.00016579556090967618,-7.837817663985946e-05,1.3311179346553459e-05,2.1464557285855168e-05,5.480448404870941e-06,-8.138027479676069e-07,0.00028423425183474936,0.0004241670734589161,-0.0015004238587894726,-0.0012439719901698623,-1.6447815388777023e-05,0.00013096365811477798,0.001371241430699321,0.2720577120780945,11.727136611938477,-0.9696381092071533,-21.717256546020508,-0.4864402413368225,-2.5335726737976074,0.18710653483867645,0
6,0.024973392486572266,-0.24825400114059448,-11.774744033813477,1.0688202381134033,21.768831253051758,0.5047507882118225,2.5207552909851074,-0.17337362468242645,0.0,0.0,0.0,0.0,0.0,0.0,0.0,-0.2507704243628069,0.5675397203168364,-0.14344792299420203,0.46685297097204453,-0.04156317358898509,0.12938614398183482,-0.22394218511522884,0.17289705763501004,-0.48768270152075244,-0.11140047006727259,-1.9463948906333495,0.1335822847397239,2.595546303484175,0.9452438468850322,0.1728802376190821,-0.48752024683155326,-0.11147110072896137,-1.9463801863486305,0.1336059019074957,2.595550359778934,0.9452445589611904,-0.0002513520849473345,0.00056633866970084,-0.0003909342432017236,0.00012904938524400432,-0.00012352915251363997,0.0006844772290680181,-0.001321176386331393,0.0,0.0,0.0,0.0,0.0,0.0,0.0,-1.682001592792637e-05,0.00016245468919917627,-7.06306616887753e-05,1.4704284718947136e-05,2.3617167771800007e-05,4.056294759191559e-06,7.120761582601887e-07,0.0002513520849473345,-0.00056633866970084,0.0003909342432017236,-0.00012904938524400432,0.00012352915251363997,-0.0006844772290680181,0.001321176386331393,0.24825400114059448,11.774744033813477,-1.0688202381134033,-21.768831253051758,-0.5047507882118225,-2.5207552909851074,0.17337362468242645,0
7,0.02997446060180664,-0.24825400114059448,-11.774744033813477,1.0688202381134033,21.768831253051758,0.5047507882118225,2.5207552909851074,-0.17337362468242645,0.0,0.0,0.0,0.0,0.0,0.0,0.0,-0.2507704243628069,0.5675397203168364,-0.14344792299420203,0.46685297097204453,-0.04156317358898509,0.12938614398183482,-0.22394218511522884,0.17289705763501004,-0.48768270152075244,-0.11140047006727259,-1.9463948906333495,0.1335822847397239,2.595546303484175,0.9452438468850322,0.1728802376190821,-0.48752024683155326,-0.11147110072896137,-1.9463801863486305,0.1336059019074957,2.595550359778934,0.9452445589611904,-0.0002513520849473345,0.00056633866970084,-0.0003909342432017236,0.00012904938524400432,-0.00012352915251363997,0.0006844772290680181,-0.001321176386331393,0.0,0.0,0.0,0.0,0.0,0.0,0.0,-1.682001592792637e-05,0.00016245468919917627,-7.06306616887753e-05,1.4704284718947136e-05,2.3617167771800007e-05,4.056294759191559e-06,7.120761582601887e-07,0.0002513520849473345,-0.00056633866970084,0.0003909342432017236,-0.00012904938524400432,0.00012352915251363997,-0.0006844772290680181,0.001321176386331393,0.24825400114059448,11.774744033813477,-1.0688202381134033,-21.768831253051758,-0.5047507882118225,-2.5207552909851074,0.17337362468242645,0
8,0.0349729061126709,-0.24825400114059448,-11.774744033813477,1.0688202381134033,21.768831253051758,0.5047507882118225,2.5207552909851074,-0.17337362468242645,0.0,0.0,0.0,0.0,0.0,0.0,0.0,-0.2507704243628069,0.5675397203168364,-0.14344792299420203,0.46685297097204453,-0.04156317358898509,0.12938614398183482,-0.22394218511522884,0.17289705763501004,-0.48768270152075244,-0.11140047006727259,-1.9463948906333495,0.1335822847397239,2.595546303484175,0.9452438468850322,0.1728802376190821,-0.48752024683155326,-0.11147110072896137,-1.9463801863486305,0.1336059019074957,2.595550359778934,0.9452445589611904,-0.0002513520849473345,0.00056633866970084,-0.0003909342432017236,0.00012904938524400432,-0.00012352915251363997,0.0006844772290680181,-0.001321176386331393,0.0,0.0,0.0,0.0,0.0,0.0,0.0,-1.682001592792637e-05,0.00016245468919917627,-7.06306616887753e-05,1.4704284718947136e-05,2.3617167771800007e-05,4.056294759191559e-06,7.120761582601887e-07,0.0002513520849473345,-0.00056633866970084,0.0003909342432017236,-0.00012904938524400432,0.00012352915251363997,-0.0006844772290680181,0.001321176386331393,0.24825400114059448,11.774744033813477,-1.0688202381134033,-21.768831253051758,-0.5047507882118225,-2.5207552909851074,0.17337362468242645,0
9,0.03996992111206055,-0.22445029020309448,-11.727136611938477,1.0926239490509033,21.741060256958008,0.4928489327430725,2.5335726737976074,-0.23471395671367645,0.0,0.0,0.0,0.0,0.0,0.0,0.0,-0.25033577240550464,0.5840099025134583,-0.14278344642299204,0.4592340403256511,-0.0407042761981268,0.12863672004736307,-0.22331618535219205,0.1728953871852474,-0.48768604239246294,-0.11140214050757255,-1.94639295351637,0.13358372511093214,2.595544879330529,0.94525066247748,0.1728802376190821,-0.48752024683155326,-0.11147110072896137,-1.9463801863486305,0.1336059019074957,2.595550359778934,0.9452445589611904,-0.00021664797372364272,5.472471495691855e-06,-0.0006398931851493983,0.000495780538310508,0.00012133219877845086,-0.00044901345915794247,0.0010727813566696585,0.0,0.0,0.0,0.0,0.0,0.0,0.0,-1.5149566165301165e-05,0.00016579556090967618,-6.896022138881686e-05,1.2767167739458074e-05,2.2176796563549983e-05,5.480448404870941e-06,-6.103516289601707e-06,0.00021664797372364272,-5.472471495691855e-06,0.0006398931851493983,-0.000495780538310508,-0.00012133219877845086,0.00044901345915794247,-0.0010727813566696585,0.22445029020309448,11.727136611938477,-1.0926239490509033,-21.741060256958008,-0.4928489327430725,-2.5335726737976074,0.23471395671367645,0
10,0.04498863220214844,-0.22445029020309448,-11.727136611938477,1.0926239490509033,21.741060256958008,0.4928489327430725,2.5335726737976074,-0.23471395671367645,0.0,0.0,0.0,0.0,0.0,0.0,0.0,-0.25033577240550464,0.5840099025134583,-0.14278344642299204,0.4592340403256511,-0.0407042761981268,0.12863672004736307,-0.22331618535219205,0.1728953871852474,-0.48768604239246294,-0.11140214050757255,-1.94639295351637,0.13358372511093214,2.595544879330529,0.94525066247748,0.1728802376190821,-0.48752024683155326,-0.11147110072896137,-1.9463801863486305,0.1336059019074957,2.595550359778934,0.9452445589611904,-0.00021664797372364272,5.472471495691855e-06,-0.0006398931851493983,0.000495780538310508,0.00012133219877845086,-0.00044901345915794247,0.0010727813566696585,0.0,0.0,0.0,0.0,0.0,0.0,0.0,-1.5149566165301165e-05,0.00016579556090967618,-6.896022138881686e-05,1.2767167739458074e-05,2.2176796563549983e-05,5.480448404870941e-06,-6.103516289601707e-06,0.00021664797372364272,-5.472471495691855e-06,0.0006398931851493983,-0.000495780538310508,-0.00012133219877845086,0.00044901345915794247,-0.0010727813566696585,0.22445029020309448,11.727136611938477,-1.0926239490509033,-21.741060256958008,-0.4928489327430725,-2.5335726737976074,0.23471395671367645,0
11,0.04997658729553223,-0.22445029020309448,-11.774744033813477,1.0926239490509033,21.741060256958008,0.4983420968055725,2.5399813652038574,-0.19351522624492645,0.0,0.0,0.0,0.0,0.0,0.0,0.0,-0.24889488675672872,0.5800188120499492,-0.14215749927386148,0.46196716416613165,-0.04070785042876394,0.12884167490879275,-0.22375927898532177,0.17289753295245924,-0.48768270152075244,-0.11140214050757258,-1.946392941742679,0.13357992591153997,2.5955441672537063,0.9452460848407613,0.1728802376190821,-0.48752024683155326,-0.11147110072896137,-1.9463801863486305,0.1336059019074957,2.595550359778934,0.9452445589611904,-1.5781631833429567e-05,0.0010645775052486412,-0.0003074307173474522,-8.112486308189827e-05,-0.0001976267071472637,-0.0002113410863725421,-0.0011766708507448907,0.0,0.0,0.0,0.0,0.0,0.0,0.0,-1.729533337713196e-05,0.00016245468919917627,-6.89602213887891e-05,1.2755394048546975e-05,2.59759959557182e-05,6.192525227710632e-06,-1.5258795709183204e-06,1.5781631833429567e-05,-0.0010645775052486412,0.0003074307173474522,8.112486308189827e-05,0.0001976267071472637,0.0002113410863725421,0.0011766708507448907,0.22445029020309448,11.774744033813477,-1.0926239490509033,-21.741060256958008,-0.4983420968055725,-2.5399813652038574,0.19351522624492645,0
12,0.0550074577331543,-0.22445029020309448,-11.774744033813477,1.0926239490509033,21.741060256958008,0.4983420968055725,2.5399813652038574,-0.19351522624492645,0.0,0.0,0.0,0.0,0.0,0.0,0.0,-0.24889488675672872,0.5800188120499492,-0.14215749927386148,0.46196716416613165,-0.04070785042876394,0.12884167490879275,-0.22375927898532177,0.17289753295245924,-0.48768270152075244,-0.11140214050757258,-1.946392941742679,0.13357992591153997,2.5955441672537063,0.9452460848407613,0.1728802376190821,-0.48752024683155326,-0.11147110072896137,-1.9463801863486305,0.1336059019074957,2.595550359778934,0.9452445589611904,-1.5781631833429567e-05,0.0010645775052486412,-0.0003074307173474522,-8.112486308189827e-05,-0.0001976267071472637,-0.0002113410863725421,-0.0011766708507448907,0.0,0.0,0.0,0.0,0.0,0.0,0.0,-1.729533337713196e-05,0.00016245468919917627,-6.89602213887891e-05,1.2755394048546975e-05,2.59759959557182e-05,6.192525227710632e-06,-1.5258795709183204e-06,1.5781631833429567e-05,-0.0010645775052486412,0.0003074307173474522,8.112486308189827e-05,0.0001976267071472637,0.0002113410863725421,0.0011766708507448907,0.22445029020309448,11.774744033813477,-1.0926239490509033,-21.741060256958008,-0.4983420968055725,-2.5399813652038574,0.19351522624492645,0
13,0.06000566482543945,-0.24825400114059448,-11.699365615844727,1.0688202381134033,21.741060256958008,0.4809470772743225,2.5207552909851074,-0.19351522624492645,0.0,0.0,0.0,0.0,0.0,0.0,0.0,-0.25398125948355005,0.581629616334114,-0.15016394543908534,0.46344651263766673,-0.04039953936852049,0.13016770522326818,-0.22468228730729992,0.17289713808722162,-0.4876879912342941,-0.11140047003571503,-1.9463929506092692,0.1335850476839925,2.595546303484175,0.9452460863306503,0.1728802376190821,-0.48752024683155326,-0.11147110072896137,-1.9463801863486305,0.1336059019074957,2.595550359778934,0.9452445589611904,-0.0004346728631303685,-0.0005477434379524796,-0.000448318237827326,0.00038887322785684247,0.0003768017120983439,0.00024250480568782963,-0.0007773483428045313,0.0,0.0,0.0,0.0,0.0,0.0,0.0,-1.6900468139513514e-05,0.00016774440274086588,-7.063069324633742e-05,1.276426063867575e-05,2.0854223503175007e-05,4.056294759191559e-06,-1.5273694599082788e-06,0.0004346728631303685,0.0005477434379524796,0.000448318237827326,-0.00038887322785684247,-0.0003768017120983439,-0.00024250480568782963,0.0007773483428045313,0.24825400114059448,11.699365615844727,-1.0688202381134033,-21.741060256958008,-0.4809470772743225,-2.5207552909851074,0.19351522624492645,0
14,0.06497454643249512,-0.24825400114059448,-11.699365615844727,1.0688202381134033,21.741060256958008,0.4809470772743225,2.5207552909851074,-0.19351522624492645,0.0,0.0,0.0,0.0,0.0,0.0,0.0,-0.25398125948355005,0.581629616334114,-0.15016394543908534,0.46344651263766673,-0.04039953936852049,0.13016770522326818,-0.22468228730729992,0.17289713808722162,-0.4876879912342941,-0.11140047003571503,-1.9463929506092692,0.1335850476839925,2.595546303484175,0.9452460863306503,0.1728802376190821,-0.48752024683155326,-0.11147110072896137,-1.9463801863486305,0.1336059019074957,2.595550359778934,0.9452445589611904,-0.0004346728631303685,-0.0005477434379524796,-0.000448318237827326,0.00038887322785684247,0.0003768017120983439,0.00024250480568782963,-0.0007773483428045313,0.0,0.0,0.0,0.0,0.0,0.0,0.0,-1.6900468139513514e-05,0.00016774440274086588,-7.063069324633742e-05,1.276426063867575e-05,2.0854223503175007e-05,4.056294759191559e-06,-1.5273694599082788e-06,0.0004346728631303685,0.0005477434379524796,0.000448318237827326,-0.00038887322785684247,-0.0003768017120983439,-0.00024250480568782963,0.0007773483428045313,0.24825400114059448,11.699365615844727,-1.0688202381134033,-21.741060256958008,-0.4809470772743225,-2.5207552909851074,0.19351522624492645,0
15,0.06997084617614746,-0.2720577120780945,-11.699365615844727,1.0410492420196533,21.717256546020508,0.4983420968055725,2.5335726737976074,-0.17978231608867645,0.0,0.0,0.0,0.0,0.0,0.0,0.0,-0.25204535670500117,0.5689167613212558,-0.14234093908740775,0.4706102152694506,-0.04110371001422881,0.13129441679726964,-0.22438244059455184,0.17289872816642834,-0.4876879912342941,-0.11139852119388367,-1.946393420998605,0.13358311492204655,2.595544879330529,0.9452445589618634,0.1728802376190821,-0.48752024683155326,-0.11147110072896137,-1.9463801863486305,0.1336059019074957,2.595550359778934,0.9452445589611904,0.0005224415903863134,-0.0013182133914022088,-0.00034365435006993017,0.0008726027787881485,-0.0002478962712560501,-0.00016750281399789248,0.0027663301003297727,0.0,0.0,0.0,0.0,0.0,0.0,0.0,-1.8490547346233788e-05,0.00016774440274086588,-7.257953507769366e-05,1.323464997438073e-05,2.278698544913582e-05,5.480448404870941e-06,-6.730171975277699e-13,-0.0005224415903863134,0.0013182133914022088,0.00034365435006993017,-0.0008726027787881485,0.0002478962712560501,0.00016750281399789248,-0.0027663301003297727,0.2720577120780945,11.699365615844727,-1.0410492420196533,-21.717256546020508,-0.4983420968055725,-2.5335726737976074,0.17978231608867645,0
16,0.07497024536132812,-0.2720577120780945,-11.699365615844727,1.0410492420196533,21.717256546020508,0.4983420968055725,2.5335726737976074,-0.17978231608867645,0.0,0.0,0.0,0.0,0.0,0.0,0.0,-0.25204535670500117,0.5689167613212558,-0.14234093908740775,0.4706102152694506,-0.04110371001422881,0.13129441679726964,-0.22438244059455184,0.17289872816642834,-0.4876879912342941,-0.11139852119388367,-1.946393420998605,0.13358311492204655,2.595544879330529,0.9452445589618634,0.1728802376190821,-0.48752024683155326,-0.11147110072896137,-1.9463801863486305,0.1336059019074957,2.595550359778934,0.9452445589611904,0.0005224415903863134,-0.0013182133914022088,-0.00034365435006993017,0.0008726027787881485,-0.0002478962712560501,-0.00016750281399789248,0.0027663301003297727,0.0,0.0,0.0,0.0,0.0,0.0,0.0,-1.8490547346233788e-05,0.00016774440274086588,-7.257953507769366e-05,1.323464997438073e-05,2.278698544913582e-05,5.480448404870941e-06,-6.730171975277699e-13,-0.0005224415903863134,0.0013182133914022088,0.00034365435006993017,-0.0008726027787881485,0.0002478962712560501,0.00016750281399789248,-0.0027663301003297727,0.2720577120780945,11.699365615844727,-1.0410492420196533,-21.717256546020508,-0.4983420968055725,-2.5335726737976074,0.17978231608867645,0
17,0.07996964454650879,-0.24825400114059448,-11.727136611938477,1.0688202381134033,21.792634963989258,0.4928489327430725,2.5271639823913574,-0.19351522624492645,0.0,0.0,0.0,0.0,0.0,0.0,0.0,-0.252460907264727,0.572798603277544,-0.14148576287312856,0.4668997785442384,-0.04099953379878577,0.13104052306816266,-0.22446510142127307,0.17290015717164778,-0.48768604239246294,-0.11140046974769653,-1.946396561468499,0.13358053642511364,2.595545591407352,0.9452460848407613,0.1728802376190821,-0.48752024683155326,-0.11147110072896137,-1.9463801863486305,0.1336059019074957,2.595550359778934,0.9452445589611904,-0.00036169160912992004,-0.0007737648282777123,-0.0007217256565794587,-0.0008316456440762756,6.064678975470141e-06,8.301658537266028e-06,-0.0008983990390263505,0.0,0.0,0.0,0.0,0.0,0.0,0.0,-1.991955256566702e-05,0.00016579556090967618,-7.063098126483536e-05,1.637511986851692e-05,2.5365482382050386e-05,4.76837158203125e-06,-1.5258795709183204e-06,0.00036169160912992004,0.0007737648282777123,0.0007217256565794587,0.0008316456440762756,-6.064678975470141e-06,-8.301658537266028e-06,0.0008983990390263505,0.24825400114059448,11.727136611938477,-1.0688202381134033,-21.792634963989258,-0.4928489327430725,-2.5271639823913574,0.19351522624492645,0
18,0.08496928215026855,-0.24825400114059448,-11.727136611938477,1.0688202381134033,21.792634963989258,0.4928489327430725,2.5271639823913574,-0.19351522624492645,0.0,0.0,0.0,0.0,0.0,0.0,0.0,-0.252460907264727,0.572798603277544,-0.14148576287312856,0.4668997785442384,-0.04099953379878577,0.13104052306816266,-0.22446510142127307,0.17290015717164778,-0.48768604239246294,-0.11140046974769653,-1.946396561468499,0.13358053642511364,2.595545591407352,0.9452460848407613,0.1728802376190821,-0.48752024683155326,-0.11147110072896137,-1.9463801863486305,0.1336059019074957,2.595550359778934,0.9452445589611904,-0.00036169160912992004,-0.0007737648282777123,-0.0007217256565794587,-0.0008316456440762756,6.064678975470141e-06,8.301658537266028e-06,-0.0008983990390263505,0.0,0.0,0.0,0.0,0.0,0.0,0.0,-1.991955256566702e-05,0.00016579556090967618,-7.063098126483536e-05,1.637511986851692e-05,2.5365482382050386e-05,4.76837158203125e-06,-1.5258795709183204e-06,0.00036169160912992004,0.0007737648282777123,0.0007217256565794587,0.0008316456440762756,-6.064678975470141e-06,-8.301658537266028e-06,0.0008983990390263505,0.24825400114059448,11.727136611938477,-1.0688202381134033,-21.792634963989258,-0.4928489327430725,-2.5271639823913574,0.19351522624492645,0
19,0.08996963500976562,-0.2720577120780945,-11.727136611938477,1.0688202381134033,21.741060256958008,0.4983420968055725,2.5271639823913574,-0.19351522624492645,0.0,0.0,0.0,0.0,0.0,0.0,0.0,-0.25157753696861773,0.5786906376663269,-0.14124020647459354,0.46105487099801773,-0.0413489219022358,0.1295065868260011,-0.22532579850881168,0.17289872905560133,-0.48768533375946393,-0.11140047007171548,-1.9463929417426151,0.1335831149040455,2.595545591407352,0.9452460847869262,0.1728802376190821,-0.48752024683155326,-0.11147110072896137,-1.9463801863486305,0.1336059019074957,2.595550359778934,0.9452445589611904,0.0008196453752956321,-0.0007884765852721608,-0.0006038535866039674,0.00015302494843581307,-0.0003095480040482499,6.602298525710608e-05,-0.0008424230313172542,0.0,0.0,0.0,0.0,0.0,0.0,0.0,-1.849143651921903e-05,0.0001650869279106737,-7.06306572458848e-05,1.2755393984598129e-05,2.278700345018092e-05,4.76837158203125e-06,-1.525825735759767e-06,-0.0008196453752956321,0.0007884765852721608,0.0006038535866039674,-0.00015302494843581307,0.0003095480040482499,-6.602298525710608e-05,0.0008424230313172542,0.2720577120780945,11.727136611938477,-1.0688202381134033,-21.741060256958008,-0.4983420968055725,-2.5271639823913574,0.19351522624492645,0
20,0.0949709415435791,-0.2720577120780945,-11.727136611938477,1.0688202381134033,21.741060256958008,0.4983420968055725,2.5271639823913574,-0.19351522624492645,0.0,0.0,0.0,0.0,0.0,0.0,0.0,-0.25157753696861773,0.5786906376663269,-0.14124020647459354,0.46105487099801773,-0.0413489219022358,0.1295065868260011,-0.22532579850881168,0.17289872905560133,-0.48768533375946393,-0.11140047007171548,-1.9463929417426151,0.1335831149040455,2.595545591407352,0.9452460847869262,0.1728802376190821,-0.48752024683155326,-0.11147110072896137,-1.9463801863486305,0.1336059019074957,2.595550359778934,0.9452445589611904,0.0008196453752956321,-0.0007884765852721608,-0.0006038535866039674,0.00015302494843581307,-0.0003095480040482499,6.602298525710608e-05,-0.0008424230313172542,0.0,0.0,0.0,0.0,0.0,0.0,0.0,-1.849143651921903e-05,0.0001650869279106737,-7.06306572458848e-05,1.2755393984598129e-05,2.278700345018092e-05,4.76837158203125e-06,-1.525825735759767e-06,-0.0008196453752956321,0.0007884765852721608,0.0006038535866039674,-0.00015302494843581307,0.0003095480040482499,-6.602298525710608e-05,0.0008424230313172542,0.2720577120780945,11.727136611938477,-1.0688202381134033,-21.741060256958008,-0.4983420968055725,-2.5271639823913574,0.19351522624492645,0
21,0.0999915599822998,-0.2720577120780945,-11.750940322875977,1.0172455310821533,21.717256546020508,0.4983420968055725,2.5271639823913574,-0.20083944499492645,0.0,0.0,0.0,0.0,0.0,0.0,0.0,-0.2500364197920836,0.5796210809512932,-0.14432469905754952,0.4590626988078218,-0.041280111725890245,0.1287088885607912,-0.22466221750729673,0.1729015890799127,-0.48768437162858685,-0.1113968507940309,-1.9463919904870803,0.13358311492204655,2.595545591407352,0.9452468986428443,0.1728802376190821,-0.48752024683155326,-0.11147110072896137,-1.9463801863486305,0.1336059019074957,2.595550359778934,0.9452445589611904,0.0007804920288472147,0.00011245157411311082,0.0009692353165031563,0.0007019590458269519,-5.2205509347458036e-05,-0.000137277036032079,-0.000953432847877138,0.0,0.0,0.0,0.0,0.0,0.0,0.0,-2.135146083059869e-05,0.0001641247970335935,-7.424993493046483e-05,1.1804138449811319e-05,2.278698544913582e-05,4.76837158203125e-06,-2.3396816538623355e-06,-0.0007804920288472147,-0.00011245157411311082,-0.0009692353165031563,-0.0007019590458269519,5.2205509347458036e-05,0.000137277036032079,0.000953432847877138,0.2720577120780945,11.750940322875977,-1.0172455310821533,-21.717256546020508,-0.4983420968055725,-2.5271639823913574,0.20083944499492645,0
22,0.10553240776062012,-0.2720577120780945,-11.750940322875977,1.0172455310821533,21.717256546020508,0.4983420968055725,2.5271639823913574,-0.20083944499492645,0.0,0.0,0.0,0.0,0.0,0.0,0.0,-0.2500364197920836,0.5796210809512932,-0.14432469905754952,0.4590626988078218,-0.041280111725890245,0.1287088885607912,-0.22466221750729673,0.1729015890799127,-0.48768437162858685,-0.1113968507940309,-1.9463919904870803,0.13358311492204655,2.595545591407352,0.9452468986428443,0.1728802376190821,-0.48752024683155326,-0.11147110072896137,-1.9463801863486305,0.1336059019074957,2.595550359778934,0.9452445589611904,0.0007804920288472147,0.00011245157411311082,0.0009692353165031563,0.0007019590458269519,-5.2205509347458036e-05,-0.000137277036032079,-0.000953432847877138,0.0,0.0,0.0,0.0,0.0,0.0,0.0,-2.135146083059869e-05,0.0001641247970335935,-7.424993493046483e-05,1.1804138449811319e-05,2.278698544913582e-05,4.76837158203125e-06,-2.3396816538623355e-06,-0.0007804920288472147,-0.00011245157411311082,-0.0009692353165031563,-0.0007019590458269519,5.2205509347458036e-05,0.000137277036032079,0.000953432847877138,0.2720577120780945,11.750940322875977,-1.0172455310821533,-21.717256546020508,-0.4983420968055725,-2.5271639823913574,0.20083944499492645,0
23,0.10997533798217773,-0.24825400114059448,-11.699365615844727,1.0410492420196533,21.717256546020508,0.4928489327430725,2.5271639823913574,-0.18710653483867645,0.0,0.0,0.0,0.0,0.0,0.0,0.0,-0.2504897937983387,0.5814999408520993,-0.14720821048674584,0.4560354408492111,-0.04088821323386219,0.12782331130315064,-0.22449323052840098,0.17289709393967054,-0.4876879912342923,-0.11139852122988617,-1.9463912801411347,0.13358372527360912,2.595545591407352,0.9452453727639384,0.1728802376190821,-0.48752024683155326,-0.11147110072896137,-1.9463801863486305,0.1336059019074957,2.595550359778934,0.9452445589611904,-0.00018632153805908354,-0.00082034859301396,0.00031590121481814114,0.00048165713626203434,-0.00018165690621447072,-0.0001491701463935552,0.008494104081745012,0.0,0.0,0.0,0.0,0.0,0.0,0.0,-1.6856320588426454e-05,0.00016774440273903402,-7.2579499075201e-05,1.1093792504190958e-05,2.2176633886566988e-05,4.76837158203125e-06,-8.138027479676069e-07,0.00018632153805908354,0.00082034859301396,-0.00031590121481814114,-0.00048165713626203434,0.00018165690621447072,0.0001491701463935552,-0.008494104081745012,0.24825400114059448,11.699365615844727,-1.0410492420196533,-21.717256546020508,-0.4928489327430725,-2.5271639823913574,0.18710653483867645,0
24,0.1149754524230957,-0.24825400114059448,-11.699365615844727,1.0410492420196533,21.717256546020508,0.4928489327430725,2.5271639823913574,-0.18710653483867645,0.0,0.0,0.0,0.0,0.0,0.0,0.0,-0.2504897937983387,0.5814999408520993,-0.14720821048674584,0.4560354408492111,-0.04088821323386219,0.12782331130315064,-0.22449323052840098,0.17289709393967054,-0.4876879912342923,-0.11139852122988617,-1.9463912801411347,0.13358372527360912,2.595545591407352,0.9452453727639384,0.1728802376190821,-0.48752024683155326,-0.11147110072896137,-1.9463801863486305,0.1336059019074957,2.595550359778934,0.9452445589611904,-0.00018632153805908354,-0.00082034859301396,0.00031590121481814114,0.00048165713626203434,-0.00018165690621447072,-0.0001491701463935552,0.008494104081745012,0.0,0.0,0.0,0.0,0.0,0.0,0.0,-1.6856320588426454e-05,0.00016774440273903402,-7.2579499075201e-05,1.1093792504190958e-05,2.2176633886566988e-05,4.76837158203125e-06,-8.138027479676069e-07,0.00018632153805908354,0.00082034859301396,-0.00031590121481814114,-0.00048165713626203434,0.00018165690621447072,0.0001491701463935552,-0.008494104081745012,0.24825400114059448,11.699365615844727,-1.0410492420196533,-21.717256546020508,-0.4928489327430725,-2.5271639823913574,0.18710653483867645,0
25,0.11997866630554199,-0.24825400114059448,-11.774744033813477,1.0926239490509033,21.792634963989258,0.4928489327430725,2.5207552909851074,-0.20724813640117645,0.0,0.0,0.0,0.0,0.0,0.0,0.0,-0.2527007557527388,0.5637601915937966,-0.1473845369514361,0.46577975969542057,-0.04129246730958652,0.1294377880793153,-0.22310897872198623,0.17289729909234222,-0.48768270152075244,-0.11140214050757258,-1.946396570214054,0.13358372527360912,2.595546303484175,0.9452476107196676,0.1728802376190821,-0.48752024683155326,-0.11147110072896137,-1.9463801863486305,0.1336059019074957,2.595550359778934,0.9452445589611904,-0.00010823144765506622,0.0006414830333776143,-0.001032865439202662,-0.0007973167497579139,-5.017798239344859e-05,0.0004080350596660693,0.00012076590197368378,0.0,0.0,0.0,0.0,0.0,0.0,0.0,-1.7061473260110427e-05,0.00016245468919917627,-6.89602213887891e-05,1.6383865423463817e-05,2.2176633886566988e-05,4.056294759191559e-06,-3.051758477146116e-06,0.00010823144765506622,-0.0006414830333776143,0.001032865439202662,0.0007973167497579139,5.017798239344859e-05,-0.0004080350596660693,-0.00012076590197368378,0.24825400114059448,11.774744033813477,-1.0926239490509033,-21.792634963989258,-0.4928489327430725,-2.5207552909851074,0.20724813640117645,0
26,0.12498736381530762,-0.24825400114059448,-11.774744033813477,1.0926239490509033,21.792634963989258,0.4928489327430725,2.5207552909851074,-0.20724813640117645,0.0,0.0,0.0,0.0,0.0,0.0,0.0,-0.2527007557527388,0.5637601915937966,-0.1473845369514361,0.46577975969542057,-0.04129246730958652,0.1294377880793153,-0.22310897872198623,0.17289729909234222,-0.48768270152075244,-0.11140214050757258,-1.946396570214054,0.13358372527360912,2.595546303484175,0.9452476107196676,0.1728802376190821,-0.48752024683155326,-0.11147110072896137,-1.9463801863486305,0.1336059019074957,2.595550359778934,0.9452445589611904,-0.00010823144765506622,0.0006414830333776143,-0.001032865439202662,-0.0007973167497579139,-5.017798239344859e-05,0.0004080350596660693,0.00012076590197368378,0.0,0.0,0.0,0.0,0.0,0.0,0.0,-1.7061473260110427e-05,0.00016245468919917627,-6.89602213887891e-05,1.6383865423463817e-05,2.2176633886566988e-05,4.056294759191559e-06,-3.051758477146116e-06,0.00010823144765506622,-0.0006414830333776143,0.001032865439202662,0.0007973167497579139,5.017798239344859e-05,-0.0004080350596660693,-0.00012076590197368378,0.24825400114059448,11.774744033813477,-1.0926239490509033,-21.792634963989258,-0.4928489327430725,-2.5207552909851074,0.20724813640117645,0
27,0.12997126579284668,-0.22445029020309448,-11.727136611938477,1.0688202381134033,21.741060256958008,0.4928489327430725,2.5207552909851074,-0.22830526530742645,0.0,0.0,0.0,0.0,0.0,0.0,0.0,-0.2479109538655819,0.582902518260641,-0.14033282271303507,0.45653116683386874,-0.04150326163606441,0.12794853737076747,-0.22362424121311428,0.1728953902754047,-0.48768604239246294,-0.11140047007171731,-1.9463929417426646,0.13358372527360912,2.595546303484175,0.9452499504006571,0.1728802376190821,-0.48752024683155326,-0.11147110072896137,-1.9463801863486305,0.1336059019074957,2.595550359778934,0.9452445589611904,-0.00014761215107390356,-0.00012041226327056068,-0.0005112210067231444,0.0005983367251891192,-1.6570453405952583e-05,0.0002027314725956072,0.0005287791714270038,0.0,0.0,0.0,0.0,0.0,0.0,0.0,-1.515265632259788e-05,0.00016579556090967618,-7.063065724405293e-05,1.2755394034114076e-05,2.2176633886566988e-05,4.056294759191559e-06,-5.3914394666509935e-06,0.00014761215107390356,0.00012041226327056068,0.0005112210067231444,-0.0005983367251891192,1.6570453405952583e-05,-0.0002027314725956072,-0.0005287791714270038,0.22445029020309448,11.727136611938477,-1.0688202381134033,-21.741060256958008,-0.4928489327430725,-2.5207552909851074,0.22830526530742645,0
28,0.13497161865234375,-0.22445029020309448,-11.727136611938477,1.0688202381134033,21.741060256958008,0.4928489327430725,2.5207552909851074,-0.22830526530742645,0.0,0.0,0.0,0.0,0.0,0.0,0.0,-0.2479109538655819,0.582902518260641,-0.14033282271303507,0.45653116683386874,-0.04150326163606441,0.12794853737076747,-0.22362424121311428,0.1728953902754047,-0.48768604239246294,-0.11140047007171731,-1.9463929417426646,0.13358372527360912,2.595546303484175,0.9452499504006571,0.1728802376190821,-0.48752024683155326,-0.11147110072896137,-1.9463801863486305,0.1336059019074957,2.595550359778934,0.9452445589611904,-0.00014761215107390356,-0.00012041226327056068,-0.0005112210067231444,0.0005983367251891192,-1.6570453405952583e-05,0.0002027314725956072,0.0005287791714270038,0.0,0.0,0.0,0.0,0.0,0.0,0.0,-1.515265632259788e-05,0.00016579556090967618,-7.063065724405293e-05,1.2755394034114076e-05,2.2176633886566988e-05,4.056294759191559e-06,-5.3914394666509935e-06,0.00014761215107390356,0.00012041226327056068,0.0005112210067231444,-0.0005983367251891192,1.6570453405952583e-05,-0.0002027314725956072,-0.0005287791714270038,0.22445029020309448,11.727136611938477,-1.0688202381134033,-21.741060256958008,-0.4928489327430725,-2.5207552909851074,0.22830526530742645,0
29,0.1399977207183838,-0.19667929410934448,-11.699365615844727,1.0410492420196533,21.768831253051758,0.4809470772743225,2.5207552909851074,-0.23471395671367645,0.0,0.0,0.0,0.0,0.0,0.0,0.0,-0.25032346706897957,0.5860090942389464,-0.14230061017110815,0.4576503492769019,-0.041397771369287066,0.1275658947487043,-0.22406633528032838,0.17289439234479884,-0.4876879912342941,-0.11139852122988617,-1.9463956071483763,0.13358469338549508,2.595546303484175,0.94525066247748,0.1728802376190821,-0.48752024683155326,-0.11147110072896137,-1.9463801863486305,0.1336059019074957,2.595550359778934,0.9452445589611904,-0.0012228238516731307,-0.00036522134801449726,0.00037273773276613823,-0.0006138983814111758,0.0003814525812497155,0.00015575944317043643,0.0010438332997172227,0.0,0.0,0.0,0.0,0.0,0.0,0.0,-1.4154725716725158e-05,0.00016774440274086588,-7.2579499075201e-05,1.542079974581334e-05,2.120852200060419e-05,4.056294759191559e-06,-6.103516289601707e-06,0.0012228238516731307,0.00036522134801449726,-0.00037273773276613823,0.0006138983814111758,-0.0003814525812497155,-0.00015575944317043643,-0.0010438332997172227,0.19667929410934448,11.699365615844727,-1.0410492420196533,-21.768831253051758,-0.4809470772743225,-2.5207552909851074,0.23471395671367645,0
30,0.1449720859527588,-0.19667929410934448,-11.699365615844727,1.0410492420196533,21.768831253051758,0.4809470772743225,2.5207552909851074,-0.23471395671367645,0.0,0.0,0.0,0.0,0.0,0.0,0.0,-0.25032346706897957,0.5860090942389464,-0.14230061017110815,0.4576503492769019,-0.041397771369287066,0.1275658947487043,-0.22406633528032838,0.17289439234479884,-0.4876879912342941,-0.11139852122988617,-1.9463956071483763,0.13358469338549508,2.595546303484175,0.94525066247748,0.1728802376190821,-0.48752024683155326,-0.11147110072896137,-1.9463801863486305,0.1336059019074957,2.595550359778934,0.9452445589611904,-0.0012228238516731307,-0.00036522134801449726,0.00037273773276613823,-0.0006138983814111758,0.0003814525812497155,0.00015575944317043643,0.0010438332997172227,0.0,0.0,0.0,0.0,0.0,0.0,0.0,-1.4154725716725158e-05,0.00016774440274086588,-7.2579499075201e-05,1.542079974581334e-05,2.120852200060419e-05,4.056294759191559e-06,-6.103516289601707e-06,0.0012228238516731307,0.00036522134801449726,-0.00037273773276613823,0.0006138983814111758,-0.0003814525812497155,-0.00015575944317043643,-0.0010438332997172227,0.19667929410934448,11.699365615844727,-1.0410492420196533,-21.768831253051758,-0.4809470772743225,-2.5207552909851074,0.23471395671367645,0
31,0.14997506141662598,-0.24825400114059448,-11.727136611938477,1.0688202381134033,21.717256546020508,0.4983420968055725,2.5207552909851074,-0.22098104655742645,0.0,0.0,0.0,0.0,0.0,0.0,0.0,-0.24821981316502353,0.585813241740395,-0.1390294752321284,0.4596953376123992,-0.042151020380976685,0.12748074667817622,-0.22300957474212146,0.17289713709934765,-0.48768604239246294,-0.11140047007171731,-1.9463912713108023,0.13357992461345844,2.595546303484175,0.9452491366537549,0.1728802376190821,-0.48752024683155326,-0.11147110072896137,-1.9463801863486305,0.1336059019074957,2.595550359778934,0.9452445589611904,-0.00010060706667902776,0.00032151739103373307,0.00022142084720732364,0.0006988934419919227,-0.00037407354332552064,0.0002735642442906911,-2.07408269672249e-05,0.0,0.0,0.0,0.0,0.0,0.0,0.0,-1.689948026553645e-05,0.00016579556090967618,-7.063065724405293e-05,1.108496217172572e-05,2.5977294037249354e-05,4.056294759191559e-06,-4.5776925644558375e-06,0.00010060706667902776,-0.00032151739103373307,-0.00022142084720732364,-0.0006988934419919227,0.00037407354332552064,-0.0002735642442906911,2.07408269672249e-05,0.24825400114059448,11.727136611938477,-1.0688202381134033,-21.717256546020508,-0.4983420968055725,-2.5207552909851074,0.22098104655742645,0
32,0.15497159957885742,-0.24825400114059448,-11.727136611938477,1.0688202381134033,21.717256546020508,0.4983420968055725,2.5207552909851074,-0.22098104655742645,0.0,0.0,0.0,0.0,0.0,0.0,0.0,-0.24821981316502353,0.585813241740395,-0.1390294752321284,0.4596953376123992,-0.042151020380976685,0.12748074667817622,-0.22300957474212146,0.17289713709934765,-0.48768604239246294,-0.11140047007171731,-1.9463912713108023,0.13357992461345844,2.595546303484175,0.9452491366537549,0.1728802376190821,-0.48752024683155326,-0.11147110072896137,-1.9463801863486305,0.1336059019074957,2.595550359778934,0.9452445589611904,-0.00010060706667902776,0.00032151739103373307,0.00022142084720732364,0.0006988934419919227,-0.00037407354332552064,0.0002735642442906911,-2.07408269672249e-05,0.0,0.0,0.0,0.0,0.0,0.0,0.0,-1.689948026553645e-05,0.00016579556090967618,-7.063065724405293e-05,1.108496217172572e-05,2.5977294037249354e-05,4.056294759191559e-06,-4.5776925644558375e-06,0.00010060706667902776,-0.00032151739103373307,-0.00022142084720732364,-0.0006988934419919227,0.00037407354332552064,-0.0002735642442906911,2.07408269672249e-05,0.24825400114059448,11.727136611938477,-1.0688202381134033,-21.717256546020508,-0.4983420968055725,-2.5207552909851074,0.22098104655742645,0
33,0.16009521484375,-0.24825400114059448,-11.727136611938477,1.0688202381134033,21.717256546020508,0.4983420968055725,2.5207552909851074,-0.22098104655742645,0.0,0.0,0.0,0.0,0.0,0.0,0.0,-0.24821981316502353,0.585813241740395,-0.1390294752321284,0.4596953376123992,-0.042151020380976685,0.12748074667817622,-0.22300957474212146,0.17289713709934765,-0.48768604239246294,-0.11140047007171731,-1.9463912713108023,0.13357992461345844,2.595546303484175,0.9452491366537549,0.1728802376190821,-0.48752024683155326,-0.11147110072896137,-1.9463801863486305,0.1336059019074957,2.595550359778934,0.9452445589611904,-0.00010060706667902776,0.00032151739103373307,0.00022142084720732364,0.0006988934419919227,-0.00037407354332552064,0.0002735642442906911,-2.07408269672249e-05,0.0,0.0,0.0,0.0,0.0,0.0,0.0,-1.689948026553645e-05,0.00016579556090967618,-7.063065724405293e-05,1.108496217172572e-05,2.5977294037249354e-05,4.056294759191559e-06,-4.5776925644558375e-06,0.00010060706667902776,-0.00032151739103373307,-0.00022142084720732364,-0.0006988934419919227,0.00037407354332552064,-0.0002735642442906911,2.07408269672249e-05,0.24825400114059448,11.727136611938477,-1.0688202381134033,-21.717256546020508,-0.4983420968055725,-2.5207552909851074,0.22098104655742645,0
34,0.16497182846069336,-0.24825400114059448,-11.727136611938477,1.0688202381134033,21.717256546020508,0.4983420968055725,2.5207552909851074,-0.22098104655742645,0.0,0.0,0.0,0.0,0.0,0.0,0.0,-0.24821981316502353,0.585813241740395,-0.1390294752321284,0.4596953376123992,-0.042151020380976685,0.12748074667817622,-0.22300957474212146,0.17289713709934765,-0.48768604239246294,-0.11140047007171731,-1.9463912713108023,0.13357992461345844,2.595546303484175,0.9452491366537549,0.1728802376190821,-0.48752024683155326,-0.11147110072896137,-1.9463801863486305,0.1336059019074957,2.595550359778934,0.9452445589611904,-0.00010060706667902776,0.00032151739103373307,0.00022142084720732364,0.0006988934419919227,-0.00037407354332552064,0.0002735642442906911,-2.07408269672249e-05,0.0,0.0,0.0,0.0,0.0,0.0,0.0,-1.689948026553645e-05,0.00016579556090967618,-7.063065724405293e-05,1.108496217172572e-05,2.5977294037249354e-05,4.056294759191559e-06,-4.5776925644558375e-06,0.00010060706667902776,-0.00032151739103373307,-0.00022142084720732364,-0.0006988934419919227,0.00037407354332552064,-0.0002735642442906911,2.07408269672249e-05,0.24825400114059448,11.727136611938477,-1.0688202381134033,-21.717256546020508,-0.4983420968055725,-2.5207552909851074,0.22098104655742645,0
35,0.16997218132019043,-0.22445029020309448,-11.699365615844727,1.0688202381134033,21.741060256958008,0.4928489327430725,2.5399813652038574,-0.25485557317733765,0.0,0.0,0.0,0.0,0.0,0.0,0.0,-0.24707120253465187,0.5769213240300554,-0.1350524255791965,0.463905975849413,-0.04188009856448557,0.12781214651754447,-0.22318410460511923,0.172897771371487,-0.4876879912342941,-0.11140047007171731,-1.9463929417789514,0.13358372509358946,2.5955441672537063,0.9452529004348652,0.1728802376190821,-0.48752024683155326,-0.11147110072896137,-1.9463801863486305,0.1336059019074957,2.595550359778934,0.9452445589611904,1.2278859021710786e-05,-0.001001064992117599,-0.0002531300758031892,0.00029997030969162823,4.7787796384256204e-05,-0.0004610236006506658,0.0016616199749328073,0.0,0.0,0.0,0.0,0.0,0.0,0.0,-1.7533752404902403e-05,0.00016774440274086588,-7.063065724405293e-05,1.2755430320865457e-05,2.217681390623283e-05,6.192525227710632e-06,-8.34147367478888e-06,-1.2278859021710786e-05,0.001001064992117599,0.0002531300758031892,-0.00029997030969162823,-4.7787796384256204e-05,0.0004610236006506658,-0.0016616199749328073,0.22445029020309448,11.699365615844727,-1.0688202381134033,-21.741060256958008,-0.4928489327430725,-2.5399813652038574,0.25485557317733765,0
36,0.17498326301574707,-0.22445029020309448,-11.699365615844727,1.0688202381134033,21.741060256958008,0.4928489327430725,2.5399813652038574,-0.25485557317733765,0.0,0.0,0.0,0.0,0.0,0.0,0.0,-0.24707120253465187,0.5769213240300554,-0.1350524255791965,0.463905975849413,-0.04188009856448557,0.12781214651754447,-0.22318410460511923,0.172897771371487,-0.4876879912342941,-0.11140047007171731,-1.9463929417789514,0.13358372509358946,2.5955441672537063,0.9452529004348652,0.1728802376190821,-0.48752024683155326,-0.11147110072896137,-1.9463801863486305,0.1336059019074957,2.595550359778934,0.9452445589611904,1.2278859021710786e-05,-0.001001064992117599,-0.0002531300758031892,0.00029997030969162823,4.7787796384256204e-05,-0.0004610236006506658,0.0016616199749328073,0.0,0.0,0.0,0.0,0.0,0.0,0.0,-1.7533752404902403e-05,0.00016774440274086588,-7.063065724405293e-05,1.2755430320865457e-05,2.217681390623283e-05,6.192525227710632e-06,-8.34147367478888e-06,-1.2278859021710786e-05,0.001001064992117599,0.0002531300758031892,-0.00029997030969162823,-4.7787796384256204e-05,0.0004610236006506658,-0.0016616199749328073,0.22445029020309448,11.699365615844727,-1.0688202381134033,-21.741060256958008,-0.4928489327430725,-2.5399813652038574,0.25485557317733765,0
37,0.17998051643371582,-0.22445029020309448,-11.774744033813477,1.0688202381134033,21.768831253051758,0.4983420968055725,2.5271639823913574,-0.22830526530742645,0.0,0.0,0.0,0.0,0.0,0.0,0.0,-0.2466311576380658,0.581537085626737,-0.1386384932080651,0.4589815888567673,-0.041598272560199864,0.12765007313573803,-0.22333349875700428,0.17289542255631588,-0.48768270152075244,-0.11140047007171731,-1.946397383677487,0.13358276060554614,2.595545591407352,0.9452499504006571,0.1728802376190821,-0.48752024683155326,-0.11147110072896137,-1.9463801863486305,0.1336059019074957,2.595550359778934,0.9452445589611904,-0.0004110571967754693,0.0009702317922646841,-0.0006913717225480824,-0.00042064982341175733,-0.0001021495705149116,7.5331193822123394e-06,0.001018260893704457,0.0,0.0,0.0,0.0,0.0,0.0,0.0,-1.518493723376424e-05,0.00016245468919917627,-7.063065724405293e-05,1.719732885652192e-05,2.3141301949552995e-05,4.76837158203125e-06,-5.3914394666509935e-06,0.0004110571967754693,-0.0009702317922646841,0.0006913717225480824,0.00042064982341175733,0.0001021495705149116,-7.5331193822123394e-06,-0.001018260893704457,0.22445029020309448,11.774744033813477,-1.0688202381134033,-21.768831253051758,-0.4983420968055725,-2.5271639823913574,0.22830526530742645,0
38,0.184981107711792,-0.22445029020309448,-11.774744033813477,1.0688202381134033,21.768831253051758,0.4983420968055725,2.5271639823913574,-0.22830526530742645,0.0,0.0,0.0,0.0,0.0,0.0,0.0,-0.2466311576380658,0.581537085626737,-0.1386384932080651,0.4589815888567673,-0.041598272560199864,0.12765007313573803,-0.22333349875700428,0.17289542255631588,-0.48768270152075244,-0.11140047007171731,-1.946397383677487,0.13358276060554614,2.595545591407352,0.9452499504006571,0.1728802376190821,-0.48752024683155326,-0.11147110072896137,-1.9463801863486305,0.1336059019074957,2.595550359778934,0.9452445589611904,-0.0004110571967754693,0.0009702317922646841,-0.0006913717225480824,-0.00042064982341175733,-0.0001021495705149116,7.5331193822123394e-06,0.001018260893704457,0.0,0.0,0.0,0.0,0.0,0.0,0.0,-1.518493723376424e-05,0.00016245468919917627,-7.063065724405293e-05,1.719732885652192e-05,2.3141301949552995e-05,4.76837158203125e-06,-5.3914394666509935e-06,0.0004110571967754693,-0.0009702317922646841,0.0006913717225480824,0.00042064982341175733,0.0001021495705149116,-7.5331193822123394e-06,-0.001018260893704457,0.22445029020309448,11.774744033813477,-1.0688202381134033,-21.768831253051758,-0.4983420968055725,-2.5271639823913574,0.22830526530742645,0
39,0.18997764587402344,-0.2998287081718445,-11.802515029907227,1.0410492420196533,21.741060256958008,0.4864402413368225,2.5207552909851074,-0.25485557317733765,0.0,0.0,0.0,0.0,0.0,0.0,0.0,-0.24325757121479707,0.5723931538294873,-0.13410779266494932,0.4626579191787332,-0.04155308630106448,0.12856089916048077,-0.22325015214879718,0.17290070437108832,-0.4876807526789213,-0.11139852122988617,-1.9463929682476395,0.13358443734843192,2.595546303484175,0.9452529004348649,0.1728802376190821,-0.48752024683155326,-0.11147110072896137,-1.9463801863486305,0.1336059019074957,2.595550359778934,0.9452445589611904,0.0010464426036912986,0.0009504910870606802,0.0007507378555910153,0.0007446643293935316,0.0002258450758977246,0.0003147527962835067,0.001704578596596043,0.0,0.0,0.0,0.0,0.0,0.0,0.0,-2.046675200620407e-05,0.00016050584736804208,-7.2579499075201e-05,1.2781899008995623e-05,2.146455906376632e-05,4.056294759191559e-06,-8.341473674455813e-06,-0.0010464426036912986,-0.0009504910870606802,-0.0007507378555910153,-0.0007446643293935316,-0.0002258450758977246,-0.0003147527962835067,-0.001704578596596043,0.2998287081718445,11.802515029907227,-1.0410492420196533,-21.741060256958008,-0.4864402413368225,-2.5207552909851074,0.25485557317733765,0
40,0.19497942924499512,-0.2998287081718445,-11.802515029907227,1.0410492420196533,21.741060256958008,0.4864402413368225,2.5207552909851074,-0.25485557317733765,0.0,0.0,0.0,0.0,0.0,0.0,0.0,-0.24325757121479707,0.5723931538294873,-0.13410779266494932,0.4626579191787332,-0.04155308630106448,0.12856089916048077,-0.22325015214879718,0.17290070437108832,-0.4876807526789213,-0.11139852122988617,-1.9463929682476395,0.13358443734843192,2.595546303484175,0.9452529004348649,0.1728802376190821,-0.48752024683155326,-0.11147110072896137,-1.9463801863486305,0.1336059019074957,2.595550359778934,0.9452445589611904,0.0010464426036912986,0.0009504910870606802,0.0007507378555910153,0.0007446643293935316,0.0002258450758977246,0.0003147527962835067,0.001704578596596043,0.0,0.0,0.0,0.0,0.0,0.0,0.0,-2.046675200620407e-05,0.00016050584736804208,-7.2579499075201e-05,1.2781899008995623e-05,2.146455906376632e-05,4.056294759191559e-06,-8.341473674455813e-06,-0.0010464426036912986,-0.0009504910870606802,-0.0007507378555910153,-0.0007446643293935316,-0.0002258450758977246,-0.0003147527962835067,-0.001704578596596043,0.2998287081718445,11.802515029907227,-1.0410492420196533,-21.741060256958008,-0.4864402413368225,-2.5207552909851074,0.25485557317733765,0
41,0.19997692108154297,-0.19667929410934448,-11.727136611938477,1.0688202381134033,21.741060256958008,0.4809470772743225,2.5271639823913574,-0.22098104655742645,0.0,0.0,0.0,0.0,0.0,0.0,0.0,-0.24325736906647932,0.5776851632706437,-0.1302059714308771,0.4592303806580898,-0.04192941914892446,0.12806009476583394,-0.22424583383354613,0.1728934475009378,-0.48768604239246294,-0.11140046974769674,-1.9463951935828034,0.13358504770199456,2.595545591407352,0.9452491365985738,0.1728802376190821,-0.48752024683155326,-0.11147110072896137,-1.9463801863486305,0.1336059019074957,2.595550359778934,0.9452445589611904,-0.0013364674926607057,-0.0006775053541856885,0.00023120982504138185,0.00040125066257910424,0.0005402388231394161,7.345021691125386e-06,0.007654446030023728,0.0,0.0,0.0,0.0,0.0,0.0,0.0,-1.3209881855685834e-05,0.00016579556090967618,-7.063098126462719e-05,1.5007234172914607e-05,2.0854205501130707e-05,4.76837158203125e-06,-4.5776373833739115e-06,0.0013364674926607057,0.0006775053541856885,-0.00023120982504138185,-0.00040125066257910424,-0.0005402388231394161,-7.345021691125386e-06,-0.007654446030023728,0.19667929410934448,11.727136611938477,-1.0688202381134033,-21.741060256958008,-0.4809470772743225,-2.5271639823913574,0.22098104655742645,0
42,0.20497775077819824,-0.19667929410934448,-11.727136611938477,1.0688202381134033,21.741060256958008,0.4809470772743225,2.5271639823913574,-0.22098104655742645,0.0,0.0,0.0,0.0,0.0,0.0,0.0,-0.24325736906647932,0.5776851632706437,-0.1302059714308771,0.4592303806580898,-0.04192941914892446,0.12806009476583394,-0.22424583383354613,0.1728934475009378,-0.48768604239246294,-0.11140046974769674,-1.9463951935828034,0.13358504770199456,2.595545591407352,0.9452491365985738,0.1728802376190821,-0.48752024683155326,-0.11147110072896137,-1.9463801863486305,0.1336059019074957,2.595550359778934,0.9452445589611904,-0.0013364674926607057,-0.0006775053541856885,0.00023120982504138185,0.00040125066257910424,0.0005402388231394161,7.345021691125386e-06,0.007654446030023728,0.0,0.0,0.0,0.0,0.0,0.0,0.0,-1.3209881855685834e-05,0.00016579556090967618,-7.063098126462719e-05,1.5007234172914607e-05,2.0854205501130707e-05,4.76837158203125e-06,-4.5776373833739115e-06,0.0013364674926607057,0.0006775053541856885,-0.00023120982504138185,-0.00040125066257910424,-0.0005402388231394161,-7.345021691125386e-06,-0.007654446030023728,0.19667929410934448,11.727136611938477,-1.0688202381134033,-21.741060256958008,-0.4809470772743225,-2.5271639823913574,0.22098104655742645,0
43,0.21027350425720215,-0.24825400114059448,-11.750940322875977,1.0688202381134033,21.717256546020508,0.4864402413368225,2.5207552909851074,-0.22098104655742645,0.0,0.0,0.0,0.0,0.0,0.0,0.0,-0.2497986448644729,0.575114183425214,-0.13799580390917734,0.45915886993582894,-0.041561194445381436,0.12788179616708262,-0.22420863529593693,0.17289705762115426,-0.4876843719566077,-0.11140047007171548,-1.946394132342418,0.13358337440093357,2.595546303484175,0.9452491365447386,0.1728802376190821,-0.48752024683155326,-0.11147110072896137,-1.9463801863486305,0.1336059019074957,2.595550359778934,0.9452445589611904,0.0002708869636177873,-6.98043738034613e-05,-8.618580136503436e-05,0.00048508943769002665,0.0001760663199083832,0.00031180418560836537,0.0005100768378863656,0.0,0.0,0.0,0.0,0.0,0.0,0.0,-1.6820002072148732e-05,0.00016412512505442622,-7.06306572458848e-05,1.3945993787567446e-05,2.2527506562119992e-05,4.056294759191559e-06,-4.577583548215358e-06,-0.0002708869636177873,6.98043738034613e-05,8.618580136503436e-05,-0.00048508943769002665,-0.0001760663199083832,-0.00031180418560836537,-0.0005100768378863656,0.24825400114059448,11.750940322875977,-1.0688202381134033,-21.717256546020508,-0.4864402413368225,-2.5207552909851074,0.22098104655742645,0
44,0.21497583389282227,-0.24825400114059448,-11.750940322875977,1.0688202381134033,21.717256546020508,0.4864402413368225,2.5207552909851074,-0.22098104655742645,0.0,0.0,0.0,0.0,0.0,0.0,0.0,-0.2497986448644729,0.575114183425214,-0.13799580390917734,0.45915886993582894,-0.041561194445381436,0.12788179616708262,-0.22420863529593693,0.17289705762115426,-0.4876843719566077,-0.11140047007171548,-1.946394132342418,0.13358337440093357,2.595546303484175,0.9452491365447386,0.1728802376190821,-0.48752024683155326,-0.11147110072896137,-1.9463801863486305,0.1336059019074957,2.595550359778934,0.9452445589611904,0.0002708869636177873,-6.98043738034613e-05,-8.618580136503436e-05,0.00048508943769002665,0.0001760663199083832,0.00031180418560836537,0.0005100768378863656,0.0,0.0,0.0,0.0,0.0,0.0,0.0,-1.6820002072148732e-05,0.00016412512505442622,-7.06306572458848e-05,1.3945993787567446e-05,2.2527506562119992e-05,4.056294759191559e-06,-4.577583548215358e-06,-0.0002708869636177873,6.98043738034613e-05,8.618580136503436e-05,-0.00048508943769002665,-0.0001760663199083832,-0.00031180418560836537,-0.0005100768378863656,0.24825400114059448,11.750940322875977,-1.0688202381134033,-21.717256546020508,-0.4864402413368225,-2.5207552909851074,0.22098104655742645,0
45,0.21997451782226562,-0.24825400114059448,-11.699365615844727,1.0410492420196533,21.741060256958008,0.5047507882118225,2.5335726737976074,-0.17978231608867645,0.0,0.0,0.0,0.0,0.0,0.0,0.0,-0.2458103506052139,0.5830962457161697,-0.1329155431931895,0.4541031005125832,-0.041622013684454624,0.12746221356064694,-0.22437063885205616,0.17289706645142033,-0.4876879912342941,-0.11139852122988617,-1.9463929711931558,0.13358236347072341,2.595544879330529,0.9452445589618547,0.1728802376190821,-0.48752024683155326,-0.11147110072896137,-1.9463801863486305,0.1336059019074957,2.595550359778934,0.9452445589611904,-6.251441520827966e-05,-0.000753788878671108,0.001141006067390852,-4.8962881290648934e-05,-0.0004690617794414416,-0.00018102381401468548,-0.0012548040018691639,0.0,0.0,0.0,0.0,0.0,0.0,0.0,-1.6828832338222632e-05,0.00016774440274086588,-7.2579499075201e-05,1.2784844525270955e-05,2.353843677227463e-05,5.480448404870941e-06,-6.642464356332312e-13,6.251441520827966e-05,0.000753788878671108,-0.001141006067390852,4.8962881290648934e-05,0.0004690617794414416,0.00018102381401468548,0.0012548040018691639,0.24825400114059448,11.699365615844727,-1.0410492420196533,-21.741060256958008,-0.5047507882118225,-2.5335726737976074,0.17978231608867645,0
46,0.2249908447265625,-0.24825400114059448,-11.699365615844727,1.0410492420196533,21.741060256958008,0.5047507882118225,2.5335726737976074,-0.17978231608867645,0.0,0.0,0.0,0.0,0.0,0.0,0.0,-0.2458103506052139,0.5830962457161697,-0.1329155431931895,0.4541031005125832,-0.041622013684454624,0.12746221356064694,-0.22437063885205616,0.17289706645142033,-0.4876879912342941,-0.11139852122988617,-1.9463929711931558,0.13358236347072341,2.595544879330529,0.9452445589618547,0.1728802376190821,-0.48752024683155326,-0.11147110072896137,-1.9463801863486305,0.1336059019074957,2.595550359778934,0.9452445589611904,-6.251441520827966e-05,-0.000753788878671108,0.001141006067390852,-4.8962881290648934e-05,-0.0004690617794414416,-0.00018102381401468548,-0.0012548040018691639,0.0,0.0,0.0,0.0,0.0,0.0,0.0,-1.6828832338222632e-05,0.00016774440274086588,-7.2579499075201e-05,1.2784844525270955e-05,2.353843677227463e-05,5.480448404870941e-06,-6.642464356332312e-13,6.251441520827966e-05,0.000753788878671108,-0.001141006067390852,4.8962881290648934e-05,0.0004690617794414416,0.00018102381401468548,0.0012548040018691639,0.24825400114059448,11.699365615844727,-1.0410492420196533,-21.741060256958008,-0.5047507882118225,-2.5335726737976074,0.17978231608867645,0
47,0.22997450828552246,-0.2720577120780945,-11.675561904907227,1.0410492420196533,21.741060256958008,0.4983420968055725,2.5271639823913574,-0.18710653483867645,0.0,0.0,0.0,0.0,0.0,0.0,0.0,-0.249018118607315,0.5926547933517536,-0.13407883390161915,0.4504363869329577,-0.04106103783597134,0.12764879423226952,-0.22328316169647297,0.1728987280570077,-0.4876896616701494,-0.11139852122988617,-1.946395087619007,0.13358311492182437,2.595545591407352,0.9452453727639384,0.1728802376190821,-0.48752024683155326,-0.11147110072896137,-1.9463801863486305,0.1336059019074957,2.595550359778934,0.9452445589611904,0.0005258263014535747,2.8410000387546136e-05,0.00016189063455555514,-5.337843934280821e-05,-0.00028331350176233246,3.0112972469792067e-05,-0.001128729640596302,0.0,0.0,0.0,0.0,0.0,0.0,0.0,-1.849043792559457e-05,0.00016941483859611584,-7.2579499075201e-05,1.4901270376510567e-05,2.2786985671319204e-05,4.76837158203125e-06,-8.138027479676069e-07,-0.0005258263014535747,-2.8410000387546136e-05,-0.00016189063455555514,5.337843934280821e-05,0.00028331350176233246,-3.0112972469792067e-05,0.001128729640596302,0.2720577120780945,11.675561904907227,-1.0410492420196533,-21.741060256958008,-0.4983420968055725,-2.5271639823913574,0.18710653483867645,0
48,0.23497605323791504,-0.2720577120780945,-11.675561904907227,1.0410492420196533,21.741060256958008,0.4983420968055725,2.5271639823913574,-0.18710653483867645,0.0,0.0,0.0,0.0,0.0,0.0,0.0,-0.249018118607315,0.5926547933517536,-0.13407883390161915,0.4504363869329577,-0.04106103783597134,0.12764879423226952,-0.22328316169647297,0.1728987280570077,-0.4876896616701494,-0.11139852122988617,-1.946395087619007,0.13358311492182437,2.595545591407352,0.9452453727639384,0.1728802376190821,-0.48752024683155326,-0.11147110072896137,-1.9463801863486305,0.1336059019074957,2.595550359778934,0.9452445589611904,0.0005258263014535747,2.8410000387546136e-05,0.00016189063455555514,-5.337843934280821e-05,-0.00028331350176233246,3.0112972469792067e-05,-0.001128729640596302,0.0,0.0,0.0,0.0,0.0,0.0,0.0,-1.849043792559457e-05,0.00016941483859611584,-7.2579499075201e-05,1.4901270376510567e-05,2.2786985671319204e-05,4.76837158203125e-06,-8.138027479676069e-07,-0.0005258263014535747,-2.8410000387546136e-05,-0.00016189063455555514,5.337843934280821e-05,0.00028331350176233246,-3.0112972469792067e-05,0.001128729640596302,0.2720577120780945,11.675561904907227,-1.0410492420196533,-21.741060256958008,-0.4983420968055725,-2.5271639823913574,0.18710653483867645,0
49,0.2399756908416748,-0.22445029020309448,-11.651758193969727,1.0410492420196533,21.792634963989258,0.4864402413368225,2.5335726737976074,-0.17978231608867645,0.0,0.0,0.0,0.0,0.0,0.0,0.0,-0.24584023409372416,0.5813474786570565,-0.12845184542442334,0.461061387637948,-0.04107532407625254,0.12907676256672487,-0.22256996597435516,0.17289610244098463,-0.4876913321060046,-0.11139852122988617,-1.9463965698990688,0.13358443735043204,2.595544879330529,0.945244558961855,0.1728802376190821,-0.48752024683155326,-0.11147110072896137,-1.9463801863486305,0.1336059019074957,2.595550359778934,0.9452445589611904,-0.0006886982085522901,-0.0012161258895477735,0.0003061195780320048,-0.0011073337872764552,0.00010217267872841899,-0.00019526627683674316,-0.0007697504901613154,0.0,0.0,0.0,0.0,0.0,0.0,0.0,-1.5864821902522586e-05,0.0001710852744513658,-7.2579499075201e-05,1.6383550438314742e-05,2.146455706364403e-05,5.480448404870941e-06,-6.645795025406187e-13,0.0006886982085522901,0.0012161258895477735,-0.0003061195780320048,0.0011073337872764552,-0.00010217267872841899,0.00019526627683674316,0.0007697504901613154,0.22445029020309448,11.651758193969727,-1.0410492420196533,-21.792634963989258,-0.4864402413368225,-2.5335726737976074,0.17978231608867645,0
50,0.24498558044433594,-0.22445029020309448,-11.651758193969727,1.0410492420196533,21.792634963989258,0.4864402413368225,2.5335726737976074,-0.17978231608867645,0.0,0.0,0.0,0.0,0.0,0.0,0.0,-0.24584023409372416,0.5813474786570565,-0.12845184542442334,0.461061387637948,-0.04107532407625254,0.12907676256672487,-0.22256996597435516,0.17289610244098463,-0.4876913321060046,-0.11139852122988617,-1.9463965698990688,0.13358443735043204,2.595544879330529,0.945244558961855,0.1728802376190821,-0.48752024683155326,-0.11147110072896137,-1.9463801863486305,0.1336059019074957,2.595550359778934,0.9452445589611904,-0.0006886982085522901,-0.0012161258895477735,0.0003061195780320048,-0.0011073337872764552,0.00010217267872841899,-0.00019526627683674316,-0.0007697504901613154,0.0,0.0,0.0,0.0,0.0,0.0,0.0,-1.5864821902522586e-05,0.0001710852744513658,-7.2579499075201e-05,1.6383550438314742e-05,2.146455706364403e-05,5.480448404870941e-06,-6.645795025406187e-13,0.0006886982085522901,0.0012161258895477735,-0.0003061195780320048,0.0011073337872764552,-0.00010217267872841899,0.00019526627683674316,0.0007697504901613154,0.22445029020309448,11.651758193969727,-1.0410492420196533,-21.792634963989258,-0.4864402413368225,-2.5335726737976074,0.17978231608867645,0
51,0.24997758865356445,-0.24825400114059448,-11.699365615844727,1.0926239490509033,21.741060256958008,0.4983420968055725,2.5271639823913574,-0.17337362468242645,0.0,0.0,0.0,0.0,0.0,0.0,0.0,-0.24438398634514868,0.6004020770665679,-0.1334620072757575,0.4564663822363812,-0.04128126231161301,0.12882096499669715,-0.2218041095110509,0.17289708411609345,-0.4876879912342941,-0.11140214050757258,-1.9463929509000293,0.13358311443601578,2.595545591407352,0.9452438468850322,0.1728802376190821,-0.48752024683155326,-0.11147110072896137,-1.9463801863486305,0.1336059019074957,2.595550359778934,0.9452445589611904,0.0003318451486570366,0.00026339863945462985,-0.0011336354230530494,-0.00022034242265903906,-0.00013125393183524624,3.972019242074153e-05,-0.001703037698172366,0.0,0.0,0.0,0.0,0.0,0.0,0.0,-1.684649701133578e-05,0.00016774440274086588,-6.89602213887891e-05,1.2764551398758428e-05,2.2787471479907007e-05,4.76837158203125e-06,7.120761582601887e-07,-0.0003318451486570366,-0.00026339863945462985,0.0011336354230530494,0.00022034242265903906,0.00013125393183524624,-3.972019242074153e-05,0.001703037698172366,0.24825400114059448,11.699365615844727,-1.0926239490509033,-21.741060256958008,-0.4983420968055725,-2.5271639823913574,0.17337362468242645,0
52,0.2549748420715332,-0.24825400114059448,-11.699365615844727,1.0926239490509033,21.741060256958008,0.4983420968055725,2.5271639823913574,-0.17337362468242645,0.0,0.0,0.0,0.0,0.0,0.0,0.0,-0.24438398634514868,0.6004020770665679,-0.1334620072757575,0.4564663822363812,-0.04128126231161301,0.12882096499669715,-0.2218041095110509,0.17289708411609345,-0.4876879912342941,-0.11140214050757258,-1.9463929509000293,0.13358311443601578,2.595545591407352,0.9452438468850322,0.1728802376190821,-0.48752024683155326,-0.11147110072896137,-1.9463801863486305,0.1336059019074957,2.595550359778934,0.9452445589611904,0.0003318451486570366,0.00026339863945462985,-0.0011336354230530494,-0.00022034242265903906,-0.00013125393183524624,3.972019242074153e-05,-0.001703037698172366,0.0,0.0,0.0,0.0,0.0,0.0,0.0,-1.684649701133578e-05,0.00016774440274086588,-6.89602213887891e-05,1.2764551398758428e-05,2.2787471479907007e-05,4.76837158203125e-06,7.120761582601887e-07,-0.0003318451486570366,-0.00026339863945462985,0.0011336354230530494,0.00022034242265903906,0.00013125393183524624,-3.972019242074153e-05,0.001703037698172366,0.24825400114059448,11.699365615844727,-1.0926239490509033,-21.741060256958008,-0.4983420968055725,-2.5271639823913574,0.17337362468242645,0
53,0.25997257232666016,-0.24825400114059448,-11.675561904907227,1.0688202381134033,21.768831253051758,0.4864402413368225,2.5271639823913574,-0.22830526530742645,0.0,0.0,0.0,0.0,0.0,0.0,0.0,-0.23764995451092358,0.6027124070461669,-0.12750488466944412,0.45783839057001724,-0.041179742248795774,0.12917754114036922,-0.22177222466595695,0.17289705762125215,-0.4876896616701494,-0.11140047007171731,-1.9463948935642734,0.13358443735042932,2.595545591407352,0.9452499504006571,0.1728802376190821,-0.48752024683155326,-0.11147110072896137,-1.9463801863486305,0.1336059019074957,2.595550359778934,0.9452445589611904,0.00041824170545196705,-0.0006961876540037268,0.00024722490888211973,-0.0011536683268411434,0.00032455157549207816,7.089631279133391e-05,0.0007950194141467182,0.0,0.0,0.0,0.0,0.0,0.0,0.0,-1.6820002170042647e-05,0.00016941483859611584,-7.063065724405293e-05,1.4707215642895122e-05,2.1464557066364076e-05,4.76837158203125e-06,-5.3914394666509935e-06,-0.00041824170545196705,0.0006961876540037268,-0.00024722490888211973,0.0011536683268411434,-0.00032455157549207816,-7.089631279133391e-05,-0.0007950194141467182,0.24825400114059448,11.675561904907227,-1.0688202381134033,-21.768831253051758,-0.4864402413368225,-2.5271639823913574,0.22830526530742645,0
54,0.26497530937194824,-0.24825400114059448,-11.675561904907227,1.0688202381134033,21.768831253051758,0.4864402413368225,2.5271639823913574,-0.22830526530742645,0.0,0.0,0.0,0.0,0.0,0.0,0.0,-0.23764995451092358,0.6027124070461669,-0.12750488466944412,0.45783839057001724,-0.041179742248795774,0.12917754114036922,-0.22177222466595695,0.17289705762125215,-0.4876896616701494,-0.11140047007171731,-1.9463948935642734,0.13358443735042932,2.595545591407352,0.9452499504006571,0.1728802376190821,-0.48752024683155326,-0.11147110072896137,-1.9463801863486305,0.1336059019074957,2.595550359778934,0.9452445589611904,0.00041824170545196705,-0.0006961876540037268,0.00024722490888211973,-0.0011536683268411434,0.00032455157549207816,7.089631279133391e-05,0.0007950194141467182,0.0,0.0,0.0,0.0,0.0,0.0,0.0,-1.6820002170042647e-05,0.00016941483859611584,-7.063065724405293e-05,1.4707215642895122e-05,2.1464557066364076e-05,4.76837158203125e-06,-5.3914394666509935e-06,-0.00041824170545196705,0.0006961876540037268,-0.00024722490888211973,0.0011536683268411434,-0.00032455157549207816,-7.089631279133391e-05,-0.0007950194141467182,0.24825400114059448,11.675561904907227,-1.0688202381134033,-21.768831253051758,-0.4864402413368225,-2.5271639823913574,0.22830526530742645,0
55,0.2699768543243408,-0.2720577120780945,-11.699365615844727,1.0410492420196533,21.741060256958008,0.4928489327430725,2.5335726737976074,-0.20724813640117645,0.0,0.0,0.0,0.0,0.0,0.0,0.0,-0.2414573845329037,0.6003650288121479,-0.13190082049933888,0.45934316252360397,-0.04078077345562978,0.12959358490440007,-0.22169511799931593,0.17289905488773066,-0.4876879912342941,-0.11139852090586559,-1.946392942106017,0.13358372511159886,2.595544879330529,0.9452476107196676,0.1728802376190821,-0.48752024683155326,-0.11147110072896137,-1.9463801863486305,0.1336059019074957,2.595550359778934,0.9452445589611904,0.0009531101284559974,-0.00049414286121858,0.0006259622003155608,-0.0001535031815269465,-2.4137641739961135e-05,-0.00019161118177598275,-0.0009377070061250617,0.0,0.0,0.0,0.0,0.0,0.0,0.0,-1.8817268648552155e-05,0.00016774440274086588,-7.257982309577526e-05,1.2755757386573308e-05,2.21767958968333e-05,5.480448404870941e-06,-3.051758477146116e-06,-0.0009531101284559974,0.00049414286121858,-0.0006259622003155608,0.0001535031815269465,2.4137641739961135e-05,0.00019161118177598275,0.0009377070061250617,0.2720577120780945,11.699365615844727,-1.0410492420196533,-21.741060256958008,-0.4928489327430725,-2.5335726737976074,0.20724813640117645,0
56,0.275404691696167,-0.2720577120780945,-11.699365615844727,1.0410492420196533,21.741060256958008,0.4928489327430725,2.5335726737976074,-0.20724813640117645,0.0,0.0,0.0,0.0,0.0,0.0,0.0,-0.2414573845329037,0.6003650288121479,-0.13190082049933888,0.45934316252360397,-0.04078077345562978,0.12959358490440007,-0.22169511799931593,0.17289905488773066,-0.4876879912342941,-0.11139852090586559,-1.946392942106017,0.13358372511159886,2.595544879330529,0.9452476107196676,0.1728802376190821,-0.48752024683155326,-0.11147110072896137,-1.9463801863486305,0.1336059019074957,2.595550359778934,0.9452445589611904,0.0009531101284559974,-0.00049414286121858,0.0006259622003155608,-0.0001535031815269465,-2.4137641739961135e-05,-0.00019161118177598275,-0.0009377070061250617,0.0,0.0,0.0,0.0,0.0,0.0,0.0,-1.8817268648552155e-05,0.00016774440274086588,-7.257982309577526e-05,1.2755757386573308e-05,2.21767958968333e-05,5.480448404870941e-06,-3.051758477146116e-06,-0.0009531101284559974,0.00049414286121858,-0.0006259622003155608,0.0001535031815269465,2.4137641739961135e-05,0.00019161118177598275,0.0009377070061250617,0.2720577120780945,11.699365615844727,-1.0410492420196533,-21.741060256958008,-0.4928489327430725,-2.5335726737976074,0.20724813640117645,0
57,0.279979944229126,-0.2720577120780945,-11.699365615844727,1.0410492420196533,21.741060256958008,0.4928489327430725,2.5335726737976074,-0.20724813640117645,0.0,0.0,0.0,0.0,0.0,0.0,0.0,-0.2414573845329037,0.6003650288121479,-0.13190082049933888,0.45934316252360397,-0.04078077345562978,0.12959358490440007,-0.22169511799931593,0.17289905488773066,-0.4876879912342941,-0.11139852090586559,-1.946392942106017,0.13358372511159886,2.595544879330529,0.9452476107196676,0.1728802376190821,-0.48752024683155326,-0.11147110072896137,-1.9463801863486305,0.1336059019074957,2.595550359778934,0.9452445589611904,0.0009531101284559974,-0.00049414286121858,0.0006259622003155608,-0.0001535031815269465,-2.4137641739961135e-05,-0.00019161118177598275,-0.0009377070061250617,0.0,0.0,0.0,0.0,0.0,0.0,0.0,-1.8817268648552155e-05,0.00016774440274086588,-7.257982309577526e-05,1.2755757386573308e-05,2.21767958968333e-05,5.480448404870941e-06,-3.051758477146116e-06,-0.0009531101284559974,0.00049414286121858,-0.0006259622003155608,0.0001535031815269465,2.4137641739961135e-05,0.00019161118177598275,0.0009377070061250617,0.2720577120780945,11.699365615844727,-1.0410492420196533,-21.741060256958008,-0.4928489327430725,-2.5335726737976074,0.20724813640117645,0
58,0.28493475914001465,-0.2720577120780945,-11.699365615844727,1.0410492420196533,21.741060256958008,0.4928489327430725,2.5335726737976074,-0.20724813640117645,0.0,0.0,0.0,0.0,0.0,0.0,0.0,-0.2414573845329037,0.6003650288121479,-0.13190082049933888,0.45934316252360397,-0.04078077345562978,0.12959358490440007,-0.22169511799931593,0.17289905488773066,-0.4876879912342941,-0.11139852090586559,-1.946392942106017,0.13358372511159886,2.595544879330529,0.9452476107196676,0.1728802376190821,-0.48752024683155326,-0.11147110072896137,-1.9463801863486305,0.1336059019074957,2.595550359778934,0.9452445589611904,0.0009531101284559974,-0.00049414286121858,0.0006259622003155608,-0.0001535031815269465,-2.4137641739961135e-05,-0.00019161118177598275,-0.0009377070061250617,0.0,0.0,0.0,0.0,0.0,0.0,0.0,-1.8817268648552155e-05,0.00016774440274086588,-7.257982309577526e-05,1.2755757386573308e-05,2.21767958968333e-05,5.480448404870941e-06,-3.051758477146116e-06,-0.0009531101284559974,0.00049414286121858,-0.0006259622003155608,0.0001535031815269465,2.4137641739961135e-05,0.00019161118177598275,0.0009377070061250617,0.2720577120780945,11.699365615844727,-1.0410492420196533,-21.741060256958008,-0.4928489327430725,-2.5335726737976074,0.20724813640117645,0
59,0.2899773120880127,-0.24825400114059448,-11.774744033813477,1.0410492420196533,21.768831253051758,0.5047507882118225,2.5271639823913574,-0.22830526530742645,0.0,0.0,0.0,0.0,0.0,0.0,0.0,-0.24601483429389276,0.5857077386797775,-0.133705443368152,0.4658406529026513,-0.04057244099920794,0.13059052612280495,-0.2235328236432425,0.17289708425925582,-0.48768270152075244,-0.11139852122988433,-1.9463948938549338,0.13358240284522283,2.595545591407352,0.9452499504006571,0.1728802376190821,-0.48752024683155326,-0.11147110072896137,-1.9463801863486305,0.1336059019074957,2.595550359778934,0.9452445589611904,-0.00015013080894069744,0.00012219738965332363,0.00045326278939042354,-0.00017301412293402866,-0.0005050481738399236,0.0001803794023083223,0.0006352153382693177,0.0,0.0,0.0,0.0,0.0,0.0,0.0,-1.684664017370663e-05,0.00016245468919917627,-7.257949907703287e-05,1.4707506303279771e-05,2.349906227286369e-05,4.76837158203125e-06,-5.3914394666509935e-06,0.00015013080894069744,-0.00012219738965332363,-0.00045326278939042354,0.00017301412293402866,0.0005050481738399236,-0.0001803794023083223,-0.0006352153382693177,0.24825400114059448,11.774744033813477,-1.0410492420196533,-21.768831253051758,-0.5047507882118225,-2.5271639823913574,0.22830526530742645,0
60,0.2949354648590088,-0.24825400114059448,-11.774744033813477,1.0410492420196533,21.768831253051758,0.5047507882118225,2.5271639823913574,-0.22830526530742645,0.0,0.0,0.0,0.0,0.0,0.0,0.0,-0.24601483429389276,0.5857077386797775,-0.133705443368152,0.4658406529026513,-0.04057244099920794,0.13059052612280495,-0.2235328236432425,0.17289708425925582,-0.48768270152075244,-0.11139852122988433,-1.9463948938549338,0.13358240284522283,2.595545591407352,0.9452499504006571,0.1728802376190821,-0.48752024683155326,-0.11147110072896137,-1.9463801863486305,0.1336059019074957,2.595550359778934,0.9452445589611904,-0.00015013080894069744,0.00012219738965332363,0.00045326278939042354,-0.00017301412293402866,-0.0005050481738399236,0.0001803794023083223,0.0006352153382693177,0.0,0.0,0.0,0.0,0.0,0.0,0.0,-1.684664017370663e-05,0.00016245468919917627,-7.257949907703287e-05,1.4707506303279771e-05,2.349906227286369e-05,4.76837158203125e-06,-5.3914394666509935e-06,0.00015013080894069744,-0.00012219738965332363,-0.00045326278939042354,0.00017301412293402866,0.0005050481738399236,-0.0001803794023083223,-0.0006352153382693177,0.24825400114059448,11.774744033813477,-1.0410492420196533,-21.768831253051758,-0.5047507882118225,-2.5271639823913574,0.22830526530742645,0
61,0.29997777938842773,-0.2720577120780945,-11.826318740844727,1.0926239490509033,21.768831253051758,0.4928489327430725,2.5399813652038574,-0.20724813640117645,0.0,0.0,0.0,0.0,0.0,0.0,0.0,-0.24549473165041102,0.5789311221798381,-0.12924714180868777,0.46368172948460085,-0.04063653069712935,0.13017616673279453,-0.2245534902129198,0.17289883445698623,-0.48767908224306605,-0.11140214050757258,-1.94639489941478,0.13358372527360912,2.5955441672537063,0.9452476107196676,0.1728802376190821,-0.48752024683155326,-0.11147110072896137,-1.9463801863486305,0.1336059019074957,2.595550359778934,0.9452445589611904,0.0004510294258087914,0.00024207334778508565,-0.0006166992851423591,-0.0005527253264047977,-2.1125770222336538e-05,-0.00021986206236298842,-0.00021437055275248104,0.0,0.0,0.0,0.0,0.0,0.0,0.0,-1.8596837904116814e-05,0.00015883541151279212,-6.89602213887891e-05,1.4713066149418808e-05,2.2176633886566988e-05,6.192525227710632e-06,-3.051758477146116e-06,-0.0004510294258087914,-0.00024207334778508565,0.0006166992851423591,0.0005527253264047977,2.1125770222336538e-05,0.00021986206236298842,0.00021437055275248104,0.2720577120780945,11.826318740844727,-1.0926239490509033,-21.768831253051758,-0.4928489327430725,-2.5399813652038574,0.20724813640117645,0
62,0.3049747943878174,-0.2720577120780945,-11.826318740844727,1.0926239490509033,21.768831253051758,0.4928489327430725,2.5399813652038574,-0.20724813640117645,0.0,0.0,0.0,0.0,0.0,0.0,0.0,-0.24549473165041102,0.5789311221798381,-0.12924714180868777,0.46368172948460085,-0.04063653069712935,0.13017616673279453,-0.2245534902129198,0.17289883445698623,-0.48767908224306605,-0.11140214050757258,-1.94639489941478,0.13358372527360912,2.5955441672537063,0.9452476107196676,0.1728802376190821,-0.48752024683155326,-0.11147110072896137,-1.9463801863486305,0.1336059019074957,2.595550359778934,0.9452445589611904,0.0004510294258087914,0.00024207334778508565,-0.0006166992851423591,-0.0005527253264047977,-2.1125770222336538e-05,-0.00021986206236298842,-0.00021437055275248104,0.0,0.0,0.0,0.0,0.0,0.0,0.0,-1.8596837904116814e-05,0.00015883541151279212,-6.89602213887891e-05,1.4713066149418808e-05,2.2176633886566988e-05,6.192525227710632e-06,-3.051758477146116e-06,-0.0004510294258087914,-0.00024207334778508565,0.0006166992851423591,0.0005527253264047977,2.1125770222336538e-05,0.00021986206236298842,0.00021437055275248104,0.2720577120780945,11.826318740844727,-1.0926239490509033,-21.768831253051758,-0.4928489327430725,-2.5399813652038574,0.20724813640117645,0
63,0.3099818229675293,-0.19667929410934448,-11.802515029907227,1.1164276599884033,21.741060256958008,0.4928489327430725,2.5143465995788574,-0.24844686686992645,0.0,0.0,0.0,0.0,0.0,0.0,0.0,-0.24153393899801978,0.5793069550364396,-0.12198292268126754,0.4557597409436031,-0.04118780174524521,0.1294142352498825,-0.22468389902283262,0.17289352076031575,-0.4876807526789213,-0.11140381094342784,-1.9463929417790014,0.13358371215077583,2.5955470155609977,0.9452521883563862,0.1728802376190821,-0.48752024683155326,-0.11147110072896137,-1.9463801863486305,0.1336059019074957,2.595550359778934,0.9452445589611904,-0.0010312576425738212,-0.000400234453157766,-0.0008529638251236166,1.106510618058328e-06,-8.82944951530881e-05,0.0005329618725986833,0.0010698429210213205,0.0,0.0,0.0,0.0,0.0,0.0,0.0,-1.3283141233638718e-05,0.00016050584736804208,-6.728978553352527e-05,1.2755430370825493e-05,2.2189756719859233e-05,3.3442179363518676e-06,-7.629395195829503e-06,0.0010312576425738212,0.000400234453157766,0.0008529638251236166,-1.106510618058328e-06,8.82944951530881e-05,-0.0005329618725986833,-0.0010698429210213205,0.19667929410934448,11.802515029907227,-1.1164276599884033,-21.741060256958008,-0.4928489327430725,-2.5143465995788574,0.24844686686992645,0
64,0.31496763229370117,-0.19667929410934448,-11.802515029907227,1.1164276599884033,21.741060256958008,0.4928489327430725,2.5143465995788574,-0.24844686686992645,0.0,0.0,0.0,0.0,0.0,0.0,0.0,-0.24153393899801978,0.5793069550364396,-0.12198292268126754,0.4557597409436031,-0.04118780174524521,0.1294142352498825,-0.22468389902283262,0.17289352076031575,-0.4876807526789213,-0.11140381094342784,-1.9463929417790014,0.13358371215077583,2.5955470155609977,0.9452521883563862,0.1728802376190821,-0.48752024683155326,-0.11147110072896137,-1.9463801863486305,0.1336059019074957,2.595550359778934,0.9452445589611904,-0.0010312576425738212,-0.000400234453157766,-0.0008529638251236166,1.106510618058328e-06,-8.82944951530881e-05,0.0005329618725986833,0.0010698429210213205,0.0,0.0,0.0,0.0,0.0,0.0,0.0,-1.3283141233638718e-05,0.00016050584736804208,-6.728978553352527e-05,1.2755430370825493e-05,2.2189756719859233e-05,3.3442179363518676e-06,-7.629395195829503e-06,0.0010312576425738212,0.000400234453157766,0.0008529638251236166,-1.106510618058328e-06,8.82944951530881e-05,-0.0005329618725986833,-0.0010698429210213205,0.19667929410934448,11.802515029907227,-1.1164276599884033,-21.741060256958008,-0.4928489327430725,-2.5143465995788574,0.24844686686992645,0
65,0.3202807903289795,-0.22445029020309448,-11.774744033813477,1.0926239490509033,21.768831253051758,0.5047507882118225,2.5335726737976074,-0.20083944499492645,0.0,0.0,0.0,0.0,0.0,0.0,0.0,-0.2427806313444066,0.5648473471079618,-0.12854408137226903,0.457769706108738,-0.041009064595975336,0.1296435336713099,-0.22522044073585146,0.17289538718571257,-0.48768270152075244,-0.11140214050757258,-1.9463970628789478,0.13358240284514966,2.595544879330529,0.9452468986428446,0.1728802376190821,-0.48752024683155326,-0.11147110072896137,-1.9463801863486305,0.1336059019074957,2.595550359778934,0.9452445589611904,0.00012841137107606117,-0.0005344513853451548,-0.0005073322375999386,-0.0002281441007087324,-0.0005821204457463916,-0.0002738221986911011,-0.0009918139889727512,0.0,0.0,0.0,0.0,0.0,0.0,0.0,-1.5149566630456857e-05,0.00016245468919917627,-6.89602213887891e-05,1.6876530317233573e-05,2.349906234602739e-05,5.480448404870941e-06,-2.3396816541954024e-06,-0.00012841137107606117,0.0005344513853451548,0.0005073322375999386,0.0002281441007087324,0.0005821204457463916,0.0002738221986911011,0.0009918139889727512,0.22445029020309448,11.774744033813477,-1.0926239490509033,-21.768831253051758,-0.5047507882118225,-2.5335726737976074,0.20083944499492645,0
66,0.32565927505493164,-0.22445029020309448,-11.774744033813477,1.0926239490509033,21.768831253051758,0.5047507882118225,2.5335726737976074,-0.20083944499492645,0.0,0.0,0.0,0.0,0.0,0.0,0.0,-0.2427806313444066,0.5648473471079618,-0.12854408137226903,0.457769706108738,-0.041009064595975336,0.1296435336713099,-0.22522044073585146,0.17289538718571257,-0.48768270152075244,-0.11140214050757258,-1.9463970628789478,0.13358240284514966,2.595544879330529,0.9452468986428446,0.1728802376190821,-0.48752024683155326,-0.11147110072896137,-1.9463801863486305,0.1336059019074957,2.595550359778934,0.9452445589611904,0.00012841137107606117,-0.0005344513853451548,-0.0005073322375999386,-0.0002281441007087324,-0.0005821204457463916,-0.0002738221986911011,-0.0009918139889727512,0.0,0.0,0.0,0.0,0.0,0.0,0.0,-1.5149566630456857e-05,0.00016245468919917627,-6.89602213887891e-05,1.6876530317233573e-05,2.349906234602739e-05,5.480448404870941e-06,-2.3396816541954024e-06,-0.00012841137107606117,0.0005344513853451548,0.0005073322375999386,0.0002281441007087324,0.0005821204457463916,0.0002738221986911011,0.0009918139889727512,0.22445029020309448,11.774744033813477,-1.0926239490509033,-21.768831253051758,-0.5047507882118225,-2.5335726737976074,0.20083944499492645,0
67,0.3299837112426758,-0.24825400114059448,-11.699365615844727,1.0926239490509033,21.741060256958008,0.5047507882118225,2.5271639823913574,-0.22830526530742645,0.0,0.0,0.0,0.0,0.0,0.0,0.0,-0.23260250878630226,0.5636551151281378,-0.11580749105916752,0.45417231823540405,-0.04138133680449772,0.12888065123899642,-0.22483754245976012,0.17289920349733076,-0.4876872826012951,-0.11140214050757258,-1.9463929421182629,0.1335824027912203,2.595545591407352,0.9452499504006571,0.1728802376190821,-0.48752024683155326,-0.11147110072896137,-1.9463801863486305,0.1336059019074957,2.595550359778934,0.9452445589611904,0.0006679540261266251,-0.0014963431468017862,0.00021652380671375535,-0.0001020764789917596,-0.0004210415416952627,0.0001300751499393124,0.0005252633278042064,0.0,0.0,0.0,0.0,0.0,0.0,0.0,-1.8965878248650148e-05,0.0001670357697418634,-6.89602213887891e-05,1.275576963233327e-05,2.3499116275388365e-05,4.76837158203125e-06,-5.3914394666509935e-06,-0.0006679540261266251,0.0014963431468017862,-0.00021652380671375535,0.0001020764789917596,0.0004210415416952627,-0.0001300751499393124,-0.0005252633278042064,0.24825400114059448,11.699365615844727,-1.0926239490509033,-21.741060256958008,-0.5047507882118225,-2.5271639823913574,0.22830526530742645,0
68,0.3349933624267578,-0.24825400114059448,-11.699365615844727,1.0926239490509033,21.741060256958008,0.5047507882118225,2.5271639823913574,-0.22830526530742645,0.0,0.0,0.0,0.0,0.0,0.0,0.0,-0.23260250878630226,0.5636551151281378,-0.11580749105916752,0.45417231823540405,-0.04138133680449772,0.12888065123899642,-0.22483754245976012,0.17289920349733076,-0.4876872826012951,-0.11140214050757258,-1.9463929421182629,0.1335824027912203,2.595545591407352,0.9452499504006571,0.1728802376190821,-0.48752024683155326,-0.11147110072896137,-1.9463801863486305,0.1336059019074957,2.595550359778934,0.9452445589611904,0.0006679540261266251,-0.0014963431468017862,0.00021652380671375535,-0.0001020764789917596,-0.0004210415416952627,0.0001300751499393124,0.0005252633278042064,0.0,0.0,0.0,0.0,0.0,0.0,0.0,-1.8965878248650148e-05,0.0001670357697418634,-6.89602213887891e-05,1.275576963233327e-05,2.3499116275388365e-05,4.76837158203125e-06,-5.3914394666509935e-06,-0.0006679540261266251,0.0014963431468017862,-0.00021652380671375535,0.0001020764789917596,0.0004210415416952627,-0.0001300751499393124,-0.0005252633278042064,0.24825400114059448,11.699365615844727,-1.0926239490509033,-21.741060256958008,-0.5047507882118225,-2.5271639823913574,0.22830526530742645,0
69,0.3399684429168701,-0.22445029020309448,-11.699365615844727,1.1164276599884033,21.768831253051758,0.4864402413368225,2.5335726737976074,-0.19351522624492645,0.0,0.0,0.0,0.0,0.0,0.0,0.0,-0.24233543225753615,0.556004029909017,-0.12372083103310406,0.46197307858394643,-0.0406895155210247,0.13019021965293925,-0.2235634353279423,0.1728954136883141,-0.4876879912302939,-0.11140381094342784,-1.9463977604377127,0.13358443718842147,2.5955459389686584,0.9452460848407613,0.1728802376190821,-0.48752024683155326,-0.11147110072896137,-1.9463801863486305,0.1336059019074957,2.595550359778934,0.9452445589611904,-0.0008566899229935518,-0.00036941687555509974,-0.0009283314368426784,-0.0005086387948197702,0.0003686871348560081,-0.000333171943595675,-0.0007948727977636552,0.0,0.0,0.0,0.0,0.0,0.0,0.0,-1.5176069231986888e-05,0.0001677443987406213,-6.728978553352527e-05,1.7574089082206257e-05,2.1464719074215655e-05,4.42081027562935e-06,-1.5258795709183204e-06,0.0008566899229935518,0.00036941687555509974,0.0009283314368426784,0.0005086387948197702,-0.0003686871348560081,0.000333171943595675,0.0007948727977636552,0.22445029020309448,11.699365615844727,-1.1164276599884033,-21.768831253051758,-0.4864402413368225,-2.5335726737976074,0.19351522624492645,0
70,0.3449671268463135,-0.22445029020309448,-11.699365615844727,1.1164276599884033,21.768831253051758,0.4864402413368225,2.5335726737976074,-0.19351522624492645,0.0,0.0,0.0,0.0,0.0,0.0,0.0,-0.24233543225753615,0.556004029909017,-0.12372083103310406,0.46197307858394643,-0.0406895155210247,0.13019021965293925,-0.2235634353279423,0.1728954136883141,-0.4876879912302939,-0.11140381094342784,-1.9463977604377127,0.13358443718842147,2.5955459389686584,0.9452460848407613,0.1728802376190821,-0.48752024683155326,-0.11147110072896137,-1.9463801863486305,0.1336059019074957,2.595550359778934,0.9452445589611904,-0.0008566899229935518,-0.00036941687555509974,-0.0009283314368426784,-0.0005086387948197702,0.0003686871348560081,-0.000333171943595675,-0.0007948727977636552,0.0,0.0,0.0,0.0,0.0,0.0,0.0,-1.5176069231986888e-05,0.0001677443987406213,-6.728978553352527e-05,1.7574089082206257e-05,2.1464719074215655e-05,4.42081027562935e-06,-1.5258795709183204e-06,0.0008566899229935518,0.00036941687555509974,0.0009283314368426784,0.0005086387948197702,-0.0003686871348560081,0.000333171943595675,0.0007948727977636552,0.22445029020309448,11.699365615844727,-1.1164276599884033,-21.768831253051758,-0.4864402413368225,-2.5335726737976074,0.19351522624492645,0
71,0.34999847412109375,-0.24825400114059448,-11.675561904907227,1.0410492420196533,21.717256546020508,0.4864402413368225,2.5399813652038574,-0.23471395671367645,0.0,0.0,0.0,0.0,0.0,0.0,0.0,-0.23780897440042748,0.577520973397655,-0.11320759415590267,0.4568192029978223,-0.041284403667986955,0.12817496001523127,-0.22255688035412446,0.1728972970209777,-0.4876896616701494,-0.11139852122988617,-1.946391548442312,0.13358443735043116,2.5955441672596877,0.94525066247748,0.1728802376190821,-0.48752024683155326,-0.11147110072896137,-1.9463801863486305,0.1336059019074957,2.595550359778934,0.9452445589611904,0.0005762339828786931,-0.0001012737410412197,0.0008698484170277608,0.0005760113190101529,0.00016628767128458108,-0.000532055744545635,0.0009807934563601183,0.0,0.0,0.0,0.0,0.0,0.0,0.0,-1.705940189558608e-05,0.00016941483859611584,-7.2579499075201e-05,1.1362093681466234e-05,2.1464557064532208e-05,6.192519246273065e-06,-6.103516289601707e-06,-0.0005762339828786931,0.0001012737410412197,-0.0008698484170277608,-0.0005760113190101529,-0.00016628767128458108,0.000532055744545635,-0.0009807934563601183,0.24825400114059448,11.675561904907227,-1.0410492420196533,-21.717256546020508,-0.4864402413368225,-2.5399813652038574,0.23471395671367645,0
72,0.35502076148986816,-0.24825400114059448,-11.675561904907227,1.0410492420196533,21.717256546020508,0.4864402413368225,2.5399813652038574,-0.23471395671367645,0.0,0.0,0.0,0.0,0.0,0.0,0.0,-0.23780897440042748,0.577520973397655,-0.11320759415590267,0.4568192029978223,-0.041284403667986955,0.12817496001523127,-0.22255688035412446,0.1728972970209777,-0.4876896616701494,-0.11139852122988617,-1.946391548442312,0.13358443735043116,2.5955441672596877,0.94525066247748,0.1728802376190821,-0.48752024683155326,-0.11147110072896137,-1.9463801863486305,0.1336059019074957,2.595550359778934,0.9452445589611904,0.0005762339828786931,-0.0001012737410412197,0.0008698484170277608,0.0005760113190101529,0.00016628767128458108,-0.000532055744545635,0.0009807934563601183,0.0,0.0,0.0,0.0,0.0,0.0,0.0,-1.705940189558608e-05,0.00016941483859611584,-7.2579499075201e-05,1.1362093681466234e-05,2.1464557064532208e-05,6.192519246273065e-06,-6.103516289601707e-06,-0.0005762339828786931,0.0001012737410412197,-0.0008698484170277608,-0.0005760113190101529,-0.00016628767128458108,0.000532055744545635,-0.0009807934563601183,0.24825400114059448,11.675561904907227,-1.0410492420196533,-21.717256546020508,-0.4864402413368225,-2.5399813652038574,0.23471395671367645,0
73,0.3600449562072754,-0.24825400114059448,-11.675561904907227,1.0410492420196533,21.741060256958008,0.5047507882118225,2.5335726737976074,-0.21457235515117645,0.0,0.0,0.0,0.0,0.0,0.0,0.0,-0.24452026384780154,0.5746250526733563,-0.12399691278910988,0.46571943579612357,-0.041203573918877794,0.12949032525935344,-0.22285883232706682,0.1728971370953137,-0.4876896616701494,-0.11139852025782444,-1.9463930213260532,0.1335824028452237,2.595544879330529,0.9452484245217508,0.1728802376190821,-0.48752024683155326,-0.11147110072896137,-1.9463801863486305,0.1336059019074957,2.595550359778934,0.9452445589611904,-0.0003762294631352772,-0.0002254647037485359,0.0003453938787726648,0.0004785807222914326,-0.00045450868806162645,-0.00027376628860398126,-0.000297959476343596,0.0,0.0,0.0,0.0,0.0,0.0,0.0,-1.68994762315966e-05,0.00016941483859611584,-7.258047113692379e-05,1.2834977422659932e-05,2.3499062271975513e-05,5.480448404870941e-06,-3.865560560423198e-06,0.0003762294631352772,0.0002254647037485359,-0.0003453938787726648,-0.0004785807222914326,0.00045450868806162645,0.00027376628860398126,0.000297959476343596,0.24825400114059448,11.675561904907227,-1.0410492420196533,-21.741060256958008,-0.5047507882118225,-2.5335726737976074,0.21457235515117645,0
74,0.3650381565093994,-0.24825400114059448,-11.675561904907227,1.0410492420196533,21.741060256958008,0.5047507882118225,2.5335726737976074,-0.21457235515117645,0.0,0.0,0.0,0.0,0.0,0.0,0.0,-0.24452026384780154,0.5746250526733563,-0.12399691278910988,0.46571943579612357,-0.041203573918877794,0.12949032525935344,-0.22285883232706682,0.1728971370953137,-0.4876896616701494,-0.11139852025782444,-1.9463930213260532,0.1335824028452237,2.595544879330529,0.9452484245217508,0.1728802376190821,-0.48752024683155326,-0.11147110072896137,-1.9463801863486305,0.1336059019074957,2.595550359778934,0.9452445589611904,-0.0003762294631352772,-0.0002254647037485359,0.0003453938787726648,0.0004785807222914326,-0.00045450868806162645,-0.00027376628860398126,-0.000297959476343596,0.0,0.0,0.0,0.0,0.0,0.0,0.0,-1.68994762315966e-05,0.00016941483859611584,-7.258047113692379e-05,1.2834977422659932e-05,2.3499062271975513e-05,5.480448404870941e-06,-3.865560560423198e-06,0.0003762294631352772,0.0002254647037485359,-0.0003453938787726648,-0.0004785807222914326,0.00045450868806162645,0.00027376628860398126,0.000297959476343596,0.24825400114059448,11.675561904907227,-1.0410492420196533,-21.741060256958008,-0.5047507882118225,-2.5335726737976074,0.21457235515117645,0
75,0.37005043029785156,-0.22445029020309448,-11.699365615844727,1.0688202381134033,21.741060256958008,0.4864402413368225,2.5271639823913574,-0.24112264811992645,0.0,0.0,0.0,0.0,0.0,0.0,0.0,-0.24284037000583306,0.5780583173750049,-0.12367793390027859,0.46977297221804715,-0.04109788636574273,0.12977153963586183,-0.22444214488723943,0.17289753687749354,-0.4876879912342941,-0.11140047007171183,-1.9463929417794006,0.13358443735043204,2.595545591407352,0.945251374554303,0.1728802376190821,-0.48752024683155326,-0.11147110072896137,-1.9463801863486305,0.1336059019074957,2.595550359778934,0.9452445589611904,-0.00048122632623114964,-0.0006906369776209908,-0.0005294757246467838,0.00015626912833740432,0.00030475401852478567,6.216305761305985e-05,0.0008081953464819025,0.0,0.0,0.0,0.0,0.0,0.0,0.0,-1.729925841142954e-05,0.00016774440274086588,-7.063065724953466e-05,1.2755430770061693e-05,2.146455706364403e-05,4.76837158203125e-06,-6.8155931125524205e-06,0.00048122632623114964,0.0006906369776209908,0.0005294757246467838,-0.00015626912833740432,-0.00030475401852478567,-6.216305761305985e-05,-0.0008081953464819025,0.22445029020309448,11.699365615844727,-1.0688202381134033,-21.741060256958008,-0.4864402413368225,-2.5271639823913574,0.24112264811992645,0
76,0.37499260902404785,-0.22445029020309448,-11.699365615844727,1.0688202381134033,21.741060256958008,0.4864402413368225,2.5271639823913574,-0.24112264811992645,0.0,0.0,0.0,0.0,0.0,0.0,0.0,-0.24284037000583306,0.5780583173750049,-0.12367793390027859,0.46977297221804715,-0.04109788636574273,0.12977153963586183,-0.22444214488723943,0.17289753687749354,-0.4876879912342941,-0.11140047007171183,-1.9463929417794006,0.13358443735043204,2.595545591407352,0.945251374554303,0.1728802376190821,-0.48752024683155326,-0.11147110072896137,-1.9463801863486305,0.1336059019074957,2.595550359778934,0.9452445589611904,-0.00048122632623114964,-0.0006906369776209908,-0.0005294757246467838,0.00015626912833740432,0.00030475401852478567,6.216305761305985e-05,0.0008081953464819025,0.0,0.0,0.0,0.0,0.0,0.0,0.0,-1.729925841142954e-05,0.00016774440274086588,-7.063065724953466e-05,1.2755430770061693e-05,2.146455706364403e-05,4.76837158203125e-06,-6.8155931125524205e-06,0.00048122632623114964,0.0006906369776209908,0.0005294757246467838,-0.00015626912833740432,-0.00030475401852478567,-6.216305761305985e-05,-0.0008081953464819025,0.22445029020309448,11.699365615844727,-1.0688202381134033,-21.741060256958008,-0.4864402413368225,-2.5271639823913574,0.24112264811992645,0
77,0.38002562522888184,-0.24825400114059448,-11.750940322875977,1.0688202381134033,21.741060256958008,0.4928489327430725,2.5271639823913574,-0.18710653483867645,0.0,0.0,0.0,0.0,0.0,0.0,0.0,-0.24408684525954175,0.5888104227937325,-0.13017722414117397,0.4657422298882885,-0.040970041385890624,0.12937340151978288,-0.22534348071005592,0.17289705763323765,-0.4876843719566077,-0.11140047007171731,-1.9463936574344152,0.13358372089933138,2.595545591407352,0.9452453727639384,0.1728802376190821,-0.48752024683155326,-0.11147110072896137,-1.9463801863486305,0.1336059019074957,2.595550359778934,0.9452445589611904,-0.00045030863300919916,0.0006406110726372467,-0.0005534171333275439,0.0002861847239404869,-8.872585045017221e-05,-7.474707633460321e-05,-0.0010173335025412563,0.0,0.0,0.0,0.0,0.0,0.0,0.0,-1.6820014155538576e-05,0.00016412512505442622,-7.063065724405293e-05,1.3471085784644288e-05,2.2181008164312566e-05,4.76837158203125e-06,-8.138027479676069e-07,0.00045030863300919916,-0.0006406110726372467,0.0005534171333275439,-0.0002861847239404869,8.872585045017221e-05,7.474707633460321e-05,0.0010173335025412563,0.24825400114059448,11.750940322875977,-1.0688202381134033,-21.741060256958008,-0.4928489327430725,-2.5271639823913574,0.18710653483867645,0
78,0.3850257396697998,-0.24825400114059448,-11.750940322875977,1.0688202381134033,21.741060256958008,0.4928489327430725,2.5271639823913574,-0.18710653483867645,0.0,0.0,0.0,0.0,0.0,0.0,0.0,-0.24408684525954175,0.5888104227937325,-0.13017722414117397,0.4657422298882885,-0.040970041385890624,0.12937340151978288,-0.22534348071005592,0.17289705763323765,-0.4876843719566077,-0.11140047007171731,-1.9463936574344152,0.13358372089933138,2.595545591407352,0.9452453727639384,0.1728802376190821,-0.48752024683155326,-0.11147110072896137,-1.9463801863486305,0.1336059019074957,2.595550359778934,0.9452445589611904,-0.00045030863300919916,0.0006406110726372467,-0.0005534171333275439,0.0002861847239404869,-8.872585045017221e-05,-7.474707633460321e-05,-0.0010173335025412563,0.0,0.0,0.0,0.0,0.0,0.0,0.0,-1.6820014155538576e-05,0.00016412512505442622,-7.063065724405293e-05,1.3471085784644288e-05,2.2181008164312566e-05,4.76837158203125e-06,-8.138027479676069e-07,0.00045030863300919916,-0.0006406110726372467,0.0005534171333275439,-0.0002861847239404869,8.872585045017221e-05,7.474707633460321e-05,0.0010173335025412563,0.24825400114059448,11.750940322875977,-1.0688202381134033,-21.741060256958008,-0.4928489327430725,-2.5271639823913574,0.18710653483867645,0
79,0.39003491401672363,-0.2720577120780945,-11.774744033813477,1.0410492420196533,21.741060256958008,0.4928489327430725,2.5271639823913574,-0.20083944499492645,0.0,0.0,0.0,0.0,0.0,0.0,0.0,-0.24461740054077843,0.5931937947751709,-0.13073045284991539,0.4616053676384748,-0.041479781316916355,0.1279952146744078,-0.2244245295563649,0.1728987280569579,-0.48768270152075244,-0.11139852122988617,-1.9463953524597357,0.13358372527358445,2.595545591407352,0.9452468986428446,0.1728802376190821,-0.48752024683155326,-0.11147110072896137,-1.9463801863486305,0.1336059019074957,2.595550359778934,0.9452445589611904,4.513420906320468e-05,0.0010070442993288537,0.00035491033066991945,0.00017135454561056554,0.00012989281757168792,-0.00014888136328921003,-0.0004702150366375708,0.0,0.0,0.0,0.0,0.0,0.0,0.0,-1.849043787580107e-05,0.00016245468919917627,-7.2579499075201e-05,1.5166111105191504e-05,2.2176633911241694e-05,4.76837158203125e-06,-2.3396816541954024e-06,-4.513420906320468e-05,-0.0010070442993288537,-0.00035491033066991945,-0.00017135454561056554,-0.00012989281757168792,0.00014888136328921003,0.0004702150366375708,0.2720577120780945,11.774744033813477,-1.0410492420196533,-21.741060256958008,-0.4928489327430725,-2.5271639823913574,0.20083944499492645,0
