rezayati/contactInterpretation/dataset/franka_main/labeled_data/link5/c12_8.csv
index,time,tau_J0,tau_J1,tau_J2,tau_J3,tau_J4,tau_J5,tau_J6,tau_J_d0,tau_J_d1,tau_J_d2,tau_J_d3,tau_J_d4,tau_J_d5,tau_J_d6,tau_ext0,tau_ext1,tau_ext2,tau_ext3,tau_ext4,tau_ext5,tau_ext6,q0,q1,q2,q3,q4,q5,q6,q_d0,q_d1,q_d2,q_d3,q_d4,q_d5,q_d6,dq0,dq1,dq2,dq3,dq4,dq5,dq6,dq_d0,dq_d1,dq_d2,dq_d3,dq_d4,dq_d5,dq_d6,e0,e1,e2,e3,e4,e5,e6,de0,de1,de2,de3,de4,de5,de6,etau_J0,etau_J1,etau_J2,etau_J3,etau_J4,etau_J5,etau_J6,label
1,0.0,-0.4267818331718445,-22.720483779907227,-0.1253325641155243,14.032625198364258,-0.04914325475692749,2.1453890800476074,-0.40591758489608765,0.0,0.0,0.0,0.0,0.0,0.0,0.0,-0.4433128549109203,0.08923328076262063,-0.2078578750727793,0.1938787906219341,-0.27811488643196247,-0.042484167924467076,-0.40995284213697164,1.6756608855187454,0.05207410890648259,0.029992795388389573,-2.75223133891598,0.034343907154062665,2.766329568915897,0.7691963855829044,1.6754973547542302,0.052104326824870026,0.029969505109285054,-2.752394845125968,0.0342448039870148,2.7663679543071322,0.7691630533470046,0.0002663144302525556,0.0003377085458753701,0.0007953751931998659,0.0007944732378607124,0.00013784540403439537,-9.42839733028e-06,-0.00010294045375646189,0.0,0.0,0.0,0.0,0.0,0.0,0.0,-0.0001635307645151407,3.0217918387434595e-05,-2.3290279104519473e-05,-0.00016350620998828447,-9.910316704786482e-05,3.838539123535156e-05,-3.3332235899741214e-05,-0.0002663144302525556,-0.0003377085458753701,-0.0007953751931998659,-0.0007944732378607124,-0.00013784540403439537,9.42839733028e-06,0.00010294045375646189,0.4267818331718445,22.720483779907227,0.1253325641155243,-14.032625198364258,0.04914325475692749,-2.1453890800476074,0.40591758489608765,0
2,0.005003690719604492,-0.4267818331718445,-22.720483779907227,-0.1253325641155243,14.032625198364258,-0.04914325475692749,2.1453890800476074,-0.40591758489608765,0.0,0.0,0.0,0.0,0.0,0.0,0.0,-0.4433128549109203,0.08923328076262063,-0.2078578750727793,0.1938787906219341,-0.27811488643196247,-0.042484167924467076,-0.40995284213697164,1.6756608855187454,0.05207410890648259,0.029992795388389573,-2.75223133891598,0.034343907154062665,2.766329568915897,0.7691963855829044,1.6754973547542302,0.052104326824870026,0.029969505109285054,-2.752394845125968,0.0342448039870148,2.7663679543071322,0.7691630533470046,0.0002663144302525556,0.0003377085458753701,0.0007953751931998659,0.0007944732378607124,0.00013784540403439537,-9.42839733028e-06,-0.00010294045375646189,0.0,0.0,0.0,0.0,0.0,0.0,0.0,-0.0001635307645151407,3.0217918387434595e-05,-2.3290279104519473e-05,-0.00016350620998828447,-9.910316704786482e-05,3.838539123535156e-05,-3.3332235899741214e-05,-0.0002663144302525556,-0.0003377085458753701,-0.0007953751931998659,-0.0007944732378607124,-0.00013784540403439537,9.42839733028e-06,0.00010294045375646189,0.4267818331718445,22.720483779907227,0.1253325641155243,-14.032625198364258,0.04914325475692749,-2.1453890800476074,0.40591758489608765,0
3,0.01001596450805664,-0.4505855441093445,-22.696680068969727,-0.09756157547235489,14.080232620239258,-0.04273456335067749,2.1453890800476074,-0.41324180364608765,0.0,0.0,0.0,0.0,0.0,0.0,0.0,-0.43802073101018696,0.08690807584956702,-0.20054321210278875,0.19545189965795823,-0.2779726409410567,-0.0414182693793475,-0.4087135144425584,1.6756596989812302,0.052070310100118054,0.029992712597648078,-2.7522349075788597,0.03434674032990796,2.766329568915897,0.7691982154166344,1.6754973547542302,0.052104326824870026,0.029969505109285054,-2.752394845125968,0.0342448039870148,2.7663679543071322,0.7691630533470046,0.0005964904691404286,-0.0006333191161647558,0.000665399055445077,-0.0004125565910543559,-9.783523290353523e-05,-1.188268710198499e-05,0.0002468801817116017,0.0,0.0,0.0,0.0,0.0,0.0,0.0,-0.00016234422700001083,3.401672475197154e-05,-2.3207488363024414e-05,-0.00015993754710841301,-0.00010193634289316217,3.838539123535156e-05,-3.51620696297239e-05,-0.0005964904691404286,0.0006333191161647558,-0.000665399055445077,0.0004125565910543559,9.783523290353523e-05,1.188268710198499e-05,-0.0002468801817116017,0.4505855441093445,22.696680068969727,0.09756157547235489,-14.080232620239258,0.04273456335067749,-2.1453890800476074,0.41324180364608765,0
4,0.014995574951171875,-0.4505855441093445,-22.696680068969727,-0.09756157547235489,14.080232620239258,-0.04273456335067749,2.1453890800476074,-0.41324180364608765,0.0,0.0,0.0,0.0,0.0,0.0,0.0,-0.43802073101018696,0.08690807584956702,-0.20054321210278875,0.19545189965795823,-0.2779726409410567,-0.0414182693793475,-0.4087135144425584,1.6756596989812302,0.052070310100118054,0.029992712597648078,-2.7522349075788597,0.03434674032990796,2.766329568915897,0.7691982154166344,1.6754973547542302,0.052104326824870026,0.029969505109285054,-2.752394845125968,0.0342448039870148,2.7663679543071322,0.7691630533470046,0.0005964904691404286,-0.0006333191161647558,0.000665399055445077,-0.0004125565910543559,-9.783523290353523e-05,-1.188268710198499e-05,0.0002468801817116017,0.0,0.0,0.0,0.0,0.0,0.0,0.0,-0.00016234422700001083,3.401672475197154e-05,-2.3207488363024414e-05,-0.00015993754710841301,-0.00010193634289316217,3.838539123535156e-05,-3.51620696297239e-05,-0.0005964904691404286,0.0006333191161647558,-0.000665399055445077,0.0004125565910543559,9.783523290353523e-05,1.188268710198499e-05,-0.0002468801817116017,0.4505855441093445,22.696680068969727,0.09756157547235489,-14.080232620239258,0.04273456335067749,-2.1453890800476074,0.41324180364608765,0
5,0.019995450973510742,-0.4029781222343445,-22.748254776000977,-0.1491362750530243,14.108003616333008,-0.04914325475692749,2.1517977714538574,-0.41965049505233765,0.0,0.0,0.0,0.0,0.0,0.0,0.0,-0.4372714191307727,0.09097566613769868,-0.19442734470402756,0.19315532163975774,-0.2780234120797914,-0.04103493868185355,-0.40702552860832797,1.6756571439918166,0.052074008194772245,0.02999587713406147,-2.752238364987879,0.03434745875983605,2.766328856839074,0.7691953995707479,1.6754973547542302,0.052104326824870026,0.029969505109285054,-2.752394845125968,0.0342448039870148,2.7663679543071322,0.7691630533470046,-0.0004855051470922933,0.0010963751725075101,0.0014152804053943018,-0.0008579029389574122,-3.120346727141674e-05,-0.00010724248931905312,0.0011767480709670107,0.0,0.0,0.0,0.0,0.0,0.0,0.0,-0.00015978923758641628,3.0318630097780908e-05,-2.637202477641723e-05,-0.00015648013808888805,-0.00010265477282125207,3.9097468058191254e-05,-3.234622374326257e-05,0.0004855051470922933,-0.0010963751725075101,-0.0014152804053943018,0.0008579029389574122,3.120346727141674e-05,0.00010724248931905312,-0.0011767480709670107,0.4029781222343445,22.748254776000977,0.1491362750530243,-14.108003616333008,0.04914325475692749,-2.1517977714538574,0.41965049505233765,0
6,0.024995803833007812,-0.4029781222343445,-22.748254776000977,-0.1491362750530243,14.108003616333008,-0.04914325475692749,2.1517977714538574,-0.41965049505233765,0.0,0.0,0.0,0.0,0.0,0.0,0.0,-0.4372714191307727,0.09097566613769868,-0.19442734470402756,0.19315532163975774,-0.2780234120797914,-0.04103493868185355,-0.40702552860832797,1.6756571439918166,0.052074008194772245,0.02999587713406147,-2.752238364987879,0.03434745875983605,2.766328856839074,0.7691953995707479,1.6754973547542302,0.052104326824870026,0.029969505109285054,-2.752394845125968,0.0342448039870148,2.7663679543071322,0.7691630533470046,-0.0004855051470922933,0.0010963751725075101,0.0014152804053943018,-0.0008579029389574122,-3.120346727141674e-05,-0.00010724248931905312,0.0011767480709670107,0.0,0.0,0.0,0.0,0.0,0.0,0.0,-0.00015978923758641628,3.0318630097780908e-05,-2.637202477641723e-05,-0.00015648013808888805,-0.00010265477282125207,3.9097468058191254e-05,-3.234622374326257e-05,0.0004855051470922933,-0.0010963751725075101,-0.0014152804053943018,0.0008579029389574122,3.120346727141674e-05,0.00010724248931905312,-0.0011767480709670107,0.4029781222343445,22.748254776000977,0.1491362750530243,-14.108003616333008,0.04914325475692749,-2.1517977714538574,0.41965049505233765,0
7,0.02999281883239746,-0.3752071261405945,-22.720483779907227,-0.09756157547235489,14.032625198364258,-0.04273456335067749,2.1389803886413574,-0.42605918645858765,0.0,0.0,0.0,0.0,0.0,0.0,0.0,-0.43308533227422397,0.08997298098495186,-0.19210639483745343,0.19036968679903024,-0.27907538271830357,-0.04056688509419947,-0.40494151460848815,1.6756572578510918,0.052071980524403524,0.029990055164574734,-2.752233069655604,0.03434674662899112,2.76633028535337,0.7691954446100905,1.6754973547542302,0.052104326824870026,0.029969505109285054,-2.752394845125968,0.0342448039870148,2.7663679543071322,0.7691630533470046,-0.001273048725799694,0.00010045905683918936,-0.00027525950232069863,0.0003982791450464885,-0.00024802847856513583,0.0002901558616784342,0.0012015441514710526,0.0,0.0,0.0,0.0,0.0,0.0,0.0,-0.0001599030968615356,3.234630046650144e-05,-2.0550055289680208e-05,-0.00016177547036422268,-0.00010194264197632003,3.766895376200452e-05,-3.2391263085851385e-05,0.001273048725799694,-0.00010045905683918936,0.00027525950232069863,-0.0003982791450464885,0.00024802847856513583,-0.0002901558616784342,-0.0012015441514710526,0.3752071261405945,22.720483779907227,0.09756157547235489,-14.032625198364258,0.04273456335067749,-2.1389803886413574,0.42605918645858765,0
8,0.03499412536621094,-0.3752071261405945,-22.720483779907227,-0.09756157547235489,14.032625198364258,-0.04273456335067749,2.1389803886413574,-0.42605918645858765,0.0,0.0,0.0,0.0,0.0,0.0,0.0,-0.43308533227422397,0.08997298098495186,-0.19210639483745343,0.19036968679903024,-0.27907538271830357,-0.04056688509419947,-0.40494151460848815,1.6756572578510918,0.052071980524403524,0.029990055164574734,-2.752233069655604,0.03434674662899112,2.76633028535337,0.7691954446100905,1.6754973547542302,0.052104326824870026,0.029969505109285054,-2.752394845125968,0.0342448039870148,2.7663679543071322,0.7691630533470046,-0.001273048725799694,0.00010045905683918936,-0.00027525950232069863,0.0003982791450464885,-0.00024802847856513583,0.0002901558616784342,0.0012015441514710526,0.0,0.0,0.0,0.0,0.0,0.0,0.0,-0.0001599030968615356,3.234630046650144e-05,-2.0550055289680208e-05,-0.00016177547036422268,-0.00010194264197632003,3.766895376200452e-05,-3.2391263085851385e-05,0.001273048725799694,-0.00010045905683918936,0.00027525950232069863,-0.0003982791450464885,0.00024802847856513583,-0.0002901558616784342,-0.0012015441514710526,0.3752071261405945,22.720483779907227,0.09756157547235489,-14.032625198364258,0.04273456335067749,-2.1389803886413574,0.42605918645858765,0
9,0.040207624435424805,-0.3752071261405945,-22.720483779907227,-0.09756157547235489,14.032625198364258,-0.04273456335067749,2.1389803886413574,-0.42605918645858765,0.0,0.0,0.0,0.0,0.0,0.0,0.0,-0.43308533227422397,0.08997298098495186,-0.19210639483745343,0.19036968679903024,-0.27907538271830357,-0.04056688509419947,-0.40494151460848815,1.6756572578510918,0.052071980524403524,0.029990055164574734,-2.752233069655604,0.03434674662899112,2.76633028535337,0.7691954446100905,1.6754973547542302,0.052104326824870026,0.029969505109285054,-2.752394845125968,0.0342448039870148,2.7663679543071322,0.7691630533470046,-0.001273048725799694,0.00010045905683918936,-0.00027525950232069863,0.0003982791450464885,-0.00024802847856513583,0.0002901558616784342,0.0012015441514710526,0.0,0.0,0.0,0.0,0.0,0.0,0.0,-0.0001599030968615356,3.234630046650144e-05,-2.0550055289680208e-05,-0.00016177547036422268,-0.00010194264197632003,3.766895376200452e-05,-3.2391263085851385e-05,0.001273048725799694,-0.00010045905683918936,0.00027525950232069863,-0.0003982791450464885,0.00024802847856513583,-0.0002901558616784342,-0.0012015441514710526,0.3752071261405945,22.720483779907227,0.09756157547235489,-14.032625198364258,0.04273456335067749,-2.1389803886413574,0.42605918645858765,0
10,0.04499459266662598,-0.3752071261405945,-22.720483779907227,-0.09756157547235489,14.032625198364258,-0.04273456335067749,2.1389803886413574,-0.42605918645858765,0.0,0.0,0.0,0.0,0.0,0.0,0.0,-0.43308533227422397,0.08997298098495186,-0.19210639483745343,0.19036968679903024,-0.27907538271830357,-0.04056688509419947,-0.40494151460848815,1.6756572578510918,0.052071980524403524,0.029990055164574734,-2.752233069655604,0.03434674662899112,2.76633028535337,0.7691954446100905,1.6754973547542302,0.052104326824870026,0.029969505109285054,-2.752394845125968,0.0342448039870148,2.7663679543071322,0.7691630533470046,-0.001273048725799694,0.00010045905683918936,-0.00027525950232069863,0.0003982791450464885,-0.00024802847856513583,0.0002901558616784342,0.0012015441514710526,0.0,0.0,0.0,0.0,0.0,0.0,0.0,-0.0001599030968615356,3.234630046650144e-05,-2.0550055289680208e-05,-0.00016177547036422268,-0.00010194264197632003,3.766895376200452e-05,-3.2391263085851385e-05,0.001273048725799694,-0.00010045905683918936,0.00027525950232069863,-0.0003982791450464885,0.00024802847856513583,-0.0002901558616784342,-0.0012015441514710526,0.3752071261405945,22.720483779907227,0.09756157547235489,-14.032625198364258,0.04273456335067749,-2.1389803886413574,0.42605918645858765,0
11,0.049996376037597656,-0.4505855441093445,-22.720483779907227,-0.1491362750530243,14.032625198364258,-0.04273456335067749,2.1389803886413574,-0.39218467473983765,0.0,0.0,0.0,0.0,0.0,0.0,0.0,-0.43164940186561696,0.09319796808423808,-0.19433524137257213,0.18893479768390825,-0.27977067968701597,-0.04041063679364579,-0.40389543540371964,1.675660413257118,0.05207222868927339,0.029996557674625002,-2.752233728649628,0.03434208985902853,2.7663302809927277,0.7691959144232104,1.6754973547542302,0.052104326824870026,0.029969505109285054,-2.752394845125968,0.0342448039870148,2.7663679543071322,0.7691630533470046,0.00014275167768008882,0.0007506239231904341,0.000831299982955584,0.0006406356577793329,-0.00026334874394428443,0.00030183086293584225,-0.00025894038259225387,0.0,0.0,0.0,0.0,0.0,0.0,0.0,-0.00016305850288778068,3.209813559663932e-05,-2.7052565339948098e-05,-0.00016111647633998416,-9.728587201372763e-05,3.7673314404518266e-05,-3.286107620581458e-05,-0.00014275167768008882,-0.0007506239231904341,-0.000831299982955584,-0.0006406356577793329,0.00026334874394428443,-0.00030183086293584225,0.00025894038259225387,0.4505855441093445,22.720483779907227,0.1491362750530243,-14.032625198364258,0.04273456335067749,-2.1389803886413574,0.39218467473983765,0
12,0.05500602722167969,-0.4505855441093445,-22.720483779907227,-0.1491362750530243,14.032625198364258,-0.04273456335067749,2.1389803886413574,-0.39218467473983765,0.0,0.0,0.0,0.0,0.0,0.0,0.0,-0.43164940186561696,0.09319796808423808,-0.19433524137257213,0.18893479768390825,-0.27977067968701597,-0.04041063679364579,-0.40389543540371964,1.675660413257118,0.05207222868927339,0.029996557674625002,-2.752233728649628,0.03434208985902853,2.7663302809927277,0.7691959144232104,1.6754973547542302,0.052104326824870026,0.029969505109285054,-2.752394845125968,0.0342448039870148,2.7663679543071322,0.7691630533470046,0.00014275167768008882,0.0007506239231904341,0.000831299982955584,0.0006406356577793329,-0.00026334874394428443,0.00030183086293584225,-0.00025894038259225387,0.0,0.0,0.0,0.0,0.0,0.0,0.0,-0.00016305850288778068,3.209813559663932e-05,-2.7052565339948098e-05,-0.00016111647633998416,-9.728587201372763e-05,3.7673314404518266e-05,-3.286107620581458e-05,-0.00014275167768008882,-0.0007506239231904341,-0.000831299982955584,-0.0006406356577793329,0.00026334874394428443,-0.00030183086293584225,0.00025894038259225387,0.4505855441093445,22.720483779907227,0.1491362750530243,-14.032625198364258,0.04273456335067749,-2.1389803886413574,0.39218467473983765,0
13,0.0599980354309082,-0.4505855441093445,-22.672876358032227,-0.1253325641155243,14.080232620239258,-0.04914325475692749,2.1389803886413574,-0.41324180364608765,0.0,0.0,0.0,0.0,0.0,0.0,0.0,-0.4364760285166333,0.09104455880975691,-0.1982244909970592,0.19097219814171656,-0.2803906052992356,-0.04004805399090723,-0.40421309252465215,1.6756625736163808,0.052069349113556256,0.0299948464662785,-2.7522346855171356,0.034346353695284416,2.7663302809927197,0.7691982148842549,1.6754973547542302,0.052104326824870026,0.029969505109285054,-2.752394845125968,0.0342448039870148,2.7663679543071322,0.7691630533470046,-0.0003534958147151329,-0.0009594550376765843,4.683672325784235e-05,-0.0004040047200404908,0.00013316466531613662,0.0002582388260046384,0.0005900355829621455,0.0,0.0,0.0,0.0,0.0,0.0,0.0,-0.00016521886215059567,3.497771131377031e-05,-2.5341356993446862e-05,-0.000160159608832533,-0.00010154970826961596,3.767331441251187e-05,-3.516153725025006e-05,0.0003534958147151329,0.0009594550376765843,-4.683672325784235e-05,0.0004040047200404908,-0.00013316466531613662,-0.0002582388260046384,-0.0005900355829621455,0.4505855441093445,22.672876358032227,0.1253325641155243,-14.080232620239258,0.04914325475692749,-2.1389803886413574,0.41324180364608765,0
14,0.06501173973083496,-0.4505855441093445,-22.672876358032227,-0.1253325641155243,14.080232620239258,-0.04914325475692749,2.1389803886413574,-0.41324180364608765,0.0,0.0,0.0,0.0,0.0,0.0,0.0,-0.4364760285166333,0.09104455880975691,-0.1982244909970592,0.19097219814171656,-0.2803906052992356,-0.04004805399090723,-0.40421309252465215,1.6756625736163808,0.052069349113556256,0.0299948464662785,-2.7522346855171356,0.034346353695284416,2.7663302809927197,0.7691982148842549,1.6754973547542302,0.052104326824870026,0.029969505109285054,-2.752394845125968,0.0342448039870148,2.7663679543071322,0.7691630533470046,-0.0003534958147151329,-0.0009594550376765843,4.683672325784235e-05,-0.0004040047200404908,0.00013316466531613662,0.0002582388260046384,0.0005900355829621455,0.0,0.0,0.0,0.0,0.0,0.0,0.0,-0.00016521886215059567,3.497771131377031e-05,-2.5341356993446862e-05,-0.000160159608832533,-0.00010154970826961596,3.767331441251187e-05,-3.516153725025006e-05,0.0003534958147151329,0.0009594550376765843,-4.683672325784235e-05,0.0004040047200404908,-0.00013316466531613662,-0.0002582388260046384,-0.0005900355829621455,0.4505855441093445,22.672876358032227,0.1253325641155243,-14.080232620239258,0.04914325475692749,-2.1389803886413574,0.41324180364608765,0
15,0.07000255584716797,-0.4505855441093445,-22.720483779907227,-0.1491362750530243,14.080232620239258,-0.04914325475692749,2.1389803886413574,-0.37845176458358765,0.0,0.0,0.0,0.0,0.0,0.0,0.0,-0.44580396683911455,0.09527110844521561,-0.2053870564665352,0.1901887662653802,-0.2800365650194164,-0.04064106556032924,-0.40487359212730195,1.675659924572328,0.052071980852362566,0.029996595740668437,-2.7522349356916305,0.034344244916637255,2.7663302809927197,0.7691943933074727,1.6754973547542302,0.052104326824870026,0.029969505109285054,-2.752394845125968,0.0342448039870148,2.7663679543071322,0.7691630533470046,-0.00035723537083902774,0.0005662386115560816,-0.0002432340817388924,-0.00021649857304540583,0.00014364318533792295,0.0002534848265349023,-0.0010571509518007395,0.0,0.0,0.0,0.0,0.0,0.0,0.0,-0.000162569818097813,3.2345972507459575e-05,-2.7090631383383523e-05,-0.00015990943433763505,-9.944092962245465e-05,3.767331441251187e-05,-3.133996046811305e-05,0.00035723537083902774,-0.0005662386115560816,0.0002432340817388924,0.00021649857304540583,-0.00014364318533792295,-0.0002534848265349023,0.0010571509518007395,0.4505855441093445,22.720483779907227,0.1491362750530243,-14.080232620239258,0.04914325475692749,-2.1389803886413574,0.37845176458358765,0
16,0.0749974250793457,-0.4505855441093445,-22.720483779907227,-0.1491362750530243,14.080232620239258,-0.04914325475692749,2.1389803886413574,-0.37845176458358765,0.0,0.0,0.0,0.0,0.0,0.0,0.0,-0.44580396683911455,0.09527110844521561,-0.2053870564665352,0.1901887662653802,-0.2800365650194164,-0.04064106556032924,-0.40487359212730195,1.675659924572328,0.052071980852362566,0.029996595740668437,-2.7522349356916305,0.034344244916637255,2.7663302809927197,0.7691943933074727,1.6754973547542302,0.052104326824870026,0.029969505109285054,-2.752394845125968,0.0342448039870148,2.7663679543071322,0.7691630533470046,-0.00035723537083902774,0.0005662386115560816,-0.0002432340817388924,-0.00021649857304540583,0.00014364318533792295,0.0002534848265349023,-0.0010571509518007395,0.0,0.0,0.0,0.0,0.0,0.0,0.0,-0.000162569818097813,3.2345972507459575e-05,-2.7090631383383523e-05,-0.00015990943433763505,-9.944092962245465e-05,3.767331441251187e-05,-3.133996046811305e-05,0.00035723537083902774,-0.0005662386115560816,0.0002432340817388924,0.00021649857304540583,-0.00014364318533792295,-0.0002534848265349023,0.0010571509518007395,0.4505855441093445,22.720483779907227,0.1491362750530243,-14.080232620239258,0.04914325475692749,-2.1389803886413574,0.37845176458358765,0
17,0.07999420166015625,-0.5021602511405945,-22.720483779907227,-0.1491362750530243,14.056428909301758,-0.04914325475692749,2.1517977714538574,-0.39218467473983765,0.0,0.0,0.0,0.0,0.0,0.0,0.0,-0.4445910253088397,0.08644172028992887,-0.2027972924871413,0.19522430591267007,-0.28064995558852235,-0.0397263587119946,-0.40493087216265256,1.6756664078741266,0.05207198928273621,0.029995884604062953,-2.752235450966076,0.03434745874180141,2.766328856839074,0.7691948597100036,1.6754973547542302,0.052104326824870026,0.029969505109285054,-2.752394845125968,0.0342448039870148,2.7663679543071322,0.7691630533470046,0.0007862766098013886,-0.0004709952250035146,0.0007118429200867213,0.0003142864597197175,0.00016020602673661791,-9.242464997141181e-05,-0.0009215001847545542,0.0,0.0,0.0,0.0,0.0,0.0,0.0,-0.0001690531198963452,3.233754213381734e-05,-2.6379494777899193e-05,-0.000159394159892301,-0.00010265475478660885,3.9097468058191254e-05,-3.18063629989318e-05,-0.0007862766098013886,0.0004709952250035146,-0.0007118429200867213,-0.0003142864597197175,-0.00016020602673661791,9.242464997141181e-05,0.0009215001847545542,0.5021602511405945,22.720483779907227,0.1491362750530243,-14.056428909301758,0.04914325475692749,-2.1517977714538574,0.39218467473983765,0
18,0.08499455451965332,-0.5021602511405945,-22.720483779907227,-0.1491362750530243,14.056428909301758,-0.04914325475692749,2.1517977714538574,-0.39218467473983765,0.0,0.0,0.0,0.0,0.0,0.0,0.0,-0.4445910253088397,0.08644172028992887,-0.2027972924871413,0.19522430591267007,-0.28064995558852235,-0.0397263587119946,-0.40493087216265256,1.6756664078741266,0.05207198928273621,0.029995884604062953,-2.752235450966076,0.03434745874180141,2.766328856839074,0.7691948597100036,1.6754973547542302,0.052104326824870026,0.029969505109285054,-2.752394845125968,0.0342448039870148,2.7663679543071322,0.7691630533470046,0.0007862766098013886,-0.0004709952250035146,0.0007118429200867213,0.0003142864597197175,0.00016020602673661791,-9.242464997141181e-05,-0.0009215001847545542,0.0,0.0,0.0,0.0,0.0,0.0,0.0,-0.0001690531198963452,3.233754213381734e-05,-2.6379494777899193e-05,-0.000159394159892301,-0.00010265475478660885,3.9097468058191254e-05,-3.18063629989318e-05,-0.0007862766098013886,0.0004709952250035146,-0.0007118429200867213,-0.0003142864597197175,-0.00016020602673661791,9.242464997141181e-05,0.0009215001847545542,0.5021602511405945,22.720483779907227,0.1491362750530243,-14.056428909301758,0.04914325475692749,-2.1517977714538574,0.39218467473983765,0
19,0.08999037742614746,-0.4267818331718445,-22.696680068969727,-0.09756157547235489,14.080232620239258,-0.04914325475692749,2.1453890800476074,-0.38577598333358765,0.0,0.0,0.0,0.0,0.0,0.0,0.0,-0.4474503000701184,0.0908006124406994,-0.20094677419489632,0.19367459160775802,-0.28061724788502496,-0.03985509136569031,-0.4078515652710512,1.6756587407863088,0.052070337337677484,0.029990610246792816,-2.752236062551367,0.034347340324366676,2.766329568915897,0.7691916169962216,1.6754973547542302,0.052104326824870026,0.029969505109285054,-2.752394845125968,0.0342448039870148,2.7663679543071322,0.7691630533470046,-8.408144865808654e-06,-0.0007446974701685342,-0.00040243667441856434,8.270116522372701e-05,7.21009005250367e-05,0.00011859146560327374,-0.0014678398288259084,0.0,0.0,0.0,0.0,0.0,0.0,0.0,-0.00016138603207860314,3.398948719254141e-05,-2.110513750776255e-05,-0.00015878257460100187,-0.0001025363373518759,3.838539123535156e-05,-2.8563649216994946e-05,8.408144865808654e-06,0.0007446974701685342,0.00040243667441856434,-8.270116522372701e-05,-7.21009005250367e-05,-0.00011859146560327374,0.0014678398288259084,0.4267818331718445,22.696680068969727,0.09756157547235489,-14.080232620239258,0.04914325475692749,-2.1453890800476074,0.38577598333358765,0
20,0.09499001502990723,-0.4267818331718445,-22.696680068969727,-0.09756157547235489,14.080232620239258,-0.04914325475692749,2.1453890800476074,-0.38577598333358765,0.0,0.0,0.0,0.0,0.0,0.0,0.0,-0.4474503000701184,0.0908006124406994,-0.20094677419489632,0.19367459160775802,-0.28061724788502496,-0.03985509136569031,-0.4078515652710512,1.6756587407863088,0.052070337337677484,0.029990610246792816,-2.752236062551367,0.034347340324366676,2.766329568915897,0.7691916169962216,1.6754973547542302,0.052104326824870026,0.029969505109285054,-2.752394845125968,0.0342448039870148,2.7663679543071322,0.7691630533470046,-8.408144865808654e-06,-0.0007446974701685342,-0.00040243667441856434,8.270116522372701e-05,7.21009005250367e-05,0.00011859146560327374,-0.0014678398288259084,0.0,0.0,0.0,0.0,0.0,0.0,0.0,-0.00016138603207860314,3.398948719254141e-05,-2.110513750776255e-05,-0.00015878257460100187,-0.0001025363373518759,3.838539123535156e-05,-2.8563649216994946e-05,8.408144865808654e-06,0.0007446974701685342,0.00040243667441856434,-8.270116522372701e-05,-7.21009005250367e-05,-0.00011859146560327374,0.0014678398288259084,0.4267818331718445,22.696680068969727,0.09756157547235489,-14.080232620239258,0.04914325475692749,-2.1453890800476074,0.38577598333358765,0
21,0.10001707077026367,-0.3514034152030945,-22.720483779907227,-0.07375786453485489,14.080232620239258,-0.05463641881942749,2.1453890800476074,-0.41324180364608765,0.0,0.0,0.0,0.0,0.0,0.0,0.0,-0.44339010620689945,0.09264667857208365,-0.19663990539676723,0.19100510828330533,-0.2808398659091953,-0.0401010628773656,-0.41070612713898963,1.6756529647014344,0.05207410901476925,0.029991297178720597,-2.7522341108580908,0.034347595585048525,2.766329568915897,0.7691968054586102,1.6754973547542302,0.052104326824870026,0.029969505109285054,-2.752394845125968,0.0342448039870148,2.7663679543071322,0.7691630533470046,-0.001295463648675778,0.00021304410910097618,-9.766673771232369e-05,-0.000464539021313867,0.0003119159951566488,-0.0001720787796987737,-0.0003825798909792435,0.0,0.0,0.0,0.0,0.0,0.0,0.0,-0.00015560994720420496,3.0217810100777176e-05,-2.1792069435543765e-05,-0.00016073426787732714,-0.00010279159803372462,3.838539123535156e-05,-3.3752111605611645e-05,0.001295463648675778,-0.00021304410910097618,9.766673771232369e-05,0.000464539021313867,-0.0003119159951566488,0.0001720787796987737,0.0003825798909792435,0.3514034152030945,22.720483779907227,0.07375786453485489,-14.080232620239258,0.05463641881942749,-2.1453890800476074,0.41324180364608765,0
22,0.10500621795654297,-0.3514034152030945,-22.720483779907227,-0.07375786453485489,14.080232620239258,-0.05463641881942749,2.1453890800476074,-0.41324180364608765,0.0,0.0,0.0,0.0,0.0,0.0,0.0,-0.44339010620689945,0.09264667857208365,-0.19663990539676723,0.19100510828330533,-0.2808398659091953,-0.0401010628773656,-0.41070612713898963,1.6756529647014344,0.05207410901476925,0.029991297178720597,-2.7522341108580908,0.034347595585048525,2.766329568915897,0.7691968054586102,1.6754973547542302,0.052104326824870026,0.029969505109285054,-2.752394845125968,0.0342448039870148,2.7663679543071322,0.7691630533470046,-0.001295463648675778,0.00021304410910097618,-9.766673771232369e-05,-0.000464539021313867,0.0003119159951566488,-0.0001720787796987737,-0.0003825798909792435,0.0,0.0,0.0,0.0,0.0,0.0,0.0,-0.00015560994720420496,3.0217810100777176e-05,-2.1792069435543765e-05,-0.00016073426787732714,-0.00010279159803372462,3.838539123535156e-05,-3.3752111605611645e-05,0.001295463648675778,-0.00021304410910097618,9.766673771232369e-05,0.000464539021313867,-0.0003119159951566488,0.0001720787796987737,0.0003825798909792435,0.3514034152030945,22.720483779907227,0.07375786453485489,-14.080232620239258,0.05463641881942749,-2.1453890800476074,0.41324180364608765,0
23,0.10999131202697754,-0.3514034152030945,-22.720483779907227,-0.07375786453485489,14.080232620239258,-0.05463641881942749,2.1453890800476074,-0.41324180364608765,0.0,0.0,0.0,0.0,0.0,0.0,0.0,-0.44339010620689945,0.09264667857208365,-0.19663990539676723,0.19100510828330533,-0.2808398659091953,-0.0401010628773656,-0.41070612713898963,1.6756529647014344,0.05207410901476925,0.029991297178720597,-2.7522341108580908,0.034347595585048525,2.766329568915897,0.7691968054586102,1.6754973547542302,0.052104326824870026,0.029969505109285054,-2.752394845125968,0.0342448039870148,2.7663679543071322,0.7691630533470046,-0.001295463648675778,0.00021304410910097618,-9.766673771232369e-05,-0.000464539021313867,0.0003119159951566488,-0.0001720787796987737,-0.0003825798909792435,0.0,0.0,0.0,0.0,0.0,0.0,0.0,-0.00015560994720420496,3.0217810100777176e-05,-2.1792069435543765e-05,-0.00016073426787732714,-0.00010279159803372462,3.838539123535156e-05,-3.3752111605611645e-05,0.001295463648675778,-0.00021304410910097618,9.766673771232369e-05,0.000464539021313867,-0.0003119159951566488,0.0001720787796987737,0.0003825798909792435,0.3514034152030945,22.720483779907227,0.07375786453485489,-14.080232620239258,0.05463641881942749,-2.1453890800476074,0.41324180364608765,0
24,0.1149911880493164,-0.3752071261405945,-22.696680068969727,-0.07375786453485489,14.080232620239258,-0.04914325475692749,2.1453890800476074,-0.42605918645858765,0.0,0.0,0.0,0.0,0.0,0.0,0.0,-0.4398918369094041,0.08652215011094591,-0.19586571249127924,0.19671202312768102,-0.28002071652445454,-0.03959734211203641,-0.4125163587266156,1.6756575753033043,0.052070310100118665,0.02999130602804471,-2.752236419558614,0.034347441056889576,2.766329568915897,0.7691953138025244,1.6754973547542302,0.052104326824870026,0.029969505109285054,-2.752394845125968,0.0342448039870148,2.7663679543071322,0.7691630533470046,-0.0005444129602878816,-0.0003362503547088792,-0.0005170634636803012,-0.00012831444278803395,2.0974592765575028e-05,-2.3257609843097368e-05,0.00042391276175702907,0.0,0.0,0.0,0.0,0.0,0.0,0.0,-0.0001602205490740527,3.4016724751360916e-05,-2.1800918759657534e-05,-0.00015842556735412572,-0.00010263706987477528,3.838539123535156e-05,-3.226045551973922e-05,0.0005444129602878816,0.0003362503547088792,0.0005170634636803012,0.00012831444278803395,-2.0974592765575028e-05,2.3257609843097368e-05,-0.00042391276175702907,0.3752071261405945,22.696680068969727,0.07375786453485489,-14.080232620239258,0.04914325475692749,-2.1453890800476074,0.42605918645858765,0
25,0.12002110481262207,-0.3752071261405945,-22.696680068969727,-0.07375786453485489,14.080232620239258,-0.04914325475692749,2.1453890800476074,-0.42605918645858765,0.0,0.0,0.0,0.0,0.0,0.0,0.0,-0.4398918369094041,0.08652215011094591,-0.19586571249127924,0.19671202312768102,-0.28002071652445454,-0.03959734211203641,-0.4125163587266156,1.6756575753033043,0.052070310100118665,0.02999130602804471,-2.752236419558614,0.034347441056889576,2.766329568915897,0.7691953138025244,1.6754973547542302,0.052104326824870026,0.029969505109285054,-2.752394845125968,0.0342448039870148,2.7663679543071322,0.7691630533470046,-0.0005444129602878816,-0.0003362503547088792,-0.0005170634636803012,-0.00012831444278803395,2.0974592765575028e-05,-2.3257609843097368e-05,0.00042391276175702907,0.0,0.0,0.0,0.0,0.0,0.0,0.0,-0.0001602205490740527,3.4016724751360916e-05,-2.1800918759657534e-05,-0.00015842556735412572,-0.00010263706987477528,3.838539123535156e-05,-3.226045551973922e-05,0.0005444129602878816,0.0003362503547088792,0.0005170634636803012,0.00012831444278803395,-2.0974592765575028e-05,2.3257609843097368e-05,-0.00042391276175702907,0.3752071261405945,22.696680068969727,0.07375786453485489,-14.080232620239258,0.04914325475692749,-2.1453890800476074,0.42605918645858765,0
26,0.12498950958251953,-0.4505855441093445,-22.720483779907227,-0.09756157547235489,14.056428909301758,-0.04914325475692749,2.1453890800476074,-0.43338340520858765,0.0,0.0,0.0,0.0,0.0,0.0,0.0,-0.4347843459033413,0.08807926769277277,-0.1937986125626711,0.1928118786930772,-0.27983574233084363,-0.040207737743055395,-0.41213854259351534,1.675661858704269,0.0520719844527922,0.02999013700096559,-2.752235450296129,0.03434591541653126,2.766329568915897,0.7692004969601873,1.6754973547542302,0.052104326824870026,0.029969505109285054,-2.752394845125968,0.0342448039870148,2.7663679543071322,0.7691630533470046,0.0007081033055934944,0.00029257166154196594,-0.00011517314284799586,0.00021085362218940142,0.0001380898714303101,-7.853635344639807e-05,0.0012146468759078224,0.0,0.0,0.0,0.0,0.0,0.0,0.0,-0.00016450395003886342,3.234237207782459e-05,-2.0631891680535086e-05,-0.00015939482983906572,-0.00010111142951645807,3.838539123535156e-05,-3.744361318269718e-05,-0.0007081033055934944,-0.00029257166154196594,0.00011517314284799586,-0.00021085362218940142,-0.0001380898714303101,7.853635344639807e-05,-0.0012146468759078224,0.4505855441093445,22.720483779907227,0.09756157547235489,-14.056428909301758,0.04914325475692749,-2.1453890800476074,0.43338340520858765,0
27,0.12999844551086426,-0.4505855441093445,-22.720483779907227,-0.09756157547235489,14.056428909301758,-0.04914325475692749,2.1453890800476074,-0.43338340520858765,0.0,0.0,0.0,0.0,0.0,0.0,0.0,-0.4347843459033413,0.08807926769277277,-0.1937986125626711,0.1928118786930772,-0.27983574233084363,-0.040207737743055395,-0.41213854259351534,1.675661858704269,0.0520719844527922,0.02999013700096559,-2.752235450296129,0.03434591541653126,2.766329568915897,0.7692004969601873,1.6754973547542302,0.052104326824870026,0.029969505109285054,-2.752394845125968,0.0342448039870148,2.7663679543071322,0.7691630533470046,0.0007081033055934944,0.00029257166154196594,-0.00011517314284799586,0.00021085362218940142,0.0001380898714303101,-7.853635344639807e-05,0.0012146468759078224,0.0,0.0,0.0,0.0,0.0,0.0,0.0,-0.00016450395003886342,3.234237207782459e-05,-2.0631891680535086e-05,-0.00015939482983906572,-0.00010111142951645807,3.838539123535156e-05,-3.744361318269718e-05,-0.0007081033055934944,-0.00029257166154196594,0.00011517314284799586,-0.00021085362218940142,-0.0001380898714303101,7.853635344639807e-05,-0.0012146468759078224,0.4505855441093445,22.720483779907227,0.09756157547235489,-14.056428909301758,0.04914325475692749,-2.1453890800476074,0.43338340520858765,0
28,0.1349964141845703,-0.4783565402030945,-22.748254776000977,-0.1491362750530243,14.108003616333008,-0.04914325475692749,2.1453890800476074,-0.40591758489608765,0.0,0.0,0.0,0.0,0.0,0.0,0.0,-0.4324553809770476,0.08053062018469959,-0.19156972707880154,0.19863656067143665,-0.27986517483245943,-0.03922420896927837,-0.41096497639044755,1.6756645754510144,0.05207392936581185,0.029996595652953886,-2.752238258642091,0.03434734020739535,2.766329568915897,0.7691974403818724,1.6754973547542302,0.052104326824870026,0.029969505109285054,-2.752394845125968,0.0342448039870148,2.7663679543071322,0.7691630533470046,0.0008093161057157641,0.0004580381645880468,0.0005935258834779068,-0.0005146141104025087,0.0001453688732067136,-4.492763489993417e-05,0.0002375369971310013,0.0,0.0,0.0,0.0,0.0,0.0,0.0,-0.00016722069678420937,3.039745905817487e-05,-2.7090543668832623e-05,-0.00015658648387706364,-0.00010253622038054744,3.838539123535156e-05,-3.4387034867799926e-05,-0.0008093161057157641,-0.0004580381645880468,-0.0005935258834779068,0.0005146141104025087,-0.0001453688732067136,4.492763489993417e-05,-0.0002375369971310013,0.4783565402030945,22.748254776000977,0.1491362750530243,-14.108003616333008,0.04914325475692749,-2.1453890800476074,0.40591758489608765,0
29,0.1399977207183838,-0.4783565402030945,-22.748254776000977,-0.1491362750530243,14.108003616333008,-0.04914325475692749,2.1453890800476074,-0.40591758489608765,0.0,0.0,0.0,0.0,0.0,0.0,0.0,-0.4324553809770476,0.08053062018469959,-0.19156972707880154,0.19863656067143665,-0.27986517483245943,-0.03922420896927837,-0.41096497639044755,1.6756645754510144,0.05207392936581185,0.029996595652953886,-2.752238258642091,0.03434734020739535,2.766329568915897,0.7691974403818724,1.6754973547542302,0.052104326824870026,0.029969505109285054,-2.752394845125968,0.0342448039870148,2.7663679543071322,0.7691630533470046,0.0008093161057157641,0.0004580381645880468,0.0005935258834779068,-0.0005146141104025087,0.0001453688732067136,-4.492763489993417e-05,0.0002375369971310013,0.0,0.0,0.0,0.0,0.0,0.0,0.0,-0.00016722069678420937,3.039745905817487e-05,-2.7090543668832623e-05,-0.00015658648387706364,-0.00010253622038054744,3.838539123535156e-05,-3.4387034867799926e-05,-0.0008093161057157641,-0.0004580381645880468,-0.0005935258834779068,0.0005146141104025087,-0.0001453688732067136,4.492763489993417e-05,-0.0002375369971310013,0.4783565402030945,22.748254776000977,0.1491362750530243,-14.108003616333008,0.04914325475692749,-2.1453890800476074,0.40591758489608765,0
30,0.14502286911010742,-0.4505855441093445,-22.720483779907227,-0.1491362750530243,14.080232620239258,-0.04914325475692749,2.1517977714538574,-0.41324180364608765,0.0,0.0,0.0,0.0,0.0,0.0,0.0,-0.4311662745882367,0.08561491714610435,-0.19092516002808926,0.19189887544022663,-0.28012146385769887,-0.04079274342715711,-0.4093092264335424,1.6756618584122134,0.05207198063209157,0.02999656072163454,-2.7522371338079337,0.03434745875927441,2.766328856839074,0.7691982457856382,1.6754973547542302,0.052104326824870026,0.029969505109285054,-2.752394845125968,0.0342448039870148,2.7663679543071322,0.7691630533470046,0.00010957493863425704,-0.00024865633774769915,0.0010623941629794287,-0.0006189276097333721,0.0003142985709519275,-0.0002940937779424484,0.0007370496065359874,0.0,0.0,0.0,0.0,0.0,0.0,0.0,-0.00016450365798315048,3.234619277845546e-05,-2.7055612349485142e-05,-0.00015771131803443694,-0.00010265477225961106,3.9097468058191254e-05,-3.5192438633591117e-05,-0.00010957493863425704,0.00024865633774769915,-0.0010623941629794287,0.0006189276097333721,-0.0003142985709519275,0.0002940937779424484,-0.0007370496065359874,0.4505855441093445,22.720483779907227,0.1491362750530243,-14.080232620239258,0.04914325475692749,-2.1517977714538574,0.41324180364608765,0
31,0.15003013610839844,-0.4505855441093445,-22.720483779907227,-0.1491362750530243,14.080232620239258,-0.04914325475692749,2.1517977714538574,-0.41324180364608765,0.0,0.0,0.0,0.0,0.0,0.0,0.0,-0.4311662745882367,0.08561491714610435,-0.19092516002808926,0.19189887544022663,-0.28012146385769887,-0.04079274342715711,-0.4093092264335424,1.6756618584122134,0.05207198063209157,0.02999656072163454,-2.7522371338079337,0.03434745875927441,2.766328856839074,0.7691982457856382,1.6754973547542302,0.052104326824870026,0.029969505109285054,-2.752394845125968,0.0342448039870148,2.7663679543071322,0.7691630533470046,0.00010957493863425704,-0.00024865633774769915,0.0010623941629794287,-0.0006189276097333721,0.0003142985709519275,-0.0002940937779424484,0.0007370496065359874,0.0,0.0,0.0,0.0,0.0,0.0,0.0,-0.00016450365798315048,3.234619277845546e-05,-2.7055612349485142e-05,-0.00015771131803443694,-0.00010265477225961106,3.9097468058191254e-05,-3.5192438633591117e-05,-0.00010957493863425704,0.00024865633774769915,-0.0010623941629794287,0.0006189276097333721,-0.0003142985709519275,0.0002940937779424484,-0.0007370496065359874,0.4505855441093445,22.720483779907227,0.1491362750530243,-14.080232620239258,0.04914325475692749,-2.1517977714538574,0.41324180364608765,0
32,0.15496277809143066,-0.4783565402030945,-22.672876358032227,-0.09756157547235489,14.080232620239258,-0.04914325475692749,2.1517977714538574,-0.41324180364608765,0.0,0.0,0.0,0.0,0.0,0.0,0.0,-0.4388715642554721,0.08914010664415954,-0.19601547338013459,0.19232370192092677,-0.27859181375753334,-0.04062091869703513,-0.40794879600855877,1.675663780831432,0.052068639652248616,0.029990845901765224,-2.752237133624162,0.03434710345321304,2.766328856839074,0.7691982589752134,1.6754973547542302,0.052104326824870026,0.029969505109285054,-2.752394845125968,0.0342448039870148,2.7663679543071322,0.7691630533470046,0.0007223921346435082,-0.0004960364723879896,-0.0005004756619955269,-0.00021236368003393105,9.239650616129757e-05,-0.00026833406932570534,0.0002866132733435384,0.0,0.0,0.0,0.0,0.0,0.0,0.0,-0.00016642607720185332,3.5687172621409746e-05,-2.134079248016993e-05,-0.0001577115018061015,-0.00010229946619823987,3.9097468058191254e-05,-3.520562820880091e-05,-0.0007223921346435082,0.0004960364723879896,0.0005004756619955269,0.00021236368003393105,-9.239650616129757e-05,0.00026833406932570534,-0.0002866132733435384,0.4783565402030945,22.672876358032227,0.09756157547235489,-14.080232620239258,0.04914325475692749,-2.1517977714538574,0.41324180364608765,0
33,0.1599886417388916,-0.4783565402030945,-22.672876358032227,-0.09756157547235489,14.080232620239258,-0.04914325475692749,2.1517977714538574,-0.41324180364608765,0.0,0.0,0.0,0.0,0.0,0.0,0.0,-0.4388715642554721,0.08914010664415954,-0.19601547338013459,0.19232370192092677,-0.27859181375753334,-0.04062091869703513,-0.40794879600855877,1.675663780831432,0.052068639652248616,0.029990845901765224,-2.752237133624162,0.03434710345321304,2.766328856839074,0.7691982589752134,1.6754973547542302,0.052104326824870026,0.029969505109285054,-2.752394845125968,0.0342448039870148,2.7663679543071322,0.7691630533470046,0.0007223921346435082,-0.0004960364723879896,-0.0005004756619955269,-0.00021236368003393105,9.239650616129757e-05,-0.00026833406932570534,0.0002866132733435384,0.0,0.0,0.0,0.0,0.0,0.0,0.0,-0.00016642607720185332,3.5687172621409746e-05,-2.134079248016993e-05,-0.0001577115018061015,-0.00010229946619823987,3.9097468058191254e-05,-3.520562820880091e-05,-0.0007223921346435082,0.0004960364723879896,0.0005004756619955269,0.00021236368003393105,-9.239650616129757e-05,0.00026833406932570534,-0.0002866132733435384,0.4783565402030945,22.672876358032227,0.09756157547235489,-14.080232620239258,0.04914325475692749,-2.1517977714538574,0.41324180364608765,0
34,0.16499829292297363,-0.4505855441093445,-22.696680068969727,-0.1253325641155243,14.056428909301758,-0.04914325475692749,2.1453890800476074,-0.41965049505233765,0.0,0.0,0.0,0.0,0.0,0.0,0.0,-0.44196293247527757,0.09096255865127242,-0.19710975819563284,0.19102343056719798,-0.27867842272618426,-0.04099888260258144,-0.4091563367574308,1.6756618407107535,0.05207031008810327,0.029992792783713904,-2.7522354635274673,0.034347300916008246,2.766329568915897,0.7691989580239939,1.6754973547542302,0.052104326824870026,0.029969505109285054,-2.752394845125968,0.0342448039870148,2.7663679543071322,0.7691630533470046,-0.00031339938656404115,0.00024197303248972487,0.0003505434168056926,8.431658409920616e-05,1.3855420320844667e-05,0.00011375432349986945,0.000379729794533314,0.0,0.0,0.0,0.0,0.0,0.0,0.0,-0.000164485956523297,3.401673676675654e-05,-2.328767442884988e-05,-0.00015938159850081846,-0.0001024969289934452,3.838539123535156e-05,-3.5904676989217954e-05,0.00031339938656404115,-0.00024197303248972487,-0.0003505434168056926,-8.431658409920616e-05,-1.3855420320844667e-05,-0.00011375432349986945,-0.000379729794533314,0.4505855441093445,22.696680068969727,0.1253325641155243,-14.056428909301758,0.04914325475692749,-2.1453890800476074,0.41965049505233765,0
35,0.16999125480651855,-0.4505855441093445,-22.696680068969727,-0.1253325641155243,14.056428909301758,-0.04914325475692749,2.1453890800476074,-0.41965049505233765,0.0,0.0,0.0,0.0,0.0,0.0,0.0,-0.44196293247527757,0.09096255865127242,-0.19710975819563284,0.19102343056719798,-0.27867842272618426,-0.04099888260258144,-0.4091563367574308,1.6756618407107535,0.05207031008810327,0.029992792783713904,-2.7522354635274673,0.034347300916008246,2.766329568915897,0.7691989580239939,1.6754973547542302,0.052104326824870026,0.029969505109285054,-2.752394845125968,0.0342448039870148,2.7663679543071322,0.7691630533470046,-0.00031339938656404115,0.00024197303248972487,0.0003505434168056926,8.431658409920616e-05,1.3855420320844667e-05,0.00011375432349986945,0.000379729794533314,0.0,0.0,0.0,0.0,0.0,0.0,0.0,-0.000164485956523297,3.401673676675654e-05,-2.328767442884988e-05,-0.00015938159850081846,-0.0001024969289934452,3.838539123535156e-05,-3.5904676989217954e-05,0.00031339938656404115,-0.00024197303248972487,-0.0003505434168056926,-8.431658409920616e-05,-1.3855420320844667e-05,-0.00011375432349986945,-0.000379729794533314,0.4505855441093445,22.696680068969727,0.1253325641155243,-14.056428909301758,0.04914325475692749,-2.1453890800476074,0.41965049505233765,0
36,0.17499041557312012,-0.4267818331718445,-22.748254776000977,-0.09756157547235489,14.032625198364258,-0.04914325475692749,2.1325716972351074,-0.45352500677108765,0.0,0.0,0.0,0.0,0.0,0.0,0.0,-0.44181312236907744,0.08684550706828034,-0.19635610371670642,0.19448801285462516,-0.2788730134645846,-0.039759739081318336,-0.4104587008009603,1.675658283893777,0.05207394201735475,0.02999273694176103,-2.7522337930916136,0.034347414914072144,2.766330993069543,0.7692025779570814,1.6754973547542302,0.052104326824870026,0.029969505109285054,-2.752394845125968,0.0342448039870148,2.7663679543071322,0.7691630533470046,-0.00019512702397596836,0.0006533402202085777,-0.00027713499748921976,0.0008083422146119705,9.787665929922373e-05,0.0005724172328474999,0.0017842349916867303,0.0,0.0,0.0,0.0,0.0,0.0,0.0,-0.00016092913954679489,3.0384807515278223e-05,-2.32318324759756e-05,-0.00016105203435445858,-0.00010261092705734359,3.696123758922809e-05,-3.9524610076724365e-05,0.00019512702397596836,-0.0006533402202085777,0.00027713499748921976,-0.0008083422146119705,-9.787665929922373e-05,-0.0005724172328474999,-0.0017842349916867303,0.4267818331718445,22.748254776000977,0.09756157547235489,-14.032625198364258,0.04914325475692749,-2.1325716972351074,0.45352500677108765,0
37,0.17998862266540527,-0.4267818331718445,-22.748254776000977,-0.09756157547235489,14.032625198364258,-0.04914325475692749,2.1325716972351074,-0.45352500677108765,0.0,0.0,0.0,0.0,0.0,0.0,0.0,-0.44181312236907744,0.08684550706828034,-0.19635610371670642,0.19448801285462516,-0.2788730134645846,-0.039759739081318336,-0.4104587008009603,1.675658283893777,0.05207394201735475,0.02999273694176103,-2.7522337930916136,0.034347414914072144,2.766330993069543,0.7692025779570814,1.6754973547542302,0.052104326824870026,0.029969505109285054,-2.752394845125968,0.0342448039870148,2.7663679543071322,0.7691630533470046,-0.00019512702397596836,0.0006533402202085777,-0.00027713499748921976,0.0008083422146119705,9.787665929922373e-05,0.0005724172328474999,0.0017842349916867303,0.0,0.0,0.0,0.0,0.0,0.0,0.0,-0.00016092913954679489,3.0384807515278223e-05,-2.32318324759756e-05,-0.00016105203435445858,-0.00010261092705734359,3.696123758922809e-05,-3.9524610076724365e-05,0.00019512702397596836,-0.0006533402202085777,0.00027713499748921976,-0.0008083422146119705,-9.787665929922373e-05,-0.0005724172328474999,-0.0017842349916867303,0.4267818331718445,22.748254776000977,0.09756157547235489,-14.032625198364258,0.04914325475692749,-2.1325716972351074,0.45352500677108765,0
38,0.18501663208007812,-0.4267818331718445,-22.748254776000977,-0.09756157547235489,14.032625198364258,-0.04914325475692749,2.1325716972351074,-0.45352500677108765,0.0,0.0,0.0,0.0,0.0,0.0,0.0,-0.44181312236907744,0.08684550706828034,-0.19635610371670642,0.19448801285462516,-0.2788730134645846,-0.039759739081318336,-0.4104587008009603,1.675658283893777,0.05207394201735475,0.02999273694176103,-2.7522337930916136,0.034347414914072144,2.766330993069543,0.7692025779570814,1.6754973547542302,0.052104326824870026,0.029969505109285054,-2.752394845125968,0.0342448039870148,2.7663679543071322,0.7691630533470046,-0.00019512702397596836,0.0006533402202085777,-0.00027713499748921976,0.0008083422146119705,9.787665929922373e-05,0.0005724172328474999,0.0017842349916867303,0.0,0.0,0.0,0.0,0.0,0.0,0.0,-0.00016092913954679489,3.0384807515278223e-05,-2.32318324759756e-05,-0.00016105203435445858,-0.00010261092705734359,3.696123758922809e-05,-3.9524610076724365e-05,0.00019512702397596836,-0.0006533402202085777,0.00027713499748921976,-0.0008083422146119705,-9.787665929922373e-05,-0.0005724172328474999,-0.0017842349916867303,0.4267818331718445,22.748254776000977,0.09756157547235489,-14.032625198364258,0.04914325475692749,-2.1325716972351074,0.45352500677108765,0
39,0.1900160312652588,-0.4267818331718445,-22.748254776000977,-0.09756157547235489,14.032625198364258,-0.04914325475692749,2.1325716972351074,-0.45352500677108765,0.0,0.0,0.0,0.0,0.0,0.0,0.0,-0.44181312236907744,0.08684550706828034,-0.19635610371670642,0.19448801285462516,-0.2788730134645846,-0.039759739081318336,-0.4104587008009603,1.675658283893777,0.05207394201735475,0.02999273694176103,-2.7522337930916136,0.034347414914072144,2.766330993069543,0.7692025779570814,1.6754973547542302,0.052104326824870026,0.029969505109285054,-2.752394845125968,0.0342448039870148,2.7663679543071322,0.7691630533470046,-0.00019512702397596836,0.0006533402202085777,-0.00027713499748921976,0.0008083422146119705,9.787665929922373e-05,0.0005724172328474999,0.0017842349916867303,0.0,0.0,0.0,0.0,0.0,0.0,0.0,-0.00016092913954679489,3.0384807515278223e-05,-2.32318324759756e-05,-0.00016105203435445858,-0.00010261092705734359,3.696123758922809e-05,-3.9524610076724365e-05,0.00019512702397596836,-0.0006533402202085777,0.00027713499748921976,-0.0008083422146119705,-9.787665929922373e-05,-0.0005724172328474999,-0.0017842349916867303,0.4267818331718445,22.748254776000977,0.09756157547235489,-14.032625198364258,0.04914325475692749,-2.1325716972351074,0.45352500677108765,0
40,0.19500255584716797,-0.4267818331718445,-22.748254776000977,-0.07375786453485489,14.056428909301758,-0.04273456335067749,2.1453890800476074,-0.39218467473983765,0.0,0.0,0.0,0.0,0.0,0.0,0.0,-0.4362685288732815,0.09175716848788235,-0.19221795922002188,0.18997838934005212,-0.2791180656670039,-0.041090267698998637,-0.4104497317089481,1.6756609591060172,0.05207393228545303,0.02999059607984938,-2.75223523154085,0.03434568119571825,2.766329568915897,0.7691955659191971,1.6754973547542302,0.052104326824870026,0.029969505109285054,-2.752394845125968,0.0342448039870148,2.7663679543071322,0.7691630533470046,0.0003316012199500377,0.0010378834306555584,-0.0003619678775622958,0.00015531638636273254,-0.0002193676397135041,0.00013952892593502156,-0.00020112231663412864,0.0,0.0,0.0,0.0,0.0,0.0,0.0,-0.0001636043517869723,3.039453941699327e-05,-2.109097056432474e-05,-0.00015961358511829005,-0.00010087720870344957,3.838539123535156e-05,-3.2512572192500144e-05,-0.0003316012199500377,-0.0010378834306555584,0.0003619678775622958,-0.00015531638636273254,0.0002193676397135041,-0.00013952892593502156,0.00020112231663412864,0.4267818331718445,22.748254776000977,0.07375786453485489,-14.056428909301758,0.04273456335067749,-2.1453890800476074,0.39218467473983765,0
41,0.20001530647277832,-0.4267818331718445,-22.748254776000977,-0.07375786453485489,14.056428909301758,-0.04273456335067749,2.1453890800476074,-0.39218467473983765,0.0,0.0,0.0,0.0,0.0,0.0,0.0,-0.4362685288732815,0.09175716848788235,-0.19221795922002188,0.18997838934005212,-0.2791180656670039,-0.041090267698998637,-0.4104497317089481,1.6756609591060172,0.05207393228545303,0.02999059607984938,-2.75223523154085,0.03434568119571825,2.766329568915897,0.7691955659191971,1.6754973547542302,0.052104326824870026,0.029969505109285054,-2.752394845125968,0.0342448039870148,2.7663679543071322,0.7691630533470046,0.0003316012199500377,0.0010378834306555584,-0.0003619678775622958,0.00015531638636273254,-0.0002193676397135041,0.00013952892593502156,-0.00020112231663412864,0.0,0.0,0.0,0.0,0.0,0.0,0.0,-0.0001636043517869723,3.039453941699327e-05,-2.109097056432474e-05,-0.00015961358511829005,-0.00010087720870344957,3.838539123535156e-05,-3.2512572192500144e-05,-0.0003316012199500377,-0.0010378834306555584,0.0003619678775622958,-0.00015531638636273254,0.0002193676397135041,-0.00013952892593502156,0.00020112231663412864,0.4267818331718445,22.748254776000977,0.07375786453485489,-14.056428909301758,0.04273456335067749,-2.1453890800476074,0.39218467473983765,0
42,0.20502448081970215,-0.4267818331718445,-22.720483779907227,-0.07375786453485489,14.080232620239258,-0.04273456335067749,2.1517977714538574,-0.37204307317733765,0.0,0.0,0.0,0.0,0.0,0.0,0.0,-0.43008131567639246,0.08576984563568305,-0.19132369842968958,0.192156889100637,-0.2792484657556839,-0.04028455540641857,-0.40860054707115734,1.675658042172824,0.05207201689271905,0.029990359416207625,-2.7522345960148336,0.03434564113404297,2.766328856839074,0.7691925820219068,1.6754973547542302,0.052104326824870026,0.029969505109285054,-2.752394845125968,0.0342448039870148,2.7663679543071322,0.7691630533470046,0.0004777243194446387,5.8581507962215456e-05,-0.00015127795946371313,-0.00033902056008572226,-7.402006381051663e-05,-8.353609205647756e-05,-0.0012808223232581794,0.0,0.0,0.0,0.0,0.0,0.0,0.0,-0.00016068741859376345,3.230993215097566e-05,-2.0854306922571397e-05,-0.0001602491111345472,-0.00010083714702816687,3.9097468058191254e-05,-2.9528674902135066e-05,-0.0004777243194446387,-5.8581507962215456e-05,0.00015127795946371313,0.00033902056008572226,7.402006381051663e-05,8.353609205647756e-05,0.0012808223232581794,0.4267818331718445,22.720483779907227,0.07375786453485489,-14.080232620239258,0.04273456335067749,-2.1517977714538574,0.37204307317733765,0
43,0.20999932289123535,-0.4267818331718445,-22.720483779907227,-0.07375786453485489,14.080232620239258,-0.04273456335067749,2.1517977714538574,-0.37204307317733765,0.0,0.0,0.0,0.0,0.0,0.0,0.0,-0.43008131567639246,0.08576984563568305,-0.19132369842968958,0.192156889100637,-0.2792484657556839,-0.04028455540641857,-0.40860054707115734,1.675658042172824,0.05207201689271905,0.029990359416207625,-2.7522345960148336,0.03434564113404297,2.766328856839074,0.7691925820219068,1.6754973547542302,0.052104326824870026,0.029969505109285054,-2.752394845125968,0.0342448039870148,2.7663679543071322,0.7691630533470046,0.0004777243194446387,5.8581507962215456e-05,-0.00015127795946371313,-0.00033902056008572226,-7.402006381051663e-05,-8.353609205647756e-05,-0.0012808223232581794,0.0,0.0,0.0,0.0,0.0,0.0,0.0,-0.00016068741859376345,3.230993215097566e-05,-2.0854306922571397e-05,-0.0001602491111345472,-0.00010083714702816687,3.9097468058191254e-05,-2.9528674902135066e-05,-0.0004777243194446387,-5.8581507962215456e-05,0.00015127795946371313,0.00033902056008572226,7.402006381051663e-05,8.353609205647756e-05,0.0012808223232581794,0.4267818331718445,22.720483779907227,0.07375786453485489,-14.080232620239258,0.04273456335067749,-2.1517977714538574,0.37204307317733765,0
44,0.21500110626220703,-0.4267818331718445,-22.696680068969727,-0.09756157547235489,14.032625198364258,-0.04273456335067749,2.1517977714538574,-0.42605918645858765,0.0,0.0,0.0,0.0,0.0,0.0,0.0,-0.43260139002664033,0.0876983768817026,-0.19344909970590735,0.19208059475202843,-0.2786476894656511,-0.039791570717620434,-0.4080988109799335,1.6756580421563578,0.052070313007900514,0.029992187708870247,-2.7522315006831937,0.034346732061886376,2.766328856839074,0.7691996831765633,1.6754973547542302,0.052104326824870026,0.029969505109285054,-2.752394845125968,0.0342448039870148,2.7663679543071322,0.7691630533470046,-0.0001425226705584004,-0.0002584733496133895,-0.00014203391906936804,0.0010269497900727835,-0.00019496507247398218,-0.00016049135865017468,0.00012397061772078505,0.0,0.0,0.0,0.0,0.0,0.0,0.0,-0.00016068740212760169,3.401381696951228e-05,-2.2682599585193558e-05,-0.00016334444277443794,-0.00010192807487157535,3.9097468058191254e-05,-3.662982955865424e-05,0.0001425226705584004,0.0002584733496133895,0.00014203391906936804,-0.0010269497900727835,0.00019496507247398218,0.00016049135865017468,-0.00012397061772078505,0.4267818331718445,22.696680068969727,0.09756157547235489,-14.032625198364258,0.04273456335067749,-2.1517977714538574,0.42605918645858765,0
45,0.22000408172607422,-0.4267818331718445,-22.696680068969727,-0.09756157547235489,14.032625198364258,-0.04273456335067749,2.1517977714538574,-0.42605918645858765,0.0,0.0,0.0,0.0,0.0,0.0,0.0,-0.43260139002664033,0.0876983768817026,-0.19344909970590735,0.19208059475202843,-0.2786476894656511,-0.039791570717620434,-0.4080988109799335,1.6756580421563578,0.052070313007900514,0.029992187708870247,-2.7522315006831937,0.034346732061886376,2.766328856839074,0.7691996831765633,1.6754973547542302,0.052104326824870026,0.029969505109285054,-2.752394845125968,0.0342448039870148,2.7663679543071322,0.7691630533470046,-0.0001425226705584004,-0.0002584733496133895,-0.00014203391906936804,0.0010269497900727835,-0.00019496507247398218,-0.00016049135865017468,0.00012397061772078505,0.0,0.0,0.0,0.0,0.0,0.0,0.0,-0.00016068740212760169,3.401381696951228e-05,-2.2682599585193558e-05,-0.00016334444277443794,-0.00010192807487157535,3.9097468058191254e-05,-3.662982955865424e-05,0.0001425226705584004,0.0002584733496133895,0.00014203391906936804,-0.0010269497900727835,0.00019496507247398218,0.00016049135865017468,-0.00012397061772078505,0.4267818331718445,22.696680068969727,0.09756157547235489,-14.032625198364258,0.04273456335067749,-2.1517977714538574,0.42605918645858765,0
46,0.2250051498413086,-0.4267818331718445,-22.672876358032227,-0.1729399859905243,14.032625198364258,-0.04273456335067749,2.1453890800476074,-0.37845176458358765,0.0,0.0,0.0,0.0,0.0,0.0,0.0,-0.4277024334929407,0.08881715714072927,-0.18621549620237218,0.1923793833899226,-0.27899419198948844,-0.04013272610075167,-0.4103539577671377,1.6756601880325859,0.05206874486570734,0.029998257444695624,-2.7522327215537326,0.03434343200251484,2.766329568915897,0.7691943929847108,1.6754973547542302,0.052104326824870026,0.029969505109285054,-2.752394845125968,0.0342448039870148,2.7663679543071322,0.7691630533470046,9.171220603061393e-05,-0.000702885817457849,0.0015500224056549947,0.0008417486126449434,-7.823138946126925e-05,-0.00021346422175547793,-0.0019059267473095058,0.0,0.0,0.0,0.0,0.0,0.0,0.0,-0.0001628332783556452,3.558195916268658e-05,-2.875233541057079e-05,-0.00016212357223555074,-9.862801550004213e-05,3.838539123535156e-05,-3.133963770618475e-05,-9.171220603061393e-05,0.000702885817457849,-0.0015500224056549947,-0.0008417486126449434,7.823138946126925e-05,0.00021346422175547793,0.0019059267473095058,0.4267818331718445,22.672876358032227,0.1729399859905243,-14.032625198364258,0.04273456335067749,-2.1453890800476074,0.37845176458358765,0
47,0.23000407218933105,-0.4267818331718445,-22.672876358032227,-0.1729399859905243,14.032625198364258,-0.04273456335067749,2.1453890800476074,-0.37845176458358765,0.0,0.0,0.0,0.0,0.0,0.0,0.0,-0.4277024334929407,0.08881715714072927,-0.18621549620237218,0.1923793833899226,-0.27899419198948844,-0.04013272610075167,-0.4103539577671377,1.6756601880325859,0.05206874486570734,0.029998257444695624,-2.7522327215537326,0.03434343200251484,2.766329568915897,0.7691943929847108,1.6754973547542302,0.052104326824870026,0.029969505109285054,-2.752394845125968,0.0342448039870148,2.7663679543071322,0.7691630533470046,9.171220603061393e-05,-0.000702885817457849,0.0015500224056549947,0.0008417486126449434,-7.823138946126925e-05,-0.00021346422175547793,-0.0019059267473095058,0.0,0.0,0.0,0.0,0.0,0.0,0.0,-0.0001628332783556452,3.558195916268658e-05,-2.875233541057079e-05,-0.00016212357223555074,-9.862801550004213e-05,3.838539123535156e-05,-3.133963770618475e-05,-9.171220603061393e-05,0.000702885817457849,-0.0015500224056549947,-0.0008417486126449434,7.823138946126925e-05,0.00021346422175547793,0.0019059267473095058,0.4267818331718445,22.672876358032227,0.1729399859905243,-14.032625198364258,0.04273456335067749,-2.1453890800476074,0.37845176458358765,0
48,0.23500657081604004,-0.4505855441093445,-22.748254776000977,-0.1253325641155243,14.056428909301758,-0.04914325475692749,2.1389803886413574,-0.41965049505233765,0.0,0.0,0.0,0.0,0.0,0.0,0.0,-0.43045713227446625,0.09168110666841385,-0.19097057493324904,0.19174346857854238,-0.2785423091202269,-0.041353638778581704,-0.4118898879583954,1.6756597925132513,0.05207395564271106,0.029994676670518475,-2.752232990994767,0.034347338411119116,2.7663302809927197,0.7691979114678144,1.6754973547542302,0.052104326824870026,0.029969505109285054,-2.752394845125968,0.0342448039870148,2.7663679543071322,0.7691630533470046,2.7680214834903125e-05,0.0010436879814811463,0.0004622154079124536,0.0002609470257964438,0.00013513982898359127,0.00019624171415777452,0.00038705789227808064,0.0,0.0,0.0,0.0,0.0,0.0,0.0,-0.00016243775902102797,3.0371182158962784e-05,-2.5171561233421763e-05,-0.00016185413120117786,-0.00010253442410431551,3.767331441251187e-05,-3.485812080972206e-05,-2.7680214834903125e-05,-0.0010436879814811463,-0.0004622154079124536,-0.0002609470257964438,-0.00013513982898359127,-0.00019624171415777452,-0.00038705789227808064,0.4505855441093445,22.748254776000977,0.1253325641155243,-14.056428909301758,0.04914325475692749,-2.1389803886413574,0.41965049505233765,0
49,0.24004030227661133,-0.4505855441093445,-22.748254776000977,-0.1253325641155243,14.056428909301758,-0.04914325475692749,2.1389803886413574,-0.41965049505233765,0.0,0.0,0.0,0.0,0.0,0.0,0.0,-0.43045713227446625,0.09168110666841385,-0.19097057493324904,0.19174346857854238,-0.2785423091202269,-0.041353638778581704,-0.4118898879583954,1.6756597925132513,0.05207395564271106,0.029994676670518475,-2.752232990994767,0.034347338411119116,2.7663302809927197,0.7691979114678144,1.6754973547542302,0.052104326824870026,0.029969505109285054,-2.752394845125968,0.0342448039870148,2.7663679543071322,0.7691630533470046,2.7680214834903125e-05,0.0010436879814811463,0.0004622154079124536,0.0002609470257964438,0.00013513982898359127,0.00019624171415777452,0.00038705789227808064,0.0,0.0,0.0,0.0,0.0,0.0,0.0,-0.00016243775902102797,3.0371182158962784e-05,-2.5171561233421763e-05,-0.00016185413120117786,-0.00010253442410431551,3.767331441251187e-05,-3.485812080972206e-05,-2.7680214834903125e-05,-0.0010436879814811463,-0.0004622154079124536,-0.0002609470257964438,-0.00013513982898359127,-0.00019624171415777452,-0.00038705789227808064,0.4505855441093445,22.748254776000977,0.1253325641155243,-14.056428909301758,0.04914325475692749,-2.1389803886413574,0.41965049505233765,0
50,0.2450568675994873,-0.4267818331718445,-22.696680068969727,-0.1491362750530243,14.056428909301758,-0.04273456335067749,2.1453890800476074,-0.43979209661483765,0.0,0.0,0.0,0.0,0.0,0.0,0.0,-0.4370138036080519,0.08543265461055335,-0.1961761363800888,0.19701258201853322,-0.27825042556016605,-0.041254592587999635,-0.41118566568249965,1.675658981440978,0.0520703100882516,0.02999341448517331,-2.7522346546127996,0.03434246546368193,2.766329568915897,0.7692012090556938,1.6754973547542302,0.052104326824870026,0.029969505109285054,-2.752394845125968,0.0342448039870148,2.7663679543071322,0.7691630533470046,-0.000702551076290172,-0.0007652647232557891,0.0004511496725987396,0.0006318179278073917,5.80103499845706e-05,1.4798142151017948e-05,0.00153841432623371,0.0,0.0,0.0,0.0,0.0,0.0,0.0,-0.00016162668674768454,3.4016736618423804e-05,-2.3909375888257062e-05,-0.00016019051316851218,-9.766147666712827e-05,3.838539123535156e-05,-3.815570868914708e-05,0.000702551076290172,0.0007652647232557891,-0.0004511496725987396,-0.0006318179278073917,-5.80103499845706e-05,-1.4798142151017948e-05,-0.00153841432623371,0.4267818331718445,22.696680068969727,0.1491362750530243,-14.056428909301758,0.04273456335067749,-2.1453890800476074,0.43979209661483765,0
51,0.2500319480895996,-0.4267818331718445,-22.696680068969727,-0.1491362750530243,14.056428909301758,-0.04273456335067749,2.1453890800476074,-0.43979209661483765,0.0,0.0,0.0,0.0,0.0,0.0,0.0,-0.4370138036080519,0.08543265461055335,-0.1961761363800888,0.19701258201853322,-0.27825042556016605,-0.041254592587999635,-0.41118566568249965,1.675658981440978,0.0520703100882516,0.02999341448517331,-2.7522346546127996,0.03434246546368193,2.766329568915897,0.7692012090556938,1.6754973547542302,0.052104326824870026,0.029969505109285054,-2.752394845125968,0.0342448039870148,2.7663679543071322,0.7691630533470046,-0.000702551076290172,-0.0007652647232557891,0.0004511496725987396,0.0006318179278073917,5.80103499845706e-05,1.4798142151017948e-05,0.00153841432623371,0.0,0.0,0.0,0.0,0.0,0.0,0.0,-0.00016162668674768454,3.4016736618423804e-05,-2.3909375888257062e-05,-0.00016019051316851218,-9.766147666712827e-05,3.838539123535156e-05,-3.815570868914708e-05,0.000702551076290172,0.0007652647232557891,-0.0004511496725987396,-0.0006318179278073917,-5.80103499845706e-05,-1.4798142151017948e-05,-0.00153841432623371,0.4267818331718445,22.696680068969727,0.1491362750530243,-14.056428909301758,0.04273456335067749,-2.1453890800476074,0.43979209661483765,0
52,0.2549936771392822,-0.4783565402030945,-22.696680068969727,-0.1729399859905243,14.056428909301758,-0.04273456335067749,2.1453890800476074,-0.38577598333358765,0.0,0.0,0.0,0.0,0.0,0.0,0.0,-0.4403186431208765,0.09056462889077435,-0.19859417617694416,0.19261072836147414,-0.2784116134056402,-0.04297009010440358,-0.4095800623387033,1.6756619626876348,0.05207033647256376,0.029998266086879718,-2.7522325236313936,0.03434674660482351,2.766329568915897,0.7691952057639254,1.6754973547542302,0.052104326824870026,0.029969505109285054,-2.752394845125968,0.0342448039870148,2.7663679543071322,0.7691630533470046,0.0005316550652320334,-0.0004816629306955782,0.0008408438237772102,0.0003399356913216562,-0.00010422786329616279,1.674428207088297e-05,-0.001094574660232324,0.0,0.0,0.0,0.0,0.0,0.0,0.0,-0.00016460793340455915,3.3990352306265126e-05,-2.8760977594664144e-05,-0.00016232149457451328,-0.00010194261780870767,3.838539123535156e-05,-3.215241692078319e-05,-0.0005316550652320334,0.0004816629306955782,-0.0008408438237772102,-0.0003399356913216562,0.00010422786329616279,-1.674428207088297e-05,0.001094574660232324,0.4783565402030945,22.696680068969727,0.1729399859905243,-14.056428909301758,0.04273456335067749,-2.1453890800476074,0.38577598333358765,0
53,0.26002001762390137,-0.4783565402030945,-22.696680068969727,-0.1729399859905243,14.056428909301758,-0.04273456335067749,2.1453890800476074,-0.38577598333358765,0.0,0.0,0.0,0.0,0.0,0.0,0.0,-0.4403186431208765,0.09056462889077435,-0.19859417617694416,0.19261072836147414,-0.2784116134056402,-0.04297009010440358,-0.4095800623387033,1.6756619626876348,0.05207033647256376,0.029998266086879718,-2.7522325236313936,0.03434674660482351,2.766329568915897,0.7691952057639254,1.6754973547542302,0.052104326824870026,0.029969505109285054,-2.752394845125968,0.0342448039870148,2.7663679543071322,0.7691630533470046,0.0005316550652320334,-0.0004816629306955782,0.0008408438237772102,0.0003399356913216562,-0.00010422786329616279,1.674428207088297e-05,-0.001094574660232324,0.0,0.0,0.0,0.0,0.0,0.0,0.0,-0.00016460793340455915,3.3990352306265126e-05,-2.8760977594664144e-05,-0.00016232149457451328,-0.00010194261780870767,3.838539123535156e-05,-3.215241692078319e-05,-0.0005316550652320334,0.0004816629306955782,-0.0008408438237772102,-0.0003399356913216562,0.00010422786329616279,-1.674428207088297e-05,0.001094574660232324,0.4783565402030945,22.696680068969727,0.1729399859905243,-14.056428909301758,0.04273456335067749,-2.1453890800476074,0.38577598333358765,0
54,0.26498961448669434,-0.4029781222343445,-22.720483779907227,-0.1253325641155243,14.056428909301758,-0.04914325475692749,2.1389803886413574,-0.41965049505233765,0.0,0.0,0.0,0.0,0.0,0.0,0.0,-0.43497926120287694,0.08701049298358694,-0.19350563062609724,0.19507280564549961,-0.27945022016376275,-0.042804617387224554,-0.407835698038864,1.6756566112309448,0.05207198441689673,0.029992059550615503,-2.7522354878928326,0.034343144413865205,2.7663302809927197,0.7691989711059378,1.6754973547542302,0.052104326824870026,0.029969505109285054,-2.752394845125968,0.0342448039870148,2.7663679543071322,0.7691630533470046,-0.000580158307999291,-4.955787536264907e-05,0.0008657406213852344,0.00012214021223845562,-3.765212474767495e-05,3.622612254402371e-05,4.0158069688476924e-05,0.0,0.0,0.0,0.0,0.0,0.0,0.0,-0.00015925647671455323,3.234240797329868e-05,-2.25544413304489e-05,-0.0001593572331355375,-9.834042685040456e-05,3.767331441251187e-05,-3.591775893319049e-05,0.000580158307999291,4.955787536264907e-05,-0.0008657406213852344,-0.00012214021223845562,3.765212474767495e-05,-3.622612254402371e-05,-4.0158069688476924e-05,0.4029781222343445,22.720483779907227,0.1253325641155243,-14.056428909301758,0.04914325475692749,-2.1389803886413574,0.41965049505233765,0
55,0.26999521255493164,-0.4029781222343445,-22.720483779907227,-0.1253325641155243,14.056428909301758,-0.04914325475692749,2.1389803886413574,-0.41965049505233765,0.0,0.0,0.0,0.0,0.0,0.0,0.0,-0.43497926120287694,0.08701049298358694,-0.19350563062609724,0.19507280564549961,-0.27945022016376275,-0.042804617387224554,-0.407835698038864,1.6756566112309448,0.05207198441689673,0.029992059550615503,-2.7522354878928326,0.034343144413865205,2.7663302809927197,0.7691989711059378,1.6754973547542302,0.052104326824870026,0.029969505109285054,-2.752394845125968,0.0342448039870148,2.7663679543071322,0.7691630533470046,-0.000580158307999291,-4.955787536264907e-05,0.0008657406213852344,0.00012214021223845562,-3.765212474767495e-05,3.622612254402371e-05,4.0158069688476924e-05,0.0,0.0,0.0,0.0,0.0,0.0,0.0,-0.00015925647671455323,3.234240797329868e-05,-2.25544413304489e-05,-0.0001593572331355375,-9.834042685040456e-05,3.767331441251187e-05,-3.591775893319049e-05,0.000580158307999291,4.955787536264907e-05,-0.0008657406213852344,-0.00012214021223845562,3.765212474767495e-05,-3.622612254402371e-05,-4.0158069688476924e-05,0.4029781222343445,22.720483779907227,0.1253325641155243,-14.056428909301758,0.04914325475692749,-2.1389803886413574,0.41965049505233765,0
56,0.2749912738800049,-0.3752071261405945,-22.696680068969727,-0.1491362750530243,14.056428909301758,-0.04273456335067749,2.1389803886413574,-0.39218467473983765,0.0,0.0,0.0,0.0,0.0,0.0,0.0,-0.43882489976640593,0.089527097207459,-0.19685345500578422,0.19423057172863475,-0.2791139549458032,-0.04337524661868618,-0.40920627502131196,1.6756544053284042,0.05207102052216384,0.029994124345162024,-2.752234748913854,0.034343537206195894,2.7663302809927197,0.7691927389801956,1.6754973547542302,0.052104326824870026,0.029969505109285054,-2.752394845125968,0.0342448039870148,2.7663679543071322,0.7691630533470046,-0.0012171690114158068,-0.0003049717713113556,0.0015766947497990918,0.0002840472435009737,-0.00033975551184582296,1.351095593608553e-05,-0.0010396219234507975,0.0,0.0,0.0,0.0,0.0,0.0,0.0,-0.00015705057417392254,3.3306302706183344e-05,-2.4619235876970763e-05,-0.0001600962121139915,-9.873321918109357e-05,3.767331441251187e-05,-2.9685633190945637e-05,0.0012171690114158068,0.0003049717713113556,-0.0015766947497990918,-0.0002840472435009737,0.00033975551184582296,-1.351095593608553e-05,0.0010396219234507975,0.3752071261405945,22.696680068969727,0.1491362750530243,-14.056428909301758,0.04273456335067749,-2.1389803886413574,0.39218467473983765,0
57,0.2800171375274658,-0.3752071261405945,-22.696680068969727,-0.1491362750530243,14.056428909301758,-0.04273456335067749,2.1389803886413574,-0.39218467473983765,0.0,0.0,0.0,0.0,0.0,0.0,0.0,-0.43882489976640593,0.089527097207459,-0.19685345500578422,0.19423057172863475,-0.2791139549458032,-0.04337524661868618,-0.40920627502131196,1.6756544053284042,0.05207102052216384,0.029994124345162024,-2.752234748913854,0.034343537206195894,2.7663302809927197,0.7691927389801956,1.6754973547542302,0.052104326824870026,0.029969505109285054,-2.752394845125968,0.0342448039870148,2.7663679543071322,0.7691630533470046,-0.0012171690114158068,-0.0003049717713113556,0.0015766947497990918,0.0002840472435009737,-0.00033975551184582296,1.351095593608553e-05,-0.0010396219234507975,0.0,0.0,0.0,0.0,0.0,0.0,0.0,-0.00015705057417392254,3.3306302706183344e-05,-2.4619235876970763e-05,-0.0001600962121139915,-9.873321918109357e-05,3.767331441251187e-05,-2.9685633190945637e-05,0.0012171690114158068,0.0003049717713113556,-0.0015766947497990918,-0.0002840472435009737,0.00033975551184582296,-1.351095593608553e-05,0.0010396219234507975,0.3752071261405945,22.696680068969727,0.1491362750530243,-14.056428909301758,0.04273456335067749,-2.1389803886413574,0.39218467473983765,0
58,0.2849915027618408,-0.4267818331718445,-22.720483779907227,-0.07375786453485489,14.080232620239258,-0.04914325475692749,2.1389803886413574,-0.38577598333358765,0.0,0.0,0.0,0.0,0.0,0.0,0.0,-0.4434935194767022,0.08882107902362944,-0.20305335792267462,0.19486522720926192,-0.2784290736578796,-0.043764238762874025,-0.41038480374569297,1.6756580275844175,0.05207198052796896,0.02999130504037846,-2.752236912788162,0.03434634015352808,2.7663302809927197,0.7691906024061783,1.6754973547542302,0.052104326824870026,0.029969505109285054,-2.752394845125968,0.0342448039870148,2.7663679543071322,0.7691630533470046,-0.0004214314251823181,0.00022914162873273323,-0.0014222511135343623,-0.00040510523859225447,0.00010247971002731352,-8.245254139219585e-05,-0.000920904175488543,0.0,0.0,0.0,0.0,0.0,0.0,0.0,-0.00016067283018728062,3.234629690106877e-05,-2.1799931093406666e-05,-0.0001579323378062547,-0.00010153616651328162,3.767331441251187e-05,-2.7549059173681556e-05,0.0004214314251823181,-0.00022914162873273323,0.0014222511135343623,0.00040510523859225447,-0.00010247971002731352,8.245254139219585e-05,0.000920904175488543,0.4267818331718445,22.720483779907227,0.07375786453485489,-14.080232620239258,0.04914325475692749,-2.1389803886413574,0.38577598333358765,0
59,0.29001283645629883,-0.4267818331718445,-22.720483779907227,-0.07375786453485489,14.080232620239258,-0.04914325475692749,2.1389803886413574,-0.38577598333358765,0.0,0.0,0.0,0.0,0.0,0.0,0.0,-0.4434935194767022,0.08882107902362944,-0.20305335792267462,0.19486522720926192,-0.2784290736578796,-0.043764238762874025,-0.41038480374569297,1.6756580275844175,0.05207198052796896,0.02999130504037846,-2.752236912788162,0.03434634015352808,2.7663302809927197,0.7691906024061783,1.6754973547542302,0.052104326824870026,0.029969505109285054,-2.752394845125968,0.0342448039870148,2.7663679543071322,0.7691630533470046,-0.0004214314251823181,0.00022914162873273323,-0.0014222511135343623,-0.00040510523859225447,0.00010247971002731352,-8.245254139219585e-05,-0.000920904175488543,0.0,0.0,0.0,0.0,0.0,0.0,0.0,-0.00016067283018728062,3.234629690106877e-05,-2.1799931093406666e-05,-0.0001579323378062547,-0.00010153616651328162,3.767331441251187e-05,-2.7549059173681556e-05,0.0004214314251823181,-0.00022914162873273323,0.0014222511135343623,0.00040510523859225447,-0.00010247971002731352,8.245254139219585e-05,0.000920904175488543,0.4267818331718445,22.720483779907227,0.07375786453485489,-14.080232620239258,0.04914325475692749,-2.1389803886413574,0.38577598333358765,0
60,0.2950162887573242,-0.4267818331718445,-22.720483779907227,-0.1253325641155243,14.056428909301758,-0.04273456335067749,2.1389803886413574,-0.38577598333358765,0.0,0.0,0.0,0.0,0.0,0.0,0.0,-0.4340480235506529,0.09419870288474043,-0.1975009170714021,0.1910153295292806,-0.2793801877106879,-0.04519646111858518,-0.40837489432256713,1.6756587585021754,0.052071980523958554,0.029994899049660153,-2.7522352434102615,0.034343537224235936,2.7663302809927197,0.7691952072453162,1.6754973547542302,0.052104326824870026,0.029969505109285054,-2.752394845125968,0.0342448039870148,2.7663679543071322,0.7691630533470046,-0.0002705779735272226,0.0004358287996676409,0.0006423179267141891,2.9923419872641644e-05,-0.00025243900346216407,0.00013595755944933,-0.0008382867603356047,0.0,0.0,0.0,0.0,0.0,0.0,0.0,-0.00016140374794515466,3.234630091147189e-05,-2.539394037509926e-05,-0.0001596017157066143,-9.873323722113525e-05,3.767331441251187e-05,-3.2153898311571005e-05,0.0002705779735272226,-0.0004358287996676409,-0.0006423179267141891,-2.9923419872641644e-05,0.00025243900346216407,-0.00013595755944933,0.0008382867603356047,0.4267818331718445,22.720483779907227,0.1253325641155243,-14.056428909301758,0.04273456335067749,-2.1389803886413574,0.38577598333358765,0
61,0.29999685287475586,-0.4267818331718445,-22.720483779907227,-0.1253325641155243,14.056428909301758,-0.04273456335067749,2.1389803886413574,-0.38577598333358765,0.0,0.0,0.0,0.0,0.0,0.0,0.0,-0.4340480235506529,0.09419870288474043,-0.1975009170714021,0.1910153295292806,-0.2793801877106879,-0.04519646111858518,-0.40837489432256713,1.6756587585021754,0.052071980523958554,0.029994899049660153,-2.7522352434102615,0.034343537224235936,2.7663302809927197,0.7691952072453162,1.6754973547542302,0.052104326824870026,0.029969505109285054,-2.752394845125968,0.0342448039870148,2.7663679543071322,0.7691630533470046,-0.0002705779735272226,0.0004358287996676409,0.0006423179267141891,2.9923419872641644e-05,-0.00025243900346216407,0.00013595755944933,-0.0008382867603356047,0.0,0.0,0.0,0.0,0.0,0.0,0.0,-0.00016140374794515466,3.234630091147189e-05,-2.539394037509926e-05,-0.0001596017157066143,-9.873323722113525e-05,3.767331441251187e-05,-3.2153898311571005e-05,0.0002705779735272226,-0.0004358287996676409,-0.0006423179267141891,-2.9923419872641644e-05,0.00025243900346216407,-0.00013595755944933,0.0008382867603356047,0.4267818331718445,22.720483779907227,0.1253325641155243,-14.056428909301758,0.04273456335067749,-2.1389803886413574,0.38577598333358765,0
62,0.3050045967102051,-0.4267818331718445,-22.720483779907227,-0.1253325641155243,14.056428909301758,-0.04273456335067749,2.1389803886413574,-0.38577598333358765,0.0,0.0,0.0,0.0,0.0,0.0,0.0,-0.4340480235506529,0.09419870288474043,-0.1975009170714021,0.1910153295292806,-0.2793801877106879,-0.04519646111858518,-0.40837489432256713,1.6756587585021754,0.052071980523958554,0.029994899049660153,-2.7522352434102615,0.034343537224235936,2.7663302809927197,0.7691952072453162,1.6754973547542302,0.052104326824870026,0.029969505109285054,-2.752394845125968,0.0342448039870148,2.7663679543071322,0.7691630533470046,-0.0002705779735272226,0.0004358287996676409,0.0006423179267141891,2.9923419872641644e-05,-0.00025243900346216407,0.00013595755944933,-0.0008382867603356047,0.0,0.0,0.0,0.0,0.0,0.0,0.0,-0.00016140374794515466,3.234630091147189e-05,-2.539394037509926e-05,-0.0001596017157066143,-9.873323722113525e-05,3.767331441251187e-05,-3.2153898311571005e-05,0.0002705779735272226,-0.0004358287996676409,-0.0006423179267141891,-2.9923419872641644e-05,0.00025243900346216407,-0.00013595755944933,0.0008382867603356047,0.4267818331718445,22.720483779907227,0.1253325641155243,-14.056428909301758,0.04273456335067749,-2.1389803886413574,0.38577598333358765,0
63,0.30999135971069336,-0.4267818331718445,-22.720483779907227,-0.1253325641155243,14.056428909301758,-0.04273456335067749,2.1389803886413574,-0.38577598333358765,0.0,0.0,0.0,0.0,0.0,0.0,0.0,-0.4340480235506529,0.09419870288474043,-0.1975009170714021,0.1910153295292806,-0.2793801877106879,-0.04519646111858518,-0.40837489432256713,1.6756587585021754,0.052071980523958554,0.029994899049660153,-2.7522352434102615,0.034343537224235936,2.7663302809927197,0.7691952072453162,1.6754973547542302,0.052104326824870026,0.029969505109285054,-2.752394845125968,0.0342448039870148,2.7663679543071322,0.7691630533470046,-0.0002705779735272226,0.0004358287996676409,0.0006423179267141891,2.9923419872641644e-05,-0.00025243900346216407,0.00013595755944933,-0.0008382867603356047,0.0,0.0,0.0,0.0,0.0,0.0,0.0,-0.00016140374794515466,3.234630091147189e-05,-2.539394037509926e-05,-0.0001596017157066143,-9.873323722113525e-05,3.767331441251187e-05,-3.2153898311571005e-05,0.0002705779735272226,-0.0004358287996676409,-0.0006423179267141891,-2.9923419872641644e-05,0.00025243900346216407,-0.00013595755944933,0.0008382867603356047,0.4267818331718445,22.720483779907227,0.1253325641155243,-14.056428909301758,0.04273456335067749,-2.1389803886413574,0.38577598333358765,0
64,0.31499242782592773,-0.4505855441093445,-22.720483779907227,-0.1253325641155243,14.056428909301758,-0.05463641881942749,2.1389803886413574,-0.42605918645858765,0.0,0.0,0.0,0.0,0.0,0.0,0.0,-0.4349560561195791,0.09036631513848285,-0.19881221967975574,0.1948963773900287,-0.2796689222978162,-0.044713628386181134,-0.4064395077734015,1.6756596861053035,0.052074111862118674,0.029994922383814692,-2.752235490998326,0.03434806893099984,2.7663302679107673,0.7691993299700592,1.6754973547542302,0.052104326824870026,0.029969505109285054,-2.752394845125968,0.0342448039870148,2.7663679543071322,0.7691630533470046,0.00023974214747285666,9.668076931076623e-05,-0.00014389191467101508,0.0005055352271937724,0.0003959139139523667,7.737118738387788e-05,0.00038920752843148024,0.0,0.0,0.0,0.0,0.0,0.0,0.0,-0.0001623313510732416,3.0214962751351493e-05,-2.5417274529638406e-05,-0.0001593541276418975,-0.00010326494398504166,3.7686396364922103e-05,-3.627662305460966e-05,-0.00023974214747285666,-9.668076931076623e-05,0.00014389191467101508,-0.0005055352271937724,-0.0003959139139523667,-7.737118738387788e-05,-0.00038920752843148024,0.4505855441093445,22.720483779907227,0.1253325641155243,-14.056428909301758,0.05463641881942749,-2.1389803886413574,0.42605918645858765,0
65,0.3200204372406006,-0.4505855441093445,-22.720483779907227,-0.1253325641155243,14.056428909301758,-0.05463641881942749,2.1389803886413574,-0.42605918645858765,0.0,0.0,0.0,0.0,0.0,0.0,0.0,-0.4349560561195791,0.09036631513848285,-0.19881221967975574,0.1948963773900287,-0.2796689222978162,-0.044713628386181134,-0.4064395077734015,1.6756596861053035,0.052074111862118674,0.029994922383814692,-2.752235490998326,0.03434806893099984,2.7663302679107673,0.7691993299700592,1.6754973547542302,0.052104326824870026,0.029969505109285054,-2.752394845125968,0.0342448039870148,2.7663679543071322,0.7691630533470046,0.00023974214747285666,9.668076931076623e-05,-0.00014389191467101508,0.0005055352271937724,0.0003959139139523667,7.737118738387788e-05,0.00038920752843148024,0.0,0.0,0.0,0.0,0.0,0.0,0.0,-0.0001623313510732416,3.0214962751351493e-05,-2.5417274529638406e-05,-0.0001593541276418975,-0.00010326494398504166,3.7686396364922103e-05,-3.627662305460966e-05,-0.00023974214747285666,-9.668076931076623e-05,0.00014389191467101508,-0.0005055352271937724,-0.0003959139139523667,-7.737118738387788e-05,-0.00038920752843148024,0.4505855441093445,22.720483779907227,0.1253325641155243,-14.056428909301758,0.05463641881942749,-2.1389803886413574,0.42605918645858765,0
66,0.3250453472137451,-0.4505855441093445,-22.720483779907227,-0.1253325641155243,14.080232620239258,-0.04914325475692749,2.1325716972351074,-0.43979209661483765,0.0,0.0,0.0,0.0,0.0,0.0,0.0,-0.4329266176672931,0.09602306960111884,-0.19856297020490063,0.1886551367127506,-0.2798400048880188,-0.04609871657928171,-0.40680425469945003,1.6756604906411714,0.05207198053599,0.0299946769230089,-2.752236804298284,0.03434732576350188,2.766330993069469,0.7692000316301472,1.6754973547542302,0.052104326824870026,0.029969505109285054,-2.752394845125968,0.0342448039870148,2.7663679543071322,0.7691630533470046,0.00013471617144402172,0.0005683085917214271,0.00016224275223792467,-0.0004893257660941822,-0.00011290299726243443,0.00016707268047418299,0.0012232279425111899,0.0,0.0,0.0,0.0,0.0,0.0,0.0,-0.0001631358869411681,3.234628888002661e-05,-2.5171813723846165e-05,-0.0001580408276842249,-0.00010252177648707728,3.696123766339099e-05,-3.6978283142530266e-05,-0.00013471617144402172,-0.0005683085917214271,-0.00016224275223792467,0.0004893257660941822,0.00011290299726243443,-0.00016707268047418299,-0.0012232279425111899,0.4505855441093445,22.720483779907227,0.1253325641155243,-14.080232620239258,0.04914325475692749,-2.1325716972351074,0.43979209661483765,0
67,0.3300142288208008,-0.4505855441093445,-22.720483779907227,-0.1253325641155243,14.080232620239258,-0.04914325475692749,2.1325716972351074,-0.43979209661483765,0.0,0.0,0.0,0.0,0.0,0.0,0.0,-0.4329266176672931,0.09602306960111884,-0.19856297020490063,0.1886551367127506,-0.2798400048880188,-0.04609871657928171,-0.40680425469945003,1.6756604906411714,0.05207198053599,0.0299946769230089,-2.752236804298284,0.03434732576350188,2.766330993069469,0.7692000316301472,1.6754973547542302,0.052104326824870026,0.029969505109285054,-2.752394845125968,0.0342448039870148,2.7663679543071322,0.7691630533470046,0.00013471617144402172,0.0005683085917214271,0.00016224275223792467,-0.0004893257660941822,-0.00011290299726243443,0.00016707268047418299,0.0012232279425111899,0.0,0.0,0.0,0.0,0.0,0.0,0.0,-0.0001631358869411681,3.234628888002661e-05,-2.5171813723846165e-05,-0.0001580408276842249,-0.00010252177648707728,3.696123766339099e-05,-3.6978283142530266e-05,-0.00013471617144402172,-0.0005683085917214271,-0.00016224275223792467,0.0004893257660941822,0.00011290299726243443,-0.00016707268047418299,-0.0012232279425111899,0.4505855441093445,22.720483779907227,0.1253325641155243,-14.080232620239258,0.04914325475692749,-2.1325716972351074,0.43979209661483765,0
68,0.33502984046936035,-0.4267818331718445,-22.672876358032227,-0.1253325641155243,14.032625198364258,-0.04273456335067749,2.1389803886413574,-0.43979209661483765,0.0,0.0,0.0,0.0,0.0,0.0,0.0,-0.4360632160466901,0.08791085288866075,-0.19856601067828109,0.1950537058744793,-0.2802110021901389,-0.045188164176973716,-0.4090706723949497,1.675658281887524,0.05206864062544539,0.029994816170033453,-2.7522337381455535,0.03434564016497401,2.7663302809927193,0.7692010913174588,1.6754973547542302,0.052104326824870026,0.029969505109285054,-2.752394845125968,0.0342448039870148,2.7663679543071322,0.7691630533470046,-0.0004845540532298342,-0.0010268638538945905,0.0002629294344839745,0.0008514517767457752,-5.2490915177188807e-05,7.46035875917828e-05,0.0007830277795460386,0.0,0.0,0.0,0.0,0.0,0.0,0.0,-0.00016092713329385333,3.568619942463658e-05,-2.531106074839945e-05,-0.0001611069804146048,-0.00010083617795920985,3.767331441295596e-05,-3.803797045420776e-05,0.0004845540532298342,0.0010268638538945905,-0.0002629294344839745,-0.0008514517767457752,5.2490915177188807e-05,-7.46035875917828e-05,-0.0007830277795460386,0.4267818331718445,22.672876358032227,0.1253325641155243,-14.032625198364258,0.04273456335067749,-2.1389803886413574,0.43979209661483765,0
69,0.34000730514526367,-0.4267818331718445,-22.672876358032227,-0.1253325641155243,14.032625198364258,-0.04273456335067749,2.1389803886413574,-0.43979209661483765,0.0,0.0,0.0,0.0,0.0,0.0,0.0,-0.4360632160466901,0.08791085288866075,-0.19856601067828109,0.1950537058744793,-0.2802110021901389,-0.045188164176973716,-0.4090706723949497,1.675658281887524,0.05206864062544539,0.029994816170033453,-2.7522337381455535,0.03434564016497401,2.7663302809927193,0.7692010913174588,1.6754973547542302,0.052104326824870026,0.029969505109285054,-2.752394845125968,0.0342448039870148,2.7663679543071322,0.7691630533470046,-0.0004845540532298342,-0.0010268638538945905,0.0002629294344839745,0.0008514517767457752,-5.2490915177188807e-05,7.46035875917828e-05,0.0007830277795460386,0.0,0.0,0.0,0.0,0.0,0.0,0.0,-0.00016092713329385333,3.568619942463658e-05,-2.531106074839945e-05,-0.0001611069804146048,-0.00010083617795920985,3.767331441295596e-05,-3.803797045420776e-05,0.0004845540532298342,0.0010268638538945905,-0.0002629294344839745,-0.0008514517767457752,5.2490915177188807e-05,-7.46035875917828e-05,-0.0007830277795460386,0.4267818331718445,22.672876358032227,0.1253325641155243,-14.032625198364258,0.04273456335067749,-2.1389803886413574,0.43979209661483765,0
70,0.3449971675872803,-0.4783565402030945,-22.696680068969727,-0.1491362750530243,14.032625198364258,-0.05463641881942749,2.1453890800476074,-0.43338340520858765,0.0,0.0,0.0,0.0,0.0,0.0,0.0,-0.4426636979848906,0.08524792334342815,-0.2055740772909573,0.197690097025593,-0.27968442831361695,-0.043509200321085476,-0.4123382443400392,1.6756617232476214,0.05207031888292893,0.02999651398029387,-2.7522337829164516,0.03434806910525982,2.7663295689158964,0.7692004576844961,1.6754973547542302,0.052104326824870026,0.029969505109285054,-2.752394845125968,0.0342448039870148,2.7663679543071322,0.7691630533470046,0.0005047877999681561,-0.0003563841958645396,0.00027215273468081554,9.472001429320856e-05,9.259953075393382e-05,-0.0035296698834178203,0.0011205911583100823,0.0,0.0,0.0,0.0,0.0,0.0,0.0,-0.0001643684933911871,3.400794194109713e-05,-2.700887100881566e-05,-0.00016106220951650485,-0.00010326511824501616,3.838539123579565e-05,-3.740433749144234e-05,-0.0005047877999681561,0.0003563841958645396,-0.00027215273468081554,-9.472001429320856e-05,-9.259953075393382e-05,0.0035296698834178203,-0.0011205911583100823,0.4783565402030945,22.696680068969727,0.1491362750530243,-14.032625198364258,0.05463641881942749,-2.1453890800476074,0.43338340520858765,0
71,0.349994421005249,-0.4783565402030945,-22.696680068969727,-0.1491362750530243,14.032625198364258,-0.05463641881942749,2.1453890800476074,-0.43338340520858765,0.0,0.0,0.0,0.0,0.0,0.0,0.0,-0.4426636979848906,0.08524792334342815,-0.2055740772909573,0.197690097025593,-0.27968442831361695,-0.043509200321085476,-0.4123382443400392,1.6756617232476214,0.05207031888292893,0.02999651398029387,-2.7522337829164516,0.03434806910525982,2.7663295689158964,0.7692004576844961,1.6754973547542302,0.052104326824870026,0.029969505109285054,-2.752394845125968,0.0342448039870148,2.7663679543071322,0.7691630533470046,0.0005047877999681561,-0.0003563841958645396,0.00027215273468081554,9.472001429320856e-05,9.259953075393382e-05,-0.0035296698834178203,0.0011205911583100823,0.0,0.0,0.0,0.0,0.0,0.0,0.0,-0.0001643684933911871,3.400794194109713e-05,-2.700887100881566e-05,-0.00016106220951650485,-0.00010326511824501616,3.838539123579565e-05,-3.740433749144234e-05,-0.0005047877999681561,0.0003563841958645396,-0.00027215273468081554,-9.472001429320856e-05,-9.259953075393382e-05,0.0035296698834178203,-0.0011205911583100823,0.4783565402030945,22.696680068969727,0.1491362750530243,-14.032625198364258,0.05463641881942749,-2.1453890800476074,0.43338340520858765,0
72,0.3549950122833252,-0.4267818331718445,-22.696680068969727,-0.09756157547235489,14.108003616333008,-0.04914325475692749,2.1389803886413574,-0.40591758489608765,0.0,0.0,0.0,0.0,0.0,0.0,0.0,-0.4366950658279514,0.09111137760351862,-0.20357349080952367,0.1914526787468551,-0.28064259901539257,-0.0456872775984765,-0.4124619949216916,1.6756582848269201,0.05207038891713528,0.0299920298916744,-2.7522391102771975,0.034347321379004814,2.7663302809927193,0.7691970789321562,1.6754973547542302,0.052104326824870026,0.029969505109285054,-2.752394845125968,0.0342448039870148,2.7663679543071322,0.7691630533470046,-0.0004011388037221508,-6.829842596291006e-05,-0.000701234910459853,-0.000910719990116578,0.00021548736671365387,-8.271894913281828e-05,0.0004646126455272688,0.0,0.0,0.0,0.0,0.0,0.0,0.0,-0.00016093007268991322,3.393790773474625e-05,-2.2524782389347214e-05,-0.00015573484877062782,-0.00010251739199001325,3.767331441295596e-05,-3.402558515153142e-05,0.0004011388037221508,6.829842596291006e-05,0.000701234910459853,0.000910719990116578,-0.00021548736671365387,8.271894913281828e-05,-0.0004646126455272688,0.4267818331718445,22.696680068969727,0.09756157547235489,-14.108003616333008,0.04914325475692749,-2.1389803886413574,0.40591758489608765,0
73,0.360013484954834,-0.4267818331718445,-22.696680068969727,-0.09756157547235489,14.108003616333008,-0.04914325475692749,2.1389803886413574,-0.40591758489608765,0.0,0.0,0.0,0.0,0.0,0.0,0.0,-0.4366950658279514,0.09111137760351862,-0.20357349080952367,0.1914526787468551,-0.28064259901539257,-0.0456872775984765,-0.4124619949216916,1.6756582848269201,0.05207038891713528,0.0299920298916744,-2.7522391102771975,0.034347321379004814,2.7663302809927193,0.7691970789321562,1.6754973547542302,0.052104326824870026,0.029969505109285054,-2.752394845125968,0.0342448039870148,2.7663679543071322,0.7691630533470046,-0.0004011388037221508,-6.829842596291006e-05,-0.000701234910459853,-0.000910719990116578,0.00021548736671365387,-8.271894913281828e-05,0.0004646126455272688,0.0,0.0,0.0,0.0,0.0,0.0,0.0,-0.00016093007268991322,3.393790773474625e-05,-2.2524782389347214e-05,-0.00015573484877062782,-0.00010251739199001325,3.767331441295596e-05,-3.402558515153142e-05,0.0004011388037221508,6.829842596291006e-05,0.000701234910459853,0.000910719990116578,-0.00021548736671365387,8.271894913281828e-05,-0.0004646126455272688,0.4267818331718445,22.696680068969727,0.09756157547235489,-14.108003616333008,0.04914325475692749,-2.1389803886413574,0.40591758489608765,0
74,0.3650636672973633,-0.4267818331718445,-22.696680068969727,-0.09756157547235489,14.080232620239258,-0.04914325475692749,2.1453890800476074,-0.37845176458358765,0.0,0.0,0.0,0.0,0.0,0.0,0.0,-0.43915037138331803,0.09850017861832149,-0.20459851178819025,0.18651389336865654,-0.28039107703857025,-0.04714164081576764,-0.41037604721398036,1.675658016759976,0.052070313009030186,0.029992975510219507,-2.752234926925087,0.03434705099929874,2.7663295689158964,0.7691943396816653,1.6754973547542302,0.052104326824870026,0.029969505109285054,-2.752394845125968,0.0342448039870148,2.7663679543071322,0.7691630533470046,-0.0004306969603379959,0.0002768396754786753,-6.808774732790944e-05,-0.00017060942427107805,-1.1746982626466473e-05,-0.0001750708099952042,-0.0013503056374956407,0.0,0.0,0.0,0.0,0.0,0.0,0.0,-0.00016066200574571532,3.4013815839839534e-05,-2.3470400934453434e-05,-0.00015991820088112618,-0.00010224701228393751,3.838539123579565e-05,-3.128633466065178e-05,0.0004306969603379959,-0.0002768396754786753,6.808774732790944e-05,0.00017060942427107805,1.1746982626466473e-05,0.0001750708099952042,0.0013503056374956407,0.4267818331718445,22.696680068969727,0.09756157547235489,-14.080232620239258,0.04914325475692749,-2.1453890800476074,0.37845176458358765,0
75,0.3700277805328369,-0.4267818331718445,-22.696680068969727,-0.09756157547235489,14.080232620239258,-0.04914325475692749,2.1453890800476074,-0.37845176458358765,0.0,0.0,0.0,0.0,0.0,0.0,0.0,-0.43915037138331803,0.09850017861832149,-0.20459851178819025,0.18651389336865654,-0.28039107703857025,-0.04714164081576764,-0.41037604721398036,1.675658016759976,0.052070313009030186,0.029992975510219507,-2.752234926925087,0.03434705099929874,2.7663295689158964,0.7691943396816653,1.6754973547542302,0.052104326824870026,0.029969505109285054,-2.752394845125968,0.0342448039870148,2.7663679543071322,0.7691630533470046,-0.0004306969603379959,0.0002768396754786753,-6.808774732790944e-05,-0.00017060942427107805,-1.1746982626466473e-05,-0.0001750708099952042,-0.0013503056374956407,0.0,0.0,0.0,0.0,0.0,0.0,0.0,-0.00016066200574571532,3.4013815839839534e-05,-2.3470400934453434e-05,-0.00015991820088112618,-0.00010224701228393751,3.838539123579565e-05,-3.128633466065178e-05,0.0004306969603379959,-0.0002768396754786753,6.808774732790944e-05,0.00017060942427107805,1.1746982626466473e-05,0.0001750708099952042,0.0013503056374956407,0.4267818331718445,22.696680068969727,0.09756157547235489,-14.080232620239258,0.04914325475692749,-2.1453890800476074,0.37845176458358765,0
76,0.3750627040863037,-0.4029781222343445,-22.720483779907227,-0.1491362750530243,14.056428909301758,-0.04914325475692749,2.1325716972351074,-0.37845176458358765,0.0,0.0,0.0,0.0,0.0,0.0,0.0,-0.43895578615207725,0.09445436612769985,-0.19958350717738207,0.19178246408306418,-0.2806481177096113,-0.04539783612302926,-0.4084553614989541,1.6756585714506196,0.05207221704695547,0.02999588589039298,-2.752235487603902,0.034347340323599505,2.7663309930695426,0.7691943934691263,1.6754973547542302,0.052104326824870026,0.029969505109285054,-2.752394845125968,0.0342448039870148,2.7663679543071322,0.7691630533470046,-0.00019915521888946478,0.0003251529649548861,0.0010251438678846926,0.0005453318330624984,-2.626219476308378e-05,0.0006056055889858342,-0.0008494926611469352,0.0,0.0,0.0,0.0,0.0,0.0,0.0,-0.00016121669638935465,3.2109777914554605e-05,-2.6380781107927798e-05,-0.0001593575220661947,-0.00010253633658470485,3.696123758967218e-05,-3.134012212169246e-05,0.00019915521888946478,-0.0003251529649548861,-0.0010251438678846926,-0.0005453318330624984,2.626219476308378e-05,-0.0006056055889858342,0.0008494926611469352,0.4029781222343445,22.720483779907227,0.1491362750530243,-14.056428909301758,0.04914325475692749,-2.1325716972351074,0.37845176458358765,0
77,0.3801407814025879,-0.4029781222343445,-22.720483779907227,-0.1491362750530243,14.056428909301758,-0.04914325475692749,2.1325716972351074,-0.37845176458358765,0.0,0.0,0.0,0.0,0.0,0.0,0.0,-0.43895578615207725,0.09445436612769985,-0.19958350717738207,0.19178246408306418,-0.2806481177096113,-0.04539783612302926,-0.4084553614989541,1.6756585714506196,0.05207221704695547,0.02999588589039298,-2.752235487603902,0.034347340323599505,2.7663309930695426,0.7691943934691263,1.6754973547542302,0.052104326824870026,0.029969505109285054,-2.752394845125968,0.0342448039870148,2.7663679543071322,0.7691630533470046,-0.00019915521888946478,0.0003251529649548861,0.0010251438678846926,0.0005453318330624984,-2.626219476308378e-05,0.0006056055889858342,-0.0008494926611469352,0.0,0.0,0.0,0.0,0.0,0.0,0.0,-0.00016121669638935465,3.2109777914554605e-05,-2.6380781107927798e-05,-0.0001593575220661947,-0.00010253633658470485,3.696123758967218e-05,-3.134012212169246e-05,0.00019915521888946478,-0.0003251529649548861,-0.0010251438678846926,-0.0005453318330624984,2.626219476308378e-05,-0.0006056055889858342,0.0008494926611469352,0.4029781222343445,22.720483779907227,0.1491362750530243,-14.056428909301758,0.04914325475692749,-2.1325716972351074,0.37845176458358765,0
78,0.38500356674194336,-0.4029781222343445,-22.672876358032227,-0.1253325641155243,14.131807327270508,-0.04273456335067749,2.1453890800476074,-0.40591758489608765,0.0,0.0,0.0,0.0,0.0,0.0,0.0,-0.4339800167348272,0.09950251279368111,-0.19715752935220637,0.19083135476054713,-0.28085740390867664,-0.04489536585131982,-0.4076159377270145,1.6756566660768446,0.05206935895453064,0.02999492533731647,-2.752240438800544,0.034345679246631386,2.7663295689158964,0.7691942660973113,1.6754973547542302,0.052104326824870026,0.029969505109285054,-2.752394845125968,0.0342448039870148,2.7663679543071322,0.7691630533470046,-0.0001626490789519889,-0.000627339707773599,0.0009920159150700759,-0.001508706903722985,-8.356642130123452e-05,-2.8344011249816085e-06,-0.0007987727592437224,0.0,0.0,0.0,0.0,0.0,0.0,0.0,-0.00015931132261437497,3.49678703393877e-05,-2.5420228031414888e-05,-0.00015440632542418342,-0.00010087525961658544,3.838539123579565e-05,-3.121275030670834e-05,0.0001626490789519889,0.000627339707773599,-0.0009920159150700759,0.001508706903722985,8.356642130123452e-05,2.8344011249816085e-06,0.0007987727592437224,0.4029781222343445,22.672876358032227,0.1253325641155243,-14.131807327270508,0.04273456335067749,-2.1453890800476074,0.40591758489608765,0
79,0.3900175094604492,-0.4029781222343445,-22.672876358032227,-0.1253325641155243,14.131807327270508,-0.04273456335067749,2.1453890800476074,-0.40591758489608765,0.0,0.0,0.0,0.0,0.0,0.0,0.0,-0.4339800167348272,0.09950251279368111,-0.19715752935220637,0.19083135476054713,-0.28085740390867664,-0.04489536585131982,-0.4076159377270145,1.6756566660768446,0.05206935895453064,0.02999492533731647,-2.752240438800544,0.034345679246631386,2.7663295689158964,0.7691942660973113,1.6754973547542302,0.052104326824870026,0.029969505109285054,-2.752394845125968,0.0342448039870148,2.7663679543071322,0.7691630533470046,-0.0001626490789519889,-0.000627339707773599,0.0009920159150700759,-0.001508706903722985,-8.356642130123452e-05,-2.8344011249816085e-06,-0.0007987727592437224,0.0,0.0,0.0,0.0,0.0,0.0,0.0,-0.00015931132261437497,3.49678703393877e-05,-2.5420228031414888e-05,-0.00015440632542418342,-0.00010087525961658544,3.838539123579565e-05,-3.121275030670834e-05,0.0001626490789519889,0.000627339707773599,-0.0009920159150700759,0.001508706903722985,8.356642130123452e-05,2.8344011249816085e-06,0.0007987727592437224,0.4029781222343445,22.672876358032227,0.1253325641155243,-14.131807327270508,0.04273456335067749,-2.1453890800476074,0.40591758489608765,0
