rezayati/contactInterpretation/dataset/franka_main/labeled_data/link5/c12_3.csv
index,time,tau_J0,tau_J1,tau_J2,tau_J3,tau_J4,tau_J5,tau_J6,tau_J_d0,tau_J_d1,tau_J_d2,tau_J_d3,tau_J_d4,tau_J_d5,tau_J_d6,tau_ext0,tau_ext1,tau_ext2,tau_ext3,tau_ext4,tau_ext5,tau_ext6,q0,q1,q2,q3,q4,q5,q6,q_d0,q_d1,q_d2,q_d3,q_d4,q_d5,q_d6,dq0,dq1,dq2,dq3,dq4,dq5,dq6,dq_d0,dq_d1,dq_d2,dq_d3,dq_d4,dq_d5,dq_d6,e0,e1,e2,e3,e4,e5,e6,de0,de1,de2,de3,de4,de5,de6,etau_J0,etau_J1,etau_J2,etau_J3,etau_J4,etau_J5,etau_J6,label
1,0.0,-0.6291133761405945,-34.09072494506836,-4.025173664093018,19.436067581176758,0.1293845772743225,1.777347207069397,-0.02231161668896675,0.0,0.0,0.0,0.0,0.0,0.0,0.0,-0.6414264190329975,-0.030238515365675657,-0.4611966831136728,0.3840737650604126,0.07796703079656604,-0.11788016364665575,-0.07388902849750759,1.0545409134438164,0.3236615523511206,-0.392448605107374,-2.1530946896226792,0.8646475006834414,2.465930627862615,0.5444794053775491,1.0544104758940245,0.3238615046091247,-0.39250456234122666,-2.153291787532338,0.8647539153680389,2.46587817577521,0.5445020185570556,0.0003325058329880351,3.1570822941673497e-05,0.0006955613498893031,-0.00025700021152189967,0.00012849463434846958,6.627182884714335e-06,-0.001823227692855724,0.0,0.0,0.0,0.0,0.0,0.0,0.0,-0.00013043754979191746,0.0001999522580041213,-5.595723385265483e-05,-0.00019709790965860563,0.00010641468459748893,-5.2452087405008285e-05,2.2613179506469905e-05,-0.0003325058329880351,-3.1570822941673497e-05,-0.0006955613498893031,0.00025700021152189967,-0.00012849463434846958,-6.627182884714335e-06,0.001823227692855724,0.6291133761405945,34.09072494506836,4.025173664093018,-19.436067581176758,-0.1293845772743225,-1.777347207069397,0.02231161668896675,0
2,0.0049953460693359375,-0.6291133761405945,-34.09072494506836,-4.025173664093018,19.436067581176758,0.1293845772743225,1.777347207069397,-0.02231161668896675,0.0,0.0,0.0,0.0,0.0,0.0,0.0,-0.6414264190329975,-0.030238515365675657,-0.4611966831136728,0.3840737650604126,0.07796703079656604,-0.11788016364665575,-0.07388902849750759,1.0545409134438164,0.3236615523511206,-0.392448605107374,-2.1530946896226792,0.8646475006834414,2.465930627862615,0.5444794053775491,1.0544104758940245,0.3238615046091247,-0.39250456234122666,-2.153291787532338,0.8647539153680389,2.46587817577521,0.5445020185570556,0.0003325058329880351,3.1570822941673497e-05,0.0006955613498893031,-0.00025700021152189967,0.00012849463434846958,6.627182884714335e-06,-0.001823227692855724,0.0,0.0,0.0,0.0,0.0,0.0,0.0,-0.00013043754979191746,0.0001999522580041213,-5.595723385265483e-05,-0.00019709790965860563,0.00010641468459748893,-5.2452087405008285e-05,2.2613179506469905e-05,-0.0003325058329880351,-3.1570822941673497e-05,-0.0006955613498893031,0.00025700021152189967,-0.00012849463434846958,-6.627182884714335e-06,0.001823227692855724,0.6291133761405945,34.09072494506836,4.025173664093018,-19.436067581176758,-0.1293845772743225,-1.777347207069397,0.02231161668896675,0
3,0.009995460510253906,-0.6806880831718445,-34.06295394897461,-4.025173664093018,19.412263870239258,0.1412864327430725,1.770938515663147,-0.09097616374492645,0.0,0.0,0.0,0.0,0.0,0.0,0.0,-0.6423344591467148,-0.01880415594580002,-0.45513460579571746,0.37695506245849636,0.07821375778728676,-0.11994343143045486,-0.07280175984095007,1.0545445327215028,0.32366031213828816,-0.3924486809282052,-2.1530932783464976,0.8646461738944299,2.465931339939435,0.5444870347893899,1.0544104758940245,0.3238615046091247,-0.39250456234122666,-2.153291787532338,0.8647539153680389,2.46587817577521,0.5445020185570556,0.0009738684434901684,-0.0003176942739120053,0.0003709429650962054,-0.00033682827193680365,-0.00016624598640947537,0.00038654507044921576,0.0009092046119556586,0.0,0.0,0.0,0.0,0.0,0.0,0.0,-0.00013405682747835712,0.00020119247083655312,-5.588141302148575e-05,-0.00019850918584030097,0.00010774147360903541,-5.316416422518344e-05,1.4983767665732728e-05,-0.0009738684434901684,0.0003176942739120053,-0.0003709429650962054,0.00033682827193680365,0.00016624598640947537,-0.00038654507044921576,-0.0009092046119556586,0.6806880831718445,34.06295394897461,4.025173664093018,-19.412263870239258,-0.1412864327430725,-1.770938515663147,0.09097616374492645,0
4,0.0149993896484375,-0.6806880831718445,-34.06295394897461,-4.025173664093018,19.412263870239258,0.1412864327430725,1.770938515663147,-0.09097616374492645,0.0,0.0,0.0,0.0,0.0,0.0,0.0,-0.6423344591467148,-0.01880415594580002,-0.45513460579571746,0.37695506245849636,0.07821375778728676,-0.11994343143045486,-0.07280175984095007,1.0545445327215028,0.32366031213828816,-0.3924486809282052,-2.1530932783464976,0.8646461738944299,2.465931339939435,0.5444870347893899,1.0544104758940245,0.3238615046091247,-0.39250456234122666,-2.153291787532338,0.8647539153680389,2.46587817577521,0.5445020185570556,0.0009738684434901684,-0.0003176942739120053,0.0003709429650962054,-0.00033682827193680365,-0.00016624598640947537,0.00038654507044921576,0.0009092046119556586,0.0,0.0,0.0,0.0,0.0,0.0,0.0,-0.00013405682747835712,0.00020119247083655312,-5.588141302148575e-05,-0.00019850918584030097,0.00010774147360903541,-5.316416422518344e-05,1.4983767665732728e-05,-0.0009738684434901684,0.0003176942739120053,-0.0003709429650962054,0.00033682827193680365,0.00016624598640947537,-0.00038654507044921576,-0.0009092046119556586,0.6806880831718445,34.06295394897461,4.025173664093018,-19.412263870239258,-0.1412864327430725,-1.770938515663147,0.09097616374492645,0
5,0.0217745304107666,-0.5815059542655945,-34.03915023803711,-3.9497954845428467,19.412263870239258,0.12389141321182251,1.777347207069397,-0.04977743700146675,0.0,0.0,0.0,0.0,0.0,0.0,0.0,-0.6232696387499079,-0.0072234927495028875,-0.4329745145733372,0.3782919493261799,0.07806181868603043,-0.12281804659640692,-0.07290978676898009,1.0545375725721058,0.3236585629694333,-0.3924538918884438,-2.153093269774706,0.8646481072127051,2.4659307514870608,0.5444824571530851,1.0544104758940245,0.3238615046091247,-0.39250456234122666,-2.153291787532338,0.8647539153680389,2.46587817577521,0.5445020185570556,-0.0008517309333695141,-0.00023571635417654087,-0.000735410837547494,7.172235952304404e-05,0.0002341454973867046,0.00015079389993279303,-0.0009506997554608715,0.0,0.0,0.0,0.0,0.0,0.0,0.0,-0.00012709667808130654,0.00020294163969142298,-5.067045278284166e-05,-0.00019851775763202184,0.0001058081553337864,-5.257571185079968e-05,1.956140397052497e-05,0.0008517309333695141,0.00023571635417654087,0.000735410837547494,-7.172235952304404e-05,-0.0002341454973867046,-0.00015079389993279303,0.0009506997554608715,0.5815059542655945,34.03915023803711,3.9497954845428467,-19.412263870239258,-0.12389141321182251,-1.777347207069397,0.04977743700146675,0
6,0.024952411651611328,-0.5815059542655945,-34.03915023803711,-3.9497954845428467,19.412263870239258,0.12389141321182251,1.777347207069397,-0.04977743700146675,0.0,0.0,0.0,0.0,0.0,0.0,0.0,-0.6232696387499079,-0.0072234927495028875,-0.4329745145733372,0.3782919493261799,0.07806181868603043,-0.12281804659640692,-0.07290978676898009,1.0545375725721058,0.3236585629694333,-0.3924538918884438,-2.153093269774706,0.8646481072127051,2.4659307514870608,0.5444824571530851,1.0544104758940245,0.3238615046091247,-0.39250456234122666,-2.153291787532338,0.8647539153680389,2.46587817577521,0.5445020185570556,-0.0008517309333695141,-0.00023571635417654087,-0.000735410837547494,7.172235952304404e-05,0.0002341454973867046,0.00015079389993279303,-0.0009506997554608715,0.0,0.0,0.0,0.0,0.0,0.0,0.0,-0.00012709667808130654,0.00020294163969142298,-5.067045278284166e-05,-0.00019851775763202184,0.0001058081553337864,-5.257571185079968e-05,1.956140397052497e-05,0.0008517309333695141,0.00023571635417654087,0.000735410837547494,-7.172235952304404e-05,-0.0002341454973867046,-0.00015079389993279303,0.0009506997554608715,0.5815059542655945,34.03915023803711,3.9497954845428467,-19.412263870239258,-0.12389141321182251,-1.777347207069397,0.04977743700146675,0
7,0.030002832412719727,-0.6053096652030945,-34.09072494506836,-4.025173664093018,19.412263870239258,0.1357932686805725,1.796573281288147,-0.09097616374492645,0.0,0.0,0.0,0.0,0.0,0.0,0.0,-0.6449797633409997,-0.012040891426534977,-0.4528596524248919,0.3830042326833124,0.07831580073470408,-0.12084500111446056,-0.07238794021623078,1.054539243007961,0.3236622522351196,-0.3924486021911888,-2.1530925858388903,0.8646467842459707,2.4659284916328414,0.5444870347893899,1.0544104758940245,0.3238615046091247,-0.39250456234122666,-2.153291787532338,0.8647539153680389,2.46587817577521,0.5445020185570556,-0.0006159853778379342,0.0008493813259585206,0.0002728207954154391,0.0002931014735004532,-0.0002548905678102552,-0.0004678775727364616,0.00035452377150848354,0.0,0.0,0.0,0.0,0.0,0.0,0.0,-0.00012876711393650098,0.00019925237400514328,-5.596015003783705e-05,-0.00019920169344755934,0.00010713112206817144,-5.0315857631488825e-05,1.4983767665732728e-05,0.0006159853778379342,-0.0008493813259585206,-0.0002728207954154391,-0.0002931014735004532,0.0002548905678102552,0.0004678775727364616,-0.00035452377150848354,0.6053096652030945,34.09072494506836,4.025173664093018,-19.412263870239258,-0.1357932686805725,-1.796573281288147,0.09097616374492645,0
8,0.03501152992248535,-0.6053096652030945,-34.09072494506836,-4.025173664093018,19.412263870239258,0.1357932686805725,1.796573281288147,-0.09097616374492645,0.0,0.0,0.0,0.0,0.0,0.0,0.0,-0.6449797633409997,-0.012040891426534977,-0.4528596524248919,0.3830042326833124,0.07831580073470408,-0.12084500111446056,-0.07238794021623078,1.054539243007961,0.3236622522351196,-0.3924486021911888,-2.1530925858388903,0.8646467842459707,2.4659284916328414,0.5444870347893899,1.0544104758940245,0.3238615046091247,-0.39250456234122666,-2.153291787532338,0.8647539153680389,2.46587817577521,0.5445020185570556,-0.0006159853778379342,0.0008493813259585206,0.0002728207954154391,0.0002931014735004532,-0.0002548905678102552,-0.0004678775727364616,0.00035452377150848354,0.0,0.0,0.0,0.0,0.0,0.0,0.0,-0.00012876711393650098,0.00019925237400514328,-5.596015003783705e-05,-0.00019920169344755934,0.00010713112206817144,-5.0315857631488825e-05,1.4983767665732728e-05,0.0006159853778379342,-0.0008493813259585206,-0.0002728207954154391,-0.0002931014735004532,0.0002548905678102552,0.0004678775727364616,-0.00035452377150848354,0.6053096652030945,34.09072494506836,4.025173664093018,-19.412263870239258,-0.1357932686805725,-1.796573281288147,0.09097616374492645,0
9,0.03999733924865723,-0.6053096652030945,-34.09072494506836,-4.025173664093018,19.412263870239258,0.1357932686805725,1.796573281288147,-0.09097616374492645,0.0,0.0,0.0,0.0,0.0,0.0,0.0,-0.6449797633409997,-0.012040891426534977,-0.4528596524248919,0.3830042326833124,0.07831580073470408,-0.12084500111446056,-0.07238794021623078,1.054539243007961,0.3236622522351196,-0.3924486021911888,-2.1530925858388903,0.8646467842459707,2.4659284916328414,0.5444870347893899,1.0544104758940245,0.3238615046091247,-0.39250456234122666,-2.153291787532338,0.8647539153680389,2.46587817577521,0.5445020185570556,-0.0006159853778379342,0.0008493813259585206,0.0002728207954154391,0.0002931014735004532,-0.0002548905678102552,-0.0004678775727364616,0.00035452377150848354,0.0,0.0,0.0,0.0,0.0,0.0,0.0,-0.00012876711393650098,0.00019925237400514328,-5.596015003783705e-05,-0.00019920169344755934,0.00010713112206817144,-5.0315857631488825e-05,1.4983767665732728e-05,0.0006159853778379342,-0.0008493813259585206,-0.0002728207954154391,-0.0002931014735004532,0.0002548905678102552,0.0004678775727364616,-0.00035452377150848354,0.6053096652030945,34.09072494506836,4.025173664093018,-19.412263870239258,-0.1357932686805725,-1.796573281288147,0.09097616374492645,0
10,0.04495406150817871,-0.6053096652030945,-34.09072494506836,-4.025173664093018,19.412263870239258,0.1357932686805725,1.796573281288147,-0.09097616374492645,0.0,0.0,0.0,0.0,0.0,0.0,0.0,-0.6449797633409997,-0.012040891426534977,-0.4528596524248919,0.3830042326833124,0.07831580073470408,-0.12084500111446056,-0.07238794021623078,1.054539243007961,0.3236622522351196,-0.3924486021911888,-2.1530925858388903,0.8646467842459707,2.4659284916328414,0.5444870347893899,1.0544104758940245,0.3238615046091247,-0.39250456234122666,-2.153291787532338,0.8647539153680389,2.46587817577521,0.5445020185570556,-0.0006159853778379342,0.0008493813259585206,0.0002728207954154391,0.0002931014735004532,-0.0002548905678102552,-0.0004678775727364616,0.00035452377150848354,0.0,0.0,0.0,0.0,0.0,0.0,0.0,-0.00012876711393650098,0.00019925237400514328,-5.596015003783705e-05,-0.00019920169344755934,0.00010713112206817144,-5.0315857631488825e-05,1.4983767665732728e-05,0.0006159853778379342,-0.0008493813259585206,-0.0002728207954154391,-0.0002931014735004532,0.0002548905678102552,0.0004678775727364616,-0.00035452377150848354,0.6053096652030945,34.09072494506836,4.025173664093018,-19.412263870239258,-0.1357932686805725,-1.796573281288147,0.09097616374492645,0
11,0.050004005432128906,-0.5815059542655945,-34.11452865600586,-3.9974029064178467,19.360689163208008,0.12389141321182251,1.777347207069397,-0.06351034343242645,0.0,0.0,0.0,0.0,0.0,0.0,0.0,-0.6274937032807844,-0.010073248813900855,-0.44014895635676066,0.3843058840107254,0.07782626207760122,-0.12221891064228564,-0.07520718930510084,1.0545375725721058,0.3236639312759493,-0.3924505597648444,-2.153087328263467,0.8646481066743532,2.4659306278626123,0.5444839830315774,1.0544104758940245,0.3238615046091247,-0.39250456234122666,-2.153291787532338,0.8647539153680389,2.46587817577521,0.5445020185570556,-0.0009146625865683668,0.0004177791568865853,0.000125745113014454,0.0012418899037217304,0.0003243489105659566,0.00010293456856398589,-0.0008926489656310726,0.0,0.0,0.0,0.0,0.0,0.0,0.0,-0.00012709667808130654,0.00019757333317543813,-5.400257638227268e-05,-0.00020445926887102672,0.000105808693685705,-5.245208740234375e-05,1.803552547818832e-05,0.0009146625865683668,-0.0004177791568865853,-0.000125745113014454,-0.0012418899037217304,-0.0003243489105659566,-0.00010293456856398589,0.0008926489656310726,0.5815059542655945,34.11452865600586,3.9974029064178467,-19.360689163208008,-0.12389141321182251,-1.777347207069397,0.06351034343242645,0
12,0.055002450942993164,-0.5815059542655945,-34.11452865600586,-3.9974029064178467,19.360689163208008,0.12389141321182251,1.777347207069397,-0.06351034343242645,0.0,0.0,0.0,0.0,0.0,0.0,0.0,-0.6274937032807844,-0.010073248813900855,-0.44014895635676066,0.3843058840107254,0.07782626207760122,-0.12221891064228564,-0.07520718930510084,1.0545375725721058,0.3236639312759493,-0.3924505597648444,-2.153087328263467,0.8646481066743532,2.4659306278626123,0.5444839830315774,1.0544104758940245,0.3238615046091247,-0.39250456234122666,-2.153291787532338,0.8647539153680389,2.46587817577521,0.5445020185570556,-0.0009146625865683668,0.0004177791568865853,0.000125745113014454,0.0012418899037217304,0.0003243489105659566,0.00010293456856398589,-0.0008926489656310726,0.0,0.0,0.0,0.0,0.0,0.0,0.0,-0.00012709667808130654,0.00019757333317543813,-5.400257638227268e-05,-0.00020445926887102672,0.000105808693685705,-5.245208740234375e-05,1.803552547818832e-05,0.0009146625865683668,-0.0004177791568865853,-0.000125745113014454,-0.0012418899037217304,-0.0003243489105659566,-0.00010293456856398589,0.0008926489656310726,0.5815059542655945,34.11452865600586,3.9974029064178467,-19.360689163208008,-0.12389141321182251,-1.777347207069397,0.06351034343242645,0
13,0.0599980354309082,-0.6291133761405945,-34.13833236694336,-3.9974029064178467,19.436067581176758,0.1412864327430725,1.783755898475647,-0.04977743700146675,0.0,0.0,0.0,0.0,0.0,0.0,0.0,-0.6292099585297137,-0.018637113452429733,-0.44407182885011864,0.3843152804043951,0.07767916419613194,-0.12206217120897118,-0.0763054707187216,1.0545409134438164,0.3236656018438291,-0.3924505510163053,-2.1530928820651636,0.8646493528087933,2.4659299157857895,0.5444824571530851,1.0544104758940245,0.3238615046091247,-0.39250456234122666,-2.153291787532338,0.8647539153680389,2.46587817577521,0.5445020185570556,-9.71547310039785e-05,0.0002140294319922568,6.880025200443669e-05,-0.0006850353632097714,-0.0004837463048953204,9.427938756606038e-05,-0.0012715067405232202,0.0,0.0,0.0,0.0,0.0,0.0,0.0,-0.00013043754979191746,0.00019590276529563022,-5.401132492133254e-05,-0.0001989054671742707,0.00010456255924562452,-5.174001057950406e-05,1.956140397052497e-05,9.71547310039785e-05,-0.0002140294319922568,-6.880025200443669e-05,0.0006850353632097714,0.0004837463048953204,-9.427938756606038e-05,0.0012715067405232202,0.6291133761405945,34.13833236694336,3.9974029064178467,-19.436067581176758,-0.1412864327430725,-1.783755898475647,0.04977743700146675,0
14,0.06500506401062012,-0.6291133761405945,-34.13833236694336,-3.9974029064178467,19.436067581176758,0.1412864327430725,1.783755898475647,-0.04977743700146675,0.0,0.0,0.0,0.0,0.0,0.0,0.0,-0.6292099585297137,-0.018637113452429733,-0.44407182885011864,0.3843152804043951,0.07767916419613194,-0.12206217120897118,-0.0763054707187216,1.0545409134438164,0.3236656018438291,-0.3924505510163053,-2.1530928820651636,0.8646493528087933,2.4659299157857895,0.5444824571530851,1.0544104758940245,0.3238615046091247,-0.39250456234122666,-2.153291787532338,0.8647539153680389,2.46587817577521,0.5445020185570556,-9.71547310039785e-05,0.0002140294319922568,6.880025200443669e-05,-0.0006850353632097714,-0.0004837463048953204,9.427938756606038e-05,-0.0012715067405232202,0.0,0.0,0.0,0.0,0.0,0.0,0.0,-0.00013043754979191746,0.00019590276529563022,-5.401132492133254e-05,-0.0001989054671742707,0.00010456255924562452,-5.174001057950406e-05,1.956140397052497e-05,9.71547310039785e-05,-0.0002140294319922568,-6.880025200443669e-05,0.0006850353632097714,0.0004837463048953204,-9.427938756606038e-05,0.0012715067405232202,0.6291133761405945,34.13833236694336,3.9974029064178467,-19.436067581176758,-0.1412864327430725,-1.783755898475647,0.04977743700146675,0
15,0.07000303268432617,-0.6806880831718445,-34.06295394897461,-4.025173664093018,19.412263870239258,0.1293845772743225,1.790164589881897,-0.04336874559521675,0.0,0.0,0.0,0.0,0.0,0.0,0.0,-0.6507525826759791,-0.022806279945218954,-0.46330656210650434,0.3807220524988152,0.07776669190239205,-0.1192821867534014,-0.07600438130058203,1.0545445327215028,0.3236603121422884,-0.39244860316325053,-2.153093278274086,0.8646506752431604,2.4659292037089666,0.5444817450762621,1.0544104758940245,0.3238615046091247,-0.39250456234122666,-2.153291787532338,0.8647539153680389,2.46587817577521,0.5445020185570556,0.00015005030626901751,-0.0012974195558075276,-0.0009439727933636795,0.0006630394395388831,-7.801312060678965e-05,0.00023209490017804795,-0.0011011178236974427,0.0,0.0,0.0,0.0,0.0,0.0,0.0,-0.00013405682747835712,0.00020119246683630854,-5.595917797612815e-05,-0.00019850925825171117,0.00010324012487850087,-5.102793375666437e-05,2.0273480793475684e-05,-0.00015005030626901751,0.0012974195558075276,0.0009439727933636795,-0.0006630394395388831,7.801312060678965e-05,-0.00023209490017804795,0.0011011178236974427,0.6806880831718445,34.06295394897461,4.025173664093018,-19.412263870239258,-0.1293845772743225,-1.790164589881897,0.04336874559521675,0
16,0.0749518871307373,-0.6806880831718445,-34.06295394897461,-4.025173664093018,19.412263870239258,0.1293845772743225,1.790164589881897,-0.04336874559521675,0.0,0.0,0.0,0.0,0.0,0.0,0.0,-0.6507525826759791,-0.022806279945218954,-0.46330656210650434,0.3807220524988152,0.07776669190239205,-0.1192821867534014,-0.07600438130058203,1.0545445327215028,0.3236603121422884,-0.39244860316325053,-2.153093278274086,0.8646506752431604,2.4659292037089666,0.5444817450762621,1.0544104758940245,0.3238615046091247,-0.39250456234122666,-2.153291787532338,0.8647539153680389,2.46587817577521,0.5445020185570556,0.00015005030626901751,-0.0012974195558075276,-0.0009439727933636795,0.0006630394395388831,-7.801312060678965e-05,0.00023209490017804795,-0.0011011178236974427,0.0,0.0,0.0,0.0,0.0,0.0,0.0,-0.00013405682747835712,0.00020119246683630854,-5.595917797612815e-05,-0.00019850925825171117,0.00010324012487850087,-5.102793375666437e-05,2.0273480793475684e-05,-0.00015005030626901751,0.0012974195558075276,0.0009439727933636795,-0.0006630394395388831,7.801312060678965e-05,-0.00023209490017804795,0.0011011178236974427,0.6806880831718445,34.06295394897461,4.025173664093018,-19.412263870239258,-0.1293845772743225,-1.790164589881897,0.04336874559521675,0
17,0.07999968528747559,-0.6568843722343445,-34.11452865600586,-4.025173664093018,19.388460159301758,0.1357932686805725,1.790164589881897,-0.08365194499492645,0.0,0.0,0.0,0.0,0.0,0.0,0.0,-0.6300117279656747,-0.028287176946266816,-0.4465757984166196,0.3836057787213411,0.07664341459027162,-0.11914721792367532,-0.07468385216276952,1.0545428622856474,0.32366393141997485,-0.39244883840219397,-2.1530888178950853,0.8646467842639128,2.4659292037089666,0.5444862210411419,1.0544104758940245,0.3238615046091247,-0.39250456234122666,-2.153291787532338,0.8647539153680389,2.46587817577521,0.5445020185570556,-0.00017263852511353485,-0.00013348630563106997,-0.00041696384722459686,0.0008075928399013506,-0.00018113410235927294,0.00021370515632904963,0.0009699823888863949,0.0,0.0,0.0,0.0,0.0,0.0,0.0,-0.00013238639162294064,0.00019757318914986888,-5.572393903269246e-05,-0.00020296963725252581,0.00010713110412607918,-5.102793375666437e-05,1.5797515913740234e-05,0.00017263852511353485,0.00013348630563106997,0.00041696384722459686,-0.0008075928399013506,0.00018113410235927294,-0.00021370515632904963,-0.0009699823888863949,0.6568843722343445,34.11452865600586,4.025173664093018,-19.388460159301758,-0.1357932686805725,-1.790164589881897,0.08365194499492645,0
18,0.08499622344970703,-0.6568843722343445,-34.11452865600586,-4.025173664093018,19.388460159301758,0.1357932686805725,1.790164589881897,-0.08365194499492645,0.0,0.0,0.0,0.0,0.0,0.0,0.0,-0.6300117279656747,-0.028287176946266816,-0.4465757984166196,0.3836057787213411,0.07664341459027162,-0.11914721792367532,-0.07468385216276952,1.0545428622856474,0.32366393141997485,-0.39244883840219397,-2.1530888178950853,0.8646467842639128,2.4659292037089666,0.5444862210411419,1.0544104758940245,0.3238615046091247,-0.39250456234122666,-2.153291787532338,0.8647539153680389,2.46587817577521,0.5445020185570556,-0.00017263852511353485,-0.00013348630563106997,-0.00041696384722459686,0.0008075928399013506,-0.00018113410235927294,0.00021370515632904963,0.0009699823888863949,0.0,0.0,0.0,0.0,0.0,0.0,0.0,-0.00013238639162294064,0.00019757318914986888,-5.572393903269246e-05,-0.00020296963725252581,0.00010713110412607918,-5.102793375666437e-05,1.5797515913740234e-05,0.00017263852511353485,0.00013348630563106997,0.00041696384722459686,-0.0008075928399013506,0.00018113410235927294,-0.00021370515632904963,-0.0009699823888863949,0.6568843722343445,34.11452865600586,4.025173664093018,-19.388460159301758,-0.1357932686805725,-1.790164589881897,0.08365194499492645,0
19,0.08999466896057129,-0.6568843722343445,-34.13833236694336,-3.9974029064178467,19.412263870239258,0.12389141321182251,1.777347207069397,-0.04977743700146675,0.0,0.0,0.0,0.0,0.0,0.0,0.0,-0.6302246698474295,-0.023445820823479128,-0.44378387029539584,0.3780817810966508,0.07707464724825401,-0.11915807722825407,-0.07379714440623507,1.0545428622856474,0.3236656018558301,-0.3924505510176223,-2.1530930402756736,0.8646481066743533,2.4659306278626123,0.5444824571530854,1.0544104758940245,0.3238615046091247,-0.39250456234122666,-2.153291787532338,0.8647539153680389,2.46587817577521,0.5445020185570556,0.0001527401167815897,0.0011336132926689662,-5.506136220122391e-05,-8.88072970214623e-05,0.0002944766688237351,0.00034114197091319565,-0.0009021897122580988,0.0,0.0,0.0,0.0,0.0,0.0,0.0,-0.00013238639162294064,0.00019590275329461893,-5.4011323604385986e-05,-0.00019874725666424453,0.00010580869368559398,-5.245208740234375e-05,1.9561403970191904e-05,-0.0001527401167815897,-0.0011336132926689662,5.506136220122391e-05,8.88072970214623e-05,-0.0002944766688237351,-0.00034114197091319565,0.0009021897122580988,0.6568843722343445,34.13833236694336,3.9974029064178467,-19.412263870239258,-0.12389141321182251,-1.777347207069397,0.04977743700146675,0
20,0.09499740600585938,-0.6568843722343445,-34.13833236694336,-3.9974029064178467,19.412263870239258,0.12389141321182251,1.777347207069397,-0.04977743700146675,0.0,0.0,0.0,0.0,0.0,0.0,0.0,-0.6302246698474295,-0.023445820823479128,-0.44378387029539584,0.3780817810966508,0.07707464724825401,-0.11915807722825407,-0.07379714440623507,1.0545428622856474,0.3236656018558301,-0.3924505510176223,-2.1530930402756736,0.8646481066743533,2.4659306278626123,0.5444824571530854,1.0544104758940245,0.3238615046091247,-0.39250456234122666,-2.153291787532338,0.8647539153680389,2.46587817577521,0.5445020185570556,0.0001527401167815897,0.0011336132926689662,-5.506136220122391e-05,-8.88072970214623e-05,0.0002944766688237351,0.00034114197091319565,-0.0009021897122580988,0.0,0.0,0.0,0.0,0.0,0.0,0.0,-0.00013238639162294064,0.00019590275329461893,-5.4011323604385986e-05,-0.00019874725666424453,0.00010580869368559398,-5.245208740234375e-05,1.9561403970191904e-05,-0.0001527401167815897,-0.0011336132926689662,5.506136220122391e-05,8.88072970214623e-05,-0.0002944766688237351,-0.00034114197091319565,0.0009021897122580988,0.6568843722343445,34.13833236694336,3.9974029064178467,-19.412263870239258,-0.12389141321182251,-1.777347207069397,0.04977743700146675,0
21,0.09999465942382812,-0.6053096652030945,-34.03915023803711,-3.9735991954803467,19.388460159301758,0.1293845772743225,1.783755898475647,-0.05710165575146675,0.0,0.0,0.0,0.0,0.0,0.0,0.0,-0.6346987817075849,-0.022636102729797814,-0.44618387963805084,0.37811727873234235,0.0775590059714265,-0.1189130499413693,-0.07391025131128448,1.054539243007961,0.3236579242168718,-0.3924522303087065,-2.15309159657307,0.8646475011679582,2.4659299157857895,0.5444832709551686,1.0544104758940245,0.3238615046091247,-0.39250456234122666,-2.153291787532338,0.8647539153680389,2.46587817577521,0.5445020185570556,-0.00035487959912751957,-0.0010421124395556132,-0.0005930544302117163,0.00041120028284071555,9.156059239413268e-06,0.00029746606176016613,1.5579519831382056e-05,0.0,0.0,0.0,0.0,0.0,0.0,0.0,-0.00012876711393650098,0.00020358039225293334,-5.2332032520141514e-05,-0.00020019095926793185,0.00010641420008072888,-5.174001057950406e-05,1.8747601887025844e-05,0.00035487959912751957,0.0010421124395556132,0.0005930544302117163,-0.00041120028284071555,-9.156059239413268e-06,-0.00029746606176016613,-1.5579519831382056e-05,0.6053096652030945,34.03915023803711,3.9735991954803467,-19.388460159301758,-0.1293845772743225,-1.783755898475647,0.05710165575146675,0
22,0.10499691963195801,-0.6053096652030945,-34.03915023803711,-3.9735991954803467,19.388460159301758,0.1293845772743225,1.783755898475647,-0.05710165575146675,0.0,0.0,0.0,0.0,0.0,0.0,0.0,-0.6346987817075849,-0.022636102729797814,-0.44618387963805084,0.37811727873234235,0.0775590059714265,-0.1189130499413693,-0.07391025131128448,1.054539243007961,0.3236579242168718,-0.3924522303087065,-2.15309159657307,0.8646475011679582,2.4659299157857895,0.5444832709551686,1.0544104758940245,0.3238615046091247,-0.39250456234122666,-2.153291787532338,0.8647539153680389,2.46587817577521,0.5445020185570556,-0.00035487959912751957,-0.0010421124395556132,-0.0005930544302117163,0.00041120028284071555,9.156059239413268e-06,0.00029746606176016613,1.5579519831382056e-05,0.0,0.0,0.0,0.0,0.0,0.0,0.0,-0.00012876711393650098,0.00020358039225293334,-5.2332032520141514e-05,-0.00020019095926793185,0.00010641420008072888,-5.174001057950406e-05,1.8747601887025844e-05,0.00035487959912751957,0.0010421124395556132,0.0005930544302117163,-0.00041120028284071555,-9.156059239413268e-06,-0.00029746606176016613,-1.5579519831382056e-05,0.6053096652030945,34.03915023803711,3.9735991954803467,-19.388460159301758,-0.1293845772743225,-1.783755898475647,0.05710165575146675,0
23,0.11003994941711426,-0.6568843722343445,-34.09072494506836,-3.9735991954803467,19.436067581176758,0.12389141321182251,1.790164589881897,-0.11844198405742645,0.0,0.0,0.0,0.0,0.0,0.0,0.0,-0.6363919638305635,-0.027349720449010895,-0.4513578748326759,0.3840656189483042,0.07756143362336204,-0.11742473325661332,-0.07159945372475936,1.0545428622856474,0.32366226098006934,-0.39245230018919397,-2.1530948722893246,0.8646482636578071,2.4659292037089666,0.5444900865472025,1.0544104758940245,0.3238615046091247,-0.39250456234122666,-2.153291787532338,0.8647539153680389,2.46587817577521,0.5445020185570556,0.0011290892480341308,-5.509427738254802e-05,-0.0007759407528890164,-0.00045071750863217143,0.0002244702704971567,-0.0001615212121253499,0.002008727780300707,0.0,0.0,0.0,0.0,0.0,0.0,0.0,-0.00013238639162294064,0.00019924362905537896,-5.226215203268936e-05,-0.00019691524301324037,0.0001056517102318022,-5.102793375666437e-05,1.1932009853055092e-05,-0.0011290892480341308,5.509427738254802e-05,0.0007759407528890164,0.00045071750863217143,-0.0002244702704971567,0.0001615212121253499,-0.002008727780300707,0.6568843722343445,34.09072494506836,3.9735991954803467,-19.436067581176758,-0.12389141321182251,-1.790164589881897,0.11844198405742645,0
24,0.11500000953674316,-0.6568843722343445,-34.09072494506836,-3.9735991954803467,19.436067581176758,0.12389141321182251,1.790164589881897,-0.11844198405742645,0.0,0.0,0.0,0.0,0.0,0.0,0.0,-0.6363919638305635,-0.027349720449010895,-0.4513578748326759,0.3840656189483042,0.07756143362336204,-0.11742473325661332,-0.07159945372475936,1.0545428622856474,0.32366226098006934,-0.39245230018919397,-2.1530948722893246,0.8646482636578071,2.4659292037089666,0.5444900865472025,1.0544104758940245,0.3238615046091247,-0.39250456234122666,-2.153291787532338,0.8647539153680389,2.46587817577521,0.5445020185570556,0.0011290892480341308,-5.509427738254802e-05,-0.0007759407528890164,-0.00045071750863217143,0.0002244702704971567,-0.0001615212121253499,0.002008727780300707,0.0,0.0,0.0,0.0,0.0,0.0,0.0,-0.00013238639162294064,0.00019924362905537896,-5.226215203268936e-05,-0.00019691524301324037,0.0001056517102318022,-5.102793375666437e-05,1.1932009853055092e-05,-0.0011290892480341308,5.509427738254802e-05,0.0007759407528890164,0.00045071750863217143,-0.0002244702704971567,0.0001615212121253499,-0.002008727780300707,0.6568843722343445,34.09072494506836,3.9735991954803467,-19.436067581176758,-0.12389141321182251,-1.790164589881897,0.11844198405742645,0
25,0.1201624870300293,-0.6053096652030945,-34.09072494506836,-3.9974029064178467,19.412263870239258,0.1293845772743225,1.783755898475647,-0.10470907390117645,0.0,0.0,0.0,0.0,0.0,0.0,0.0,-0.6413483697387244,-0.021367729528185234,-0.45805300387161346,0.3818019587938373,0.07783006425807147,-0.11721246050843906,-0.07176946846035705,1.054539243007961,0.32366225223556394,-0.3924505510176223,-2.1530925611676652,0.864647496809966,2.4659299157857895,0.5444885606682963,1.0544104758940245,0.3238615046091247,-0.39250456234122666,-2.153291787532338,0.8647539153680389,2.46587817577521,0.5445020185570556,-0.000414401074795596,0.00015685464408450275,-0.0009838813695154883,0.0002330362265723582,2.9743887530721713e-05,0.00013118745208573772,0.0015505698258276338,0.0,0.0,0.0,0.0,0.0,0.0,0.0,-0.00012876711393650098,0.00019925237356077652,-5.4011323604385986e-05,-0.00019922636467262222,0.00010641855807291822,-5.174001057950406e-05,1.3457888759282888e-05,0.000414401074795596,-0.00015685464408450275,0.0009838813695154883,-0.0002330362265723582,-2.9743887530721713e-05,-0.00013118745208573772,-0.0015505698258276338,0.6053096652030945,34.09072494506836,3.9974029064178467,-19.412263870239258,-0.1293845772743225,-1.783755898475647,0.10470907390117645,0
26,0.12500381469726562,-0.6053096652030945,-34.09072494506836,-3.9974029064178467,19.412263870239258,0.1293845772743225,1.783755898475647,-0.10470907390117645,0.0,0.0,0.0,0.0,0.0,0.0,0.0,-0.6413483697387244,-0.021367729528185234,-0.45805300387161346,0.3818019587938373,0.07783006425807147,-0.11721246050843906,-0.07176946846035705,1.054539243007961,0.32366225223556394,-0.3924505510176223,-2.1530925611676652,0.864647496809966,2.4659299157857895,0.5444885606682963,1.0544104758940245,0.3238615046091247,-0.39250456234122666,-2.153291787532338,0.8647539153680389,2.46587817577521,0.5445020185570556,-0.000414401074795596,0.00015685464408450275,-0.0009838813695154883,0.0002330362265723582,2.9743887530721713e-05,0.00013118745208573772,0.0015505698258276338,0.0,0.0,0.0,0.0,0.0,0.0,0.0,-0.00012876711393650098,0.00019925237356077652,-5.4011323604385986e-05,-0.00019922636467262222,0.00010641855807291822,-5.174001057950406e-05,1.3457888759282888e-05,0.000414401074795596,-0.00015685464408450275,0.0009838813695154883,-0.0002330362265723582,-2.9743887530721713e-05,-0.00013118745208573772,-0.0015505698258276338,0.6053096652030945,34.09072494506836,3.9974029064178467,-19.412263870239258,-0.1293845772743225,-1.783755898475647,0.10470907390117645,0
27,0.12999725341796875,-0.6568843722343445,-34.06295394897461,-4.025173664093018,19.436067581176758,0.12389141321182251,1.796573281288147,-0.06351034343242645,0.0,0.0,0.0,0.0,0.0,0.0,0.0,-0.6391260922520446,-0.026571413478942846,-0.4582606791190862,0.3862029014310056,0.07901166804686852,-0.11755467002161105,-0.07359411529337094,1.0545428622856474,0.3236596034732707,-0.3924486021911888,-2.153092575985511,0.8646481067461343,2.465928491632144,0.5444839830315775,1.0544104758940245,0.3238615046091247,-0.39250456234122666,-2.153291787532338,0.8647539153680389,2.46587817577521,0.5445020185570556,0.00014512832155553503,-0.001310115635581089,0.0001940637784697415,0.0001683039670796931,-0.0011613246251062231,-0.0001337049345570709,-0.0005319864643175868,0.0,0.0,0.0,0.0,0.0,0.0,0.0,-0.00013238639162294064,0.00020190113585399905,-5.596015003783705e-05,-0.00019921154682700504,0.00010580862190456841,-5.0315856933824676e-05,1.8035525478077297e-05,-0.00014512832155553503,0.001310115635581089,-0.0001940637784697415,-0.0001683039670796931,0.0011613246251062231,0.0001337049345570709,0.0005319864643175868,0.6568843722343445,34.06295394897461,4.025173664093018,-19.436067581176758,-0.12389141321182251,-1.796573281288147,0.06351034343242645,0
28,0.1350111961364746,-0.6568843722343445,-34.06295394897461,-4.025173664093018,19.436067581176758,0.12389141321182251,1.796573281288147,-0.06351034343242645,0.0,0.0,0.0,0.0,0.0,0.0,0.0,-0.6391260922520446,-0.026571413478942846,-0.4582606791190862,0.3862029014310056,0.07901166804686852,-0.11755467002161105,-0.07359411529337094,1.0545428622856474,0.3236596034732707,-0.3924486021911888,-2.153092575985511,0.8646481067461343,2.465928491632144,0.5444839830315775,1.0544104758940245,0.3238615046091247,-0.39250456234122666,-2.153291787532338,0.8647539153680389,2.46587817577521,0.5445020185570556,0.00014512832155553503,-0.001310115635581089,0.0001940637784697415,0.0001683039670796931,-0.0011613246251062231,-0.0001337049345570709,-0.0005319864643175868,0.0,0.0,0.0,0.0,0.0,0.0,0.0,-0.00013238639162294064,0.00020190113585399905,-5.596015003783705e-05,-0.00019921154682700504,0.00010580862190456841,-5.0315856933824676e-05,1.8035525478077297e-05,-0.00014512832155553503,0.001310115635581089,-0.0001940637784697415,-0.0001683039670796931,0.0011613246251062231,0.0001337049345570709,0.0005319864643175868,0.6568843722343445,34.06295394897461,4.025173664093018,-19.436067581176758,-0.12389141321182251,-1.796573281288147,0.06351034343242645,0
29,0.14001011848449707,-0.6568843722343445,-34.06295394897461,-4.025173664093018,19.436067581176758,0.12389141321182251,1.796573281288147,-0.06351034343242645,0.0,0.0,0.0,0.0,0.0,0.0,0.0,-0.6391260922520446,-0.026571413478942846,-0.4582606791190862,0.3862029014310056,0.07901166804686852,-0.11755467002161105,-0.07359411529337094,1.0545428622856474,0.3236596034732707,-0.3924486021911888,-2.153092575985511,0.8646481067461343,2.465928491632144,0.5444839830315775,1.0544104758940245,0.3238615046091247,-0.39250456234122666,-2.153291787532338,0.8647539153680389,2.46587817577521,0.5445020185570556,0.00014512832155553503,-0.001310115635581089,0.0001940637784697415,0.0001683039670796931,-0.0011613246251062231,-0.0001337049345570709,-0.0005319864643175868,0.0,0.0,0.0,0.0,0.0,0.0,0.0,-0.00013238639162294064,0.00020190113585399905,-5.596015003783705e-05,-0.00019921154682700504,0.00010580862190456841,-5.0315856933824676e-05,1.8035525478077297e-05,-0.00014512832155553503,0.001310115635581089,-0.0001940637784697415,-0.0001683039670796931,0.0011613246251062231,0.0001337049345570709,0.0005319864643175868,0.6568843722343445,34.06295394897461,4.025173664093018,-19.436067581176758,-0.12389141321182251,-1.796573281288147,0.06351034343242645,0
30,0.14500713348388672,-0.6568843722343445,-34.06295394897461,-4.025173664093018,19.436067581176758,0.12389141321182251,1.796573281288147,-0.06351034343242645,0.0,0.0,0.0,0.0,0.0,0.0,0.0,-0.6391260922520446,-0.026571413478942846,-0.4582606791190862,0.3862029014310056,0.07901166804686852,-0.11755467002161105,-0.07359411529337094,1.0545428622856474,0.3236596034732707,-0.3924486021911888,-2.153092575985511,0.8646481067461343,2.465928491632144,0.5444839830315775,1.0544104758940245,0.3238615046091247,-0.39250456234122666,-2.153291787532338,0.8647539153680389,2.46587817577521,0.5445020185570556,0.00014512832155553503,-0.001310115635581089,0.0001940637784697415,0.0001683039670796931,-0.0011613246251062231,-0.0001337049345570709,-0.0005319864643175868,0.0,0.0,0.0,0.0,0.0,0.0,0.0,-0.00013238639162294064,0.00020190113585399905,-5.596015003783705e-05,-0.00019921154682700504,0.00010580862190456841,-5.0315856933824676e-05,1.8035525478077297e-05,-0.00014512832155553503,0.001310115635581089,-0.0001940637784697415,-0.0001683039670796931,0.0011613246251062231,0.0001337049345570709,0.0005319864643175868,0.6568843722343445,34.06295394897461,4.025173664093018,-19.436067581176758,-0.12389141321182251,-1.796573281288147,0.06351034343242645,0
31,0.1500072479248047,-0.6806880831718445,-34.11452865600586,-4.072781085968018,19.412263870239258,0.11748272180557251,1.790164589881897,-0.09097616374492645,0.0,0.0,0.0,0.0,0.0,0.0,0.0,-0.637328851586309,-0.021496855629786725,-0.4543132240317698,0.38239407341777015,0.07833814220526591,-0.11727330182739418,-0.07557710079076392,1.0545445327215028,0.32366369520497473,-0.39244527006803387,-2.1530909566272096,0.8646488189126821,2.465929244917116,0.54448703478939,1.0544104758940245,0.3238615046091247,-0.39250456234122666,-2.153291787532338,0.8647539153680389,2.46587817577521,0.5445020185570556,0.000985274591289802,0.0002712607687978787,0.001053096413621083,-0.00011780147787660885,0.0005129765047294105,4.093838583455193e-05,0.0012415260361568618,0.0,0.0,0.0,0.0,0.0,0.0,0.0,-0.00013405682747835712,0.0001978094041499845,-5.929227319279029e-05,-0.00020083090512823532,0.00010509645535683454,-5.106914190600165e-05,1.4983767665621706e-05,-0.000985274591289802,-0.0002712607687978787,-0.001053096413621083,0.00011780147787660885,-0.0005129765047294105,-4.093838583455193e-05,-0.0012415260361568618,0.6806880831718445,34.11452865600586,4.072781085968018,-19.412263870239258,-0.11748272180557251,-1.790164589881897,0.09097616374492645,0
32,0.15499424934387207,-0.6806880831718445,-34.11452865600586,-4.072781085968018,19.412263870239258,0.11748272180557251,1.790164589881897,-0.09097616374492645,0.0,0.0,0.0,0.0,0.0,0.0,0.0,-0.637328851586309,-0.021496855629786725,-0.4543132240317698,0.38239407341777015,0.07833814220526591,-0.11727330182739418,-0.07557710079076392,1.0545445327215028,0.32366369520497473,-0.39244527006803387,-2.1530909566272096,0.8646488189126821,2.465929244917116,0.54448703478939,1.0544104758940245,0.3238615046091247,-0.39250456234122666,-2.153291787532338,0.8647539153680389,2.46587817577521,0.5445020185570556,0.000985274591289802,0.0002712607687978787,0.001053096413621083,-0.00011780147787660885,0.0005129765047294105,4.093838583455193e-05,0.0012415260361568618,0.0,0.0,0.0,0.0,0.0,0.0,0.0,-0.00013405682747835712,0.0001978094041499845,-5.929227319279029e-05,-0.00020083090512823532,0.00010509645535683454,-5.106914190600165e-05,1.4983767665621706e-05,-0.000985274591289802,-0.0002712607687978787,-0.001053096413621083,0.00011780147787660885,-0.0005129765047294105,-4.093838583455193e-05,-0.0012415260361568618,0.6806880831718445,34.11452865600586,4.072781085968018,-19.412263870239258,-0.11748272180557251,-1.790164589881897,0.09097616374492645,0
33,0.15999317169189453,-0.6806880831718445,-34.11452865600586,-4.072781085968018,19.412263870239258,0.11748272180557251,1.790164589881897,-0.09097616374492645,0.0,0.0,0.0,0.0,0.0,0.0,0.0,-0.637328851586309,-0.021496855629786725,-0.4543132240317698,0.38239407341777015,0.07833814220526591,-0.11727330182739418,-0.07557710079076392,1.0545445327215028,0.32366369520497473,-0.39244527006803387,-2.1530909566272096,0.8646488189126821,2.465929244917116,0.54448703478939,1.0544104758940245,0.3238615046091247,-0.39250456234122666,-2.153291787532338,0.8647539153680389,2.46587817577521,0.5445020185570556,0.000985274591289802,0.0002712607687978787,0.001053096413621083,-0.00011780147787660885,0.0005129765047294105,4.093838583455193e-05,0.0012415260361568618,0.0,0.0,0.0,0.0,0.0,0.0,0.0,-0.00013405682747835712,0.0001978094041499845,-5.929227319279029e-05,-0.00020083090512823532,0.00010509645535683454,-5.106914190600165e-05,1.4983767665621706e-05,-0.000985274591289802,-0.0002712607687978787,-0.001053096413621083,0.00011780147787660885,-0.0005129765047294105,-4.093838583455193e-05,-0.0012415260361568618,0.6806880831718445,34.11452865600586,4.072781085968018,-19.412263870239258,-0.11748272180557251,-1.790164589881897,0.09097616374492645,0
34,0.1649928092956543,-0.6806880831718445,-34.11452865600586,-4.072781085968018,19.412263870239258,0.11748272180557251,1.790164589881897,-0.09097616374492645,0.0,0.0,0.0,0.0,0.0,0.0,0.0,-0.637328851586309,-0.021496855629786725,-0.4543132240317698,0.38239407341777015,0.07833814220526591,-0.11727330182739418,-0.07557710079076392,1.0545445327215028,0.32366369520497473,-0.39244527006803387,-2.1530909566272096,0.8646488189126821,2.465929244917116,0.54448703478939,1.0544104758940245,0.3238615046091247,-0.39250456234122666,-2.153291787532338,0.8647539153680389,2.46587817577521,0.5445020185570556,0.000985274591289802,0.0002712607687978787,0.001053096413621083,-0.00011780147787660885,0.0005129765047294105,4.093838583455193e-05,0.0012415260361568618,0.0,0.0,0.0,0.0,0.0,0.0,0.0,-0.00013405682747835712,0.0001978094041499845,-5.929227319279029e-05,-0.00020083090512823532,0.00010509645535683454,-5.106914190600165e-05,1.4983767665621706e-05,-0.000985274591289802,-0.0002712607687978787,-0.001053096413621083,0.00011780147787660885,-0.0005129765047294105,-4.093838583455193e-05,-0.0012415260361568618,0.6806880831718445,34.11452865600586,4.072781085968018,-19.412263870239258,-0.11748272180557251,-1.790164589881897,0.09097616374492645,0
35,0.1700129508972168,-0.6806880831718445,-34.11452865600586,-4.072781085968018,19.412263870239258,0.11748272180557251,1.790164589881897,-0.09097616374492645,0.0,0.0,0.0,0.0,0.0,0.0,0.0,-0.637328851586309,-0.021496855629786725,-0.4543132240317698,0.38239407341777015,0.07833814220526591,-0.11727330182739418,-0.07557710079076392,1.0545445327215028,0.32366369520497473,-0.39244527006803387,-2.1530909566272096,0.8646488189126821,2.465929244917116,0.54448703478939,1.0544104758940245,0.3238615046091247,-0.39250456234122666,-2.153291787532338,0.8647539153680389,2.46587817577521,0.5445020185570556,0.000985274591289802,0.0002712607687978787,0.001053096413621083,-0.00011780147787660885,0.0005129765047294105,4.093838583455193e-05,0.0012415260361568618,0.0,0.0,0.0,0.0,0.0,0.0,0.0,-0.00013405682747835712,0.0001978094041499845,-5.929227319279029e-05,-0.00020083090512823532,0.00010509645535683454,-5.106914190600165e-05,1.4983767665621706e-05,-0.000985274591289802,-0.0002712607687978787,-0.001053096413621083,0.00011780147787660885,-0.0005129765047294105,-4.093838583455193e-05,-0.0012415260361568618,0.6806880831718445,34.11452865600586,4.072781085968018,-19.412263870239258,-0.11748272180557251,-1.790164589881897,0.09097616374492645,0
36,0.17504525184631348,-0.6568843722343445,-34.11452865600586,-3.9735991954803467,19.412263870239258,0.1357932686805725,1.790164589881897,-0.09738485515117645,0.0,0.0,0.0,0.0,0.0,0.0,0.0,-0.6349869434939008,-0.03138270894084854,-0.44796327029758426,0.38443823005027744,0.07775144832435478,-0.11716188142730295,-0.07402621036937546,1.0545428622856474,0.3236639197547897,-0.39245223020072156,-2.153090445744605,0.8646467978184184,2.4659292037089666,0.5444877468662129,1.0544104758940245,0.3238615046091247,-0.39250456234122666,-2.153291787532338,0.8647539153680389,2.46587817577521,0.5445020185570556,0.0006452938894066033,8.801190964047516e-05,-0.0009035375717605371,0.0003671792732274359,-0.00013364977624697185,-0.0001271500777911403,0.001415805882760723,0.0,0.0,0.0,0.0,0.0,0.0,0.0,-0.00013238639162294064,0.00019758485433502004,-5.2332140505095825e-05,-0.00020134178773290046,0.00010711754962056119,-5.102793375666437e-05,1.4271690842670992e-05,-0.0006452938894066033,-8.801190964047516e-05,0.0009035375717605371,-0.0003671792732274359,0.00013364977624697185,0.0001271500777911403,-0.001415805882760723,0.6568843722343445,34.11452865600586,3.9735991954803467,-19.412263870239258,-0.1357932686805725,-1.790164589881897,0.09738485515117645,0
37,0.18004846572875977,-0.6568843722343445,-34.11452865600586,-3.9735991954803467,19.412263870239258,0.1357932686805725,1.790164589881897,-0.09738485515117645,0.0,0.0,0.0,0.0,0.0,0.0,0.0,-0.6349869434939008,-0.03138270894084854,-0.44796327029758426,0.38443823005027744,0.07775144832435478,-0.11716188142730295,-0.07402621036937546,1.0545428622856474,0.3236639197547897,-0.39245223020072156,-2.153090445744605,0.8646467978184184,2.4659292037089666,0.5444877468662129,1.0544104758940245,0.3238615046091247,-0.39250456234122666,-2.153291787532338,0.8647539153680389,2.46587817577521,0.5445020185570556,0.0006452938894066033,8.801190964047516e-05,-0.0009035375717605371,0.0003671792732274359,-0.00013364977624697185,-0.0001271500777911403,0.001415805882760723,0.0,0.0,0.0,0.0,0.0,0.0,0.0,-0.00013238639162294064,0.00019758485433502004,-5.2332140505095825e-05,-0.00020134178773290046,0.00010711754962056119,-5.102793375666437e-05,1.4271690842670992e-05,-0.0006452938894066033,-8.801190964047516e-05,0.0009035375717605371,-0.0003671792732274359,0.00013364977624697185,0.0001271500777911403,-0.001415805882760723,0.6568843722343445,34.11452865600586,3.9735991954803467,-19.412263870239258,-0.1357932686805725,-1.790164589881897,0.09738485515117645,0
38,0.18503832817077637,-0.6291133761405945,-34.11452865600586,-4.025173664093018,19.436067581176758,0.12389141321182251,1.796573281288147,-0.09738485515117645,0.0,0.0,0.0,0.0,0.0,0.0,0.0,-0.648446702847427,-0.030723186871770943,-0.45877056611082817,0.38312879608530126,0.07922063526581587,-0.1162243554456958,-0.07240762632221336,1.0545409134438164,0.3236639314199529,-0.3924486021912053,-2.153092184901145,0.8646484642477392,2.465928491632144,0.5444877483197631,1.0544104758940245,0.3238615046091247,-0.39250456234122666,-2.153291787532338,0.8647539153680389,2.46587817577521,0.5445020185570556,-0.000295190887148762,0.0005735385224309226,-3.3380961521471014e-05,-0.0002861136422063436,2.103595051005969e-05,-0.00011683964451258703,0.001199865300104726,0.0,0.0,0.0,0.0,0.0,0.0,0.0,-0.00013043754979191746,0.00019757318917179578,-5.596015002135024e-05,-0.00019960263119278565,0.00010545112029969328,-5.0315856933824676e-05,1.4270237292501875e-05,0.000295190887148762,-0.0005735385224309226,3.3380961521471014e-05,0.0002861136422063436,-2.103595051005969e-05,0.00011683964451258703,-0.001199865300104726,0.6291133761405945,34.11452865600586,4.025173664093018,-19.436067581176758,-0.12389141321182251,-1.796573281288147,0.09738485515117645,0
39,0.1899549961090088,-0.6291133761405945,-34.11452865600586,-4.025173664093018,19.436067581176758,0.12389141321182251,1.796573281288147,-0.09738485515117645,0.0,0.0,0.0,0.0,0.0,0.0,0.0,-0.648446702847427,-0.030723186871770943,-0.45877056611082817,0.38312879608530126,0.07922063526581587,-0.1162243554456958,-0.07240762632221336,1.0545409134438164,0.3236639314199529,-0.3924486021912053,-2.153092184901145,0.8646484642477392,2.465928491632144,0.5444877483197631,1.0544104758940245,0.3238615046091247,-0.39250456234122666,-2.153291787532338,0.8647539153680389,2.46587817577521,0.5445020185570556,-0.000295190887148762,0.0005735385224309226,-3.3380961521471014e-05,-0.0002861136422063436,2.103595051005969e-05,-0.00011683964451258703,0.001199865300104726,0.0,0.0,0.0,0.0,0.0,0.0,0.0,-0.00013043754979191746,0.00019757318917179578,-5.596015002135024e-05,-0.00019960263119278565,0.00010545112029969328,-5.0315856933824676e-05,1.4270237292501875e-05,0.000295190887148762,-0.0005735385224309226,3.3380961521471014e-05,0.0002861136422063436,-2.103595051005969e-05,0.00011683964451258703,-0.001199865300104726,0.6291133761405945,34.11452865600586,4.025173664093018,-19.436067581176758,-0.12389141321182251,-1.796573281288147,0.09738485515117645,0
40,0.19496703147888184,-0.6291133761405945,-34.06295394897461,-3.9974029064178467,19.436067581176758,0.12389141321182251,1.777347207069397,-0.10470907390117645,0.0,0.0,0.0,0.0,0.0,0.0,0.0,-0.6455355884330053,-0.021452816443825462,-0.45866222525297984,0.38220770569491047,0.07891177630886617,-0.11571042563982073,-0.0723107364689346,1.0545409134438164,0.3236603111702267,-0.3924507872272885,-2.1530946936739337,0.8646481459262654,2.4659306278626123,0.5444885606683209,1.0544104758940245,0.3238615046091247,-0.39250456234122666,-2.153291787532338,0.8647539153680389,2.46587817577521,0.5445020185570556,-0.0009906834770432923,-0.00029545705499628964,-0.0005493667034710149,-0.00010547238671898412,0.0002320358305574091,0.0007746029188216275,0.0008015987017559867,0.0,0.0,0.0,0.0,0.0,0.0,0.0,-0.00013043754979191746,0.00020119343889801744,-5.377511393817036e-05,-0.0001970938584041626,0.00010576944177353997,-5.245208740234375e-05,1.3457888734746959e-05,0.0009906834770432923,0.00029545705499628964,0.0005493667034710149,0.00010547238671898412,-0.0002320358305574091,-0.0007746029188216275,-0.0008015987017559867,0.6291133761405945,34.06295394897461,3.9974029064178467,-19.436067581176758,-0.12389141321182251,-1.777347207069397,0.10470907390117645,0
41,0.1999988555908203,-0.6291133761405945,-34.06295394897461,-3.9974029064178467,19.436067581176758,0.12389141321182251,1.777347207069397,-0.10470907390117645,0.0,0.0,0.0,0.0,0.0,0.0,0.0,-0.6455355884330053,-0.021452816443825462,-0.45866222525297984,0.38220770569491047,0.07891177630886617,-0.11571042563982073,-0.0723107364689346,1.0545409134438164,0.3236603111702267,-0.3924507872272885,-2.1530946936739337,0.8646481459262654,2.4659306278626123,0.5444885606683209,1.0544104758940245,0.3238615046091247,-0.39250456234122666,-2.153291787532338,0.8647539153680389,2.46587817577521,0.5445020185570556,-0.0009906834770432923,-0.00029545705499628964,-0.0005493667034710149,-0.00010547238671898412,0.0002320358305574091,0.0007746029188216275,0.0008015987017559867,0.0,0.0,0.0,0.0,0.0,0.0,0.0,-0.00013043754979191746,0.00020119343889801744,-5.377511393817036e-05,-0.0001970938584041626,0.00010576944177353997,-5.245208740234375e-05,1.3457888734746959e-05,0.0009906834770432923,0.00029545705499628964,0.0005493667034710149,0.00010547238671898412,-0.0002320358305574091,-0.0007746029188216275,-0.0008015987017559867,0.6291133761405945,34.06295394897461,3.9974029064178467,-19.436067581176758,-0.12389141321182251,-1.777347207069397,0.10470907390117645,0
42,0.20502424240112305,-0.6291133761405945,-34.13833236694336,-3.9735991954803467,19.388460159301758,0.12389141321182251,1.783755898475647,-0.05710165575146675,0.0,0.0,0.0,0.0,0.0,0.0,0.0,-0.6383442161397692,-0.024096349842140374,-0.4499908037437688,0.3866416679467314,0.0785436280067873,-0.11565003566025917,-0.07461911639647592,1.0545409134438164,0.3236655221467667,-0.3924522476982552,-2.1530892269963227,0.8646484598871369,2.4659299157857895,0.5444832709551686,1.0544104758940245,0.3238615046091247,-0.39250456234122666,-2.153291787532338,0.8647539153680389,2.46587817577521,0.5445020185570556,-0.0004231162830571883,0.0010944152364363862,-0.0005452440620376225,0.0006864175140097972,0.00031968360013258606,-4.708045501616586e-05,-0.0009425342808989772,0.0,0.0,0.0,0.0,0.0,0.0,0.0,-0.00013043754979191746,0.0001959824623580242,-5.231464297145161e-05,-0.00020256053601519497,0.00010545548090201695,-5.174001057950406e-05,1.8747601887025844e-05,0.0004231162830571883,-0.0010944152364363862,0.0005452440620376225,-0.0006864175140097972,-0.00031968360013258606,4.708045501616586e-05,0.0009425342808989772,0.6291133761405945,34.13833236694336,3.9735991954803467,-19.388460159301758,-0.12389141321182251,-1.783755898475647,0.05710165575146675,0
43,0.21001315116882324,-0.6291133761405945,-34.13833236694336,-3.9735991954803467,19.388460159301758,0.12389141321182251,1.783755898475647,-0.05710165575146675,0.0,0.0,0.0,0.0,0.0,0.0,0.0,-0.6383442161397692,-0.024096349842140374,-0.4499908037437688,0.3866416679467314,0.0785436280067873,-0.11565003566025917,-0.07461911639647592,1.0545409134438164,0.3236655221467667,-0.3924522476982552,-2.1530892269963227,0.8646484598871369,2.4659299157857895,0.5444832709551686,1.0544104758940245,0.3238615046091247,-0.39250456234122666,-2.153291787532338,0.8647539153680389,2.46587817577521,0.5445020185570556,-0.0004231162830571883,0.0010944152364363862,-0.0005452440620376225,0.0006864175140097972,0.00031968360013258606,-4.708045501616586e-05,-0.0009425342808989772,0.0,0.0,0.0,0.0,0.0,0.0,0.0,-0.00013043754979191746,0.0001959824623580242,-5.231464297145161e-05,-0.00020256053601519497,0.00010545548090201695,-5.174001057950406e-05,1.8747601887025844e-05,0.0004231162830571883,-0.0010944152364363862,0.0005452440620376225,-0.0006864175140097972,-0.00031968360013258606,4.708045501616586e-05,0.0009425342808989772,0.6291133761405945,34.13833236694336,3.9735991954803467,-19.388460159301758,-0.12389141321182251,-1.783755898475647,0.05710165575146675,0
44,0.21499919891357422,-0.6568843722343445,-34.11452865600586,-3.9735991954803467,19.412263870239258,0.1357932686805725,1.783755898475647,-0.08365194499492645,0.0,0.0,0.0,0.0,0.0,0.0,0.0,-0.6367379893774715,-0.014772361167055015,-0.44487247187401013,0.3821050603589325,0.07835885786383157,-0.1167807882470236,-0.07524299986246194,1.0545428622856474,0.3236639226709694,-0.39245222145229225,-2.153091101077757,0.8646467842479616,2.4659299157857895,0.5444862209873067,1.0544104758940245,0.3238615046091247,-0.39250456234122666,-2.153291787532338,0.8647539153680389,2.46587817577521,0.5445020185570556,0.0007210758108539637,0.0010170102827946747,-0.0008469399151261677,1.0755154698729002e-05,-0.00013301042576734039,2.721169249474432e-05,0.0004258528321328159,0.0,0.0,0.0,0.0,0.0,0.0,0.0,-0.00013238639162294064,0.00019758193815533343,-5.2340888934410135e-05,-0.00020068645458071188,0.00010713112007731951,-5.174001057950406e-05,1.5797569748898788e-05,-0.0007210758108539637,-0.0010170102827946747,0.0008469399151261677,-1.0755154698729002e-05,0.00013301042576734039,-2.721169249474432e-05,-0.0004258528321328159,0.6568843722343445,34.11452865600586,3.9735991954803467,-19.412263870239258,-0.1357932686805725,-1.783755898475647,0.08365194499492645,0
45,0.22005581855773926,-0.6568843722343445,-34.11452865600586,-3.9735991954803467,19.412263870239258,0.1357932686805725,1.783755898475647,-0.08365194499492645,0.0,0.0,0.0,0.0,0.0,0.0,0.0,-0.6367379893774715,-0.014772361167055015,-0.44487247187401013,0.3821050603589325,0.07835885786383157,-0.1167807882470236,-0.07524299986246194,1.0545428622856474,0.3236639226709694,-0.39245222145229225,-2.153091101077757,0.8646467842479616,2.4659299157857895,0.5444862209873067,1.0544104758940245,0.3238615046091247,-0.39250456234122666,-2.153291787532338,0.8647539153680389,2.46587817577521,0.5445020185570556,0.0007210758108539637,0.0010170102827946747,-0.0008469399151261677,1.0755154698729002e-05,-0.00013301042576734039,2.721169249474432e-05,0.0004258528321328159,0.0,0.0,0.0,0.0,0.0,0.0,0.0,-0.00013238639162294064,0.00019758193815533343,-5.2340888934410135e-05,-0.00020068645458071188,0.00010713112007731951,-5.174001057950406e-05,1.5797569748898788e-05,-0.0007210758108539637,-0.0010170102827946747,0.0008469399151261677,-1.0755154698729002e-05,0.00013301042576734039,-2.721169249474432e-05,-0.0004258528321328159,0.6568843722343445,34.11452865600586,3.9735991954803467,-19.412263870239258,-0.1357932686805725,-1.783755898475647,0.08365194499492645,0
46,0.2250077724456787,-0.6053096652030945,-34.06295394897461,-3.9735991954803467,19.436067581176758,0.1357932686805725,1.783755898475647,-0.04977743700146675,0.0,0.0,0.0,0.0,0.0,0.0,0.0,-0.6397269575823489,-0.017971603770038626,-0.44977159415760426,0.382843966212106,0.07903038697891127,-0.11690430145694676,-0.07590406209560613,1.054539243007961,0.32366031214223906,-0.3924522214521441,-2.1530949144785065,0.8646467842459677,2.4659299157857895,0.5444824571530852,1.0544104758940245,0.3238615046091247,-0.39250456234122666,-2.153291787532338,0.8647539153680389,2.46587817577521,0.5445020185570556,-0.0006119010399571042,-0.00048145593847171185,-0.0008485701731579646,-0.0004310091121027386,-0.00010756383988417081,0.000187925796667281,-0.0007261608504483995,0.0,0.0,0.0,0.0,0.0,0.0,0.0,-0.00012876711393650098,0.00020119246688565795,-5.23408890825694e-05,-0.0001968730538313146,0.00010713112207116904,-5.174001057950406e-05,1.956140397041395e-05,0.0006119010399571042,0.00048145593847171185,0.0008485701731579646,0.0004310091121027386,0.00010756383988417081,-0.000187925796667281,0.0007261608504483995,0.6053096652030945,34.06295394897461,3.9735991954803467,-19.436067581176758,-0.1357932686805725,-1.783755898475647,0.04977743700146675,0
47,0.23001837730407715,-0.6053096652030945,-34.06295394897461,-3.9735991954803467,19.436067581176758,0.1357932686805725,1.783755898475647,-0.04977743700146675,0.0,0.0,0.0,0.0,0.0,0.0,0.0,-0.6397269575823489,-0.017971603770038626,-0.44977159415760426,0.382843966212106,0.07903038697891127,-0.11690430145694676,-0.07590406209560613,1.054539243007961,0.32366031214223906,-0.3924522214521441,-2.1530949144785065,0.8646467842459677,2.4659299157857895,0.5444824571530852,1.0544104758940245,0.3238615046091247,-0.39250456234122666,-2.153291787532338,0.8647539153680389,2.46587817577521,0.5445020185570556,-0.0006119010399571042,-0.00048145593847171185,-0.0008485701731579646,-0.0004310091121027386,-0.00010756383988417081,0.000187925796667281,-0.0007261608504483995,0.0,0.0,0.0,0.0,0.0,0.0,0.0,-0.00012876711393650098,0.00020119246688565795,-5.23408890825694e-05,-0.0001968730538313146,0.00010713112207116904,-5.174001057950406e-05,1.956140397041395e-05,0.0006119010399571042,0.00048145593847171185,0.0008485701731579646,0.0004310091121027386,0.00010756383988417081,-0.000187925796667281,0.0007261608504483995,0.6053096652030945,34.06295394897461,3.9735991954803467,-19.436067581176758,-0.1357932686805725,-1.783755898475647,0.04977743700146675,0
48,0.23499345779418945,-0.6568843722343445,-34.16213607788086,-3.9974029064178467,19.436067581176758,0.1293845772743225,1.796573281288147,-0.10470907390117645,0.0,0.0,0.0,0.0,0.0,0.0,0.0,-0.648039310988051,-0.03839355784711197,-0.4598242293301366,0.3929014128487783,0.07971423025572001,-0.11539898794240994,-0.07601084038126467,1.0545428622856474,0.32366727229168535,-0.39245055101628884,-2.1530948722888072,0.8646474963227907,2.465928491632144,0.5444885606682963,1.0544104758940245,0.3238615046091247,-0.39250456234122666,-2.153291787532338,0.8647539153680389,2.46587817577521,0.5445020185570556,-0.00012771823898378976,0.0005788828500822934,-0.0004427948732479521,-0.00021780290800309544,0.00015751092244297747,-0.00024683441234705844,0.0020033103658058343,0.0,0.0,0.0,0.0,0.0,0.0,0.0,-0.00013238639162294064,0.00019423231743936897,-5.401132493781935e-05,-0.0001969152435306043,0.00010641904524821832,-5.0315856933824676e-05,1.3457888759282888e-05,0.00012771823898378976,-0.0005788828500822934,0.0004427948732479521,0.00021780290800309544,-0.00015751092244297747,0.00024683441234705844,-0.0020033103658058343,0.6568843722343445,34.16213607788086,3.9974029064178467,-19.436067581176758,-0.1293845772743225,-1.796573281288147,0.10470907390117645,0
49,0.23994922637939453,-0.6568843722343445,-34.16213607788086,-3.9974029064178467,19.436067581176758,0.1293845772743225,1.796573281288147,-0.10470907390117645,0.0,0.0,0.0,0.0,0.0,0.0,0.0,-0.648039310988051,-0.03839355784711197,-0.4598242293301366,0.3929014128487783,0.07971423025572001,-0.11539898794240994,-0.07601084038126467,1.0545428622856474,0.32366727229168535,-0.39245055101628884,-2.1530948722888072,0.8646474963227907,2.465928491632144,0.5444885606682963,1.0544104758940245,0.3238615046091247,-0.39250456234122666,-2.153291787532338,0.8647539153680389,2.46587817577521,0.5445020185570556,-0.00012771823898378976,0.0005788828500822934,-0.0004427948732479521,-0.00021780290800309544,0.00015751092244297747,-0.00024683441234705844,0.0020033103658058343,0.0,0.0,0.0,0.0,0.0,0.0,0.0,-0.00013238639162294064,0.00019423231743936897,-5.401132493781935e-05,-0.0001969152435306043,0.00010641904524821832,-5.0315856933824676e-05,1.3457888759282888e-05,0.00012771823898378976,-0.0005788828500822934,0.0004427948732479521,0.00021780290800309544,-0.00015751092244297747,0.00024683441234705844,-0.0020033103658058343,0.6568843722343445,34.16213607788086,3.9974029064178467,-19.436067581176758,-0.1293845772743225,-1.796573281288147,0.10470907390117645,0
50,0.2450401782989502,-0.6568843722343445,-34.16213607788086,-3.9974029064178467,19.436067581176758,0.1293845772743225,1.796573281288147,-0.10470907390117645,0.0,0.0,0.0,0.0,0.0,0.0,0.0,-0.648039310988051,-0.03839355784711197,-0.4598242293301366,0.3929014128487783,0.07971423025572001,-0.11539898794240994,-0.07601084038126467,1.0545428622856474,0.32366727229168535,-0.39245055101628884,-2.1530948722888072,0.8646474963227907,2.465928491632144,0.5444885606682963,1.0544104758940245,0.3238615046091247,-0.39250456234122666,-2.153291787532338,0.8647539153680389,2.46587817577521,0.5445020185570556,-0.00012771823898378976,0.0005788828500822934,-0.0004427948732479521,-0.00021780290800309544,0.00015751092244297747,-0.00024683441234705844,0.0020033103658058343,0.0,0.0,0.0,0.0,0.0,0.0,0.0,-0.00013238639162294064,0.00019423231743936897,-5.401132493781935e-05,-0.0001969152435306043,0.00010641904524821832,-5.0315856933824676e-05,1.3457888759282888e-05,0.00012771823898378976,-0.0005788828500822934,0.0004427948732479521,0.00021780290800309544,-0.00015751092244297747,0.00024683441234705844,-0.0020033103658058343,0.6568843722343445,34.16213607788086,3.9974029064178467,-19.436067581176758,-0.1293845772743225,-1.796573281288147,0.10470907390117645,0
51,0.24999737739562988,-0.6568843722343445,-34.16213607788086,-3.9974029064178467,19.436067581176758,0.1293845772743225,1.796573281288147,-0.10470907390117645,0.0,0.0,0.0,0.0,0.0,0.0,0.0,-0.648039310988051,-0.03839355784711197,-0.4598242293301366,0.3929014128487783,0.07971423025572001,-0.11539898794240994,-0.07601084038126467,1.0545428622856474,0.32366727229168535,-0.39245055101628884,-2.1530948722888072,0.8646474963227907,2.465928491632144,0.5444885606682963,1.0544104758940245,0.3238615046091247,-0.39250456234122666,-2.153291787532338,0.8647539153680389,2.46587817577521,0.5445020185570556,-0.00012771823898378976,0.0005788828500822934,-0.0004427948732479521,-0.00021780290800309544,0.00015751092244297747,-0.00024683441234705844,0.0020033103658058343,0.0,0.0,0.0,0.0,0.0,0.0,0.0,-0.00013238639162294064,0.00019423231743936897,-5.401132493781935e-05,-0.0001969152435306043,0.00010641904524821832,-5.0315856933824676e-05,1.3457888759282888e-05,0.00012771823898378976,-0.0005788828500822934,0.0004427948732479521,0.00021780290800309544,-0.00015751092244297747,0.00024683441234705844,-0.0020033103658058343,0.6568843722343445,34.16213607788086,3.9974029064178467,-19.436067581176758,-0.1293845772743225,-1.796573281288147,0.10470907390117645,0
52,0.25501084327697754,-0.6568843722343445,-34.13833236694336,-4.025173664093018,19.412263870239258,0.1293845772743225,1.796573281288147,-0.06991903483867645,0.0,0.0,0.0,0.0,0.0,0.0,0.0,-0.6351071346522259,-0.028296200160173368,-0.4475406009134061,0.3857295371395361,0.07889147748632384,-0.11690027368303171,-0.07463844782075546,1.0545428622856474,0.3236655755741612,-0.3924486021911888,-2.153091200645787,0.8646475355686474,2.465928491632144,0.5444846951084005,1.0544104758940245,0.3238615046091247,-0.39250456234122666,-2.153291787532338,0.8647539153680389,2.46587817577521,0.5445020185570556,0.0005035579337994287,0.00026221824441271385,0.00030171883105098305,0.0004052394050803993,-5.993475176208432e-05,-8.578140366358595e-05,4.7127961175860615e-05,0.0,0.0,0.0,0.0,0.0,0.0,0.0,-0.00013238639162294064,0.00019592903496351566,-5.596015003783705e-05,-0.00020058688655089085,0.00010637979939154274,-5.0315856933824676e-05,1.7323448655126583e-05,-0.0005035579337994287,-0.00026221824441271385,-0.00030171883105098305,-0.0004052394050803993,5.993475176208432e-05,8.578140366358595e-05,-4.7127961175860615e-05,0.6568843722343445,34.13833236694336,4.025173664093018,-19.412263870239258,-0.1293845772743225,-1.796573281288147,0.06991903483867645,0
53,0.26000380516052246,-0.6568843722343445,-34.13833236694336,-4.025173664093018,19.412263870239258,0.1293845772743225,1.796573281288147,-0.06991903483867645,0.0,0.0,0.0,0.0,0.0,0.0,0.0,-0.6351071346522259,-0.028296200160173368,-0.4475406009134061,0.3857295371395361,0.07889147748632384,-0.11690027368303171,-0.07463844782075546,1.0545428622856474,0.3236655755741612,-0.3924486021911888,-2.153091200645787,0.8646475355686474,2.465928491632144,0.5444846951084005,1.0544104758940245,0.3238615046091247,-0.39250456234122666,-2.153291787532338,0.8647539153680389,2.46587817577521,0.5445020185570556,0.0005035579337994287,0.00026221824441271385,0.00030171883105098305,0.0004052394050803993,-5.993475176208432e-05,-8.578140366358595e-05,4.7127961175860615e-05,0.0,0.0,0.0,0.0,0.0,0.0,0.0,-0.00013238639162294064,0.00019592903496351566,-5.596015003783705e-05,-0.00020058688655089085,0.00010637979939154274,-5.0315856933824676e-05,1.7323448655126583e-05,-0.0005035579337994287,-0.00026221824441271385,-0.00030171883105098305,-0.0004052394050803993,5.993475176208432e-05,8.578140366358595e-05,-4.7127961175860615e-05,0.6568843722343445,34.13833236694336,4.025173664093018,-19.412263870239258,-0.1293845772743225,-1.796573281288147,0.06991903483867645,0
54,0.2650482654571533,-0.6291133761405945,-34.09072494506836,-3.9974029064178467,19.436067581176758,0.1357932686805725,1.790164589881897,-0.10470907390117645,0.0,0.0,0.0,0.0,0.0,0.0,0.0,-0.6364992976277549,-0.01971478832132153,-0.4497554088414212,0.37636040459279796,0.07820797371140188,-0.11696735420217677,-0.07345549013710775,1.0545409134438164,0.3236622609836745,-0.3924505511242957,-2.153094180340059,0.8646467842466323,2.4659292037089666,0.5444885606682963,1.0544104758940245,0.3238615046091247,-0.39250456234122666,-2.153291787532338,0.8647539153680389,2.46587817577521,0.5445020185570556,-0.00022355776211801942,-0.0001495145080439048,-0.0001464508719148691,-0.0009256742741647041,1.5679697562144186e-05,-4.936478665272557e-06,0.0014648657291779857,0.0,0.0,0.0,0.0,0.0,0.0,0.0,-0.00013043754979191746,0.00019924362545020724,-5.401121693093813e-05,-0.0001976071922786815,0.00010713112140658954,-5.102793375666437e-05,1.3457888759282888e-05,0.00022355776211801942,0.0001495145080439048,0.0001464508719148691,0.0009256742741647041,-1.5679697562144186e-05,4.936478665272557e-06,-0.0014648657291779857,0.6291133761405945,34.09072494506836,3.9974029064178467,-19.436067581176758,-0.1357932686805725,-1.790164589881897,0.10470907390117645,0
55,0.2700188159942627,-0.6291133761405945,-34.09072494506836,-3.9974029064178467,19.436067581176758,0.1357932686805725,1.790164589881897,-0.10470907390117645,0.0,0.0,0.0,0.0,0.0,0.0,0.0,-0.6364992976277549,-0.01971478832132153,-0.4497554088414212,0.37636040459279796,0.07820797371140188,-0.11696735420217677,-0.07345549013710775,1.0545409134438164,0.3236622609836745,-0.3924505511242957,-2.153094180340059,0.8646467842466323,2.4659292037089666,0.5444885606682963,1.0544104758940245,0.3238615046091247,-0.39250456234122666,-2.153291787532338,0.8647539153680389,2.46587817577521,0.5445020185570556,-0.00022355776211801942,-0.0001495145080439048,-0.0001464508719148691,-0.0009256742741647041,1.5679697562144186e-05,-4.936478665272557e-06,0.0014648657291779857,0.0,0.0,0.0,0.0,0.0,0.0,0.0,-0.00013043754979191746,0.00019924362545020724,-5.401121693093813e-05,-0.0001976071922786815,0.00010713112140658954,-5.102793375666437e-05,1.3457888759282888e-05,0.00022355776211801942,0.0001495145080439048,0.0001464508719148691,0.0009256742741647041,-1.5679697562144186e-05,4.936478665272557e-06,-0.0014648657291779857,0.6291133761405945,34.09072494506836,3.9974029064178467,-19.436067581176758,-0.1357932686805725,-1.790164589881897,0.10470907390117645,0
56,0.27502989768981934,-0.6568843722343445,-34.06295394897461,-3.9974029064178467,19.412263870239258,0.12389141321182251,1.790164589881897,-0.07724325358867645,0.0,0.0,0.0,0.0,0.0,0.0,0.0,-0.641307415538691,-0.030207047170717843,-0.45428371071287066,0.3813149929707557,0.0784724409510266,-0.11506088636029338,-0.07311249018235166,1.0545428622856474,0.3236603121422884,-0.39245149589629,-2.153090292777638,0.8646482258654734,2.4659292037089666,0.5444858621231935,1.0544104758940245,0.3238615046091247,-0.39250456234122666,-2.153291787532338,0.8647539153680389,2.46587817577521,0.5445020185570556,0.0008559091906132571,-0.0006068665250017116,-0.00030344223901321386,0.0001112265909834033,0.00023724549906775126,-4.503450746893909e-05,0.00031970317164765254,0.0,0.0,0.0,0.0,0.0,0.0,0.0,-0.00013238639162294064,0.00020119246683630854,-5.3066444936633594e-05,-0.00020149475469999345,0.00010568950256550913,-5.102793375666437e-05,1.6156433862102304e-05,-0.0008559091906132571,0.0006068665250017116,0.00030344223901321386,-0.0001112265909834033,-0.00023724549906775126,4.503450746893909e-05,-0.00031970317164765254,0.6568843722343445,34.06295394897461,3.9974029064178467,-19.412263870239258,-0.12389141321182251,-1.790164589881897,0.07724325358867645,0
57,0.2799973487854004,-0.6568843722343445,-34.06295394897461,-3.9974029064178467,19.412263870239258,0.12389141321182251,1.790164589881897,-0.07724325358867645,0.0,0.0,0.0,0.0,0.0,0.0,0.0,-0.641307415538691,-0.030207047170717843,-0.45428371071287066,0.3813149929707557,0.0784724409510266,-0.11506088636029338,-0.07311249018235166,1.0545428622856474,0.3236603121422884,-0.39245149589629,-2.153090292777638,0.8646482258654734,2.4659292037089666,0.5444858621231935,1.0544104758940245,0.3238615046091247,-0.39250456234122666,-2.153291787532338,0.8647539153680389,2.46587817577521,0.5445020185570556,0.0008559091906132571,-0.0006068665250017116,-0.00030344223901321386,0.0001112265909834033,0.00023724549906775126,-4.503450746893909e-05,0.00031970317164765254,0.0,0.0,0.0,0.0,0.0,0.0,0.0,-0.00013238639162294064,0.00020119246683630854,-5.3066444936633594e-05,-0.00020149475469999345,0.00010568950256550913,-5.102793375666437e-05,1.6156433862102304e-05,-0.0008559091906132571,0.0006068665250017116,0.00030344223901321386,-0.0001112265909834033,-0.00023724549906775126,4.503450746893909e-05,-0.00031970317164765254,0.6568843722343445,34.06295394897461,3.9974029064178467,-19.412263870239258,-0.12389141321182251,-1.790164589881897,0.07724325358867645,0
58,0.28499412536621094,-0.6568843722343445,-34.13833236694336,-3.9974029064178467,19.436067581176758,0.1293845772743225,1.783755898475647,-0.07724325358867645,0.0,0.0,0.0,0.0,0.0,0.0,0.0,-0.6372385813107313,-0.033321044589042115,-0.45256506074605574,0.3840762582684624,0.07851178071601507,-0.1154822016287224,-0.0720515224697792,1.0545428622856474,0.32366489322283115,-0.39245055102162274,-2.1530948693331333,0.8646475355693202,2.4659299157857895,0.5444855103660279,1.0544104758940245,0.3238615046091247,-0.39250456234122666,-2.153291787532338,0.8647539153680389,2.46587817577521,0.5445020185570556,0.0007701881813101998,0.001323824824217059,-0.000631046468925662,-0.0005034177616494549,0.00012805505349068697,-2.382281389887668e-05,0.00048544439106182504,0.0,0.0,0.0,0.0,0.0,0.0,0.0,-0.00013238639162294064,0.0001966113862935659,-5.401131960391936e-05,-0.00019691819920453213,0.00010637979871874759,-5.174001057950406e-05,1.6508191027719832e-05,-0.0007701881813101998,-0.001323824824217059,0.000631046468925662,0.0005034177616494549,-0.00012805505349068697,2.382281389887668e-05,-0.00048544439106182504,0.6568843722343445,34.13833236694336,3.9974029064178467,-19.436067581176758,-0.1293845772743225,-1.783755898475647,0.07724325358867645,0
59,0.29000091552734375,-0.6568843722343445,-34.13833236694336,-3.9974029064178467,19.436067581176758,0.1293845772743225,1.783755898475647,-0.07724325358867645,0.0,0.0,0.0,0.0,0.0,0.0,0.0,-0.6372385813107313,-0.033321044589042115,-0.45256506074605574,0.3840762582684624,0.07851178071601507,-0.1154822016287224,-0.0720515224697792,1.0545428622856474,0.32366489322283115,-0.39245055102162274,-2.1530948693331333,0.8646475355693202,2.4659299157857895,0.5444855103660279,1.0544104758940245,0.3238615046091247,-0.39250456234122666,-2.153291787532338,0.8647539153680389,2.46587817577521,0.5445020185570556,0.0007701881813101998,0.001323824824217059,-0.000631046468925662,-0.0005034177616494549,0.00012805505349068697,-2.382281389887668e-05,0.00048544439106182504,0.0,0.0,0.0,0.0,0.0,0.0,0.0,-0.00013238639162294064,0.0001966113862935659,-5.401131960391936e-05,-0.00019691819920453213,0.00010637979871874759,-5.174001057950406e-05,1.6508191027719832e-05,-0.0007701881813101998,-0.001323824824217059,0.000631046468925662,0.0005034177616494549,-0.00012805505349068697,2.382281389887668e-05,-0.00048544439106182504,0.6568843722343445,34.13833236694336,3.9974029064178467,-19.436067581176758,-0.1293845772743225,-1.783755898475647,0.07724325358867645,0
60,0.2949950695037842,-0.6291133761405945,-34.09072494506836,-3.9974029064178467,19.459871292114258,0.1357932686805725,1.790164589881897,-0.04977743700146675,0.0,0.0,0.0,0.0,0.0,0.0,0.0,-0.6355166287359448,-0.023994956430764068,-0.45218113571294644,0.3814867051897477,0.0785257124049911,-0.11670955552352369,-0.07083380214025739,1.0545409134438164,0.3236622609801193,-0.3924505510162889,-2.1530956154135734,0.8646467861842563,2.4659292022554165,0.5444824571530934,1.0544104758940245,0.3238615046091247,-0.39250456234122666,-2.153291787532338,0.8647539153680389,2.46587817577521,0.5445020185570556,-0.0005475824675840083,0.00023421744896544953,-0.0002853017639269519,-0.0011605478111614569,-0.00021873277414428364,-1.5083970592163003e-05,-0.001295308402543389,0.0,0.0,0.0,0.0,0.0,0.0,0.0,-0.00013043754979191746,0.00019924362900541892,-5.401132493776384e-05,-0.0001961721187644372,0.00010712918378263936,-5.102648020649525e-05,1.9561403962198298e-05,0.0005475824675840083,-0.00023421744896544953,0.0002853017639269519,0.0011605478111614569,0.00021873277414428364,1.5083970592163003e-05,0.001295308402543389,0.6291133761405945,34.09072494506836,3.9974029064178467,-19.459871292114258,-0.1357932686805725,-1.790164589881897,0.04977743700146675,0
61,0.30001091957092285,-0.6291133761405945,-34.09072494506836,-3.9974029064178467,19.459871292114258,0.1357932686805725,1.790164589881897,-0.04977743700146675,0.0,0.0,0.0,0.0,0.0,0.0,0.0,-0.6355166287359448,-0.023994956430764068,-0.45218113571294644,0.3814867051897477,0.0785257124049911,-0.11670955552352369,-0.07083380214025739,1.0545409134438164,0.3236622609801193,-0.3924505510162889,-2.1530956154135734,0.8646467861842563,2.4659292022554165,0.5444824571530934,1.0544104758940245,0.3238615046091247,-0.39250456234122666,-2.153291787532338,0.8647539153680389,2.46587817577521,0.5445020185570556,-0.0005475824675840083,0.00023421744896544953,-0.0002853017639269519,-0.0011605478111614569,-0.00021873277414428364,-1.5083970592163003e-05,-0.001295308402543389,0.0,0.0,0.0,0.0,0.0,0.0,0.0,-0.00013043754979191746,0.00019924362900541892,-5.401132493776384e-05,-0.0001961721187644372,0.00010712918378263936,-5.102648020649525e-05,1.9561403962198298e-05,0.0005475824675840083,-0.00023421744896544953,0.0002853017639269519,0.0011605478111614569,0.00021873277414428364,1.5083970592163003e-05,0.001295308402543389,0.6291133761405945,34.09072494506836,3.9974029064178467,-19.459871292114258,-0.1357932686805725,-1.790164589881897,0.04977743700146675,0
62,0.3049602508544922,-0.6806880831718445,-34.03915023803711,-4.048977375030518,19.412263870239258,0.11748272180557251,1.783755898475647,-0.09738485515117645,0.0,0.0,0.0,0.0,0.0,0.0,0.0,-0.637449740429423,-0.03343053249546156,-0.45378491883500954,0.38837371511076374,0.07824061377646828,-0.11566131307829289,-0.07085807660515456,1.0545445327215028,0.3236584054954335,-0.3924469327633976,-2.1530932783422942,0.8646488192357037,2.4659299157857815,0.5444877468662129,1.0544104758940245,0.3238615046091247,-0.39250456234122666,-2.153291787532338,0.8647539153680389,2.46587817577521,0.5445020185570556,0.0014194825935941878,-0.0015153494832748867,0.00023852481617548394,0.0003585735131671304,0.00046088343005685464,0.0005478546842870267,0.001360808343324085,0.0,0.0,0.0,0.0,0.0,0.0,0.0,-0.00013405682747835712,0.00020309911369120748,-5.762957782906586e-05,-0.00019850919004360534,0.00010509613233522508,-5.174001057151045e-05,1.4271690842670992e-05,-0.0014194825935941878,0.0015153494832748867,-0.00023852481617548394,-0.0003585735131671304,-0.00046088343005685464,-0.0005478546842870267,-0.001360808343324085,0.6806880831718445,34.03915023803711,4.048977375030518,-19.412263870239258,-0.11748272180557251,-1.783755898475647,0.09738485515117645,0
63,0.30994391441345215,-0.6806880831718445,-34.03915023803711,-4.048977375030518,19.412263870239258,0.11748272180557251,1.783755898475647,-0.09738485515117645,0.0,0.0,0.0,0.0,0.0,0.0,0.0,-0.637449740429423,-0.03343053249546156,-0.45378491883500954,0.38837371511076374,0.07824061377646828,-0.11566131307829289,-0.07085807660515456,1.0545445327215028,0.3236584054954335,-0.3924469327633976,-2.1530932783422942,0.8646488192357037,2.4659299157857815,0.5444877468662129,1.0544104758940245,0.3238615046091247,-0.39250456234122666,-2.153291787532338,0.8647539153680389,2.46587817577521,0.5445020185570556,0.0014194825935941878,-0.0015153494832748867,0.00023852481617548394,0.0003585735131671304,0.00046088343005685464,0.0005478546842870267,0.001360808343324085,0.0,0.0,0.0,0.0,0.0,0.0,0.0,-0.00013405682747835712,0.00020309911369120748,-5.762957782906586e-05,-0.00019850919004360534,0.00010509613233522508,-5.174001057151045e-05,1.4271690842670992e-05,-0.0014194825935941878,0.0015153494832748867,-0.00023852481617548394,-0.0003585735131671304,-0.00046088343005685464,-0.0005478546842870267,-0.001360808343324085,0.6806880831718445,34.03915023803711,4.048977375030518,-19.412263870239258,-0.11748272180557251,-1.783755898475647,0.09738485515117645,0
64,0.31499767303466797,-0.6291133761405945,-34.06295394897461,-4.048977375030518,19.436067581176758,0.12389141321182251,1.777347207069397,-0.04336874559521675,0.0,0.0,0.0,0.0,0.0,0.0,0.0,-0.6382334896706854,-0.030588281260250795,-0.4573364449986295,0.3864083682090944,0.0777002580638773,-0.11477736836791606,-0.07068944682248571,1.0545409134438164,0.32366031214095503,-0.3924469317553393,-2.153092856699714,0.8646481071588727,2.4659306278626123,0.544482098288972,1.0544104758940245,0.3238615046091247,-0.39250456234122666,-2.153291787532338,0.8647539153680389,2.46587817577521,0.5445020185570556,-0.0004890709348034587,-0.0013249773939803043,0.00038335683902893363,-0.0003252513829818532,0.0004935345365120269,0.0006273926391151784,-0.0013878168256238855,0.0,0.0,0.0,0.0,0.0,0.0,0.0,-0.00013043754979191746,0.0002011924681696864,-5.763058588736936e-05,-0.00019893083262401134,0.0001058082091661694,-5.245208740234375e-05,1.9920268083617465e-05,0.0004890709348034587,0.0013249773939803043,-0.00038335683902893363,0.0003252513829818532,-0.0004935345365120269,-0.0006273926391151784,0.0013878168256238855,0.6291133761405945,34.06295394897461,4.048977375030518,-19.436067581176758,-0.12389141321182251,-1.777347207069397,0.04336874559521675,0
65,0.32000136375427246,-0.6291133761405945,-34.06295394897461,-4.048977375030518,19.436067581176758,0.12389141321182251,1.777347207069397,-0.04336874559521675,0.0,0.0,0.0,0.0,0.0,0.0,0.0,-0.6382334896706854,-0.030588281260250795,-0.4573364449986295,0.3864083682090944,0.0777002580638773,-0.11477736836791606,-0.07068944682248571,1.0545409134438164,0.32366031214095503,-0.3924469317553393,-2.153092856699714,0.8646481071588727,2.4659306278626123,0.544482098288972,1.0544104758940245,0.3238615046091247,-0.39250456234122666,-2.153291787532338,0.8647539153680389,2.46587817577521,0.5445020185570556,-0.0004890709348034587,-0.0013249773939803043,0.00038335683902893363,-0.0003252513829818532,0.0004935345365120269,0.0006273926391151784,-0.0013878168256238855,0.0,0.0,0.0,0.0,0.0,0.0,0.0,-0.00013043754979191746,0.0002011924681696864,-5.763058588736936e-05,-0.00019893083262401134,0.0001058082091661694,-5.245208740234375e-05,1.9920268083617465e-05,0.0004890709348034587,0.0013249773939803043,-0.00038335683902893363,0.0003252513829818532,-0.0004935345365120269,-0.0006273926391151784,0.0013878168256238855,0.6291133761405945,34.06295394897461,4.048977375030518,-19.436067581176758,-0.12389141321182251,-1.777347207069397,0.04336874559521675,0
66,0.3249948024749756,-0.6053096652030945,-34.13833236694336,-4.025173664093018,19.412263870239258,0.1357932686805725,1.790164589881897,-0.02963583543896675,0.0,0.0,0.0,0.0,0.0,0.0,0.0,-0.6304832466712629,-0.028246991466486304,-0.45066616266889975,0.3846654271663943,0.0776995203831155,-0.1152594904889825,-0.071697874956775,1.054539243007961,0.32366560181982784,-0.392448605107374,-2.1530932742769773,0.8646478482447506,2.4659292037089666,0.5444802191993499,1.0544104758940245,0.3238615046091247,-0.39250456234122666,-2.153291787532338,0.8647539153680389,2.46587817577521,0.5445020185570556,-0.0004032023083002743,0.0004605182340850596,0.00029117586766139745,6.61512562932153e-05,-5.917899763599365e-05,-0.00014691806432645178,-0.0018546510010409066,0.0,0.0,0.0,0.0,0.0,0.0,0.0,-0.00012876711393650098,0.00019590278929687566,-5.595723385265483e-05,-0.0001985132553605773,0.00010606712328831147,-5.102793375666437e-05,2.1799357705742928e-05,0.0004032023083002743,-0.0004605182340850596,-0.00029117586766139745,-6.61512562932153e-05,5.917899763599365e-05,0.00014691806432645178,0.0018546510010409066,0.6053096652030945,34.13833236694336,4.025173664093018,-19.412263870239258,-0.1357932686805725,-1.790164589881897,0.02963583543896675,0
67,0.32999658584594727,-0.6053096652030945,-34.13833236694336,-4.025173664093018,19.412263870239258,0.1357932686805725,1.790164589881897,-0.02963583543896675,0.0,0.0,0.0,0.0,0.0,0.0,0.0,-0.6304832466712629,-0.028246991466486304,-0.45066616266889975,0.3846654271663943,0.0776995203831155,-0.1152594904889825,-0.071697874956775,1.054539243007961,0.32366560181982784,-0.392448605107374,-2.1530932742769773,0.8646478482447506,2.4659292037089666,0.5444802191993499,1.0544104758940245,0.3238615046091247,-0.39250456234122666,-2.153291787532338,0.8647539153680389,2.46587817577521,0.5445020185570556,-0.0004032023083002743,0.0004605182340850596,0.00029117586766139745,6.61512562932153e-05,-5.917899763599365e-05,-0.00014691806432645178,-0.0018546510010409066,0.0,0.0,0.0,0.0,0.0,0.0,0.0,-0.00012876711393650098,0.00019590278929687566,-5.595723385265483e-05,-0.0001985132553605773,0.00010606712328831147,-5.102793375666437e-05,2.1799357705742928e-05,0.0004032023083002743,-0.0004605182340850596,-0.00029117586766139745,-6.61512562932153e-05,5.917899763599365e-05,0.00014691806432645178,0.0018546510010409066,0.6053096652030945,34.13833236694336,4.025173664093018,-19.412263870239258,-0.1357932686805725,-1.790164589881897,0.02963583543896675,0
68,0.3349950313568115,-0.6291133761405945,-34.06295394897461,-3.9974029064178467,19.388460159301758,0.11748272180557251,1.790164589881897,-0.07724325358867645,0.0,0.0,0.0,0.0,0.0,0.0,0.0,-0.6471453827727748,-0.02219027104477336,-0.4645307784765753,0.37525259074638906,0.07813288989798041,-0.11495575085692761,-0.07239062810638262,1.0545409134438164,0.32366031214228824,-0.39245125964930433,-2.1530887413656425,0.8646488187571824,2.4659292037089666,0.5444855089104838,1.0544104758940245,0.3238615046091247,-0.39250456234122666,-2.153291787532338,0.8647539153680389,2.46587817577521,0.5445020185570556,-0.0004924058421703905,-0.000909414183983806,-0.00032487487516707125,5.620174299299787e-05,0.00033880027854149043,0.00023425352522280844,0.0002461768906649866,0.0,0.0,0.0,0.0,0.0,0.0,0.0,-0.00013043754979191746,0.00020119246683647507,-5.330269192233006e-05,-0.00020304616669530873,0.00010509661085655875,-5.102793375666437e-05,1.65096465718495e-05,0.0004924058421703905,0.000909414183983806,0.00032487487516707125,-5.620174299299787e-05,-0.00033880027854149043,-0.00023425352522280844,-0.0002461768906649866,0.6291133761405945,34.06295394897461,3.9974029064178467,-19.388460159301758,-0.11748272180557251,-1.790164589881897,0.07724325358867645,0
69,0.34000658988952637,-0.6291133761405945,-34.06295394897461,-3.9974029064178467,19.388460159301758,0.11748272180557251,1.790164589881897,-0.07724325358867645,0.0,0.0,0.0,0.0,0.0,0.0,0.0,-0.6471453827727748,-0.02219027104477336,-0.4645307784765753,0.37525259074638906,0.07813288989798041,-0.11495575085692761,-0.07239062810638262,1.0545409134438164,0.32366031214228824,-0.39245125964930433,-2.1530887413656425,0.8646488187571824,2.4659292037089666,0.5444855089104838,1.0544104758940245,0.3238615046091247,-0.39250456234122666,-2.153291787532338,0.8647539153680389,2.46587817577521,0.5445020185570556,-0.0004924058421703905,-0.000909414183983806,-0.00032487487516707125,5.620174299299787e-05,0.00033880027854149043,0.00023425352522280844,0.0002461768906649866,0.0,0.0,0.0,0.0,0.0,0.0,0.0,-0.00013043754979191746,0.00020119246683647507,-5.330269192233006e-05,-0.00020304616669530873,0.00010509661085655875,-5.102793375666437e-05,1.65096465718495e-05,0.0004924058421703905,0.000909414183983806,0.00032487487516707125,-5.620174299299787e-05,-0.00033880027854149043,-0.00023425352522280844,-0.0002461768906649866,0.6291133761405945,34.06295394897461,3.9974029064178467,-19.388460159301758,-0.11748272180557251,-1.790164589881897,0.07724325358867645,0
70,0.34499454498291016,-0.6291133761405945,-34.06295394897461,-4.025173664093018,19.436067581176758,0.1293845772743225,1.790164589881897,-0.04336874559521675,0.0,0.0,0.0,0.0,0.0,0.0,0.0,-0.6390573085857446,-0.03378101755312323,-0.4581476674189103,0.3794672225310137,0.07701826940131809,-0.11461704554915297,-0.07305819892434799,1.0545409134438164,0.3236603121422884,-0.39244860219518907,-2.1530940191118897,0.8646474963227907,2.4659292037089666,0.5444817450762622,1.0544104758940245,0.3238615046091247,-0.39250456234122666,-2.153291787532338,0.8647539153680389,2.46587817577521,0.5445020185570556,-7.222838975258851e-05,-0.0008968435797525681,-0.0002585497124575512,-0.0006217454826846618,1.413379173108382e-05,0.00012899495201854525,-0.0013080054910021982,0.0,0.0,0.0,0.0,0.0,0.0,0.0,-0.00013043754979191746,0.00020119246683630854,-5.596014603759247e-05,-0.00019776842044816334,0.00010641904524821832,-5.102793375666437e-05,2.0273480793364662e-05,7.222838975258851e-05,0.0008968435797525681,0.0002585497124575512,0.0006217454826846618,-1.413379173108382e-05,-0.00012899495201854525,0.0013080054910021982,0.6291133761405945,34.06295394897461,4.025173664093018,-19.436067581176758,-0.1293845772743225,-1.790164589881897,0.04336874559521675,0
71,0.3499929904937744,-0.6291133761405945,-34.06295394897461,-4.025173664093018,19.436067581176758,0.1293845772743225,1.790164589881897,-0.04336874559521675,0.0,0.0,0.0,0.0,0.0,0.0,0.0,-0.6390573085857446,-0.03378101755312323,-0.4581476674189103,0.3794672225310137,0.07701826940131809,-0.11461704554915297,-0.07305819892434799,1.0545409134438164,0.3236603121422884,-0.39244860219518907,-2.1530940191118897,0.8646474963227907,2.4659292037089666,0.5444817450762622,1.0544104758940245,0.3238615046091247,-0.39250456234122666,-2.153291787532338,0.8647539153680389,2.46587817577521,0.5445020185570556,-7.222838975258851e-05,-0.0008968435797525681,-0.0002585497124575512,-0.0006217454826846618,1.413379173108382e-05,0.00012899495201854525,-0.0013080054910021982,0.0,0.0,0.0,0.0,0.0,0.0,0.0,-0.00013043754979191746,0.00020119246683630854,-5.596014603759247e-05,-0.00019776842044816334,0.00010641904524821832,-5.102793375666437e-05,2.0273480793364662e-05,7.222838975258851e-05,0.0008968435797525681,0.0002585497124575512,0.0006217454826846618,-1.413379173108382e-05,-0.00012899495201854525,0.0013080054910021982,0.6291133761405945,34.06295394897461,4.025173664093018,-19.436067581176758,-0.1293845772743225,-1.790164589881897,0.04336874559521675,0
72,0.35500574111938477,-0.6291133761405945,-34.06295394897461,-3.9974029064178467,19.436067581176758,0.1357932686805725,1.777347207069397,-0.06991903483867645,0.0,0.0,0.0,0.0,0.0,0.0,0.0,-0.6297175612507431,-0.031767028014904566,-0.4521231897873415,0.3792575123450499,0.07641524612162706,-0.11572278977758302,-0.07301376051055314,1.0545409134438164,0.3236603121422884,-0.3924512683978434,-2.1530942476263055,0.8646499636448726,2.4659306278626123,0.5444846951084005,1.0544104758940245,0.3238615046091247,-0.39250456234122666,-2.153291787532338,0.8647539153680389,2.46587817577521,0.5445020185570556,-5.538862233138312e-06,-0.0008525863045608539,-0.0007718364056119567,-0.00043232420127395696,-0.00021165956920225713,0.00032680518970335264,-0.00020135147691896914,0.0,0.0,0.0,0.0,0.0,0.0,0.0,-0.00013043754979191746,0.00020119246683630854,-5.3293943383270204e-05,-0.00019753990603232907,0.00010395172316635115,-5.245208740234375e-05,1.7323448655126583e-05,5.538862233138312e-06,0.0008525863045608539,0.0007718364056119567,0.00043232420127395696,0.00021165956920225713,-0.00032680518970335264,0.00020135147691896914,0.6291133761405945,34.06295394897461,3.9974029064178467,-19.436067581176758,-0.1357932686805725,-1.777347207069397,0.06991903483867645,0
73,0.36002254486083984,-0.6291133761405945,-34.06295394897461,-3.9974029064178467,19.436067581176758,0.1357932686805725,1.777347207069397,-0.06991903483867645,0.0,0.0,0.0,0.0,0.0,0.0,0.0,-0.6297175612507431,-0.031767028014904566,-0.4521231897873415,0.3792575123450499,0.07641524612162706,-0.11572278977758302,-0.07301376051055314,1.0545409134438164,0.3236603121422884,-0.3924512683978434,-2.1530942476263055,0.8646499636448726,2.4659306278626123,0.5444846951084005,1.0544104758940245,0.3238615046091247,-0.39250456234122666,-2.153291787532338,0.8647539153680389,2.46587817577521,0.5445020185570556,-5.538862233138312e-06,-0.0008525863045608539,-0.0007718364056119567,-0.00043232420127395696,-0.00021165956920225713,0.00032680518970335264,-0.00020135147691896914,0.0,0.0,0.0,0.0,0.0,0.0,0.0,-0.00013043754979191746,0.00020119246683630854,-5.3293943383270204e-05,-0.00019753990603232907,0.00010395172316635115,-5.245208740234375e-05,1.7323448655126583e-05,5.538862233138312e-06,0.0008525863045608539,0.0007718364056119567,0.00043232420127395696,0.00021165956920225713,-0.00032680518970335264,0.00020135147691896914,0.6291133761405945,34.06295394897461,3.9974029064178467,-19.436067581176758,-0.1357932686805725,-1.777347207069397,0.06991903483867645,0
74,0.3650074005126953,-0.6291133761405945,-34.06295394897461,-3.9974029064178467,19.436067581176758,0.1357932686805725,1.777347207069397,-0.06991903483867645,0.0,0.0,0.0,0.0,0.0,0.0,0.0,-0.6297175612507431,-0.031767028014904566,-0.4521231897873415,0.3792575123450499,0.07641524612162706,-0.11572278977758302,-0.07301376051055314,1.0545409134438164,0.3236603121422884,-0.3924512683978434,-2.1530942476263055,0.8646499636448726,2.4659306278626123,0.5444846951084005,1.0544104758940245,0.3238615046091247,-0.39250456234122666,-2.153291787532338,0.8647539153680389,2.46587817577521,0.5445020185570556,-5.538862233138312e-06,-0.0008525863045608539,-0.0007718364056119567,-0.00043232420127395696,-0.00021165956920225713,0.00032680518970335264,-0.00020135147691896914,0.0,0.0,0.0,0.0,0.0,0.0,0.0,-0.00013043754979191746,0.00020119246683630854,-5.3293943383270204e-05,-0.00019753990603232907,0.00010395172316635115,-5.245208740234375e-05,1.7323448655126583e-05,5.538862233138312e-06,0.0008525863045608539,0.0007718364056119567,0.00043232420127395696,0.00021165956920225713,-0.00032680518970335264,0.00020135147691896914,0.6291133761405945,34.06295394897461,3.9974029064178467,-19.436067581176758,-0.1357932686805725,-1.777347207069397,0.06991903483867645,0
75,0.36997222900390625,-0.6291133761405945,-34.06295394897461,-3.9974029064178467,19.436067581176758,0.1357932686805725,1.777347207069397,-0.06991903483867645,0.0,0.0,0.0,0.0,0.0,0.0,0.0,-0.6297175612507431,-0.031767028014904566,-0.4521231897873415,0.3792575123450499,0.07641524612162706,-0.11572278977758302,-0.07301376051055314,1.0545409134438164,0.3236603121422884,-0.3924512683978434,-2.1530942476263055,0.8646499636448726,2.4659306278626123,0.5444846951084005,1.0544104758940245,0.3238615046091247,-0.39250456234122666,-2.153291787532338,0.8647539153680389,2.46587817577521,0.5445020185570556,-5.538862233138312e-06,-0.0008525863045608539,-0.0007718364056119567,-0.00043232420127395696,-0.00021165956920225713,0.00032680518970335264,-0.00020135147691896914,0.0,0.0,0.0,0.0,0.0,0.0,0.0,-0.00013043754979191746,0.00020119246683630854,-5.3293943383270204e-05,-0.00019753990603232907,0.00010395172316635115,-5.245208740234375e-05,1.7323448655126583e-05,5.538862233138312e-06,0.0008525863045608539,0.0007718364056119567,0.00043232420127395696,0.00021165956920225713,-0.00032680518970335264,0.00020135147691896914,0.6291133761405945,34.06295394897461,3.9974029064178467,-19.436067581176758,-0.1357932686805725,-1.777347207069397,0.06991903483867645,0
76,0.3749990463256836,-0.6806880831718445,-34.09072494506836,-4.025173664093018,19.436067581176758,0.1293845772743225,1.796573281288147,-0.09097616374492645,0.0,0.0,0.0,0.0,0.0,0.0,0.0,-0.6302206947309384,-0.028607853689846294,-0.4538439225229699,0.3802250316187404,0.07655315702427644,-0.11648681616104802,-0.07298874036325408,1.0545445327215028,0.32366226098411954,-0.39244860219523847,-2.1530949402066035,0.8646475007013892,2.465928491632144,0.5444870740352465,1.0544104758940245,0.3238615046091247,-0.39250456234122666,-2.153291787532338,0.8647539153680389,2.46587817577521,0.5445020185570556,0.0014307594628319114,9.49601822408107e-05,8.447191712838728e-05,-0.0005016865527978763,-1.9561711229569557e-05,-0.0002254850749182296,0.0010731292954075605,0.0,0.0,0.0,0.0,0.0,0.0,0.0,-0.00013405682747835712,0.00019924362500517434,-5.596014598818755e-05,-0.0001968473257343284,0.00010641466664973454,-5.0315856933824676e-05,1.4944521809057143e-05,-0.0014307594628319114,-9.49601822408107e-05,-8.447191712838728e-05,0.0005016865527978763,1.9561711229569557e-05,0.0002254850749182296,-0.0010731292954075605,0.6806880831718445,34.09072494506836,4.025173664093018,-19.436067581176758,-0.1293845772743225,-1.796573281288147,0.09097616374492645,0
77,0.37999558448791504,-0.6806880831718445,-34.09072494506836,-4.025173664093018,19.436067581176758,0.1293845772743225,1.796573281288147,-0.09097616374492645,0.0,0.0,0.0,0.0,0.0,0.0,0.0,-0.6302206947309384,-0.028607853689846294,-0.4538439225229699,0.3802250316187404,0.07655315702427644,-0.11648681616104802,-0.07298874036325408,1.0545445327215028,0.32366226098411954,-0.39244860219523847,-2.1530949402066035,0.8646475007013892,2.465928491632144,0.5444870740352465,1.0544104758940245,0.3238615046091247,-0.39250456234122666,-2.153291787532338,0.8647539153680389,2.46587817577521,0.5445020185570556,0.0014307594628319114,9.49601822408107e-05,8.447191712838728e-05,-0.0005016865527978763,-1.9561711229569557e-05,-0.0002254850749182296,0.0010731292954075605,0.0,0.0,0.0,0.0,0.0,0.0,0.0,-0.00013405682747835712,0.00019924362500517434,-5.596014598818755e-05,-0.0001968473257343284,0.00010641466664973454,-5.0315856933824676e-05,1.4944521809057143e-05,-0.0014307594628319114,-9.49601822408107e-05,-8.447191712838728e-05,0.0005016865527978763,1.9561711229569557e-05,0.0002254850749182296,-0.0010731292954075605,0.6806880831718445,34.09072494506836,4.025173664093018,-19.436067581176758,-0.1293845772743225,-1.796573281288147,0.09097616374492645,0
78,0.3849978446960449,-0.6053096652030945,-34.06295394897461,-3.9974029064178467,19.360689163208008,0.1357932686805725,1.783755898475647,-0.07724325358867645,0.0,0.0,0.0,0.0,0.0,0.0,0.0,-0.6300896945922057,-0.024974578121137635,-0.4526936434609766,0.38214431340794003,0.07639922238015988,-0.11657898661829293,-0.0720739462551611,1.054539243007961,0.3236603121422884,-0.39245063007730935,-2.1530868926733975,0.8646467842459925,2.4659299157857895,0.5444855089107052,1.0544104758940245,0.3238615046091247,-0.39250456234122666,-2.153291787532338,0.8647539153680389,2.46587817577521,0.5445020185570556,-0.00024814949774682653,-0.0005342569254661592,-0.0003475358258991101,0.0016235743956173638,-0.00040498756903820365,0.00026672877333105163,4.682074235892087e-05,0.0,0.0,0.0,0.0,0.0,0.0,0.0,-0.00012876711393650098,0.00020119246683630854,-5.393226391731121e-05,-0.0002048948589403743,0.00010713112204641106,-5.174001057950406e-05,1.6509646350360008e-05,0.00024814949774682653,0.0005342569254661592,0.0003475358258991101,-0.0016235743956173638,0.00040498756903820365,-0.00026672877333105163,-4.682074235892087e-05,0.6053096652030945,34.06295394897461,3.9974029064178467,-19.360689163208008,-0.1357932686805725,-1.783755898475647,0.07724325358867645,0
79,0.3899965286254883,-0.6053096652030945,-34.06295394897461,-3.9974029064178467,19.360689163208008,0.1357932686805725,1.783755898475647,-0.07724325358867645,0.0,0.0,0.0,0.0,0.0,0.0,0.0,-0.6300896945922057,-0.024974578121137635,-0.4526936434609766,0.38214431340794003,0.07639922238015988,-0.11657898661829293,-0.0720739462551611,1.054539243007961,0.3236603121422884,-0.39245063007730935,-2.1530868926733975,0.8646467842459925,2.4659299157857895,0.5444855089107052,1.0544104758940245,0.3238615046091247,-0.39250456234122666,-2.153291787532338,0.8647539153680389,2.46587817577521,0.5445020185570556,-0.00024814949774682653,-0.0005342569254661592,-0.0003475358258991101,0.0016235743956173638,-0.00040498756903820365,0.00026672877333105163,4.682074235892087e-05,0.0,0.0,0.0,0.0,0.0,0.0,0.0,-0.00012876711393650098,0.00020119246683630854,-5.393226391731121e-05,-0.0002048948589403743,0.00010713112204641106,-5.174001057950406e-05,1.6509646350360008e-05,0.00024814949774682653,0.0005342569254661592,0.0003475358258991101,-0.0016235743956173638,0.00040498756903820365,-0.00026672877333105163,-4.682074235892087e-05,0.6053096652030945,34.06295394897461,3.9974029064178467,-19.360689163208008,-0.1357932686805725,-1.783755898475647,0.07724325358867645,0
80,0.39504098892211914,-0.6291133761405945,-34.11452865600586,-3.9974029064178467,19.412263870239258,0.1412864327430725,1.796573281288147,-0.09097616374492645,0.0,0.0,0.0,0.0,0.0,0.0,0.0,-0.6341083302348364,-0.030422291854618942,-0.4551724893017507,0.3858073861531739,0.07579184626651056,-0.11605085739865155,-0.07286728202550298,1.0545409134438164,0.3236636952089752,-0.3924505772624018,-2.1530912107082627,0.8646461753479555,2.465928491632144,0.54448703478939,1.0544104758940245,0.3238615046091247,-0.39250456234122666,-2.153291787532338,0.8647539153680389,2.46587817577521,0.5445020185570556,9.78776186232117e-05,0.0001691679596338844,-1.4012593443241695e-05,0.0002815590644416773,-0.00042591389619058505,-0.00037637952453258743,0.0004737586720660129,0.0,0.0,0.0,0.0,0.0,0.0,0.0,-0.00013043754979191746,0.00019780940014951787,-5.398507882486969e-05,-0.00020057682407514932,0.00010774002008340222,-5.0315856933824676e-05,1.4983767665621706e-05,-9.78776186232117e-05,-0.0001691679596338844,1.4012593443241695e-05,-0.0002815590644416773,0.00042591389619058505,0.00037637952453258743,-0.0004737586720660129,0.6291133761405945,34.11452865600586,3.9974029064178467,-19.412263870239258,-0.1412864327430725,-1.796573281288147,0.09097616374492645,0
