rezayati/contactInterpretation/dataset/franka_main/labeled_data/link5/c12_2.csv
index,time,tau_J0,tau_J1,tau_J2,tau_J3,tau_J4,tau_J5,tau_J6,tau_J_d0,tau_J_d1,tau_J_d2,tau_J_d3,tau_J_d4,tau_J_d5,tau_J_d6,tau_ext0,tau_ext1,tau_ext2,tau_ext3,tau_ext4,tau_ext5,tau_ext6,q0,q1,q2,q3,q4,q5,q6,q_d0,q_d1,q_d2,q_d3,q_d4,q_d5,q_d6,dq0,dq1,dq2,dq3,dq4,dq5,dq6,dq_d0,dq_d1,dq_d2,dq_d3,dq_d4,dq_d5,dq_d6,e0,e1,e2,e3,e4,e5,e6,de0,de1,de2,de3,de4,de5,de6,etau_J0,etau_J1,etau_J2,etau_J3,etau_J4,etau_J5,etau_J6,label
1,0.0,-0.24825400114059448,-13.437036514282227,0.3467743694782257,18.170503616333008,0.4269309639930725,2.2946200370788574,-0.29605430364608765,0.0,0.0,0.0,0.0,0.0,0.0,0.0,-0.2700632888799592,0.528669640415447,-0.06444992809505798,0.4287858154095387,-0.0067818763771198805,0.07519903571177791,-0.2546952769262216,0.07181518418519203,-0.3344555750687917,-0.12025434363660382,-2.874459805356163,-0.06441568591989301,2.518278033627404,0.7687538793815507,0.07165585495296277,-0.33419673383382315,-0.1203439052763738,-2.874768336042937,-0.06453255302590709,2.518161157661014,0.7687020283728597,-0.001105695311172501,0.0013818249614944423,0.0001190732082719101,-0.0004578582804904675,-0.000107465959358898,-0.00037092355822611843,0.0006753229087498149,0.0,0.0,0.0,0.0,0.0,0.0,0.0,-0.00015932923222926332,0.00025884123496855427,-8.9561639769975e-05,-0.0003085306867740556,-0.00011686710601407913,-0.0001168759663898733,-5.1851008690984024e-05,0.001105695311172501,-0.0013818249614944423,-0.0001190732082719101,0.0004578582804904675,0.000107465959358898,0.00037092355822611843,-0.0006753229087498149,0.24825400114059448,13.437036514282227,-0.3467743694782257,-18.170503616333008,-0.4269309639930725,-2.2946200370788574,0.29605430364608765,0
2,0.00500941276550293,-0.19667929410934448,-13.488611221313477,0.4221527874469757,18.170503616333008,0.4269309639930725,2.2882113456726074,-0.28232139348983765,0.0,0.0,0.0,0.0,0.0,0.0,0.0,-0.27120567788119526,0.5264643056593254,-0.05959332543708729,0.43107086453167454,-0.00650677295994684,0.07549642556343686,-0.2585915711155399,0.0718113044404373,-0.3344519557911053,-0.12025954443879046,-2.8744598039995237,-0.06441671235933509,2.518278745704227,0.7687527067153542,0.07165585495296277,-0.33419673383382315,-0.1203439052763738,-2.874768336042937,-0.06453255302590709,2.518161157661014,0.7687020283728597,-0.0010725996615017033,0.0013966848793402241,-0.0009687718863686476,0.0003819403650971494,-0.00012208476935160925,-9.300291243441248e-05,-0.0027237544861244438,0.0,0.0,0.0,0.0,0.0,0.0,0.0,-0.0001554494874745349,0.0002552219572821701,-8.436083758334156e-05,-0.000308532043413301,-0.00011584066657199799,-0.00011758804321271299,-5.0678342494503426e-05,0.0010725996615017033,-0.0013966848793402241,0.0009687718863686476,-0.0003819403650971494,0.00012208476935160925,9.300291243441248e-05,0.0027237544861244438,0.19667929410934448,13.488611221313477,-0.4221527874469757,-18.170503616333008,-0.4269309639930725,-2.2882113456726074,0.28232139348983765,0
3,0.010010719299316406,-0.19667929410934448,-13.488611221313477,0.4221527874469757,18.170503616333008,0.4269309639930725,2.2882113456726074,-0.28232139348983765,0.0,0.0,0.0,0.0,0.0,0.0,0.0,-0.27120567788119526,0.5264643056593254,-0.05959332543708729,0.43107086453167454,-0.00650677295994684,0.07549642556343686,-0.2585915711155399,0.0718113044404373,-0.3344519557911053,-0.12025954443879046,-2.8744598039995237,-0.06441671235933509,2.518278745704227,0.7687527067153542,0.07165585495296277,-0.33419673383382315,-0.1203439052763738,-2.874768336042937,-0.06453255302590709,2.518161157661014,0.7687020283728597,-0.0010725996615017033,0.0013966848793402241,-0.0009687718863686476,0.0003819403650971494,-0.00012208476935160925,-9.300291243441248e-05,-0.0027237544861244438,0.0,0.0,0.0,0.0,0.0,0.0,0.0,-0.0001554494874745349,0.0002552219572821701,-8.436083758334156e-05,-0.000308532043413301,-0.00011584066657199799,-0.00011758804321271299,-5.0678342494503426e-05,0.0010725996615017033,-0.0013966848793402241,0.0009687718863686476,-0.0003819403650971494,0.00012208476935160925,9.300291243441248e-05,0.0027237544861244438,0.19667929410934448,13.488611221313477,-0.4221527874469757,-18.170503616333008,-0.4269309639930725,-2.2882113456726074,0.28232139348983765,0
4,0.015006542205810547,-0.19667929410934448,-13.488611221313477,0.4221527874469757,18.170503616333008,0.4269309639930725,2.2882113456726074,-0.28232139348983765,0.0,0.0,0.0,0.0,0.0,0.0,0.0,-0.27120567788119526,0.5264643056593254,-0.05959332543708729,0.43107086453167454,-0.00650677295994684,0.07549642556343686,-0.2585915711155399,0.0718113044404373,-0.3344519557911053,-0.12025954443879046,-2.8744598039995237,-0.06441671235933509,2.518278745704227,0.7687527067153542,0.07165585495296277,-0.33419673383382315,-0.1203439052763738,-2.874768336042937,-0.06453255302590709,2.518161157661014,0.7687020283728597,-0.0010725996615017033,0.0013966848793402241,-0.0009687718863686476,0.0003819403650971494,-0.00012208476935160925,-9.300291243441248e-05,-0.0027237544861244438,0.0,0.0,0.0,0.0,0.0,0.0,0.0,-0.0001554494874745349,0.0002552219572821701,-8.436083758334156e-05,-0.000308532043413301,-0.00011584066657199799,-0.00011758804321271299,-5.0678342494503426e-05,0.0010725996615017033,-0.0013966848793402241,0.0009687718863686476,-0.0003819403650971494,0.00012208476935160925,9.300291243441248e-05,0.0027237544861244438,0.19667929410934448,13.488611221313477,-0.4221527874469757,-18.170503616333008,-0.4269309639930725,-2.2882113456726074,0.28232139348983765,0
5,0.020416736602783203,-0.19667929410934448,-13.488611221313477,0.4221527874469757,18.170503616333008,0.4269309639930725,2.2882113456726074,-0.28232139348983765,0.0,0.0,0.0,0.0,0.0,0.0,0.0,-0.27120567788119526,0.5264643056593254,-0.05959332543708729,0.43107086453167454,-0.00650677295994684,0.07549642556343686,-0.2585915711155399,0.0718113044404373,-0.3344519557911053,-0.12025954443879046,-2.8744598039995237,-0.06441671235933509,2.518278745704227,0.7687527067153542,0.07165585495296277,-0.33419673383382315,-0.1203439052763738,-2.874768336042937,-0.06453255302590709,2.518161157661014,0.7687020283728597,-0.0010725996615017033,0.0013966848793402241,-0.0009687718863686476,0.0003819403650971494,-0.00012208476935160925,-9.300291243441248e-05,-0.0027237544861244438,0.0,0.0,0.0,0.0,0.0,0.0,0.0,-0.0001554494874745349,0.0002552219572821701,-8.436083758334156e-05,-0.000308532043413301,-0.00011584066657199799,-0.00011758804321271299,-5.0678342494503426e-05,0.0010725996615017033,-0.0013966848793402241,0.0009687718863686476,-0.0003819403650971494,0.00012208476935160925,9.300291243441248e-05,0.0027237544861244438,0.19667929410934448,13.488611221313477,-0.4221527874469757,-18.170503616333008,-0.4269309639930725,-2.2882113456726074,0.28232139348983765,0
6,0.0250089168548584,-0.24825400114059448,-13.437036514282227,0.3983490765094757,18.122896194458008,0.4095359444618225,2.2818026542663574,-0.26217979192733765,0.0,0.0,0.0,0.0,0.0,0.0,0.0,-0.26419251166187063,0.520979240593719,-0.05024876937204446,0.4254396900226936,-0.006788528693090165,0.07448974758858276,-0.2597370195886883,0.07181636183201269,-0.3344555750687917,-0.12026008501638658,-2.8744564631278053,-0.06441078545420383,2.51827945778105,0.7687501155489092,0.07165585495296277,-0.33419673383382315,-0.1203439052763738,-2.874768336042937,-0.06453255302590709,2.518161157661014,0.7687020283728597,0.0008778930782798251,-0.0003190301379218398,0.0008963057046933657,0.0011200857597542125,0.0005635503219102826,0.0002449863710554235,-0.0008397924945135638,0.0,0.0,0.0,0.0,0.0,0.0,0.0,-0.0001605068790499209,0.00025884123496855427,-8.382025998722453e-05,-0.00031187291513168347,-0.00012176757170326291,-0.00011830012003599677,-4.808717604942725e-05,-0.0008778930782798251,0.0003190301379218398,-0.0008963057046933657,-0.0011200857597542125,-0.0005635503219102826,-0.0002449863710554235,0.0008397924945135638,0.24825400114059448,13.437036514282227,-0.3983490765094757,-18.122896194458008,-0.4095359444618225,-2.2818026542663574,0.26217979192733765,0
7,0.03000187873840332,-0.24825400114059448,-13.437036514282227,0.3983490765094757,18.122896194458008,0.4095359444618225,2.2818026542663574,-0.26217979192733765,0.0,0.0,0.0,0.0,0.0,0.0,0.0,-0.26419251166187063,0.520979240593719,-0.05024876937204446,0.4254396900226936,-0.006788528693090165,0.07448974758858276,-0.2597370195886883,0.07181636183201269,-0.3344555750687917,-0.12026008501638658,-2.8744564631278053,-0.06441078545420383,2.51827945778105,0.7687501155489092,0.07165585495296277,-0.33419673383382315,-0.1203439052763738,-2.874768336042937,-0.06453255302590709,2.518161157661014,0.7687020283728597,0.0008778930782798251,-0.0003190301379218398,0.0008963057046933657,0.0011200857597542125,0.0005635503219102826,0.0002449863710554235,-0.0008397924945135638,0.0,0.0,0.0,0.0,0.0,0.0,0.0,-0.0001605068790499209,0.00025884123496855427,-8.382025998722453e-05,-0.00031187291513168347,-0.00012176757170326291,-0.00011830012003599677,-4.808717604942725e-05,-0.0008778930782798251,0.0003190301379218398,-0.0008963057046933657,-0.0011200857597542125,-0.0005635503219102826,-0.0002449863710554235,0.0008397924945135638,0.24825400114059448,13.437036514282227,-0.3983490765094757,-18.122896194458008,-0.4095359444618225,-2.2818026542663574,0.26217979192733765,0
8,0.03495478630065918,-0.24825400114059448,-13.464807510375977,0.3983490765094757,18.198274612426758,0.4269309639930725,2.2882113456726074,-0.28232139348983765,0.0,0.0,0.0,0.0,0.0,0.0,0.0,-0.26296030381670227,0.5161749065391744,-0.04532291311864964,0.424040146684529,-0.006249817176023239,0.0740801403566439,-0.2599871853548969,0.07181628894559546,-0.33445362622696057,-0.12025698058773229,-2.874461752841347,-0.06441552663319507,2.518278745704227,0.7687523535026445,0.07165585495296277,-0.33419673383382315,-0.1203439052763738,-2.874768336042937,-0.06453255302590709,2.518161157661014,0.7687020283728597,0.00013216598745375638,0.0011198084430041999,6.202731140916212e-05,-0.0007810326937239066,-8.995458045818251e-05,-8.757867654050115e-05,0.0016564472516326452,0.0,0.0,0.0,0.0,0.0,0.0,0.0,-0.00016043399263268587,0.00025689239313742007,-8.692468864150704e-05,-0.0003065832015898273,-0.00011702639271202186,-0.00011758804321271299,-5.032512978475623e-05,-0.00013216598745375638,-0.0011198084430041999,-6.202731140916212e-05,0.0007810326937239066,8.995458045818251e-05,8.757867654050115e-05,-0.0016564472516326452,0.24825400114059448,13.464807510375977,-0.3983490765094757,-18.198274612426758,-0.4269309639930725,-2.2882113456726074,0.28232139348983765,0
9,0.04000735282897949,-0.24825400114059448,-13.464807510375977,0.3983490765094757,18.198274612426758,0.4269309639930725,2.2882113456726074,-0.28232139348983765,0.0,0.0,0.0,0.0,0.0,0.0,0.0,-0.26296030381670227,0.5161749065391744,-0.04532291311864964,0.424040146684529,-0.006249817176023239,0.0740801403566439,-0.2599871853548969,0.07181628894559546,-0.33445362622696057,-0.12025698058773229,-2.874461752841347,-0.06441552663319507,2.518278745704227,0.7687523535026445,0.07165585495296277,-0.33419673383382315,-0.1203439052763738,-2.874768336042937,-0.06453255302590709,2.518161157661014,0.7687020283728597,0.00013216598745375638,0.0011198084430041999,6.202731140916212e-05,-0.0007810326937239066,-8.995458045818251e-05,-8.757867654050115e-05,0.0016564472516326452,0.0,0.0,0.0,0.0,0.0,0.0,0.0,-0.00016043399263268587,0.00025689239313742007,-8.692468864150704e-05,-0.0003065832015898273,-0.00011702639271202186,-0.00011758804321271299,-5.032512978475623e-05,-0.00013216598745375638,-0.0011198084430041999,-6.202731140916212e-05,0.0007810326937239066,8.995458045818251e-05,8.757867654050115e-05,-0.0016564472516326452,0.24825400114059448,13.464807510375977,-0.3983490765094757,-18.198274612426758,-0.4269309639930725,-2.2882113456726074,0.28232139348983765,0
10,0.0458064079284668,-0.2998287081718445,-13.365625381469727,0.3467743694782257,18.170503616333008,0.4214377999305725,2.2946200370788574,-0.22830526530742645,0.0,0.0,0.0,0.0,0.0,0.0,0.0,-0.26383897894019487,0.5187976338955549,-0.04498550251756454,0.42235145778578026,-0.0060520680241225484,0.07364091869037244,-0.25779064196647694,0.07181998144218349,-0.3344605863763575,-0.1202535183766365,-2.874459803999516,-0.06441502978712269,2.518278033627404,0.7687463517106241,0.07165585495296277,-0.33419673383382315,-0.1203439052763738,-2.874768336042937,-0.06453255302590709,2.518161157661014,0.7687020283728597,0.0005090746703806281,-1.5103965442166881e-05,-0.0006438944104727911,0.00029871839783681195,0.00013888157941217125,-0.00043040430550423726,-0.0005267977525527611,0.0,0.0,0.0,0.0,0.0,0.0,0.0,-0.00016412648922072004,0.00026385254253435964,-9.038689973729641e-05,-0.0003085320434208505,-0.0001175232387844033,-0.0001168759663898733,-4.4323337764384796e-05,-0.0005090746703806281,1.5103965442166881e-05,0.0006438944104727911,-0.00029871839783681195,-0.00013888157941217125,0.00043040430550423726,0.0005267977525527611,0.2998287081718445,13.365625381469727,-0.3467743694782257,-18.170503616333008,-0.4214377999305725,-2.2946200370788574,0.22830526530742645,0
11,0.05000591278076172,-0.2998287081718445,-13.365625381469727,0.3467743694782257,18.170503616333008,0.4214377999305725,2.2946200370788574,-0.22830526530742645,0.0,0.0,0.0,0.0,0.0,0.0,0.0,-0.26383897894019487,0.5187976338955549,-0.04498550251756454,0.42235145778578026,-0.0060520680241225484,0.07364091869037244,-0.25779064196647694,0.07181998144218349,-0.3344605863763575,-0.1202535183766365,-2.874459803999516,-0.06441502978712269,2.518278033627404,0.7687463517106241,0.07165585495296277,-0.33419673383382315,-0.1203439052763738,-2.874768336042937,-0.06453255302590709,2.518161157661014,0.7687020283728597,0.0005090746703806281,-1.5103965442166881e-05,-0.0006438944104727911,0.00029871839783681195,0.00013888157941217125,-0.00043040430550423726,-0.0005267977525527611,0.0,0.0,0.0,0.0,0.0,0.0,0.0,-0.00016412648922072004,0.00026385254253435964,-9.038689973729641e-05,-0.0003085320434208505,-0.0001175232387844033,-0.0001168759663898733,-4.4323337764384796e-05,-0.0005090746703806281,1.5103965442166881e-05,0.0006438944104727911,-0.00029871839783681195,-0.00013888157941217125,0.00043040430550423726,0.0005267977525527611,0.2998287081718445,13.365625381469727,-0.3467743694782257,-18.170503616333008,-0.4214377999305725,-2.2946200370788574,0.22830526530742645,0
12,0.05500173568725586,-0.3236324191093445,-13.337854385375977,0.3705780804157257,18.198274612426758,0.4269309639930725,2.2818026542663574,-0.27591270208358765,0.0,0.0,0.0,0.0,0.0,0.0,0.0,-0.2646630636401937,0.5195196224179631,-0.049340145721866006,0.422659814679356,-0.00665418326618587,0.07356171005562791,-0.25512999256419144,0.07182188830577763,-0.33446253521818864,-0.12025521616954954,-2.874461752841347,-0.06441353392844926,2.51827945778105,0.7687516414258215,0.07165585495296277,-0.33419673383382315,-0.1203439052763738,-2.874768336042937,-0.06453255302590709,2.518161157661014,0.7687020283728597,0.00040603367214042175,-0.0006798056081867046,-0.0018941229158228388,-0.0008693688025216303,-0.00019620985472913494,3.4562036935904854e-05,2.45838249667425e-05,0.0,0.0,0.0,0.0,0.0,0.0,0.0,-0.00016603335281485665,0.00026580138436549383,-8.868910682426068e-05,-0.0003065832015898273,-0.00011901909745783146,-0.00011830012003599677,-4.9613052961805515e-05,-0.00040603367214042175,0.0006798056081867046,0.0018941229158228388,0.0008693688025216303,0.00019620985472913494,-3.4562036935904854e-05,-2.45838249667425e-05,0.3236324191093445,13.337854385375977,-0.3705780804157257,-18.198274612426758,-0.4269309639930725,-2.2818026542663574,0.27591270208358765,0
13,0.05999946594238281,-0.3236324191093445,-13.337854385375977,0.3705780804157257,18.198274612426758,0.4269309639930725,2.2818026542663574,-0.27591270208358765,0.0,0.0,0.0,0.0,0.0,0.0,0.0,-0.2646630636401937,0.5195196224179631,-0.049340145721866006,0.422659814679356,-0.00665418326618587,0.07356171005562791,-0.25512999256419144,0.07182188830577763,-0.33446253521818864,-0.12025521616954954,-2.874461752841347,-0.06441353392844926,2.51827945778105,0.7687516414258215,0.07165585495296277,-0.33419673383382315,-0.1203439052763738,-2.874768336042937,-0.06453255302590709,2.518161157661014,0.7687020283728597,0.00040603367214042175,-0.0006798056081867046,-0.0018941229158228388,-0.0008693688025216303,-0.00019620985472913494,3.4562036935904854e-05,2.45838249667425e-05,0.0,0.0,0.0,0.0,0.0,0.0,0.0,-0.00016603335281485665,0.00026580138436549383,-8.868910682426068e-05,-0.0003065832015898273,-0.00011901909745783146,-0.00011830012003599677,-4.9613052961805515e-05,-0.00040603367214042175,0.0006798056081867046,0.0018941229158228388,0.0008693688025216303,0.00019620985472913494,-3.4562036935904854e-05,-2.45838249667425e-05,0.3236324191093445,13.337854385375977,-0.3705780804157257,-18.198274612426758,-0.4269309639930725,-2.2818026542663574,0.27591270208358765,0
14,0.06499743461608887,-0.2998287081718445,-13.365625381469727,0.3229706585407257,18.198274612426758,0.4214377999305725,2.2818026542663574,-0.26217979192733765,0.0,0.0,0.0,0.0,0.0,0.0,0.0,-0.27033605534943334,0.524813049495721,-0.05569458945525737,0.4277098286056985,-0.00752693171979037,0.07315847339256644,-0.25602463059165725,0.07182091081718264,-0.3344605863763575,-0.1202518856871715,-2.8744617528427425,-0.06441644040721081,2.51827945778105,0.7687501155469153,0.07165585495296277,-0.33419673383382315,-0.1203439052763738,-2.874768336042937,-0.06453255302590709,2.518161157661014,0.7687020283728597,0.0003743874433630376,-0.0003420576736930928,0.0006532929726491335,-0.0007796227812200481,2.3074211842699537e-05,0.00016674950627914212,-0.0005679288393730703,0.0,0.0,0.0,0.0,0.0,0.0,0.0,-0.0001650558642198735,0.00026385254253435964,-9.20195892022968e-05,-0.00030658320019449903,-0.00011611261869627632,-0.00011830012003599677,-4.808717405557772e-05,-0.0003743874433630376,0.0003420576736930928,-0.0006532929726491335,0.0007796227812200481,-2.3074211842699537e-05,-0.00016674950627914212,0.0005679288393730703,0.2998287081718445,13.365625381469727,-0.3229706585407257,-18.198274612426758,-0.4214377999305725,-2.2818026542663574,0.26217979192733765,0
15,0.06999826431274414,-0.2998287081718445,-13.365625381469727,0.3229706585407257,18.198274612426758,0.4214377999305725,2.2818026542663574,-0.26217979192733765,0.0,0.0,0.0,0.0,0.0,0.0,0.0,-0.27033605534943334,0.524813049495721,-0.05569458945525737,0.4277098286056985,-0.00752693171979037,0.07315847339256644,-0.25602463059165725,0.07182091081718264,-0.3344605863763575,-0.1202518856871715,-2.8744617528427425,-0.06441644040721081,2.51827945778105,0.7687501155469153,0.07165585495296277,-0.33419673383382315,-0.1203439052763738,-2.874768336042937,-0.06453255302590709,2.518161157661014,0.7687020283728597,0.0003743874433630376,-0.0003420576736930928,0.0006532929726491335,-0.0007796227812200481,2.3074211842699537e-05,0.00016674950627914212,-0.0005679288393730703,0.0,0.0,0.0,0.0,0.0,0.0,0.0,-0.0001650558642198735,0.00026385254253435964,-9.20195892022968e-05,-0.00030658320019449903,-0.00011611261869627632,-0.00011830012003599677,-4.808717405557772e-05,-0.0003743874433630376,0.0003420576736930928,-0.0006532929726491335,0.0007796227812200481,-2.3074211842699537e-05,-0.00016674950627914212,0.0005679288393730703,0.2998287081718445,13.365625381469727,-0.3229706585407257,-18.198274612426758,-0.4214377999305725,-2.2818026542663574,0.26217979192733765,0
16,0.07500052452087402,-0.22445029020309448,-13.437036514282227,0.3229706585407257,18.170503616333008,0.4150291085243225,2.2882113456726074,-0.23471395671367645,0.0,0.0,0.0,0.0,0.0,0.0,0.0,-0.27233808380860003,0.5188511586477536,-0.05736333895566397,0.4421560661422382,-0.007662101196835894,0.0762762804010534,-0.2569818013033367,0.07181280250251115,-0.3344555750687917,-0.12025161406900203,-2.874459803999516,-0.06441146558013593,2.518278745704227,0.7687470637874471,0.07165585495296277,-0.33419673383382315,-0.1203439052763738,-2.874768336042937,-0.06453255302590709,2.518161157661014,0.7687020283728597,-0.000605888482935013,0.0007975034575939849,0.0007847403254066232,0.0005186099667641839,0.00017401993578620173,-0.0029191069846182314,2.3975205082769113e-05,0.0,0.0,0.0,0.0,0.0,0.0,0.0,-0.00015694754954838352,0.00025884123496855427,-9.229120737176688e-05,-0.0003085320434208505,-0.00012108744577116193,-0.00011758804321271299,-4.503541458733551e-05,0.000605888482935013,-0.0007975034575939849,-0.0007847403254066232,-0.0005186099667641839,-0.00017401993578620173,0.0029191069846182314,-2.3975205082769113e-05,0.22445029020309448,13.437036514282227,-0.3229706585407257,-18.170503616333008,-0.4150291085243225,-2.2882113456726074,0.23471395671367645,0
17,0.08001470565795898,-0.22445029020309448,-13.437036514282227,0.3229706585407257,18.170503616333008,0.4150291085243225,2.2882113456726074,-0.23471395671367645,0.0,0.0,0.0,0.0,0.0,0.0,0.0,-0.27233808380860003,0.5188511586477536,-0.05736333895566397,0.4421560661422382,-0.007662101196835894,0.0762762804010534,-0.2569818013033367,0.07181280250251115,-0.3344555750687917,-0.12025161406900203,-2.874459803999516,-0.06441146558013593,2.518278745704227,0.7687470637874471,0.07165585495296277,-0.33419673383382315,-0.1203439052763738,-2.874768336042937,-0.06453255302590709,2.518161157661014,0.7687020283728597,-0.000605888482935013,0.0007975034575939849,0.0007847403254066232,0.0005186099667641839,0.00017401993578620173,-0.0029191069846182314,2.3975205082769113e-05,0.0,0.0,0.0,0.0,0.0,0.0,0.0,-0.00015694754954838352,0.00025884123496855427,-9.229120737176688e-05,-0.0003085320434208505,-0.00012108744577116193,-0.00011758804321271299,-4.503541458733551e-05,0.000605888482935013,-0.0007975034575939849,-0.0007847403254066232,-0.0005186099667641839,-0.00017401993578620173,0.0029191069846182314,-2.3975205082769113e-05,0.22445029020309448,13.437036514282227,-0.3229706585407257,-18.170503616333008,-0.4150291085243225,-2.2882113456726074,0.23471395671367645,0
18,0.08501791954040527,-0.22445029020309448,-13.413232803344727,0.3467743694782257,18.146699905395508,0.4333396553993225,2.2882113456726074,-0.23471395671367645,0.0,0.0,0.0,0.0,0.0,0.0,0.0,-0.26581933924508205,0.5214569409404101,-0.057672920323576966,0.43075465748070213,-0.007985192680611259,0.07435762999662926,-0.25466002258079723,0.07181325349477186,-0.33445724550464695,-0.12025576417744936,-2.8744581335636608,-0.064416633188471,2.518278745704227,0.7687470637874471,0.07165585495296277,-0.33419673383382315,-0.1203439052763738,-2.874768336042937,-0.06453255302590709,2.518161157661014,0.7687020283728597,-0.00011128729098661652,-0.0003631007142545911,0.0009397184782573073,0.00031332082949621706,-0.0002191919407983992,9.554389391048612e-05,-0.0010904551781456115,0.0,0.0,0.0,0.0,0.0,0.0,0.0,-0.00015739854180908674,0.0002605116708238042,-8.8141098924438e-05,-0.000310202479276267,-0.0001159198374360848,-0.00011758804321271299,-4.503541458733551e-05,0.00011128729098661652,0.0003631007142545911,-0.0009397184782573073,-0.00031332082949621706,0.0002191919407983992,-9.554389391048612e-05,0.0010904551781456115,0.22445029020309448,13.413232803344727,-0.3467743694782257,-18.146699905395508,-0.4333396553993225,-2.2882113456726074,0.23471395671367645,0
19,0.09002375602722168,-0.22445029020309448,-13.413232803344727,0.3467743694782257,18.146699905395508,0.4333396553993225,2.2882113456726074,-0.23471395671367645,0.0,0.0,0.0,0.0,0.0,0.0,0.0,-0.26581933924508205,0.5214569409404101,-0.057672920323576966,0.43075465748070213,-0.007985192680611259,0.07435762999662926,-0.25466002258079723,0.07181325349477186,-0.33445724550464695,-0.12025576417744936,-2.8744581335636608,-0.064416633188471,2.518278745704227,0.7687470637874471,0.07165585495296277,-0.33419673383382315,-0.1203439052763738,-2.874768336042937,-0.06453255302590709,2.518161157661014,0.7687020283728597,-0.00011128729098661652,-0.0003631007142545911,0.0009397184782573073,0.00031332082949621706,-0.0002191919407983992,9.554389391048612e-05,-0.0010904551781456115,0.0,0.0,0.0,0.0,0.0,0.0,0.0,-0.00015739854180908674,0.0002605116708238042,-8.8141098924438e-05,-0.000310202479276267,-0.0001159198374360848,-0.00011758804321271299,-4.503541458733551e-05,0.00011128729098661652,0.0003631007142545911,-0.0009397184782573073,-0.00031332082949621706,0.0002191919407983992,-9.554389391048612e-05,0.0010904551781456115,0.22445029020309448,13.413232803344727,-0.3467743694782257,-18.146699905395508,-0.4333396553993225,-2.2882113456726074,0.23471395671367645,0
20,0.0950002670288086,-0.2720577120780945,-13.365625381469727,0.3983490765094757,18.170503616333008,0.4269309639930725,2.2882113456726074,-0.24844686686992645,0.0,0.0,0.0,0.0,0.0,0.0,0.0,-0.26143220882037854,0.5199536898482734,-0.05416570653030726,0.42814410743968895,-0.006857472240846032,0.07495086930501567,-0.25267607912474654,0.07181895225464449,-0.3344605863763575,-0.12025788364602397,-2.874459803999516,-0.06441698722768721,2.518278745704227,0.7687485896663533,0.07165585495296277,-0.33419673383382315,-0.1203439052763738,-2.874768336042937,-0.06453255302590709,2.518161157661014,0.7687020283728597,0.0002719849318000628,-0.001080706579119861,0.00017325541002054544,0.0001900828196628002,-4.943817488068359e-05,-0.0001261365828689553,0.00022247919412699097,0.0,0.0,0.0,0.0,0.0,0.0,0.0,-0.0001630973016817222,0.00026385254253435964,-8.602163034983346e-05,-0.0003085320434208505,-0.00011556579821987711,-0.00011758804321271299,-4.6561293493563305e-05,-0.0002719849318000628,0.001080706579119861,-0.00017325541002054544,-0.0001900828196628002,4.943817488068359e-05,0.0001261365828689553,-0.00022247919412699097,0.2720577120780945,13.365625381469727,-0.3983490765094757,-18.170503616333008,-0.4269309639930725,-2.2882113456726074,0.24844686686992645,0
21,0.1000220775604248,-0.2720577120780945,-13.365625381469727,0.3983490765094757,18.170503616333008,0.4269309639930725,2.2882113456726074,-0.24844686686992645,0.0,0.0,0.0,0.0,0.0,0.0,0.0,-0.26143220882037854,0.5199536898482734,-0.05416570653030726,0.42814410743968895,-0.006857472240846032,0.07495086930501567,-0.25267607912474654,0.07181895225464449,-0.3344605863763575,-0.12025788364602397,-2.874459803999516,-0.06441698722768721,2.518278745704227,0.7687485896663533,0.07165585495296277,-0.33419673383382315,-0.1203439052763738,-2.874768336042937,-0.06453255302590709,2.518161157661014,0.7687020283728597,0.0002719849318000628,-0.001080706579119861,0.00017325541002054544,0.0001900828196628002,-4.943817488068359e-05,-0.0001261365828689553,0.00022247919412699097,0.0,0.0,0.0,0.0,0.0,0.0,0.0,-0.0001630973016817222,0.00026385254253435964,-8.602163034983346e-05,-0.0003085320434208505,-0.00011556579821987711,-0.00011758804321271299,-4.6561293493563305e-05,-0.0002719849318000628,0.001080706579119861,-0.00017325541002054544,-0.0001900828196628002,4.943817488068359e-05,0.0001261365828689553,-0.00022247919412699097,0.2720577120780945,13.365625381469727,-0.3983490765094757,-18.170503616333008,-0.4269309639930725,-2.2882113456726074,0.24844686686992645,0
22,0.1049966812133789,-0.2720577120780945,-13.413232803344727,0.3467743694782257,18.198274612426758,0.4214377999305725,2.2882113456726074,-0.22098104655742645,0.0,0.0,0.0,0.0,0.0,0.0,0.0,-0.2637044919958085,0.5182867001374123,-0.04789912361608199,0.4278612951677578,-0.007051820662833695,0.07542868541916876,-0.25292955298639275,0.07181792640367111,-0.33445724550464695,-0.12025336909228228,-2.874461752841347,-0.06441600407274953,2.518278745704227,0.7687455379085408,0.07165585495296277,-0.33419673383382315,-0.1203439052763738,-2.874768336042937,-0.06453255302590709,2.518161157661014,0.7687020283728597,5.9580934106005405e-05,0.00021350657402639968,0.0007301298678703313,-0.0006706322136304597,3.8474608235736575e-05,0.00013734047967456253,-0.0014392909486260256,0.0,0.0,0.0,0.0,0.0,0.0,0.0,-0.0001620714507083454,0.0002605116708238042,-9.053618409152198e-05,-0.0003065832015898273,-0.00011654895315756086,-0.00011758804321271299,-4.3509535681107714e-05,-5.9580934106005405e-05,-0.00021350657402639968,-0.0007301298678703313,0.0006706322136304597,-3.8474608235736575e-05,-0.00013734047967456253,0.0014392909486260256,0.2720577120780945,13.413232803344727,-0.3467743694782257,-18.198274612426758,-0.4214377999305725,-2.2882113456726074,0.22098104655742645,0
23,0.10999822616577148,-0.2720577120780945,-13.413232803344727,0.3467743694782257,18.198274612426758,0.4214377999305725,2.2882113456726074,-0.22098104655742645,0.0,0.0,0.0,0.0,0.0,0.0,0.0,-0.2637044919958085,0.5182867001374123,-0.04789912361608199,0.4278612951677578,-0.007051820662833695,0.07542868541916876,-0.25292955298639275,0.07181792640367111,-0.33445724550464695,-0.12025336909228228,-2.874461752841347,-0.06441600407274953,2.518278745704227,0.7687455379085408,0.07165585495296277,-0.33419673383382315,-0.1203439052763738,-2.874768336042937,-0.06453255302590709,2.518161157661014,0.7687020283728597,5.9580934106005405e-05,0.00021350657402639968,0.0007301298678703313,-0.0006706322136304597,3.8474608235736575e-05,0.00013734047967456253,-0.0014392909486260256,0.0,0.0,0.0,0.0,0.0,0.0,0.0,-0.0001620714507083454,0.0002605116708238042,-9.053618409152198e-05,-0.0003065832015898273,-0.00011654895315756086,-0.00011758804321271299,-4.3509535681107714e-05,-5.9580934106005405e-05,-0.00021350657402639968,-0.0007301298678703313,0.0006706322136304597,-3.8474608235736575e-05,-0.00013734047967456253,0.0014392909486260256,0.2720577120780945,13.413232803344727,-0.3467743694782257,-18.198274612426758,-0.4214377999305725,-2.2882113456726074,0.22098104655742645,0
24,0.11499667167663574,-0.2720577120780945,-13.365625381469727,0.3983490765094757,18.170503616333008,0.4269309639930725,2.2946200370788574,-0.26858848333358765,0.0,0.0,0.0,0.0,0.0,0.0,0.0,-0.2608836440806714,0.5152369103557786,-0.04366374111526908,0.4309030564644526,-0.007460105077132929,0.07659631032535084,-0.2526087591034153,0.07181674052648253,-0.3344605863763575,-0.1202571384121813,-2.874459803999516,-0.0644123097250787,2.518278033627404,0.7687508276237381,0.07165585495296277,-0.33419673383382315,-0.1203439052763738,-2.874768336042937,-0.06453255302590709,2.518161157661014,0.7687020283728597,0.00047958977980065904,-0.0010849033782689501,-0.000819492469861539,0.0002651097154243823,-0.00027315340397023074,-0.0001484261793512819,-6.866472746061053e-05,0.0,0.0,0.0,0.0,0.0,0.0,0.0,-0.00016088557351975896,0.00026385254253435964,-8.676686419249735e-05,-0.0003085320434208505,-0.00012024330082838208,-0.0001168759663898733,-4.879925087841741e-05,-0.00047958977980065904,0.0010849033782689501,0.000819492469861539,-0.0002651097154243823,0.00027315340397023074,0.0001484261793512819,6.866472746061053e-05,0.2720577120780945,13.365625381469727,-0.3983490765094757,-18.170503616333008,-0.4269309639930725,-2.2946200370788574,0.26858848333358765,0
25,0.12000775337219238,-0.2720577120780945,-13.365625381469727,0.3983490765094757,18.170503616333008,0.4269309639930725,2.2946200370788574,-0.26858848333358765,0.0,0.0,0.0,0.0,0.0,0.0,0.0,-0.2608836440806714,0.5152369103557786,-0.04366374111526908,0.4309030564644526,-0.007460105077132929,0.07659631032535084,-0.2526087591034153,0.07181674052648253,-0.3344605863763575,-0.1202571384121813,-2.874459803999516,-0.0644123097250787,2.518278033627404,0.7687508276237381,0.07165585495296277,-0.33419673383382315,-0.1203439052763738,-2.874768336042937,-0.06453255302590709,2.518161157661014,0.7687020283728597,0.00047958977980065904,-0.0010849033782689501,-0.000819492469861539,0.0002651097154243823,-0.00027315340397023074,-0.0001484261793512819,-6.866472746061053e-05,0.0,0.0,0.0,0.0,0.0,0.0,0.0,-0.00016088557351975896,0.00026385254253435964,-8.676686419249735e-05,-0.0003085320434208505,-0.00012024330082838208,-0.0001168759663898733,-4.879925087841741e-05,-0.00047958977980065904,0.0010849033782689501,0.000819492469861539,-0.0002651097154243823,0.00027315340397023074,0.0001484261793512819,6.866472746061053e-05,0.2720577120780945,13.365625381469727,-0.3983490765094757,-18.170503616333008,-0.4269309639930725,-2.2946200370788574,0.26858848333358765,0
26,0.12510919570922852,-0.2720577120780945,-13.365625381469727,0.3983490765094757,18.170503616333008,0.4269309639930725,2.2946200370788574,-0.26858848333358765,0.0,0.0,0.0,0.0,0.0,0.0,0.0,-0.2608836440806714,0.5152369103557786,-0.04366374111526908,0.4309030564644526,-0.007460105077132929,0.07659631032535084,-0.2526087591034153,0.07181674052648253,-0.3344605863763575,-0.1202571384121813,-2.874459803999516,-0.0644123097250787,2.518278033627404,0.7687508276237381,0.07165585495296277,-0.33419673383382315,-0.1203439052763738,-2.874768336042937,-0.06453255302590709,2.518161157661014,0.7687020283728597,0.00047958977980065904,-0.0010849033782689501,-0.000819492469861539,0.0002651097154243823,-0.00027315340397023074,-0.0001484261793512819,-6.866472746061053e-05,0.0,0.0,0.0,0.0,0.0,0.0,0.0,-0.00016088557351975896,0.00026385254253435964,-8.676686419249735e-05,-0.0003085320434208505,-0.00012024330082838208,-0.0001168759663898733,-4.879925087841741e-05,-0.00047958977980065904,0.0010849033782689501,0.000819492469861539,-0.0002651097154243823,0.00027315340397023074,0.0001484261793512819,6.866472746061053e-05,0.2720577120780945,13.365625381469727,-0.3983490765094757,-18.170503616333008,-0.4269309639930725,-2.2946200370788574,0.26858848333358765,0
27,0.12999773025512695,-0.2720577120780945,-13.365625381469727,0.3983490765094757,18.170503616333008,0.4269309639930725,2.2946200370788574,-0.26858848333358765,0.0,0.0,0.0,0.0,0.0,0.0,0.0,-0.2608836440806714,0.5152369103557786,-0.04366374111526908,0.4309030564644526,-0.007460105077132929,0.07659631032535084,-0.2526087591034153,0.07181674052648253,-0.3344605863763575,-0.1202571384121813,-2.874459803999516,-0.0644123097250787,2.518278033627404,0.7687508276237381,0.07165585495296277,-0.33419673383382315,-0.1203439052763738,-2.874768336042937,-0.06453255302590709,2.518161157661014,0.7687020283728597,0.00047958977980065904,-0.0010849033782689501,-0.000819492469861539,0.0002651097154243823,-0.00027315340397023074,-0.0001484261793512819,-6.866472746061053e-05,0.0,0.0,0.0,0.0,0.0,0.0,0.0,-0.00016088557351975896,0.00026385254253435964,-8.676686419249735e-05,-0.0003085320434208505,-0.00012024330082838208,-0.0001168759663898733,-4.879925087841741e-05,-0.00047958977980065904,0.0010849033782689501,0.000819492469861539,-0.0002651097154243823,0.00027315340397023074,0.0001484261793512819,6.866472746061053e-05,0.2720577120780945,13.365625381469727,-0.3983490765094757,-18.170503616333008,-0.4269309639930725,-2.2946200370788574,0.26858848333358765,0
28,0.13499808311462402,-0.2720577120780945,-13.365625381469727,0.3983490765094757,18.170503616333008,0.4269309639930725,2.2946200370788574,-0.26858848333358765,0.0,0.0,0.0,0.0,0.0,0.0,0.0,-0.2608836440806714,0.5152369103557786,-0.04366374111526908,0.4309030564644526,-0.007460105077132929,0.07659631032535084,-0.2526087591034153,0.07181674052648253,-0.3344605863763575,-0.1202571384121813,-2.874459803999516,-0.0644123097250787,2.518278033627404,0.7687508276237381,0.07165585495296277,-0.33419673383382315,-0.1203439052763738,-2.874768336042937,-0.06453255302590709,2.518161157661014,0.7687020283728597,0.00047958977980065904,-0.0010849033782689501,-0.000819492469861539,0.0002651097154243823,-0.00027315340397023074,-0.0001484261793512819,-6.866472746061053e-05,0.0,0.0,0.0,0.0,0.0,0.0,0.0,-0.00016088557351975896,0.00026385254253435964,-8.676686419249735e-05,-0.0003085320434208505,-0.00012024330082838208,-0.0001168759663898733,-4.879925087841741e-05,-0.00047958977980065904,0.0010849033782689501,0.000819492469861539,-0.0002651097154243823,0.00027315340397023074,0.0001484261793512819,6.866472746061053e-05,0.2720577120780945,13.365625381469727,-0.3983490765094757,-18.170503616333008,-0.4269309639930725,-2.2946200370788574,0.26858848333358765,0
29,0.13999629020690918,-0.3236324191093445,-13.413232803344727,0.3467743694782257,18.122896194458008,0.4214377999305725,2.2882113456726074,-0.25485557317733765,0.0,0.0,0.0,0.0,0.0,0.0,0.0,-0.2624492308536426,0.518439035126535,-0.04668352430315801,0.4286193256348598,-0.007473358069261641,0.07626143173450145,-0.2561718050897971,0.0718222821562849,-0.33445724550464695,-0.12025360715008047,-2.8744564631278053,-0.06441527169961574,2.518278745704227,0.7687493148267841,0.07165585495296277,-0.33419673383382315,-0.1203439052763738,-2.874768336042937,-0.06453255302590709,2.518161157661014,0.7687020283728597,0.0014538663491709513,0.0003749786888245351,0.00019090294802685858,0.0010727843485351276,7.856016041774988e-05,-4.633486336368581e-05,0.00021056275637913442,0.0,0.0,0.0,0.0,0.0,0.0,0.0,-0.00016642720332213368,0.0002605116708238042,-9.029812629332556e-05,-0.00031187291513168347,-0.0001172813262913519,-0.00011758804321271299,-4.72864539243778e-05,-0.0014538663491709513,-0.0003749786888245351,-0.00019090294802685858,-0.0010727843485351276,-7.856016041774988e-05,4.633486336368581e-05,-0.00021056275637913442,0.3236324191093445,13.413232803344727,-0.3467743694782257,-18.122896194458008,-0.4214377999305725,-2.2882113456726074,0.25485557317733765,0
30,0.14502310752868652,-0.3236324191093445,-13.413232803344727,0.3467743694782257,18.122896194458008,0.4214377999305725,2.2882113456726074,-0.25485557317733765,0.0,0.0,0.0,0.0,0.0,0.0,0.0,-0.2624492308536426,0.518439035126535,-0.04668352430315801,0.4286193256348598,-0.007473358069261641,0.07626143173450145,-0.2561718050897971,0.0718222821562849,-0.33445724550464695,-0.12025360715008047,-2.8744564631278053,-0.06441527169961574,2.518278745704227,0.7687493148267841,0.07165585495296277,-0.33419673383382315,-0.1203439052763738,-2.874768336042937,-0.06453255302590709,2.518161157661014,0.7687020283728597,0.0014538663491709513,0.0003749786888245351,0.00019090294802685858,0.0010727843485351276,7.856016041774988e-05,-4.633486336368581e-05,0.00021056275637913442,0.0,0.0,0.0,0.0,0.0,0.0,0.0,-0.00016642720332213368,0.0002605116708238042,-9.029812629332556e-05,-0.00031187291513168347,-0.0001172813262913519,-0.00011758804321271299,-4.72864539243778e-05,-0.0014538663491709513,-0.0003749786888245351,-0.00019090294802685858,-0.0010727843485351276,-7.856016041774988e-05,4.633486336368581e-05,-0.00021056275637913442,0.3236324191093445,13.413232803344727,-0.3467743694782257,-18.122896194458008,-0.4214377999305725,-2.2882113456726074,0.25485557317733765,0
31,0.1500072479248047,-0.2720577120780945,-13.337854385375977,0.2991669476032257,18.170503616333008,0.4214377999305725,2.2818026542663574,-0.26217979192733765,0.0,0.0,0.0,0.0,0.0,0.0,0.0,-0.2657635611841224,0.5209109588243435,-0.05143026701754044,0.428436907135835,-0.007089973581464438,0.07604199419238639,-0.2566899675664022,0.0718180149219858,-0.33446253521818864,-0.12025005744684872,-2.874459803999516,-0.06441491272416257,2.51827945778105,0.7687501155469891,0.07165585495296277,-0.33419673383382315,-0.1203439052763738,-2.874768336042937,-0.06453255302590709,2.518161157661014,0.7687020283728597,-0.0002161955601195548,-0.0010781536040240741,0.000780465103445123,6.513659018713851e-06,0.000166022355654803,0.00036737086869749057,-0.0004263665515813274,0.0,0.0,0.0,0.0,0.0,0.0,0.0,-0.00016215996902303742,0.00026580138436549383,-9.384782952508164e-05,-0.0003085320434208505,-0.00011764030174452045,-0.00011830012003599677,-4.808717412940755e-05,0.0002161955601195548,0.0010781536040240741,-0.000780465103445123,-6.513659018713851e-06,-0.000166022355654803,-0.00036737086869749057,0.0004263665515813274,0.2720577120780945,13.337854385375977,-0.2991669476032257,-18.170503616333008,-0.4214377999305725,-2.2818026542663574,0.26217979192733765,0
32,0.15510964393615723,-0.2720577120780945,-13.337854385375977,0.2991669476032257,18.170503616333008,0.4214377999305725,2.2818026542663574,-0.26217979192733765,0.0,0.0,0.0,0.0,0.0,0.0,0.0,-0.2657635611841224,0.5209109588243435,-0.05143026701754044,0.428436907135835,-0.007089973581464438,0.07604199419238639,-0.2566899675664022,0.0718180149219858,-0.33446253521818864,-0.12025005744684872,-2.874459803999516,-0.06441491272416257,2.51827945778105,0.7687501155469891,0.07165585495296277,-0.33419673383382315,-0.1203439052763738,-2.874768336042937,-0.06453255302590709,2.518161157661014,0.7687020283728597,-0.0002161955601195548,-0.0010781536040240741,0.000780465103445123,6.513659018713851e-06,0.000166022355654803,0.00036737086869749057,-0.0004263665515813274,0.0,0.0,0.0,0.0,0.0,0.0,0.0,-0.00016215996902303742,0.00026580138436549383,-9.384782952508164e-05,-0.0003085320434208505,-0.00011764030174452045,-0.00011830012003599677,-4.808717412940755e-05,0.0002161955601195548,0.0010781536040240741,-0.000780465103445123,-6.513659018713851e-06,-0.000166022355654803,-0.00036737086869749057,0.0004263665515813274,0.2720577120780945,13.337854385375977,-0.2991669476032257,-18.170503616333008,-0.4214377999305725,-2.2818026542663574,0.26217979192733765,0
33,0.16000914573669434,-0.3236324191093445,-13.413232803344727,0.3467743694782257,18.198274612426758,0.4269309639930725,2.2818026542663574,-0.26858848333358765,0.0,0.0,0.0,0.0,0.0,0.0,0.0,-0.2669959967334683,0.5240356365310797,-0.05405027038640644,0.42741617304881013,-0.00693462097429985,0.0762990093897395,-0.25775441490581225,0.07182233250401203,-0.33445724550464695,-0.12025328128917326,-2.874461752841347,-0.06441271096843519,2.51827945778105,0.7687508276237381,0.07165585495296277,-0.33419673383382315,-0.1203439052763738,-2.874768336042937,-0.06453255302590709,2.518161157661014,0.7687020283728597,0.0008679209762101515,0.0010001456945942999,-0.00027778954451291075,-0.0007930391943342589,-2.406621449978809e-05,0.00023405713609842748,0.0011303758799327763,0.0,0.0,0.0,0.0,0.0,0.0,0.0,-0.00016647755104925999,0.0002605116708238042,-9.062398720054154e-05,-0.0003065832015898273,-0.00011984205747189725,-0.00011830012003599677,-4.879925087841741e-05,-0.0008679209762101515,-0.0010001456945942999,0.00027778954451291075,0.0007930391943342589,2.406621449978809e-05,-0.00023405713609842748,-0.0011303758799327763,0.3236324191093445,13.413232803344727,-0.3467743694782257,-18.198274612426758,-0.4269309639930725,-2.2818026542663574,0.26858848333358765,0
34,0.16495275497436523,-0.3236324191093445,-13.413232803344727,0.3467743694782257,18.198274612426758,0.4269309639930725,2.2818026542663574,-0.26858848333358765,0.0,0.0,0.0,0.0,0.0,0.0,0.0,-0.2669959967334683,0.5240356365310797,-0.05405027038640644,0.42741617304881013,-0.00693462097429985,0.0762990093897395,-0.25775441490581225,0.07182233250401203,-0.33445724550464695,-0.12025328128917326,-2.874461752841347,-0.06441271096843519,2.51827945778105,0.7687508276237381,0.07165585495296277,-0.33419673383382315,-0.1203439052763738,-2.874768336042937,-0.06453255302590709,2.518161157661014,0.7687020283728597,0.0008679209762101515,0.0010001456945942999,-0.00027778954451291075,-0.0007930391943342589,-2.406621449978809e-05,0.00023405713609842748,0.0011303758799327763,0.0,0.0,0.0,0.0,0.0,0.0,0.0,-0.00016647755104925999,0.0002605116708238042,-9.062398720054154e-05,-0.0003065832015898273,-0.00011984205747189725,-0.00011830012003599677,-4.879925087841741e-05,-0.0008679209762101515,-0.0010001456945942999,0.00027778954451291075,0.0007930391943342589,2.406621449978809e-05,-0.00023405713609842748,-0.0011303758799327763,0.3236324191093445,13.413232803344727,-0.3467743694782257,-18.198274612426758,-0.4269309639930725,-2.2818026542663574,0.26858848333358765,0
35,0.1699988842010498,-0.2720577120780945,-13.413232803344727,0.3467743694782257,18.146699905395508,0.4269309639930725,2.2818026542663574,-0.23471395671367645,0.0,0.0,0.0,0.0,0.0,0.0,0.0,-0.2663345979431627,0.5290759955296316,-0.055107055744223137,0.42526789705137896,-0.007147563165618392,0.07619751512327647,-0.2575328218231206,0.07181660899598276,-0.33445724550464695,-0.12025339654848596,-2.8744581335636608,-0.06441556254896746,2.51827945778105,0.7687481234255764,0.07165585495296277,-0.33419673383382315,-0.1203439052763738,-2.874768336042937,-0.06453255302590709,2.518161157661014,0.7687020283728597,0.0004667910319026965,0.0008758601296117695,0.0003624235087281552,0.000530679652739359,-0.0003111217804913536,0.0003075957478940159,-0.00020506233180466965,0.0,0.0,0.0,0.0,0.0,0.0,0.0,-0.0001607540430199894,0.0002605116708238042,-9.050872788783637e-05,-0.000310202479276267,-0.00011699047693962406,-0.00011830012003599677,-4.609505271668812e-05,-0.0004667910319026965,-0.0008758601296117695,-0.0003624235087281552,-0.000530679652739359,0.0003111217804913536,-0.0003075957478940159,0.00020506233180466965,0.2720577120780945,13.413232803344727,-0.3467743694782257,-18.146699905395508,-0.4269309639930725,-2.2818026542663574,0.23471395671367645,0
36,0.17536592483520508,-0.2720577120780945,-13.413232803344727,0.3467743694782257,18.146699905395508,0.4269309639930725,2.2818026542663574,-0.23471395671367645,0.0,0.0,0.0,0.0,0.0,0.0,0.0,-0.2663345979431627,0.5290759955296316,-0.055107055744223137,0.42526789705137896,-0.007147563165618392,0.07619751512327647,-0.2575328218231206,0.07181660899598276,-0.33445724550464695,-0.12025339654848596,-2.8744581335636608,-0.06441556254896746,2.51827945778105,0.7687481234255764,0.07165585495296277,-0.33419673383382315,-0.1203439052763738,-2.874768336042937,-0.06453255302590709,2.518161157661014,0.7687020283728597,0.0004667910319026965,0.0008758601296117695,0.0003624235087281552,0.000530679652739359,-0.0003111217804913536,0.0003075957478940159,-0.00020506233180466965,0.0,0.0,0.0,0.0,0.0,0.0,0.0,-0.0001607540430199894,0.0002605116708238042,-9.050872788783637e-05,-0.000310202479276267,-0.00011699047693962406,-0.00011830012003599677,-4.609505271668812e-05,-0.0004667910319026965,-0.0008758601296117695,-0.0003624235087281552,-0.000530679652739359,0.0003111217804913536,-0.0003075957478940159,0.00020506233180466965,0.2720577120780945,13.413232803344727,-0.3467743694782257,-18.146699905395508,-0.4269309639930725,-2.2818026542663574,0.23471395671367645,0
37,0.1799602508544922,-0.24825400114059448,-13.437036514282227,0.4459564983844757,18.170503616333008,0.4150291085243225,2.2882113456726074,-0.27591270208358765,0.0,0.0,0.0,0.0,0.0,0.0,0.0,-0.2600190940364303,0.5238212133769306,-0.04903041579926639,0.4316324135508122,-0.007330668083109172,0.07783720200591496,-0.2548615343997373,0.071816359197789,-0.3344555750687917,-0.1202605084057746,-2.874459803999516,-0.06441207110324228,2.518278745704227,0.7687516414318032,0.07165585495296277,-0.33419673383382315,-0.1203439052763738,-2.874768336042937,-0.06453255302590709,2.518161157661014,0.7687020283728597,0.00020247645971050433,0.0008901959384982834,-0.000615036881220375,0.0006386814584372892,0.0002219900933767904,-0.0002448328621256339,0.0002365266784542205,0.0,0.0,0.0,0.0,0.0,0.0,0.0,-0.0001605042448262345,0.00025884123496855427,-8.339687059920331e-05,-0.0003085320434208505,-0.00012048192266481128,-0.00011758804321271299,-4.961305894346513e-05,-0.00020247645971050433,-0.0008901959384982834,0.000615036881220375,-0.0006386814584372892,-0.0002219900933767904,0.0002448328621256339,-0.0002365266784542205,0.24825400114059448,13.437036514282227,-0.4459564983844757,-18.170503616333008,-0.4150291085243225,-2.2882113456726074,0.27591270208358765,0
38,0.18558120727539062,-0.24825400114059448,-13.437036514282227,0.4459564983844757,18.170503616333008,0.4150291085243225,2.2882113456726074,-0.27591270208358765,0.0,0.0,0.0,0.0,0.0,0.0,0.0,-0.2600190940364303,0.5238212133769306,-0.04903041579926639,0.4316324135508122,-0.007330668083109172,0.07783720200591496,-0.2548615343997373,0.071816359197789,-0.3344555750687917,-0.1202605084057746,-2.874459803999516,-0.06441207110324228,2.518278745704227,0.7687516414318032,0.07165585495296277,-0.33419673383382315,-0.1203439052763738,-2.874768336042937,-0.06453255302590709,2.518161157661014,0.7687020283728597,0.00020247645971050433,0.0008901959384982834,-0.000615036881220375,0.0006386814584372892,0.0002219900933767904,-0.0002448328621256339,0.0002365266784542205,0.0,0.0,0.0,0.0,0.0,0.0,0.0,-0.0001605042448262345,0.00025884123496855427,-8.339687059920331e-05,-0.0003085320434208505,-0.00012048192266481128,-0.00011758804321271299,-4.961305894346513e-05,-0.00020247645971050433,-0.0008901959384982834,0.000615036881220375,-0.0006386814584372892,-0.0002219900933767904,0.0002448328621256339,-0.0002365266784542205,0.24825400114059448,13.437036514282227,-0.4459564983844757,-18.170503616333008,-0.4150291085243225,-2.2882113456726074,0.27591270208358765,0
39,0.18999910354614258,-0.22445029020309448,-13.413232803344727,0.3467743694782257,18.170503616333008,0.4214377999305725,2.2946200370788574,-0.23471395671367645,0.0,0.0,0.0,0.0,0.0,0.0,0.0,-0.26175972395803465,0.521546404675845,-0.04483979403834742,0.4294898253920063,-0.007190332017559391,0.07708792418211252,-0.2541838575439714,0.07181247768382719,-0.33445724550464695,-0.12025638688592011,-2.874459803999516,-0.06441281875860445,2.518278033627404,0.7687470652409972,0.07165585495296277,-0.33419673383382315,-0.1203439052763738,-2.874768336042937,-0.06453255302590709,2.518161157661014,0.7687020283728597,-0.00043699642185912645,-0.0001547840426323469,0.0011144013598596459,1.1146243137787056e-05,3.417673526162971e-05,-0.00010703305831941328,0.0002075361805427126,0.0,0.0,0.0,0.0,0.0,0.0,0.0,-0.0001566227308644197,0.0002605116708238042,-8.751839045369192e-05,-0.0003085320434208505,-0.0001197342673026347,-0.0001168759663898733,-4.5036868137504626e-05,0.00043699642185912645,0.0001547840426323469,-0.0011144013598596459,-1.1146243137787056e-05,-3.417673526162971e-05,0.00010703305831941328,-0.0002075361805427126,0.22445029020309448,13.413232803344727,-0.3467743694782257,-18.170503616333008,-0.4214377999305725,-2.2946200370788574,0.23471395671367645,0
40,0.19617772102355957,-0.2720577120780945,-13.413232803344727,0.3705780804157257,18.170503616333008,0.4214377999305725,2.2946200370788574,-0.26217979192733765,0.0,0.0,0.0,0.0,0.0,0.0,0.0,-0.2607115196698834,0.5200037122725454,-0.040445030414408355,0.42582598912931535,-0.007235008608239384,0.07727942475129881,-0.25282564293379167,0.07181681813643798,-0.33445724550464695,-0.12025779679396496,-2.874459803999516,-0.06441324400636975,2.518278033627404,0.7687501155469234,0.07165585495296277,-0.33419673383382315,-0.1203439052763738,-2.874768336042937,-0.06453255302590709,2.518161157661014,0.7687020283728597,0.0002540089054834531,-5.9583843227483113e-05,-0.00026442066100264,3.263761236129281e-05,-0.00017422213421319828,-7.370044420824067e-05,0.008816380114448477,0.0,0.0,0.0,0.0,0.0,0.0,0.0,-0.00016096318347520733,0.0002605116708238042,-8.61084824088365e-05,-0.0003085320434208505,-0.00011930901953734196,-0.0001168759663898733,-4.808717406368235e-05,-0.0002540089054834531,5.9583843227483113e-05,0.00026442066100264,-3.263761236129281e-05,0.00017422213421319828,7.370044420824067e-05,-0.008816380114448477,0.2720577120780945,13.413232803344727,-0.3705780804157257,-18.170503616333008,-0.4214377999305725,-2.2946200370788574,0.26217979192733765,0
41,0.2000133991241455,-0.2720577120780945,-13.413232803344727,0.3705780804157257,18.170503616333008,0.4214377999305725,2.2946200370788574,-0.26217979192733765,0.0,0.0,0.0,0.0,0.0,0.0,0.0,-0.2607115196698834,0.5200037122725454,-0.040445030414408355,0.42582598912931535,-0.007235008608239384,0.07727942475129881,-0.25282564293379167,0.07181681813643798,-0.33445724550464695,-0.12025779679396496,-2.874459803999516,-0.06441324400636975,2.518278033627404,0.7687501155469234,0.07165585495296277,-0.33419673383382315,-0.1203439052763738,-2.874768336042937,-0.06453255302590709,2.518161157661014,0.7687020283728597,0.0002540089054834531,-5.9583843227483113e-05,-0.00026442066100264,3.263761236129281e-05,-0.00017422213421319828,-7.370044420824067e-05,0.008816380114448477,0.0,0.0,0.0,0.0,0.0,0.0,0.0,-0.00016096318347520733,0.0002605116708238042,-8.61084824088365e-05,-0.0003085320434208505,-0.00011930901953734196,-0.0001168759663898733,-4.808717406368235e-05,-0.0002540089054834531,5.9583843227483113e-05,0.00026442066100264,-3.263761236129281e-05,0.00017422213421319828,7.370044420824067e-05,-0.008816380114448477,0.2720577120780945,13.413232803344727,-0.3705780804157257,-18.170503616333008,-0.4214377999305725,-2.2946200370788574,0.26217979192733765,0
42,0.20499706268310547,-0.2720577120780945,-13.413232803344727,0.3705780804157257,18.170503616333008,0.4214377999305725,2.2946200370788574,-0.26217979192733765,0.0,0.0,0.0,0.0,0.0,0.0,0.0,-0.2607115196698834,0.5200037122725454,-0.040445030414408355,0.42582598912931535,-0.007235008608239384,0.07727942475129881,-0.25282564293379167,0.07181681813643798,-0.33445724550464695,-0.12025779679396496,-2.874459803999516,-0.06441324400636975,2.518278033627404,0.7687501155469234,0.07165585495296277,-0.33419673383382315,-0.1203439052763738,-2.874768336042937,-0.06453255302590709,2.518161157661014,0.7687020283728597,0.0002540089054834531,-5.9583843227483113e-05,-0.00026442066100264,3.263761236129281e-05,-0.00017422213421319828,-7.370044420824067e-05,0.008816380114448477,0.0,0.0,0.0,0.0,0.0,0.0,0.0,-0.00016096318347520733,0.0002605116708238042,-8.61084824088365e-05,-0.0003085320434208505,-0.00011930901953734196,-0.0001168759663898733,-4.808717406368235e-05,-0.0002540089054834531,5.9583843227483113e-05,0.00026442066100264,-3.263761236129281e-05,0.00017422213421319828,7.370044420824067e-05,-0.008816380114448477,0.2720577120780945,13.413232803344727,-0.3705780804157257,-18.170503616333008,-0.4214377999305725,-2.2946200370788574,0.26217979192733765,0
43,0.21000218391418457,-0.2998287081718445,-13.389429092407227,0.3467743694782257,18.170503616333008,0.4150291085243225,2.2882113456726074,-0.25485557317733765,0.0,0.0,0.0,0.0,0.0,0.0,0.0,-0.266722752668577,0.5182978306955413,-0.045356371169831086,0.42486618237660756,-0.007597760869638597,0.0772557990285538,-0.25607305361715316,0.07181998973561397,-0.33445891594050225,-0.12025565185651707,-2.874459803999516,-0.06441529322418973,2.518278745704227,0.7687493017448319,0.07165585495296277,-0.33419673383382315,-0.1203439052763738,-2.874768336042937,-0.06453255302590709,2.518161157661014,0.7687020283728597,-0.00013706869276145655,-0.00020651945310738587,-0.0003874947523636138,-0.00029019762711092077,0.00029669103600879563,3.119295230827042e-05,-0.00028785215357955305,0.0,0.0,0.0,0.0,0.0,0.0,0.0,-0.00016413478265120407,0.0002621821066791097,-8.825341985672919e-05,-0.0003085320434208505,-0.00011725980171735373,-0.00011758804321271299,-4.7273371972189615e-05,0.00013706869276145655,0.00020651945310738587,0.0003874947523636138,0.00029019762711092077,-0.00029669103600879563,-3.119295230827042e-05,0.00028785215357955305,0.2998287081718445,13.389429092407227,-0.3467743694782257,-18.170503616333008,-0.4150291085243225,-2.2882113456726074,0.25485557317733765,0
44,0.21499991416931152,-0.2998287081718445,-13.389429092407227,0.3467743694782257,18.170503616333008,0.4150291085243225,2.2882113456726074,-0.25485557317733765,0.0,0.0,0.0,0.0,0.0,0.0,0.0,-0.266722752668577,0.5182978306955413,-0.045356371169831086,0.42486618237660756,-0.007597760869638597,0.0772557990285538,-0.25607305361715316,0.07181998973561397,-0.33445891594050225,-0.12025565185651707,-2.874459803999516,-0.06441529322418973,2.518278745704227,0.7687493017448319,0.07165585495296277,-0.33419673383382315,-0.1203439052763738,-2.874768336042937,-0.06453255302590709,2.518161157661014,0.7687020283728597,-0.00013706869276145655,-0.00020651945310738587,-0.0003874947523636138,-0.00029019762711092077,0.00029669103600879563,3.119295230827042e-05,-0.00028785215357955305,0.0,0.0,0.0,0.0,0.0,0.0,0.0,-0.00016413478265120407,0.0002621821066791097,-8.825341985672919e-05,-0.0003085320434208505,-0.00011725980171735373,-0.00011758804321271299,-4.7273371972189615e-05,0.00013706869276145655,0.00020651945310738587,0.0003874947523636138,0.00029019762711092077,-0.00029669103600879563,-3.119295230827042e-05,0.00028785215357955305,0.2998287081718445,13.389429092407227,-0.3467743694782257,-18.170503616333008,-0.4150291085243225,-2.2882113456726074,0.25485557317733765,0
45,0.22000956535339355,-0.3236324191093445,-13.365625381469727,0.2991669476032257,18.198274612426758,0.4269309639930725,2.2818026542663574,-0.22098104655742645,0.0,0.0,0.0,0.0,0.0,0.0,0.0,-0.2697130819040273,0.5288871900042744,-0.04901433489580637,0.4132430908864464,-0.0077368942801656305,0.07366161390841984,-0.26015198495489056,0.07182259488839977,-0.3344605863763575,-0.12025208143651417,-2.874461752841347,-0.06441242863188869,2.51827945778105,0.7687455379085408,0.07165585495296277,-0.33419673383382315,-0.1203439052763738,-2.874768336042937,-0.06453255302590709,2.518161157661014,0.7687020283728597,0.0006821819441820543,-5.480503765179569e-06,0.0009351479956234762,-0.0007661248358170763,-4.928881672321003e-05,0.0018282459214162116,-0.0011316824192983655,0.0,0.0,0.0,0.0,0.0,0.0,0.0,-0.00016673993543700472,0.00026385254253435964,-9.182383985963105e-05,-0.0003065832015898273,-0.00012012439401840047,-0.00011830012003599677,-4.3509535681107714e-05,-0.0006821819441820543,5.480503765179569e-06,-0.0009351479956234762,0.0007661248358170763,4.928881672321003e-05,-0.0018282459214162116,0.0011316824192983655,0.3236324191093445,13.365625381469727,-0.2991669476032257,-18.198274612426758,-0.4269309639930725,-2.2818026542663574,0.22098104655742645,0
46,0.22540760040283203,-0.3236324191093445,-13.365625381469727,0.2991669476032257,18.198274612426758,0.4269309639930725,2.2818026542663574,-0.22098104655742645,0.0,0.0,0.0,0.0,0.0,0.0,0.0,-0.2697130819040273,0.5288871900042744,-0.04901433489580637,0.4132430908864464,-0.0077368942801656305,0.07366161390841984,-0.26015198495489056,0.07182259488839977,-0.3344605863763575,-0.12025208143651417,-2.874461752841347,-0.06441242863188869,2.51827945778105,0.7687455379085408,0.07165585495296277,-0.33419673383382315,-0.1203439052763738,-2.874768336042937,-0.06453255302590709,2.518161157661014,0.7687020283728597,0.0006821819441820543,-5.480503765179569e-06,0.0009351479956234762,-0.0007661248358170763,-4.928881672321003e-05,0.0018282459214162116,-0.0011316824192983655,0.0,0.0,0.0,0.0,0.0,0.0,0.0,-0.00016673993543700472,0.00026385254253435964,-9.182383985963105e-05,-0.0003065832015898273,-0.00012012439401840047,-0.00011830012003599677,-4.3509535681107714e-05,-0.0006821819441820543,5.480503765179569e-06,-0.0009351479956234762,0.0007661248358170763,4.928881672321003e-05,-0.0018282459214162116,0.0011316824192983655,0.3236324191093445,13.365625381469727,-0.2991669476032257,-18.198274612426758,-0.4269309639930725,-2.2818026542663574,0.22098104655742645,0
47,0.23004603385925293,-0.3236324191093445,-13.413232803344727,0.3467743694782257,18.170503616333008,0.4095359444618225,2.2882113456726074,-0.24844686686992645,0.0,0.0,0.0,0.0,0.0,0.0,0.0,-0.2758518418752,0.5231945317322159,-0.05713941805926795,0.4295507445947087,-0.007430099009801719,0.07709287172756338,-0.2593690462719411,0.07182188763625062,-0.33445724550464695,-0.12025352694074858,-2.874459803999516,-0.06441077632918246,2.518278745704227,0.7687485896663533,0.07165585495296277,-0.33419673383382315,-0.1203439052763738,-2.874768336042937,-0.06453255302590709,2.518161157661014,0.7687020283728597,0.0009079524136704593,0.0010932396275131118,-0.0004825579393847302,0.00033112918140165953,0.0002341412817827898,0.0001050783967729545,-0.0011381978900618845,0.0,0.0,0.0,0.0,0.0,0.0,0.0,-0.00016603268328785337,0.0002605116708238042,-9.037833562522413e-05,-0.0003085320434208505,-0.00012177669672462643,-0.00011758804321271299,-4.6561293493563305e-05,-0.0009079524136704593,-0.0010932396275131118,0.0004825579393847302,-0.00033112918140165953,-0.0002341412817827898,-0.0001050783967729545,0.0011381978900618845,0.3236324191093445,13.413232803344727,-0.3467743694782257,-18.170503616333008,-0.4095359444618225,-2.2882113456726074,0.24844686686992645,0
48,0.23500657081604004,-0.3236324191093445,-13.413232803344727,0.3467743694782257,18.170503616333008,0.4095359444618225,2.2882113456726074,-0.24844686686992645,0.0,0.0,0.0,0.0,0.0,0.0,0.0,-0.2758518418752,0.5231945317322159,-0.05713941805926795,0.4295507445947087,-0.007430099009801719,0.07709287172756338,-0.2593690462719411,0.07182188763625062,-0.33445724550464695,-0.12025352694074858,-2.874459803999516,-0.06441077632918246,2.518278745704227,0.7687485896663533,0.07165585495296277,-0.33419673383382315,-0.1203439052763738,-2.874768336042937,-0.06453255302590709,2.518161157661014,0.7687020283728597,0.0009079524136704593,0.0010932396275131118,-0.0004825579393847302,0.00033112918140165953,0.0002341412817827898,0.0001050783967729545,-0.0011381978900618845,0.0,0.0,0.0,0.0,0.0,0.0,0.0,-0.00016603268328785337,0.0002605116708238042,-9.037833562522413e-05,-0.0003085320434208505,-0.00012177669672462643,-0.00011758804321271299,-4.6561293493563305e-05,-0.0009079524136704593,-0.0010932396275131118,0.0004825579393847302,-0.00033112918140165953,-0.0002341412817827898,-0.0001050783967729545,0.0011381978900618845,0.3236324191093445,13.413232803344727,-0.3467743694782257,-18.170503616333008,-0.4095359444618225,-2.2882113456726074,0.24844686686992645,0
49,0.240006685256958,-0.22445029020309448,-13.365625381469727,0.3983490765094757,18.146699905395508,0.4269309639930725,2.2818026542663574,-0.22830526530742645,0.0,0.0,0.0,0.0,0.0,0.0,0.0,-0.2717664447290486,0.52938355746331,-0.05465291757434178,0.4286277775496295,-0.008566879376367272,0.07700800162467737,-0.2597447765035113,0.07181561788793636,-0.3344605863763575,-0.12025911075155174,-2.8744581335636608,-0.06441673758652645,2.51827945778105,0.7687463517106241,0.07165585495296277,-0.33419673383382315,-0.1203439052763738,-2.874768336042937,-0.06453255302590709,2.518161157661014,0.7687020283728597,-0.000712189089243507,-0.00020148973815062594,-0.00018601539258536942,0.0007703353346334458,-5.836430662377437e-05,0.00014055554584681623,-0.00014128015617081324,0.0,0.0,0.0,0.0,0.0,0.0,0.0,-0.0001597629349735924,0.00026385254253435964,-8.479452482205996e-05,-0.000310202479276267,-0.00011581543938063432,-0.00011830012003599677,-4.4323337764384796e-05,0.000712189089243507,0.00020148973815062594,0.00018601539258536942,-0.0007703353346334458,5.836430662377437e-05,-0.00014055554584681623,0.00014128015617081324,0.22445029020309448,13.365625381469727,-0.3983490765094757,-18.146699905395508,-0.4269309639930725,-2.2818026542663574,0.22830526530742645,0
50,0.24500298500061035,-0.22445029020309448,-13.365625381469727,0.3983490765094757,18.146699905395508,0.4269309639930725,2.2818026542663574,-0.22830526530742645,0.0,0.0,0.0,0.0,0.0,0.0,0.0,-0.2717664447290486,0.52938355746331,-0.05465291757434178,0.4286277775496295,-0.008566879376367272,0.07700800162467737,-0.2597447765035113,0.07181561788793636,-0.3344605863763575,-0.12025911075155174,-2.8744581335636608,-0.06441673758652645,2.51827945778105,0.7687463517106241,0.07165585495296277,-0.33419673383382315,-0.1203439052763738,-2.874768336042937,-0.06453255302590709,2.518161157661014,0.7687020283728597,-0.000712189089243507,-0.00020148973815062594,-0.00018601539258536942,0.0007703353346334458,-5.836430662377437e-05,0.00014055554584681623,-0.00014128015617081324,0.0,0.0,0.0,0.0,0.0,0.0,0.0,-0.0001597629349735924,0.00026385254253435964,-8.479452482205996e-05,-0.000310202479276267,-0.00011581543938063432,-0.00011830012003599677,-4.4323337764384796e-05,0.000712189089243507,0.00020148973815062594,0.00018601539258536942,-0.0007703353346334458,5.836430662377437e-05,-0.00014055554584681623,0.00014128015617081324,0.22445029020309448,13.365625381469727,-0.3983490765094757,-18.146699905395508,-0.4269309639930725,-2.2818026542663574,0.22830526530742645,0
51,0.2500014305114746,-0.2720577120780945,-13.389429092407227,0.4221527874469757,18.146699905395508,0.4269309639930725,2.2882113456726074,-0.28232139348983765,0.0,0.0,0.0,0.0,0.0,0.0,0.0,-0.2702149800662363,0.5273712567317453,-0.050877676884267226,0.42757479757842903,-0.008338434381021049,0.07615381085545442,-0.2569300290508003,0.07181792726978152,-0.33445891594050225,-0.12025866303486023,-2.8744581335636608,-0.0644160355444985,2.518278745704227,0.7687527067153542,0.07165585495296277,-0.33419673383382315,-0.1203439052763738,-2.874768336042937,-0.06453255302590709,2.518161157661014,0.7687020283728597,0.0006265427425470331,-0.00047234136481831096,-0.00034103362343399656,-7.763012118986323e-05,-8.818407458281389e-05,6.311909033165786e-05,0.0005310973527907985,0.0,0.0,0.0,0.0,0.0,0.0,0.0,-0.000162072316818751,0.0002621821066791097,-8.524224151357229e-05,-0.000310202479276267,-0.00011651748140859008,-0.00011758804321271299,-5.0678342494503426e-05,-0.0006265427425470331,0.00047234136481831096,0.00034103362343399656,7.763012118986323e-05,8.818407458281389e-05,-6.311909033165786e-05,-0.0005310973527907985,0.2720577120780945,13.389429092407227,-0.4221527874469757,-18.146699905395508,-0.4269309639930725,-2.2882113456726074,0.28232139348983765,0
52,0.25580692291259766,-0.2720577120780945,-13.389429092407227,0.4221527874469757,18.146699905395508,0.4269309639930725,2.2882113456726074,-0.28232139348983765,0.0,0.0,0.0,0.0,0.0,0.0,0.0,-0.2702149800662363,0.5273712567317453,-0.050877676884267226,0.42757479757842903,-0.008338434381021049,0.07615381085545442,-0.2569300290508003,0.07181792726978152,-0.33445891594050225,-0.12025866303486023,-2.8744581335636608,-0.0644160355444985,2.518278745704227,0.7687527067153542,0.07165585495296277,-0.33419673383382315,-0.1203439052763738,-2.874768336042937,-0.06453255302590709,2.518161157661014,0.7687020283728597,0.0006265427425470331,-0.00047234136481831096,-0.00034103362343399656,-7.763012118986323e-05,-8.818407458281389e-05,6.311909033165786e-05,0.0005310973527907985,0.0,0.0,0.0,0.0,0.0,0.0,0.0,-0.000162072316818751,0.0002621821066791097,-8.524224151357229e-05,-0.000310202479276267,-0.00011651748140859008,-0.00011758804321271299,-5.0678342494503426e-05,-0.0006265427425470331,0.00047234136481831096,0.00034103362343399656,7.763012118986323e-05,8.818407458281389e-05,-6.311909033165786e-05,-0.0005310973527907985,0.2720577120780945,13.389429092407227,-0.4221527874469757,-18.146699905395508,-0.4269309639930725,-2.2882113456726074,0.28232139348983765,0
53,0.259998083114624,-0.2720577120780945,-13.389429092407227,0.4221527874469757,18.146699905395508,0.4269309639930725,2.2882113456726074,-0.28232139348983765,0.0,0.0,0.0,0.0,0.0,0.0,0.0,-0.2702149800662363,0.5273712567317453,-0.050877676884267226,0.42757479757842903,-0.008338434381021049,0.07615381085545442,-0.2569300290508003,0.07181792726978152,-0.33445891594050225,-0.12025866303486023,-2.8744581335636608,-0.0644160355444985,2.518278745704227,0.7687527067153542,0.07165585495296277,-0.33419673383382315,-0.1203439052763738,-2.874768336042937,-0.06453255302590709,2.518161157661014,0.7687020283728597,0.0006265427425470331,-0.00047234136481831096,-0.00034103362343399656,-7.763012118986323e-05,-8.818407458281389e-05,6.311909033165786e-05,0.0005310973527907985,0.0,0.0,0.0,0.0,0.0,0.0,0.0,-0.000162072316818751,0.0002621821066791097,-8.524224151357229e-05,-0.000310202479276267,-0.00011651748140859008,-0.00011758804321271299,-5.0678342494503426e-05,-0.0006265427425470331,0.00047234136481831096,0.00034103362343399656,7.763012118986323e-05,8.818407458281389e-05,-6.311909033165786e-05,-0.0005310973527907985,0.2720577120780945,13.389429092407227,-0.4221527874469757,-18.146699905395508,-0.4269309639930725,-2.2882113456726074,0.28232139348983765,0
54,0.26548099517822266,-0.2720577120780945,-13.389429092407227,0.4221527874469757,18.146699905395508,0.4269309639930725,2.2882113456726074,-0.28232139348983765,0.0,0.0,0.0,0.0,0.0,0.0,0.0,-0.2702149800662363,0.5273712567317453,-0.050877676884267226,0.42757479757842903,-0.008338434381021049,0.07615381085545442,-0.2569300290508003,0.07181792726978152,-0.33445891594050225,-0.12025866303486023,-2.8744581335636608,-0.0644160355444985,2.518278745704227,0.7687527067153542,0.07165585495296277,-0.33419673383382315,-0.1203439052763738,-2.874768336042937,-0.06453255302590709,2.518161157661014,0.7687020283728597,0.0006265427425470331,-0.00047234136481831096,-0.00034103362343399656,-7.763012118986323e-05,-8.818407458281389e-05,6.311909033165786e-05,0.0005310973527907985,0.0,0.0,0.0,0.0,0.0,0.0,0.0,-0.000162072316818751,0.0002621821066791097,-8.524224151357229e-05,-0.000310202479276267,-0.00011651748140859008,-0.00011758804321271299,-5.0678342494503426e-05,-0.0006265427425470331,0.00047234136481831096,0.00034103362343399656,7.763012118986323e-05,8.818407458281389e-05,-6.311909033165786e-05,-0.0005310973527907985,0.2720577120780945,13.389429092407227,-0.4221527874469757,-18.146699905395508,-0.4269309639930725,-2.2882113456726074,0.28232139348983765,0
55,0.2708110809326172,-0.2720577120780945,-13.389429092407227,0.3983490765094757,18.146699905395508,0.4150291085243225,2.2753939628601074,-0.25485557317733765,0.0,0.0,0.0,0.0,0.0,0.0,0.0,-0.2698719107066039,0.5235991332501331,-0.04630519896316713,0.43098931954405356,-0.007140052145899243,0.07720171269878437,-0.2582004129202071,0.07181824792774182,-0.33445891594050225,-0.12025929587393541,-2.8744581335636608,-0.06441419062644824,2.518280169857873,0.7687496549595355,0.07165585495296277,-0.33419673383382315,-0.1203439052763738,-2.874768336042937,-0.06453255302590709,2.518161157661014,0.7687020283728597,0.0003034196419623073,-0.0004512478911452843,-0.0001365237062202172,0.0008960469940021965,0.0006638976948678464,0.0005504228654347341,0.0009690360202723269,0.0,0.0,0.0,0.0,0.0,0.0,0.0,-0.00016239297477904646,0.0002621821066791097,-8.460940243838755e-05,-0.000310202479276267,-0.00011836239945885174,-0.00011901219685883646,-4.762658667578634e-05,-0.0003034196419623073,0.0004512478911452843,0.0001365237062202172,-0.0008960469940021965,-0.0006638976948678464,-0.0005504228654347341,-0.0009690360202723269,0.2720577120780945,13.389429092407227,-0.3983490765094757,-18.146699905395508,-0.4150291085243225,-2.2753939628601074,0.25485557317733765,0
56,0.2754507064819336,-0.2720577120780945,-13.389429092407227,0.3983490765094757,18.146699905395508,0.4150291085243225,2.2753939628601074,-0.25485557317733765,0.0,0.0,0.0,0.0,0.0,0.0,0.0,-0.2698719107066039,0.5235991332501331,-0.04630519896316713,0.43098931954405356,-0.007140052145899243,0.07720171269878437,-0.2582004129202071,0.07181824792774182,-0.33445891594050225,-0.12025929587393541,-2.8744581335636608,-0.06441419062644824,2.518280169857873,0.7687496549595355,0.07165585495296277,-0.33419673383382315,-0.1203439052763738,-2.874768336042937,-0.06453255302590709,2.518161157661014,0.7687020283728597,0.0003034196419623073,-0.0004512478911452843,-0.0001365237062202172,0.0008960469940021965,0.0006638976948678464,0.0005504228654347341,0.0009690360202723269,0.0,0.0,0.0,0.0,0.0,0.0,0.0,-0.00016239297477904646,0.0002621821066791097,-8.460940243838755e-05,-0.000310202479276267,-0.00011836239945885174,-0.00011901219685883646,-4.762658667578634e-05,-0.0003034196419623073,0.0004512478911452843,0.0001365237062202172,-0.0008960469940021965,-0.0006638976948678464,-0.0005504228654347341,-0.0009690360202723269,0.2720577120780945,13.389429092407227,-0.3983490765094757,-18.146699905395508,-0.4150291085243225,-2.2753939628601074,0.25485557317733765,0
57,0.2800278663635254,-0.24825400114059448,-13.413232803344727,0.3467743694782257,18.198274612426758,0.4150291085243225,2.2946200370788574,-0.22098104655742645,0.0,0.0,0.0,0.0,0.0,0.0,0.0,-0.2690009576294238,0.5217374987985852,-0.04246884887884164,0.42786701598783733,-0.006552946312550831,0.0765404168031892,-0.2565627381929097,0.07181651611072401,-0.33445724550464695,-0.12025623201509006,-2.874461835257646,-0.0644157307239137,2.518278033627404,0.7687455379105347,0.07165585495296277,-0.33419673383382315,-0.1203439052763738,-2.874768336042937,-0.06453255302590709,2.518161157661014,0.7687020283728597,-0.0005107763477984868,-9.722207161774218e-05,0.0004071785178614843,-0.0006578688739949281,0.0004254634316102104,-4.294597638482328e-05,-0.0013178535837176499,0.0,0.0,0.0,0.0,0.0,0.0,0.0,-0.00016066115776124101,0.0002605116708238042,-8.767326128374109e-05,-0.00030650078529115277,-0.00011682230199339116,-0.0001168759663898733,-4.3509537674957244e-05,0.0005107763477984868,9.722207161774218e-05,-0.0004071785178614843,0.0006578688739949281,-0.0004254634316102104,4.294597638482328e-05,0.0013178535837176499,0.24825400114059448,13.413232803344727,-0.3467743694782257,-18.198274612426758,-0.4150291085243225,-2.2946200370788574,0.22098104655742645,0
58,0.28499579429626465,-0.24825400114059448,-13.413232803344727,0.3467743694782257,18.198274612426758,0.4150291085243225,2.2946200370788574,-0.22098104655742645,0.0,0.0,0.0,0.0,0.0,0.0,0.0,-0.2690009576294238,0.5217374987985852,-0.04246884887884164,0.42786701598783733,-0.006552946312550831,0.0765404168031892,-0.2565627381929097,0.07181651611072401,-0.33445724550464695,-0.12025623201509006,-2.874461835257646,-0.0644157307239137,2.518278033627404,0.7687455379105347,0.07165585495296277,-0.33419673383382315,-0.1203439052763738,-2.874768336042937,-0.06453255302590709,2.518161157661014,0.7687020283728597,-0.0005107763477984868,-9.722207161774218e-05,0.0004071785178614843,-0.0006578688739949281,0.0004254634316102104,-4.294597638482328e-05,-0.0013178535837176499,0.0,0.0,0.0,0.0,0.0,0.0,0.0,-0.00016066115776124101,0.0002605116708238042,-8.767326128374109e-05,-0.00030650078529115277,-0.00011682230199339116,-0.0001168759663898733,-4.3509537674957244e-05,0.0005107763477984868,9.722207161774218e-05,-0.0004071785178614843,0.0006578688739949281,-0.0004254634316102104,4.294597638482328e-05,0.0013178535837176499,0.24825400114059448,13.413232803344727,-0.3467743694782257,-18.198274612426758,-0.4150291085243225,-2.2946200370788574,0.22098104655742645,0
59,0.2900099754333496,-0.2998287081718445,-13.413232803344727,0.3467743694782257,18.170503616333008,0.4150291085243225,2.2946200370788574,-0.28964561223983765,0.0,0.0,0.0,0.0,0.0,0.0,0.0,-0.27266571003489565,0.5273816945123956,-0.04940370801704493,0.41450262735493615,-0.00640456173250323,0.07321496332347484,-0.25607578176389134,0.07181798976569186,-0.33445724550464695,-0.12025572883033658,-2.874459803999671,-0.06441099313185816,2.5182780728732603,0.7687531673585629,0.07165585495296277,-0.33419673383382315,-0.1203439052763738,-2.874768336042937,-0.06453255302590709,2.518161157661014,0.7687020283728597,-0.00021773539557491304,0.000259292390192759,-7.812025139404469e-05,-0.00029447190593447054,0.0003003015036221299,0.0003279562382141635,0.0006742538857675336,0.0,0.0,0.0,0.0,0.0,0.0,0.0,-0.0001621348127290867,0.0002605116708238042,-8.817644603721642e-05,-0.00030853204326586336,-0.00012155989404892542,-0.00011691521224621582,-5.1138985703191864e-05,0.00021773539557491304,-0.000259292390192759,7.812025139404469e-05,0.00029447190593447054,-0.0003003015036221299,-0.0003279562382141635,-0.0006742538857675336,0.2998287081718445,13.413232803344727,-0.3467743694782257,-18.170503616333008,-0.4150291085243225,-2.2946200370788574,0.28964561223983765,0
60,0.29500460624694824,-0.2998287081718445,-13.413232803344727,0.3467743694782257,18.170503616333008,0.4150291085243225,2.2946200370788574,-0.28964561223983765,0.0,0.0,0.0,0.0,0.0,0.0,0.0,-0.27266571003489565,0.5273816945123956,-0.04940370801704493,0.41450262735493615,-0.00640456173250323,0.07321496332347484,-0.25607578176389134,0.07181798976569186,-0.33445724550464695,-0.12025572883033658,-2.874459803999671,-0.06441099313185816,2.5182780728732603,0.7687531673585629,0.07165585495296277,-0.33419673383382315,-0.1203439052763738,-2.874768336042937,-0.06453255302590709,2.518161157661014,0.7687020283728597,-0.00021773539557491304,0.000259292390192759,-7.812025139404469e-05,-0.00029447190593447054,0.0003003015036221299,0.0003279562382141635,0.0006742538857675336,0.0,0.0,0.0,0.0,0.0,0.0,0.0,-0.0001621348127290867,0.0002605116708238042,-8.817644603721642e-05,-0.00030853204326586336,-0.00012155989404892542,-0.00011691521224621582,-5.1138985703191864e-05,0.00021773539557491304,-0.000259292390192759,7.812025139404469e-05,0.00029447190593447054,-0.0003003015036221299,-0.0003279562382141635,-0.0006742538857675336,0.2998287081718445,13.413232803344727,-0.3467743694782257,-18.170503616333008,-0.4150291085243225,-2.2946200370788574,0.28964561223983765,0
61,0.3000059127807617,-0.2720577120780945,-13.437036514282227,0.3229706585407257,18.198274612426758,0.4214377999305725,2.2882113456726074,-0.25485557317733765,0.0,0.0,0.0,0.0,0.0,0.0,0.0,-0.2754330254118804,0.5134210932892607,-0.05391081963758768,0.4294512475153591,-0.007053093712554971,0.07647763395508064,-0.2591207982441929,0.071818164124464,-0.3344555750687917,-0.1202525843332994,-2.874461752841347,-0.06441223023155875,2.518278745704448,0.7687493017448321,0.07165585495296277,-0.33419673383382315,-0.1203439052763738,-2.874768336042937,-0.06453255302590709,2.518161157661014,0.7687020283728597,-0.0005826345979545491,0.0006180472120592177,0.0001654360401925356,-0.000809456387007266,-2.371512500775369e-05,0.00012898381376317858,0.000142233506812212,0.0,0.0,0.0,0.0,0.0,0.0,0.0,-0.00016230917150122925,0.00025884123496855427,-9.13209430744022e-05,-0.0003065832015898273,-0.00012032279434834314,-0.00011758804343386942,-4.727337197241166e-05,0.0005826345979545491,-0.0006180472120592177,-0.0001654360401925356,0.000809456387007266,2.371512500775369e-05,-0.00012898381376317858,-0.000142233506812212,0.2720577120780945,13.437036514282227,-0.3229706585407257,-18.198274612426758,-0.4214377999305725,-2.2882113456726074,0.25485557317733765,0
62,0.30499958992004395,-0.2720577120780945,-13.437036514282227,0.3229706585407257,18.198274612426758,0.4214377999305725,2.2882113456726074,-0.25485557317733765,0.0,0.0,0.0,0.0,0.0,0.0,0.0,-0.2754330254118804,0.5134210932892607,-0.05391081963758768,0.4294512475153591,-0.007053093712554971,0.07647763395508064,-0.2591207982441929,0.071818164124464,-0.3344555750687917,-0.1202525843332994,-2.874461752841347,-0.06441223023155875,2.518278745704448,0.7687493017448321,0.07165585495296277,-0.33419673383382315,-0.1203439052763738,-2.874768336042937,-0.06453255302590709,2.518161157661014,0.7687020283728597,-0.0005826345979545491,0.0006180472120592177,0.0001654360401925356,-0.000809456387007266,-2.371512500775369e-05,0.00012898381376317858,0.000142233506812212,0.0,0.0,0.0,0.0,0.0,0.0,0.0,-0.00016230917150122925,0.00025884123496855427,-9.13209430744022e-05,-0.0003065832015898273,-0.00012032279434834314,-0.00011758804343386942,-4.727337197241166e-05,0.0005826345979545491,-0.0006180472120592177,-0.0001654360401925356,0.000809456387007266,2.371512500775369e-05,-0.00012898381376317858,-0.000142233506812212,0.2720577120780945,13.437036514282227,-0.3229706585407257,-18.198274612426758,-0.4214377999305725,-2.2882113456726074,0.25485557317733765,0
63,0.3100006580352783,-0.2720577120780945,-13.389429092407227,0.3229706585407257,18.198274612426758,0.4214377999305725,2.2818026542663574,-0.28232139348983765,0.0,0.0,0.0,0.0,0.0,0.0,0.0,-0.27888448354525813,0.5169048835035027,-0.061979641629725496,0.42482773994135925,-0.0074310419751818565,0.07590244162301259,-0.2596653298621402,0.07181659405311194,-0.33445891594050225,-0.12025187436107233,-2.874461752841347,-0.06441174388132079,2.51827945778105,0.7687523535026445,0.07165585495296277,-0.33419673383382315,-0.1203439052763738,-2.874768336042937,-0.06453255302590709,2.518161157661014,0.7687020283728597,-0.0008603604727838228,-0.0003698148038617798,0.00029886201024237737,-0.0010021111004799418,2.2470408974283818e-05,0.00024101968655132472,0.0005631803737111002,0.0,0.0,0.0,0.0,0.0,0.0,0.0,-0.0001607391001491737,0.0002621821066791097,-9.203091530146645e-05,-0.0003065832015898273,-0.00012080914458630077,-0.00011830012003599677,-5.032512978475623e-05,0.0008603604727838228,0.0003698148038617798,-0.00029886201024237737,0.0010021111004799418,-2.2470408974283818e-05,-0.00024101968655132472,-0.0005631803737111002,0.2720577120780945,13.389429092407227,-0.3229706585407257,-18.198274612426758,-0.4214377999305725,-2.2818026542663574,0.28232139348983765,0
64,0.31499743461608887,-0.2720577120780945,-13.389429092407227,0.3229706585407257,18.198274612426758,0.4214377999305725,2.2818026542663574,-0.28232139348983765,0.0,0.0,0.0,0.0,0.0,0.0,0.0,-0.27888448354525813,0.5169048835035027,-0.061979641629725496,0.42482773994135925,-0.0074310419751818565,0.07590244162301259,-0.2596653298621402,0.07181659405311194,-0.33445891594050225,-0.12025187436107233,-2.874461752841347,-0.06441174388132079,2.51827945778105,0.7687523535026445,0.07165585495296277,-0.33419673383382315,-0.1203439052763738,-2.874768336042937,-0.06453255302590709,2.518161157661014,0.7687020283728597,-0.0008603604727838228,-0.0003698148038617798,0.00029886201024237737,-0.0010021111004799418,2.2470408974283818e-05,0.00024101968655132472,0.0005631803737111002,0.0,0.0,0.0,0.0,0.0,0.0,0.0,-0.0001607391001491737,0.0002621821066791097,-9.203091530146645e-05,-0.0003065832015898273,-0.00012080914458630077,-0.00011830012003599677,-5.032512978475623e-05,0.0008603604727838228,0.0003698148038617798,-0.00029886201024237737,0.0010021111004799418,-2.2470408974283818e-05,-0.00024101968655132472,-0.0005631803737111002,0.2720577120780945,13.389429092407227,-0.3229706585407257,-18.198274612426758,-0.4214377999305725,-2.2818026542663574,0.28232139348983765,0
65,0.31999826431274414,-0.2998287081718445,-13.389429092407227,0.3705780804157257,18.146699905395508,0.4214377999305725,2.2946200370788574,-0.29605430364608765,0.0,0.0,0.0,0.0,0.0,0.0,0.0,-0.2751023410795983,0.5168991642867733,-0.05906687771868922,0.42733510268283875,-0.008022682765598648,0.0762720778916802,-0.261014931195222,0.0718201966537877,-0.33445891594050225,-0.12025743443434198,-2.8744581335636608,-0.06441277936993767,2.518278033627404,0.7687538798660674,0.07165585495296277,-0.33419673383382315,-0.1203439052763738,-2.874768336042937,-0.06453255302590709,2.518161157661014,0.7687020283728597,0.0010605790011127868,6.429704607565897e-05,8.771229868812036e-05,0.0005408951684992335,-5.35823043551862e-05,-0.00027683643073821417,0.0013708344569261653,0.0,0.0,0.0,0.0,0.0,0.0,0.0,-0.00016434170082492428,0.0002621821066791097,-8.647084203182442e-05,-0.000310202479276267,-0.00011977365596942124,-0.0001168759663898733,-5.185149320763305e-05,-0.0010605790011127868,-6.429704607565897e-05,-8.771229868812036e-05,-0.0005408951684992335,5.35823043551862e-05,0.00027683643073821417,-0.0013708344569261653,0.2998287081718445,13.389429092407227,-0.3705780804157257,-18.146699905395508,-0.4214377999305725,-2.2946200370788574,0.29605430364608765,0
66,0.3258092403411865,-0.2998287081718445,-13.389429092407227,0.3705780804157257,18.146699905395508,0.4214377999305725,2.2946200370788574,-0.29605430364608765,0.0,0.0,0.0,0.0,0.0,0.0,0.0,-0.2751023410795983,0.5168991642867733,-0.05906687771868922,0.42733510268283875,-0.008022682765598648,0.0762720778916802,-0.261014931195222,0.0718201966537877,-0.33445891594050225,-0.12025743443434198,-2.8744581335636608,-0.06441277936993767,2.518278033627404,0.7687538798660674,0.07165585495296277,-0.33419673383382315,-0.1203439052763738,-2.874768336042937,-0.06453255302590709,2.518161157661014,0.7687020283728597,0.0010605790011127868,6.429704607565897e-05,8.771229868812036e-05,0.0005408951684992335,-5.35823043551862e-05,-0.00027683643073821417,0.0013708344569261653,0.0,0.0,0.0,0.0,0.0,0.0,0.0,-0.00016434170082492428,0.0002621821066791097,-8.647084203182442e-05,-0.000310202479276267,-0.00011977365596942124,-0.0001168759663898733,-5.185149320763305e-05,-0.0010605790011127868,-6.429704607565897e-05,-8.771229868812036e-05,-0.0005408951684992335,5.35823043551862e-05,0.00027683643073821417,-0.0013708344569261653,0.2998287081718445,13.389429092407227,-0.3705780804157257,-18.146699905395508,-0.4214377999305725,-2.2946200370788574,0.29605430364608765,0
67,0.3312532901763916,-0.2720577120780945,-13.389429092407227,0.4221527874469757,18.170503616333008,0.4269309639930725,2.2753939628601074,-0.26858848333358765,0.0,0.0,0.0,0.0,0.0,0.0,0.0,-0.2755339360112274,0.5165345150786121,-0.0587270641824326,0.4308675532689862,-0.0076189018562222025,0.076750625809364,-0.26327398629805293,0.0718179331117656,-0.33445891594050225,-0.1202615294877019,-2.874459803999516,-0.06441556255279904,2.518280169857873,0.7687508276237408,0.07165585495296277,-0.33419673383382315,-0.1203439052763738,-2.874768336042937,-0.06453255302590709,2.518161157661014,0.7687020283728597,0.00041847538134575843,7.293681100022961e-05,-0.0005742706106802906,0.00015381803814966998,-0.0001326595397551577,0.00040960367755620366,-0.0002643841838506449,0.0,0.0,0.0,0.0,0.0,0.0,0.0,-0.00016207815880282805,0.0002621821066791097,-8.23757886719012e-05,-0.0003085320434208505,-0.00011699047310805011,-0.00011901219685883646,-4.8799250881081946e-05,-0.00041847538134575843,-7.293681100022961e-05,0.0005742706106802906,-0.00015381803814966998,0.0001326595397551577,-0.00040960367755620366,0.0002643841838506449,0.2720577120780945,13.389429092407227,-0.4221527874469757,-18.170503616333008,-0.4269309639930725,-2.2753939628601074,0.26858848333358765,0
68,0.33500003814697266,-0.2720577120780945,-13.389429092407227,0.4221527874469757,18.170503616333008,0.4269309639930725,2.2753939628601074,-0.26858848333358765,0.0,0.0,0.0,0.0,0.0,0.0,0.0,-0.2755339360112274,0.5165345150786121,-0.0587270641824326,0.4308675532689862,-0.0076189018562222025,0.076750625809364,-0.26327398629805293,0.0718179331117656,-0.33445891594050225,-0.1202615294877019,-2.874459803999516,-0.06441556255279904,2.518280169857873,0.7687508276237408,0.07165585495296277,-0.33419673383382315,-0.1203439052763738,-2.874768336042937,-0.06453255302590709,2.518161157661014,0.7687020283728597,0.00041847538134575843,7.293681100022961e-05,-0.0005742706106802906,0.00015381803814966998,-0.0001326595397551577,0.00040960367755620366,-0.0002643841838506449,0.0,0.0,0.0,0.0,0.0,0.0,0.0,-0.00016207815880282805,0.0002621821066791097,-8.23757886719012e-05,-0.0003085320434208505,-0.00011699047310805011,-0.00011901219685883646,-4.8799250881081946e-05,-0.00041847538134575843,-7.293681100022961e-05,0.0005742706106802906,-0.00015381803814966998,0.0001326595397551577,-0.00040960367755620366,0.0002643841838506449,0.2720577120780945,13.389429092407227,-0.4221527874469757,-18.170503616333008,-0.4269309639930725,-2.2753939628601074,0.26858848333358765,0
69,0.34000134468078613,-0.22445029020309448,-13.413232803344727,0.3229706585407257,18.170503616333008,0.4269309639930725,2.2882113456726074,-0.29605430364608765,0.0,0.0,0.0,0.0,0.0,0.0,0.0,-0.2701459827475753,0.524716136422783,-0.05186049792914296,0.4271936272700261,-0.007317969215681932,0.07553395675079273,-0.26272473880368685,0.07181327558975402,-0.33445724550464695,-0.12025385681495014,-2.874459803999516,-0.06441710759510112,2.518278745704227,0.7687538793815507,0.07165585495296277,-0.33419673383382315,-0.1203439052763738,-2.874768336042937,-0.06453255302590709,2.518161157661014,0.7687020283728597,-0.0002850580134992925,0.0009742999568338027,0.0011387061233963907,0.0001708788019474722,-0.0002092289978180893,8.593333551464194e-05,-0.005062615289924344,0.0,0.0,0.0,0.0,0.0,0.0,0.0,-0.00015742063679125007,0.0002605116708238042,-9.004846142365852e-05,-0.0003085320434208505,-0.00011544543080596603,-0.00011758804321271299,-5.1851008690984024e-05,0.0002850580134992925,-0.0009742999568338027,-0.0011387061233963907,-0.0001708788019474722,0.0002092289978180893,-8.593333551464194e-05,0.005062615289924344,0.22445029020309448,13.413232803344727,-0.3229706585407257,-18.170503616333008,-0.4269309639930725,-2.2882113456726074,0.29605430364608765,0
70,0.3449978828430176,-0.22445029020309448,-13.413232803344727,0.3229706585407257,18.170503616333008,0.4269309639930725,2.2882113456726074,-0.29605430364608765,0.0,0.0,0.0,0.0,0.0,0.0,0.0,-0.2701459827475753,0.524716136422783,-0.05186049792914296,0.4271936272700261,-0.007317969215681932,0.07553395675079273,-0.26272473880368685,0.07181327558975402,-0.33445724550464695,-0.12025385681495014,-2.874459803999516,-0.06441710759510112,2.518278745704227,0.7687538793815507,0.07165585495296277,-0.33419673383382315,-0.1203439052763738,-2.874768336042937,-0.06453255302590709,2.518161157661014,0.7687020283728597,-0.0002850580134992925,0.0009742999568338027,0.0011387061233963907,0.0001708788019474722,-0.0002092289978180893,8.593333551464194e-05,-0.005062615289924344,0.0,0.0,0.0,0.0,0.0,0.0,0.0,-0.00015742063679125007,0.0002605116708238042,-9.004846142365852e-05,-0.0003085320434208505,-0.00011544543080596603,-0.00011758804321271299,-5.1851008690984024e-05,0.0002850580134992925,-0.0009742999568338027,-0.0011387061233963907,-0.0001708788019474722,0.0002092289978180893,-8.593333551464194e-05,0.005062615289924344,0.22445029020309448,13.413232803344727,-0.3229706585407257,-18.170503616333008,-0.4269309639930725,-2.2882113456726074,0.29605430364608765,0
71,0.34999561309814453,-0.22445029020309448,-13.413232803344727,0.3705780804157257,18.170503616333008,0.4269309639930725,2.2946200370788574,-0.25485557317733765,0.0,0.0,0.0,0.0,0.0,0.0,0.0,-0.260199216613124,0.5232801477328652,-0.044355334254401725,0.4259247356620134,-0.007629417178685084,0.07538802129896387,-0.26161479116253605,0.07181564645904306,-0.33445724550464695,-0.12025598691162229,-2.874459803999516,-0.06441373287165447,2.518278033627404,0.7687493017448319,0.07165585495296277,-0.33419673383382315,-0.1203439052763738,-2.874768336042937,-0.06453255302590709,2.518161157661014,0.7687020283728597,-0.00037031361726841226,0.00028082014186042243,0.0005059475977292152,-0.0005230113183939476,-0.00014876908672911357,-0.00016711818372213772,4.807166444696469e-05,0.0,0.0,0.0,0.0,0.0,0.0,0.0,-0.00015979150608029513,0.0002605116708238042,-8.791836475151305e-05,-0.0003085320434208505,-0.00011882015425261627,-0.0001168759663898733,-4.7273371972189615e-05,0.00037031361726841226,-0.00028082014186042243,-0.0005059475977292152,0.0005230113183939476,0.00014876908672911357,0.00016711818372213772,-4.807166444696469e-05,0.22445029020309448,13.413232803344727,-0.3705780804157257,-18.170503616333008,-0.4269309639930725,-2.2946200370788574,0.25485557317733765,0
72,0.3550088405609131,-0.22445029020309448,-13.413232803344727,0.3705780804157257,18.170503616333008,0.4269309639930725,2.2946200370788574,-0.25485557317733765,0.0,0.0,0.0,0.0,0.0,0.0,0.0,-0.260199216613124,0.5232801477328652,-0.044355334254401725,0.4259247356620134,-0.007629417178685084,0.07538802129896387,-0.26161479116253605,0.07181564645904306,-0.33445724550464695,-0.12025598691162229,-2.874459803999516,-0.06441373287165447,2.518278033627404,0.7687493017448319,0.07165585495296277,-0.33419673383382315,-0.1203439052763738,-2.874768336042937,-0.06453255302590709,2.518161157661014,0.7687020283728597,-0.00037031361726841226,0.00028082014186042243,0.0005059475977292152,-0.0005230113183939476,-0.00014876908672911357,-0.00016711818372213772,4.807166444696469e-05,0.0,0.0,0.0,0.0,0.0,0.0,0.0,-0.00015979150608029513,0.0002605116708238042,-8.791836475151305e-05,-0.0003085320434208505,-0.00011882015425261627,-0.0001168759663898733,-4.7273371972189615e-05,0.00037031361726841226,-0.00028082014186042243,-0.0005059475977292152,0.0005230113183939476,0.00014876908672911357,0.00016711818372213772,-4.807166444696469e-05,0.22445029020309448,13.413232803344727,-0.3705780804157257,-18.170503616333008,-0.4269309639930725,-2.2946200370788574,0.25485557317733765,0
73,0.3600177764892578,-0.2998287081718445,-13.413232803344727,0.3983490765094757,18.146699905395508,0.4150291085243225,2.2946200370788574,-0.29605430364608765,0.0,0.0,0.0,0.0,0.0,0.0,0.0,-0.25906204694732027,0.5212475105371237,-0.043000465289534405,0.4268119979840632,-0.00782045751006543,0.07607233993776742,-0.25826694619882606,0.07181848649654117,-0.33445724550464695,-0.12026006127188153,-2.8744581335636608,-0.06441539040746963,2.518278033627404,0.7687538793815507,0.07165585495296277,-0.33419673383382315,-0.1203439052763738,-2.874768336042937,-0.06453255302590709,2.518161157661014,0.7687020283728597,0.0006188589721259154,8.998659431097742e-06,-0.0005803376418026011,0.0005764517993931608,0.0002252561476806905,-0.00037098422895611555,0.003978380024601421,0.0,0.0,0.0,0.0,0.0,0.0,0.0,-0.00016263154357840093,0.0002605116708238042,-8.384400449226725e-05,-0.000310202479276267,-0.00011716261843745801,-0.0001168759663898733,-5.1851008690984024e-05,-0.0006188589721259154,-8.998659431097742e-06,0.0005803376418026011,-0.0005764517993931608,-0.0002252561476806905,0.00037098422895611555,-0.003978380024601421,0.2998287081718445,13.413232803344727,-0.3983490765094757,-18.146699905395508,-0.4150291085243225,-2.2946200370788574,0.29605430364608765,0
74,0.36501359939575195,-0.2998287081718445,-13.413232803344727,0.3983490765094757,18.146699905395508,0.4150291085243225,2.2946200370788574,-0.29605430364608765,0.0,0.0,0.0,0.0,0.0,0.0,0.0,-0.25906204694732027,0.5212475105371237,-0.043000465289534405,0.4268119979840632,-0.00782045751006543,0.07607233993776742,-0.25826694619882606,0.07181848649654117,-0.33445724550464695,-0.12026006127188153,-2.8744581335636608,-0.06441539040746963,2.518278033627404,0.7687538793815507,0.07165585495296277,-0.33419673383382315,-0.1203439052763738,-2.874768336042937,-0.06453255302590709,2.518161157661014,0.7687020283728597,0.0006188589721259154,8.998659431097742e-06,-0.0005803376418026011,0.0005764517993931608,0.0002252561476806905,-0.00037098422895611555,0.003978380024601421,0.0,0.0,0.0,0.0,0.0,0.0,0.0,-0.00016263154357840093,0.0002605116708238042,-8.384400449226725e-05,-0.000310202479276267,-0.00011716261843745801,-0.0001168759663898733,-5.1851008690984024e-05,-0.0006188589721259154,-8.998659431097742e-06,0.0005803376418026011,-0.0005764517993931608,-0.0002252561476806905,0.00037098422895611555,-0.003978380024601421,0.2998287081718445,13.413232803344727,-0.3983490765094757,-18.146699905395508,-0.4150291085243225,-2.2946200370788574,0.29605430364608765,0
75,0.3699989318847656,-0.2998287081718445,-13.389429092407227,0.3229706585407257,18.146699905395508,0.4269309639930725,2.3010287284851074,-0.23471395671367645,0.0,0.0,0.0,0.0,0.0,0.0,0.0,-0.2646236672644632,0.5212716158671823,-0.046831898085444516,0.42356223029022644,-0.007194923476853151,0.0759405147610555,-0.2594451345823544,0.07181845548449192,-0.33445891594050225,-0.12025399029969888,-2.8744581335636608,-0.0644166190815262,2.518277321550581,0.7687470637874471,0.07165585495296277,-0.33419673383382315,-0.1203439052763738,-2.874768336042937,-0.06453255302590709,2.518161157661014,0.7687020283728597,8.732874747138253e-05,-0.00014664032427921648,0.00024683224087312965,0.00027935125826379886,-0.00032322133536118045,-0.00036287786368787236,-0.00022559546715589135,0.0,0.0,0.0,0.0,0.0,0.0,0.0,-0.00016260053152915288,0.0002621821066791097,-8.991497667491799e-05,-0.000310202479276267,-0.00011593394438089155,-0.00011616388956703361,-4.503541458733551e-05,-8.732874747138253e-05,0.00014664032427921648,-0.00024683224087312965,-0.00027935125826379886,0.00032322133536118045,0.00036287786368787236,0.00022559546715589135,0.2998287081718445,13.389429092407227,-0.3229706585407257,-18.146699905395508,-0.4269309639930725,-2.3010287284851074,0.23471395671367645,0
76,0.3749966621398926,-0.2998287081718445,-13.389429092407227,0.3229706585407257,18.146699905395508,0.4269309639930725,2.3010287284851074,-0.23471395671367645,0.0,0.0,0.0,0.0,0.0,0.0,0.0,-0.2646236672644632,0.5212716158671823,-0.046831898085444516,0.42356223029022644,-0.007194923476853151,0.0759405147610555,-0.2594451345823544,0.07181845548449192,-0.33445891594050225,-0.12025399029969888,-2.8744581335636608,-0.0644166190815262,2.518277321550581,0.7687470637874471,0.07165585495296277,-0.33419673383382315,-0.1203439052763738,-2.874768336042937,-0.06453255302590709,2.518161157661014,0.7687020283728597,8.732874747138253e-05,-0.00014664032427921648,0.00024683224087312965,0.00027935125826379886,-0.00032322133536118045,-0.00036287786368787236,-0.00022559546715589135,0.0,0.0,0.0,0.0,0.0,0.0,0.0,-0.00016260053152915288,0.0002621821066791097,-8.991497667491799e-05,-0.000310202479276267,-0.00011593394438089155,-0.00011616388956703361,-4.503541458733551e-05,-8.732874747138253e-05,0.00014664032427921648,-0.00024683224087312965,-0.00027935125826379886,0.00032322133536118045,0.00036287786368787236,0.00022559546715589135,0.2998287081718445,13.389429092407227,-0.3229706585407257,-18.146699905395508,-0.4269309639930725,-2.3010287284851074,0.23471395671367645,0
77,0.37999606132507324,-0.2998287081718445,-13.389429092407227,0.3229706585407257,18.146699905395508,0.4269309639930725,2.3010287284851074,-0.23471395671367645,0.0,0.0,0.0,0.0,0.0,0.0,0.0,-0.2646236672644632,0.5212716158671823,-0.046831898085444516,0.42356223029022644,-0.007194923476853151,0.0759405147610555,-0.2594451345823544,0.07181845548449192,-0.33445891594050225,-0.12025399029969888,-2.8744581335636608,-0.0644166190815262,2.518277321550581,0.7687470637874471,0.07165585495296277,-0.33419673383382315,-0.1203439052763738,-2.874768336042937,-0.06453255302590709,2.518161157661014,0.7687020283728597,8.732874747138253e-05,-0.00014664032427921648,0.00024683224087312965,0.00027935125826379886,-0.00032322133536118045,-0.00036287786368787236,-0.00022559546715589135,0.0,0.0,0.0,0.0,0.0,0.0,0.0,-0.00016260053152915288,0.0002621821066791097,-8.991497667491799e-05,-0.000310202479276267,-0.00011593394438089155,-0.00011616388956703361,-4.503541458733551e-05,-8.732874747138253e-05,0.00014664032427921648,-0.00024683224087312965,-0.00027935125826379886,0.00032322133536118045,0.00036287786368787236,0.00022559546715589135,0.2998287081718445,13.389429092407227,-0.3229706585407257,-18.146699905395508,-0.4269309639930725,-2.3010287284851074,0.23471395671367645,0
78,0.3849940299987793,-0.2998287081718445,-13.389429092407227,0.3229706585407257,18.146699905395508,0.4269309639930725,2.3010287284851074,-0.23471395671367645,0.0,0.0,0.0,0.0,0.0,0.0,0.0,-0.2646236672644632,0.5212716158671823,-0.046831898085444516,0.42356223029022644,-0.007194923476853151,0.0759405147610555,-0.2594451345823544,0.07181845548449192,-0.33445891594050225,-0.12025399029969888,-2.8744581335636608,-0.0644166190815262,2.518277321550581,0.7687470637874471,0.07165585495296277,-0.33419673383382315,-0.1203439052763738,-2.874768336042937,-0.06453255302590709,2.518161157661014,0.7687020283728597,8.732874747138253e-05,-0.00014664032427921648,0.00024683224087312965,0.00027935125826379886,-0.00032322133536118045,-0.00036287786368787236,-0.00022559546715589135,0.0,0.0,0.0,0.0,0.0,0.0,0.0,-0.00016260053152915288,0.0002621821066791097,-8.991497667491799e-05,-0.000310202479276267,-0.00011593394438089155,-0.00011616388956703361,-4.503541458733551e-05,-8.732874747138253e-05,0.00014664032427921648,-0.00024683224087312965,-0.00027935125826379886,0.00032322133536118045,0.00036287786368787236,0.00022559546715589135,0.2998287081718445,13.389429092407227,-0.3229706585407257,-18.146699905395508,-0.4269309639930725,-2.3010287284851074,0.23471395671367645,0
79,0.390028715133667,-0.2720577120780945,-13.389429092407227,0.3229706585407257,18.170503616333008,0.4269309639930725,2.2818026542663574,-0.27591270208358765,0.0,0.0,0.0,0.0,0.0,0.0,0.0,-0.2675620268588871,0.5200393251676215,-0.05287206035992005,0.4279354959589754,-0.0074843587530991715,0.07737929744156284,-0.25509648349170294,0.07181819819265806,-0.33445891594050225,-0.12025161992377673,-2.874459803999516,-0.06441351195684994,2.51827945778105,0.7687516414258215,0.07165585495296277,-0.33419673383382315,-0.1203439052763738,-2.874768336042937,-0.06453255302590709,2.518161157661014,0.7687020283728597,-0.0001743081878451632,0.00028158108318987446,-0.0002692297568598677,0.0003394393728282417,-0.00016458771523159975,0.00034820333986274184,0.0008168861376537889,0.0,0.0,0.0,0.0,0.0,0.0,0.0,-0.00016234323969528675,0.0002621821066791097,-9.228535259707404e-05,-0.0003085320434208505,-0.00011904106905714917,-0.00011830012003599677,-4.9613052961805515e-05,0.0001743081878451632,-0.00028158108318987446,0.0002692297568598677,-0.0003394393728282417,0.00016458771523159975,-0.00034820333986274184,-0.0008168861376537889,0.2720577120780945,13.389429092407227,-0.3229706585407257,-18.170503616333008,-0.4269309639930725,-2.2818026542663574,0.27591270208358765,0
