rezayati/contactInterpretation/dataset/franka_main/labeled_data/link5/c13_8.csv
index,time,tau_J0,tau_J1,tau_J2,tau_J3,tau_J4,tau_J5,tau_J6,tau_J_d0,tau_J_d1,tau_J_d2,tau_J_d3,tau_J_d4,tau_J_d5,tau_J_d6,tau_ext0,tau_ext1,tau_ext2,tau_ext3,tau_ext4,tau_ext5,tau_ext6,q0,q1,q2,q3,q4,q5,q6,q_d0,q_d1,q_d2,q_d3,q_d4,q_d5,q_d6,dq0,dq1,dq2,dq3,dq4,dq5,dq6,dq_d0,dq_d1,dq_d2,dq_d3,dq_d4,dq_d5,dq_d6,e0,e1,e2,e3,e4,e5,e6,de0,de1,de2,de3,de4,de5,de6,etau_J0,etau_J1,etau_J2,etau_J3,etau_J4,etau_J5,etau_J6,label
1,0.0,-0.4505855441093445,-22.672876358032227,-0.07375786453485489,14.080232620239258,0.04057842493057251,2.1517977714538574,-0.37845176458358765,0.0,0.0,0.0,0.0,0.0,0.0,0.0,-0.42338319476178055,0.08099033878945296,-0.20024733209184553,0.220523127953557,-0.19756017789617134,-0.0460087531014159,-0.4070016143838756,1.6756532487994744,0.052078236530057595,0.029991306064160245,-2.752710183896522,0.03433268922444313,2.766328856839074,0.7691932117140208,1.6754973547542302,0.052104326824870026,0.029969505109285054,-2.752394845125968,0.0342448039870148,2.7663679543071322,0.7691630533470046,0.000456954534567001,-0.0005250141712087215,-0.0014952235677502528,0.00018282279255366714,-8.179132133192501e-05,-0.00038166039805046073,-0.0008029457140099851,0.0,0.0,0.0,0.0,0.0,0.0,0.0,-0.00015589404524418704,2.609029481243086e-05,-2.1800954875191708e-05,0.0003153387705538968,-8.788523742832982e-05,3.9097468058191254e-05,-3.015836701614205e-05,-0.000456954534567001,0.0005250141712087215,0.0014952235677502528,-0.00018282279255366714,8.179132133192501e-05,0.00038166039805046073,0.0008029457140099851,0.4505855441093445,22.672876358032227,0.07375786453485489,-14.080232620239258,-0.04057842493057251,-2.1517977714538574,0.37845176458358765,0
2,0.004998207092285156,-0.4029781222343445,-22.649072647094727,-0.1253325641155243,14.056428909301758,0.03416973352432251,2.1453890800476074,-0.43338340520858765,0.0,0.0,0.0,0.0,0.0,0.0,0.0,-0.4248589988138857,0.08807029958551316,-0.20043167414256774,0.22011938976669163,-0.19701524085492045,-0.04532846712913628,-0.40643310474812916,1.6756496695091847,0.05207665961634989,0.0299949253413238,-2.752708516295084,0.034329836815558665,2.766329568915897,0.7692000260279018,1.6754973547542302,0.052104326824870026,0.029969505109285054,-2.752394845125968,0.0342448039870148,2.7663679543071322,0.7691630533470046,-0.0003634356772946015,0.00012228210819985105,0.00010208054168708782,0.0007111014114200124,0.0001448665301934136,-7.11393122978318e-05,0.0009429505998525664,0.0,0.0,0.0,0.0,0.0,0.0,0.0,-0.00015231475495447455,2.7667208520133768e-05,-2.5420232038747548e-05,0.00031367116911606985,-8.503282854386424e-05,3.838539123535156e-05,-3.6972680897195964e-05,0.0003634356772946015,-0.00012228210819985105,-0.00010208054168708782,-0.0007111014114200124,-0.0001448665301934136,7.11393122978318e-05,-0.0009429505998525664,0.4029781222343445,22.649072647094727,0.1253325641155243,-14.056428909301758,-0.03416973352432251,-2.1453890800476074,0.43338340520858765,0
3,0.009994268417358398,-0.4029781222343445,-22.649072647094727,-0.1253325641155243,14.056428909301758,0.03416973352432251,2.1453890800476074,-0.43338340520858765,0.0,0.0,0.0,0.0,0.0,0.0,0.0,-0.4248589988138857,0.08807029958551316,-0.20043167414256774,0.22011938976669163,-0.19701524085492045,-0.04532846712913628,-0.40643310474812916,1.6756496695091847,0.05207665961634989,0.0299949253413238,-2.752708516295084,0.034329836815558665,2.766329568915897,0.7692000260279018,1.6754973547542302,0.052104326824870026,0.029969505109285054,-2.752394845125968,0.0342448039870148,2.7663679543071322,0.7691630533470046,-0.0003634356772946015,0.00012228210819985105,0.00010208054168708782,0.0007111014114200124,0.0001448665301934136,-7.11393122978318e-05,0.0009429505998525664,0.0,0.0,0.0,0.0,0.0,0.0,0.0,-0.00015231475495447455,2.7667208520133768e-05,-2.5420232038747548e-05,0.00031367116911606985,-8.503282854386424e-05,3.838539123535156e-05,-3.6972680897195964e-05,0.0003634356772946015,-0.00012228210819985105,-0.00010208054168708782,-0.0007111014114200124,-0.0001448665301934136,7.11393122978318e-05,-0.0009429505998525664,0.4029781222343445,22.649072647094727,0.1253325641155243,-14.056428909301758,-0.03416973352432251,-2.1453890800476074,0.43338340520858765,0
4,0.014998674392700195,-0.4029781222343445,-22.696680068969727,-0.09756157547235489,14.080232620239258,0.03416973352432251,2.1517977714538574,-0.41324180364608765,0.0,0.0,0.0,0.0,0.0,0.0,0.0,-0.42358201923904054,0.08901680803827429,-0.19930460190357374,0.22443565840974788,-0.19702055808436886,-0.04371351744492039,-0.40697324581748745,1.675649907926418,0.052079895296721634,0.02999297650001551,-2.7527101838965327,0.03432865433420455,2.766328856839074,0.7691968446682403,1.6754973547542302,0.052104326824870026,0.029969505109285054,-2.752394845125968,0.0342448039870148,2.7663679543071322,0.7691630533470046,-0.0002888548122741469,0.0005582256576460651,-0.0004473053700295301,0.0003781701659198294,5.563403542904262e-05,-0.0004688033169581768,0.0002616873398023495,0.0,0.0,0.0,0.0,0.0,0.0,0.0,-0.00015255317218776376,2.4431528148391446e-05,-2.3471390730455538e-05,0.00031533877056455495,-8.385034718975254e-05,3.9097468058191254e-05,-3.379132123570994e-05,0.0002888548122741469,-0.0005582256576460651,0.0004473053700295301,-0.0003781701659198294,-5.563403542904262e-05,0.0004688033169581768,-0.0002616873398023495,0.4029781222343445,22.696680068969727,0.09756157547235489,-14.080232620239258,-0.03416973352432251,-2.1517977714538574,0.41324180364608765,0
5,0.01999044418334961,-0.4029781222343445,-22.696680068969727,-0.09756157547235489,14.080232620239258,0.03416973352432251,2.1517977714538574,-0.41324180364608765,0.0,0.0,0.0,0.0,0.0,0.0,0.0,-0.42358201923904054,0.08901680803827429,-0.19930460190357374,0.22443565840974788,-0.19702055808436886,-0.04371351744492039,-0.40697324581748745,1.675649907926418,0.052079895296721634,0.02999297650001551,-2.7527101838965327,0.03432865433420455,2.766328856839074,0.7691968446682403,1.6754973547542302,0.052104326824870026,0.029969505109285054,-2.752394845125968,0.0342448039870148,2.7663679543071322,0.7691630533470046,-0.0002888548122741469,0.0005582256576460651,-0.0004473053700295301,0.0003781701659198294,5.563403542904262e-05,-0.0004688033169581768,0.0002616873398023495,0.0,0.0,0.0,0.0,0.0,0.0,0.0,-0.00015255317218776376,2.4431528148391446e-05,-2.3471390730455538e-05,0.00031533877056455495,-8.385034718975254e-05,3.9097468058191254e-05,-3.379132123570994e-05,0.0002888548122741469,-0.0005582256576460651,0.0004473053700295301,-0.0003781701659198294,-5.563403542904262e-05,0.0004688033169581768,-0.0002616873398023495,0.4029781222343445,22.696680068969727,0.09756157547235489,-14.080232620239258,-0.03416973352432251,-2.1517977714538574,0.41324180364608765,0
6,0.024999380111694336,-0.3752071261405945,-22.720483779907227,-0.09756157547235489,14.080232620239258,0.04057842493057251,2.1517977714538574,-0.41324180364608765,0.0,0.0,0.0,0.0,0.0,0.0,0.0,-0.42252887166259934,0.09401638054903984,-0.1985240137251499,0.22004736684254508,-0.1970281944128904,-0.043588207166019494,-0.40710665720378475,1.6756479590859328,0.05208370543920271,0.029992976824982406,-2.7527101838965167,0.0343290984049507,2.766328856839074,0.7691982590211394,1.6754973547542302,0.052104326824870026,0.029969505109285054,-2.752394845125968,0.0342448039870148,2.7663679543071322,0.7691630533470046,-0.0009566607233365963,0.00016590919665226693,9.207679583273041e-05,-0.0002929922730609035,-0.00027266560548568465,-0.0003827445482198114,-0.0001849085532378677,0.0,0.0,0.0,0.0,0.0,0.0,0.0,-0.00015060433170255294,2.0621385667315972e-05,-2.347171569735268e-05,0.00031533877054856774,-8.429441793589981e-05,3.9097468058191254e-05,-3.5205674134730636e-05,0.0009566607233365963,-0.00016590919665226693,-9.207679583273041e-05,0.0002929922730609035,0.00027266560548568465,0.0003827445482198114,0.0001849085532378677,0.3752071261405945,22.720483779907227,0.09756157547235489,-14.080232620239258,-0.04057842493057251,-2.1517977714538574,0.41324180364608765,0
7,0.029994487762451172,-0.3752071261405945,-22.720483779907227,-0.09756157547235489,14.080232620239258,0.04057842493057251,2.1517977714538574,-0.41324180364608765,0.0,0.0,0.0,0.0,0.0,0.0,0.0,-0.42252887166259934,0.09401638054903984,-0.1985240137251499,0.22004736684254508,-0.1970281944128904,-0.043588207166019494,-0.40710665720378475,1.6756479590859328,0.05208370543920271,0.029992976824982406,-2.7527101838965167,0.0343290984049507,2.766328856839074,0.7691982590211394,1.6754973547542302,0.052104326824870026,0.029969505109285054,-2.752394845125968,0.0342448039870148,2.7663679543071322,0.7691630533470046,-0.0009566607233365963,0.00016590919665226693,9.207679583273041e-05,-0.0002929922730609035,-0.00027266560548568465,-0.0003827445482198114,-0.0001849085532378677,0.0,0.0,0.0,0.0,0.0,0.0,0.0,-0.00015060433170255294,2.0621385667315972e-05,-2.347171569735268e-05,0.00031533877054856774,-8.429441793589981e-05,3.9097468058191254e-05,-3.5205674134730636e-05,0.0009566607233365963,-0.00016590919665226693,-9.207679583273041e-05,0.0002929922730609035,0.00027266560548568465,0.0003827445482198114,0.0001849085532378677,0.3752071261405945,22.720483779907227,0.09756157547235489,-14.080232620239258,-0.04057842493057251,-2.1517977714538574,0.41324180364608765,0
8,0.03499603271484375,-0.4267818331718445,-22.772058486938477,-0.1253325641155243,14.131807327270508,0.04057842493057251,2.1453890800476074,-0.40591758489608765,0.0,0.0,0.0,0.0,0.0,0.0,0.0,-0.4212326943896518,0.08847737476753609,-0.1993794161809837,0.22439412033713296,-0.19703036818251682,-0.04244268089573669,-0.40883049107778635,1.6756515783636192,0.05208542477981423,0.029994925341325637,-2.752713803174203,0.0343280720058974,2.766329568915897,0.7691973274894701,1.6754973547542302,0.052104326824870026,0.029969505109285054,-2.752394845125968,0.0342448039870148,2.7663679543071322,0.7691630533470046,0.000521278868960136,0.0006818059444138076,-0.00014023899610682216,-0.0005868914635131341,-0.00018401213020432475,-0.00010322498865474958,-0.0006791186016436321,0.0,0.0,0.0,0.0,0.0,0.0,0.0,-0.0001542236093889926,1.8902045055793626e-05,-2.5420232040582885e-05,0.0003189580482350074,-8.326801888260127e-05,3.838539123535156e-05,-3.427414246548466e-05,-0.000521278868960136,-0.0006818059444138076,0.00014023899610682216,0.0005868914635131341,0.00018401213020432475,0.00010322498865474958,0.0006791186016436321,0.4267818331718445,22.772058486938477,0.1253325641155243,-14.131807327270508,-0.04057842493057251,-2.1453890800476074,0.40591758489608765,0
9,0.03999733924865723,-0.4267818331718445,-22.772058486938477,-0.1253325641155243,14.131807327270508,0.04057842493057251,2.1453890800476074,-0.40591758489608765,0.0,0.0,0.0,0.0,0.0,0.0,0.0,-0.4212326943896518,0.08847737476753609,-0.1993794161809837,0.22439412033713296,-0.19703036818251682,-0.04244268089573669,-0.40883049107778635,1.6756515783636192,0.05208542477981423,0.029994925341325637,-2.752713803174203,0.0343280720058974,2.766329568915897,0.7691973274894701,1.6754973547542302,0.052104326824870026,0.029969505109285054,-2.752394845125968,0.0342448039870148,2.7663679543071322,0.7691630533470046,0.000521278868960136,0.0006818059444138076,-0.00014023899610682216,-0.0005868914635131341,-0.00018401213020432475,-0.00010322498865474958,-0.0006791186016436321,0.0,0.0,0.0,0.0,0.0,0.0,0.0,-0.0001542236093889926,1.8902045055793626e-05,-2.5420232040582885e-05,0.0003189580482350074,-8.326801888260127e-05,3.838539123535156e-05,-3.427414246548466e-05,-0.000521278868960136,-0.0006818059444138076,0.00014023899610682216,0.0005868914635131341,0.00018401213020432475,0.00010322498865474958,0.0006791186016436321,0.4267818331718445,22.772058486938477,0.1253325641155243,-14.131807327270508,-0.04057842493057251,-2.1453890800476074,0.40591758489608765,0
10,0.0449976921081543,-0.4267818331718445,-22.720483779907227,-0.1491362750530243,14.080232620239258,0.02867656946182251,2.1389803886413574,-0.38577598333358765,0.0,0.0,0.0,0.0,0.0,0.0,0.0,-0.41317045168590444,0.0890515871717667,-0.19622853598568438,0.21640454564514308,-0.19776816577692896,-0.04442097148818044,-0.4097716087471104,1.6756515773824727,0.05208236410893154,0.029996596102145962,-2.7527101838965167,0.03433361810747752,2.7663302809927197,0.7691952071091407,1.6754973547542302,0.052104326824870026,0.029969505109285054,-2.752394845125968,0.0342448039870148,2.7663679543071322,0.7691630533470046,0.0004099836899707518,-0.00040469351104545636,0.0010332821296655489,-0.00017611345588824785,0.00017790326424139676,2.0014522068922454e-05,-0.0011014436489823161,0.0,0.0,0.0,0.0,0.0,0.0,0.0,-0.00015422262824249522,2.196271593848248e-05,-2.709099286090852e-05,0.00031533877054856774,-8.881412046272269e-05,3.767331441251187e-05,-3.21537621360557e-05,-0.0004099836899707518,0.00040469351104545636,-0.0010332821296655489,0.00017611345588824785,-0.00017790326424139676,-2.0014522068922454e-05,0.0011014436489823161,0.4267818331718445,22.720483779907227,0.1491362750530243,-14.080232620239258,-0.02867656946182251,-2.1389803886413574,0.38577598333358765,0
11,0.04999709129333496,-0.4267818331718445,-22.720483779907227,-0.1491362750530243,14.080232620239258,0.02867656946182251,2.1389803886413574,-0.38577598333358765,0.0,0.0,0.0,0.0,0.0,0.0,0.0,-0.41317045168590444,0.0890515871717667,-0.19622853598568438,0.21640454564514308,-0.19776816577692896,-0.04442097148818044,-0.4097716087471104,1.6756515773824727,0.05208236410893154,0.029996596102145962,-2.7527101838965167,0.03433361810747752,2.7663302809927197,0.7691952071091407,1.6754973547542302,0.052104326824870026,0.029969505109285054,-2.752394845125968,0.0342448039870148,2.7663679543071322,0.7691630533470046,0.0004099836899707518,-0.00040469351104545636,0.0010332821296655489,-0.00017611345588824785,0.00017790326424139676,2.0014522068922454e-05,-0.0011014436489823161,0.0,0.0,0.0,0.0,0.0,0.0,0.0,-0.00015422262824249522,2.196271593848248e-05,-2.709099286090852e-05,0.00031533877054856774,-8.881412046272269e-05,3.767331441251187e-05,-3.21537621360557e-05,-0.0004099836899707518,0.00040469351104545636,-0.0010332821296655489,0.00017611345588824785,-0.00017790326424139676,-2.0014522068922454e-05,0.0011014436489823161,0.4267818331718445,22.720483779907227,0.1491362750530243,-14.080232620239258,-0.02867656946182251,-2.1389803886413574,0.38577598333358765,0
12,0.05500030517578125,-0.4267818331718445,-22.720483779907227,-0.1491362750530243,14.080232620239258,0.02867656946182251,2.1389803886413574,-0.38577598333358765,0.0,0.0,0.0,0.0,0.0,0.0,0.0,-0.41317045168590444,0.0890515871717667,-0.19622853598568438,0.21640454564514308,-0.19776816577692896,-0.04442097148818044,-0.4097716087471104,1.6756515773824727,0.05208236410893154,0.029996596102145962,-2.7527101838965167,0.03433361810747752,2.7663302809927197,0.7691952071091407,1.6754973547542302,0.052104326824870026,0.029969505109285054,-2.752394845125968,0.0342448039870148,2.7663679543071322,0.7691630533470046,0.0004099836899707518,-0.00040469351104545636,0.0010332821296655489,-0.00017611345588824785,0.00017790326424139676,2.0014522068922454e-05,-0.0011014436489823161,0.0,0.0,0.0,0.0,0.0,0.0,0.0,-0.00015422262824249522,2.196271593848248e-05,-2.709099286090852e-05,0.00031533877054856774,-8.881412046272269e-05,3.767331441251187e-05,-3.21537621360557e-05,-0.0004099836899707518,0.00040469351104545636,-0.0010332821296655489,0.00017611345588824785,-0.00017790326424139676,-2.0014522068922454e-05,0.0011014436489823161,0.4267818331718445,22.720483779907227,0.1491362750530243,-14.080232620239258,-0.02867656946182251,-2.1389803886413574,0.38577598333358765,0
13,0.06001543998718262,-0.4267818331718445,-22.720483779907227,-0.1491362750530243,14.080232620239258,0.02867656946182251,2.1389803886413574,-0.38577598333358765,0.0,0.0,0.0,0.0,0.0,0.0,0.0,-0.41317045168590444,0.0890515871717667,-0.19622853598568438,0.21640454564514308,-0.19776816577692896,-0.04442097148818044,-0.4097716087471104,1.6756515773824727,0.05208236410893154,0.029996596102145962,-2.7527101838965167,0.03433361810747752,2.7663302809927197,0.7691952071091407,1.6754973547542302,0.052104326824870026,0.029969505109285054,-2.752394845125968,0.0342448039870148,2.7663679543071322,0.7691630533470046,0.0004099836899707518,-0.00040469351104545636,0.0010332821296655489,-0.00017611345588824785,0.00017790326424139676,2.0014522068922454e-05,-0.0011014436489823161,0.0,0.0,0.0,0.0,0.0,0.0,0.0,-0.00015422262824249522,2.196271593848248e-05,-2.709099286090852e-05,0.00031533877054856774,-8.881412046272269e-05,3.767331441251187e-05,-3.21537621360557e-05,-0.0004099836899707518,0.00040469351104545636,-0.0010332821296655489,0.00017611345588824785,-0.00017790326424139676,-2.0014522068922454e-05,0.0011014436489823161,0.4267818331718445,22.720483779907227,0.1491362750530243,-14.080232620239258,-0.02867656946182251,-2.1389803886413574,0.38577598333358765,0
14,0.0650169849395752,-0.4505855441093445,-22.748254776000977,-0.1491362750530243,14.108003616333008,0.02867656946182251,2.1389803886413574,-0.38577598333358765,0.0,0.0,0.0,0.0,0.0,0.0,0.0,-0.4138446997465947,0.08048063005157352,-0.19799362873283446,0.22086514984781574,-0.19781361786707874,-0.044781301315394734,-0.409863415189151,1.6756532487994689,0.05208448898339317,0.0299965957771809,-2.7527121355727706,0.03433279000248551,2.7663302809927197,0.769192028356922,1.6754973547542302,0.052104326824870026,0.029969505109285054,-2.752394845125968,0.0342448039870148,2.7663679543071322,0.7691630533470046,0.0005944801516315448,0.0011264388233599007,0.0007741828040028222,-0.00022101788578120812,0.00034615694907812986,-0.00023127889717503177,-0.0009975675799567894,0.0,0.0,0.0,0.0,0.0,0.0,0.0,-0.00015589404523863593,1.983784147685519e-05,-2.7090667895846715e-05,0.0003172904468025095,-8.798601547070628e-05,3.767331441251187e-05,-2.8975009917386885e-05,-0.0005944801516315448,-0.0011264388233599007,-0.0007741828040028222,0.00022101788578120812,-0.00034615694907812986,0.00023127889717503177,0.0009975675799567894,0.4505855441093445,22.748254776000977,0.1491362750530243,-14.108003616333008,-0.02867656946182251,-2.1389803886413574,0.38577598333358765,0
15,0.0700228214263916,-0.4505855441093445,-22.748254776000977,-0.1491362750530243,14.108003616333008,0.02867656946182251,2.1389803886413574,-0.38577598333358765,0.0,0.0,0.0,0.0,0.0,0.0,0.0,-0.4138446997465947,0.08048063005157352,-0.19799362873283446,0.22086514984781574,-0.19781361786707874,-0.044781301315394734,-0.409863415189151,1.6756532487994689,0.05208448898339317,0.0299965957771809,-2.7527121355727706,0.03433279000248551,2.7663302809927197,0.769192028356922,1.6754973547542302,0.052104326824870026,0.029969505109285054,-2.752394845125968,0.0342448039870148,2.7663679543071322,0.7691630533470046,0.0005944801516315448,0.0011264388233599007,0.0007741828040028222,-0.00022101788578120812,0.00034615694907812986,-0.00023127889717503177,-0.0009975675799567894,0.0,0.0,0.0,0.0,0.0,0.0,0.0,-0.00015589404523863593,1.983784147685519e-05,-2.7090667895846715e-05,0.0003172904468025095,-8.798601547070628e-05,3.767331441251187e-05,-2.8975009917386885e-05,-0.0005944801516315448,-0.0011264388233599007,-0.0007741828040028222,0.00022101788578120812,-0.00034615694907812986,0.00023127889717503177,0.0009975675799567894,0.4505855441093445,22.748254776000977,0.1491362750530243,-14.108003616333008,-0.02867656946182251,-2.1389803886413574,0.38577598333358765,0
16,0.07499933242797852,-0.4267818331718445,-22.621301651000977,-0.1253325641155243,14.108003616333008,0.03416973352432251,2.1325716972351074,-0.39218467473983765,0.0,0.0,0.0,0.0,0.0,0.0,0.0,-0.4164202996406694,0.08068644996757071,-0.2002600911129591,0.2215029337974786,-0.1976451827852277,-0.045894607932761566,-0.40985629517835476,1.6756515518363273,0.052074842423154064,0.0299949253413238,-2.7527121582481704,0.03433305053747147,2.766330993069543,0.7691955524971749,1.6754973547542302,0.052104326824870026,0.029969505109285054,-2.752394845125968,0.0342448039870148,2.7663679543071322,0.7691630533470046,-2.0209184608118552e-05,-0.0014070854798464909,-0.00023368422050149614,-0.0007708351116963302,0.00011774492590189654,0.0002971632327591522,-0.0003615368873267532,0.0,0.0,0.0,0.0,0.0,0.0,0.0,-0.00015419708209707395,2.948440171596234e-05,-2.5420232038747548e-05,0.0003173131222022896,-8.824655045666652e-05,3.696123758922809e-05,-3.249915017022875e-05,2.0209184608118552e-05,0.0014070854798464909,0.00023368422050149614,0.0007708351116963302,-0.00011774492590189654,-0.0002971632327591522,0.0003615368873267532,0.4267818331718445,22.621301651000977,0.1253325641155243,-14.108003616333008,-0.03416973352432251,-2.1325716972351074,0.39218467473983765,0
17,0.07999563217163086,-0.4267818331718445,-22.621301651000977,-0.1253325641155243,14.108003616333008,0.03416973352432251,2.1325716972351074,-0.39218467473983765,0.0,0.0,0.0,0.0,0.0,0.0,0.0,-0.4164202996406694,0.08068644996757071,-0.2002600911129591,0.2215029337974786,-0.1976451827852277,-0.045894607932761566,-0.40985629517835476,1.6756515518363273,0.052074842423154064,0.0299949253413238,-2.7527121582481704,0.03433305053747147,2.766330993069543,0.7691955524971749,1.6754973547542302,0.052104326824870026,0.029969505109285054,-2.752394845125968,0.0342448039870148,2.7663679543071322,0.7691630533470046,-2.0209184608118552e-05,-0.0014070854798464909,-0.00023368422050149614,-0.0007708351116963302,0.00011774492590189654,0.0002971632327591522,-0.0003615368873267532,0.0,0.0,0.0,0.0,0.0,0.0,0.0,-0.00015419708209707395,2.948440171596234e-05,-2.5420232038747548e-05,0.0003173131222022896,-8.824655045666652e-05,3.696123758922809e-05,-3.249915017022875e-05,2.0209184608118552e-05,0.0014070854798464909,0.00023368422050149614,0.0007708351116963302,-0.00011774492590189654,-0.0002971632327591522,0.0003615368873267532,0.4267818331718445,22.621301651000977,0.1253325641155243,-14.108003616333008,-0.03416973352432251,-2.1325716972351074,0.39218467473983765,0
18,0.08499526977539062,-0.4267818331718445,-22.672876358032227,-0.1491362750530243,14.080232620239258,0.02867656946182251,2.1389803886413574,-0.43338340520858765,0.0,0.0,0.0,0.0,0.0,0.0,0.0,-0.423650986319627,0.08750669621884025,-0.20727299253778073,0.21997187057005427,-0.19712917771603675,-0.04656655112896106,-0.40832656108598997,1.6756515783622714,0.05208130567684805,0.029998806851949295,-2.7527101838978125,0.0343340171589016,2.7663302809927197,0.7691994368435686,1.6754973547542302,0.052104326824870026,0.029969505109285054,-2.752394845125968,0.0342448039870148,2.7663679543071322,0.7691630533470046,-0.0002252533276053547,0.00019862132871799605,6.142175596257108e-06,0.0001992873998241686,0.0002724231189207957,0.006507930022528765,0.0007528761062259285,0.0,0.0,0.0,0.0,0.0,0.0,0.0,-0.00015422360804118185,2.302114802197469e-05,-2.9301742664241542e-05,0.00031533877184442005,-8.921317188680111e-05,3.767331441251187e-05,-3.638349656398532e-05,0.0002252533276053547,-0.00019862132871799605,-6.142175596257108e-06,-0.0001992873998241686,-0.0002724231189207957,-0.006507930022528765,-0.0007528761062259285,0.4267818331718445,22.672876358032227,0.1491362750530243,-14.080232620239258,-0.02867656946182251,-2.1389803886413574,0.43338340520858765,0
19,0.08999371528625488,-0.4267818331718445,-22.672876358032227,-0.1491362750530243,14.080232620239258,0.02867656946182251,2.1389803886413574,-0.43338340520858765,0.0,0.0,0.0,0.0,0.0,0.0,0.0,-0.423650986319627,0.08750669621884025,-0.20727299253778073,0.21997187057005427,-0.19712917771603675,-0.04656655112896106,-0.40832656108598997,1.6756515783622714,0.05208130567684805,0.029998806851949295,-2.7527101838978125,0.0343340171589016,2.7663302809927197,0.7691994368435686,1.6754973547542302,0.052104326824870026,0.029969505109285054,-2.752394845125968,0.0342448039870148,2.7663679543071322,0.7691630533470046,-0.0002252533276053547,0.00019862132871799605,6.142175596257108e-06,0.0001992873998241686,0.0002724231189207957,0.006507930022528765,0.0007528761062259285,0.0,0.0,0.0,0.0,0.0,0.0,0.0,-0.00015422360804118185,2.302114802197469e-05,-2.9301742664241542e-05,0.00031533877184442005,-8.921317188680111e-05,3.767331441251187e-05,-3.638349656398532e-05,0.0002252533276053547,-0.00019862132871799605,-6.142175596257108e-06,-0.0001992873998241686,-0.0002724231189207957,-0.006507930022528765,-0.0007528761062259285,0.4267818331718445,22.672876358032227,0.1491362750530243,-14.080232620239258,-0.02867656946182251,-2.1389803886413574,0.43338340520858765,0
20,0.09499382972717285,-0.4267818331718445,-22.696680068969727,-0.1491362750530243,14.080232620239258,0.04057842493057251,2.1389803886413574,-0.40591758489608765,0.0,0.0,0.0,0.0,0.0,0.0,0.0,-0.4219676065555204,0.08730377211663322,-0.20995739601651212,0.22103453490181568,-0.19726995973521227,-0.04622225544239597,-0.4083417994151416,1.6756515783636192,0.05207997418680323,0.02999659578133959,-2.7527102094063234,0.03433257539286113,2.7663302809927197,0.76919744517121,1.6754973547542302,0.052104326824870026,0.029969505109285054,-2.752394845125968,0.0342448039870148,2.7663679543071322,0.7691630533470046,4.312392701437084e-05,-0.0004506700397088912,0.00015004804482505113,0.00010348473854522452,-0.0002096859851082842,2.6224465176888015e-05,-0.0007266675873457392,0.0,0.0,0.0,0.0,0.0,0.0,0.0,-0.0001542236093889926,2.4352638066799104e-05,-2.7090672054537468e-05,0.0003153642803552792,-8.777140584632914e-05,3.767331441251187e-05,-3.439182420539311e-05,-4.312392701437084e-05,0.0004506700397088912,-0.00015004804482505113,-0.00010348473854522452,0.0002096859851082842,-2.6224465176888015e-05,0.0007266675873457392,0.4267818331718445,22.696680068969727,0.1491362750530243,-14.080232620239258,-0.04057842493057251,-2.1389803886413574,0.40591758489608765,0
21,0.09999632835388184,-0.4267818331718445,-22.696680068969727,-0.1491362750530243,14.080232620239258,0.04057842493057251,2.1389803886413574,-0.40591758489608765,0.0,0.0,0.0,0.0,0.0,0.0,0.0,-0.4219676065555204,0.08730377211663322,-0.20995739601651212,0.22103453490181568,-0.19726995973521227,-0.04622225544239597,-0.4083417994151416,1.6756515783636192,0.05207997418680323,0.02999659578133959,-2.7527102094063234,0.03433257539286113,2.7663302809927197,0.76919744517121,1.6754973547542302,0.052104326824870026,0.029969505109285054,-2.752394845125968,0.0342448039870148,2.7663679543071322,0.7691630533470046,4.312392701437084e-05,-0.0004506700397088912,0.00015004804482505113,0.00010348473854522452,-0.0002096859851082842,2.6224465176888015e-05,-0.0007266675873457392,0.0,0.0,0.0,0.0,0.0,0.0,0.0,-0.0001542236093889926,2.4352638066799104e-05,-2.7090672054537468e-05,0.0003153642803552792,-8.777140584632914e-05,3.767331441251187e-05,-3.439182420539311e-05,-4.312392701437084e-05,0.0004506700397088912,-0.00015004804482505113,-0.00010348473854522452,0.0002096859851082842,-2.6224465176888015e-05,0.0007266675873457392,0.4267818331718445,22.696680068969727,0.1491362750530243,-14.080232620239258,-0.04057842493057251,-2.1389803886413574,0.40591758489608765,0
22,0.1049947738647461,-0.3752071261405945,-22.696680068969727,-0.1253325641155243,14.056428909301758,0.03416973352432251,2.1325716972351074,-0.41324180364608765,0.0,0.0,0.0,0.0,0.0,0.0,0.0,-0.4234779968775493,0.0871251648014276,-0.21221755175850865,0.2232515473668542,-0.19711755730928532,-0.045468583459017525,-0.4096356038250759,1.6756479590859328,0.05208226581332179,0.02999492534132387,-2.7527085390758783,0.034329087118526655,2.766330993069543,0.7691968460167778,1.6754973547542302,0.052104326824870026,0.029969505109285054,-2.752394845125968,0.0342448039870148,2.7663679543071322,0.7691630533470046,-0.0013644640934784608,-0.00042646389172892646,-0.00030704912648428035,0.0006692447279606641,0.0001468249093258204,0.00038727204003532686,4.553379968960201e-06,0.0,0.0,0.0,0.0,0.0,0.0,0.0,-0.00015060433170255294,2.2061011548238363e-05,-2.5420232038816937e-05,0.0003136939499102098,-8.428313151185446e-05,3.696123758922809e-05,-3.3792669773213824e-05,0.0013644640934784608,0.00042646389172892646,0.00030704912648428035,-0.0006692447279606641,-0.0001468249093258204,-0.00038727204003532686,-4.553379968960201e-06,0.3752071261405945,22.696680068969727,0.1253325641155243,-14.056428909301758,-0.03416973352432251,-2.1325716972351074,0.41324180364608765,0
23,0.1111292839050293,-0.3752071261405945,-22.696680068969727,-0.1253325641155243,14.056428909301758,0.03416973352432251,2.1325716972351074,-0.41324180364608765,0.0,0.0,0.0,0.0,0.0,0.0,0.0,-0.4234779968775493,0.0871251648014276,-0.21221755175850865,0.2232515473668542,-0.19711755730928532,-0.045468583459017525,-0.4096356038250759,1.6756479590859328,0.05208226581332179,0.02999492534132387,-2.7527085390758783,0.034329087118526655,2.766330993069543,0.7691968460167778,1.6754973547542302,0.052104326824870026,0.029969505109285054,-2.752394845125968,0.0342448039870148,2.7663679543071322,0.7691630533470046,-0.0013644640934784608,-0.00042646389172892646,-0.00030704912648428035,0.0006692447279606641,0.0001468249093258204,0.00038727204003532686,4.553379968960201e-06,0.0,0.0,0.0,0.0,0.0,0.0,0.0,-0.00015060433170255294,2.2061011548238363e-05,-2.5420232038816937e-05,0.0003136939499102098,-8.428313151185446e-05,3.696123758922809e-05,-3.3792669773213824e-05,0.0013644640934784608,0.00042646389172892646,0.00030704912648428035,-0.0006692447279606641,-0.0001468249093258204,-0.00038727204003532686,-4.553379968960201e-06,0.3752071261405945,22.696680068969727,0.1253325641155243,-14.056428909301758,-0.03416973352432251,-2.1325716972351074,0.41324180364608765,0
24,0.11578202247619629,-0.3752071261405945,-22.772058486938477,-0.07375786453485489,14.131807327270508,0.03416973352432251,2.1453890800476074,-0.39218467473983765,0.0,0.0,0.0,0.0,0.0,0.0,0.0,-0.4174068357503302,0.08167195265959235,-0.20627481369904477,0.22376878281438103,-0.19752368699481365,-0.04536444860476111,-0.40848520718932196,1.6756479590859328,0.05208553671222014,0.029991314838266475,-2.752713803209244,0.03433299460234675,2.766329568915897,0.769192740431087,1.6754973547542302,0.052104326824870026,0.029969505109285054,-2.752394845125968,0.0342448039870148,2.7663679543071322,0.7691630533470046,-0.000410248037197577,0.0009765956168088564,-0.0008469621954862187,-0.0010563150716754628,7.812428482419462e-05,-0.00021824307953616231,-0.0004079196813919436,0.0,0.0,0.0,0.0,0.0,0.0,0.0,-0.00015060433170255294,1.8790112649887114e-05,-2.1809728981421472e-05,0.0003189580832758665,-8.8190615331947e-05,3.838539123535156e-05,-2.9687084082352655e-05,0.000410248037197577,-0.0009765956168088564,0.0008469621954862187,0.0010563150716754628,-7.812428482419462e-05,0.00021824307953616231,0.0004079196813919436,0.3752071261405945,22.772058486938477,0.07375786453485489,-14.131807327270508,-0.03416973352432251,-2.1453890800476074,0.39218467473983765,0
25,0.11998987197875977,-0.3752071261405945,-22.772058486938477,-0.07375786453485489,14.131807327270508,0.03416973352432251,2.1453890800476074,-0.39218467473983765,0.0,0.0,0.0,0.0,0.0,0.0,0.0,-0.4174068357503302,0.08167195265959235,-0.20627481369904477,0.22376878281438103,-0.19752368699481365,-0.04536444860476111,-0.40848520718932196,1.6756479590859328,0.05208553671222014,0.029991314838266475,-2.752713803209244,0.03433299460234675,2.766329568915897,0.769192740431087,1.6754973547542302,0.052104326824870026,0.029969505109285054,-2.752394845125968,0.0342448039870148,2.7663679543071322,0.7691630533470046,-0.000410248037197577,0.0009765956168088564,-0.0008469621954862187,-0.0010563150716754628,7.812428482419462e-05,-0.00021824307953616231,-0.0004079196813919436,0.0,0.0,0.0,0.0,0.0,0.0,0.0,-0.00015060433170255294,1.8790112649887114e-05,-2.1809728981421472e-05,0.0003189580832758665,-8.8190615331947e-05,3.838539123535156e-05,-2.9687084082352655e-05,0.000410248037197577,-0.0009765956168088564,0.0008469621954862187,0.0010563150716754628,-7.812428482419462e-05,0.00021824307953616231,0.0004079196813919436,0.3752071261405945,22.772058486938477,0.07375786453485489,-14.131807327270508,-0.03416973352432251,-2.1453890800476074,0.39218467473983765,0
26,0.12551069259643555,-0.4267818331718445,-22.772058486938477,-0.09756157547235489,14.080232620239258,0.03416973352432251,2.1389803886413574,-0.43338340520858765,0.0,0.0,0.0,0.0,0.0,0.0,0.0,-0.4180928528703464,0.08240420553551513,-0.2060491414544953,0.2179433801327747,-0.19740463798216543,-0.046190066985013926,-0.40832186293882616,1.6756515783636192,0.05208621484544299,0.02999510860787919,-2.7527101838965167,0.03433220817715086,2.7663302809927197,0.7692004950288406,1.6754973547542302,0.052104326824870026,0.029969505109285054,-2.752394845125968,0.0342448039870148,2.7663679543071322,0.7691630533470046,0.0005318015849680845,0.0009172575311207044,-0.0003821547454431996,0.00024899105449132085,-7.895340619848018e-06,-8.460614489971622e-05,0.0012432251816526844,0.0,0.0,0.0,0.0,0.0,0.0,0.0,-0.0001542236093889926,1.8111979427033742e-05,-2.5603498594137242e-05,0.00031533877054856774,-8.740419013605893e-05,3.767331441251187e-05,-3.744168183594798e-05,-0.0005318015849680845,-0.0009172575311207044,0.0003821547454431996,-0.00024899105449132085,7.895340619848018e-06,8.460614489971622e-05,-0.0012432251816526844,0.4267818331718445,22.772058486938477,0.09756157547235489,-14.080232620239258,-0.03416973352432251,-2.1389803886413574,0.43338340520858765,0
27,0.12999892234802246,-0.4267818331718445,-22.772058486938477,-0.09756157547235489,14.080232620239258,0.03416973352432251,2.1389803886413574,-0.43338340520858765,0.0,0.0,0.0,0.0,0.0,0.0,0.0,-0.4180928528703464,0.08240420553551513,-0.2060491414544953,0.2179433801327747,-0.19740463798216543,-0.046190066985013926,-0.40832186293882616,1.6756515783636192,0.05208621484544299,0.02999510860787919,-2.7527101838965167,0.03433220817715086,2.7663302809927197,0.7692004950288406,1.6754973547542302,0.052104326824870026,0.029969505109285054,-2.752394845125968,0.0342448039870148,2.7663679543071322,0.7691630533470046,0.0005318015849680845,0.0009172575311207044,-0.0003821547454431996,0.00024899105449132085,-7.895340619848018e-06,-8.460614489971622e-05,0.0012432251816526844,0.0,0.0,0.0,0.0,0.0,0.0,0.0,-0.0001542236093889926,1.8111979427033742e-05,-2.5603498594137242e-05,0.00031533877054856774,-8.740419013605893e-05,3.767331441251187e-05,-3.744168183594798e-05,-0.0005318015849680845,-0.0009172575311207044,0.0003821547454431996,-0.00024899105449132085,7.895340619848018e-06,8.460614489971622e-05,-0.0012432251816526844,0.4267818331718445,22.772058486938477,0.09756157547235489,-14.080232620239258,-0.03416973352432251,-2.1389803886413574,0.43338340520858765,0
28,0.1354966163635254,-0.4505855441093445,-22.649072647094727,-0.09756157547235489,14.056428909301758,0.03416973352432251,2.1389803886413574,-0.43979209661483765,0.0,0.0,0.0,0.0,0.0,0.0,0.0,-0.4152343719640886,0.08594570025173386,-0.20281708844257895,0.21328814807716953,-0.19760565369965136,-0.04679992948275845,-0.4079965795368694,1.6756532487994744,0.05207879388027013,0.02999297651205132,-2.7527085134956537,0.03433003995723294,2.7663302809927197,0.7691980257866257,1.6754973547542302,0.052104326824870026,0.029969505109285054,-2.752394845125968,0.0342448039870148,2.7663679543071322,0.7691630533470046,0.0010752075024070933,-0.0010668347249602687,-0.0004343868684021551,0.0002930857850326405,-8.00433394938168e-06,6.638036008625058e-05,0.0014738384647172364,0.0,0.0,0.0,0.0,0.0,0.0,0.0,-0.00015589404524418704,2.553294459989308e-05,-2.3471402766265387e-05,0.00031366836968560463,-8.523597021813795e-05,3.767331441251187e-05,-3.497243962102825e-05,-0.0010752075024070933,0.0010668347249602687,0.0004343868684021551,-0.0002930857850326405,8.00433394938168e-06,-6.638036008625058e-05,-0.0014738384647172364,0.4505855441093445,22.649072647094727,0.09756157547235489,-14.056428909301758,-0.03416973352432251,-2.1389803886413574,0.43979209661483765,0
29,0.14002656936645508,-0.4505855441093445,-22.649072647094727,-0.09756157547235489,14.056428909301758,0.03416973352432251,2.1389803886413574,-0.43979209661483765,0.0,0.0,0.0,0.0,0.0,0.0,0.0,-0.4152343719640886,0.08594570025173386,-0.20281708844257895,0.21328814807716953,-0.19760565369965136,-0.04679992948275845,-0.4079965795368694,1.6756532487994744,0.05207879388027013,0.02999297651205132,-2.7527085134956537,0.03433003995723294,2.7663302809927197,0.7691980257866257,1.6754973547542302,0.052104326824870026,0.029969505109285054,-2.752394845125968,0.0342448039870148,2.7663679543071322,0.7691630533470046,0.0010752075024070933,-0.0010668347249602687,-0.0004343868684021551,0.0002930857850326405,-8.00433394938168e-06,6.638036008625058e-05,0.0014738384647172364,0.0,0.0,0.0,0.0,0.0,0.0,0.0,-0.00015589404524418704,2.553294459989308e-05,-2.3471402766265387e-05,0.00031366836968560463,-8.523597021813795e-05,3.767331441251187e-05,-3.497243962102825e-05,-0.0010752075024070933,0.0010668347249602687,0.0004343868684021551,-0.0002930857850326405,8.00433394938168e-06,-6.638036008625058e-05,-0.0014738384647172364,0.4505855441093445,22.649072647094727,0.09756157547235489,-14.056428909301758,-0.03416973352432251,-2.1389803886413574,0.43979209661483765,0
30,0.14499449729919434,-0.4267818331718445,-22.696680068969727,-0.1253325641155243,14.080232620239258,0.03416973352432251,2.1389803886413574,-0.41324180364608765,0.0,0.0,0.0,0.0,0.0,0.0,0.0,-0.41825289649588315,0.09197771980218895,-0.20604938532343048,0.2122116614025675,-0.1972375401841938,-0.046844544399142964,-0.40798796764548206,1.6756515783636192,0.052079898331599525,0.029994925341323826,-2.7527101923997854,0.03433186331342761,2.7663302809927197,0.7691981005861567,1.6754973547542302,0.052104326824870026,0.029969505109285054,-2.752394845125968,0.0342448039870148,2.7663679543071322,0.7691630533470046,-0.00011232777513242993,0.0009798863868214901,-0.0005157326080333072,-0.00029038218058668525,5.1925208302986596e-05,3.9112758395505095e-05,-0.00033733954389962367,0.0,0.0,0.0,0.0,0.0,0.0,0.0,-0.0001542236093889926,2.4428493270500784e-05,-2.5420232038771834e-05,0.0003153472738173235,-8.705932641280695e-05,3.767331441251187e-05,-3.5047239152041776e-05,0.00011232777513242993,-0.0009798863868214901,0.0005157326080333072,0.00029038218058668525,-5.1925208302986596e-05,-3.9112758395505095e-05,0.00033733954389962367,0.4267818331718445,22.696680068969727,0.1253325641155243,-14.080232620239258,-0.03416973352432251,-2.1389803886413574,0.41324180364608765,0
31,0.14999914169311523,-0.4267818331718445,-22.696680068969727,-0.1253325641155243,14.080232620239258,0.03416973352432251,2.1389803886413574,-0.41324180364608765,0.0,0.0,0.0,0.0,0.0,0.0,0.0,-0.41825289649588315,0.09197771980218895,-0.20604938532343048,0.2122116614025675,-0.1972375401841938,-0.046844544399142964,-0.40798796764548206,1.6756515783636192,0.052079898331599525,0.029994925341323826,-2.7527101923997854,0.03433186331342761,2.7663302809927197,0.7691981005861567,1.6754973547542302,0.052104326824870026,0.029969505109285054,-2.752394845125968,0.0342448039870148,2.7663679543071322,0.7691630533470046,-0.00011232777513242993,0.0009798863868214901,-0.0005157326080333072,-0.00029038218058668525,5.1925208302986596e-05,3.9112758395505095e-05,-0.00033733954389962367,0.0,0.0,0.0,0.0,0.0,0.0,0.0,-0.0001542236093889926,2.4428493270500784e-05,-2.5420232038771834e-05,0.0003153472738173235,-8.705932641280695e-05,3.767331441251187e-05,-3.5047239152041776e-05,0.00011232777513242993,-0.0009798863868214901,0.0005157326080333072,0.00029038218058668525,-5.1925208302986596e-05,-3.9112758395505095e-05,0.00033733954389962367,0.4267818331718445,22.696680068969727,0.1253325641155243,-14.080232620239258,-0.03416973352432251,-2.1389803886413574,0.41324180364608765,0
32,0.1549820899963379,-0.4267818331718445,-22.748254776000977,-0.1491362750530243,14.056428909301758,0.02867656946182251,2.1453890800476074,-0.37204307317733765,0.0,0.0,0.0,0.0,0.0,0.0,0.0,-0.41719556471911917,0.0886731131878182,-0.20532656797178414,0.21888394342220652,-0.19726884631227065,-0.045023648700552484,-0.40989627887121804,1.6756515783636192,0.052084224826428535,0.029996595777179065,-2.752708513460709,0.03432926924409355,2.766329568915897,0.7691936813915102,1.6754973547542302,0.052104326824870026,0.029969505109285054,-2.752394845125968,0.0342448039870148,2.7663679543071322,0.7691630533470046,-0.00022076451409770392,0.001410751218334616,0.0005731600585878124,0.000605732868708878,0.0005631163577456173,-9.803837081021147e-05,-0.0016017015665410188,0.0,0.0,0.0,0.0,0.0,0.0,0.0,-0.0001542236093889926,2.0101998441490743e-05,-2.7090667894011378e-05,0.0003136683347411129,-8.446525707875296e-05,3.838539123535156e-05,-3.062804450559842e-05,0.00022076451409770392,-0.001410751218334616,-0.0005731600585878124,-0.000605732868708878,-0.0005631163577456173,9.803837081021147e-05,0.0016017015665410188,0.4267818331718445,22.748254776000977,0.1491362750530243,-14.056428909301758,-0.02867656946182251,-2.1453890800476074,0.37204307317733765,0
33,0.16000103950500488,-0.4267818331718445,-22.748254776000977,-0.1491362750530243,14.056428909301758,0.02867656946182251,2.1453890800476074,-0.37204307317733765,0.0,0.0,0.0,0.0,0.0,0.0,0.0,-0.41719556471911917,0.0886731131878182,-0.20532656797178414,0.21888394342220652,-0.19726884631227065,-0.045023648700552484,-0.40989627887121804,1.6756515783636192,0.052084224826428535,0.029996595777179065,-2.752708513460709,0.03432926924409355,2.766329568915897,0.7691936813915102,1.6754973547542302,0.052104326824870026,0.029969505109285054,-2.752394845125968,0.0342448039870148,2.7663679543071322,0.7691630533470046,-0.00022076451409770392,0.001410751218334616,0.0005731600585878124,0.000605732868708878,0.0005631163577456173,-9.803837081021147e-05,-0.0016017015665410188,0.0,0.0,0.0,0.0,0.0,0.0,0.0,-0.0001542236093889926,2.0101998441490743e-05,-2.7090667894011378e-05,0.0003136683347411129,-8.446525707875296e-05,3.838539123535156e-05,-3.062804450559842e-05,0.00022076451409770392,-0.001410751218334616,-0.0005731600585878124,-0.000605732868708878,-0.0005631163577456173,9.803837081021147e-05,0.0016017015665410188,0.4267818331718445,22.748254776000977,0.1491362750530243,-14.056428909301758,-0.02867656946182251,-2.1453890800476074,0.37204307317733765,0
34,0.16495203971862793,-0.4029781222343445,-22.720483779907227,-0.1253325641155243,14.080232620239258,0.03416973352432251,2.1389803886413574,-0.39218467473983765,0.0,0.0,0.0,0.0,0.0,0.0,0.0,-0.4189283020860923,0.09376094960172326,-0.2066659942793911,0.21629631329075483,-0.19698931155140761,-0.04469899356618054,-0.40832493430623973,1.6756499079277638,0.052081644656957325,0.02999500430827988,-2.7527101842114523,0.034333248794341686,2.7663302809927197,0.7691948592254877,1.6754973547542302,0.052104326824870026,0.029969505109285054,-2.752394845125968,0.0342448039870148,2.7663679543071322,0.7691630533470046,-0.0002772759568725913,0.0003208814317840312,-0.00015181087130171838,0.000320669504979557,0.00017351759562906857,0.0001471691856254876,-0.0003532774623379229,0.0,0.0,0.0,0.0,0.0,0.0,0.0,-0.00015255317353357611,2.2682167912700668e-05,-2.5499198994825834e-05,0.00031533908548420087,-8.844480732688592e-05,3.767331441251187e-05,-3.1805878483059935e-05,0.0002772759568725913,-0.0003208814317840312,0.00015181087130171838,-0.000320669504979557,-0.00017351759562906857,-0.0001471691856254876,0.0003532774623379229,0.4029781222343445,22.720483779907227,0.1253325641155243,-14.080232620239258,-0.03416973352432251,-2.1389803886413574,0.39218467473983765,0
35,0.16999173164367676,-0.4029781222343445,-22.720483779907227,-0.1253325641155243,14.080232620239258,0.03416973352432251,2.1389803886413574,-0.39218467473983765,0.0,0.0,0.0,0.0,0.0,0.0,0.0,-0.4189283020860923,0.09376094960172326,-0.2066659942793911,0.21629631329075483,-0.19698931155140761,-0.04469899356618054,-0.40832493430623973,1.6756499079277638,0.052081644656957325,0.02999500430827988,-2.7527101842114523,0.034333248794341686,2.7663302809927197,0.7691948592254877,1.6754973547542302,0.052104326824870026,0.029969505109285054,-2.752394845125968,0.0342448039870148,2.7663679543071322,0.7691630533470046,-0.0002772759568725913,0.0003208814317840312,-0.00015181087130171838,0.000320669504979557,0.00017351759562906857,0.0001471691856254876,-0.0003532774623379229,0.0,0.0,0.0,0.0,0.0,0.0,0.0,-0.00015255317353357611,2.2682167912700668e-05,-2.5499198994825834e-05,0.00031533908548420087,-8.844480732688592e-05,3.767331441251187e-05,-3.1805878483059935e-05,0.0002772759568725913,-0.0003208814317840312,0.00015181087130171838,-0.000320669504979557,-0.00017351759562906857,-0.0001471691856254876,0.0003532774623379229,0.4029781222343445,22.720483779907227,0.1253325641155243,-14.080232620239258,-0.03416973352432251,-2.1389803886413574,0.39218467473983765,0
36,0.17511367797851562,-0.4029781222343445,-22.720483779907227,-0.1253325641155243,14.080232620239258,0.03416973352432251,2.1389803886413574,-0.39218467473983765,0.0,0.0,0.0,0.0,0.0,0.0,0.0,-0.4189283020860923,0.09376094960172326,-0.2066659942793911,0.21629631329075483,-0.19698931155140761,-0.04469899356618054,-0.40832493430623973,1.6756499079277638,0.052081644656957325,0.02999500430827988,-2.7527101842114523,0.034333248794341686,2.7663302809927197,0.7691948592254877,1.6754973547542302,0.052104326824870026,0.029969505109285054,-2.752394845125968,0.0342448039870148,2.7663679543071322,0.7691630533470046,-0.0002772759568725913,0.0003208814317840312,-0.00015181087130171838,0.000320669504979557,0.00017351759562906857,0.0001471691856254876,-0.0003532774623379229,0.0,0.0,0.0,0.0,0.0,0.0,0.0,-0.00015255317353357611,2.2682167912700668e-05,-2.5499198994825834e-05,0.00031533908548420087,-8.844480732688592e-05,3.767331441251187e-05,-3.1805878483059935e-05,0.0002772759568725913,-0.0003208814317840312,0.00015181087130171838,-0.000320669504979557,-0.00017351759562906857,-0.0001471691856254876,0.0003532774623379229,0.4029781222343445,22.720483779907227,0.1253325641155243,-14.080232620239258,-0.03416973352432251,-2.1389803886413574,0.39218467473983765,0
37,0.18000102043151855,-0.4029781222343445,-22.720483779907227,-0.1253325641155243,14.080232620239258,0.03416973352432251,2.1389803886413574,-0.39218467473983765,0.0,0.0,0.0,0.0,0.0,0.0,0.0,-0.4189283020860923,0.09376094960172326,-0.2066659942793911,0.21629631329075483,-0.19698931155140761,-0.04469899356618054,-0.40832493430623973,1.6756499079277638,0.052081644656957325,0.02999500430827988,-2.7527101842114523,0.034333248794341686,2.7663302809927197,0.7691948592254877,1.6754973547542302,0.052104326824870026,0.029969505109285054,-2.752394845125968,0.0342448039870148,2.7663679543071322,0.7691630533470046,-0.0002772759568725913,0.0003208814317840312,-0.00015181087130171838,0.000320669504979557,0.00017351759562906857,0.0001471691856254876,-0.0003532774623379229,0.0,0.0,0.0,0.0,0.0,0.0,0.0,-0.00015255317353357611,2.2682167912700668e-05,-2.5499198994825834e-05,0.00031533908548420087,-8.844480732688592e-05,3.767331441251187e-05,-3.1805878483059935e-05,0.0002772759568725913,-0.0003208814317840312,0.00015181087130171838,-0.000320669504979557,-0.00017351759562906857,-0.0001471691856254876,0.0003532774623379229,0.4029781222343445,22.720483779907227,0.1253325641155243,-14.080232620239258,-0.03416973352432251,-2.1389803886413574,0.39218467473983765,0
38,0.18499517440795898,-0.4267818331718445,-22.748254776000977,-0.1253325641155243,14.080232620239258,0.02867656946182251,2.1389803886413574,-0.38577598333358765,0.0,0.0,0.0,0.0,0.0,0.0,0.0,-0.4195355637031334,0.09773132577150012,-0.20896395105757787,0.21084915876532925,-0.19677981958035473,-0.0459522867200966,-0.407099345306584,1.6756515783636192,0.052086358615906346,0.029994928266471647,-2.7527101838965184,0.034333973114633924,2.7663302809927197,0.7691941476271971,1.6754973547542302,0.052104326824870026,0.029969505109285054,-2.752394845125968,0.0342448039870148,2.7663679543071322,0.7691630533470046,-7.524376824815518e-06,0.0009364680400192331,0.0002768252835917405,0.00045065897267178626,0.0001016554157082724,0.0038091651910815726,-0.0003084038341077217,0.0,0.0,0.0,0.0,0.0,0.0,0.0,-0.0001542236093889926,1.7968208963679844e-05,-2.5423157186593714e-05,0.0003153387705503441,-8.916912761912366e-05,3.767331441251187e-05,-3.10942801924341e-05,7.524376824815518e-06,-0.0009364680400192331,-0.0002768252835917405,-0.00045065897267178626,-0.0001016554157082724,-0.0038091651910815726,0.0003084038341077217,0.4267818331718445,22.748254776000977,0.1253325641155243,-14.080232620239258,-0.02867656946182251,-2.1389803886413574,0.38577598333358765,0
39,0.1900179386138916,-0.4267818331718445,-22.748254776000977,-0.1253325641155243,14.080232620239258,0.02867656946182251,2.1389803886413574,-0.38577598333358765,0.0,0.0,0.0,0.0,0.0,0.0,0.0,-0.4195355637031334,0.09773132577150012,-0.20896395105757787,0.21084915876532925,-0.19677981958035473,-0.0459522867200966,-0.407099345306584,1.6756515783636192,0.052086358615906346,0.029994928266471647,-2.7527101838965184,0.034333973114633924,2.7663302809927197,0.7691941476271971,1.6754973547542302,0.052104326824870026,0.029969505109285054,-2.752394845125968,0.0342448039870148,2.7663679543071322,0.7691630533470046,-7.524376824815518e-06,0.0009364680400192331,0.0002768252835917405,0.00045065897267178626,0.0001016554157082724,0.0038091651910815726,-0.0003084038341077217,0.0,0.0,0.0,0.0,0.0,0.0,0.0,-0.0001542236093889926,1.7968208963679844e-05,-2.5423157186593714e-05,0.0003153387705503441,-8.916912761912366e-05,3.767331441251187e-05,-3.10942801924341e-05,7.524376824815518e-06,-0.0009364680400192331,-0.0002768252835917405,-0.00045065897267178626,-0.0001016554157082724,-0.0038091651910815726,0.0003084038341077217,0.4267818331718445,22.748254776000977,0.1253325641155243,-14.080232620239258,-0.02867656946182251,-2.1389803886413574,0.38577598333358765,0
40,0.19499516487121582,-0.3752071261405945,-22.672876358032227,-0.1253325641155243,14.056428909301758,0.03416973352432251,2.1389803886413574,-0.42605918645858765,0.0,0.0,0.0,0.0,0.0,0.0,0.0,-0.4218757198346345,0.09153394001904609,-0.20910089575793364,0.21466288212289958,-0.19719462966944087,-0.04460280447745487,-0.4064050466306873,1.6756479590859328,0.05208107487223045,0.029994925341340312,-2.752708538970468,0.0343334070958617,2.7663302809927197,0.7691996700948353,1.6754973547542302,0.052104326824870026,0.029969505109285054,-2.752394845125968,0.0342448039870148,2.7663679543071322,0.7691630533470046,-0.001205739652876122,-0.0011104416882903787,-0.00015196470746661872,0.0008341572815708598,0.0002579969678237784,0.00013334003135834506,0.0013564516601212995,0.0,0.0,0.0,0.0,0.0,0.0,0.0,-0.00015060433170255294,2.3251952639573303e-05,-2.5420232055258646e-05,0.0003136938444998627,-8.860310884689637e-05,3.767331441251187e-05,-3.661674783062008e-05,0.001205739652876122,0.0011104416882903787,0.00015196470746661872,-0.0008341572815708598,-0.0002579969678237784,-0.00013334003135834506,-0.0013564516601212995,0.3752071261405945,22.672876358032227,0.1253325641155243,-14.056428909301758,-0.03416973352432251,-2.1389803886413574,0.42605918645858765,0
41,0.2000131607055664,-0.3752071261405945,-22.672876358032227,-0.1253325641155243,14.056428909301758,0.03416973352432251,2.1389803886413574,-0.42605918645858765,0.0,0.0,0.0,0.0,0.0,0.0,0.0,-0.4218757198346345,0.09153394001904609,-0.20910089575793364,0.21466288212289958,-0.19719462966944087,-0.04460280447745487,-0.4064050466306873,1.6756479590859328,0.05208107487223045,0.029994925341340312,-2.752708538970468,0.0343334070958617,2.7663302809927197,0.7691996700948353,1.6754973547542302,0.052104326824870026,0.029969505109285054,-2.752394845125968,0.0342448039870148,2.7663679543071322,0.7691630533470046,-0.001205739652876122,-0.0011104416882903787,-0.00015196470746661872,0.0008341572815708598,0.0002579969678237784,0.00013334003135834506,0.0013564516601212995,0.0,0.0,0.0,0.0,0.0,0.0,0.0,-0.00015060433170255294,2.3251952639573303e-05,-2.5420232055258646e-05,0.0003136938444998627,-8.860310884689637e-05,3.767331441251187e-05,-3.661674783062008e-05,0.001205739652876122,0.0011104416882903787,0.00015196470746661872,-0.0008341572815708598,-0.0002579969678237784,-0.00013334003135834506,-0.0013564516601212995,0.3752071261405945,22.672876358032227,0.1253325641155243,-14.056428909301758,-0.03416973352432251,-2.1389803886413574,0.42605918645858765,0
42,0.20500659942626953,-0.4267818331718445,-22.696680068969727,-0.09756157547235489,14.108003616333008,0.04607158899307251,2.1389803886413574,-0.44711631536483765,0.0,0.0,0.0,0.0,0.0,0.0,0.0,-0.42227421251555686,0.08885941105934927,-0.20831526753431892,0.21806227731255265,-0.19681195193377807,-0.04394605453796738,-0.4050861764180422,1.6756515783636192,0.05208273740519701,0.02999297650001551,-2.7527121582482983,0.03433062040776774,2.7663302809927197,0.7692020207641124,1.6754973547542302,0.052104326824870026,0.029969505109285054,-2.752394845125968,0.0342448039870148,2.7663679543071322,0.7691630533470046,0.0001357719772447239,0.0001472211983811081,-0.00047307467411112324,-0.0006163772271869182,-0.0003841672774926511,-0.00012896976064720564,0.0016651044589067819,0.0,0.0,0.0,0.0,0.0,0.0,0.0,-0.0001542236093889926,2.1589419673014032e-05,-2.3471390730455538e-05,0.00031731312233018727,-8.581642075294188e-05,3.767331441251187e-05,-3.89674171077381e-05,-0.0001357719772447239,-0.0001472211983811081,0.00047307467411112324,0.0006163772271869182,0.0003841672774926511,0.00012896976064720564,-0.0016651044589067819,0.4267818331718445,22.696680068969727,0.09756157547235489,-14.108003616333008,-0.04607158899307251,-2.1389803886413574,0.44711631536483765,0
43,0.21003508567810059,-0.4267818331718445,-22.696680068969727,-0.09756157547235489,14.108003616333008,0.04607158899307251,2.1389803886413574,-0.44711631536483765,0.0,0.0,0.0,0.0,0.0,0.0,0.0,-0.42227421251555686,0.08885941105934927,-0.20831526753431892,0.21806227731255265,-0.19681195193377807,-0.04394605453796738,-0.4050861764180422,1.6756515783636192,0.05208273740519701,0.02999297650001551,-2.7527121582482983,0.03433062040776774,2.7663302809927197,0.7692020207641124,1.6754973547542302,0.052104326824870026,0.029969505109285054,-2.752394845125968,0.0342448039870148,2.7663679543071322,0.7691630533470046,0.0001357719772447239,0.0001472211983811081,-0.00047307467411112324,-0.0006163772271869182,-0.0003841672774926511,-0.00012896976064720564,0.0016651044589067819,0.0,0.0,0.0,0.0,0.0,0.0,0.0,-0.0001542236093889926,2.1589419673014032e-05,-2.3471390730455538e-05,0.00031731312233018727,-8.581642075294188e-05,3.767331441251187e-05,-3.89674171077381e-05,-0.0001357719772447239,-0.0001472211983811081,0.00047307467411112324,0.0006163772271869182,0.0003841672774926511,0.00012896976064720564,-0.0016651044589067819,0.4267818331718445,22.696680068969727,0.09756157547235489,-14.108003616333008,-0.04607158899307251,-2.1389803886413574,0.44711631536483765,0
44,0.21501994132995605,-0.4029781222343445,-22.672876358032227,-0.1253325641155243,14.108003616333008,0.03416973352432251,2.1582064628601074,-0.43979209661483765,0.0,0.0,0.0,0.0,0.0,0.0,0.0,-0.4172405753093279,0.08759217087107068,-0.20388064661128658,0.21471482671688466,-0.19695689316740062,-0.044796340207678635,-0.4062738897330017,1.6756499079277638,0.05207904147554515,0.0299949253413238,-2.7527123708300216,0.03433340578873564,2.766328144762251,0.7692012040549905,1.6754973547542302,0.052104326824870026,0.029969505109285054,-2.752394845125968,0.0342448039870148,2.7663679543071322,0.7691630533470046,-1.0077538303379016e-05,-0.0005952425545064251,0.0005048371066539292,-0.0009571436925341979,8.04758293977909e-05,-0.0007724227073769545,0.0010603580742004255,0.0,0.0,0.0,0.0,0.0,0.0,0.0,-0.00015255317353357611,2.5285349324874473e-05,-2.5420232038747548e-05,0.00031752570405352287,-8.86018017208362e-05,3.9809544881030945e-05,-3.8150707985851184e-05,1.0077538303379016e-05,0.0005952425545064251,-0.0005048371066539292,0.0009571436925341979,-8.04758293977909e-05,0.0007724227073769545,-0.0010603580742004255,0.4029781222343445,22.672876358032227,0.1253325641155243,-14.108003616333008,-0.03416973352432251,-2.1582064628601074,0.43979209661483765,0
45,0.2200179100036621,-0.4029781222343445,-22.672876358032227,-0.1253325641155243,14.108003616333008,0.03416973352432251,2.1582064628601074,-0.43979209661483765,0.0,0.0,0.0,0.0,0.0,0.0,0.0,-0.4172405753093279,0.08759217087107068,-0.20388064661128658,0.21471482671688466,-0.19695689316740062,-0.044796340207678635,-0.4062738897330017,1.6756499079277638,0.05207904147554515,0.0299949253413238,-2.7527123708300216,0.03433340578873564,2.766328144762251,0.7692012040549905,1.6754973547542302,0.052104326824870026,0.029969505109285054,-2.752394845125968,0.0342448039870148,2.7663679543071322,0.7691630533470046,-1.0077538303379016e-05,-0.0005952425545064251,0.0005048371066539292,-0.0009571436925341979,8.04758293977909e-05,-0.0007724227073769545,0.0010603580742004255,0.0,0.0,0.0,0.0,0.0,0.0,0.0,-0.00015255317353357611,2.5285349324874473e-05,-2.5420232038747548e-05,0.00031752570405352287,-8.86018017208362e-05,3.9809544881030945e-05,-3.8150707985851184e-05,1.0077538303379016e-05,0.0005952425545064251,-0.0005048371066539292,0.0009571436925341979,-8.04758293977909e-05,0.0007724227073769545,-0.0010603580742004255,0.4029781222343445,22.672876358032227,0.1253325641155243,-14.108003616333008,-0.03416973352432251,-2.1582064628601074,0.43979209661483765,0
46,0.22499632835388184,-0.4267818331718445,-22.720483779907227,-0.1253325641155243,14.080232620239258,0.02867656946182251,2.1389803886413574,-0.42605918645858765,0.0,0.0,0.0,0.0,0.0,0.0,0.0,-0.4182037102488526,0.08485767205983122,-0.2045709801290215,0.2190936044044402,-0.1965423181811233,-0.04389290985295729,-0.4079502258030637,1.6756515783636192,0.05208370858332965,0.02999516321709273,-2.7527101838978605,0.03433277972010736,2.7663302809927197,0.7691996817291907,1.6754973547542302,0.052104326824870026,0.029969505109285054,-2.752394845125968,0.0342448039870148,2.7663679543071322,0.7691630533470046,0.0004739926182797527,0.0005149274454044844,0.0003012062499396024,2.518205301428492e-05,0.0002394004820511732,2.3553499988187574e-05,0.0010486646950962335,0.0,0.0,0.0,0.0,0.0,0.0,0.0,-0.0001542236093889926,2.0618241540378002e-05,-2.56581078076773e-05,0.0003153387718923817,-8.79757330925629e-05,3.767331441251187e-05,-3.6628382186099095e-05,-0.0004739926182797527,-0.0005149274454044844,-0.0003012062499396024,-2.518205301428492e-05,-0.0002394004820511732,-2.3553499988187574e-05,-0.0010486646950962335,0.4267818331718445,22.720483779907227,0.1253325641155243,-14.080232620239258,-0.02867656946182251,-2.1389803886413574,0.42605918645858765,0
47,0.2299938201904297,-0.4267818331718445,-22.720483779907227,-0.1253325641155243,14.080232620239258,0.02867656946182251,2.1389803886413574,-0.42605918645858765,0.0,0.0,0.0,0.0,0.0,0.0,0.0,-0.4182037102488526,0.08485767205983122,-0.2045709801290215,0.2190936044044402,-0.1965423181811233,-0.04389290985295729,-0.4079502258030637,1.6756515783636192,0.05208370858332965,0.02999516321709273,-2.7527101838978605,0.03433277972010736,2.7663302809927197,0.7691996817291907,1.6754973547542302,0.052104326824870026,0.029969505109285054,-2.752394845125968,0.0342448039870148,2.7663679543071322,0.7691630533470046,0.0004739926182797527,0.0005149274454044844,0.0003012062499396024,2.518205301428492e-05,0.0002394004820511732,2.3553499988187574e-05,0.0010486646950962335,0.0,0.0,0.0,0.0,0.0,0.0,0.0,-0.0001542236093889926,2.0618241540378002e-05,-2.56581078076773e-05,0.0003153387718923817,-8.79757330925629e-05,3.767331441251187e-05,-3.6628382186099095e-05,-0.0004739926182797527,-0.0005149274454044844,-0.0003012062499396024,-2.518205301428492e-05,-0.0002394004820511732,-2.3553499988187574e-05,-0.0010486646950962335,0.4267818331718445,22.720483779907227,0.1253325641155243,-14.080232620239258,-0.02867656946182251,-2.1389803886413574,0.42605918645858765,0
48,0.23500561714172363,-0.4267818331718445,-22.672876358032227,-0.09756157547235489,14.108003616333008,0.04057842493057251,2.1325716972351074,-0.43979209661483765,0.0,0.0,0.0,0.0,0.0,0.0,0.0,-0.41821213286344455,0.09135514439508598,-0.2045466735758472,0.21893211635416088,-0.19653267245423414,-0.04443620489658974,-0.4067553820026881,1.6756515783636192,0.05207823472395722,0.029992976501358324,-2.7527121327383477,0.03433216253937258,2.766330993069543,0.7692012089001616,1.6754973547542302,0.052104326824870026,0.029969505109285054,-2.752394845125968,0.0342448039870148,2.7663679543071322,0.7691630533470046,-5.551438360880409e-07,-0.0002004150072213801,-0.00020298006985890505,-0.0003981701245937138,-5.905978171406157e-05,0.00021721958877761748,0.0016149435122721457,0.0,0.0,0.0,0.0,0.0,0.0,0.0,-0.0001542236093889926,2.6092100912804284e-05,-2.3471392073270286e-05,0.0003172876123795909,-8.735855235778023e-05,3.696123758922809e-05,-3.815555315700436e-05,5.551438360880409e-07,0.0002004150072213801,0.00020298006985890505,0.0003981701245937138,5.905978171406157e-05,-0.00021721958877761748,-0.0016149435122721457,0.4267818331718445,22.672876358032227,0.09756157547235489,-14.108003616333008,-0.04057842493057251,-2.1325716972351074,0.43979209661483765,0
49,0.2400038242340088,-0.4267818331718445,-22.672876358032227,-0.09756157547235489,14.108003616333008,0.04057842493057251,2.1325716972351074,-0.43979209661483765,0.0,0.0,0.0,0.0,0.0,0.0,0.0,-0.41821213286344455,0.09135514439508598,-0.2045466735758472,0.21893211635416088,-0.19653267245423414,-0.04443620489658974,-0.4067553820026881,1.6756515783636192,0.05207823472395722,0.029992976501358324,-2.7527121327383477,0.03433216253937258,2.766330993069543,0.7692012089001616,1.6754973547542302,0.052104326824870026,0.029969505109285054,-2.752394845125968,0.0342448039870148,2.7663679543071322,0.7691630533470046,-5.551438360880409e-07,-0.0002004150072213801,-0.00020298006985890505,-0.0003981701245937138,-5.905978171406157e-05,0.00021721958877761748,0.0016149435122721457,0.0,0.0,0.0,0.0,0.0,0.0,0.0,-0.0001542236093889926,2.6092100912804284e-05,-2.3471392073270286e-05,0.0003172876123795909,-8.735855235778023e-05,3.696123758922809e-05,-3.815555315700436e-05,5.551438360880409e-07,0.0002004150072213801,0.00020298006985890505,0.0003981701245937138,5.905978171406157e-05,-0.00021721958877761748,-0.0016149435122721457,0.4267818331718445,22.672876358032227,0.09756157547235489,-14.108003616333008,-0.04057842493057251,-2.1325716972351074,0.43979209661483765,0
50,0.24499797821044922,-0.4267818331718445,-22.696680068969727,-0.1491362750530243,14.108003616333008,0.03416973352432251,2.1197543144226074,-0.43979209661483765,0.0,0.0,0.0,0.0,0.0,0.0,0.0,-0.42190276380005337,0.09336516989501577,-0.20229932965641498,0.21881164258765523,-0.19638209189180128,-0.04484057244409292,-0.40631363647226443,1.6756515783636192,0.052079906952091894,0.029998727884993224,-2.7527121327383477,0.03433336779501249,2.7663324172231887,0.7692012090616746,1.6754973547542302,0.052104326824870026,0.029969505109285054,-2.752394845125968,0.0342448039870148,2.7663679543071322,0.7691630533470046,-0.00011678331874745409,0.00030862601338161667,0.0008654082614658764,-0.0009462851770517819,0.00013107188404155884,0.0005514005799470967,0.0013964528441486688,0.0,0.0,0.0,0.0,0.0,0.0,0.0,-0.0001542236093889926,2.4419872778132234e-05,-2.9222775708170196e-05,0.0003172876123795909,-8.856380799768943e-05,3.553708394354871e-05,-3.815571466991852e-05,0.00011678331874745409,-0.00030862601338161667,-0.0008654082614658764,0.0009462851770517819,-0.00013107188404155884,-0.0005514005799470967,-0.0013964528441486688,0.4267818331718445,22.696680068969727,0.1491362750530243,-14.108003616333008,-0.03416973352432251,-2.1197543144226074,0.43979209661483765,0
51,0.25002598762512207,-0.4267818331718445,-22.696680068969727,-0.1491362750530243,14.108003616333008,0.03416973352432251,2.1197543144226074,-0.43979209661483765,0.0,0.0,0.0,0.0,0.0,0.0,0.0,-0.42190276380005337,0.09336516989501577,-0.20229932965641498,0.21881164258765523,-0.19638209189180128,-0.04484057244409292,-0.40631363647226443,1.6756515783636192,0.052079906952091894,0.029998727884993224,-2.7527121327383477,0.03433336779501249,2.7663324172231887,0.7692012090616746,1.6754973547542302,0.052104326824870026,0.029969505109285054,-2.752394845125968,0.0342448039870148,2.7663679543071322,0.7691630533470046,-0.00011678331874745409,0.00030862601338161667,0.0008654082614658764,-0.0009462851770517819,0.00013107188404155884,0.0005514005799470967,0.0013964528441486688,0.0,0.0,0.0,0.0,0.0,0.0,0.0,-0.0001542236093889926,2.4419872778132234e-05,-2.9222775708170196e-05,0.0003172876123795909,-8.856380799768943e-05,3.553708394354871e-05,-3.815571466991852e-05,0.00011678331874745409,-0.00030862601338161667,-0.0008654082614658764,0.0009462851770517819,-0.00013107188404155884,-0.0005514005799470967,-0.0013964528441486688,0.4267818331718445,22.696680068969727,0.1491362750530243,-14.108003616333008,-0.03416973352432251,-2.1197543144226074,0.43979209661483765,0
52,0.25502514839172363,-0.4029781222343445,-22.672876358032227,-0.1253325641155243,14.080232620239258,0.04607158899307251,2.1453890800476074,-0.36471885442733765,0.0,0.0,0.0,0.0,0.0,0.0,0.0,-0.4257293287074948,0.08161536386682504,-0.2049068251191462,0.2270624855249332,-0.1965139356880435,-0.04408243456061045,-0.40760959227061183,1.6756499079277638,0.05208038297157985,0.029994925345335738,-2.75271247977913,0.03433203075456631,2.766329568915897,0.7691928152625125,1.6754973547542302,0.052104326824870026,0.029969505109285054,-2.752394845125968,0.0342448039870148,2.7663679543071322,0.7691630533470046,-0.0006253164119834416,-0.0013319935399581997,-0.0003048010996141368,-0.00019224563755646846,-0.0005594115720947802,-0.005075886395169069,-0.0018485756518315346,0.0,0.0,0.0,0.0,0.0,0.0,0.0,-0.00015255317353357611,2.3943853290173123e-05,-2.5420236050684164e-05,0.0003176346531619245,-8.722676755151121e-05,3.838539123535156e-05,-2.976191550785323e-05,0.0006253164119834416,0.0013319935399581997,0.0003048010996141368,0.00019224563755646846,0.0005594115720947802,0.005075886395169069,0.0018485756518315346,0.4029781222343445,22.672876358032227,0.1253325641155243,-14.080232620239258,-0.04607158899307251,-2.1453890800476074,0.36471885442733765,0
53,0.2600219249725342,-0.4029781222343445,-22.672876358032227,-0.1253325641155243,14.080232620239258,0.04607158899307251,2.1453890800476074,-0.36471885442733765,0.0,0.0,0.0,0.0,0.0,0.0,0.0,-0.4257293287074948,0.08161536386682504,-0.2049068251191462,0.2270624855249332,-0.1965139356880435,-0.04408243456061045,-0.40760959227061183,1.6756499079277638,0.05208038297157985,0.029994925345335738,-2.75271247977913,0.03433203075456631,2.766329568915897,0.7691928152625125,1.6754973547542302,0.052104326824870026,0.029969505109285054,-2.752394845125968,0.0342448039870148,2.7663679543071322,0.7691630533470046,-0.0006253164119834416,-0.0013319935399581997,-0.0003048010996141368,-0.00019224563755646846,-0.0005594115720947802,-0.005075886395169069,-0.0018485756518315346,0.0,0.0,0.0,0.0,0.0,0.0,0.0,-0.00015255317353357611,2.3943853290173123e-05,-2.5420236050684164e-05,0.0003176346531619245,-8.722676755151121e-05,3.838539123535156e-05,-2.976191550785323e-05,0.0006253164119834416,0.0013319935399581997,0.0003048010996141368,0.00019224563755646846,0.0005594115720947802,0.005075886395169069,0.0018485756518315346,0.4029781222343445,22.672876358032227,0.1253325641155243,-14.080232620239258,-0.04607158899307251,-2.1453890800476074,0.36471885442733765,0
54,0.26500701904296875,-0.4505855441093445,-22.696680068969727,-0.1253325641155243,14.080232620239258,0.04057842493057251,2.1453890800476074,-0.37204307317733765,0.0,0.0,0.0,0.0,0.0,0.0,0.0,-0.42201210703725495,0.08749780057919111,-0.20355472499909025,0.21869278400941786,-0.19729952421143002,-0.04560943736108531,-0.4058901209902588,1.6756532487994744,0.052082983041441044,0.029995004308279904,-2.752710183909477,0.03432843133821746,2.766329568915897,0.7691904893957691,1.6754973547542302,0.052104326824870026,0.029969505109285054,-2.752394845125968,0.0342448039870148,2.7663679543071322,0.7691630533470046,0.0007237578930958916,-0.00041400033197098074,0.00045581204889145305,9.702460843778945e-05,-5.225054029788881e-05,-0.0003133267121446404,-0.0012774541733072378,0.0,0.0,0.0,0.0,0.0,0.0,0.0,-0.00015589404524418704,2.1343783428981467e-05,-2.549919899485012e-05,0.00031533878350886724,-8.362735120266002e-05,3.838539123535156e-05,-2.7436048764428733e-05,-0.0007237578930958916,0.00041400033197098074,-0.00045581204889145305,-9.702460843778945e-05,5.225054029788881e-05,0.0003133267121446404,0.0012774541733072378,0.4505855441093445,22.696680068969727,0.1253325641155243,-14.080232620239258,-0.04057842493057251,-2.1453890800476074,0.37204307317733765,0
55,0.26999592781066895,-0.4505855441093445,-22.696680068969727,-0.1253325641155243,14.080232620239258,0.04057842493057251,2.1453890800476074,-0.37204307317733765,0.0,0.0,0.0,0.0,0.0,0.0,0.0,-0.42201210703725495,0.08749780057919111,-0.20355472499909025,0.21869278400941786,-0.19729952421143002,-0.04560943736108531,-0.4058901209902588,1.6756532487994744,0.052082983041441044,0.029995004308279904,-2.752710183909477,0.03432843133821746,2.766329568915897,0.7691904893957691,1.6754973547542302,0.052104326824870026,0.029969505109285054,-2.752394845125968,0.0342448039870148,2.7663679543071322,0.7691630533470046,0.0007237578930958916,-0.00041400033197098074,0.00045581204889145305,9.702460843778945e-05,-5.225054029788881e-05,-0.0003133267121446404,-0.0012774541733072378,0.0,0.0,0.0,0.0,0.0,0.0,0.0,-0.00015589404524418704,2.1343783428981467e-05,-2.549919899485012e-05,0.00031533878350886724,-8.362735120266002e-05,3.838539123535156e-05,-2.7436048764428733e-05,-0.0007237578930958916,0.00041400033197098074,-0.00045581204889145305,-9.702460843778945e-05,5.225054029788881e-05,0.0003133267121446404,0.0012774541733072378,0.4505855441093445,22.696680068969727,0.1253325641155243,-14.080232620239258,-0.04057842493057251,-2.1453890800476074,0.37204307317733765,0
56,0.2750058174133301,-0.4267818331718445,-22.720483779907227,-0.09756157547235489,14.056428909301758,0.03416973352432251,2.1517977714538574,-0.40591758489608765,0.0,0.0,0.0,0.0,0.0,0.0,0.0,-0.4224879329873491,0.08548059511063805,-0.20387917292759927,0.21176125445925528,-0.1970028670919622,-0.04678780797829554,-0.4048172813635809,1.6756515783636192,0.05208444486704446,0.02999297650046128,-2.7527085134606613,0.0343291058794595,2.766328856839074,0.7691974452090211,1.6754973547542302,0.052104326824870026,0.029969505109285054,-2.752394845125968,0.0342448039870148,2.7663679543071322,0.7691630533470046,0.0002679753295077556,-0.00019419983236830212,-0.0003540662812865831,0.0004856207412682879,0.00011902950415110243,-0.0006343995459798707,-0.0003729401068116328,0.0,0.0,0.0,0.0,0.0,0.0,0.0,-0.0001542236093889926,1.988195782556823e-05,-2.347139117622743e-05,0.00031366833469315125,-8.430189244469644e-05,3.9097468058191254e-05,-3.43918620164807e-05,-0.0002679753295077556,0.00019419983236830212,0.0003540662812865831,-0.0004856207412682879,-0.00011902950415110243,0.0006343995459798707,0.0003729401068116328,0.4267818331718445,22.720483779907227,0.09756157547235489,-14.056428909301758,-0.03416973352432251,-2.1517977714538574,0.40591758489608765,0
57,0.2799949645996094,-0.4267818331718445,-22.720483779907227,-0.09756157547235489,14.056428909301758,0.03416973352432251,2.1517977714538574,-0.40591758489608765,0.0,0.0,0.0,0.0,0.0,0.0,0.0,-0.4224879329873491,0.08548059511063805,-0.20387917292759927,0.21176125445925528,-0.1970028670919622,-0.04678780797829554,-0.4048172813635809,1.6756515783636192,0.05208444486704446,0.02999297650046128,-2.7527085134606613,0.0343291058794595,2.766328856839074,0.7691974452090211,1.6754973547542302,0.052104326824870026,0.029969505109285054,-2.752394845125968,0.0342448039870148,2.7663679543071322,0.7691630533470046,0.0002679753295077556,-0.00019419983236830212,-0.0003540662812865831,0.0004856207412682879,0.00011902950415110243,-0.0006343995459798707,-0.0003729401068116328,0.0,0.0,0.0,0.0,0.0,0.0,0.0,-0.0001542236093889926,1.988195782556823e-05,-2.347139117622743e-05,0.00031366833469315125,-8.430189244469644e-05,3.9097468058191254e-05,-3.43918620164807e-05,-0.0002679753295077556,0.00019419983236830212,0.0003540662812865831,-0.0004856207412682879,-0.00011902950415110243,0.0006343995459798707,0.0003729401068116328,0.4267818331718445,22.720483779907227,0.09756157547235489,-14.056428909301758,-0.03416973352432251,-2.1517977714538574,0.40591758489608765,0
58,0.2850019931793213,-0.4029781222343445,-22.696680068969727,-0.1491362750530243,14.108003616333008,0.03416973352432251,2.1389803886413574,-0.40591758489608765,0.0,0.0,0.0,0.0,0.0,0.0,0.0,-0.42140452407322815,0.08772569463691969,-0.20318210450468835,0.2130140161830513,-0.19671428430522273,-0.04634146122106159,-0.40652288830522887,1.6756499079277638,0.05207992205240575,0.02999659577717907,-2.7527121327383477,0.03433301197984081,2.7663302809927197,0.7691974451732048,1.6754973547542302,0.052104326824870026,0.029969505109285054,-2.752394845125968,0.0342448039870148,2.7663679543071322,0.7691630533470046,-0.00010473951557721886,7.504033945280789e-05,0.0006641739458265289,-0.000380388832196311,-0.00015956098076667146,0.00018578942698093456,2.095250790126438e-06,0.0,0.0,0.0,0.0,0.0,0.0,0.0,-0.00015255317353357611,2.4404772464278746e-05,-2.7090667894014847e-05,0.0003172876123795909,-8.820799282600877e-05,3.767331441251187e-05,-3.4391826200130815e-05,0.00010473951557721886,-7.504033945280789e-05,-0.0006641739458265289,0.000380388832196311,0.00015956098076667146,-0.00018578942698093456,-2.095250790126438e-06,0.4029781222343445,22.696680068969727,0.1491362750530243,-14.108003616333008,-0.03416973352432251,-2.1389803886413574,0.40591758489608765,0
59,0.2899971008300781,-0.4029781222343445,-22.696680068969727,-0.1491362750530243,14.108003616333008,0.03416973352432251,2.1389803886413574,-0.40591758489608765,0.0,0.0,0.0,0.0,0.0,0.0,0.0,-0.42140452407322815,0.08772569463691969,-0.20318210450468835,0.2130140161830513,-0.19671428430522273,-0.04634146122106159,-0.40652288830522887,1.6756499079277638,0.05207992205240575,0.02999659577717907,-2.7527121327383477,0.03433301197984081,2.7663302809927197,0.7691974451732048,1.6754973547542302,0.052104326824870026,0.029969505109285054,-2.752394845125968,0.0342448039870148,2.7663679543071322,0.7691630533470046,-0.00010473951557721886,7.504033945280789e-05,0.0006641739458265289,-0.000380388832196311,-0.00015956098076667146,0.00018578942698093456,2.095250790126438e-06,0.0,0.0,0.0,0.0,0.0,0.0,0.0,-0.00015255317353357611,2.4404772464278746e-05,-2.7090667894014847e-05,0.0003172876123795909,-8.820799282600877e-05,3.767331441251187e-05,-3.4391826200130815e-05,0.00010473951557721886,-7.504033945280789e-05,-0.0006641739458265289,0.000380388832196311,0.00015956098076667146,-0.00018578942698093456,-2.095250790126438e-06,0.4029781222343445,22.696680068969727,0.1491362750530243,-14.108003616333008,-0.03416973352432251,-2.1389803886413574,0.40591758489608765,0
60,0.29505205154418945,-0.4029781222343445,-22.696680068969727,-0.1491362750530243,14.108003616333008,0.03416973352432251,2.1389803886413574,-0.40591758489608765,0.0,0.0,0.0,0.0,0.0,0.0,0.0,-0.42140452407322815,0.08772569463691969,-0.20318210450468835,0.2130140161830513,-0.19671428430522273,-0.04634146122106159,-0.40652288830522887,1.6756499079277638,0.05207992205240575,0.02999659577717907,-2.7527121327383477,0.03433301197984081,2.7663302809927197,0.7691974451732048,1.6754973547542302,0.052104326824870026,0.029969505109285054,-2.752394845125968,0.0342448039870148,2.7663679543071322,0.7691630533470046,-0.00010473951557721886,7.504033945280789e-05,0.0006641739458265289,-0.000380388832196311,-0.00015956098076667146,0.00018578942698093456,2.095250790126438e-06,0.0,0.0,0.0,0.0,0.0,0.0,0.0,-0.00015255317353357611,2.4404772464278746e-05,-2.7090667894014847e-05,0.0003172876123795909,-8.820799282600877e-05,3.767331441251187e-05,-3.4391826200130815e-05,0.00010473951557721886,-7.504033945280789e-05,-0.0006641739458265289,0.000380388832196311,0.00015956098076667146,-0.00018578942698093456,-2.095250790126438e-06,0.4029781222343445,22.696680068969727,0.1491362750530243,-14.108003616333008,-0.03416973352432251,-2.1389803886413574,0.40591758489608765,0
61,0.29999375343322754,-0.4029781222343445,-22.696680068969727,-0.1491362750530243,14.108003616333008,0.03416973352432251,2.1389803886413574,-0.40591758489608765,0.0,0.0,0.0,0.0,0.0,0.0,0.0,-0.42140452407322815,0.08772569463691969,-0.20318210450468835,0.2130140161830513,-0.19671428430522273,-0.04634146122106159,-0.40652288830522887,1.6756499079277638,0.05207992205240575,0.02999659577717907,-2.7527121327383477,0.03433301197984081,2.7663302809927197,0.7691974451732048,1.6754973547542302,0.052104326824870026,0.029969505109285054,-2.752394845125968,0.0342448039870148,2.7663679543071322,0.7691630533470046,-0.00010473951557721886,7.504033945280789e-05,0.0006641739458265289,-0.000380388832196311,-0.00015956098076667146,0.00018578942698093456,2.095250790126438e-06,0.0,0.0,0.0,0.0,0.0,0.0,0.0,-0.00015255317353357611,2.4404772464278746e-05,-2.7090667894014847e-05,0.0003172876123795909,-8.820799282600877e-05,3.767331441251187e-05,-3.4391826200130815e-05,0.00010473951557721886,-7.504033945280789e-05,-0.0006641739458265289,0.000380388832196311,0.00015956098076667146,-0.00018578942698093456,-2.095250790126438e-06,0.4029781222343445,22.696680068969727,0.1491362750530243,-14.108003616333008,-0.03416973352432251,-2.1389803886413574,0.40591758489608765,0
62,0.3049955368041992,-0.4029781222343445,-22.720483779907227,-0.1253325641155243,14.108003616333008,0.04057842493057251,2.1453890800476074,-0.38577598333358765,0.0,0.0,0.0,0.0,0.0,0.0,0.0,-0.4179811748097374,0.09377704513461056,-0.20156523113820615,0.21162538937673403,-0.19714863781627331,-0.04657013344393104,-0.40705959073945536,1.6756499079277638,0.05208464686175536,0.0299949253413238,-2.7527121327383477,0.034329021019750515,2.766329568915897,0.7691951549435011,1.6754973547542302,0.052104326824870026,0.029969505109285054,-2.752394845125968,0.0342448039870148,2.7663679543071322,0.7691630533470046,-0.0002445640626930893,0.0014162311212771942,0.00035626134266621097,-0.0004034625950931576,-0.0003244120754105853,-0.00033387984281387,-0.0007747511678315409,0.0,0.0,0.0,0.0,0.0,0.0,0.0,-0.00015255317353357611,1.967996311466602e-05,-2.5420232038747548e-05,0.0003172876123795909,-8.421703273571446e-05,3.838539123535156e-05,-3.210159649646993e-05,0.0002445640626930893,-0.0014162311212771942,-0.00035626134266621097,0.0004034625950931576,0.0003244120754105853,0.00033387984281387,0.0007747511678315409,0.4029781222343445,22.720483779907227,0.1253325641155243,-14.108003616333008,-0.04057842493057251,-2.1453890800476074,0.38577598333358765,0
63,0.3099989891052246,-0.4029781222343445,-22.720483779907227,-0.1253325641155243,14.108003616333008,0.04057842493057251,2.1453890800476074,-0.38577598333358765,0.0,0.0,0.0,0.0,0.0,0.0,0.0,-0.4179811748097374,0.09377704513461056,-0.20156523113820615,0.21162538937673403,-0.19714863781627331,-0.04657013344393104,-0.40705959073945536,1.6756499079277638,0.05208464686175536,0.0299949253413238,-2.7527121327383477,0.034329021019750515,2.766329568915897,0.7691951549435011,1.6754973547542302,0.052104326824870026,0.029969505109285054,-2.752394845125968,0.0342448039870148,2.7663679543071322,0.7691630533470046,-0.0002445640626930893,0.0014162311212771942,0.00035626134266621097,-0.0004034625950931576,-0.0003244120754105853,-0.00033387984281387,-0.0007747511678315409,0.0,0.0,0.0,0.0,0.0,0.0,0.0,-0.00015255317353357611,1.967996311466602e-05,-2.5420232038747548e-05,0.0003172876123795909,-8.421703273571446e-05,3.838539123535156e-05,-3.210159649646993e-05,0.0002445640626930893,-0.0014162311212771942,-0.00035626134266621097,0.0004034625950931576,0.0003244120754105853,0.00033387984281387,0.0007747511678315409,0.4029781222343445,22.720483779907227,0.1253325641155243,-14.108003616333008,-0.04057842493057251,-2.1453890800476074,0.38577598333358765,0
64,0.31499242782592773,-0.4505855441093445,-22.696680068969727,-0.09756157547235489,14.080232620239258,0.04057842493057251,2.1325716972351074,-0.43338340520858765,0.0,0.0,0.0,0.0,0.0,0.0,0.0,-0.41802850065865715,0.09444687578335756,-0.20462650599838247,0.21631943348051466,-0.1967479355478524,-0.04597692112722856,-0.40829922764576104,1.6756532487994744,0.052082106027187436,0.02999297650001551,-2.752710184246445,0.03433217590945969,2.766330993069543,0.7692004969847541,1.6754973547542302,0.052104326824870026,0.029969505109285054,-2.752394845125968,0.0342448039870148,2.7663679543071322,0.7691630533470046,0.0007768844277332155,0.0005698835846721735,-0.0006964302324308773,-0.00011229879427750816,-0.00010003250111919858,0.00034918830855170985,0.0008639535908308527,0.0,0.0,0.0,0.0,0.0,0.0,0.0,-0.00015589404524418704,2.222079768259e-05,-2.3471390730455538e-05,0.00031533912047709833,-8.737192244488712e-05,3.696123758922809e-05,-3.744363774949022e-05,-0.0007768844277332155,-0.0005698835846721735,0.0006964302324308773,0.00011229879427750816,0.00010003250111919858,-0.00034918830855170985,-0.0008639535908308527,0.4505855441093445,22.696680068969727,0.09756157547235489,-14.080232620239258,-0.04057842493057251,-2.1325716972351074,0.43338340520858765,0
65,0.3199937343597412,-0.4505855441093445,-22.696680068969727,-0.09756157547235489,14.080232620239258,0.04057842493057251,2.1325716972351074,-0.43338340520858765,0.0,0.0,0.0,0.0,0.0,0.0,0.0,-0.41802850065865715,0.09444687578335756,-0.20462650599838247,0.21631943348051466,-0.1967479355478524,-0.04597692112722856,-0.40829922764576104,1.6756532487994744,0.052082106027187436,0.02999297650001551,-2.752710184246445,0.03433217590945969,2.766330993069543,0.7692004969847541,1.6754973547542302,0.052104326824870026,0.029969505109285054,-2.752394845125968,0.0342448039870148,2.7663679543071322,0.7691630533470046,0.0007768844277332155,0.0005698835846721735,-0.0006964302324308773,-0.00011229879427750816,-0.00010003250111919858,0.00034918830855170985,0.0008639535908308527,0.0,0.0,0.0,0.0,0.0,0.0,0.0,-0.00015589404524418704,2.222079768259e-05,-2.3471390730455538e-05,0.00031533912047709833,-8.737192244488712e-05,3.696123758922809e-05,-3.744363774949022e-05,-0.0007768844277332155,-0.0005698835846721735,0.0006964302324308773,0.00011229879427750816,0.00010003250111919858,-0.00034918830855170985,-0.0008639535908308527,0.4505855441093445,22.696680068969727,0.09756157547235489,-14.080232620239258,-0.04057842493057251,-2.1325716972351074,0.43338340520858765,0
66,0.3250300884246826,-0.4029781222343445,-22.720483779907227,-0.07375786453485489,14.108003616333008,0.03416973352432251,2.1389803886413574,-0.44711631536483765,0.0,0.0,0.0,0.0,0.0,0.0,0.0,-0.4149384572595697,0.09219894784562492,-0.2025233567378813,0.21702408641482332,-0.19675950532442976,-0.0454033374685087,-0.40925916460468154,1.6756499079277638,0.05208180344560375,0.029991306064160245,-2.7527128215031333,0.03432896824901088,2.7663302809927197,0.7692019051261889,1.6754973547542302,0.052104326824870026,0.029969505109285054,-2.752394845125968,0.0342448039870148,2.7663679543071322,0.7691630533470046,-0.00024099869156705273,0.00023137736860968214,-0.0010169855990370567,-0.0007490797004121095,-0.00013183674617867056,3.116587135807556e-05,0.0016555896721549919,0.0,0.0,0.0,0.0,0.0,0.0,0.0,-0.00015255317353357611,2.2523379266274624e-05,-2.1800954875191708e-05,0.0003179763771652411,-8.416426199608223e-05,3.767331441251187e-05,-3.885177918427907e-05,0.00024099869156705273,-0.00023137736860968214,0.0010169855990370567,0.0007490797004121095,0.00013183674617867056,-3.116587135807556e-05,-0.0016555896721549919,0.4029781222343445,22.720483779907227,0.07375786453485489,-14.108003616333008,-0.03416973352432251,-2.1389803886413574,0.44711631536483765,0
67,0.32999372482299805,-0.4029781222343445,-22.720483779907227,-0.07375786453485489,14.108003616333008,0.03416973352432251,2.1389803886413574,-0.44711631536483765,0.0,0.0,0.0,0.0,0.0,0.0,0.0,-0.4149384572595697,0.09219894784562492,-0.2025233567378813,0.21702408641482332,-0.19675950532442976,-0.0454033374685087,-0.40925916460468154,1.6756499079277638,0.05208180344560375,0.029991306064160245,-2.7527128215031333,0.03432896824901088,2.7663302809927197,0.7692019051261889,1.6754973547542302,0.052104326824870026,0.029969505109285054,-2.752394845125968,0.0342448039870148,2.7663679543071322,0.7691630533470046,-0.00024099869156705273,0.00023137736860968214,-0.0010169855990370567,-0.0007490797004121095,-0.00013183674617867056,3.116587135807556e-05,0.0016555896721549919,0.0,0.0,0.0,0.0,0.0,0.0,0.0,-0.00015255317353357611,2.2523379266274624e-05,-2.1800954875191708e-05,0.0003179763771652411,-8.416426199608223e-05,3.767331441251187e-05,-3.885177918427907e-05,0.00024099869156705273,-0.00023137736860968214,0.0010169855990370567,0.0007490797004121095,0.00013183674617867056,-3.116587135807556e-05,-0.0016555896721549919,0.4029781222343445,22.720483779907227,0.07375786453485489,-14.108003616333008,-0.03416973352432251,-2.1389803886413574,0.44711631536483765,0
68,0.33501148223876953,-0.4267818331718445,-22.720483779907227,-0.1729399859905243,14.108003616333008,0.04057842493057251,2.1453890800476074,-0.46084922552108765,0.0,0.0,0.0,0.0,0.0,0.0,0.0,-0.4134260744521496,0.08509822962801435,-0.199733749207546,0.21842911542182936,-0.19716167591789338,-0.04526910849506761,-0.40817679275337276,1.6756515783272805,0.0520815687645829,0.02999826621303433,-2.7527141990365878,0.034331577001359304,2.766329568915897,0.7692035036819428,1.6754973547542302,0.052104326824870026,0.029969505109285054,-2.752394845125968,0.0342448039870148,2.7663679543071322,0.7691630533470046,0.0006808311044542453,-0.0006498810390406615,0.0015365894483662093,-0.00043604057361703045,-1.159177926693038e-05,-8.946780473763688e-05,0.0026496174803146096,0.0,0.0,0.0,0.0,0.0,0.0,0.0,-0.00015422357305028278,2.275806028712718e-05,-2.8761103749275208e-05,0.00031935391061965746,-8.677301434450307e-05,3.838539123535156e-05,-4.045033493815797e-05,-0.0006808311044542453,0.0006498810390406615,-0.0015365894483662093,0.00043604057361703045,1.159177926693038e-05,8.946780473763688e-05,-0.0026496174803146096,0.4267818331718445,22.720483779907227,0.1729399859905243,-14.108003616333008,-0.04057842493057251,-2.1453890800476074,0.46084922552108765,0
69,0.33999156951904297,-0.4267818331718445,-22.720483779907227,-0.1729399859905243,14.108003616333008,0.04057842493057251,2.1453890800476074,-0.46084922552108765,0.0,0.0,0.0,0.0,0.0,0.0,0.0,-0.4134260744521496,0.08509822962801435,-0.199733749207546,0.21842911542182936,-0.19716167591789338,-0.04526910849506761,-0.40817679275337276,1.6756515783272805,0.0520815687645829,0.02999826621303433,-2.7527141990365878,0.034331577001359304,2.766329568915897,0.7692035036819428,1.6754973547542302,0.052104326824870026,0.029969505109285054,-2.752394845125968,0.0342448039870148,2.7663679543071322,0.7691630533470046,0.0006808311044542453,-0.0006498810390406615,0.0015365894483662093,-0.00043604057361703045,-1.159177926693038e-05,-8.946780473763688e-05,0.0026496174803146096,0.0,0.0,0.0,0.0,0.0,0.0,0.0,-0.00015422357305028278,2.275806028712718e-05,-2.8761103749275208e-05,0.00031935391061965746,-8.677301434450307e-05,3.838539123535156e-05,-4.045033493815797e-05,-0.0006808311044542453,0.0006498810390406615,-0.0015365894483662093,0.00043604057361703045,1.159177926693038e-05,8.946780473763688e-05,-0.0026496174803146096,0.4267818331718445,22.720483779907227,0.1729399859905243,-14.108003616333008,-0.04057842493057251,-2.1453890800476074,0.46084922552108765,0
70,0.34500575065612793,-0.4029781222343445,-22.696680068969727,-0.1253325641155243,14.080232620239258,0.02226787805557251,2.1325716972351074,-0.44711631536483765,0.0,0.0,0.0,0.0,0.0,0.0,0.0,-0.41532447739241657,0.08846158270986523,-0.20131646906580425,0.21087050672411148,-0.19660488223234063,-0.046808950048849315,-0.4067388023099714,1.6756499079277636,0.05208060850782721,0.0299949253413238,-2.7527102094179874,0.034330348917470985,2.766330993069543,0.7692020054209016,1.6754973547542302,0.052104326824870026,0.029969505109285054,-2.752394845125968,0.0342448039870148,2.7663679543071322,0.7691630533470046,-0.000268983694946028,-0.000768857692752342,0.0002057997235335405,-8.855485132068744e-05,0.00055062328166702,0.00016083875870588794,0.0013986933864833242,0.0,0.0,0.0,0.0,0.0,0.0,0.0,-0.00015255317353335407,2.3718317042814574e-05,-2.5420232038747548e-05,0.0003153642920192823,-8.554493045618422e-05,3.696123758922809e-05,-3.895207389692512e-05,0.000268983694946028,0.000768857692752342,-0.0002057997235335405,8.855485132068744e-05,-0.00055062328166702,-0.00016083875870588794,-0.0013986933864833242,0.4029781222343445,22.696680068969727,0.1253325641155243,-14.080232620239258,-0.02226787805557251,-2.1325716972351074,0.44711631536483765,0
71,0.3499932289123535,-0.4029781222343445,-22.696680068969727,-0.1253325641155243,14.080232620239258,0.02226787805557251,2.1325716972351074,-0.44711631536483765,0.0,0.0,0.0,0.0,0.0,0.0,0.0,-0.41532447739241657,0.08846158270986523,-0.20131646906580425,0.21087050672411148,-0.19660488223234063,-0.046808950048849315,-0.4067388023099714,1.6756499079277636,0.05208060850782721,0.0299949253413238,-2.7527102094179874,0.034330348917470985,2.766330993069543,0.7692020054209016,1.6754973547542302,0.052104326824870026,0.029969505109285054,-2.752394845125968,0.0342448039870148,2.7663679543071322,0.7691630533470046,-0.000268983694946028,-0.000768857692752342,0.0002057997235335405,-8.855485132068744e-05,0.00055062328166702,0.00016083875870588794,0.0013986933864833242,0.0,0.0,0.0,0.0,0.0,0.0,0.0,-0.00015255317353335407,2.3718317042814574e-05,-2.5420232038747548e-05,0.0003153642920192823,-8.554493045618422e-05,3.696123758922809e-05,-3.895207389692512e-05,0.000268983694946028,0.000768857692752342,-0.0002057997235335405,8.855485132068744e-05,-0.00055062328166702,-0.00016083875870588794,-0.0013986933864833242,0.4029781222343445,22.696680068969727,0.1253325641155243,-14.080232620239258,-0.02226787805557251,-2.1325716972351074,0.44711631536483765,0
72,0.3550229072570801,-0.4267818331718445,-22.672876358032227,-0.09756157547235489,14.108003616333008,0.03416973352432251,2.1453890800476074,-0.42605918645858765,0.0,0.0,0.0,0.0,0.0,0.0,0.0,-0.41281623514223204,0.08129874993836067,-0.19591378345960395,0.2121785040333575,-0.19723588153686125,-0.04679817562301551,-0.4078732010241473,1.6756514988907596,0.05207905311943585,0.0299929774749162,-2.7527121327384916,0.03433019637383216,2.766329568915897,0.769198252404712,1.6754973547542302,0.052104326824870026,0.029969505109285054,-2.752394845125968,0.0342448039870148,2.7663679543071322,0.7691630533470046,0.0005036213053728379,-0.0010044816372238663,-0.00022006318878689028,-0.0008177690094734629,-8.247407581097966e-05,-0.0003761043750537345,0.000555993473292409,0.0,0.0,0.0,0.0,0.0,0.0,0.0,-0.0001541441365293661,2.527370543417562e-05,-2.3472365631146963e-05,0.0003172876125234758,-8.53923868173595e-05,3.838539123535156e-05,-3.519905770732468e-05,-0.0005036213053728379,0.0010044816372238663,0.00022006318878689028,0.0008177690094734629,8.247407581097966e-05,0.0003761043750537345,-0.000555993473292409,0.4267818331718445,22.672876358032227,0.09756157547235489,-14.108003616333008,-0.03416973352432251,-2.1453890800476074,0.42605918645858765,0
73,0.36000704765319824,-0.4267818331718445,-22.672876358032227,-0.09756157547235489,14.108003616333008,0.03416973352432251,2.1453890800476074,-0.42605918645858765,0.0,0.0,0.0,0.0,0.0,0.0,0.0,-0.41281623514223204,0.08129874993836067,-0.19591378345960395,0.2121785040333575,-0.19723588153686125,-0.04679817562301551,-0.4078732010241473,1.6756514988907596,0.05207905311943585,0.0299929774749162,-2.7527121327384916,0.03433019637383216,2.766329568915897,0.769198252404712,1.6754973547542302,0.052104326824870026,0.029969505109285054,-2.752394845125968,0.0342448039870148,2.7663679543071322,0.7691630533470046,0.0005036213053728379,-0.0010044816372238663,-0.00022006318878689028,-0.0008177690094734629,-8.247407581097966e-05,-0.0003761043750537345,0.000555993473292409,0.0,0.0,0.0,0.0,0.0,0.0,0.0,-0.0001541441365293661,2.527370543417562e-05,-2.3472365631146963e-05,0.0003172876125234758,-8.53923868173595e-05,3.838539123535156e-05,-3.519905770732468e-05,-0.0005036213053728379,0.0010044816372238663,0.00022006318878689028,0.0008177690094734629,8.247407581097966e-05,0.0003761043750537345,-0.000555993473292409,0.4267818331718445,22.672876358032227,0.09756157547235489,-14.108003616333008,-0.03416973352432251,-2.1453890800476074,0.42605918645858765,0
74,0.3650071620941162,-0.4029781222343445,-22.696680068969727,-0.1253325641155243,14.131807327270508,0.03416973352432251,2.1325716972351074,-0.40591758489608765,0.0,0.0,0.0,0.0,0.0,0.0,0.0,-0.4179807512703822,0.08758258698502937,-0.19826542268255057,0.2118518119325279,-0.19696435722651726,-0.04812115573787503,-0.4073926802426657,1.6756499079273153,0.05207992579381448,0.029994925341329304,-2.7527138315184327,0.03432866987143105,2.766330993069543,0.7691970920062535,1.6754973547542302,0.052104326824870026,0.029969505109285054,-2.752394845125968,0.0342448039870148,2.7663679543071322,0.7691630533470046,-0.0002950591928530162,0.0006328855213042944,0.00037274834364775826,-0.0011555491791216828,0.0001224913338894249,0.00014243099475961114,-1.9573829409269276e-05,0.0,0.0,0.0,0.0,0.0,0.0,0.0,-0.000152553173085046,2.4401031055547306e-05,-2.542023204425009e-05,0.00031898639246463745,-8.386588441625098e-05,3.696123758922809e-05,-3.403865924889171e-05,0.0002950591928530162,-0.0006328855213042944,-0.00037274834364775826,0.0011555491791216828,-0.0001224913338894249,-0.00014243099475961114,1.9573829409269276e-05,0.4029781222343445,22.696680068969727,0.1253325641155243,-14.131807327270508,-0.03416973352432251,-2.1325716972351074,0.40591758489608765,0
75,0.36999082565307617,-0.4029781222343445,-22.696680068969727,-0.1253325641155243,14.131807327270508,0.03416973352432251,2.1325716972351074,-0.40591758489608765,0.0,0.0,0.0,0.0,0.0,0.0,0.0,-0.4179807512703822,0.08758258698502937,-0.19826542268255057,0.2118518119325279,-0.19696435722651726,-0.04812115573787503,-0.4073926802426657,1.6756499079273153,0.05207992579381448,0.029994925341329304,-2.7527138315184327,0.03432866987143105,2.766330993069543,0.7691970920062535,1.6754973547542302,0.052104326824870026,0.029969505109285054,-2.752394845125968,0.0342448039870148,2.7663679543071322,0.7691630533470046,-0.0002950591928530162,0.0006328855213042944,0.00037274834364775826,-0.0011555491791216828,0.0001224913338894249,0.00014243099475961114,-1.9573829409269276e-05,0.0,0.0,0.0,0.0,0.0,0.0,0.0,-0.000152553173085046,2.4401031055547306e-05,-2.542023204425009e-05,0.00031898639246463745,-8.386588441625098e-05,3.696123758922809e-05,-3.403865924889171e-05,0.0002950591928530162,-0.0006328855213042944,-0.00037274834364775826,0.0011555491791216828,-0.0001224913338894249,-0.00014243099475961114,1.9573829409269276e-05,0.4029781222343445,22.696680068969727,0.1253325641155243,-14.131807327270508,-0.03416973352432251,-2.1325716972351074,0.40591758489608765,0
76,0.37502241134643555,-0.4029781222343445,-22.696680068969727,-0.1253325641155243,14.131807327270508,0.03416973352432251,2.1325716972351074,-0.40591758489608765,0.0,0.0,0.0,0.0,0.0,0.0,0.0,-0.4179807512703822,0.08758258698502937,-0.19826542268255057,0.2118518119325279,-0.19696435722651726,-0.04812115573787503,-0.4073926802426657,1.6756499079273153,0.05207992579381448,0.029994925341329304,-2.7527138315184327,0.03432866987143105,2.766330993069543,0.7691970920062535,1.6754973547542302,0.052104326824870026,0.029969505109285054,-2.752394845125968,0.0342448039870148,2.7663679543071322,0.7691630533470046,-0.0002950591928530162,0.0006328855213042944,0.00037274834364775826,-0.0011555491791216828,0.0001224913338894249,0.00014243099475961114,-1.9573829409269276e-05,0.0,0.0,0.0,0.0,0.0,0.0,0.0,-0.000152553173085046,2.4401031055547306e-05,-2.542023204425009e-05,0.00031898639246463745,-8.386588441625098e-05,3.696123758922809e-05,-3.403865924889171e-05,0.0002950591928530162,-0.0006328855213042944,-0.00037274834364775826,0.0011555491791216828,-0.0001224913338894249,-0.00014243099475961114,1.9573829409269276e-05,0.4029781222343445,22.696680068969727,0.1253325641155243,-14.131807327270508,-0.03416973352432251,-2.1325716972351074,0.40591758489608765,0
77,0.38001585006713867,-0.4029781222343445,-22.696680068969727,-0.1253325641155243,14.131807327270508,0.03416973352432251,2.1325716972351074,-0.40591758489608765,0.0,0.0,0.0,0.0,0.0,0.0,0.0,-0.4179807512703822,0.08758258698502937,-0.19826542268255057,0.2118518119325279,-0.19696435722651726,-0.04812115573787503,-0.4073926802426657,1.6756499079273153,0.05207992579381448,0.029994925341329304,-2.7527138315184327,0.03432866987143105,2.766330993069543,0.7691970920062535,1.6754973547542302,0.052104326824870026,0.029969505109285054,-2.752394845125968,0.0342448039870148,2.7663679543071322,0.7691630533470046,-0.0002950591928530162,0.0006328855213042944,0.00037274834364775826,-0.0011555491791216828,0.0001224913338894249,0.00014243099475961114,-1.9573829409269276e-05,0.0,0.0,0.0,0.0,0.0,0.0,0.0,-0.000152553173085046,2.4401031055547306e-05,-2.542023204425009e-05,0.00031898639246463745,-8.386588441625098e-05,3.696123758922809e-05,-3.403865924889171e-05,0.0002950591928530162,-0.0006328855213042944,-0.00037274834364775826,0.0011555491791216828,-0.0001224913338894249,-0.00014243099475961114,1.9573829409269276e-05,0.4029781222343445,22.696680068969727,0.1253325641155243,-14.131807327270508,-0.03416973352432251,-2.1325716972351074,0.40591758489608765,0
78,0.385026216506958,-0.4029781222343445,-22.696680068969727,-0.1253325641155243,14.131807327270508,0.03416973352432251,2.1325716972351074,-0.40591758489608765,0.0,0.0,0.0,0.0,0.0,0.0,0.0,-0.4179807512703822,0.08758258698502937,-0.19826542268255057,0.2118518119325279,-0.19696435722651726,-0.04812115573787503,-0.4073926802426657,1.6756499079273153,0.05207992579381448,0.029994925341329304,-2.7527138315184327,0.03432866987143105,2.766330993069543,0.7691970920062535,1.6754973547542302,0.052104326824870026,0.029969505109285054,-2.752394845125968,0.0342448039870148,2.7663679543071322,0.7691630533470046,-0.0002950591928530162,0.0006328855213042944,0.00037274834364775826,-0.0011555491791216828,0.0001224913338894249,0.00014243099475961114,-1.9573829409269276e-05,0.0,0.0,0.0,0.0,0.0,0.0,0.0,-0.000152553173085046,2.4401031055547306e-05,-2.542023204425009e-05,0.00031898639246463745,-8.386588441625098e-05,3.696123758922809e-05,-3.403865924889171e-05,0.0002950591928530162,-0.0006328855213042944,-0.00037274834364775826,0.0011555491791216828,-0.0001224913338894249,-0.00014243099475961114,1.9573829409269276e-05,0.4029781222343445,22.696680068969727,0.1253325641155243,-14.131807327270508,-0.03416973352432251,-2.1325716972351074,0.40591758489608765,0
79,0.39010119438171387,-0.4029781222343445,-22.720483779907227,-0.1253325641155243,14.080232620239258,0.03416973352432251,2.1325716972351074,-0.41324180364608765,0.0,0.0,0.0,0.0,0.0,0.0,0.0,-0.4207407487036531,0.08791425296776746,-0.20212098728677977,0.21797896510996223,-0.19693164514186318,-0.048429480045522055,-0.40565944146968125,1.6756499079277638,0.052081566058746094,0.0299949253413238,-2.752710183931515,0.03433340225986275,2.766330993069543,0.7691982196215393,1.6754973547542302,0.052104326824870026,0.029969505109285054,-2.752394845125968,0.0342448039870148,2.7663679543071322,0.7691630533470046,-0.0012135639257355036,0.0003362793648292076,-0.0001995075862649161,-0.00042185449275269785,1.676945615294882e-05,1.7366322210381544e-05,-0.00027793542537561645,0.0,0.0,0.0,0.0,0.0,0.0,0.0,-0.00015255317353357611,2.2760766123931797e-05,-2.5420232038747548e-05,0.0003153388055467943,-8.859827284794786e-05,3.696123758922809e-05,-3.516627453470367e-05,0.0012135639257355036,-0.0003362793648292076,0.0001995075862649161,0.00042185449275269785,-1.676945615294882e-05,-1.7366322210381544e-05,0.00027793542537561645,0.4029781222343445,22.720483779907227,0.1253325641155243,-14.080232620239258,-0.03416973352432251,-2.1325716972351074,0.41324180364608765,0
