rezayati/contactInterpretation/dataset/franka_main/labeled_data/link5/c13_4.csv
index,time,tau_J0,tau_J1,tau_J2,tau_J3,tau_J4,tau_J5,tau_J6,tau_J_d0,tau_J_d1,tau_J_d2,tau_J_d3,tau_J_d4,tau_J_d5,tau_J_d6,tau_ext0,tau_ext1,tau_ext2,tau_ext3,tau_ext4,tau_ext5,tau_ext6,q0,q1,q2,q3,q4,q5,q6,q_d0,q_d1,q_d2,q_d3,q_d4,q_d5,q_d6,dq0,dq1,dq2,dq3,dq4,dq5,dq6,dq_d0,dq_d1,dq_d2,dq_d3,dq_d4,dq_d5,dq_d6,e0,e1,e2,e3,e4,e5,e6,de0,de1,de2,de3,de4,de5,de6,etau_J0,etau_J1,etau_J2,etau_J3,etau_J4,etau_J5,etau_J6,label
1,0.0,-0.4029781222343445,-19.792627334594727,-0.3713042438030243,20.130342483520508,0.5523582100868225,2.4630770683288574,-0.22098104655742645,0.0,0.0,0.0,0.0,0.0,0.0,0.0,-0.40228852030355255,-0.11779245143932289,-0.20168377352537953,0.36202780664950457,-0.033656278724955364,0.08952160555062451,-0.20340806112624596,1.2136316300177434,-0.22014592788456186,-0.007222003528569691,-2.6040794920927888,-0.10895484211047489,2.468122034761641,0.8264710866527425,1.2134413937687574,-0.2202432315892585,-0.0075118285948192216,-2.6038483821997875,-0.10888392708698907,2.4681821257803174,0.826474908251239,-2.4842944429044715e-05,-6.987078804466612e-05,7.640585002202773e-05,-0.0001781667581888991,-2.2090209143065723e-05,-3.069363289564822e-05,0.0007968799562337411,0.0,0.0,0.0,0.0,0.0,0.0,0.0,-0.00019023624898606428,-9.730370469662741e-05,-0.00028982506624953067,0.00023110989300123563,7.091502348581524e-05,6.009101867654465e-05,3.8215984965450644e-06,2.4842944429044715e-05,6.987078804466612e-05,-7.640585002202773e-05,0.0001781667581888991,2.2090209143065723e-05,3.069363289564822e-05,-0.0007968799562337411,0.4029781222343445,19.792627334594727,0.3713042438030243,-20.130342483520508,-0.5523582100868225,-2.4630770683288574,0.22098104655742645,0
2,0.004989147186279297,-0.4029781222343445,-19.792627334594727,-0.3713042438030243,20.130342483520508,0.5523582100868225,2.4630770683288574,-0.22098104655742645,0.0,0.0,0.0,0.0,0.0,0.0,0.0,-0.40228852030355255,-0.11779245143932289,-0.20168377352537953,0.36202780664950457,-0.033656278724955364,0.08952160555062451,-0.20340806112624596,1.2136316300177434,-0.22014592788456186,-0.007222003528569691,-2.6040794920927888,-0.10895484211047489,2.468122034761641,0.8264710866527425,1.2134413937687574,-0.2202432315892585,-0.0075118285948192216,-2.6038483821997875,-0.10888392708698907,2.4681821257803174,0.826474908251239,-2.4842944429044715e-05,-6.987078804466612e-05,7.640585002202773e-05,-0.0001781667581888991,-2.2090209143065723e-05,-3.069363289564822e-05,0.0007968799562337411,0.0,0.0,0.0,0.0,0.0,0.0,0.0,-0.00019023624898606428,-9.730370469662741e-05,-0.00028982506624953067,0.00023110989300123563,7.091502348581524e-05,6.009101867654465e-05,3.8215984965450644e-06,2.4842944429044715e-05,6.987078804466612e-05,-7.640585002202773e-05,0.0001781667581888991,2.2090209143065723e-05,3.069363289564822e-05,-0.0007968799562337411,0.4029781222343445,19.792627334594727,0.3713042438030243,-20.130342483520508,-0.5523582100868225,-2.4630770683288574,0.22098104655742645,0
3,0.010001659393310547,-0.3752071261405945,-19.792627334594727,-0.3990752398967743,20.130342483520508,0.5578513741493225,2.4694857597351074,-0.20083944499492645,0.0,0.0,0.0,0.0,0.0,0.0,0.0,-0.4030589976088882,-0.11596269260744928,-0.2003159137234757,0.367440740607473,-0.0338550134114312,0.09023735957827975,-0.20326876181001904,1.2136289924150163,-0.22014663595500658,-0.007220054566468742,-2.6040796664721078,-0.10895545246203739,2.468121322684818,0.8264688486970133,1.2134413937687574,-0.2202432315892585,-0.0075118285948192216,-2.6038483821997875,-0.10888392708698907,2.4681821257803174,0.826474908251239,-0.0007493934887188539,-0.0006517230142703424,9.605373760811305e-05,-0.0003544084386895292,-0.0004795040665400526,-0.00034686916930251236,-0.0001764016155570307,0.0,0.0,0.0,0.0,0.0,0.0,0.0,-0.0001875986462589463,-9.659563425190587e-05,-0.0002917740283504798,0.0002312842723202202,7.152537504831469e-05,6.080309549938434e-05,6.0595542257235735e-06,0.0007493934887188539,0.0006517230142703424,-9.605373760811305e-05,0.0003544084386895292,0.0004795040665400526,0.00034686916930251236,0.0001764016155570307,0.3752071261405945,19.792627334594727,0.3990752398967743,-20.130342483520508,-0.5578513741493225,-2.4694857597351074,0.20083944499492645,0
4,0.014991283416748047,-0.3752071261405945,-19.792627334594727,-0.3990752398967743,20.130342483520508,0.5578513741493225,2.4694857597351074,-0.20083944499492645,0.0,0.0,0.0,0.0,0.0,0.0,0.0,-0.4030589976088882,-0.11596269260744928,-0.2003159137234757,0.367440740607473,-0.0338550134114312,0.09023735957827975,-0.20326876181001904,1.2136289924150163,-0.22014663595500658,-0.007220054566468742,-2.6040796664721078,-0.10895545246203739,2.468121322684818,0.8264688486970133,1.2134413937687574,-0.2202432315892585,-0.0075118285948192216,-2.6038483821997875,-0.10888392708698907,2.4681821257803174,0.826474908251239,-0.0007493934887188539,-0.0006517230142703424,9.605373760811305e-05,-0.0003544084386895292,-0.0004795040665400526,-0.00034686916930251236,-0.0001764016155570307,0.0,0.0,0.0,0.0,0.0,0.0,0.0,-0.0001875986462589463,-9.659563425190587e-05,-0.0002917740283504798,0.0002312842723202202,7.152537504831469e-05,6.080309549938434e-05,6.0595542257235735e-06,0.0007493934887188539,0.0006517230142703424,-9.605373760811305e-05,0.0003544084386895292,0.0004795040665400526,0.00034686916930251236,0.0001764016155570307,0.3752071261405945,19.792627334594727,0.3990752398967743,-20.130342483520508,-0.5578513741493225,-2.4694857597351074,0.20083944499492645,0
5,0.019983530044555664,-0.3752071261405945,-19.868005752563477,-0.3475005328655243,20.154146194458008,0.5459495186805725,2.4566683769226074,-0.20724813640117645,0.0,0.0,0.0,0.0,0.0,0.0,0.0,-0.3994251267737729,-0.11839644718325712,-0.1958460343915098,0.3738815770950482,-0.034301732792950144,0.0914701220669998,-0.20257092070679955,1.2136289924111283,-0.22014060913465464,-0.007223673844154467,-2.6040814189860844,-0.10895413003365198,2.4681227468384637,0.8264695607738363,1.2134413937687574,-0.2202432315892585,-0.0075118285948192216,-2.6038483821997875,-0.10888392708698907,2.4681821257803174,0.826474908251239,-0.00020624183268273967,-0.000131688620273401,-0.0012759404211970208,0.0001643871144387335,0.00019195377170083328,0.00034637053005332765,0.00022154991324073632,0.0,0.0,0.0,0.0,0.0,0.0,0.0,-0.00018759864237094526,-0.00010262245460385122,-0.00028815475066475485,0.00023303678629682523,7.020294666290616e-05,5.937894185370496e-05,5.34747740277286e-06,0.00020624183268273967,0.000131688620273401,0.0012759404211970208,-0.0001643871144387335,-0.00019195377170083328,-0.00034637053005332765,-0.00022154991324073632,0.3752071261405945,19.868005752563477,0.3475005328655243,-20.154146194458008,-0.5459495186805725,-2.4566683769226074,0.20724813640117645,0
6,0.025339603424072266,-0.3752071261405945,-19.868005752563477,-0.3475005328655243,20.154146194458008,0.5459495186805725,2.4566683769226074,-0.20724813640117645,0.0,0.0,0.0,0.0,0.0,0.0,0.0,-0.3994251267737729,-0.11839644718325712,-0.1958460343915098,0.3738815770950482,-0.034301732792950144,0.0914701220669998,-0.20257092070679955,1.2136289924111283,-0.22014060913465464,-0.007223673844154467,-2.6040814189860844,-0.10895413003365198,2.4681227468384637,0.8264695607738363,1.2134413937687574,-0.2202432315892585,-0.0075118285948192216,-2.6038483821997875,-0.10888392708698907,2.4681821257803174,0.826474908251239,-0.00020624183268273967,-0.000131688620273401,-0.0012759404211970208,0.0001643871144387335,0.00019195377170083328,0.00034637053005332765,0.00022154991324073632,0.0,0.0,0.0,0.0,0.0,0.0,0.0,-0.00018759864237094526,-0.00010262245460385122,-0.00028815475066475485,0.00023303678629682523,7.020294666290616e-05,5.937894185370496e-05,5.34747740277286e-06,0.00020624183268273967,0.000131688620273401,0.0012759404211970208,-0.0001643871144387335,-0.00019195377170083328,-0.00034637053005332765,-0.00022154991324073632,0.3752071261405945,19.868005752563477,0.3475005328655243,-20.154146194458008,-0.5459495186805725,-2.4566683769226074,0.20724813640117645,0
7,0.029988527297973633,-0.4029781222343445,-19.844202041625977,-0.3990752398967743,20.130342483520508,0.5578513741493225,2.4566683769226074,-0.16604940593242645,0.0,0.0,0.0,0.0,0.0,0.0,0.0,-0.3981401723081482,-0.11342595875761857,-0.19557762398385464,0.3701492571837312,-0.03415473885728668,0.09110227945270569,-0.20131623430438017,1.2136309412529593,-0.22014088843801072,-0.007222421850479021,-2.6040797204002692,-0.10895545229977475,2.4681227468384637,0.8264649831371175,1.2134413937687574,-0.2202432315892585,-0.0075118285948192216,-2.6038483821997875,-0.10888392708698907,2.4681821257803174,0.826474908251239,0.0004897589823632645,-0.0012239551968877256,8.843758901665408e-05,0.0006463658324465185,-0.0002906827508861,0.0002657186665989055,-0.0008156514892699683,0.0,0.0,0.0,0.0,0.0,0.0,0.0,-0.00018954748420196843,-0.00010234315124776905,-0.00028940674434020045,0.00023133820048171216,7.15252127856808e-05,5.937894185370496e-05,9.925114121567269e-06,-0.0004897589823632645,0.0012239551968877256,-8.843758901665408e-05,-0.0006463658324465185,0.0002906827508861,-0.0002657186665989055,0.0008156514892699683,0.4029781222343445,19.844202041625977,0.3990752398967743,-20.130342483520508,-0.5578513741493225,-2.4566683769226074,0.16604940593242645,0
8,0.03498506546020508,-0.4029781222343445,-19.844202041625977,-0.3990752398967743,20.130342483520508,0.5578513741493225,2.4566683769226074,-0.16604940593242645,0.0,0.0,0.0,0.0,0.0,0.0,0.0,-0.3981401723081482,-0.11342595875761857,-0.19557762398385464,0.3701492571837312,-0.03415473885728668,0.09110227945270569,-0.20131623430438017,1.2136309412529593,-0.22014088843801072,-0.007222421850479021,-2.6040797204002692,-0.10895545229977475,2.4681227468384637,0.8264649831371175,1.2134413937687574,-0.2202432315892585,-0.0075118285948192216,-2.6038483821997875,-0.10888392708698907,2.4681821257803174,0.826474908251239,0.0004897589823632645,-0.0012239551968877256,8.843758901665408e-05,0.0006463658324465185,-0.0002906827508861,0.0002657186665989055,-0.0008156514892699683,0.0,0.0,0.0,0.0,0.0,0.0,0.0,-0.00018954748420196843,-0.00010234315124776905,-0.00028940674434020045,0.00023133820048171216,7.15252127856808e-05,5.937894185370496e-05,9.925114121567269e-06,-0.0004897589823632645,0.0012239551968877256,-8.843758901665408e-05,-0.0006463658324465185,0.0002906827508861,-0.0002657186665989055,0.0008156514892699683,0.4029781222343445,19.844202041625977,0.3990752398967743,-20.130342483520508,-0.5578513741493225,-2.4566683769226074,0.16604940593242645,0
9,0.0399928092956543,-0.3514034152030945,-19.868005752563477,-0.3236968219280243,20.130342483520508,0.5578513741493225,2.4630770683288574,-0.22098104655742645,0.0,0.0,0.0,0.0,0.0,0.0,0.0,-0.38902087305888555,-0.11280789830829428,-0.18535706894861642,0.3644960216295947,-0.03443626140958069,0.0905739407367922,-0.1993689037883095,1.213627321975273,-0.2201391162158394,-0.007225344401616556,-2.60407974787221,-0.10895545246203647,2.4681220391222913,0.8264710997346947,1.2134413937687574,-0.2202432315892585,-0.0075118285948192216,-2.6038483821997875,-0.10888392708698907,2.4681821257803174,0.826474908251239,-0.001057121782052968,-0.00027980253212134406,-0.0007724139428053361,-6.042089864939443e-05,-0.0003222762604444499,-9.300675931379071e-05,0.0006732860628033991,0.0,0.0,0.0,0.0,0.0,0.0,0.0,-0.00018592820651552877,-0.00010411537341908916,-0.0002864841932026657,0.00023136567242243444,7.152537504739875e-05,6.00866580260373e-05,3.808516544356877e-06,0.001057121782052968,0.00027980253212134406,0.0007724139428053361,6.042089864939443e-05,0.0003222762604444499,9.300675931379071e-05,-0.0006732860628033991,0.3514034152030945,19.868005752563477,0.3236968219280243,-20.130342483520508,-0.5578513741493225,-2.4630770683288574,0.22098104655742645,0
10,0.04498744010925293,-0.3514034152030945,-19.868005752563477,-0.3236968219280243,20.130342483520508,0.5578513741493225,2.4630770683288574,-0.22098104655742645,0.0,0.0,0.0,0.0,0.0,0.0,0.0,-0.38902087305888555,-0.11280789830829428,-0.18535706894861642,0.3644960216295947,-0.03443626140958069,0.0905739407367922,-0.1993689037883095,1.213627321975273,-0.2201391162158394,-0.007225344401616556,-2.60407974787221,-0.10895545246203647,2.4681220391222913,0.8264710997346947,1.2134413937687574,-0.2202432315892585,-0.0075118285948192216,-2.6038483821997875,-0.10888392708698907,2.4681821257803174,0.826474908251239,-0.001057121782052968,-0.00027980253212134406,-0.0007724139428053361,-6.042089864939443e-05,-0.0003222762604444499,-9.300675931379071e-05,0.0006732860628033991,0.0,0.0,0.0,0.0,0.0,0.0,0.0,-0.00018592820651552877,-0.00010411537341908916,-0.0002864841932026657,0.00023136567242243444,7.152537504739875e-05,6.00866580260373e-05,3.808516544356877e-06,0.001057121782052968,0.00027980253212134406,0.0007724139428053361,6.042089864939443e-05,0.0003222762604444499,9.300675931379071e-05,-0.0006732860628033991,0.3514034152030945,19.868005752563477,0.3236968219280243,-20.130342483520508,-0.5578513741493225,-2.4630770683288574,0.22098104655742645,0
11,0.04999136924743652,-0.3752071261405945,-19.915613174438477,-0.3713042438030243,20.154146194458008,0.5697532296180725,2.4630770683288574,-0.18710653483867645,0.0,0.0,0.0,0.0,0.0,0.0,0.0,-0.38300480138203885,-0.12789801520814983,-0.17586632242435957,0.37278583074804894,-0.034290152591298265,0.0919152703599802,-0.20030533586212285,1.2136289927260642,-0.2201372704177454,-0.007222722361227228,-2.604081418308174,-0.10895677489042281,2.468122034761862,0.8264673228187717,1.2134413937687574,-0.2202432315892585,-0.0075118285948192216,-2.6038483821997875,-0.10888392708698907,2.4681821257803174,0.826474908251239,0.0008260510217902805,0.00036172312158909116,0.00040801898761157673,0.00013790711924079212,-0.000900483135038893,4.717935470545775e-06,-0.0003900281802068279,0.0,0.0,0.0,0.0,0.0,0.0,0.0,-0.00018759895730680043,-0.00010596117151309703,-0.00028910623359199375,0.00023303610838665278,7.284780343373709e-05,6.009101845538822e-05,7.5854324673718665e-06,-0.0008260510217902805,-0.00036172312158909116,-0.00040801898761157673,-0.00013790711924079212,0.000900483135038893,-4.717935470545775e-06,0.0003900281802068279,0.3752071261405945,19.915613174438477,0.3713042438030243,-20.154146194458008,-0.5697532296180725,-2.4630770683288574,0.18710653483867645,0
12,0.054982900619506836,-0.3752071261405945,-19.915613174438477,-0.3713042438030243,20.154146194458008,0.5697532296180725,2.4630770683288574,-0.18710653483867645,0.0,0.0,0.0,0.0,0.0,0.0,0.0,-0.38300480138203885,-0.12789801520814983,-0.17586632242435957,0.37278583074804894,-0.034290152591298265,0.0919152703599802,-0.20030533586212285,1.2136289927260642,-0.2201372704177454,-0.007222722361227228,-2.604081418308174,-0.10895677489042281,2.468122034761862,0.8264673228187717,1.2134413937687574,-0.2202432315892585,-0.0075118285948192216,-2.6038483821997875,-0.10888392708698907,2.4681821257803174,0.826474908251239,0.0008260510217902805,0.00036172312158909116,0.00040801898761157673,0.00013790711924079212,-0.000900483135038893,4.717935470545775e-06,-0.0003900281802068279,0.0,0.0,0.0,0.0,0.0,0.0,0.0,-0.00018759895730680043,-0.00010596117151309703,-0.00028910623359199375,0.00023303610838665278,7.284780343373709e-05,6.009101845538822e-05,7.5854324673718665e-06,-0.0008260510217902805,-0.00036172312158909116,-0.00040801898761157673,-0.00013790711924079212,0.000900483135038893,-4.717935470545775e-06,0.0003900281802068279,0.3752071261405945,19.915613174438477,0.3713042438030243,-20.154146194458008,-0.5697532296180725,-2.4630770683288574,0.18710653483867645,0
13,0.05998682975769043,-0.4505855441093445,-19.844202041625977,-0.4466826617717743,20.130342483520508,0.5642600655555725,2.4630770683288574,-0.23471395671367645,0.0,0.0,0.0,0.0,0.0,0.0,0.0,-0.39664236968369665,-0.1250994341307697,-0.1911338528294174,0.36493775089263825,-0.033336618675070304,0.09003422366989425,-0.200519387314777,1.2136342821246702,-0.22014275519225654,-0.007218853018536904,-2.6040797487726146,-0.10895604624939553,2.468122034761641,0.8264726125316487,1.2134413937687574,-0.2202432315892585,-0.0075118285948192216,-2.6038483821997875,-0.10888392708698907,2.4681821257803174,0.826474908251239,0.0009067550367547396,-0.0007577517785404064,0.0007107312009613672,9.570508187225582e-05,-0.0003304402937259218,-0.00017299151295295764,0.0009853149051245944,0.0,0.0,0.0,0.0,0.0,0.0,0.0,-0.0001928883559128014,-0.00010047639700194733,-0.0002929755762823179,0.00023136657282707418,7.211916240645877e-05,6.009101867654465e-05,2.295719590317269e-06,-0.0009067550367547396,0.0007577517785404064,-0.0007107312009613672,-9.570508187225582e-05,0.0003304402937259218,0.00017299151295295764,-0.0009853149051245944,0.4505855441093445,19.844202041625977,0.4466826617717743,-20.130342483520508,-0.5642600655555725,-2.4630770683288574,0.23471395671367645,0
14,0.0649416446685791,-0.4505855441093445,-19.844202041625977,-0.4466826617717743,20.130342483520508,0.5642600655555725,2.4630770683288574,-0.23471395671367645,0.0,0.0,0.0,0.0,0.0,0.0,0.0,-0.39664236968369665,-0.1250994341307697,-0.1911338528294174,0.36493775089263825,-0.033336618675070304,0.09003422366989425,-0.200519387314777,1.2136342821246702,-0.22014275519225654,-0.007218853018536904,-2.6040797487726146,-0.10895604624939553,2.468122034761641,0.8264726125316487,1.2134413937687574,-0.2202432315892585,-0.0075118285948192216,-2.6038483821997875,-0.10888392708698907,2.4681821257803174,0.826474908251239,0.0009067550367547396,-0.0007577517785404064,0.0007107312009613672,9.570508187225582e-05,-0.0003304402937259218,-0.00017299151295295764,0.0009853149051245944,0.0,0.0,0.0,0.0,0.0,0.0,0.0,-0.0001928883559128014,-0.00010047639700194733,-0.0002929755762823179,0.00023136657282707418,7.211916240645877e-05,6.009101867654465e-05,2.295719590317269e-06,-0.0009067550367547396,0.0007577517785404064,-0.0007107312009613672,-9.570508187225582e-05,0.0003304402937259218,0.00017299151295295764,-0.0009853149051245944,0.4505855441093445,19.844202041625977,0.4466826617717743,-20.130342483520508,-0.5642600655555725,-2.4630770683288574,0.23471395671367645,0
15,0.06999468803405762,-0.4505855441093445,-19.844202041625977,-0.3990752398967743,20.154146194458008,0.5578513741493225,2.4566683769226074,-0.18710653483867645,0.0,0.0,0.0,0.0,0.0,0.0,0.0,-0.39612213888361014,-0.12476887046373651,-0.1899366413075025,0.3649589322055384,-0.03259449740254165,0.08990839807430459,-0.2013113546356997,1.21363428212467,-0.22014088778969085,-0.007220054602697699,-2.6040814162732535,-0.10895545246003416,2.4681227468384637,0.8264673228181071,1.2134413937687574,-0.2202432315892585,-0.0075118285948192216,-2.6038483821997875,-0.10888392708698907,2.4681821257803174,0.826474908251239,-4.267807525197615e-05,-0.00011858774021099064,-0.0007891015771616932,-0.0006685439322453225,-0.00010483188862647578,6.771452827853993e-05,-0.0007817481700520137,0.0,0.0,0.0,0.0,0.0,0.0,0.0,-0.00019288835591257936,-0.00010234379956763906,-0.00029177399212152247,0.00023303407346597638,7.152537304508377e-05,5.937894185370496e-05,7.585433131951369e-06,4.267807525197615e-05,0.00011858774021099064,0.0007891015771616932,0.0006685439322453225,0.00010483188862647578,-6.771452827853993e-05,0.0007817481700520137,0.4505855441093445,19.844202041625977,0.3990752398967743,-20.154146194458008,-0.5578513741493225,-2.4566683769226074,0.18710653483867645,0
16,0.07498311996459961,-0.4505855441093445,-19.844202041625977,-0.3990752398967743,20.154146194458008,0.5578513741493225,2.4566683769226074,-0.18710653483867645,0.0,0.0,0.0,0.0,0.0,0.0,0.0,-0.39612213888361014,-0.12476887046373651,-0.1899366413075025,0.3649589322055384,-0.03259449740254165,0.08990839807430459,-0.2013113546356997,1.21363428212467,-0.22014088778969085,-0.007220054602697699,-2.6040814162732535,-0.10895545246003416,2.4681227468384637,0.8264673228181071,1.2134413937687574,-0.2202432315892585,-0.0075118285948192216,-2.6038483821997875,-0.10888392708698907,2.4681821257803174,0.826474908251239,-4.267807525197615e-05,-0.00011858774021099064,-0.0007891015771616932,-0.0006685439322453225,-0.00010483188862647578,6.771452827853993e-05,-0.0007817481700520137,0.0,0.0,0.0,0.0,0.0,0.0,0.0,-0.00019288835591257936,-0.00010234379956763906,-0.00029177399212152247,0.00023303407346597638,7.152537304508377e-05,5.937894185370496e-05,7.585433131951369e-06,4.267807525197615e-05,0.00011858774021099064,0.0007891015771616932,0.0006685439322453225,0.00010483188862647578,-6.771452827853993e-05,0.0007817481700520137,0.4505855441093445,19.844202041625977,0.3990752398967743,-20.154146194458008,-0.5578513741493225,-2.4566683769226074,0.18710653483867645,0
17,0.08004379272460938,-0.4267818331718445,-19.816431045532227,-0.4228789508342743,20.130342483520508,0.5642600655555725,2.4630770683288574,-0.20724813640117645,0.0,0.0,0.0,0.0,0.0,0.0,0.0,-0.40145288422002606,-0.11627372753403727,-0.19027534743590474,0.36426531524517264,-0.03261194503739278,0.08924504874897891,-0.20170099458803314,1.2136326116888148,-0.22014201822799004,-0.00722051468622273,-2.6040793907350697,-0.10895616453886031,2.468122034761641,0.8264695564131855,1.2134413937687574,-0.2202432315892585,-0.0075118285948192216,-2.6038483821997875,-0.10888392708698907,2.4681821257803174,0.826474908251239,-0.0006053783086012006,3.8979748440740957e-05,0.00020757219772232164,0.0002893324167636165,-0.00037390108959390906,-8.195189559491759e-05,0.004846368237526531,0.0,0.0,0.0,0.0,0.0,0.0,0.0,-0.00019121792005738492,-0.00010121336126844849,-0.00029131390859649196,0.00023100853528212895,7.223745187123765e-05,6.009101867654465e-05,5.351838053502256e-06,0.0006053783086012006,-3.8979748440740957e-05,-0.00020757219772232164,-0.0002893324167636165,0.00037390108959390906,8.195189559491759e-05,-0.004846368237526531,0.4267818331718445,19.816431045532227,0.4228789508342743,-20.130342483520508,-0.5642600655555725,-2.4630770683288574,0.20724813640117645,0
18,0.08498072624206543,-0.4267818331718445,-19.816431045532227,-0.4228789508342743,20.130342483520508,0.5642600655555725,2.4630770683288574,-0.20724813640117645,0.0,0.0,0.0,0.0,0.0,0.0,0.0,-0.40145288422002606,-0.11627372753403727,-0.19027534743590474,0.36426531524517264,-0.03261194503739278,0.08924504874897891,-0.20170099458803314,1.2136326116888148,-0.22014201822799004,-0.00722051468622273,-2.6040793907350697,-0.10895616453886031,2.468122034761641,0.8264695564131855,1.2134413937687574,-0.2202432315892585,-0.0075118285948192216,-2.6038483821997875,-0.10888392708698907,2.4681821257803174,0.826474908251239,-0.0006053783086012006,3.8979748440740957e-05,0.00020757219772232164,0.0002893324167636165,-0.00037390108959390906,-8.195189559491759e-05,0.004846368237526531,0.0,0.0,0.0,0.0,0.0,0.0,0.0,-0.00019121792005738492,-0.00010121336126844849,-0.00029131390859649196,0.00023100853528212895,7.223745187123765e-05,6.009101867654465e-05,5.351838053502256e-06,0.0006053783086012006,-3.8979748440740957e-05,-0.00020757219772232164,-0.0002893324167636165,0.00037390108959390906,8.195189559491759e-05,-0.004846368237526531,0.4267818331718445,19.816431045532227,0.4228789508342743,-20.130342483520508,-0.5642600655555725,-2.4630770683288574,0.20724813640117645,0
19,0.08998632431030273,-0.3752071261405945,-19.844202041625977,-0.3990752398967743,20.154146194458008,0.5404563546180725,2.4493441581726074,-0.22098104655742645,0.0,0.0,0.0,0.0,0.0,0.0,0.0,-0.40945045678825875,-0.12363711265633537,-0.19584138236800275,0.37095320910056884,-0.03226579513753806,0.09087957028841186,-0.20123781315769582,1.2136296811759124,-0.22014080997655255,-0.007222185134104974,-2.604080677124783,-0.10895351968208947,2.468123560640547,0.8264710881062681,1.2134413937687574,-0.2202432315892585,-0.0075118285948192216,-2.6038483821997875,-0.10888392708698907,2.4681821257803174,0.826474908251239,-0.0010828144752618222,-0.00012607652278116152,-0.00032425308134620255,-0.00040694892777649844,0.0003867677567307637,0.0005271180972220973,0.0008566127436257252,0.0,0.0,0.0,0.0,0.0,0.0,0.0,-0.0001882874071550411,-0.00010242161270593297,-0.00028964346071424715,0.00023229492499554638,6.959259510039284e-05,5.856513977020583e-05,3.820144970911876e-06,0.0010828144752618222,0.00012607652278116152,0.00032425308134620255,0.00040694892777649844,-0.0003867677567307637,-0.0005271180972220973,-0.0008566127436257252,0.3752071261405945,19.844202041625977,0.3990752398967743,-20.154146194458008,-0.5404563546180725,-2.4493441581726074,0.22098104655742645,0
20,0.09775543212890625,-0.3752071261405945,-19.844202041625977,-0.3990752398967743,20.154146194458008,0.5404563546180725,2.4493441581726074,-0.22098104655742645,0.0,0.0,0.0,0.0,0.0,0.0,0.0,-0.40945045678825875,-0.12363711265633537,-0.19584138236800275,0.37095320910056884,-0.03226579513753806,0.09087957028841186,-0.20123781315769582,1.2136296811759124,-0.22014080997655255,-0.007222185134104974,-2.604080677124783,-0.10895351968208947,2.468123560640547,0.8264710881062681,1.2134413937687574,-0.2202432315892585,-0.0075118285948192216,-2.6038483821997875,-0.10888392708698907,2.4681821257803174,0.826474908251239,-0.0010828144752618222,-0.00012607652278116152,-0.00032425308134620255,-0.00040694892777649844,0.0003867677567307637,0.0005271180972220973,0.0008566127436257252,0.0,0.0,0.0,0.0,0.0,0.0,0.0,-0.0001882874071550411,-0.00010242161270593297,-0.00028964346071424715,0.00023229492499554638,6.959259510039284e-05,5.856513977020583e-05,3.820144970911876e-06,0.0010828144752618222,0.00012607652278116152,0.00032425308134620255,0.00040694892777649844,-0.0003867677567307637,-0.0005271180972220973,-0.0008566127436257252,0.3752071261405945,19.844202041625977,0.3990752398967743,-20.154146194458008,-0.5404563546180725,-2.4493441581726074,0.22098104655742645,0
21,0.09999942779541016,-0.3752071261405945,-19.844202041625977,-0.3990752398967743,20.154146194458008,0.5404563546180725,2.4493441581726074,-0.22098104655742645,0.0,0.0,0.0,0.0,0.0,0.0,0.0,-0.40945045678825875,-0.12363711265633537,-0.19584138236800275,0.37095320910056884,-0.03226579513753806,0.09087957028841186,-0.20123781315769582,1.2136296811759124,-0.22014080997655255,-0.007222185134104974,-2.604080677124783,-0.10895351968208947,2.468123560640547,0.8264710881062681,1.2134413937687574,-0.2202432315892585,-0.0075118285948192216,-2.6038483821997875,-0.10888392708698907,2.4681821257803174,0.826474908251239,-0.0010828144752618222,-0.00012607652278116152,-0.00032425308134620255,-0.00040694892777649844,0.0003867677567307637,0.0005271180972220973,0.0008566127436257252,0.0,0.0,0.0,0.0,0.0,0.0,0.0,-0.0001882874071550411,-0.00010242161270593297,-0.00028964346071424715,0.00023229492499554638,6.959259510039284e-05,5.856513977020583e-05,3.820144970911876e-06,0.0010828144752618222,0.00012607652278116152,0.00032425308134620255,0.00040694892777649844,-0.0003867677567307637,-0.0005271180972220973,-0.0008566127436257252,0.3752071261405945,19.844202041625977,0.3990752398967743,-20.154146194458008,-0.5404563546180725,-2.4493441581726074,0.22098104655742645,0
22,0.10498213768005371,-0.3752071261405945,-19.844202041625977,-0.3990752398967743,20.154146194458008,0.5404563546180725,2.4493441581726074,-0.22098104655742645,0.0,0.0,0.0,0.0,0.0,0.0,0.0,-0.40945045678825875,-0.12363711265633537,-0.19584138236800275,0.37095320910056884,-0.03226579513753806,0.09087957028841186,-0.20123781315769582,1.2136296811759124,-0.22014080997655255,-0.007222185134104974,-2.604080677124783,-0.10895351968208947,2.468123560640547,0.8264710881062681,1.2134413937687574,-0.2202432315892585,-0.0075118285948192216,-2.6038483821997875,-0.10888392708698907,2.4681821257803174,0.826474908251239,-0.0010828144752618222,-0.00012607652278116152,-0.00032425308134620255,-0.00040694892777649844,0.0003867677567307637,0.0005271180972220973,0.0008566127436257252,0.0,0.0,0.0,0.0,0.0,0.0,0.0,-0.0001882874071550411,-0.00010242161270593297,-0.00028964346071424715,0.00023229492499554638,6.959259510039284e-05,5.856513977020583e-05,3.820144970911876e-06,0.0010828144752618222,0.00012607652278116152,0.00032425308134620255,0.00040694892777649844,-0.0003867677567307637,-0.0005271180972220973,-0.0008566127436257252,0.3752071261405945,19.844202041625977,0.3990752398967743,-20.154146194458008,-0.5404563546180725,-2.4493441581726074,0.22098104655742645,0
23,0.11000633239746094,-0.3514034152030945,-19.844202041625977,-0.3475005328655243,20.106538772583008,0.5459495186805725,2.4429354667663574,-0.23471395671367645,0.0,0.0,0.0,0.0,0.0,0.0,0.0,-0.40066595068446353,-0.11293606193430522,-0.1912694892780343,0.3651295926992847,-0.03317678653129884,0.09072562309327485,-0.20179151821863717,1.213627324813584,-0.2201401568992618,-0.007223673856181583,-2.6040772532693364,-0.10895413003365198,2.46812427271737,0.8264757914460449,1.2134413937687574,-0.2202432315892585,-0.0075118285948192216,-2.6038483821997875,-0.10888392708698907,2.4681821257803174,0.826474908251239,-0.0006010596234187147,0.00017839274694351307,-0.0002998777168638544,0.0005984822715006867,0.0002541168541045903,0.0008040487476933965,0.0010232194222682487,0.0,0.0,0.0,0.0,0.0,0.0,0.0,-0.00018593104482667044,-0.00010307468999667946,-0.00028815473863763857,0.00022887106954883052,7.020294666290616e-05,5.785306294736614e-05,-8.831948058451999e-07,0.0006010596234187147,-0.00017839274694351307,0.0002998777168638544,-0.0005984822715006867,-0.0002541168541045903,-0.0008040487476933965,-0.0010232194222682487,0.3514034152030945,19.844202041625977,0.3475005328655243,-20.106538772583008,-0.5459495186805725,-2.4429354667663574,0.23471395671367645,0
24,0.11501169204711914,-0.3514034152030945,-19.844202041625977,-0.3475005328655243,20.106538772583008,0.5459495186805725,2.4429354667663574,-0.23471395671367645,0.0,0.0,0.0,0.0,0.0,0.0,0.0,-0.40066595068446353,-0.11293606193430522,-0.1912694892780343,0.3651295926992847,-0.03317678653129884,0.09072562309327485,-0.20179151821863717,1.213627324813584,-0.2201401568992618,-0.007223673856181583,-2.6040772532693364,-0.10895413003365198,2.46812427271737,0.8264757914460449,1.2134413937687574,-0.2202432315892585,-0.0075118285948192216,-2.6038483821997875,-0.10888392708698907,2.4681821257803174,0.826474908251239,-0.0006010596234187147,0.00017839274694351307,-0.0002998777168638544,0.0005984822715006867,0.0002541168541045903,0.0008040487476933965,0.0010232194222682487,0.0,0.0,0.0,0.0,0.0,0.0,0.0,-0.00018593104482667044,-0.00010307468999667946,-0.00028815473863763857,0.00022887106954883052,7.020294666290616e-05,5.785306294736614e-05,-8.831948058451999e-07,0.0006010596234187147,-0.00017839274694351307,0.0002998777168638544,-0.0005984822715006867,-0.0002541168541045903,-0.0008040487476933965,-0.0010232194222682487,0.3514034152030945,19.844202041625977,0.3475005328655243,-20.106538772583008,-0.5459495186805725,-2.4429354667663574,0.23471395671367645,0
25,0.11998963356018066,-0.3514034152030945,-19.844202041625977,-0.3475005328655243,20.106538772583008,0.5459495186805725,2.4429354667663574,-0.23471395671367645,0.0,0.0,0.0,0.0,0.0,0.0,0.0,-0.40066595068446353,-0.11293606193430522,-0.1912694892780343,0.3651295926992847,-0.03317678653129884,0.09072562309327485,-0.20179151821863717,1.213627324813584,-0.2201401568992618,-0.007223673856181583,-2.6040772532693364,-0.10895413003365198,2.46812427271737,0.8264757914460449,1.2134413937687574,-0.2202432315892585,-0.0075118285948192216,-2.6038483821997875,-0.10888392708698907,2.4681821257803174,0.826474908251239,-0.0006010596234187147,0.00017839274694351307,-0.0002998777168638544,0.0005984822715006867,0.0002541168541045903,0.0008040487476933965,0.0010232194222682487,0.0,0.0,0.0,0.0,0.0,0.0,0.0,-0.00018593104482667044,-0.00010307468999667946,-0.00028815473863763857,0.00022887106954883052,7.020294666290616e-05,5.785306294736614e-05,-8.831948058451999e-07,0.0006010596234187147,-0.00017839274694351307,0.0002998777168638544,-0.0005984822715006867,-0.0002541168541045903,-0.0008040487476933965,-0.0010232194222682487,0.3514034152030945,19.844202041625977,0.3475005328655243,-20.106538772583008,-0.5459495186805725,-2.4429354667663574,0.23471395671367645,0
26,0.12498736381530762,-0.4267818331718445,-19.915613174438477,-0.3713042438030243,20.130342483520508,0.5523582100868225,2.4630770683288574,-0.21457235515117645,0.0,0.0,0.0,0.0,0.0,0.0,0.0,-0.4020368386703745,-0.12354259272948435,-0.1943445000750527,0.37232749645817254,-0.03247973686699764,0.09135337457099606,-0.2034877173340822,1.2136326117938094,-0.22013792456847775,-0.007222240136700367,-2.6040797387103463,-0.10895484211047489,2.4681220352461573,0.8264703745938646,1.2134413937687574,-0.2202432315892585,-0.0075118285948192216,-2.6038483821997875,-0.10888392708698907,2.4681821257803174,0.826474908251239,0.0013369614657059734,0.0005456068232305331,0.000689811088817002,0.0006084370319523912,-0.00773218009039623,-4.1244136263183784e-06,0.0006069899556567838,0.0,0.0,0.0,0.0,0.0,0.0,0.0,-0.00019121802505206453,-0.00010530702078073717,-0.00028958845811885483,0.0002313565105587223,7.091502348581524e-05,6.009053416011767e-05,4.5336573744059194e-06,-0.0013369614657059734,-0.0005456068232305331,-0.000689811088817002,-0.0006084370319523912,0.00773218009039623,4.1244136263183784e-06,-0.0006069899556567838,0.4267818331718445,19.915613174438477,0.3713042438030243,-20.130342483520508,-0.5523582100868225,-2.4630770683288574,0.21457235515117645,0
27,0.12998390197753906,-0.4267818331718445,-19.915613174438477,-0.3713042438030243,20.130342483520508,0.5523582100868225,2.4630770683288574,-0.21457235515117645,0.0,0.0,0.0,0.0,0.0,0.0,0.0,-0.4020368386703745,-0.12354259272948435,-0.1943445000750527,0.37232749645817254,-0.03247973686699764,0.09135337457099606,-0.2034877173340822,1.2136326117938094,-0.22013792456847775,-0.007222240136700367,-2.6040797387103463,-0.10895484211047489,2.4681220352461573,0.8264703745938646,1.2134413937687574,-0.2202432315892585,-0.0075118285948192216,-2.6038483821997875,-0.10888392708698907,2.4681821257803174,0.826474908251239,0.0013369614657059734,0.0005456068232305331,0.000689811088817002,0.0006084370319523912,-0.00773218009039623,-4.1244136263183784e-06,0.0006069899556567838,0.0,0.0,0.0,0.0,0.0,0.0,0.0,-0.00019121802505206453,-0.00010530702078073717,-0.00028958845811885483,0.0002313565105587223,7.091502348581524e-05,6.009053416011767e-05,4.5336573744059194e-06,-0.0013369614657059734,-0.0005456068232305331,-0.000689811088817002,-0.0006084370319523912,0.00773218009039623,4.1244136263183784e-06,-0.0006069899556567838,0.4267818331718445,19.915613174438477,0.3713042438030243,-20.130342483520508,-0.5523582100868225,-2.4630770683288574,0.21457235515117645,0
28,0.13498258590698242,-0.4029781222343445,-19.943384170532227,-0.3713042438030243,20.181917190551758,0.5523582100868225,2.4566683769226074,-0.20724813640117645,0.0,0.0,0.0,0.0,0.0,0.0,0.0,-0.40525959907701775,-0.12560071942132828,-0.19087170244880633,0.3698003401003641,-0.03192175701765666,0.09078880651370955,-0.2030572479888818,1.2136309667627667,-0.22013533918591197,-0.007222243060609491,-2.604083358897064,-0.10895484211047489,2.4681227468384663,0.8264695607738364,1.2134413937687574,-0.2202432315892585,-0.0075118285948192216,-2.6038483821997875,-0.10888392708698907,2.4681821257803174,0.826474908251239,-0.00018359089668485725,0.0007570076627287153,0.0001236579799955158,-0.0007118123496018007,0.007846692196863627,0.00042135986247390095,0.00039806288967777614,0.0,0.0,0.0,0.0,0.0,0.0,0.0,-0.00018957299400934602,-0.00010789240334652117,-0.00028958553420973046,0.0002349766972766787,7.091502348581524e-05,5.937894185104042e-05,5.347477402661838e-06,0.00018359089668485725,-0.0007570076627287153,-0.0001236579799955158,0.0007118123496018007,-0.007846692196863627,-0.00042135986247390095,-0.00039806288967777614,0.4029781222343445,19.943384170532227,0.3713042438030243,-20.181917190551758,-0.5523582100868225,-2.4566683769226074,0.20724813640117645,0
29,0.13998079299926758,-0.4029781222343445,-19.943384170532227,-0.3713042438030243,20.181917190551758,0.5523582100868225,2.4566683769226074,-0.20724813640117645,0.0,0.0,0.0,0.0,0.0,0.0,0.0,-0.40525959907701775,-0.12560071942132828,-0.19087170244880633,0.3698003401003641,-0.03192175701765666,0.09078880651370955,-0.2030572479888818,1.2136309667627667,-0.22013533918591197,-0.007222243060609491,-2.604083358897064,-0.10895484211047489,2.4681227468384663,0.8264695607738364,1.2134413937687574,-0.2202432315892585,-0.0075118285948192216,-2.6038483821997875,-0.10888392708698907,2.4681821257803174,0.826474908251239,-0.00018359089668485725,0.0007570076627287153,0.0001236579799955158,-0.0007118123496018007,0.007846692196863627,0.00042135986247390095,0.00039806288967777614,0.0,0.0,0.0,0.0,0.0,0.0,0.0,-0.00018957299400934602,-0.00010789240334652117,-0.00028958553420973046,0.0002349766972766787,7.091502348581524e-05,5.937894185104042e-05,5.347477402661838e-06,0.00018359089668485725,-0.0007570076627287153,-0.0001236579799955158,0.0007118123496018007,-0.007846692196863627,-0.00042135986247390095,-0.00039806288967777614,0.4029781222343445,19.943384170532227,0.3713042438030243,-20.181917190551758,-0.5523582100868225,-2.4566683769226074,0.20724813640117645,0
30,0.1450331211090088,-0.3752071261405945,-19.891809463500977,-0.3713042438030243,20.154146194458008,0.5523582100868225,2.4566683769226074,-0.17337362468242645,0.0,0.0,0.0,0.0,0.0,0.0,0.0,-0.3990274348275515,-0.12702109964090613,-0.17865526650255184,0.3639770900684096,-0.03293794890338589,0.08990509904230051,-0.2022695094044249,1.2136289924115604,-0.2201375149402302,-0.007222003412357736,-2.604081415933937,-0.1089548026806533,2.4681227468384637,0.8264657969392009,1.2134413937687574,-0.2202432315892585,-0.0075118285948192216,-2.6038483821997875,-0.10888392708698907,2.4681821257803174,0.826474908251239,-0.0008470581018922067,-0.00018696026956666666,-7.75173431710213e-05,-0.0004584799557553177,0.0003431083004995628,0.0001035075020975931,-0.0009483705183802943,0.0,0.0,0.0,0.0,0.0,0.0,0.0,-0.00018759864280304406,-0.00010571664902828126,-0.00028982518246148566,0.00023303373414940154,7.087559366422691e-05,5.937894185370496e-05,9.111312038179165e-06,0.0008470581018922067,0.00018696026956666666,7.75173431710213e-05,0.0004584799557553177,-0.0003431083004995628,-0.0001035075020975931,0.0009483705183802943,0.3752071261405945,19.891809463500977,0.3713042438030243,-20.154146194458008,-0.5523582100868225,-2.4566683769226074,0.17337362468242645,0
31,0.1500535011291504,-0.3752071261405945,-19.891809463500977,-0.3713042438030243,20.154146194458008,0.5523582100868225,2.4566683769226074,-0.17337362468242645,0.0,0.0,0.0,0.0,0.0,0.0,0.0,-0.3990274348275515,-0.12702109964090613,-0.17865526650255184,0.3639770900684096,-0.03293794890338589,0.08990509904230051,-0.2022695094044249,1.2136289924115604,-0.2201375149402302,-0.007222003412357736,-2.604081415933937,-0.1089548026806533,2.4681227468384637,0.8264657969392009,1.2134413937687574,-0.2202432315892585,-0.0075118285948192216,-2.6038483821997875,-0.10888392708698907,2.4681821257803174,0.826474908251239,-0.0008470581018922067,-0.00018696026956666666,-7.75173431710213e-05,-0.0004584799557553177,0.0003431083004995628,0.0001035075020975931,-0.0009483705183802943,0.0,0.0,0.0,0.0,0.0,0.0,0.0,-0.00018759864280304406,-0.00010571664902828126,-0.00028982518246148566,0.00023303373414940154,7.087559366422691e-05,5.937894185370496e-05,9.111312038179165e-06,0.0008470581018922067,0.00018696026956666666,7.75173431710213e-05,0.0004584799557553177,-0.0003431083004995628,-0.0001035075020975931,0.0009483705183802943,0.3752071261405945,19.891809463500977,0.3713042438030243,-20.154146194458008,-0.5523582100868225,-2.4566683769226074,0.17337362468242645,0
32,0.1549999713897705,-0.4029781222343445,-19.816431045532227,-0.3713042438030243,20.181917190551758,0.5523582100868225,2.4493441581726074,-0.22098104655742645,0.0,0.0,0.0,0.0,0.0,0.0,0.0,-0.39280624117479074,-0.1282411353104498,-0.17451037258515756,0.36439020704215114,-0.03334123467944017,0.09011506918151438,-0.20111004081779216,1.2136309412529593,-0.220144848463653,-0.007222003408299211,-2.6040831208055852,-0.1089548421104007,2.468123560640547,0.8264710866527425,1.2134413937687574,-0.2202432315892585,-0.0075118285948192216,-2.6038483821997875,-0.10888392708698907,2.4681821257803174,0.826474908251239,0.0005970434901856923,-0.000765593839562537,-0.0001318205917931713,-0.0008232838071083669,0.001054430265538436,0.0005940962552844688,0.0009356056523045799,0.0,0.0,0.0,0.0,0.0,0.0,0.0,-0.00018954748420196843,-9.83831256054779e-05,-0.0002898251865200109,0.0002347386057977019,7.091502341162459e-05,5.856513977020583e-05,3.8215984965450644e-06,-0.0005970434901856923,0.000765593839562537,0.0001318205917931713,0.0008232838071083669,-0.001054430265538436,-0.0005940962552844688,-0.0009356056523045799,0.4029781222343445,19.816431045532227,0.3713042438030243,-20.181917190551758,-0.5523582100868225,-2.4493441581726074,0.22098104655742645,0
33,0.15993833541870117,-0.4029781222343445,-19.816431045532227,-0.3713042438030243,20.181917190551758,0.5523582100868225,2.4493441581726074,-0.22098104655742645,0.0,0.0,0.0,0.0,0.0,0.0,0.0,-0.39280624117479074,-0.1282411353104498,-0.17451037258515756,0.36439020704215114,-0.03334123467944017,0.09011506918151438,-0.20111004081779216,1.2136309412529593,-0.220144848463653,-0.007222003408299211,-2.6040831208055852,-0.1089548421104007,2.468123560640547,0.8264710866527425,1.2134413937687574,-0.2202432315892585,-0.0075118285948192216,-2.6038483821997875,-0.10888392708698907,2.4681821257803174,0.826474908251239,0.0005970434901856923,-0.000765593839562537,-0.0001318205917931713,-0.0008232838071083669,0.001054430265538436,0.0005940962552844688,0.0009356056523045799,0.0,0.0,0.0,0.0,0.0,0.0,0.0,-0.00018954748420196843,-9.83831256054779e-05,-0.0002898251865200109,0.0002347386057977019,7.091502341162459e-05,5.856513977020583e-05,3.8215984965450644e-06,-0.0005970434901856923,0.000765593839562537,0.0001318205917931713,0.0008232838071083669,-0.001054430265538436,-0.0005940962552844688,-0.0009356056523045799,0.4029781222343445,19.816431045532227,0.3713042438030243,-20.181917190551758,-0.5523582100868225,-2.4493441581726074,0.22098104655742645,0
34,0.16493582725524902,-0.4029781222343445,-19.792627334594727,-0.3990752398967743,20.106538772583008,0.5459495186805725,2.4566683769226074,-0.23471395671367645,0.0,0.0,0.0,0.0,0.0,0.0,0.0,-0.3957111508539361,-0.1205189942271207,-0.17842140204531212,0.3649433579134719,-0.03232516867713849,0.08978846472861496,-0.20133392046222123,1.2136310177823797,-0.22014419277119773,-0.007220291294869159,-2.604075602572019,-0.10895413003365198,2.4681227468384637,0.8264736721697781,1.2134413937687574,-0.2202432315892585,-0.0075118285948192216,-2.6038483821997875,-0.10888392708698907,2.4681821257803174,0.826474908251239,0.00021016345264681472,-0.0003351266869401379,0.000640659391697668,0.0008768196817702294,0.0003131743860904944,0.00011522152107336286,0.0012758368133162726,0.0,0.0,0.0,0.0,0.0,0.0,0.0,-0.00018962401362232484,-9.903881806075376e-05,-0.00029153729995006275,0.0002272203722313293,7.020294666290616e-05,5.937894185370496e-05,1.2360814609646553e-06,-0.00021016345264681472,0.0003351266869401379,-0.000640659391697668,-0.0008768196817702294,-0.0003131743860904944,-0.00011522152107336286,-0.0012758368133162726,0.4029781222343445,19.792627334594727,0.3990752398967743,-20.106538772583008,-0.5459495186805725,-2.4566683769226074,0.23471395671367645,0
35,0.16998004913330078,-0.4029781222343445,-19.792627334594727,-0.3990752398967743,20.106538772583008,0.5459495186805725,2.4566683769226074,-0.23471395671367645,0.0,0.0,0.0,0.0,0.0,0.0,0.0,-0.3957111508539361,-0.1205189942271207,-0.17842140204531212,0.3649433579134719,-0.03232516867713849,0.08978846472861496,-0.20133392046222123,1.2136310177823797,-0.22014419277119773,-0.007220291294869159,-2.604075602572019,-0.10895413003365198,2.4681227468384637,0.8264736721697781,1.2134413937687574,-0.2202432315892585,-0.0075118285948192216,-2.6038483821997875,-0.10888392708698907,2.4681821257803174,0.826474908251239,0.00021016345264681472,-0.0003351266869401379,0.000640659391697668,0.0008768196817702294,0.0003131743860904944,0.00011522152107336286,0.0012758368133162726,0.0,0.0,0.0,0.0,0.0,0.0,0.0,-0.00018962401362232484,-9.903881806075376e-05,-0.00029153729995006275,0.0002272203722313293,7.020294666290616e-05,5.937894185370496e-05,1.2360814609646553e-06,-0.00021016345264681472,0.0003351266869401379,-0.000640659391697668,-0.0008768196817702294,-0.0003131743860904944,-0.00011522152107336286,-0.0012758368133162726,0.4029781222343445,19.792627334594727,0.3990752398967743,-20.106538772583008,-0.5459495186805725,-2.4566683769226074,0.23471395671367645,0
36,0.17499375343322754,-0.4029781222343445,-19.816431045532227,-0.4228789508342743,20.130342483520508,0.5578513741493225,2.4566683769226074,-0.19351522624492645,0.0,0.0,0.0,0.0,0.0,0.0,0.0,-0.39610417454907476,-0.11902260443961235,-0.1772452589897971,0.37169047158221574,-0.031912319126033886,0.0906199482327851,-0.20182069238347633,1.2136309412533914,-0.22014495485267985,-0.007221224872762288,-2.604079501513929,-0.10895545246203739,2.4681227468384637,0.8264680349009117,1.2134413937687574,-0.2202432315892585,-0.0075118285948192216,-2.6038483821997875,-0.10888392708698907,2.4681821257803174,0.826474908251239,0.000303127394319858,-6.178194404660795e-05,0.0009875380360833458,8.092538216128953e-05,-3.7948204139579254e-05,-3.582023530333142e-05,-0.0003072206642681037,0.0,0.0,0.0,0.0,0.0,0.0,0.0,-0.00018954748463406723,-9.827673657863967e-05,-0.00029060372205693373,0.00023111931414154796,7.152537504831469e-05,5.937894185370496e-05,6.8733503273410435e-06,-0.000303127394319858,6.178194404660795e-05,-0.0009875380360833458,-8.092538216128953e-05,3.7948204139579254e-05,3.582023530333142e-05,0.0003072206642681037,0.4029781222343445,19.816431045532227,0.4228789508342743,-20.130342483520508,-0.5578513741493225,-2.4566683769226074,0.19351522624492645,0
37,0.17997980117797852,-0.4029781222343445,-19.816431045532227,-0.4228789508342743,20.130342483520508,0.5578513741493225,2.4566683769226074,-0.19351522624492645,0.0,0.0,0.0,0.0,0.0,0.0,0.0,-0.39610417454907476,-0.11902260443961235,-0.1772452589897971,0.37169047158221574,-0.031912319126033886,0.0906199482327851,-0.20182069238347633,1.2136309412533914,-0.22014495485267985,-0.007221224872762288,-2.604079501513929,-0.10895545246203739,2.4681227468384637,0.8264680349009117,1.2134413937687574,-0.2202432315892585,-0.0075118285948192216,-2.6038483821997875,-0.10888392708698907,2.4681821257803174,0.826474908251239,0.000303127394319858,-6.178194404660795e-05,0.0009875380360833458,8.092538216128953e-05,-3.7948204139579254e-05,-3.582023530333142e-05,-0.0003072206642681037,0.0,0.0,0.0,0.0,0.0,0.0,0.0,-0.00018954748463406723,-9.827673657863967e-05,-0.00029060372205693373,0.00023111931414154796,7.152537504831469e-05,5.937894185370496e-05,6.8733503273410435e-06,-0.000303127394319858,6.178194404660795e-05,-0.0009875380360833458,-8.092538216128953e-05,3.7948204139579254e-05,3.582023530333142e-05,0.0003072206642681037,0.4029781222343445,19.816431045532227,0.4228789508342743,-20.130342483520508,-0.5578513741493225,-2.4566683769226074,0.19351522624492645,0
38,0.18500566482543945,-0.4267818331718445,-19.844202041625977,-0.3990752398967743,20.130342483520508,0.5523582100868225,2.4694857597351074,-0.17337362468242645,0.0,0.0,0.0,0.0,0.0,0.0,0.0,-0.40430177897629743,-0.11838238848405755,-0.1880291735172445,0.3751813318533391,-0.030994742918945287,0.0909617830711635,-0.20239033184989755,1.2136326116888148,-0.22014277856200437,-0.0072200546145762805,-2.6040797397283004,-0.10895484211047489,2.468121322684818,0.8264647373010716,1.2134413937687574,-0.2202432315892585,-0.0075118285948192216,-2.6038483821997875,-0.10888392708698907,2.4681821257803174,0.826474908251239,3.7930462236659015e-05,-0.0006218730131662472,-0.0005057114689160585,0.0003882551425435967,-8.496125958017975e-05,-0.00029261982609451103,-0.0010341673370439484,0.0,0.0,0.0,0.0,0.0,0.0,0.0,-0.00019121792005738492,-0.00010045302725411598,-0.000291773980242941,0.0002313575285128877,7.091502348581524e-05,6.080309549938434e-05,1.0170950167420756e-05,-3.7930462236659015e-05,0.0006218730131662472,0.0005057114689160585,-0.0003882551425435967,8.496125958017975e-05,0.00029261982609451103,0.0010341673370439484,0.4267818331718445,19.844202041625977,0.3990752398967743,-20.130342483520508,-0.5523582100868225,-2.4694857597351074,0.17337362468242645,0
39,0.1900169849395752,-0.4267818331718445,-19.844202041625977,-0.3990752398967743,20.130342483520508,0.5523582100868225,2.4694857597351074,-0.17337362468242645,0.0,0.0,0.0,0.0,0.0,0.0,0.0,-0.40430177897629743,-0.11838238848405755,-0.1880291735172445,0.3751813318533391,-0.030994742918945287,0.0909617830711635,-0.20239033184989755,1.2136326116888148,-0.22014277856200437,-0.0072200546145762805,-2.6040797397283004,-0.10895484211047489,2.468121322684818,0.8264647373010716,1.2134413937687574,-0.2202432315892585,-0.0075118285948192216,-2.6038483821997875,-0.10888392708698907,2.4681821257803174,0.826474908251239,3.7930462236659015e-05,-0.0006218730131662472,-0.0005057114689160585,0.0003882551425435967,-8.496125958017975e-05,-0.00029261982609451103,-0.0010341673370439484,0.0,0.0,0.0,0.0,0.0,0.0,0.0,-0.00019121792005738492,-0.00010045302725411598,-0.000291773980242941,0.0002313575285128877,7.091502348581524e-05,6.080309549938434e-05,1.0170950167420756e-05,-3.7930462236659015e-05,0.0006218730131662472,0.0005057114689160585,-0.0003882551425435967,8.496125958017975e-05,0.00029261982609451103,0.0010341673370439484,0.4267818331718445,19.844202041625977,0.3990752398967743,-20.130342483520508,-0.5523582100868225,-2.4694857597351074,0.17337362468242645,0
40,0.19498944282531738,-0.4505855441093445,-19.891809463500977,-0.3990752398967743,20.130342483520508,0.5578513741493225,2.4758944511413574,-0.23471395671367645,0.0,0.0,0.0,0.0,0.0,0.0,0.0,-0.4052959010401923,-0.11587258605868953,-0.19181199261115298,0.3710664607995348,-0.0318382726887236,0.09119303352168365,-0.20179796810120915,1.21363428212467,-0.22013657970855663,-0.007220064308377664,-2.604078677025737,-0.10895545246203739,2.46812061062594,0.8264727302672248,1.2134413937687574,-0.2202432315892585,-0.0075118285948192216,-2.6038483821997875,-0.10888392708698907,2.4681821257803174,0.826474908251239,0.00037116712976140696,-0.00019320229843046647,-0.0002599192299043072,0.0004065346865255392,-0.00016403643481868334,-0.0004141226009539508,0.0011939396013822363,0.0,0.0,0.0,0.0,0.0,0.0,0.0,-0.00019288835591257936,-0.00010665188070185794,-0.0002917642864415579,0.00023029482594960626,7.152537504831469e-05,6.151515437746724e-05,2.1779840142510665e-06,-0.00037116712976140696,0.00019320229843046647,0.0002599192299043072,-0.0004065346865255392,0.00016403643481868334,0.0004141226009539508,-0.0011939396013822363,0.4505855441093445,19.891809463500977,0.3990752398967743,-20.130342483520508,-0.5578513741493225,-2.4758944511413574,0.23471395671367645,0
41,0.1999800205230713,-0.4505855441093445,-19.891809463500977,-0.3990752398967743,20.130342483520508,0.5578513741493225,2.4758944511413574,-0.23471395671367645,0.0,0.0,0.0,0.0,0.0,0.0,0.0,-0.4052959010401923,-0.11587258605868953,-0.19181199261115298,0.3710664607995348,-0.0318382726887236,0.09119303352168365,-0.20179796810120915,1.21363428212467,-0.22013657970855663,-0.007220064308377664,-2.604078677025737,-0.10895545246203739,2.46812061062594,0.8264727302672248,1.2134413937687574,-0.2202432315892585,-0.0075118285948192216,-2.6038483821997875,-0.10888392708698907,2.4681821257803174,0.826474908251239,0.00037116712976140696,-0.00019320229843046647,-0.0002599192299043072,0.0004065346865255392,-0.00016403643481868334,-0.0004141226009539508,0.0011939396013822363,0.0,0.0,0.0,0.0,0.0,0.0,0.0,-0.00019288835591257936,-0.00010665188070185794,-0.0002917642864415579,0.00023029482594960626,7.152537504831469e-05,6.151515437746724e-05,2.1779840142510665e-06,-0.00037116712976140696,0.00019320229843046647,0.0002599192299043072,-0.0004065346865255392,0.00016403643481868334,0.0004141226009539508,-0.0011939396013822363,0.4505855441093445,19.891809463500977,0.3990752398967743,-20.130342483520508,-0.5578513741493225,-2.4758944511413574,0.23471395671367645,0
42,0.20576715469360352,-0.4267818331718445,-19.891809463500977,-0.3475005328655243,20.181917190551758,0.5523582100868225,2.4694857597351074,-0.21457235515117645,0.0,0.0,0.0,0.0,0.0,0.0,0.0,-0.40799131548588263,-0.11902326468551198,-0.1957965873625069,0.3666111764258813,-0.032024332876510964,0.09113655522485481,-0.20201307344506161,1.2136326116888148,-0.22013660476111527,-0.007223700147365137,-2.604083355951669,-0.1089548026806533,2.468121322684818,0.8264703745765841,1.2134413937687574,-0.2202432315892585,-0.0075118285948192216,-2.6038483821997875,-0.10888392708698907,2.4681821257803174,0.826474908251239,0.00015623431404177535,-4.019742395002492e-05,-0.0012798562373188239,-0.0009682852943235941,-5.6362613031656945e-05,-0.0003690684746947659,0.0025907316199577403,0.0,0.0,0.0,0.0,0.0,0.0,0.0,-0.00019121792005738492,-0.00010662682814321922,-0.00028812844745408454,0.00023497375188163971,7.087559366422691e-05,6.080309549938434e-05,4.533674654916275e-06,-0.00015623431404177535,4.019742395002492e-05,0.0012798562373188239,0.0009682852943235941,5.6362613031656945e-05,0.0003690684746947659,-0.0025907316199577403,0.4267818331718445,19.891809463500977,0.3475005328655243,-20.181917190551758,-0.5523582100868225,-2.4694857597351074,0.21457235515117645,0
43,0.21001029014587402,-0.4267818331718445,-19.891809463500977,-0.3475005328655243,20.181917190551758,0.5523582100868225,2.4694857597351074,-0.21457235515117645,0.0,0.0,0.0,0.0,0.0,0.0,0.0,-0.40799131548588263,-0.11902326468551198,-0.1957965873625069,0.3666111764258813,-0.032024332876510964,0.09113655522485481,-0.20201307344506161,1.2136326116888148,-0.22013660476111527,-0.007223700147365137,-2.604083355951669,-0.1089548026806533,2.468121322684818,0.8264703745765841,1.2134413937687574,-0.2202432315892585,-0.0075118285948192216,-2.6038483821997875,-0.10888392708698907,2.4681821257803174,0.826474908251239,0.00015623431404177535,-4.019742395002492e-05,-0.0012798562373188239,-0.0009682852943235941,-5.6362613031656945e-05,-0.0003690684746947659,0.0025907316199577403,0.0,0.0,0.0,0.0,0.0,0.0,0.0,-0.00019121792005738492,-0.00010662682814321922,-0.00028812844745408454,0.00023497375188163971,7.087559366422691e-05,6.080309549938434e-05,4.533674654916275e-06,-0.00015623431404177535,4.019742395002492e-05,0.0012798562373188239,0.0009682852943235941,5.6362613031656945e-05,0.0003690684746947659,-0.0025907316199577403,0.4267818331718445,19.891809463500977,0.3475005328655243,-20.181917190551758,-0.5523582100868225,-2.4694857597351074,0.21457235515117645,0
44,0.21499872207641602,-0.3752071261405945,-19.868005752563477,-0.3475005328655243,20.106538772583008,0.5523582100868225,2.4694857597351074,-0.22830526530742645,0.0,0.0,0.0,0.0,0.0,0.0,0.0,-0.4029870223019308,-0.11559750134203266,-0.19046146984111895,0.3576170713543256,-0.03211622693144944,0.0894216105123576,-0.20081464943521177,1.213628992516107,-0.22013919411946453,-0.007225804399912811,-2.6040780784539317,-0.10895164829470311,2.468121322684818,0.8264719004548258,1.2134413937687574,-0.2202432315892585,-0.0075118285948192216,-2.6038483821997875,-0.10888392708698907,2.4681821257803174,0.826474908251239,-6.697370688259968e-05,0.0002936840688514585,-0.0005689900931748873,0.00032044675183226653,0.0001230229101597938,-0.00048763047858456945,0.0013497536679176923,0.0,0.0,0.0,0.0,0.0,0.0,0.0,-0.00018759874734963766,-0.000104037469793955,-0.00028602419490641063,0.00022969625414415162,6.772120771403323e-05,6.080309549938434e-05,3.0077964132679824e-06,6.697370688259968e-05,-0.0002936840688514585,0.0005689900931748873,-0.00032044675183226653,-0.0001230229101597938,0.00048763047858456945,-0.0013497536679176923,0.3752071261405945,19.868005752563477,0.3475005328655243,-20.106538772583008,-0.5523582100868225,-2.4694857597351074,0.22830526530742645,0
45,0.22001194953918457,-0.3752071261405945,-19.868005752563477,-0.3475005328655243,20.106538772583008,0.5523582100868225,2.4694857597351074,-0.22830526530742645,0.0,0.0,0.0,0.0,0.0,0.0,0.0,-0.4029870223019308,-0.11559750134203266,-0.19046146984111895,0.3576170713543256,-0.03211622693144944,0.0894216105123576,-0.20081464943521177,1.213628992516107,-0.22013919411946453,-0.007225804399912811,-2.6040780784539317,-0.10895164829470311,2.468121322684818,0.8264719004548258,1.2134413937687574,-0.2202432315892585,-0.0075118285948192216,-2.6038483821997875,-0.10888392708698907,2.4681821257803174,0.826474908251239,-6.697370688259968e-05,0.0002936840688514585,-0.0005689900931748873,0.00032044675183226653,0.0001230229101597938,-0.00048763047858456945,0.0013497536679176923,0.0,0.0,0.0,0.0,0.0,0.0,0.0,-0.00018759874734963766,-0.000104037469793955,-0.00028602419490641063,0.00022969625414415162,6.772120771403323e-05,6.080309549938434e-05,3.0077964132679824e-06,6.697370688259968e-05,-0.0002936840688514585,0.0005689900931748873,-0.00032044675183226653,-0.0001230229101597938,0.00048763047858456945,-0.0013497536679176923,0.3752071261405945,19.868005752563477,0.3475005328655243,-20.106538772583008,-0.5523582100868225,-2.4694857597351074,0.22830526530742645,0
46,0.22498321533203125,-0.3752071261405945,-19.792627334594727,-0.3713042438030243,20.130342483520508,0.5459495186805725,2.4630770683288574,-0.20083944499492645,0.0,0.0,0.0,0.0,0.0,0.0,0.0,-0.395282951302912,-0.13083592297231494,-0.18250792812300867,0.3673509133946292,-0.03166882578068264,0.09079577565817136,-0.20139560441493184,1.2136296811759129,-0.2201466366308983,-0.007222003420326253,-2.604078756841813,-0.1089541300156228,2.468122034761641,0.8264688486970133,1.2134413937687574,-0.2202432315892585,-0.0075118285948192216,-2.6038483821997875,-0.10888392708698907,2.4681821257803174,0.826474908251239,0.0009935471413479158,-0.0017667827890866955,0.00038209359103690536,0.00019601316296628972,0.00021512128960069027,-0.00011550838990320391,0.00016927713146617436,0.0,0.0,0.0,0.0,0.0,0.0,0.0,-0.0001882874071554852,-9.65949583601744e-05,-0.0002898251744929683,0.000230374642025577,7.020292863373079e-05,6.009101867654465e-05,6.0595542257235735e-06,-0.0009935471413479158,0.0017667827890866955,-0.00038209359103690536,-0.00019601316296628972,-0.00021512128960069027,0.00011550838990320391,-0.00016927713146617436,0.3752071261405945,19.792627334594727,0.3713042438030243,-20.130342483520508,-0.5459495186805725,-2.4630770683288574,0.20083944499492645,0
47,0.22998046875,-0.3752071261405945,-19.792627334594727,-0.3713042438030243,20.130342483520508,0.5459495186805725,2.4630770683288574,-0.20083944499492645,0.0,0.0,0.0,0.0,0.0,0.0,0.0,-0.395282951302912,-0.13083592297231494,-0.18250792812300867,0.3673509133946292,-0.03166882578068264,0.09079577565817136,-0.20139560441493184,1.2136296811759129,-0.2201466366308983,-0.007222003420326253,-2.604078756841813,-0.1089541300156228,2.468122034761641,0.8264688486970133,1.2134413937687574,-0.2202432315892585,-0.0075118285948192216,-2.6038483821997875,-0.10888392708698907,2.4681821257803174,0.826474908251239,0.0009935471413479158,-0.0017667827890866955,0.00038209359103690536,0.00019601316296628972,0.00021512128960069027,-0.00011550838990320391,0.00016927713146617436,0.0,0.0,0.0,0.0,0.0,0.0,0.0,-0.0001882874071554852,-9.65949583601744e-05,-0.0002898251744929683,0.000230374642025577,7.020292863373079e-05,6.009101867654465e-05,6.0595542257235735e-06,-0.0009935471413479158,0.0017667827890866955,-0.00038209359103690536,-0.00019601316296628972,-0.00021512128960069027,0.00011550838990320391,-0.00016927713146617436,0.3752071261405945,19.792627334594727,0.3713042438030243,-20.130342483520508,-0.5459495186805725,-2.4630770683288574,0.20083944499492645,0
48,0.23499083518981934,-0.3752071261405945,-19.792627334594727,-0.3713042438030243,20.130342483520508,0.5459495186805725,2.4630770683288574,-0.20083944499492645,0.0,0.0,0.0,0.0,0.0,0.0,0.0,-0.395282951302912,-0.13083592297231494,-0.18250792812300867,0.3673509133946292,-0.03166882578068264,0.09079577565817136,-0.20139560441493184,1.2136296811759129,-0.2201466366308983,-0.007222003420326253,-2.604078756841813,-0.1089541300156228,2.468122034761641,0.8264688486970133,1.2134413937687574,-0.2202432315892585,-0.0075118285948192216,-2.6038483821997875,-0.10888392708698907,2.4681821257803174,0.826474908251239,0.0009935471413479158,-0.0017667827890866955,0.00038209359103690536,0.00019601316296628972,0.00021512128960069027,-0.00011550838990320391,0.00016927713146617436,0.0,0.0,0.0,0.0,0.0,0.0,0.0,-0.0001882874071554852,-9.65949583601744e-05,-0.0002898251744929683,0.000230374642025577,7.020292863373079e-05,6.009101867654465e-05,6.0595542257235735e-06,-0.0009935471413479158,0.0017667827890866955,-0.00038209359103690536,-0.00019601316296628972,-0.00021512128960069027,0.00011550838990320391,-0.00016927713146617436,0.3752071261405945,19.792627334594727,0.3713042438030243,-20.130342483520508,-0.5459495186805725,-2.4630770683288574,0.20083944499492645,0
49,0.23997855186462402,-0.3752071261405945,-19.792627334594727,-0.3713042438030243,20.130342483520508,0.5459495186805725,2.4630770683288574,-0.20083944499492645,0.0,0.0,0.0,0.0,0.0,0.0,0.0,-0.395282951302912,-0.13083592297231494,-0.18250792812300867,0.3673509133946292,-0.03166882578068264,0.09079577565817136,-0.20139560441493184,1.2136296811759129,-0.2201466366308983,-0.007222003420326253,-2.604078756841813,-0.1089541300156228,2.468122034761641,0.8264688486970133,1.2134413937687574,-0.2202432315892585,-0.0075118285948192216,-2.6038483821997875,-0.10888392708698907,2.4681821257803174,0.826474908251239,0.0009935471413479158,-0.0017667827890866955,0.00038209359103690536,0.00019601316296628972,0.00021512128960069027,-0.00011550838990320391,0.00016927713146617436,0.0,0.0,0.0,0.0,0.0,0.0,0.0,-0.0001882874071554852,-9.65949583601744e-05,-0.0002898251744929683,0.000230374642025577,7.020292863373079e-05,6.009101867654465e-05,6.0595542257235735e-06,-0.0009935471413479158,0.0017667827890866955,-0.00038209359103690536,-0.00019601316296628972,-0.00021512128960069027,0.00011550838990320391,-0.00016927713146617436,0.3752071261405945,19.792627334594727,0.3713042438030243,-20.130342483520508,-0.5459495186805725,-2.4630770683288574,0.20083944499492645,0
50,0.24498462677001953,-0.3752071261405945,-19.868005752563477,-0.3475005328655243,20.130342483520508,0.5578513741493225,2.4630770683288574,-0.16604940593242645,0.0,0.0,0.0,0.0,0.0,0.0,0.0,-0.39739475742121716,-0.12610824859939967,-0.18779067750707815,0.3662233007820228,-0.031749725365952705,0.08987628323564187,-0.20259852144199195,1.2136289924227925,-0.22014031157575933,-0.00722367384415467,-2.6040797122435895,-0.10895545246203708,2.468122034761641,0.8264649831371175,1.2134413937687574,-0.2202432315892585,-0.0075118285948192216,-2.6038483821997875,-0.10888392708698907,2.4681821257803174,0.826474908251239,0.00018453064269956452,0.0005171301918980424,-0.00021295295892107978,0.0005203142314035702,-0.0003154286176684932,-2.6313871936945393e-07,-0.001814876125355113,0.0,0.0,0.0,0.0,0.0,0.0,0.0,-0.0001875986540351704,-0.00010292001349915259,-0.0002881547506645519,0.00023133004380193611,7.152537504800938e-05,6.009101867654465e-05,9.925114121567269e-06,-0.00018453064269956452,-0.0005171301918980424,0.00021295295892107978,-0.0005203142314035702,0.0003154286176684932,2.6313871936945393e-07,0.001814876125355113,0.3752071261405945,19.868005752563477,0.3475005328655243,-20.130342483520508,-0.5578513741493225,-2.4630770683288574,0.16604940593242645,0
51,0.24998235702514648,-0.3752071261405945,-19.868005752563477,-0.3475005328655243,20.130342483520508,0.5578513741493225,2.4630770683288574,-0.16604940593242645,0.0,0.0,0.0,0.0,0.0,0.0,0.0,-0.39739475742121716,-0.12610824859939967,-0.18779067750707815,0.3662233007820228,-0.031749725365952705,0.08987628323564187,-0.20259852144199195,1.2136289924227925,-0.22014031157575933,-0.00722367384415467,-2.6040797122435895,-0.10895545246203708,2.468122034761641,0.8264649831371175,1.2134413937687574,-0.2202432315892585,-0.0075118285948192216,-2.6038483821997875,-0.10888392708698907,2.4681821257803174,0.826474908251239,0.00018453064269956452,0.0005171301918980424,-0.00021295295892107978,0.0005203142314035702,-0.0003154286176684932,-2.6313871936945393e-07,-0.001814876125355113,0.0,0.0,0.0,0.0,0.0,0.0,0.0,-0.0001875986540351704,-0.00010292001349915259,-0.0002881547506645519,0.00023133004380193611,7.152537504800938e-05,6.009101867654465e-05,9.925114121567269e-06,-0.00018453064269956452,-0.0005171301918980424,0.00021295295892107978,-0.0005203142314035702,0.0003154286176684932,2.6313871936945393e-07,0.001814876125355113,0.3752071261405945,19.868005752563477,0.3475005328655243,-20.130342483520508,-0.5578513741493225,-2.4630770683288574,0.16604940593242645,0
52,0.2549874782562256,-0.4267818331718445,-19.868005752563477,-0.3990752398967743,20.130342483520508,0.5578513741493225,2.4630770683288574,-0.20724813640117645,0.0,0.0,0.0,0.0,0.0,0.0,0.0,-0.3973444157454525,-0.11952232829152525,-0.18455398044039983,0.36343948626919526,-0.03175199313107261,0.08948025146627873,-0.20342724006268267,1.2136326116888148,-0.22013898514158628,-0.007220159779090772,-2.604077523612031,-0.10895545246203739,2.468122034761641,0.8264695607738363,1.2134413937687574,-0.2202432315892585,-0.0075118285948192216,-2.6038483821997875,-0.10888392708698907,2.4681821257803174,0.826474908251239,0.0005804101326951767,0.0006372187555482738,0.0005728088271969438,3.412857392817001e-05,-0.0002769745298275294,9.6937498883153e-05,0.00014043809244401268,0.0,0.0,0.0,0.0,0.0,0.0,0.0,-0.00019121792005738492,-0.00010424644767220714,-0.00029166881572844933,0.00022914141224328333,7.152537504831469e-05,6.009101867654465e-05,5.34747740277286e-06,-0.0005804101326951767,-0.0006372187555482738,-0.0005728088271969438,-3.412857392817001e-05,0.0002769745298275294,-9.6937498883153e-05,-0.00014043809244401268,0.4267818331718445,19.868005752563477,0.3990752398967743,-20.130342483520508,-0.5578513741493225,-2.4630770683288574,0.20724813640117645,0
53,0.2599930763244629,-0.4267818331718445,-19.868005752563477,-0.3990752398967743,20.130342483520508,0.5578513741493225,2.4630770683288574,-0.20724813640117645,0.0,0.0,0.0,0.0,0.0,0.0,0.0,-0.3973444157454525,-0.11952232829152525,-0.18455398044039983,0.36343948626919526,-0.03175199313107261,0.08948025146627873,-0.20342724006268267,1.2136326116888148,-0.22013898514158628,-0.007220159779090772,-2.604077523612031,-0.10895545246203739,2.468122034761641,0.8264695607738363,1.2134413937687574,-0.2202432315892585,-0.0075118285948192216,-2.6038483821997875,-0.10888392708698907,2.4681821257803174,0.826474908251239,0.0005804101326951767,0.0006372187555482738,0.0005728088271969438,3.412857392817001e-05,-0.0002769745298275294,9.6937498883153e-05,0.00014043809244401268,0.0,0.0,0.0,0.0,0.0,0.0,0.0,-0.00019121792005738492,-0.00010424644767220714,-0.00029166881572844933,0.00022914141224328333,7.152537504831469e-05,6.009101867654465e-05,5.34747740277286e-06,-0.0005804101326951767,-0.0006372187555482738,-0.0005728088271969438,-3.412857392817001e-05,0.0002769745298275294,-9.6937498883153e-05,-0.00014043809244401268,0.4267818331718445,19.868005752563477,0.3990752398967743,-20.130342483520508,-0.5578513741493225,-2.4630770683288574,0.20724813640117645,0
54,0.26499462127685547,-0.4505855441093445,-19.868005752563477,-0.4228789508342743,20.106538772583008,0.5523582100868225,2.4566683769226074,-0.24844686686992645,0.0,0.0,0.0,0.0,0.0,0.0,0.0,-0.3977448324208745,-0.11782776224611945,-0.18016180863887205,0.36526136539631154,-0.032081249663851064,0.0906019287115664,-0.2038760623882474,1.2136342849590929,-0.2201382764611996,-0.007218384131206727,-2.604077748776243,-0.10895484162368697,2.4681227468384637,0.8264741383567198,1.2134413937687574,-0.2202432315892585,-0.0075118285948192216,-2.6038483821997875,-0.10888392708698907,2.4681821257803174,0.826474908251239,0.0005960591242740744,0.0006983440429557445,0.000655439391778219,0.0009038124996118872,-5.12018544191699e-05,0.0001019151103750474,0.001802039214671464,0.0,0.0,0.0,0.0,0.0,0.0,0.0,-0.00019289119033549795,-0.00010495512805888674,-0.0002934444636124942,0.00022936657645544756,7.091453669789971e-05,5.937894185370496e-05,7.698945192480267e-07,-0.0005960591242740744,-0.0006983440429557445,-0.000655439391778219,-0.0009038124996118872,5.12018544191699e-05,-0.0001019151103750474,-0.001802039214671464,0.4505855441093445,19.868005752563477,0.4228789508342743,-20.106538772583008,-0.5523582100868225,-2.4566683769226074,0.24844686686992645,0
55,0.27000880241394043,-0.4505855441093445,-19.868005752563477,-0.4228789508342743,20.106538772583008,0.5523582100868225,2.4566683769226074,-0.24844686686992645,0.0,0.0,0.0,0.0,0.0,0.0,0.0,-0.3977448324208745,-0.11782776224611945,-0.18016180863887205,0.36526136539631154,-0.032081249663851064,0.0906019287115664,-0.2038760623882474,1.2136342849590929,-0.2201382764611996,-0.007218384131206727,-2.604077748776243,-0.10895484162368697,2.4681227468384637,0.8264741383567198,1.2134413937687574,-0.2202432315892585,-0.0075118285948192216,-2.6038483821997875,-0.10888392708698907,2.4681821257803174,0.826474908251239,0.0005960591242740744,0.0006983440429557445,0.000655439391778219,0.0009038124996118872,-5.12018544191699e-05,0.0001019151103750474,0.001802039214671464,0.0,0.0,0.0,0.0,0.0,0.0,0.0,-0.00019289119033549795,-0.00010495512805888674,-0.0002934444636124942,0.00022936657645544756,7.091453669789971e-05,5.937894185370496e-05,7.698945192480267e-07,-0.0005960591242740744,-0.0006983440429557445,-0.000655439391778219,-0.0009038124996118872,5.12018544191699e-05,-0.0001019151103750474,-0.001802039214671464,0.4505855441093445,19.868005752563477,0.4228789508342743,-20.106538772583008,-0.5523582100868225,-2.4566683769226074,0.24844686686992645,0
56,0.27500081062316895,-0.4267818331718445,-19.868005752563477,-0.3713042438030243,20.181917190551758,0.5642600655555725,2.4566683769226074,-0.17978231608867645,0.0,0.0,0.0,0.0,0.0,0.0,0.0,-0.40057613917812745,-0.12150910037986001,-0.18143489082119119,0.3670752055844836,-0.0330704645647918,0.09131774521793211,-0.20424572450122067,1.21363261168882,-0.22014110969266848,-0.007222266451883026,-2.604083275236609,-0.1089561645388594,2.4681227468384637,0.8264665090160236,1.2134413937687574,-0.2202432315892585,-0.0075118285948192216,-2.6038483821997875,-0.10888392708698907,2.4681821257803174,0.826474908251239,0.0004304720234955284,0.00026109273716775787,-0.0013815184080668234,-0.0011531162670266539,-0.000504249746557047,0.00010237657426814616,-0.0010789345428630689,0.0,0.0,0.0,0.0,0.0,0.0,0.0,-0.00019121792006271399,-0.00010212189659000726,-0.00028956214293619515,0.00023489303682167062,7.223745187032171e-05,5.937894185370496e-05,8.399235215450496e-06,-0.0004304720234955284,-0.00026109273716775787,0.0013815184080668234,0.0011531162670266539,0.000504249746557047,-0.00010237657426814616,0.0010789345428630689,0.4267818331718445,19.868005752563477,0.3713042438030243,-20.181917190551758,-0.5642600655555725,-2.4566683769226074,0.17978231608867645,0
57,0.2799854278564453,-0.4267818331718445,-19.868005752563477,-0.3713042438030243,20.181917190551758,0.5642600655555725,2.4566683769226074,-0.17978231608867645,0.0,0.0,0.0,0.0,0.0,0.0,0.0,-0.40057613917812745,-0.12150910037986001,-0.18143489082119119,0.3670752055844836,-0.0330704645647918,0.09131774521793211,-0.20424572450122067,1.21363261168882,-0.22014110969266848,-0.007222266451883026,-2.604083275236609,-0.1089561645388594,2.4681227468384637,0.8264665090160236,1.2134413937687574,-0.2202432315892585,-0.0075118285948192216,-2.6038483821997875,-0.10888392708698907,2.4681821257803174,0.826474908251239,0.0004304720234955284,0.00026109273716775787,-0.0013815184080668234,-0.0011531162670266539,-0.000504249746557047,0.00010237657426814616,-0.0010789345428630689,0.0,0.0,0.0,0.0,0.0,0.0,0.0,-0.00019121792006271399,-0.00010212189659000726,-0.00028956214293619515,0.00023489303682167062,7.223745187032171e-05,5.937894185370496e-05,8.399235215450496e-06,-0.0004304720234955284,-0.00026109273716775787,0.0013815184080668234,0.0011531162670266539,0.000504249746557047,-0.00010237657426814616,0.0010789345428630689,0.4267818331718445,19.868005752563477,0.3713042438030243,-20.181917190551758,-0.5642600655555725,-2.4566683769226074,0.17978231608867645,0
58,0.28498172760009766,-0.4267818331718445,-19.891809463500977,-0.4228789508342743,20.154146194458008,0.5459495186805725,2.4566683769226074,-0.20083944499492645,0.0,0.0,0.0,0.0,0.0,0.0,0.0,-0.40824741802721876,-0.12219904395248368,-0.19125670123335672,0.36826454124353136,-0.03289914197693696,0.09098717120824965,-0.2042532952326879,1.2136326116888148,-0.22013967552025313,-0.007218647163654461,-2.60408141016782,-0.10895413003365198,2.4681227468384637,0.8264688486970133,1.2134413937687574,-0.2202432315892585,-0.0075118285948192216,-2.6038483821997875,-0.10888392708698907,2.4681821257803174,0.826474908251239,-0.00041925424640730784,0.0003215335300332408,0.0005824124145010463,1.7392201434699188e-05,0.0003793656241916972,0.00017343667513560485,-0.00013957689809651519,0.0,0.0,0.0,0.0,0.0,0.0,0.0,-0.00019121792005738492,-0.00010355606900536163,-0.00029318143116476014,0.00023302796803248427,7.020294666290616e-05,5.937894185370496e-05,6.0595542257235735e-06,0.00041925424640730784,-0.0003215335300332408,-0.0005824124145010463,-1.7392201434699188e-05,-0.0003793656241916972,-0.00017343667513560485,0.00013957689809651519,0.4267818331718445,19.891809463500977,0.4228789508342743,-20.154146194458008,-0.5459495186805725,-2.4566683769226074,0.20083944499492645,0
59,0.2899787425994873,-0.4267818331718445,-19.891809463500977,-0.4228789508342743,20.154146194458008,0.5459495186805725,2.4566683769226074,-0.20083944499492645,0.0,0.0,0.0,0.0,0.0,0.0,0.0,-0.40824741802721876,-0.12219904395248368,-0.19125670123335672,0.36826454124353136,-0.03289914197693696,0.09098717120824965,-0.2042532952326879,1.2136326116888148,-0.22013967552025313,-0.007218647163654461,-2.60408141016782,-0.10895413003365198,2.4681227468384637,0.8264688486970133,1.2134413937687574,-0.2202432315892585,-0.0075118285948192216,-2.6038483821997875,-0.10888392708698907,2.4681821257803174,0.826474908251239,-0.00041925424640730784,0.0003215335300332408,0.0005824124145010463,1.7392201434699188e-05,0.0003793656241916972,0.00017343667513560485,-0.00013957689809651519,0.0,0.0,0.0,0.0,0.0,0.0,0.0,-0.00019121792005738492,-0.00010355606900536163,-0.00029318143116476014,0.00023302796803248427,7.020294666290616e-05,5.937894185370496e-05,6.0595542257235735e-06,0.00041925424640730784,-0.0003215335300332408,-0.0005824124145010463,-1.7392201434699188e-05,-0.0003793656241916972,-0.00017343667513560485,0.00013957689809651519,0.4267818331718445,19.891809463500977,0.4228789508342743,-20.154146194458008,-0.5459495186805725,-2.4566683769226074,0.20083944499492645,0
60,0.29498791694641113,-0.3514034152030945,-19.891809463500977,-0.3990752398967743,20.154146194458008,0.5642600655555725,2.4566683769226074,-0.17978231608867645,0.0,0.0,0.0,0.0,0.0,0.0,0.0,-0.4044469511202708,-0.1243719880893065,-0.18588297669975587,0.36712501929516805,-0.03288720940627169,0.09057125807713053,-0.20570497612063152,1.213628010740057,-0.22013935268908663,-0.0072200811958388865,-2.6040814162732038,-0.10895616453886031,2.4681227468384637,0.8264665090160237,1.2134413937687574,-0.2202432315892585,-0.0075118285948192216,-2.6038483821997875,-0.10888392708698907,2.4681821257803174,0.826474908251239,-0.0011175672345305377,-5.428457877477803e-05,0.00023860860362195894,-0.0003791446922208297,-0.0006608150147493395,0.00013471129933020912,-0.0015846394058711582,0.0,0.0,0.0,0.0,0.0,0.0,0.0,-0.00018661697129962462,-0.00010387890017185542,-0.00029174739898033507,0.00023303407341623839,7.223745187123765e-05,5.937894185370496e-05,8.399235215339473e-06,0.0011175672345305377,5.428457877477803e-05,-0.00023860860362195894,0.0003791446922208297,0.0006608150147493395,-0.00013471129933020912,0.0015846394058711582,0.3514034152030945,19.891809463500977,0.3990752398967743,-20.154146194458008,-0.5642600655555725,-2.4566683769226074,0.17978231608867645,0
61,0.30002355575561523,-0.3514034152030945,-19.891809463500977,-0.3990752398967743,20.154146194458008,0.5642600655555725,2.4566683769226074,-0.17978231608867645,0.0,0.0,0.0,0.0,0.0,0.0,0.0,-0.4044469511202708,-0.1243719880893065,-0.18588297669975587,0.36712501929516805,-0.03288720940627169,0.09057125807713053,-0.20570497612063152,1.213628010740057,-0.22013935268908663,-0.0072200811958388865,-2.6040814162732038,-0.10895616453886031,2.4681227468384637,0.8264665090160237,1.2134413937687574,-0.2202432315892585,-0.0075118285948192216,-2.6038483821997875,-0.10888392708698907,2.4681821257803174,0.826474908251239,-0.0011175672345305377,-5.428457877477803e-05,0.00023860860362195894,-0.0003791446922208297,-0.0006608150147493395,0.00013471129933020912,-0.0015846394058711582,0.0,0.0,0.0,0.0,0.0,0.0,0.0,-0.00018661697129962462,-0.00010387890017185542,-0.00029174739898033507,0.00023303407341623839,7.223745187123765e-05,5.937894185370496e-05,8.399235215339473e-06,0.0011175672345305377,5.428457877477803e-05,-0.00023860860362195894,0.0003791446922208297,0.0006608150147493395,-0.00013471129933020912,0.0015846394058711582,0.3514034152030945,19.891809463500977,0.3990752398967743,-20.154146194458008,-0.5642600655555725,-2.4566683769226074,0.17978231608867645,0
62,0.3049917221069336,-0.3752071261405945,-19.915613174438477,-0.3990752398967743,20.106538772583008,0.5578513741493225,2.4630770683288574,-0.18710653483867645,0.0,0.0,0.0,0.0,0.0,0.0,0.0,-0.403500311307305,-0.12960973055774913,-0.18717114916673572,0.36857197992106555,-0.03280892551334487,0.09058238854139357,-0.20569954723162678,1.2136289924124244,-0.22013697081145145,-0.007220291294919266,-2.604075816571896,-0.10895545246203739,2.468122034761641,0.8264673228181071,1.2134413937687574,-0.2202432315892585,-0.0075118285948192216,-2.6038483821997875,-0.10888392708698907,2.4681821257803174,0.826474908251239,-0.00013627849204334155,0.00028512269467906526,0.0008248036484635584,0.0008799736570751534,-0.00017187676356868393,9.939617158235872e-05,-0.0006506160786825142,0.0,0.0,0.0,0.0,0.0,0.0,0.0,-0.00018759864366701962,-0.00010626077780703791,-0.00029153729989995526,0.00022743437210825945,7.152537504831469e-05,6.009101867654465e-05,7.585433131951369e-06,0.00013627849204334155,-0.00028512269467906526,-0.0008248036484635584,-0.0008799736570751534,0.00017187676356868393,-9.939617158235872e-05,0.0006506160786825142,0.3752071261405945,19.915613174438477,0.3990752398967743,-20.106538772583008,-0.5578513741493225,-2.4630770683288574,0.18710653483867645,0
63,0.31000447273254395,-0.3752071261405945,-19.915613174438477,-0.3990752398967743,20.106538772583008,0.5578513741493225,2.4630770683288574,-0.18710653483867645,0.0,0.0,0.0,0.0,0.0,0.0,0.0,-0.403500311307305,-0.12960973055774913,-0.18717114916673572,0.36857197992106555,-0.03280892551334487,0.09058238854139357,-0.20569954723162678,1.2136289924124244,-0.22013697081145145,-0.007220291294919266,-2.604075816571896,-0.10895545246203739,2.468122034761641,0.8264673228181071,1.2134413937687574,-0.2202432315892585,-0.0075118285948192216,-2.6038483821997875,-0.10888392708698907,2.4681821257803174,0.826474908251239,-0.00013627849204334155,0.00028512269467906526,0.0008248036484635584,0.0008799736570751534,-0.00017187676356868393,9.939617158235872e-05,-0.0006506160786825142,0.0,0.0,0.0,0.0,0.0,0.0,0.0,-0.00018759864366701962,-0.00010626077780703791,-0.00029153729989995526,0.00022743437210825945,7.152537504831469e-05,6.009101867654465e-05,7.585433131951369e-06,0.00013627849204334155,-0.00028512269467906526,-0.0008248036484635584,-0.0008799736570751534,0.00017187676356868393,-9.939617158235872e-05,0.0006506160786825142,0.3752071261405945,19.915613174438477,0.3990752398967743,-20.106538772583008,-0.5578513741493225,-2.4630770683288574,0.18710653483867645,0
64,0.31498098373413086,-0.4029781222343445,-19.868005752563477,-0.3713042438030243,20.154146194458008,0.5578513741493225,2.4566683769226074,-0.17337362468242645,0.0,0.0,0.0,0.0,0.0,0.0,0.0,-0.4082482984835699,-0.12465630993812314,-0.1925377031572301,0.3638281337540567,-0.03175033530127652,0.09026778925318077,-0.20575480446205782,1.2136309412529593,-0.22014039253906081,-0.00722202971279122,-2.6040806775285676,-0.10895545246203739,2.4681227468384637,0.8264657969392009,1.2134413937687574,-0.2202432315892585,-0.0075118285948192216,-2.6038483821997875,-0.10888392708698907,2.4681821257803174,0.826474908251239,-0.00011014232905610173,0.0003125797044007465,-0.0003193913757343448,-0.0003064179881957659,-0.0001431598902783724,0.00028155095088033436,-0.0010281865360228949,0.0,0.0,0.0,0.0,0.0,0.0,0.0,-0.00018954748420196843,-0.00010283905019767281,-0.0002897988820280018,0.00023229532878010772,7.152537504831469e-05,5.937894185370496e-05,9.111312038179165e-06,0.00011014232905610173,-0.0003125797044007465,0.0003193913757343448,0.0003064179881957659,0.0001431598902783724,-0.00028155095088033436,0.0010281865360228949,0.4029781222343445,19.868005752563477,0.3713042438030243,-20.154146194458008,-0.5578513741493225,-2.4566683769226074,0.17337362468242645,0
65,0.31998229026794434,-0.4029781222343445,-19.868005752563477,-0.3713042438030243,20.154146194458008,0.5578513741493225,2.4566683769226074,-0.17337362468242645,0.0,0.0,0.0,0.0,0.0,0.0,0.0,-0.4082482984835699,-0.12465630993812314,-0.1925377031572301,0.3638281337540567,-0.03175033530127652,0.09026778925318077,-0.20575480446205782,1.2136309412529593,-0.22014039253906081,-0.00722202971279122,-2.6040806775285676,-0.10895545246203739,2.4681227468384637,0.8264657969392009,1.2134413937687574,-0.2202432315892585,-0.0075118285948192216,-2.6038483821997875,-0.10888392708698907,2.4681821257803174,0.826474908251239,-0.00011014232905610173,0.0003125797044007465,-0.0003193913757343448,-0.0003064179881957659,-0.0001431598902783724,0.00028155095088033436,-0.0010281865360228949,0.0,0.0,0.0,0.0,0.0,0.0,0.0,-0.00018954748420196843,-0.00010283905019767281,-0.0002897988820280018,0.00023229532878010772,7.152537504831469e-05,5.937894185370496e-05,9.111312038179165e-06,0.00011014232905610173,-0.0003125797044007465,0.0003193913757343448,0.0003064179881957659,0.0001431598902783724,-0.00028155095088033436,0.0010281865360228949,0.4029781222343445,19.868005752563477,0.3713042438030243,-20.154146194458008,-0.5578513741493225,-2.4566683769226074,0.17337362468242645,0
66,0.3249802589416504,-0.3514034152030945,-19.868005752563477,-0.3990752398967743,20.130342483520508,0.5404563546180725,2.4630770683288574,-0.23471395671367645,0.0,0.0,0.0,0.0,0.0,0.0,0.0,-0.3998176829142973,-0.12041431307128354,-0.18308168249269594,0.3619524729031995,-0.03176111108597464,0.09084273996012365,-0.20528920153791444,1.213627321975273,-0.22014099697112124,-0.007222212399870023,-2.6040789786410183,-0.10895351968208947,2.468122034761641,0.8264726125316487,1.2134413937687574,-0.2202432315892585,-0.0075118285948192216,-2.6038483821997875,-0.10888392708698907,2.4681821257803174,0.826474908251239,-0.0008674396039320736,0.00073355061213441,0.0010667125382515389,6.699629233731673e-06,0.0002979815135251505,-2.8702023372478026e-05,0.001413818900032143,0.0,0.0,0.0,0.0,0.0,0.0,0.0,-0.00018592820651552877,-0.00010223461813724244,-0.00028961619494919863,0.00023059644123080147,6.959259510039284e-05,6.009101867654465e-05,2.295719590317269e-06,0.0008674396039320736,-0.00073355061213441,-0.0010667125382515389,-6.699629233731673e-06,-0.0002979815135251505,2.8702023372478026e-05,-0.001413818900032143,0.3514034152030945,19.868005752563477,0.3990752398967743,-20.130342483520508,-0.5404563546180725,-2.4630770683288574,0.23471395671367645,0
67,0.32998061180114746,-0.3514034152030945,-19.868005752563477,-0.3990752398967743,20.130342483520508,0.5404563546180725,2.4630770683288574,-0.23471395671367645,0.0,0.0,0.0,0.0,0.0,0.0,0.0,-0.3998176829142973,-0.12041431307128354,-0.18308168249269594,0.3619524729031995,-0.03176111108597464,0.09084273996012365,-0.20528920153791444,1.213627321975273,-0.22014099697112124,-0.007222212399870023,-2.6040789786410183,-0.10895351968208947,2.468122034761641,0.8264726125316487,1.2134413937687574,-0.2202432315892585,-0.0075118285948192216,-2.6038483821997875,-0.10888392708698907,2.4681821257803174,0.826474908251239,-0.0008674396039320736,0.00073355061213441,0.0010667125382515389,6.699629233731673e-06,0.0002979815135251505,-2.8702023372478026e-05,0.001413818900032143,0.0,0.0,0.0,0.0,0.0,0.0,0.0,-0.00018592820651552877,-0.00010223461813724244,-0.00028961619494919863,0.00023059644123080147,6.959259510039284e-05,6.009101867654465e-05,2.295719590317269e-06,0.0008674396039320736,-0.00073355061213441,-0.0010667125382515389,-6.699629233731673e-06,-0.0002979815135251505,2.8702023372478026e-05,-0.001413818900032143,0.3514034152030945,19.868005752563477,0.3990752398967743,-20.130342483520508,-0.5404563546180725,-2.4630770683288574,0.23471395671367645,0
68,0.33498215675354004,-0.3514034152030945,-19.868005752563477,-0.3990752398967743,20.130342483520508,0.5404563546180725,2.4630770683288574,-0.23471395671367645,0.0,0.0,0.0,0.0,0.0,0.0,0.0,-0.3998176829142973,-0.12041431307128354,-0.18308168249269594,0.3619524729031995,-0.03176111108597464,0.09084273996012365,-0.20528920153791444,1.213627321975273,-0.22014099697112124,-0.007222212399870023,-2.6040789786410183,-0.10895351968208947,2.468122034761641,0.8264726125316487,1.2134413937687574,-0.2202432315892585,-0.0075118285948192216,-2.6038483821997875,-0.10888392708698907,2.4681821257803174,0.826474908251239,-0.0008674396039320736,0.00073355061213441,0.0010667125382515389,6.699629233731673e-06,0.0002979815135251505,-2.8702023372478026e-05,0.001413818900032143,0.0,0.0,0.0,0.0,0.0,0.0,0.0,-0.00018592820651552877,-0.00010223461813724244,-0.00028961619494919863,0.00023059644123080147,6.959259510039284e-05,6.009101867654465e-05,2.295719590317269e-06,0.0008674396039320736,-0.00073355061213441,-0.0010667125382515389,-6.699629233731673e-06,-0.0002979815135251505,2.8702023372478026e-05,-0.001413818900032143,0.3514034152030945,19.868005752563477,0.3990752398967743,-20.130342483520508,-0.5404563546180725,-2.4630770683288574,0.23471395671367645,0
69,0.3399813175201416,-0.3514034152030945,-19.868005752563477,-0.3990752398967743,20.130342483520508,0.5404563546180725,2.4630770683288574,-0.23471395671367645,0.0,0.0,0.0,0.0,0.0,0.0,0.0,-0.3998176829142973,-0.12041431307128354,-0.18308168249269594,0.3619524729031995,-0.03176111108597464,0.09084273996012365,-0.20528920153791444,1.213627321975273,-0.22014099697112124,-0.007222212399870023,-2.6040789786410183,-0.10895351968208947,2.468122034761641,0.8264726125316487,1.2134413937687574,-0.2202432315892585,-0.0075118285948192216,-2.6038483821997875,-0.10888392708698907,2.4681821257803174,0.826474908251239,-0.0008674396039320736,0.00073355061213441,0.0010667125382515389,6.699629233731673e-06,0.0002979815135251505,-2.8702023372478026e-05,0.001413818900032143,0.0,0.0,0.0,0.0,0.0,0.0,0.0,-0.00018592820651552877,-0.00010223461813724244,-0.00028961619494919863,0.00023059644123080147,6.959259510039284e-05,6.009101867654465e-05,2.295719590317269e-06,0.0008674396039320736,-0.00073355061213441,-0.0010667125382515389,-6.699629233731673e-06,-0.0002979815135251505,2.8702023372478026e-05,-0.001413818900032143,0.3514034152030945,19.868005752563477,0.3990752398967743,-20.130342483520508,-0.5404563546180725,-2.4630770683288574,0.23471395671367645,0
70,0.34497976303100586,-0.3514034152030945,-19.868005752563477,-0.3713042438030243,20.130342483520508,0.5523582100868225,2.4630770683288574,-0.19351522624492645,0.0,0.0,0.0,0.0,0.0,0.0,0.0,-0.3988503886843174,-0.12310779036727584,-0.1816801676739763,0.3668209608998397,-0.032641588283592204,0.09111166929442983,-0.20430110047968095,1.2136273229200805,-0.2201403931802879,-0.007222004386550499,-2.6040797485492453,-0.10895159572183023,2.468122034761641,0.8264680479768822,1.2134413937687574,-0.2202432315892585,-0.0075118285948192216,-2.6038483821997875,-0.10888392708698907,2.4681821257803174,0.826474908251239,-0.0008439246756480848,0.0005228380612718078,0.0002683030518018393,2.9585329279062007e-05,0.01018528918645083,2.6096106325431067e-05,-0.0003355024874028616,0.0,0.0,0.0,0.0,0.0,0.0,0.0,-0.0001859291513230943,-0.00010283840897057361,-0.00028982420826872274,0.00023136634945775114,6.76686348411587e-05,6.009101867654465e-05,6.860274356812468e-06,0.0008439246756480848,-0.0005228380612718078,-0.0002683030518018393,-2.9585329279062007e-05,-0.01018528918645083,-2.6096106325431067e-05,0.0003355024874028616,0.3514034152030945,19.868005752563477,0.3713042438030243,-20.130342483520508,-0.5523582100868225,-2.4630770683288574,0.19351522624492645,0
71,0.34998106956481934,-0.3514034152030945,-19.868005752563477,-0.3713042438030243,20.130342483520508,0.5523582100868225,2.4630770683288574,-0.19351522624492645,0.0,0.0,0.0,0.0,0.0,0.0,0.0,-0.3988503886843174,-0.12310779036727584,-0.1816801676739763,0.3668209608998397,-0.032641588283592204,0.09111166929442983,-0.20430110047968095,1.2136273229200805,-0.2201403931802879,-0.007222004386550499,-2.6040797485492453,-0.10895159572183023,2.468122034761641,0.8264680479768822,1.2134413937687574,-0.2202432315892585,-0.0075118285948192216,-2.6038483821997875,-0.10888392708698907,2.4681821257803174,0.826474908251239,-0.0008439246756480848,0.0005228380612718078,0.0002683030518018393,2.9585329279062007e-05,0.01018528918645083,2.6096106325431067e-05,-0.0003355024874028616,0.0,0.0,0.0,0.0,0.0,0.0,0.0,-0.0001859291513230943,-0.00010283840897057361,-0.00028982420826872274,0.00023136634945775114,6.76686348411587e-05,6.009101867654465e-05,6.860274356812468e-06,0.0008439246756480848,-0.0005228380612718078,-0.0002683030518018393,-2.9585329279062007e-05,-0.01018528918645083,-2.6096106325431067e-05,0.0003355024874028616,0.3514034152030945,19.868005752563477,0.3713042438030243,-20.130342483520508,-0.5523582100868225,-2.4630770683288574,0.19351522624492645,0
72,0.3549802303314209,-0.3514034152030945,-19.868005752563477,-0.3713042438030243,20.130342483520508,0.5459495186805725,2.4758944511413574,-0.23471395671367645,0.0,0.0,0.0,0.0,0.0,0.0,0.0,-0.3987178719090105,-0.12106375718695331,-0.18012949232118952,0.36545550453795594,-0.03286476809283181,0.09088947447371239,-0.20336993155618877,1.2136273219752782,-0.22013918621091766,-0.007224212981625059,-2.604078677477968,-0.10895413001532603,2.468120610607995,0.8264757914461105,1.2134413937687574,-0.2202432315892585,-0.0075118285948192216,-2.6038483821997875,-0.10888392708698907,2.4681821257803174,0.826474908251239,-0.0009548850947791951,0.00013973196430931486,-0.000548321044533981,0.00047462089535022845,0.00066210725145275,-0.0004799421158023991,0.001053863087508285,0.0,0.0,0.0,0.0,0.0,0.0,0.0,-0.00018592820652085784,-0.00010404537834082794,-0.0002876156131941627,0.0002302952781803036,7.02029283369543e-05,6.151517232222403e-05,-8.831948714593807e-07,0.0009548850947791951,-0.00013973196430931486,0.000548321044533981,-0.00047462089535022845,-0.00066210725145275,0.0004799421158023991,-0.001053863087508285,0.3514034152030945,19.868005752563477,0.3713042438030243,-20.130342483520508,-0.5459495186805725,-2.4758944511413574,0.23471395671367645,0
73,0.35999083518981934,-0.3514034152030945,-19.868005752563477,-0.3713042438030243,20.130342483520508,0.5459495186805725,2.4758944511413574,-0.23471395671367645,0.0,0.0,0.0,0.0,0.0,0.0,0.0,-0.3987178719090105,-0.12106375718695331,-0.18012949232118952,0.36545550453795594,-0.03286476809283181,0.09088947447371239,-0.20336993155618877,1.2136273219752782,-0.22013918621091766,-0.007224212981625059,-2.604078677477968,-0.10895413001532603,2.468120610607995,0.8264757914461105,1.2134413937687574,-0.2202432315892585,-0.0075118285948192216,-2.6038483821997875,-0.10888392708698907,2.4681821257803174,0.826474908251239,-0.0009548850947791951,0.00013973196430931486,-0.000548321044533981,0.00047462089535022845,0.00066210725145275,-0.0004799421158023991,0.001053863087508285,0.0,0.0,0.0,0.0,0.0,0.0,0.0,-0.00018592820652085784,-0.00010404537834082794,-0.0002876156131941627,0.0002302952781803036,7.02029283369543e-05,6.151517232222403e-05,-8.831948714593807e-07,0.0009548850947791951,-0.00013973196430931486,0.000548321044533981,-0.00047462089535022845,-0.00066210725145275,0.0004799421158023991,-0.001053863087508285,0.3514034152030945,19.868005752563477,0.3713042438030243,-20.130342483520508,-0.5459495186805725,-2.4758944511413574,0.23471395671367645,0
74,0.364990234375,-0.4029781222343445,-19.868005752563477,-0.3990752398967743,20.154146194458008,0.5523582100868225,2.4758944511413574,-0.20724813640117645,0.0,0.0,0.0,0.0,0.0,0.0,0.0,-0.40094483401500397,-0.12298639026039036,-0.1874963981005699,0.3645582181516963,-0.03167818075521901,0.0911468096943998,-0.2027807157890829,1.213631170852885,-0.22013918635624619,-0.007220054582652814,-2.604081419160395,-0.10895484211047486,2.468120610607995,0.8264695607798179,1.2134413937687574,-0.2202432315892585,-0.0075118285948192216,-2.6038483821997875,-0.10888392708698907,2.4681821257803174,0.826474908251239,-0.00038881344694762003,-0.0005690056629191439,-0.00012965366573675728,-0.0005466191301044819,-8.550634750116703e-05,-0.00044571406757822047,0.0008320364001031447,0.0,0.0,0.0,0.0,0.0,0.0,0.0,-0.00018977708412770689,-0.00010404523301230095,-0.0002917740121664075,0.00023303696060761325,7.091502348578749e-05,6.151517232222403e-05,5.347471421113248e-06,0.00038881344694762003,0.0005690056629191439,0.00012965366573675728,0.0005466191301044819,8.550634750116703e-05,0.00044571406757822047,-0.0008320364001031447,0.4029781222343445,19.868005752563477,0.3990752398967743,-20.154146194458008,-0.5523582100868225,-2.4758944511413574,0.20724813640117645,0
75,0.36998510360717773,-0.4029781222343445,-19.868005752563477,-0.3990752398967743,20.154146194458008,0.5523582100868225,2.4758944511413574,-0.20724813640117645,0.0,0.0,0.0,0.0,0.0,0.0,0.0,-0.40094483401500397,-0.12298639026039036,-0.1874963981005699,0.3645582181516963,-0.03167818075521901,0.0911468096943998,-0.2027807157890829,1.213631170852885,-0.22013918635624619,-0.007220054582652814,-2.604081419160395,-0.10895484211047486,2.468120610607995,0.8264695607798179,1.2134413937687574,-0.2202432315892585,-0.0075118285948192216,-2.6038483821997875,-0.10888392708698907,2.4681821257803174,0.826474908251239,-0.00038881344694762003,-0.0005690056629191439,-0.00012965366573675728,-0.0005466191301044819,-8.550634750116703e-05,-0.00044571406757822047,0.0008320364001031447,0.0,0.0,0.0,0.0,0.0,0.0,0.0,-0.00018977708412770689,-0.00010404523301230095,-0.0002917740121664075,0.00023303696060761325,7.091502348578749e-05,6.151517232222403e-05,5.347471421113248e-06,0.00038881344694762003,0.0005690056629191439,0.00012965366573675728,0.0005466191301044819,8.550634750116703e-05,0.00044571406757822047,-0.0008320364001031447,0.4029781222343445,19.868005752563477,0.3990752398967743,-20.154146194458008,-0.5523582100868225,-2.4758944511413574,0.20724813640117645,0
76,0.3749852180480957,-0.4267818331718445,-19.891809463500977,-0.4228789508342743,20.205720901489258,0.5459495186805725,2.4630770683288574,-0.17978231608867645,0.0,0.0,0.0,0.0,0.0,0.0,0.0,-0.4042376370927483,-0.12658604005185012,-0.19337552572846703,0.36280901427612,-0.0321176248128164,0.09172821156291151,-0.20172461135348696,1.2136326116901108,-0.2201395601580709,-0.0072184630400799225,-2.6040850375859113,-0.10895412954686406,2.468122034761641,0.8264665090160237,1.2134413937687574,-0.2202432315892585,-0.0075118285948192216,-2.6038483821997875,-0.10888392708698907,2.4681821257803174,0.826474908251239,-0.0003487247926057472,0.00013819527335036359,-0.0003470582231672147,-0.0016139019358922249,5.113009012947696e-05,-5.029809823805813e-05,-0.000496649274718026,0.0,0.0,0.0,0.0,0.0,0.0,0.0,-0.00019121792135345927,-0.00010367143118758526,-0.00029336555473929906,0.00023665538612371861,7.020245987499063e-05,6.009101867654465e-05,8.399235215339473e-06,0.0003487247926057472,-0.00013819527335036359,0.0003470582231672147,0.0016139019358922249,-5.113009012947696e-05,5.029809823805813e-05,0.000496649274718026,0.4267818331718445,19.891809463500977,0.4228789508342743,-20.205720901489258,-0.5459495186805725,-2.4630770683288574,0.17978231608867645,0
77,0.37998390197753906,-0.4267818331718445,-19.891809463500977,-0.4228789508342743,20.205720901489258,0.5459495186805725,2.4630770683288574,-0.17978231608867645,0.0,0.0,0.0,0.0,0.0,0.0,0.0,-0.4042376370927483,-0.12658604005185012,-0.19337552572846703,0.36280901427612,-0.0321176248128164,0.09172821156291151,-0.20172461135348696,1.2136326116901108,-0.2201395601580709,-0.0072184630400799225,-2.6040850375859113,-0.10895412954686406,2.468122034761641,0.8264665090160237,1.2134413937687574,-0.2202432315892585,-0.0075118285948192216,-2.6038483821997875,-0.10888392708698907,2.4681821257803174,0.826474908251239,-0.0003487247926057472,0.00013819527335036359,-0.0003470582231672147,-0.0016139019358922249,5.113009012947696e-05,-5.029809823805813e-05,-0.000496649274718026,0.0,0.0,0.0,0.0,0.0,0.0,0.0,-0.00019121792135345927,-0.00010367143118758526,-0.00029336555473929906,0.00023665538612371861,7.020245987499063e-05,6.009101867654465e-05,8.399235215339473e-06,0.0003487247926057472,-0.00013819527335036359,0.0003470582231672147,0.0016139019358922249,-5.113009012947696e-05,5.029809823805813e-05,0.000496649274718026,0.4267818331718445,19.891809463500977,0.4228789508342743,-20.205720901489258,-0.5459495186805725,-2.4630770683288574,0.17978231608867645,0
78,0.3849930763244629,-0.4267818331718445,-19.844202041625977,-0.4228789508342743,20.154146194458008,0.5459495186805725,2.4630770683288574,-0.17978231608867645,0.0,0.0,0.0,0.0,0.0,0.0,0.0,-0.4043566401259344,-0.12688997797212706,-0.19242287736186706,0.3608773060812284,-0.0336306223568926,0.09135657407149265,-0.2004609400526421,1.2136326116888148,-0.2201427551240553,-0.007218387053631098,-2.6040811445670244,-0.10895413003364923,2.468122034761641,0.826466510469574,1.2134413937687574,-0.2202432315892585,-0.0075118285948192216,-2.6038483821997875,-0.10888392708698907,2.4681821257803174,0.826474908251239,0.00018502362493812757,-0.0006252955013290004,0.000269287468328821,-0.0005309465962479783,0.00029517764897964773,-5.2278788377577925e-05,-0.0008957899951634309,0.0,0.0,0.0,0.0,0.0,0.0,0.0,-0.00019121792005738492,-0.00010047646520319753,-0.00029344154118812315,0.00023276236723690502,7.020294666015836e-05,6.009101867654465e-05,8.397781665059334e-06,-0.00018502362493812757,0.0006252955013290004,-0.000269287468328821,0.0005309465962479783,-0.00029517764897964773,5.2278788377577925e-05,0.0008957899951634309,0.4267818331718445,19.844202041625977,0.4228789508342743,-20.154146194458008,-0.5459495186805725,-2.4630770683288574,0.17978231608867645,0
79,0.38998985290527344,-0.4267818331718445,-19.844202041625977,-0.4228789508342743,20.154146194458008,0.5459495186805725,2.4630770683288574,-0.17978231608867645,0.0,0.0,0.0,0.0,0.0,0.0,0.0,-0.4043566401259344,-0.12688997797212706,-0.19242287736186706,0.3608773060812284,-0.0336306223568926,0.09135657407149265,-0.2004609400526421,1.2136326116888148,-0.2201427551240553,-0.007218387053631098,-2.6040811445670244,-0.10895413003364923,2.468122034761641,0.826466510469574,1.2134413937687574,-0.2202432315892585,-0.0075118285948192216,-2.6038483821997875,-0.10888392708698907,2.4681821257803174,0.826474908251239,0.00018502362493812757,-0.0006252955013290004,0.000269287468328821,-0.0005309465962479783,0.00029517764897964773,-5.2278788377577925e-05,-0.0008957899951634309,0.0,0.0,0.0,0.0,0.0,0.0,0.0,-0.00019121792005738492,-0.00010047646520319753,-0.00029344154118812315,0.00023276236723690502,7.020294666015836e-05,6.009101867654465e-05,8.397781665059334e-06,-0.00018502362493812757,0.0006252955013290004,-0.000269287468328821,0.0005309465962479783,-0.00029517764897964773,5.2278788377577925e-05,0.0008957899951634309,0.4267818331718445,19.844202041625977,0.4228789508342743,-20.154146194458008,-0.5459495186805725,-2.4630770683288574,0.17978231608867645,0
