rezayati/contactInterpretation/dataset/franka_main/labeled_data/link5/c13_3.csv
index,time,tau_J0,tau_J1,tau_J2,tau_J3,tau_J4,tau_J5,tau_J6,tau_J_d0,tau_J_d1,tau_J_d2,tau_J_d3,tau_J_d4,tau_J_d5,tau_J_d6,tau_ext0,tau_ext1,tau_ext2,tau_ext3,tau_ext4,tau_ext5,tau_ext6,q0,q1,q2,q3,q4,q5,q6,q_d0,q_d1,q_d2,q_d3,q_d4,q_d5,q_d6,dq0,dq1,dq2,dq3,dq4,dq5,dq6,dq_d0,dq_d1,dq_d2,dq_d3,dq_d4,dq_d5,dq_d6,e0,e1,e2,e3,e4,e5,e6,de0,de1,de2,de3,de4,de5,de6,etau_J0,etau_J1,etau_J2,etau_J3,etau_J4,etau_J5,etau_J6,label
1,0.0,-0.3236324191093445,-34.06295394897461,-3.9974029064178467,19.261507034301758,0.1888938546180725,1.790164589881897,-0.11844198405742645,0.0,0.0,0.0,0.0,0.0,0.0,0.0,-0.33616765061452725,0.037779005918677416,-0.4210925426871562,0.2143343883384352,0.12166916741937632,-0.12632090638663332,-0.15738323400316676,1.0545131580913276,0.32362728990196993,-0.39237386964078536,-2.153296798839903,0.8647511527736982,2.4658767516222286,0.5444949726742995,1.0544104758940245,0.3238615046091247,-0.39250456234122666,-2.153291787532338,0.8647539153680389,2.46587817577521,0.5445020185570556,2.708279202460154e-05,0.0006304979935669074,0.00023667642614246247,-0.00039046488557659446,-0.0005769970404990436,-0.000388728184023532,-0.000866526973656378,0.0,0.0,0.0,0.0,0.0,0.0,0.0,-0.00010268219730313888,0.00023421470715478954,-0.00013069270044130388,5.011307565361278e-06,2.7625943407327824e-06,1.4241529813219245e-06,7.045882756129274e-06,-2.708279202460154e-05,-0.0006304979935669074,-0.00023667642614246247,0.00039046488557659446,0.0005769970404990436,0.000388728184023532,0.000866526973656378,0.3236324191093445,34.06295394897461,3.9974029064178467,-19.261507034301758,-0.1888938546180725,-1.790164589881897,0.11844198405742645,0
2,0.004986286163330078,-0.3236324191093445,-34.06295394897461,-3.9974029064178467,19.261507034301758,0.1888938546180725,1.790164589881897,-0.11844198405742645,0.0,0.0,0.0,0.0,0.0,0.0,0.0,-0.33616765061452725,0.037779005918677416,-0.4210925426871562,0.2143343883384352,0.12166916741937632,-0.12632090638663332,-0.15738323400316676,1.0545131580913276,0.32362728990196993,-0.39237386964078536,-2.153296798839903,0.8647511527736982,2.4658767516222286,0.5444949726742995,1.0544104758940245,0.3238615046091247,-0.39250456234122666,-2.153291787532338,0.8647539153680389,2.46587817577521,0.5445020185570556,2.708279202460154e-05,0.0006304979935669074,0.00023667642614246247,-0.00039046488557659446,-0.0005769970404990436,-0.000388728184023532,-0.000866526973656378,0.0,0.0,0.0,0.0,0.0,0.0,0.0,-0.00010268219730313888,0.00023421470715478954,-0.00013069270044130388,5.011307565361278e-06,2.7625943407327824e-06,1.4241529813219245e-06,7.045882756129274e-06,-2.708279202460154e-05,-0.0006304979935669074,-0.00023667642614246247,0.00039046488557659446,0.0005769970404990436,0.000388728184023532,0.000866526973656378,0.3236324191093445,34.06295394897461,3.9974029064178467,-19.261507034301758,-0.1888938546180725,-1.790164589881897,0.11844198405742645,0
3,0.009984970092773438,-0.3236324191093445,-34.06295394897461,-3.9974029064178467,19.261507034301758,0.1888938546180725,1.790164589881897,-0.11844198405742645,0.0,0.0,0.0,0.0,0.0,0.0,0.0,-0.33616765061452725,0.037779005918677416,-0.4210925426871562,0.2143343883384352,0.12166916741937632,-0.12632090638663332,-0.15738323400316676,1.0545131580913276,0.32362728990196993,-0.39237386964078536,-2.153296798839903,0.8647511527736982,2.4658767516222286,0.5444949726742995,1.0544104758940245,0.3238615046091247,-0.39250456234122666,-2.153291787532338,0.8647539153680389,2.46587817577521,0.5445020185570556,2.708279202460154e-05,0.0006304979935669074,0.00023667642614246247,-0.00039046488557659446,-0.0005769970404990436,-0.000388728184023532,-0.000866526973656378,0.0,0.0,0.0,0.0,0.0,0.0,0.0,-0.00010268219730313888,0.00023421470715478954,-0.00013069270044130388,5.011307565361278e-06,2.7625943407327824e-06,1.4241529813219245e-06,7.045882756129274e-06,-2.708279202460154e-05,-0.0006304979935669074,-0.00023667642614246247,0.00039046488557659446,0.0005769970404990436,0.000388728184023532,0.000866526973656378,0.3236324191093445,34.06295394897461,3.9974029064178467,-19.261507034301758,-0.1888938546180725,-1.790164589881897,0.11844198405742645,0
4,0.014983654022216797,-0.3236324191093445,-34.03915023803711,-3.9735991954803467,19.237703323364258,0.1650901436805725,1.783755898475647,-0.12485067546367645,0.0,0.0,0.0,0.0,0.0,0.0,0.0,-0.333865881750969,0.032370768500556604,-0.4234008695309755,0.2176398602978684,0.12204164363085947,-0.12562977808382406,-0.15542115583470703,1.0545131580913276,0.3236235048041507,-0.3923755400766406,-2.1532944395342852,0.864753797630469,2.4658785233365164,0.5444955800795539,1.0544104758940245,0.3238615046091247,-0.39250456234122666,-2.153291787532338,0.8647539153680389,2.46587817577521,0.5445020185570556,0.0002316754733204454,-0.0001557731468721448,-0.0001722196285039533,0.00041411686934157563,0.0006093002819393644,-2.444387604331594e-05,-0.001315340652399264,0.0,0.0,0.0,0.0,0.0,0.0,0.0,-0.00010268219730313888,0.00023799980497402062,-0.00012902226458605393,2.6520019473785794e-06,1.1773756991573237e-07,-3.475613064019001e-07,6.438477501702344e-06,-0.0002316754733204454,0.0001557731468721448,0.0001722196285039533,-0.00041411686934157563,-0.0006093002819393644,2.444387604331594e-05,0.001315340652399264,0.3236324191093445,34.03915023803711,3.9735991954803467,-19.237703323364258,-0.1650901436805725,-1.783755898475647,0.12485067546367645,0
5,0.019985198974609375,-0.3236324191093445,-34.03915023803711,-3.9735991954803467,19.237703323364258,0.1650901436805725,1.783755898475647,-0.12485067546367645,0.0,0.0,0.0,0.0,0.0,0.0,0.0,-0.333865881750969,0.032370768500556604,-0.4234008695309755,0.2176398602978684,0.12204164363085947,-0.12562977808382406,-0.15542115583470703,1.0545131580913276,0.3236235048041507,-0.3923755400766406,-2.1532944395342852,0.864753797630469,2.4658785233365164,0.5444955800795539,1.0544104758940245,0.3238615046091247,-0.39250456234122666,-2.153291787532338,0.8647539153680389,2.46587817577521,0.5445020185570556,0.0002316754733204454,-0.0001557731468721448,-0.0001722196285039533,0.00041411686934157563,0.0006093002819393644,-2.444387604331594e-05,-0.001315340652399264,0.0,0.0,0.0,0.0,0.0,0.0,0.0,-0.00010268219730313888,0.00023799980497402062,-0.00012902226458605393,2.6520019473785794e-06,1.1773756991573237e-07,-3.475613064019001e-07,6.438477501702344e-06,-0.0002316754733204454,0.0001557731468721448,0.0001722196285039533,-0.00041411686934157563,-0.0006093002819393644,2.444387604331594e-05,0.001315340652399264,0.3236324191093445,34.03915023803711,3.9735991954803467,-19.237703323364258,-0.1650901436805725,-1.783755898475647,0.12485067546367645,0
6,0.025005817413330078,-0.3514034152030945,-34.03915023803711,-4.025173664093018,19.289278030395508,0.1650901436805725,1.777347207069397,-0.18710653483867645,0.0,0.0,0.0,0.0,0.0,0.0,0.0,-0.3335443438546679,0.03319203147537956,-0.42423096889347367,0.21789337776922094,0.1220469901241467,-0.12476456290252909,-0.1563075606447554,1.0545151069331586,0.3236238427851671,-0.39237192081568534,-2.1532987476804384,0.8647538019911197,2.4658781757951487,0.5445024843133404,1.0544104758940245,0.3238615046091247,-0.39250456234122666,-2.153291787532338,0.8647539153680389,2.46587817577521,0.5445020185570556,0.0005694599985715005,0.0001963727671457189,0.0009899716246731167,-0.0011049530053309446,0.00019215147920618336,0.00026018463450008935,0.0011240333749938684,0.0,0.0,0.0,0.0,0.0,0.0,0.0,-0.00010463103913416205,0.00023766182395762447,-0.00013264152554132158,6.9601481005321375e-06,1.1337691918633652e-07,-1.993871734384811e-11,-4.6575628476208664e-07,-0.0005694599985715005,-0.0001963727671457189,-0.0009899716246731167,0.0011049530053309446,-0.00019215147920618336,-0.00026018463450008935,-0.0011240333749938684,0.3514034152030945,34.03915023803711,4.025173664093018,-19.289278030395508,-0.1650901436805725,-1.777347207069397,0.18710653483867645,0
7,0.030030250549316406,-0.3514034152030945,-34.03915023803711,-4.025173664093018,19.289278030395508,0.1650901436805725,1.777347207069397,-0.18710653483867645,0.0,0.0,0.0,0.0,0.0,0.0,0.0,-0.3335443438546679,0.03319203147537956,-0.42423096889347367,0.21789337776922094,0.1220469901241467,-0.12476456290252909,-0.1563075606447554,1.0545151069331586,0.3236238427851671,-0.39237192081568534,-2.1532987476804384,0.8647538019911197,2.4658781757951487,0.5445024843133404,1.0544104758940245,0.3238615046091247,-0.39250456234122666,-2.153291787532338,0.8647539153680389,2.46587817577521,0.5445020185570556,0.0005694599985715005,0.0001963727671457189,0.0009899716246731167,-0.0011049530053309446,0.00019215147920618336,0.00026018463450008935,0.0011240333749938684,0.0,0.0,0.0,0.0,0.0,0.0,0.0,-0.00010463103913416205,0.00023766182395762447,-0.00013264152554132158,6.9601481005321375e-06,1.1337691918633652e-07,-1.993871734384811e-11,-4.6575628476208664e-07,-0.0005694599985715005,-0.0001963727671457189,-0.0009899716246731167,0.0011049530053309446,-0.00019215147920618336,-0.00026018463450008935,-0.0011240333749938684,0.3514034152030945,34.03915023803711,4.025173664093018,-19.289278030395508,-0.1650901436805725,-1.777347207069397,0.18710653483867645,0
8,0.03574705123901367,-0.3236324191093445,-34.01534652709961,-3.9974029064178467,19.237703323364258,0.1650901436805725,1.777347207069397,-0.12485067546367645,0.0,0.0,0.0,0.0,0.0,0.0,0.0,-0.3308162667691838,0.030694860764498004,-0.4232039833916616,0.21917903461456445,0.12119661587295925,-0.12459140978555244,-0.1578374954939419,1.0545131580913276,0.32362183562217656,-0.39237386964078536,-2.153295128404048,0.8647537976305428,2.46587817577521,0.5444955669956075,1.0544104758940245,0.3238615046091247,-0.39250456234122666,-2.153291787532338,0.8647539153680389,2.46587817577521,0.5445020185570556,-0.00016630844668058265,-0.0007356158541099345,0.00022800595955884976,0.0003159873750917966,0.0003510765467092451,0.0002180421915547005,-0.0013065915520513336,0.0,0.0,0.0,0.0,0.0,0.0,0.0,-0.00010268219730313888,0.00023966898694816052,-0.00013069270044130388,3.3408717099447927e-06,1.1773749608590123e-07,0.0,6.451561448073129e-06,0.00016630844668058265,0.0007356158541099345,-0.00022800595955884976,-0.0003159873750917966,-0.0003510765467092451,-0.0002180421915547005,0.0013065915520513336,0.3236324191093445,34.01534652709961,3.9974029064178467,-19.237703323364258,-0.1650901436805725,-1.777347207069397,0.12485067546367645,0
9,0.0399932861328125,-0.3236324191093445,-34.01534652709961,-3.9974029064178467,19.237703323364258,0.1650901436805725,1.777347207069397,-0.12485067546367645,0.0,0.0,0.0,0.0,0.0,0.0,0.0,-0.3308162667691838,0.030694860764498004,-0.4232039833916616,0.21917903461456445,0.12119661587295925,-0.12459140978555244,-0.1578374954939419,1.0545131580913276,0.32362183562217656,-0.39237386964078536,-2.153295128404048,0.8647537976305428,2.46587817577521,0.5444955669956075,1.0544104758940245,0.3238615046091247,-0.39250456234122666,-2.153291787532338,0.8647539153680389,2.46587817577521,0.5445020185570556,-0.00016630844668058265,-0.0007356158541099345,0.00022800595955884976,0.0003159873750917966,0.0003510765467092451,0.0002180421915547005,-0.0013065915520513336,0.0,0.0,0.0,0.0,0.0,0.0,0.0,-0.00010268219730313888,0.00023966898694816052,-0.00013069270044130388,3.3408717099447927e-06,1.1773749608590123e-07,0.0,6.451561448073129e-06,0.00016630844668058265,0.0007356158541099345,-0.00022800595955884976,-0.0003159873750917966,-0.0003510765467092451,-0.0002180421915547005,0.0013065915520513336,0.3236324191093445,34.01534652709961,3.9974029064178467,-19.237703323364258,-0.1650901436805725,-1.777347207069397,0.12485067546367645,0
10,0.045134782791137695,-0.3236324191093445,-34.03915023803711,-3.9974029064178467,19.261507034301758,0.1834006905555725,1.777347207069397,-0.17978231608867645,0.0,0.0,0.0,0.0,0.0,0.0,0.0,-0.32385915944772653,0.026705369196108733,-0.4197737426094956,0.22296038197591794,0.120431488646465,-0.12484378144092649,-0.15822762280181193,1.0545131580913276,0.3236242067904898,-0.39237386964078536,-2.153296798839903,0.8647517631252607,2.4658785290058645,0.5445020629697989,1.0544104758940245,0.3238615046091247,-0.39250456234122666,-2.153291787532338,0.8647539153680389,2.46587817577521,0.5445020185570556,-0.0001454502862086879,4.8915720376296114e-06,0.00027980065692761444,-0.00016269153065715764,-0.0004266195173728163,-2.8447083583451796e-05,0.0010688279023108199,0.0,0.0,0.0,0.0,0.0,0.0,0.0,-0.00010268219730313888,0.0002372978186349073,-0.00013069270044130388,5.011307565361278e-06,2.1522427782194598e-06,-3.532306545039887e-07,-4.441274326083544e-08,0.0001454502862086879,-4.8915720376296114e-06,-0.00027980065692761444,0.00016269153065715764,0.0004266195173728163,2.8447083583451796e-05,-0.0010688279023108199,0.3236324191093445,34.03915023803711,3.9974029064178467,-19.261507034301758,-0.1834006905555725,-1.777347207069397,0.17978231608867645,0
11,0.04999113082885742,-0.3236324191093445,-34.03915023803711,-3.9974029064178467,19.261507034301758,0.1834006905555725,1.777347207069397,-0.17978231608867645,0.0,0.0,0.0,0.0,0.0,0.0,0.0,-0.32385915944772653,0.026705369196108733,-0.4197737426094956,0.22296038197591794,0.120431488646465,-0.12484378144092649,-0.15822762280181193,1.0545131580913276,0.3236242067904898,-0.39237386964078536,-2.153296798839903,0.8647517631252607,2.4658785290058645,0.5445020629697989,1.0544104758940245,0.3238615046091247,-0.39250456234122666,-2.153291787532338,0.8647539153680389,2.46587817577521,0.5445020185570556,-0.0001454502862086879,4.8915720376296114e-06,0.00027980065692761444,-0.00016269153065715764,-0.0004266195173728163,-2.8447083583451796e-05,0.0010688279023108199,0.0,0.0,0.0,0.0,0.0,0.0,0.0,-0.00010268219730313888,0.0002372978186349073,-0.00013069270044130388,5.011307565361278e-06,2.1522427782194598e-06,-3.532306545039887e-07,-4.441274326083544e-08,0.0001454502862086879,-4.8915720376296114e-06,-0.00027980065692761444,0.00016269153065715764,0.0004266195173728163,2.8447083583451796e-05,-0.0010688279023108199,0.3236324191093445,34.03915023803711,3.9974029064178467,-19.261507034301758,-0.1834006905555725,-1.777347207069397,0.17978231608867645,0
12,0.054931640625,-0.2998287081718445,-34.06295394897461,-3.9735991954803467,19.261507034301758,0.1834006905555725,1.777347207069397,-0.16604940593242645,0.0,0.0,0.0,0.0,0.0,0.0,0.0,-0.33223638325127547,0.023635333467973373,-0.42926956711135494,0.22293845936289208,0.12003373181644818,-0.12447314188557246,-0.15803815891322415,1.0545114876554724,0.32362517520815626,-0.39237553713320134,-2.153296798839903,0.8647517631252607,2.465878175777204,0.5445001446345415,1.0544104758940245,0.3238615046091247,-0.39250456234122666,-2.153291787532338,0.8647539153680389,2.46587817577521,0.5445020185570556,-0.0005783523678909256,0.00040396657783578146,-0.0005768864623298508,-0.00019154904710522348,0.005159796578760588,0.00016408466744431796,0.0004737889580503483,0.0,0.0,0.0,0.0,0.0,0.0,0.0,-0.00010101176144794444,0.00023632940096846022,-0.00012902520802532402,5.011307565361278e-06,2.1522427782194598e-06,-1.993960552226781e-12,1.8739225140507187e-06,0.0005783523678909256,-0.00040396657783578146,0.0005768864623298508,0.00019154904710522348,-0.005159796578760588,-0.00016408466744431796,-0.0004737889580503483,0.2998287081718445,34.06295394897461,3.9735991954803467,-19.261507034301758,-0.1834006905555725,-1.777347207069397,0.16604940593242645,0
13,0.05998492240905762,-0.2998287081718445,-34.06295394897461,-3.9735991954803467,19.261507034301758,0.1834006905555725,1.777347207069397,-0.16604940593242645,0.0,0.0,0.0,0.0,0.0,0.0,0.0,-0.33223638325127547,0.023635333467973373,-0.42926956711135494,0.22293845936289208,0.12003373181644818,-0.12447314188557246,-0.15803815891322415,1.0545114876554724,0.32362517520815626,-0.39237553713320134,-2.153296798839903,0.8647517631252607,2.465878175777204,0.5445001446345415,1.0544104758940245,0.3238615046091247,-0.39250456234122666,-2.153291787532338,0.8647539153680389,2.46587817577521,0.5445020185570556,-0.0005783523678909256,0.00040396657783578146,-0.0005768864623298508,-0.00019154904710522348,0.005159796578760588,0.00016408466744431796,0.0004737889580503483,0.0,0.0,0.0,0.0,0.0,0.0,0.0,-0.00010101176144794444,0.00023632940096846022,-0.00012902520802532402,5.011307565361278e-06,2.1522427782194598e-06,-1.993960552226781e-12,1.8739225140507187e-06,0.0005783523678909256,-0.00040396657783578146,0.0005768864623298508,0.00019154904710522348,-0.005159796578760588,-0.00016408466744431796,-0.0004737889580503483,0.2998287081718445,34.06295394897461,3.9735991954803467,-19.261507034301758,-0.1834006905555725,-1.777347207069397,0.16604940593242645,0
14,0.0649867057800293,-0.3236324191093445,-34.03915023803711,-3.9497954845428467,19.237703323364258,0.1714988350868225,1.783755898475647,-0.13217489421367645,0.0,0.0,0.0,0.0,0.0,0.0,0.0,-0.3314749232185577,0.030752782908729046,-0.4290854717993057,0.21845991866476322,0.12074924320695644,-0.12541311482825546,-0.1567294890903362,1.0545131580913276,0.3236242340629482,-0.39237721051247926,-2.153295128404048,0.864753085553646,2.465877476780339,0.5444967340104006,1.0544104758940245,0.3238615046091247,-0.39250456234122666,-2.153291787532338,0.8647539153680389,2.46587817577521,0.5445020185570556,-0.0003344502991106643,-0.0001820086994148197,-0.0007762505581438436,0.00014393578707091944,0.0005572951869331736,-0.00022245020373869745,-0.0006158857448889928,0.0,0.0,0.0,0.0,0.0,0.0,0.0,-0.00010268219730313888,0.00023727054617650456,-0.0001273518287474018,3.3408717099447927e-06,8.298143928664459e-07,6.989948708735483e-07,5.2845466550488496e-06,0.0003344502991106643,0.0001820086994148197,0.0007762505581438436,-0.00014393578707091944,-0.0005572951869331736,0.00022245020373869745,0.0006158857448889928,0.3236324191093445,34.03915023803711,3.9497954845428467,-19.237703323364258,-0.1714988350868225,-1.783755898475647,0.13217489421367645,0
15,0.06999063491821289,-0.3236324191093445,-34.03915023803711,-3.9497954845428467,19.237703323364258,0.1714988350868225,1.783755898475647,-0.13217489421367645,0.0,0.0,0.0,0.0,0.0,0.0,0.0,-0.3314749232185577,0.030752782908729046,-0.4290854717993057,0.21845991866476322,0.12074924320695644,-0.12541311482825546,-0.1567294890903362,1.0545131580913276,0.3236242340629482,-0.39237721051247926,-2.153295128404048,0.864753085553646,2.465877476780339,0.5444967340104006,1.0544104758940245,0.3238615046091247,-0.39250456234122666,-2.153291787532338,0.8647539153680389,2.46587817577521,0.5445020185570556,-0.0003344502991106643,-0.0001820086994148197,-0.0007762505581438436,0.00014393578707091944,0.0005572951869331736,-0.00022245020373869745,-0.0006158857448889928,0.0,0.0,0.0,0.0,0.0,0.0,0.0,-0.00010268219730313888,0.00023727054617650456,-0.0001273518287474018,3.3408717099447927e-06,8.298143928664459e-07,6.989948708735483e-07,5.2845466550488496e-06,0.0003344502991106643,0.0001820086994148197,0.0007762505581438436,-0.00014393578707091944,-0.0005572951869331736,0.00022245020373869745,0.0006158857448889928,0.3236324191093445,34.03915023803711,3.9497954845428467,-19.237703323364258,-0.1714988350868225,-1.783755898475647,0.13217489421367645,0
16,0.07499408721923828,-0.3236324191093445,-34.03915023803711,-3.9735991954803467,19.261507034301758,0.1714988350868225,1.783755898475647,-0.17337362468242645,0.0,0.0,0.0,0.0,0.0,0.0,0.0,-0.3373214996287028,0.017551820063213687,-0.4339426654700359,0.22578036769099905,0.12167036106380587,-0.12422017880816848,-0.15524662712734066,1.0545131580913276,0.32362420677997106,-0.3923755400766406,-2.153296798839903,0.864753085553646,2.465877468059062,0.5445009584350742,1.0544104758940245,0.3238615046091247,-0.39250456234122666,-2.153291787532338,0.8647539153680389,2.46587817577521,0.5445020185570556,-0.0006531299191988821,-0.0007442289299878101,-0.000334810767864189,7.852686582136878e-05,2.4152611101860198e-05,-6.32747823118597e-05,0.0008242456639572238,0.0,0.0,0.0,0.0,0.0,0.0,0.0,-0.00010268219730313888,0.00023729782915365982,-0.00012902226458605393,5.011307565361278e-06,8.298143928664459e-07,7.077161479074334e-07,1.0601219814221352e-06,0.0006531299191988821,0.0007442289299878101,0.000334810767864189,-7.852686582136878e-05,-2.4152611101860198e-05,6.32747823118597e-05,-0.0008242456639572238,0.3236324191093445,34.03915023803711,3.9735991954803467,-19.261507034301758,-0.1714988350868225,-1.783755898475647,0.17337362468242645,0
17,0.07999062538146973,-0.3236324191093445,-34.03915023803711,-3.9735991954803467,19.261507034301758,0.1714988350868225,1.783755898475647,-0.17337362468242645,0.0,0.0,0.0,0.0,0.0,0.0,0.0,-0.3373214996287028,0.017551820063213687,-0.4339426654700359,0.22578036769099905,0.12167036106380587,-0.12422017880816848,-0.15524662712734066,1.0545131580913276,0.32362420677997106,-0.3923755400766406,-2.153296798839903,0.864753085553646,2.465877468059062,0.5445009584350742,1.0544104758940245,0.3238615046091247,-0.39250456234122666,-2.153291787532338,0.8647539153680389,2.46587817577521,0.5445020185570556,-0.0006531299191988821,-0.0007442289299878101,-0.000334810767864189,7.852686582136878e-05,2.4152611101860198e-05,-6.32747823118597e-05,0.0008242456639572238,0.0,0.0,0.0,0.0,0.0,0.0,0.0,-0.00010268219730313888,0.00023729782915365982,-0.00012902226458605393,5.011307565361278e-06,8.298143928664459e-07,7.077161479074334e-07,1.0601219814221352e-06,0.0006531299191988821,0.0007442289299878101,0.000334810767864189,-7.852686582136878e-05,-2.4152611101860198e-05,6.32747823118597e-05,-0.0008242456639572238,0.3236324191093445,34.03915023803711,3.9735991954803467,-19.261507034301758,-0.1714988350868225,-1.783755898475647,0.17337362468242645,0
18,0.08498787879943848,-0.3236324191093445,-34.03915023803711,-3.9735991954803467,19.313081741333008,0.1769919991493225,1.783755898475647,-0.16604940593242645,0.0,0.0,0.0,0.0,0.0,0.0,0.0,-0.3272851795457609,0.03332349631016879,-0.4209705742217612,0.21655022997767906,0.1211824821971968,-0.12579023114250626,-0.15769456729654974,1.0545131580913276,0.3236237387757212,-0.3923755399676243,-2.1533004171727823,0.8647524752020835,2.4658775029442683,0.544500196960135,1.0544104758940245,0.3238615046091247,-0.39250456234122666,-2.153291787532338,0.8647539153680389,2.46587817577521,0.5445020185570556,-0.00021497034872064086,0.00016037544907732425,0.00044445792723025535,-0.0015017287890433844,2.6511865146917757e-05,-2.0383807467325264e-05,0.0003472684470147734,0.0,0.0,0.0,0.0,0.0,0.0,0.0,-0.00010268219730313888,0.00023776583340351376,-0.00012902237360234992,8.629640444457465e-06,1.4401659553797685e-06,6.728309416281775e-07,1.821596920636992e-06,0.00021497034872064086,-0.00016037544907732425,-0.00044445792723025535,0.0015017287890433844,-2.6511865146917757e-05,2.0383807467325264e-05,-0.0003472684470147734,0.3236324191093445,34.03915023803711,3.9735991954803467,-19.313081741333008,-0.1769919991493225,-1.783755898475647,0.16604940593242645,0
19,0.08998823165893555,-0.3236324191093445,-34.03915023803711,-3.9735991954803467,19.313081741333008,0.1769919991493225,1.783755898475647,-0.16604940593242645,0.0,0.0,0.0,0.0,0.0,0.0,0.0,-0.3272851795457609,0.03332349631016879,-0.4209705742217612,0.21655022997767906,0.1211824821971968,-0.12579023114250626,-0.15769456729654974,1.0545131580913276,0.3236237387757212,-0.3923755399676243,-2.1533004171727823,0.8647524752020835,2.4658775029442683,0.544500196960135,1.0544104758940245,0.3238615046091247,-0.39250456234122666,-2.153291787532338,0.8647539153680389,2.46587817577521,0.5445020185570556,-0.00021497034872064086,0.00016037544907732425,0.00044445792723025535,-0.0015017287890433844,2.6511865146917757e-05,-2.0383807467325264e-05,0.0003472684470147734,0.0,0.0,0.0,0.0,0.0,0.0,0.0,-0.00010268219730313888,0.00023776583340351376,-0.00012902237360234992,8.629640444457465e-06,1.4401659553797685e-06,6.728309416281775e-07,1.821596920636992e-06,0.00021497034872064086,-0.00016037544907732425,-0.00044445792723025535,0.0015017287890433844,-2.6511865146917757e-05,2.0383807467325264e-05,-0.0003472684470147734,0.3236324191093445,34.03915023803711,3.9735991954803467,-19.313081741333008,-0.1769919991493225,-1.783755898475647,0.16604940593242645,0
20,0.0949869155883789,-0.3752071261405945,-34.03915023803711,-3.9974029064178467,19.213899612426758,0.1834006905555725,1.777347207069397,-0.14590780436992645,0.0,0.0,0.0,0.0,0.0,0.0,0.0,-0.33942282810976737,0.029600312710359504,-0.4300457928316845,0.21797288789026392,0.12208763100683226,-0.12410802158621805,-0.15914171049282955,1.054516777369014,0.3236235089425596,-0.39237386964078474,-2.1532934579681875,0.8647517631252607,2.465878175775431,0.5445011248371371,1.0544104758940245,0.3238615046091247,-0.39250456234122666,-2.153291787532338,0.8647539153680389,2.46587817577521,0.5445020185570556,0.0004883913542498748,0.0001662130652901104,0.00046436052602968263,0.0008022801856044506,-0.0003778542144876361,0.00010787402617402874,-0.0004294908994436424,0.0,0.0,0.0,0.0,0.0,0.0,0.0,-0.00010630147498957854,0.00023799566656512727,-0.0001306927004419145,1.6704358496433258e-06,2.1522427782194598e-06,-2.2115642650533118e-13,8.937199185155009e-07,-0.0004883913542498748,-0.0001662130652901104,-0.00046436052602968263,-0.0008022801856044506,0.0003778542144876361,-0.00010787402617402874,0.0004294908994436424,0.3752071261405945,34.03915023803711,3.9974029064178467,-19.213899612426758,-0.1834006905555725,-1.777347207069397,0.14590780436992645,0
21,0.09998750686645508,-0.3752071261405945,-34.03915023803711,-3.9974029064178467,19.213899612426758,0.1834006905555725,1.777347207069397,-0.14590780436992645,0.0,0.0,0.0,0.0,0.0,0.0,0.0,-0.33942282810976737,0.029600312710359504,-0.4300457928316845,0.21797288789026392,0.12208763100683226,-0.12410802158621805,-0.15914171049282955,1.054516777369014,0.3236235089425596,-0.39237386964078474,-2.1532934579681875,0.8647517631252607,2.465878175775431,0.5445011248371371,1.0544104758940245,0.3238615046091247,-0.39250456234122666,-2.153291787532338,0.8647539153680389,2.46587817577521,0.5445020185570556,0.0004883913542498748,0.0001662130652901104,0.00046436052602968263,0.0008022801856044506,-0.0003778542144876361,0.00010787402617402874,-0.0004294908994436424,0.0,0.0,0.0,0.0,0.0,0.0,0.0,-0.00010630147498957854,0.00023799566656512727,-0.0001306927004419145,1.6704358496433258e-06,2.1522427782194598e-06,-2.2115642650533118e-13,8.937199185155009e-07,-0.0004883913542498748,-0.0001662130652901104,-0.00046436052602968263,-0.0008022801856044506,0.0003778542144876361,-0.00010787402617402874,0.0004294908994436424,0.3752071261405945,34.03915023803711,3.9974029064178467,-19.213899612426758,-0.1834006905555725,-1.777347207069397,0.14590780436992645,0
22,0.10500478744506836,-0.3752071261405945,-34.03915023803711,-3.9974029064178467,19.213899612426758,0.1834006905555725,1.777347207069397,-0.14590780436992645,0.0,0.0,0.0,0.0,0.0,0.0,0.0,-0.33942282810976737,0.029600312710359504,-0.4300457928316845,0.21797288789026392,0.12208763100683226,-0.12410802158621805,-0.15914171049282955,1.054516777369014,0.3236235089425596,-0.39237386964078474,-2.1532934579681875,0.8647517631252607,2.465878175775431,0.5445011248371371,1.0544104758940245,0.3238615046091247,-0.39250456234122666,-2.153291787532338,0.8647539153680389,2.46587817577521,0.5445020185570556,0.0004883913542498748,0.0001662130652901104,0.00046436052602968263,0.0008022801856044506,-0.0003778542144876361,0.00010787402617402874,-0.0004294908994436424,0.0,0.0,0.0,0.0,0.0,0.0,0.0,-0.00010630147498957854,0.00023799566656512727,-0.0001306927004419145,1.6704358496433258e-06,2.1522427782194598e-06,-2.2115642650533118e-13,8.937199185155009e-07,-0.0004883913542498748,-0.0001662130652901104,-0.00046436052602968263,-0.0008022801856044506,0.0003778542144876361,-0.00010787402617402874,0.0004294908994436424,0.3752071261405945,34.03915023803711,3.9974029064178467,-19.213899612426758,-0.1834006905555725,-1.777347207069397,0.14590780436992645,0
23,0.10999298095703125,-0.3752071261405945,-34.03915023803711,-3.9974029064178467,19.213899612426758,0.1834006905555725,1.777347207069397,-0.14590780436992645,0.0,0.0,0.0,0.0,0.0,0.0,0.0,-0.33942282810976737,0.029600312710359504,-0.4300457928316845,0.21797288789026392,0.12208763100683226,-0.12410802158621805,-0.15914171049282955,1.054516777369014,0.3236235089425596,-0.39237386964078474,-2.1532934579681875,0.8647517631252607,2.465878175775431,0.5445011248371371,1.0544104758940245,0.3238615046091247,-0.39250456234122666,-2.153291787532338,0.8647539153680389,2.46587817577521,0.5445020185570556,0.0004883913542498748,0.0001662130652901104,0.00046436052602968263,0.0008022801856044506,-0.0003778542144876361,0.00010787402617402874,-0.0004294908994436424,0.0,0.0,0.0,0.0,0.0,0.0,0.0,-0.00010630147498957854,0.00023799566656512727,-0.0001306927004419145,1.6704358496433258e-06,2.1522427782194598e-06,-2.2115642650533118e-13,8.937199185155009e-07,-0.0004883913542498748,-0.0001662130652901104,-0.00046436052602968263,-0.0008022801856044506,0.0003778542144876361,-0.00010787402617402874,0.0004294908994436424,0.3752071261405945,34.03915023803711,3.9974029064178467,-19.213899612426758,-0.1834006905555725,-1.777347207069397,0.14590780436992645,0
24,0.10999298095703125,-0.3752071261405945,-34.03915023803711,-3.9974029064178467,19.213899612426758,0.1834006905555725,1.777347207069397,-0.14590780436992645,0.0,0.0,0.0,0.0,0.0,0.0,0.0,-0.33942282810976737,0.029600312710359504,-0.4300457928316845,0.21797288789026392,0.12208763100683226,-0.12410802158621805,-0.15914171049282955,1.054516777369014,0.3236235089425596,-0.39237386964078474,-2.1532934579681875,0.8647517631252607,2.465878175775431,0.5445011248371371,1.0544104758940245,0.3238615046091247,-0.39250456234122666,-2.153291787532338,0.8647539153680389,2.46587817577521,0.5445020185570556,0.0004883913542498748,0.0001662130652901104,0.00046436052602968263,0.0008022801856044506,-0.0003778542144876361,0.00010787402617402874,-0.0004294908994436424,0.0,0.0,0.0,0.0,0.0,0.0,0.0,-0.00010630147498957854,0.00023799566656512727,-0.0001306927004419145,1.6704358496433258e-06,2.1522427782194598e-06,-2.2115642650533118e-13,8.937199185155009e-07,-0.0004883913542498748,-0.0001662130652901104,-0.00046436052602968263,-0.0008022801856044506,0.0003778542144876361,-0.00010787402617402874,0.0004294908994436424,0.3752071261405945,34.03915023803711,3.9974029064178467,-19.213899612426758,-0.1834006905555725,-1.777347207069397,0.14590780436992645,0
25,0.11998391151428223,-0.3514034152030945,-34.01534652709961,-4.025173664093018,19.237703323364258,0.1834006905555725,1.783755898475647,-0.11844198405742645,0.0,0.0,0.0,0.0,0.0,0.0,0.0,-0.3423570068996242,0.02650544245918042,-0.4297792986231558,0.21723118663298732,0.12217483369157117,-0.12384827581746927,-0.1590319644466925,1.0545151069331586,0.323621843332165,-0.39237192081568534,-2.153295128404048,0.8647517762072129,2.465877476780339,0.5444948694603425,1.0544104758940245,0.3238615046091247,-0.39250456234122666,-2.153291787532338,0.8647539153680389,2.46587817577521,0.5445020185570556,0.0002192544427740044,-0.0008082363295125263,0.0007153476682832641,-5.3047381772093426e-05,-0.00020986323941196393,-0.00033884711942190653,-0.0013166954564951048,0.0,0.0,0.0,0.0,0.0,0.0,0.0,-0.00010463103913416205,0.00023966127695973505,-0.00013264152554132158,3.3408717099447927e-06,2.1391608260312722e-06,6.989948708735483e-07,7.149096713066072e-06,-0.0002192544427740044,0.0008082363295125263,-0.0007153476682832641,5.3047381772093426e-05,0.00020986323941196393,0.00033884711942190653,0.0013166954564951048,0.3514034152030945,34.01534652709961,4.025173664093018,-19.237703323364258,-0.1834006905555725,-1.783755898475647,0.11844198405742645,0
26,0.12498712539672852,-0.3514034152030945,-34.01534652709961,-4.025173664093018,19.237703323364258,0.1834006905555725,1.783755898475647,-0.11844198405742645,0.0,0.0,0.0,0.0,0.0,0.0,0.0,-0.3423570068996242,0.02650544245918042,-0.4297792986231558,0.21723118663298732,0.12217483369157117,-0.12384827581746927,-0.1590319644466925,1.0545151069331586,0.323621843332165,-0.39237192081568534,-2.153295128404048,0.8647517762072129,2.465877476780339,0.5444948694603425,1.0544104758940245,0.3238615046091247,-0.39250456234122666,-2.153291787532338,0.8647539153680389,2.46587817577521,0.5445020185570556,0.0002192544427740044,-0.0008082363295125263,0.0007153476682832641,-5.3047381772093426e-05,-0.00020986323941196393,-0.00033884711942190653,-0.0013166954564951048,0.0,0.0,0.0,0.0,0.0,0.0,0.0,-0.00010463103913416205,0.00023966127695973505,-0.00013264152554132158,3.3408717099447927e-06,2.1391608260312722e-06,6.989948708735483e-07,7.149096713066072e-06,-0.0002192544427740044,0.0008082363295125263,-0.0007153476682832641,5.3047381772093426e-05,0.00020986323941196393,0.00033884711942190653,0.0013166954564951048,0.3514034152030945,34.01534652709961,4.025173664093018,-19.237703323364258,-0.1834006905555725,-1.783755898475647,0.11844198405742645,0
27,0.12998723983764648,-0.3514034152030945,-34.03915023803711,-3.9974029064178467,19.289278030395508,0.1769919991493225,1.783755898475647,-0.16604940593242645,0.0,0.0,0.0,0.0,0.0,0.0,0.0,-0.33594654655559664,0.03203236700940287,-0.42426820044276964,0.2128125784963247,0.12196799459267431,-0.12507046485819062,-0.15912244656524183,1.0545151069331586,0.3236263167683034,-0.39237386964078536,-2.1532987476817342,0.8647524752021081,2.4658778169111213,0.5445033235467416,1.0544104758940245,0.3238615046091247,-0.39250456234122666,-2.153291787532338,0.8647539153680389,2.46587817577521,0.5445020185570556,0.00036057170151730157,-0.0002570315774486979,0.00011716911743301751,-0.0014391124042392243,-0.00010996968438790201,-0.0001884755867387679,-2.4648606275029788e-05,0.0,0.0,0.0,0.0,0.0,0.0,0.0,-0.00010463103913416205,0.00023518784082132704,-0.00013069270044130388,6.960149396384452e-06,1.4401659308438397e-06,3.5886408866758757e-07,-1.304989685979585e-06,-0.00036057170151730157,0.0002570315774486979,-0.00011716911743301751,0.0014391124042392243,0.00010996968438790201,0.0001884755867387679,2.4648606275029788e-05,0.3514034152030945,34.03915023803711,3.9974029064178467,-19.289278030395508,-0.1769919991493225,-1.783755898475647,0.16604940593242645,0
28,0.1349937915802002,-0.3514034152030945,-34.03915023803711,-3.9974029064178467,19.289278030395508,0.1769919991493225,1.783755898475647,-0.16604940593242645,0.0,0.0,0.0,0.0,0.0,0.0,0.0,-0.33594654655559664,0.03203236700940287,-0.42426820044276964,0.2128125784963247,0.12196799459267431,-0.12507046485819062,-0.15912244656524183,1.0545151069331586,0.3236263167683034,-0.39237386964078536,-2.1532987476817342,0.8647524752021081,2.4658778169111213,0.5445033235467416,1.0544104758940245,0.3238615046091247,-0.39250456234122666,-2.153291787532338,0.8647539153680389,2.46587817577521,0.5445020185570556,0.00036057170151730157,-0.0002570315774486979,0.00011716911743301751,-0.0014391124042392243,-0.00010996968438790201,-0.0001884755867387679,-2.4648606275029788e-05,0.0,0.0,0.0,0.0,0.0,0.0,0.0,-0.00010463103913416205,0.00023518784082132704,-0.00013069270044130388,6.960149396384452e-06,1.4401659308438397e-06,3.5886408866758757e-07,-1.304989685979585e-06,-0.00036057170151730157,0.0002570315774486979,-0.00011716911743301751,0.0014391124042392243,0.00010996968438790201,0.0001884755867387679,2.4648606275029788e-05,0.3514034152030945,34.03915023803711,3.9974029064178467,-19.289278030395508,-0.1769919991493225,-1.783755898475647,0.16604940593242645,0
29,0.1399850845336914,-0.3236324191093445,-34.01534652709961,-3.9735991954803467,19.213899612426758,0.1650901436805725,1.777347207069397,-0.11844198405742645,0.0,0.0,0.0,0.0,0.0,0.0,0.0,-0.34056633293369915,0.029441519498457545,-0.43136760737959595,0.21427721657344256,0.12181575916364727,-0.12452099627912507,-0.1592501981899946,1.0545131580913276,0.3236218606591465,-0.3923755400766406,-2.153293457968193,0.864753797630469,2.4658781757938195,0.5444948549965465,1.0544104758940245,0.3238615046091247,-0.39250456234122666,-2.153291787532338,0.8647539153680389,2.46587817577521,0.5445020185570556,-0.0006084037922953893,-0.0006023580091627853,-0.0005413165784505003,0.001064780000510362,0.00028999167949869957,9.976192112204383e-05,-0.0005610602469495485,0.0,0.0,0.0,0.0,0.0,0.0,0.0,-0.00010268219730313888,0.0002396439499782188,-0.00012902226458605393,1.6704358549723963e-06,1.1773756991573237e-07,-1.8609558338766874e-11,7.163560509115818e-06,0.0006084037922953893,0.0006023580091627853,0.0005413165784505003,-0.001064780000510362,-0.00028999167949869957,-9.976192112204383e-05,0.0005610602469495485,0.3236324191093445,34.01534652709961,3.9735991954803467,-19.213899612426758,-0.1650901436805725,-1.777347207069397,0.11844198405742645,0
30,0.14499711990356445,-0.3236324191093445,-34.01534652709961,-3.9735991954803467,19.213899612426758,0.1650901436805725,1.777347207069397,-0.11844198405742645,0.0,0.0,0.0,0.0,0.0,0.0,0.0,-0.34056633293369915,0.029441519498457545,-0.43136760737959595,0.21427721657344256,0.12181575916364727,-0.12452099627912507,-0.1592501981899946,1.0545131580913276,0.3236218606591465,-0.3923755400766406,-2.153293457968193,0.864753797630469,2.4658781757938195,0.5444948549965465,1.0544104758940245,0.3238615046091247,-0.39250456234122666,-2.153291787532338,0.8647539153680389,2.46587817577521,0.5445020185570556,-0.0006084037922953893,-0.0006023580091627853,-0.0005413165784505003,0.001064780000510362,0.00028999167949869957,9.976192112204383e-05,-0.0005610602469495485,0.0,0.0,0.0,0.0,0.0,0.0,0.0,-0.00010268219730313888,0.0002396439499782188,-0.00012902226458605393,1.6704358549723963e-06,1.1773756991573237e-07,-1.8609558338766874e-11,7.163560509115818e-06,0.0006084037922953893,0.0006023580091627853,0.0005413165784505003,-0.001064780000510362,-0.00028999167949869957,-9.976192112204383e-05,0.0005610602469495485,0.3236324191093445,34.01534652709961,3.9735991954803467,-19.213899612426758,-0.1650901436805725,-1.777347207069397,0.11844198405742645,0
31,0.14998149871826172,-0.3514034152030945,-33.99154281616211,-3.9974029064178467,19.213899612426758,0.1650901436805725,1.790164589881897,-0.13858358561992645,0.0,0.0,0.0,0.0,0.0,0.0,0.0,-0.3305233701983352,0.024037496144183136,-0.42412440960044,0.21987901599625187,0.12128632471684232,-0.12477971608802897,-0.1557349760776022,1.0545151069331586,0.3236210999107543,-0.39237386964078536,-2.153293457968193,0.864753797630469,2.4658767516215643,0.544497092874515,1.0544104758940245,0.3238615046091247,-0.39250456234122666,-2.153291787532338,0.8647539153680389,2.46587817577521,0.5445020185570556,0.0002781666557520925,-0.0011349326804534067,0.00047545753437013244,0.001296193178465235,0.00040658948979362087,-0.00035819744155472197,-0.0006163980169040629,0.0,0.0,0.0,0.0,0.0,0.0,0.0,-0.00010463103913416205,0.00024040469837044443,-0.00013069270044130388,1.6704358549723963e-06,1.1773756991573237e-07,1.4241536456793824e-06,4.925682540624088e-06,-0.0002781666557520925,0.0011349326804534067,-0.00047545753437013244,-0.001296193178465235,-0.00040658948979362087,0.00035819744155472197,0.0006163980169040629,0.3514034152030945,33.99154281616211,3.9974029064178467,-19.213899612426758,-0.1650901436805725,-1.790164589881897,0.13858358561992645,0
32,0.15498828887939453,-0.3514034152030945,-33.99154281616211,-3.9974029064178467,19.213899612426758,0.1650901436805725,1.790164589881897,-0.13858358561992645,0.0,0.0,0.0,0.0,0.0,0.0,0.0,-0.3305233701983352,0.024037496144183136,-0.42412440960044,0.21987901599625187,0.12128632471684232,-0.12477971608802897,-0.1557349760776022,1.0545151069331586,0.3236210999107543,-0.39237386964078536,-2.153293457968193,0.864753797630469,2.4658767516215643,0.544497092874515,1.0544104758940245,0.3238615046091247,-0.39250456234122666,-2.153291787532338,0.8647539153680389,2.46587817577521,0.5445020185570556,0.0002781666557520925,-0.0011349326804534067,0.00047545753437013244,0.001296193178465235,0.00040658948979362087,-0.00035819744155472197,-0.0006163980169040629,0.0,0.0,0.0,0.0,0.0,0.0,0.0,-0.00010463103913416205,0.00024040469837044443,-0.00013069270044130388,1.6704358549723963e-06,1.1773756991573237e-07,1.4241536456793824e-06,4.925682540624088e-06,-0.0002781666557520925,0.0011349326804534067,-0.00047545753437013244,-0.001296193178465235,-0.00040658948979362087,0.00035819744155472197,0.0006163980169040629,0.3514034152030945,33.99154281616211,3.9974029064178467,-19.213899612426758,-0.1650901436805725,-1.790164589881897,0.13858358561992645,0
33,0.1599881649017334,-0.2998287081718445,-34.03915023803711,-3.9974029064178467,19.237703323364258,0.1650901436805725,1.783755898475647,-0.11111776530742645,0.0,0.0,0.0,0.0,0.0,0.0,0.0,-0.336470038021705,0.03142204708926447,-0.4259262905847003,0.21438204891572157,0.12119452801363945,-0.12508102049523898,-0.1547287368027099,1.0545114876554724,0.32362354232620383,-0.39237386964078536,-2.153295102894241,0.864753797630469,2.465877463698387,0.5444940541986534,1.0544104758940245,0.3238615046091247,-0.39250456234122666,-2.153291787532338,0.8647539153680389,2.46587817577521,0.5445020185570556,-0.001046570916909935,-2.4328259945462672e-05,0.000522123267416407,0.00014350475609335137,0.009730376110259667,-1.86599835190309e-05,-0.0018277764280202114,0.0,0.0,0.0,0.0,0.0,0.0,0.0,-0.00010101176144794444,0.0002379622829208894,-0.00013069270044130388,3.315361903233338e-06,1.1773756991573237e-07,7.120768228396912e-07,7.964358402223759e-06,0.001046570916909935,2.4328259945462672e-05,-0.000522123267416407,-0.00014350475609335137,-0.009730376110259667,1.86599835190309e-05,0.0018277764280202114,0.2998287081718445,34.03915023803711,3.9974029064178467,-19.237703323364258,-0.1650901436805725,-1.783755898475647,0.11111776530742645,0
34,0.16499733924865723,-0.2998287081718445,-34.03915023803711,-3.9974029064178467,19.237703323364258,0.1650901436805725,1.783755898475647,-0.11111776530742645,0.0,0.0,0.0,0.0,0.0,0.0,0.0,-0.336470038021705,0.03142204708926447,-0.4259262905847003,0.21438204891572157,0.12119452801363945,-0.12508102049523898,-0.1547287368027099,1.0545114876554724,0.32362354232620383,-0.39237386964078536,-2.153295102894241,0.864753797630469,2.465877463698387,0.5444940541986534,1.0544104758940245,0.3238615046091247,-0.39250456234122666,-2.153291787532338,0.8647539153680389,2.46587817577521,0.5445020185570556,-0.001046570916909935,-2.4328259945462672e-05,0.000522123267416407,0.00014350475609335137,0.009730376110259667,-1.86599835190309e-05,-0.0018277764280202114,0.0,0.0,0.0,0.0,0.0,0.0,0.0,-0.00010101176144794444,0.0002379622829208894,-0.00013069270044130388,3.315361903233338e-06,1.1773756991573237e-07,7.120768228396912e-07,7.964358402223759e-06,0.001046570916909935,2.4328259945462672e-05,-0.000522123267416407,-0.00014350475609335137,-0.009730376110259667,1.86599835190309e-05,0.0018277764280202114,0.2998287081718445,34.03915023803711,3.9974029064178467,-19.237703323364258,-0.1650901436805725,-1.783755898475647,0.11111776530742645,0
35,0.17000937461853027,-0.3236324191093445,-34.03915023803711,-3.9974029064178467,19.237703323364258,0.1769919991493225,1.777347207069397,-0.17337362468242645,0.0,0.0,0.0,0.0,0.0,0.0,0.0,-0.33219799543145295,0.027399428152992053,-0.42448759375774425,0.21869485317909673,0.12070451612258198,-0.12473600006694564,-0.15545715881773417,1.0545131580913276,0.3236242067788108,-0.39237386964078536,-2.153295128403904,0.8647524752020835,2.46587817577521,0.5445009584344834,1.0544104758940245,0.3238615046091247,-0.39250456234122666,-2.153291787532338,0.8647539153680389,2.46587817577521,0.5445020185570556,-6.992209804459138e-05,8.720711944748294e-05,0.0002540649595759466,0.0003227106713894332,0.0004930203703152222,0.00020056858644911256,0.0010958227015404698,0.0,0.0,0.0,0.0,0.0,0.0,0.0,-0.00010268219730313888,0.0002372978303138984,-0.00013069270044130388,3.3408715660598887e-06,1.4401659553797685e-06,0.0,1.0601225721718066e-06,6.992209804459138e-05,-8.720711944748294e-05,-0.0002540649595759466,-0.0003227106713894332,-0.0004930203703152222,-0.00020056858644911256,-0.0010958227015404698,0.3236324191093445,34.03915023803711,3.9974029064178467,-19.237703323364258,-0.1769919991493225,-1.777347207069397,0.17337362468242645,0
36,0.17499732971191406,-0.3236324191093445,-34.03915023803711,-3.9974029064178467,19.237703323364258,0.1769919991493225,1.777347207069397,-0.17337362468242645,0.0,0.0,0.0,0.0,0.0,0.0,0.0,-0.33219799543145295,0.027399428152992053,-0.42448759375774425,0.21869485317909673,0.12070451612258198,-0.12473600006694564,-0.15545715881773417,1.0545131580913276,0.3236242067788108,-0.39237386964078536,-2.153295128403904,0.8647524752020835,2.46587817577521,0.5445009584344834,1.0544104758940245,0.3238615046091247,-0.39250456234122666,-2.153291787532338,0.8647539153680389,2.46587817577521,0.5445020185570556,-6.992209804459138e-05,8.720711944748294e-05,0.0002540649595759466,0.0003227106713894332,0.0004930203703152222,0.00020056858644911256,0.0010958227015404698,0.0,0.0,0.0,0.0,0.0,0.0,0.0,-0.00010268219730313888,0.0002372978303138984,-0.00013069270044130388,3.3408715660598887e-06,1.4401659553797685e-06,0.0,1.0601225721718066e-06,6.992209804459138e-05,-8.720711944748294e-05,-0.0002540649595759466,-0.0003227106713894332,-0.0004930203703152222,-0.00020056858644911256,-0.0010958227015404698,0.3236324191093445,34.03915023803711,3.9974029064178467,-19.237703323364258,-0.1769919991493225,-1.777347207069397,0.17337362468242645,0
37,0.17999863624572754,-0.2720577120780945,-34.03915023803711,-3.9497954845428467,19.289278030395508,0.1769919991493225,1.777347207069397,-0.15964071452617645,0.0,0.0,0.0,0.0,0.0,0.0,0.0,-0.33388310010476774,0.02858115742615693,-0.4288269924756576,0.21774677146931873,0.12206839781037984,-0.12473418669160988,-0.15547613253580597,1.0545095388136412,0.3236237487264839,-0.39237721051249586,-2.1532987476817342,0.8647524752020835,2.46587817577521,0.5444997872217633,1.0544104758940245,0.3238615046091247,-0.39250456234122666,-2.153291787532338,0.8647539153680389,2.46587817577521,0.5445020185570556,-0.0013920775909727866,0.00022691455099531994,-0.0008788394571339724,-0.0009466294895641043,-0.00013299639123610414,7.481798756497585e-05,0.00032736841412984167,0.0,0.0,0.0,0.0,0.0,0.0,0.0,-9.906291961669922e-05,0.00023775588264079994,-0.00012735182873080397,6.960149396384452e-06,1.4401659553797685e-06,0.0,2.231335292313119e-06,0.0013920775909727866,-0.00022691455099531994,0.0008788394571339724,0.0009466294895641043,0.00013299639123610414,-7.481798756497585e-05,-0.00032736841412984167,0.2720577120780945,34.03915023803711,3.9497954845428467,-19.289278030395508,-0.1769919991493225,-1.777347207069397,0.15964071452617645,0
38,0.18500900268554688,-0.2720577120780945,-34.03915023803711,-3.9497954845428467,19.289278030395508,0.1769919991493225,1.777347207069397,-0.15964071452617645,0.0,0.0,0.0,0.0,0.0,0.0,0.0,-0.33388310010476774,0.02858115742615693,-0.4288269924756576,0.21774677146931873,0.12206839781037984,-0.12473418669160988,-0.15547613253580597,1.0545095388136412,0.3236237487264839,-0.39237721051249586,-2.1532987476817342,0.8647524752020835,2.46587817577521,0.5444997872217633,1.0544104758940245,0.3238615046091247,-0.39250456234122666,-2.153291787532338,0.8647539153680389,2.46587817577521,0.5445020185570556,-0.0013920775909727866,0.00022691455099531994,-0.0008788394571339724,-0.0009466294895641043,-0.00013299639123610414,7.481798756497585e-05,0.00032736841412984167,0.0,0.0,0.0,0.0,0.0,0.0,0.0,-9.906291961669922e-05,0.00023775588264079994,-0.00012735182873080397,6.960149396384452e-06,1.4401659553797685e-06,0.0,2.231335292313119e-06,0.0013920775909727866,-0.00022691455099531994,0.0008788394571339724,0.0009466294895641043,0.00013299639123610414,-7.481798756497585e-05,-0.00032736841412984167,0.2720577120780945,34.03915023803711,3.9497954845428467,-19.289278030395508,-0.1769919991493225,-1.777347207069397,0.15964071452617645,0
39,0.189988374710083,-0.3514034152030945,-34.03915023803711,-3.9497954845428467,19.237703323364258,0.1834006905555725,1.777347207069397,-0.15964071452617645,0.0,0.0,0.0,0.0,0.0,0.0,0.0,-0.3356784119494555,0.03310512075592088,-0.4299962722918961,0.21402127802780424,0.12225530714228357,-0.12470712714350625,-0.15642710398071388,1.0545151069331586,0.32362358565978644,-0.39237721051249586,-2.153295128404048,0.8647517631252607,2.4658781801358605,0.5444995502950752,1.0544104758940245,0.3238615046091247,-0.39250456234122666,-2.153291787532338,0.8647539153680389,2.46587817577521,0.5445020185570556,0.0008353682505857038,-4.461453701253593e-06,-0.0007291434402781521,0.00029794963358189234,-0.00014282211533927003,-9.209046323908871e-05,0.0003638431058516044,0.0,0.0,0.0,0.0,0.0,0.0,0.0,-0.00010463103913416205,0.00023791894933827828,-0.00012735182873080397,3.3408717099447927e-06,2.1522427782194598e-06,-4.360650507351238e-09,2.468261980359543e-06,-0.0008353682505857038,4.461453701253593e-06,0.0007291434402781521,-0.00029794963358189234,0.00014282211533927003,9.209046323908871e-05,-0.0003638431058516044,0.3514034152030945,34.03915023803711,3.9497954845428467,-19.237703323364258,-0.1834006905555725,-1.777347207069397,0.15964071452617645,0
40,0.19499945640563965,-0.3514034152030945,-34.03915023803711,-3.9497954845428467,19.237703323364258,0.1834006905555725,1.777347207069397,-0.15964071452617645,0.0,0.0,0.0,0.0,0.0,0.0,0.0,-0.3356784119494555,0.03310512075592088,-0.4299962722918961,0.21402127802780424,0.12225530714228357,-0.12470712714350625,-0.15642710398071388,1.0545151069331586,0.32362358565978644,-0.39237721051249586,-2.153295128404048,0.8647517631252607,2.4658781801358605,0.5444995502950752,1.0544104758940245,0.3238615046091247,-0.39250456234122666,-2.153291787532338,0.8647539153680389,2.46587817577521,0.5445020185570556,0.0008353682505857038,-4.461453701253593e-06,-0.0007291434402781521,0.00029794963358189234,-0.00014282211533927003,-9.209046323908871e-05,0.0003638431058516044,0.0,0.0,0.0,0.0,0.0,0.0,0.0,-0.00010463103913416205,0.00023791894933827828,-0.00012735182873080397,3.3408717099447927e-06,2.1522427782194598e-06,-4.360650507351238e-09,2.468261980359543e-06,-0.0008353682505857038,4.461453701253593e-06,0.0007291434402781521,-0.00029794963358189234,0.00014282211533927003,9.209046323908871e-05,-0.0003638431058516044,0.3514034152030945,34.03915023803711,3.9497954845428467,-19.237703323364258,-0.1834006905555725,-1.777347207069397,0.15964071452617645,0
41,0.20000672340393066,-0.3236324191093445,-34.03915023803711,-3.9974029064178467,19.289278030395508,0.1888938546180725,1.783755898475647,-0.13858358561992645,0.0,0.0,0.0,0.0,0.0,0.0,0.0,-0.3366872824179475,0.021021662718329396,-0.43057352837422175,0.21851041116966383,0.12343394025175494,-0.12442413554269321,-0.15718236694770887,1.0545131580913276,0.32362376477259497,-0.39237386964078536,-2.1532987476817342,0.8647511571343489,2.465877503105774,0.5444970928751783,1.0544104758940245,0.3238615046091247,-0.39250456234122666,-2.153291787532338,0.8647539153680389,2.46587817577521,0.5445020185570556,-0.000428417544506748,-0.0006220413357617871,0.000555152805273719,-0.001223383933307946,-0.0001812004963959081,-0.00014356684966684396,-0.0006661988267964911,0.0,0.0,0.0,0.0,0.0,0.0,0.0,-0.00010268219730313888,0.00023773983652974895,-0.00013069270044130388,6.960149396384452e-06,2.7582336900033866e-06,6.726694361525176e-07,4.925681877265831e-06,0.000428417544506748,0.0006220413357617871,-0.000555152805273719,0.001223383933307946,0.0001812004963959081,0.00014356684966684396,0.0006661988267964911,0.3236324191093445,34.03915023803711,3.9974029064178467,-19.289278030395508,-0.1888938546180725,-1.783755898475647,0.13858358561992645,0
42,0.2050020694732666,-0.3236324191093445,-34.03915023803711,-3.9974029064178467,19.289278030395508,0.1888938546180725,1.783755898475647,-0.13858358561992645,0.0,0.0,0.0,0.0,0.0,0.0,0.0,-0.3366872824179475,0.021021662718329396,-0.43057352837422175,0.21851041116966383,0.12343394025175494,-0.12442413554269321,-0.15718236694770887,1.0545131580913276,0.32362376477259497,-0.39237386964078536,-2.1532987476817342,0.8647511571343489,2.465877503105774,0.5444970928751783,1.0544104758940245,0.3238615046091247,-0.39250456234122666,-2.153291787532338,0.8647539153680389,2.46587817577521,0.5445020185570556,-0.000428417544506748,-0.0006220413357617871,0.000555152805273719,-0.001223383933307946,-0.0001812004963959081,-0.00014356684966684396,-0.0006661988267964911,0.0,0.0,0.0,0.0,0.0,0.0,0.0,-0.00010268219730313888,0.00023773983652974895,-0.00013069270044130388,6.960149396384452e-06,2.7582336900033866e-06,6.726694361525176e-07,4.925681877265831e-06,0.000428417544506748,0.0006220413357617871,-0.000555152805273719,0.001223383933307946,0.0001812004963959081,0.00014356684966684396,0.0006661988267964911,0.3236324191093445,34.03915023803711,3.9974029064178467,-19.289278030395508,-0.1888938546180725,-1.783755898475647,0.13858358561992645,0
43,0.20999383926391602,-0.3752071261405945,-34.06295394897461,-3.9735991954803467,19.261507034301758,0.1769919991493225,1.790164589881897,-0.13217489421367645,0.0,0.0,0.0,0.0,0.0,0.0,0.0,-0.33009788042199273,0.028438941582995106,-0.42339486677963845,0.2134635912006712,0.12463804909794324,-0.12517173163451029,-0.15659289880787947,1.054516777369014,0.3236262152565279,-0.3923755400766406,-2.153296798839903,0.8647524752021081,2.4658767516217863,0.5444963807976908,1.0544104758940245,0.3238615046091247,-0.39250456234122666,-2.153291787532338,0.8647539153680389,2.46587817577521,0.5445020185570556,0.0007722867236753428,0.0004057773533486771,-0.00021560319546461677,-0.0003004217358312624,-1.4066884332499047e-05,-0.0003601401550839074,-0.0011075029884954775,0.0,0.0,0.0,0.0,0.0,0.0,0.0,-0.00010630147498957854,0.0002352893525968125,-0.00012902226458605393,5.011307565361278e-06,1.4401659308438397e-06,1.4241534236347775e-06,5.637759364796047e-06,-0.0007722867236753428,-0.0004057773533486771,0.00021560319546461677,0.0003004217358312624,1.4066884332499047e-05,0.0003601401550839074,0.0011075029884954775,0.3752071261405945,34.06295394897461,3.9735991954803467,-19.261507034301758,-0.1769919991493225,-1.790164589881897,0.13217489421367645,0
44,0.2149946689605713,-0.3752071261405945,-34.06295394897461,-3.9735991954803467,19.261507034301758,0.1769919991493225,1.790164589881897,-0.13217489421367645,0.0,0.0,0.0,0.0,0.0,0.0,0.0,-0.33009788042199273,0.028438941582995106,-0.42339486677963845,0.2134635912006712,0.12463804909794324,-0.12517173163451029,-0.15659289880787947,1.054516777369014,0.3236262152565279,-0.3923755400766406,-2.153296798839903,0.8647524752021081,2.4658767516217863,0.5444963807976908,1.0544104758940245,0.3238615046091247,-0.39250456234122666,-2.153291787532338,0.8647539153680389,2.46587817577521,0.5445020185570556,0.0007722867236753428,0.0004057773533486771,-0.00021560319546461677,-0.0003004217358312624,-1.4066884332499047e-05,-0.0003601401550839074,-0.0011075029884954775,0.0,0.0,0.0,0.0,0.0,0.0,0.0,-0.00010630147498957854,0.0002352893525968125,-0.00012902226458605393,5.011307565361278e-06,1.4401659308438397e-06,1.4241534236347775e-06,5.637759364796047e-06,-0.0007722867236753428,-0.0004057773533486771,0.00021560319546461677,0.0003004217358312624,1.4066884332499047e-05,0.0003601401550839074,0.0011075029884954775,0.3752071261405945,34.06295394897461,3.9735991954803467,-19.261507034301758,-0.1769919991493225,-1.790164589881897,0.13217489421367645,0
45,0.21999526023864746,-0.3236324191093445,-34.06295394897461,-4.048977375030518,19.237703323364258,0.1714988350868225,1.783755898475647,-0.14590780436992645,0.0,0.0,0.0,0.0,0.0,0.0,0.0,-0.3371441111210211,0.02813626483334408,-0.42820806770809244,0.2101609442931695,0.12472547642478037,-0.12472988077854759,-0.1550442844513941,1.0545131580913276,0.3236273592419866,-0.3923702503798301,-2.153295128404048,0.8647541451917754,2.465877463698387,0.544497906676597,1.0544104758940245,0.3238615046091247,-0.39250456234122666,-2.153291787532338,0.8647539153680389,2.46587817577521,0.5445020185570556,-0.00043217060871161806,0.0005981908129292029,0.0007466916060269648,-0.0002898802234691546,9.504330172302482e-05,-0.00013382285354881452,-0.0001404004526467966,0.0,0.0,0.0,0.0,0.0,0.0,0.0,-0.00010268219730313888,0.00023414536713811662,-0.00013431196139657153,3.3408717099447927e-06,-2.2982373648616772e-07,7.120768228396912e-07,4.111880458568251e-06,0.00043217060871161806,-0.0005981908129292029,-0.0007466916060269648,0.0002898802234691546,-9.504330172302482e-05,0.00013382285354881452,0.0001404004526467966,0.3236324191093445,34.06295394897461,4.048977375030518,-19.237703323364258,-0.1714988350868225,-1.783755898475647,0.14590780436992645,0
46,0.2249898910522461,-0.3236324191093445,-34.06295394897461,-4.048977375030518,19.237703323364258,0.1714988350868225,1.783755898475647,-0.14590780436992645,0.0,0.0,0.0,0.0,0.0,0.0,0.0,-0.3371441111210211,0.02813626483334408,-0.42820806770809244,0.2101609442931695,0.12472547642478037,-0.12472988077854759,-0.1550442844513941,1.0545131580913276,0.3236273592419866,-0.3923702503798301,-2.153295128404048,0.8647541451917754,2.465877463698387,0.544497906676597,1.0544104758940245,0.3238615046091247,-0.39250456234122666,-2.153291787532338,0.8647539153680389,2.46587817577521,0.5445020185570556,-0.00043217060871161806,0.0005981908129292029,0.0007466916060269648,-0.0002898802234691546,9.504330172302482e-05,-0.00013382285354881452,-0.0001404004526467966,0.0,0.0,0.0,0.0,0.0,0.0,0.0,-0.00010268219730313888,0.00023414536713811662,-0.00013431196139657153,3.3408717099447927e-06,-2.2982373648616772e-07,7.120768228396912e-07,4.111880458568251e-06,0.00043217060871161806,-0.0005981908129292029,-0.0007466916060269648,0.0002898802234691546,-9.504330172302482e-05,0.00013382285354881452,0.0001404004526467966,0.3236324191093445,34.06295394897461,4.048977375030518,-19.237703323364258,-0.1714988350868225,-1.783755898475647,0.14590780436992645,0
47,0.23000431060791016,-0.3236324191093445,-34.06295394897461,-4.048977375030518,19.237703323364258,0.1714988350868225,1.783755898475647,-0.14590780436992645,0.0,0.0,0.0,0.0,0.0,0.0,0.0,-0.3371441111210211,0.02813626483334408,-0.42820806770809244,0.2101609442931695,0.12472547642478037,-0.12472988077854759,-0.1550442844513941,1.0545131580913276,0.3236273592419866,-0.3923702503798301,-2.153295128404048,0.8647541451917754,2.465877463698387,0.544497906676597,1.0544104758940245,0.3238615046091247,-0.39250456234122666,-2.153291787532338,0.8647539153680389,2.46587817577521,0.5445020185570556,-0.00043217060871161806,0.0005981908129292029,0.0007466916060269648,-0.0002898802234691546,9.504330172302482e-05,-0.00013382285354881452,-0.0001404004526467966,0.0,0.0,0.0,0.0,0.0,0.0,0.0,-0.00010268219730313888,0.00023414536713811662,-0.00013431196139657153,3.3408717099447927e-06,-2.2982373648616772e-07,7.120768228396912e-07,4.111880458568251e-06,0.00043217060871161806,-0.0005981908129292029,-0.0007466916060269648,0.0002898802234691546,-9.504330172302482e-05,0.00013382285354881452,0.0001404004526467966,0.3236324191093445,34.06295394897461,4.048977375030518,-19.237703323364258,-0.1714988350868225,-1.783755898475647,0.14590780436992645,0
48,0.2350168228149414,-0.3236324191093445,-34.06295394897461,-4.048977375030518,19.237703323364258,0.1714988350868225,1.783755898475647,-0.14590780436992645,0.0,0.0,0.0,0.0,0.0,0.0,0.0,-0.3371441111210211,0.02813626483334408,-0.42820806770809244,0.2101609442931695,0.12472547642478037,-0.12472988077854759,-0.1550442844513941,1.0545131580913276,0.3236273592419866,-0.3923702503798301,-2.153295128404048,0.8647541451917754,2.465877463698387,0.544497906676597,1.0544104758940245,0.3238615046091247,-0.39250456234122666,-2.153291787532338,0.8647539153680389,2.46587817577521,0.5445020185570556,-0.00043217060871161806,0.0005981908129292029,0.0007466916060269648,-0.0002898802234691546,9.504330172302482e-05,-0.00013382285354881452,-0.0001404004526467966,0.0,0.0,0.0,0.0,0.0,0.0,0.0,-0.00010268219730313888,0.00023414536713811662,-0.00013431196139657153,3.3408717099447927e-06,-2.2982373648616772e-07,7.120768228396912e-07,4.111880458568251e-06,0.00043217060871161806,-0.0005981908129292029,-0.0007466916060269648,0.0002898802234691546,-9.504330172302482e-05,0.00013382285354881452,0.0001404004526467966,0.3236324191093445,34.06295394897461,4.048977375030518,-19.237703323364258,-0.1714988350868225,-1.783755898475647,0.14590780436992645,0
49,0.23999762535095215,-0.3236324191093445,-33.99154281616211,-3.9974029064178467,19.261507034301758,0.1834006905555725,1.770938515663147,-0.15231649577617645,0.0,0.0,0.0,0.0,0.0,0.0,0.0,-0.3263488852549228,0.02259654415528744,-0.42128869950913084,0.215717580618636,0.12353272670162944,-0.12493506403179881,-0.15520853015964123,1.0545131580913276,0.3236211268859945,-0.39237386964078536,-2.153296798839903,0.8647517674918931,2.465878887852033,0.54449861875342,1.0544104758940245,0.3238615046091247,-0.39250456234122666,-2.153291787532338,0.8647539153680389,2.46587817577521,0.5445020185570556,1.3576952566373026e-05,-0.0011512350587847494,-2.523127449694837e-05,-0.00034474269618798057,-0.00036302867325502133,0.00023636653013542865,0.00019188779236729823,0.0,0.0,0.0,0.0,0.0,0.0,0.0,-0.00010268219730313888,0.0002403777231302362,-0.00013069270044130388,5.011307565361278e-06,2.147876145830452e-06,-7.120768228396912e-07,3.3998036356175376e-06,-1.3576952566373026e-05,0.0011512350587847494,2.523127449694837e-05,0.00034474269618798057,0.00036302867325502133,-0.00023636653013542865,-0.00019188779236729823,0.3236324191093445,33.99154281616211,3.9974029064178467,-19.261507034301758,-0.1834006905555725,-1.770938515663147,0.15231649577617645,0
50,0.24503588676452637,-0.3236324191093445,-33.99154281616211,-3.9974029064178467,19.261507034301758,0.1834006905555725,1.770938515663147,-0.15231649577617645,0.0,0.0,0.0,0.0,0.0,0.0,0.0,-0.3263488852549228,0.02259654415528744,-0.42128869950913084,0.215717580618636,0.12353272670162944,-0.12493506403179881,-0.15520853015964123,1.0545131580913276,0.3236211268859945,-0.39237386964078536,-2.153296798839903,0.8647517674918931,2.465878887852033,0.54449861875342,1.0544104758940245,0.3238615046091247,-0.39250456234122666,-2.153291787532338,0.8647539153680389,2.46587817577521,0.5445020185570556,1.3576952566373026e-05,-0.0011512350587847494,-2.523127449694837e-05,-0.00034474269618798057,-0.00036302867325502133,0.00023636653013542865,0.00019188779236729823,0.0,0.0,0.0,0.0,0.0,0.0,0.0,-0.00010268219730313888,0.0002403777231302362,-0.00013069270044130388,5.011307565361278e-06,2.147876145830452e-06,-7.120768228396912e-07,3.3998036356175376e-06,-1.3576952566373026e-05,0.0011512350587847494,2.523127449694837e-05,0.00034474269618798057,0.00036302867325502133,-0.00023636653013542865,-0.00019188779236729823,0.3236324191093445,33.99154281616211,3.9974029064178467,-19.261507034301758,-0.1834006905555725,-1.770938515663147,0.15231649577617645,0
51,0.25003480911254883,-0.3236324191093445,-34.06295394897461,-3.9497954845428467,19.213899612426758,0.1714988350868225,1.783755898475647,-0.17978231608867645,0.0,0.0,0.0,0.0,0.0,0.0,0.0,-0.32938543435097567,0.02345836046623864,-0.42586503165600603,0.21558055360215844,0.12341871738034048,-0.12513092189420338,-0.15485797565283116,1.0545131580913276,0.3236251761834787,-0.39237718402154265,-2.153293457968193,0.86475308555372,2.4658785278586723,0.5445016709957491,1.0544104758940245,0.3238615046091247,-0.39250456234122666,-2.153291787532338,0.8647539153680389,2.46587817577521,0.5445020185570556,-8.938403681765501e-05,0.0005635525696678618,-0.000795602926138569,0.0009114048981258355,6.0160414056984574e-05,-1.1614028576296597e-05,0.0014312178668908935,0.0,0.0,0.0,0.0,0.0,0.0,0.0,-0.00010268219730313888,0.0002363284256460263,-0.0001273783196840128,1.6704358549723963e-06,8.298143189255924e-07,-3.5208346238491117e-07,3.475613065129224e-07,8.938403681765501e-05,-0.0005635525696678618,0.000795602926138569,-0.0009114048981258355,-6.0160414056984574e-05,1.1614028576296597e-05,-0.0014312178668908935,0.3236324191093445,34.06295394897461,3.9497954845428467,-19.213899612426758,-0.1714988350868225,-1.783755898475647,0.17978231608867645,0
52,0.25499653816223145,-0.3236324191093445,-34.06295394897461,-3.9497954845428467,19.213899612426758,0.1714988350868225,1.783755898475647,-0.17978231608867645,0.0,0.0,0.0,0.0,0.0,0.0,0.0,-0.32938543435097567,0.02345836046623864,-0.42586503165600603,0.21558055360215844,0.12341871738034048,-0.12513092189420338,-0.15485797565283116,1.0545131580913276,0.3236251761834787,-0.39237718402154265,-2.153293457968193,0.86475308555372,2.4658785278586723,0.5445016709957491,1.0544104758940245,0.3238615046091247,-0.39250456234122666,-2.153291787532338,0.8647539153680389,2.46587817577521,0.5445020185570556,-8.938403681765501e-05,0.0005635525696678618,-0.000795602926138569,0.0009114048981258355,6.0160414056984574e-05,-1.1614028576296597e-05,0.0014312178668908935,0.0,0.0,0.0,0.0,0.0,0.0,0.0,-0.00010268219730313888,0.0002363284256460263,-0.0001273783196840128,1.6704358549723963e-06,8.298143189255924e-07,-3.5208346238491117e-07,3.475613065129224e-07,8.938403681765501e-05,-0.0005635525696678618,0.000795602926138569,-0.0009114048981258355,-6.0160414056984574e-05,1.1614028576296597e-05,-0.0014312178668908935,0.3236324191093445,34.06295394897461,3.9497954845428467,-19.213899612426758,-0.1714988350868225,-1.783755898475647,0.17978231608867645,0
53,0.25998783111572266,-0.3236324191093445,-34.03915023803711,-3.9735991954803467,19.289278030395508,0.1769919991493225,1.783755898475647,-0.13858358561992645,0.0,0.0,0.0,0.0,0.0,0.0,0.0,-0.3325272053956959,0.031465107360360296,-0.42738527516374514,0.21109013597241402,0.12234523493754779,-0.12552643897383328,-0.15443823668928733,1.0545131580913276,0.3236237475812205,-0.39237554007649106,-2.1532987476817342,0.8647524752020835,2.4658774637043943,0.5444970943280667,1.0544104758940245,0.3238615046091247,-0.39250456234122666,-2.153291787532338,0.8647539153680389,2.46587817577521,0.5445020185570556,-9.975830864444676e-06,3.781228169993396e-05,-9.612034494318951e-05,-0.0009675876440543884,-6.592517829009437e-05,-0.00024057229698095183,-0.00019353208453092125,0.0,0.0,0.0,0.0,0.0,0.0,0.0,-0.00010268219730313888,0.00023775702790423958,-0.00012902226473560097,6.960149396384452e-06,1.4401659553797685e-06,7.120708156449496e-07,4.9242289889006585e-06,9.975830864444676e-06,-3.781228169993396e-05,9.612034494318951e-05,0.0009675876440543884,6.592517829009437e-05,0.00024057229698095183,0.00019353208453092125,0.3236324191093445,34.03915023803711,3.9735991954803467,-19.289278030395508,-0.1769919991493225,-1.783755898475647,0.13858358561992645,0
54,0.2649877071380615,-0.3236324191093445,-34.03915023803711,-3.9735991954803467,19.289278030395508,0.1769919991493225,1.783755898475647,-0.13858358561992645,0.0,0.0,0.0,0.0,0.0,0.0,0.0,-0.3325272053956959,0.031465107360360296,-0.42738527516374514,0.21109013597241402,0.12234523493754779,-0.12552643897383328,-0.15443823668928733,1.0545131580913276,0.3236237475812205,-0.39237554007649106,-2.1532987476817342,0.8647524752020835,2.4658774637043943,0.5444970943280667,1.0544104758940245,0.3238615046091247,-0.39250456234122666,-2.153291787532338,0.8647539153680389,2.46587817577521,0.5445020185570556,-9.975830864444676e-06,3.781228169993396e-05,-9.612034494318951e-05,-0.0009675876440543884,-6.592517829009437e-05,-0.00024057229698095183,-0.00019353208453092125,0.0,0.0,0.0,0.0,0.0,0.0,0.0,-0.00010268219730313888,0.00023775702790423958,-0.00012902226473560097,6.960149396384452e-06,1.4401659553797685e-06,7.120708156449496e-07,4.9242289889006585e-06,9.975830864444676e-06,-3.781228169993396e-05,9.612034494318951e-05,0.0009675876440543884,6.592517829009437e-05,0.00024057229698095183,0.00019353208453092125,0.3236324191093445,34.03915023803711,3.9735991954803467,-19.289278030395508,-0.1769919991493225,-1.783755898475647,0.13858358561992645,0
55,0.269989013671875,-0.2998287081718445,-34.09072494506836,-4.025173664093018,19.261507034301758,0.1714988350868225,1.783755898475647,-0.17337362468242645,0.0,0.0,0.0,0.0,0.0,0.0,0.0,-0.33076469708574785,0.030775340979197263,-0.42427568160867163,0.21335008446610243,0.12154032724114636,-0.12545522381298074,-0.15447683288966127,1.0545114876554724,0.3236271273643161,-0.39237192081568534,-2.153296798839903,0.864753085553646,2.465880642612775,0.5445009584344177,1.0544104758940245,0.3238615046091247,-0.39250456234122666,-2.153291787532338,0.8647539153680389,2.46587817577521,0.5445020185570556,-0.0006263060008024028,0.001555505837152235,0.0013018027727734966,-0.00029969929908272067,0.00011816796484990579,-9.637984773002971e-05,0.0011360550684027335,0.0,0.0,0.0,0.0,0.0,0.0,0.0,-0.00010101176144794444,0.00023437724480862565,-0.00013264152554132158,5.011307565361278e-06,8.298143928664459e-07,-2.4668375648850827e-06,1.0601226378970097e-06,0.0006263060008024028,-0.001555505837152235,-0.0013018027727734966,0.00029969929908272067,-0.00011816796484990579,9.637984773002971e-05,-0.0011360550684027335,0.2998287081718445,34.09072494506836,4.025173664093018,-19.261507034301758,-0.1714988350868225,-1.783755898475647,0.17337362468242645,0
56,0.27498674392700195,-0.2998287081718445,-34.09072494506836,-4.025173664093018,19.261507034301758,0.1714988350868225,1.783755898475647,-0.17337362468242645,0.0,0.0,0.0,0.0,0.0,0.0,0.0,-0.33076469708574785,0.030775340979197263,-0.42427568160867163,0.21335008446610243,0.12154032724114636,-0.12545522381298074,-0.15447683288966127,1.0545114876554724,0.3236271273643161,-0.39237192081568534,-2.153296798839903,0.864753085553646,2.465880642612775,0.5445009584344177,1.0544104758940245,0.3238615046091247,-0.39250456234122666,-2.153291787532338,0.8647539153680389,2.46587817577521,0.5445020185570556,-0.0006263060008024028,0.001555505837152235,0.0013018027727734966,-0.00029969929908272067,0.00011816796484990579,-9.637984773002971e-05,0.0011360550684027335,0.0,0.0,0.0,0.0,0.0,0.0,0.0,-0.00010101176144794444,0.00023437724480862565,-0.00013264152554132158,5.011307565361278e-06,8.298143928664459e-07,-2.4668375648850827e-06,1.0601226378970097e-06,0.0006263060008024028,-0.001555505837152235,-0.0013018027727734966,0.00029969929908272067,-0.00011816796484990579,9.637984773002971e-05,-0.0011360550684027335,0.2998287081718445,34.09072494506836,4.025173664093018,-19.261507034301758,-0.1714988350868225,-1.783755898475647,0.17337362468242645,0
57,0.27999448776245117,-0.3236324191093445,-34.03915023803711,-4.025173664093018,19.289278030395508,0.1769919991493225,1.783755898475647,-0.18710653483867645,0.0,0.0,0.0,0.0,0.0,0.0,0.0,-0.338651782077436,0.019395465578345147,-0.4309166689854751,0.21943093916397477,0.12161187642564887,-0.12362004841679969,-0.15471829104287077,1.0545131580913276,0.32362424144582835,-0.39237192081568534,-2.1532987476817342,0.8647524752020835,2.4658774637522223,0.5445024843133158,1.0544104758940245,0.3238615046091247,-0.39250456234122666,-2.153291787532338,0.8647539153680389,2.46587817577521,0.5445020185570556,-0.0005721568589988925,-0.0005104120025959256,0.0010468337201557565,-0.0007520121160947761,-6.168476584477589e-05,-2.8201357762065683e-05,0.0017790781507235629,0.0,0.0,0.0,0.0,0.0,0.0,0.0,-0.00010268219730313888,0.000237263163296364,-0.00013264152554132158,6.960149396384452e-06,1.4401659553797685e-06,7.120229876811379e-07,-4.657562602261578e-07,0.0005721568589988925,0.0005104120025959256,-0.0010468337201557565,0.0007520121160947761,6.168476584477589e-05,2.8201357762065683e-05,-0.0017790781507235629,0.3236324191093445,34.03915023803711,4.025173664093018,-19.289278030395508,-0.1769919991493225,-1.783755898475647,0.18710653483867645,0
58,0.2850344181060791,-0.3236324191093445,-34.03915023803711,-4.025173664093018,19.289278030395508,0.1769919991493225,1.783755898475647,-0.18710653483867645,0.0,0.0,0.0,0.0,0.0,0.0,0.0,-0.338651782077436,0.019395465578345147,-0.4309166689854751,0.21943093916397477,0.12161187642564887,-0.12362004841679969,-0.15471829104287077,1.0545131580913276,0.32362424144582835,-0.39237192081568534,-2.1532987476817342,0.8647524752020835,2.4658774637522223,0.5445024843133158,1.0544104758940245,0.3238615046091247,-0.39250456234122666,-2.153291787532338,0.8647539153680389,2.46587817577521,0.5445020185570556,-0.0005721568589988925,-0.0005104120025959256,0.0010468337201557565,-0.0007520121160947761,-6.168476584477589e-05,-2.8201357762065683e-05,0.0017790781507235629,0.0,0.0,0.0,0.0,0.0,0.0,0.0,-0.00010268219730313888,0.000237263163296364,-0.00013264152554132158,6.960149396384452e-06,1.4401659553797685e-06,7.120229876811379e-07,-4.657562602261578e-07,0.0005721568589988925,0.0005104120025959256,-0.0010468337201557565,0.0007520121160947761,6.168476584477589e-05,2.8201357762065683e-05,-0.0017790781507235629,0.3236324191093445,34.03915023803711,4.025173664093018,-19.289278030395508,-0.1769919991493225,-1.783755898475647,0.18710653483867645,0
59,0.29003453254699707,-0.3514034152030945,-34.03915023803711,-3.9735991954803467,19.261507034301758,0.1714988350868225,1.777347207069397,-0.13217489421367645,0.0,0.0,0.0,0.0,0.0,0.0,0.0,-0.3275659995931808,0.03692411109037547,-0.419015899815781,0.20774653178005567,0.12152353016901278,-0.1260694150473254,-0.1546606114919913,1.0545151069331586,0.3236237387759169,-0.39237553124632285,-2.153296798839903,0.864753085553646,2.465878215074902,0.5444967341719061,1.0544104758940245,0.3238615046091247,-0.39250456234122666,-2.153291787532338,0.8647539153680389,2.46587817577521,0.5445020185570556,0.00048315235730372755,0.0002368845545459086,-1.772019809780192e-05,-0.0006879532480016041,0.000107334526826696,-1.75027653320691e-05,-0.0006777712718340642,0.0,0.0,0.0,0.0,0.0,0.0,0.0,-0.00010463103913416205,0.00023776583320783695,-0.0001290310949038087,5.011307565361278e-06,8.298143928664459e-07,-3.9299691945160475e-08,5.284385149462167e-06,-0.00048315235730372755,-0.0002368845545459086,1.772019809780192e-05,0.0006879532480016041,-0.000107334526826696,1.75027653320691e-05,0.0006777712718340642,0.3514034152030945,34.03915023803711,3.9735991954803467,-19.261507034301758,-0.1714988350868225,-1.777347207069397,0.13217489421367645,0
60,0.29503464698791504,-0.3514034152030945,-34.03915023803711,-3.9735991954803467,19.261507034301758,0.1714988350868225,1.777347207069397,-0.13217489421367645,0.0,0.0,0.0,0.0,0.0,0.0,0.0,-0.3275659995931808,0.03692411109037547,-0.419015899815781,0.20774653178005567,0.12152353016901278,-0.1260694150473254,-0.1546606114919913,1.0545151069331586,0.3236237387759169,-0.39237553124632285,-2.153296798839903,0.864753085553646,2.465878215074902,0.5444967341719061,1.0544104758940245,0.3238615046091247,-0.39250456234122666,-2.153291787532338,0.8647539153680389,2.46587817577521,0.5445020185570556,0.00048315235730372755,0.0002368845545459086,-1.772019809780192e-05,-0.0006879532480016041,0.000107334526826696,-1.75027653320691e-05,-0.0006777712718340642,0.0,0.0,0.0,0.0,0.0,0.0,0.0,-0.00010463103913416205,0.00023776583320783695,-0.0001290310949038087,5.011307565361278e-06,8.298143928664459e-07,-3.9299691945160475e-08,5.284385149462167e-06,-0.00048315235730372755,-0.0002368845545459086,1.772019809780192e-05,0.0006879532480016041,-0.000107334526826696,1.75027653320691e-05,0.0006777712718340642,0.3514034152030945,34.03915023803711,3.9735991954803467,-19.261507034301758,-0.1714988350868225,-1.777347207069397,0.13217489421367645,0
61,0.2999858856201172,-0.3514034152030945,-34.03915023803711,-3.9974029064178467,19.261507034301758,0.1834006905555725,1.777347207069397,-0.13858358561992645,0.0,0.0,0.0,0.0,0.0,0.0,0.0,-0.3287571696985748,0.027007627974742245,-0.42182408731791454,0.21718325594595794,0.12176978203484023,-0.12571407178667032,-0.1551786174049242,1.0545151069331586,0.3236258534706547,-0.3923738696407355,-2.1532967988049108,0.8647517631252607,2.465878175936937,0.5444970928765085,1.0544104758940245,0.3238615046091247,-0.39250456234122666,-2.153291787532338,0.8647539153680389,2.46587817577521,0.5445020185570556,0.0008118011728963608,0.0003081087136928773,0.00028876831719841376,0.0003936227443775914,-0.00022704961355803473,4.1948166786364375e-05,-0.0008698029385971793,0.0,0.0,0.0,0.0,0.0,0.0,0.0,-0.00010463103913416205,0.00023565113847001662,-0.0001306927004911529,5.011272572907899e-06,2.1522427782194598e-06,-1.6172707617556625e-10,4.925680547107625e-06,-0.0008118011728963608,-0.0003081087136928773,-0.00028876831719841376,-0.0003936227443775914,0.00022704961355803473,-4.1948166786364375e-05,0.0008698029385971793,0.3514034152030945,34.03915023803711,3.9974029064178467,-19.261507034301758,-0.1834006905555725,-1.777347207069397,0.13858358561992645,0
62,0.3050222396850586,-0.3514034152030945,-34.03915023803711,-3.9974029064178467,19.261507034301758,0.1834006905555725,1.777347207069397,-0.13858358561992645,0.0,0.0,0.0,0.0,0.0,0.0,0.0,-0.3287571696985748,0.027007627974742245,-0.42182408731791454,0.21718325594595794,0.12176978203484023,-0.12571407178667032,-0.1551786174049242,1.0545151069331586,0.3236258534706547,-0.3923738696407355,-2.1532967988049108,0.8647517631252607,2.465878175936937,0.5444970928765085,1.0544104758940245,0.3238615046091247,-0.39250456234122666,-2.153291787532338,0.8647539153680389,2.46587817577521,0.5445020185570556,0.0008118011728963608,0.0003081087136928773,0.00028876831719841376,0.0003936227443775914,-0.00022704961355803473,4.1948166786364375e-05,-0.0008698029385971793,0.0,0.0,0.0,0.0,0.0,0.0,0.0,-0.00010463103913416205,0.00023565113847001662,-0.0001306927004911529,5.011272572907899e-06,2.1522427782194598e-06,-1.6172707617556625e-10,4.925680547107625e-06,-0.0008118011728963608,-0.0003081087136928773,-0.00028876831719841376,-0.0003936227443775914,0.00022704961355803473,-4.1948166786364375e-05,0.0008698029385971793,0.3514034152030945,34.03915023803711,3.9974029064178467,-19.261507034301758,-0.1834006905555725,-1.777347207069397,0.13858358561992645,0
63,0.3099977970123291,-0.2998287081718445,-34.01534652709961,-3.9974029064178467,19.261507034301758,0.1714988350868225,1.783755898475647,-0.14590780436992645,0.0,0.0,0.0,0.0,0.0,0.0,0.0,-0.3315346310127446,0.03112063644458378,-0.4260589204407916,0.2141671812934824,0.12239750933865653,-0.1262344665060702,-0.15605359889053255,1.0545114876554724,0.32362217267167404,-0.39237386964078536,-2.153296798839903,0.864753085553646,2.465877463698388,0.544497906676597,1.0544104758940245,0.3238615046091247,-0.39250456234122666,-2.153291787532338,0.8647539153680389,2.46587817577521,0.5445020185570556,-0.0009390420243661888,-0.00046568608455021827,0.0001975427292186756,-0.00043735144317833246,0.0002768983142768072,5.627430366215004e-05,-5.6714700236992054e-05,0.0,0.0,0.0,0.0,0.0,0.0,0.0,-0.00010101176144794444,0.00023933193745068193,-0.00013069270044130388,5.011307565361278e-06,8.298143928664459e-07,7.120768219515128e-07,4.111880458568251e-06,0.0009390420243661888,0.00046568608455021827,-0.0001975427292186756,0.00043735144317833246,-0.0002768983142768072,-5.627430366215004e-05,5.6714700236992054e-05,0.2998287081718445,34.01534652709961,3.9974029064178467,-19.261507034301758,-0.1714988350868225,-1.783755898475647,0.14590780436992645,0
64,0.31499338150024414,-0.2998287081718445,-34.01534652709961,-3.9974029064178467,19.261507034301758,0.1714988350868225,1.783755898475647,-0.14590780436992645,0.0,0.0,0.0,0.0,0.0,0.0,0.0,-0.3315346310127446,0.03112063644458378,-0.4260589204407916,0.2141671812934824,0.12239750933865653,-0.1262344665060702,-0.15605359889053255,1.0545114876554724,0.32362217267167404,-0.39237386964078536,-2.153296798839903,0.864753085553646,2.465877463698388,0.544497906676597,1.0544104758940245,0.3238615046091247,-0.39250456234122666,-2.153291787532338,0.8647539153680389,2.46587817577521,0.5445020185570556,-0.0009390420243661888,-0.00046568608455021827,0.0001975427292186756,-0.00043735144317833246,0.0002768983142768072,5.627430366215004e-05,-5.6714700236992054e-05,0.0,0.0,0.0,0.0,0.0,0.0,0.0,-0.00010101176144794444,0.00023933193745068193,-0.00013069270044130388,5.011307565361278e-06,8.298143928664459e-07,7.120768219515128e-07,4.111880458568251e-06,0.0009390420243661888,0.00046568608455021827,-0.0001975427292186756,0.00043735144317833246,-0.0002768983142768072,-5.627430366215004e-05,5.6714700236992054e-05,0.2998287081718445,34.01534652709961,3.9974029064178467,-19.261507034301758,-0.1714988350868225,-1.783755898475647,0.14590780436992645,0
65,0.31998753547668457,-0.2998287081718445,-34.06295394897461,-3.9974029064178467,19.261507034301758,0.1834006905555725,1.783755898475647,-0.15231649577617645,0.0,0.0,0.0,0.0,0.0,0.0,0.0,-0.33826200595351835,0.02329696006889596,-0.4319351137951421,0.22004856093223923,0.12243925219104806,-0.1249333518494286,-0.155987738247306,1.0545114876554724,0.3236252532429092,-0.39237386964078536,-2.153296798839903,0.8647517631252607,2.465877463698387,0.544501797667808,1.0544104758940245,0.3238615046091247,-0.39250456234122666,-2.153291787532338,0.8647539153680389,2.46587817577521,0.5445020185570556,-0.0015513655782285962,0.0004230150453538681,0.000413624502034972,-0.00019744013770884165,-0.0002733853384948697,-0.00018903879546104321,-0.0004896027060394049,0.0,0.0,0.0,0.0,0.0,0.0,0.0,-0.00010101176144794444,0.000236251366215523,-0.00013069270044130388,5.011307565361278e-06,2.1522427782194598e-06,7.120768228396912e-07,2.2088924755969686e-07,0.0015513655782285962,-0.0004230150453538681,-0.000413624502034972,0.00019744013770884165,0.0002733853384948697,0.00018903879546104321,0.0004896027060394049,0.2998287081718445,34.06295394897461,3.9974029064178467,-19.261507034301758,-0.1834006905555725,-1.783755898475647,0.15231649577617645,0
66,0.32502031326293945,-0.2998287081718445,-34.06295394897461,-3.9974029064178467,19.261507034301758,0.1834006905555725,1.783755898475647,-0.15231649577617645,0.0,0.0,0.0,0.0,0.0,0.0,0.0,-0.33826200595351835,0.02329696006889596,-0.4319351137951421,0.22004856093223923,0.12243925219104806,-0.1249333518494286,-0.155987738247306,1.0545114876554724,0.3236252532429092,-0.39237386964078536,-2.153296798839903,0.8647517631252607,2.465877463698387,0.544501797667808,1.0544104758940245,0.3238615046091247,-0.39250456234122666,-2.153291787532338,0.8647539153680389,2.46587817577521,0.5445020185570556,-0.0015513655782285962,0.0004230150453538681,0.000413624502034972,-0.00019744013770884165,-0.0002733853384948697,-0.00018903879546104321,-0.0004896027060394049,0.0,0.0,0.0,0.0,0.0,0.0,0.0,-0.00010101176144794444,0.000236251366215523,-0.00013069270044130388,5.011307565361278e-06,2.1522427782194598e-06,7.120768228396912e-07,2.2088924755969686e-07,0.0015513655782285962,-0.0004230150453538681,-0.000413624502034972,0.00019744013770884165,0.0002733853384948697,0.00018903879546104321,0.0004896027060394049,0.2998287081718445,34.06295394897461,3.9974029064178467,-19.261507034301758,-0.1834006905555725,-1.783755898475647,0.15231649577617645,0
67,0.33003735542297363,-0.3514034152030945,-34.06295394897461,-3.9974029064178467,19.289278030395508,0.1769919991493225,1.783755898475647,-0.15231649577617645,0.0,0.0,0.0,0.0,0.0,0.0,0.0,-0.3393878587227963,0.041885205043858016,-0.42755664309818947,0.21160163900115206,0.12245156611960212,-0.1261310042659767,-0.15686633198328653,1.0545151069331586,0.32362798324567665,-0.39237386964078536,-2.1532987476817342,0.8647524752020835,2.465877463698387,0.5444986202249152,1.0544104758940245,0.3238615046091247,-0.39250456234122666,-2.153291787532338,0.8647539153680389,2.46587817577521,0.5445020185570556,1.1155130537207412e-05,0.0015903933993622926,0.0002879263007906116,-0.0009556541679770267,-0.00021829638611728537,-0.0003216851567908647,-0.00035785617727932147,0.0,0.0,0.0,0.0,0.0,0.0,0.0,-0.00010463103913416205,0.00023352136344806373,-0.00013069270044130388,6.960149396384452e-06,1.4401659553797685e-06,7.120768228396912e-07,3.398332140358562e-06,-1.1155130537207412e-05,-0.0015903933993622926,-0.0002879263007906116,0.0009556541679770267,0.00021829638611728537,0.0003216851567908647,0.00035785617727932147,0.3514034152030945,34.06295394897461,3.9974029064178467,-19.289278030395508,-0.1769919991493225,-1.783755898475647,0.15231649577617645,0
68,0.335019588470459,-0.3514034152030945,-34.06295394897461,-3.9974029064178467,19.289278030395508,0.1769919991493225,1.783755898475647,-0.15231649577617645,0.0,0.0,0.0,0.0,0.0,0.0,0.0,-0.3393878587227963,0.041885205043858016,-0.42755664309818947,0.21160163900115206,0.12245156611960212,-0.1261310042659767,-0.15686633198328653,1.0545151069331586,0.32362798324567665,-0.39237386964078536,-2.1532987476817342,0.8647524752020835,2.465877463698387,0.5444986202249152,1.0544104758940245,0.3238615046091247,-0.39250456234122666,-2.153291787532338,0.8647539153680389,2.46587817577521,0.5445020185570556,1.1155130537207412e-05,0.0015903933993622926,0.0002879263007906116,-0.0009556541679770267,-0.00021829638611728537,-0.0003216851567908647,-0.00035785617727932147,0.0,0.0,0.0,0.0,0.0,0.0,0.0,-0.00010463103913416205,0.00023352136344806373,-0.00013069270044130388,6.960149396384452e-06,1.4401659553797685e-06,7.120768228396912e-07,3.398332140358562e-06,-1.1155130537207412e-05,-0.0015903933993622926,-0.0002879263007906116,0.0009556541679770267,0.00021829638611728537,0.0003216851567908647,0.00035785617727932147,0.3514034152030945,34.06295394897461,3.9974029064178467,-19.289278030395508,-0.1769919991493225,-1.783755898475647,0.15231649577617645,0
69,0.34000444412231445,-0.2998287081718445,-34.01534652709961,-3.9974029064178467,19.237703323364258,0.1650901436805725,1.777347207069397,-0.17978231608867645,0.0,0.0,0.0,0.0,0.0,0.0,0.0,-0.3319523491679791,0.03359480679757995,-0.41911181845136014,0.2182795582803958,0.12156457773527633,-0.12669613080014455,-0.1568305200634589,1.0545114876554724,0.32362183447514614,-0.39237386964078536,-2.153295128404048,0.864753797630469,2.46587829351278,0.5445016705113072,1.0544104758940245,0.3238615046091247,-0.39250456234122666,-2.153291787532338,0.8647539153680389,2.46587817577521,0.5445020185570556,-0.0005828022416667353,-0.00038016427742816703,0.0006456889649740253,8.750506215333953e-05,0.00042852613952213585,-0.00011310090954735929,0.000736009887603604,0.0,0.0,0.0,0.0,0.0,0.0,0.0,-0.00010101176144794444,0.00023967013397857562,-0.00013069270044130388,3.3408717099447927e-06,1.1773756991573237e-07,-1.1773756991573237e-07,3.48045748443937e-07,0.0005828022416667353,0.00038016427742816703,-0.0006456889649740253,-8.750506215333953e-05,-0.00042852613952213585,0.00011310090954735929,-0.000736009887603604,0.2998287081718445,34.01534652709961,3.9974029064178467,-19.237703323364258,-0.1650901436805725,-1.777347207069397,0.17978231608867645,0
70,0.3449859619140625,-0.2998287081718445,-34.01534652709961,-3.9974029064178467,19.237703323364258,0.1650901436805725,1.777347207069397,-0.17978231608867645,0.0,0.0,0.0,0.0,0.0,0.0,0.0,-0.3319523491679791,0.03359480679757995,-0.41911181845136014,0.2182795582803958,0.12156457773527633,-0.12669613080014455,-0.1568305200634589,1.0545114876554724,0.32362183447514614,-0.39237386964078536,-2.153295128404048,0.864753797630469,2.46587829351278,0.5445016705113072,1.0544104758940245,0.3238615046091247,-0.39250456234122666,-2.153291787532338,0.8647539153680389,2.46587817577521,0.5445020185570556,-0.0005828022416667353,-0.00038016427742816703,0.0006456889649740253,8.750506215333953e-05,0.00042852613952213585,-0.00011310090954735929,0.000736009887603604,0.0,0.0,0.0,0.0,0.0,0.0,0.0,-0.00010101176144794444,0.00023967013397857562,-0.00013069270044130388,3.3408717099447927e-06,1.1773756991573237e-07,-1.1773756991573237e-07,3.48045748443937e-07,0.0005828022416667353,0.00038016427742816703,-0.0006456889649740253,-8.750506215333953e-05,-0.00042852613952213585,0.00011310090954735929,-0.000736009887603604,0.2998287081718445,34.01534652709961,3.9974029064178467,-19.237703323364258,-0.1650901436805725,-1.777347207069397,0.17978231608867645,0
71,0.34998178482055664,-0.3514034152030945,-34.03915023803711,-3.9735991954803467,19.237703323364258,0.1714988350868225,1.783755898475647,-0.14590780436992645,0.0,0.0,0.0,0.0,0.0,0.0,0.0,-0.34258912815012105,0.020650435681376155,-0.4299785705295109,0.22733539452119444,0.12153657575647181,-0.12493382059971211,-0.15802678043499677,1.0545151069331586,0.32362350476833834,-0.3923755400766406,-2.153295128404048,0.864753085553646,2.4658774680592592,0.5444979068381025,1.0544104758940245,0.3238615046091247,-0.39250456234122666,-2.153291787532338,0.8647539153680389,2.46587817577521,0.5445020185570556,9.060939832450848e-05,-0.0005565956466315734,-8.0669903495735e-05,0.0005562165228150564,0.00013821216938510766,-0.0001325126833394483,-0.0007068279302398468,0.0,0.0,0.0,0.0,0.0,0.0,0.0,-0.00010463103913416205,0.0002379998407863737,-0.00012902226458605393,3.3408717099447927e-06,8.298143928664459e-07,7.077159507318243e-07,4.111718953092591e-06,-9.060939832450848e-05,0.0005565956466315734,8.0669903495735e-05,-0.0005562165228150564,-0.00013821216938510766,0.0001325126833394483,0.0007068279302398468,0.3514034152030945,34.03915023803711,3.9735991954803467,-19.237703323364258,-0.1714988350868225,-1.783755898475647,0.14590780436992645,0
72,0.3552215099334717,-0.3514034152030945,-34.03915023803711,-3.9735991954803467,19.237703323364258,0.1714988350868225,1.783755898475647,-0.14590780436992645,0.0,0.0,0.0,0.0,0.0,0.0,0.0,-0.34258912815012105,0.020650435681376155,-0.4299785705295109,0.22733539452119444,0.12153657575647181,-0.12493382059971211,-0.15802678043499677,1.0545151069331586,0.32362350476833834,-0.3923755400766406,-2.153295128404048,0.864753085553646,2.4658774680592592,0.5444979068381025,1.0544104758940245,0.3238615046091247,-0.39250456234122666,-2.153291787532338,0.8647539153680389,2.46587817577521,0.5445020185570556,9.060939832450848e-05,-0.0005565956466315734,-8.0669903495735e-05,0.0005562165228150564,0.00013821216938510766,-0.0001325126833394483,-0.0007068279302398468,0.0,0.0,0.0,0.0,0.0,0.0,0.0,-0.00010463103913416205,0.0002379998407863737,-0.00012902226458605393,3.3408717099447927e-06,8.298143928664459e-07,7.077159507318243e-07,4.111718953092591e-06,-9.060939832450848e-05,0.0005565956466315734,8.0669903495735e-05,-0.0005562165228150564,-0.00013821216938510766,0.0001325126833394483,0.0007068279302398468,0.3514034152030945,34.03915023803711,3.9735991954803467,-19.237703323364258,-0.1714988350868225,-1.783755898475647,0.14590780436992645,0
73,0.3599855899810791,-0.3514034152030945,-34.03915023803711,-3.9735991954803467,19.237703323364258,0.1714988350868225,1.783755898475647,-0.14590780436992645,0.0,0.0,0.0,0.0,0.0,0.0,0.0,-0.34258912815012105,0.020650435681376155,-0.4299785705295109,0.22733539452119444,0.12153657575647181,-0.12493382059971211,-0.15802678043499677,1.0545151069331586,0.32362350476833834,-0.3923755400766406,-2.153295128404048,0.864753085553646,2.4658774680592592,0.5444979068381025,1.0544104758940245,0.3238615046091247,-0.39250456234122666,-2.153291787532338,0.8647539153680389,2.46587817577521,0.5445020185570556,9.060939832450848e-05,-0.0005565956466315734,-8.0669903495735e-05,0.0005562165228150564,0.00013821216938510766,-0.0001325126833394483,-0.0007068279302398468,0.0,0.0,0.0,0.0,0.0,0.0,0.0,-0.00010463103913416205,0.0002379998407863737,-0.00012902226458605393,3.3408717099447927e-06,8.298143928664459e-07,7.077159507318243e-07,4.111718953092591e-06,-9.060939832450848e-05,0.0005565956466315734,8.0669903495735e-05,-0.0005562165228150564,-0.00013821216938510766,0.0001325126833394483,0.0007068279302398468,0.3514034152030945,34.03915023803711,3.9735991954803467,-19.237703323364258,-0.1714988350868225,-1.783755898475647,0.14590780436992645,0
74,0.3649864196777344,-0.3514034152030945,-34.03915023803711,-3.9735991954803467,19.237703323364258,0.1714988350868225,1.783755898475647,-0.14590780436992645,0.0,0.0,0.0,0.0,0.0,0.0,0.0,-0.34258912815012105,0.020650435681376155,-0.4299785705295109,0.22733539452119444,0.12153657575647181,-0.12493382059971211,-0.15802678043499677,1.0545151069331586,0.32362350476833834,-0.3923755400766406,-2.153295128404048,0.864753085553646,2.4658774680592592,0.5444979068381025,1.0544104758940245,0.3238615046091247,-0.39250456234122666,-2.153291787532338,0.8647539153680389,2.46587817577521,0.5445020185570556,9.060939832450848e-05,-0.0005565956466315734,-8.0669903495735e-05,0.0005562165228150564,0.00013821216938510766,-0.0001325126833394483,-0.0007068279302398468,0.0,0.0,0.0,0.0,0.0,0.0,0.0,-0.00010463103913416205,0.0002379998407863737,-0.00012902226458605393,3.3408717099447927e-06,8.298143928664459e-07,7.077159507318243e-07,4.111718953092591e-06,-9.060939832450848e-05,0.0005565956466315734,8.0669903495735e-05,-0.0005562165228150564,-0.00013821216938510766,0.0001325126833394483,0.0007068279302398468,0.3514034152030945,34.03915023803711,3.9735991954803467,-19.237703323364258,-0.1714988350868225,-1.783755898475647,0.14590780436992645,0
75,0.36998653411865234,-0.3236324191093445,-34.06295394897461,-3.9735991954803467,19.261507034301758,0.1595969796180725,1.783755898475647,-0.19351522624492645,0.0,0.0,0.0,0.0,0.0,0.0,0.0,-0.34193726237953087,0.038087166471432496,-0.42703579495299987,0.21940049368876724,0.12127797344226282,-0.12560686094004125,-0.15803352725615089,1.0545131580913276,0.32362517520419337,-0.3923755400766406,-2.153296798839903,0.8647544079820315,2.465877816911105,0.5445032356359957,1.0544104758940245,0.3238615046091247,-0.39250456234122666,-2.153291787532338,0.8647539153680389,2.46587817577521,0.5445020185570556,-0.0003319580193747351,0.0009688729662782089,-0.0005476202106158521,6.758511317482067e-05,0.0004470407840015977,-0.00022238723760839642,0.0013593051295044747,0.0,0.0,0.0,0.0,0.0,0.0,0.0,-0.00010268219730313888,0.0002363294049313458,-0.00012902226458605393,5.011307565361278e-06,-4.926139925975903e-07,3.5886410509888833e-07,-1.2170789400745008e-06,0.0003319580193747351,-0.0009688729662782089,0.0005476202106158521,-6.758511317482067e-05,-0.0004470407840015977,0.00022238723760839642,-0.0013593051295044747,0.3236324191093445,34.06295394897461,3.9735991954803467,-19.261507034301758,-0.1595969796180725,-1.783755898475647,0.19351522624492645,0
76,0.3749868869781494,-0.3236324191093445,-34.06295394897461,-3.9735991954803467,19.261507034301758,0.1595969796180725,1.783755898475647,-0.19351522624492645,0.0,0.0,0.0,0.0,0.0,0.0,0.0,-0.34193726237953087,0.038087166471432496,-0.42703579495299987,0.21940049368876724,0.12127797344226282,-0.12560686094004125,-0.15803352725615089,1.0545131580913276,0.32362517520419337,-0.3923755400766406,-2.153296798839903,0.8647544079820315,2.465877816911105,0.5445032356359957,1.0544104758940245,0.3238615046091247,-0.39250456234122666,-2.153291787532338,0.8647539153680389,2.46587817577521,0.5445020185570556,-0.0003319580193747351,0.0009688729662782089,-0.0005476202106158521,6.758511317482067e-05,0.0004470407840015977,-0.00022238723760839642,0.0013593051295044747,0.0,0.0,0.0,0.0,0.0,0.0,0.0,-0.00010268219730313888,0.0002363294049313458,-0.00012902226458605393,5.011307565361278e-06,-4.926139925975903e-07,3.5886410509888833e-07,-1.2170789400745008e-06,0.0003319580193747351,-0.0009688729662782089,0.0005476202106158521,-6.758511317482067e-05,-0.0004470407840015977,0.00022238723760839642,-0.0013593051295044747,0.3236324191093445,34.06295394897461,3.9735991954803467,-19.261507034301758,-0.1595969796180725,-1.783755898475647,0.19351522624492645,0
77,0.3799889087677002,-0.3236324191093445,-34.03915023803711,-3.9974029064178467,19.313081741333008,0.1769919991493225,1.783755898475647,-0.11844198405742645,0.0,0.0,0.0,0.0,0.0,0.0,0.0,-0.33152901643609556,0.02898791434295952,-0.41978021931163023,0.22395446373356487,0.12036719545818858,-0.1257265577869858,-0.15906181678526632,1.0545131580913276,0.3236235309113814,-0.39237386964078536,-2.1533004181175897,0.8647524752020835,2.4658774637169967,0.5444948549188584,1.0544104758940245,0.3238615046091247,-0.39250456234122666,-2.153291787532338,0.8647539153680389,2.46587817577521,0.5445020185570556,-0.00011591926022531304,-0.0004167132107491572,0.0005004046200160318,-0.0015333247668602075,-9.348388376147798e-05,-0.00011396532454573634,-0.0018750154345086201,0.0,0.0,0.0,0.0,0.0,0.0,0.0,-0.00010268219730313888,0.00023797369774331,-0.00013069270044130388,8.630585251800937e-06,1.4401659553797685e-06,7.120582132813524e-07,7.163638197194011e-06,0.00011591926022531304,0.0004167132107491572,-0.0005004046200160318,0.0015333247668602075,9.348388376147798e-05,0.00011396532454573634,0.0018750154345086201,0.3236324191093445,34.03915023803711,3.9974029064178467,-19.313081741333008,-0.1769919991493225,-1.783755898475647,0.11844198405742645,0
78,0.3849959373474121,-0.3236324191093445,-34.03915023803711,-3.9974029064178467,19.313081741333008,0.1769919991493225,1.783755898475647,-0.11844198405742645,0.0,0.0,0.0,0.0,0.0,0.0,0.0,-0.33152901643609556,0.02898791434295952,-0.41978021931163023,0.22395446373356487,0.12036719545818858,-0.1257265577869858,-0.15906181678526632,1.0545131580913276,0.3236235309113814,-0.39237386964078536,-2.1533004181175897,0.8647524752020835,2.4658774637169967,0.5444948549188584,1.0544104758940245,0.3238615046091247,-0.39250456234122666,-2.153291787532338,0.8647539153680389,2.46587817577521,0.5445020185570556,-0.00011591926022531304,-0.0004167132107491572,0.0005004046200160318,-0.0015333247668602075,-9.348388376147798e-05,-0.00011396532454573634,-0.0018750154345086201,0.0,0.0,0.0,0.0,0.0,0.0,0.0,-0.00010268219730313888,0.00023797369774331,-0.00013069270044130388,8.630585251800937e-06,1.4401659553797685e-06,7.120582132813524e-07,7.163638197194011e-06,0.00011591926022531304,0.0004167132107491572,-0.0005004046200160318,0.0015333247668602075,9.348388376147798e-05,0.00011396532454573634,0.0018750154345086201,0.3236324191093445,34.03915023803711,3.9974029064178467,-19.313081741333008,-0.1769919991493225,-1.783755898475647,0.11844198405742645,0
79,0.38999080657958984,-0.3236324191093445,-34.06295394897461,-3.9974029064178467,19.261507034301758,0.1834006905555725,1.783755898475647,-0.15231649577617645,0.0,0.0,0.0,0.0,0.0,0.0,0.0,-0.3362063335511463,0.03557442451559557,-0.42565301958931573,0.21711808674786692,0.12097439439247289,-0.1258923127313878,-0.15972338252379253,1.0545131580913276,0.32362729279084745,-0.39237386964078536,-2.153296798839903,0.8647517631252607,2.4658806430972917,0.5445018036435145,1.0544104758940245,0.3238615046091247,-0.39250456234122666,-2.153291787532338,0.8647539153680389,2.46587817577521,0.5445020185570556,-7.268494711094456e-05,0.0004939547690487291,0.0004469141881099792,-7.513299239273556e-05,-0.00017544478042180227,-0.00016615718775274963,-0.0003432446120428862,0.0,0.0,0.0,0.0,0.0,0.0,0.0,-0.00010268219730313888,0.00023421181827726345,-0.00013069270044130388,5.011307565361278e-06,2.1522427782194598e-06,-2.4673220817561514e-06,2.1491354107450178e-07,7.268494711094456e-05,-0.0004939547690487291,-0.0004469141881099792,7.513299239273556e-05,0.00017544478042180227,0.00016615718775274963,0.0003432446120428862,0.3236324191093445,34.06295394897461,3.9974029064178467,-19.261507034301758,-0.1834006905555725,-1.783755898475647,0.15231649577617645,0
80,0.39498329162597656,-0.3236324191093445,-34.06295394897461,-3.9974029064178467,19.261507034301758,0.1834006905555725,1.783755898475647,-0.15231649577617645,0.0,0.0,0.0,0.0,0.0,0.0,0.0,-0.3362063335511463,0.03557442451559557,-0.42565301958931573,0.21711808674786692,0.12097439439247289,-0.1258923127313878,-0.15972338252379253,1.0545131580913276,0.32362729279084745,-0.39237386964078536,-2.153296798839903,0.8647517631252607,2.4658806430972917,0.5445018036435145,1.0544104758940245,0.3238615046091247,-0.39250456234122666,-2.153291787532338,0.8647539153680389,2.46587817577521,0.5445020185570556,-7.268494711094456e-05,0.0004939547690487291,0.0004469141881099792,-7.513299239273556e-05,-0.00017544478042180227,-0.00016615718775274963,-0.0003432446120428862,0.0,0.0,0.0,0.0,0.0,0.0,0.0,-0.00010268219730313888,0.00023421181827726345,-0.00013069270044130388,5.011307565361278e-06,2.1522427782194598e-06,-2.4673220817561514e-06,2.1491354107450178e-07,7.268494711094456e-05,-0.0004939547690487291,-0.0004469141881099792,7.513299239273556e-05,0.00017544478042180227,0.00016615718775274963,0.0003432446120428862,0.3236324191093445,34.06295394897461,3.9974029064178467,-19.261507034301758,-0.1834006905555725,-1.783755898475647,0.15231649577617645,0
