rezayati/contactInterpretation/dataset/franka_main/labeled_data/link5/c13_6.csv
index,time,tau_J0,tau_J1,tau_J2,tau_J3,tau_J4,tau_J5,tau_J6,tau_J_d0,tau_J_d1,tau_J_d2,tau_J_d3,tau_J_d4,tau_J_d5,tau_J_d6,tau_ext0,tau_ext1,tau_ext2,tau_ext3,tau_ext4,tau_ext5,tau_ext6,q0,q1,q2,q3,q4,q5,q6,q_d0,q_d1,q_d2,q_d3,q_d4,q_d5,q_d6,dq0,dq1,dq2,dq3,dq4,dq5,dq6,dq_d0,dq_d1,dq_d2,dq_d3,dq_d4,dq_d5,dq_d6,e0,e1,e2,e3,e4,e5,e6,de0,de1,de2,de3,de4,de5,de6,etau_J0,etau_J1,etau_J2,etau_J3,etau_J4,etau_J5,etau_J6,label
1,0.0,0.03342324495315552,-18.154138565063477,0.9696381092071533,18.198274612426758,0.5102439522743225,2.2488436698913574,-0.19351522624492645,0.0,0.0,0.0,0.0,0.0,0.0,0.0,0.006933713699646501,0.5532894724219466,0.1423574069629167,0.6170999172894786,0.09005916720565313,0.06638971146324407,-0.20987764417120608,-0.6088673442321577,-0.05763088925784094,-0.6665315986850804,-2.5946634835694966,-0.05559995646590569,2.5079574496481154,0.8763176628435404,-0.6090851748156966,-0.05753196718556838,-0.666603097082616,-2.5945565370258534,-0.05562143941554,2.507976027223799,0.8763108487046415,0.00018654893006593486,0.0010360777783039578,0.0004531413602811609,0.0010336592559038798,0.0002046642043817787,9.111010240289285e-05,-0.0006854597414213876,0.0,0.0,0.0,0.0,0.0,0.0,0.0,-0.0002178305835388583,9.892207227255728e-05,-7.149839753561871e-05,0.00010694654364318268,-2.148294963431191e-05,1.8577575683575986e-05,-6.814138898914024e-06,-0.00018654893006593486,-0.0010360777783039578,-0.0004531413602811609,-0.0010336592559038798,-0.0002046642043817787,-9.111010240289285e-05,0.0006854597414213876,-0.03342324495315552,18.154138565063477,-0.9696381092071533,-18.198274612426758,-0.5102439522743225,-2.2488436698913574,0.19351522624492645,0
2,0.005004405975341797,-0.018151462078094482,-18.130334854125977,0.9418671131134033,18.245882034301758,0.5102439522743225,2.2424349784851074,-0.22830526530742645,0.0,0.0,0.0,0.0,0.0,0.0,0.0,0.001729629639502279,0.5457343135340428,0.13930304036611119,0.6192041379770844,0.09097077208685153,0.06638221320423374,-0.21007590925984007,-0.6088615817790031,-0.057632559693696205,-0.6665296498432493,-2.594666824441207,-0.05559958642112588,2.5079581617249382,0.8763215298569782,-0.6090851748156966,-0.05753196718556838,-0.666603097082616,-2.5945565370258534,-0.05562143941554,2.507976027223799,0.8763108487046415,0.000364472495021374,-0.00016212168986913576,0.00037713510926845774,-9.162522243176218e-05,0.0002938887286829637,-3.1735322386549734e-05,0.0004518601031078488,0.0,0.0,0.0,0.0,0.0,0.0,0.0,-0.0002235930366935035,0.00010059250812782111,-7.34472393667529e-05,0.00011028741535357156,-2.185299441412325e-05,1.7865498860736295e-05,-1.0681152336711186e-05,-0.000364472495021374,0.00016212168986913576,-0.00037713510926845774,9.162522243176218e-05,-0.0002938887286829637,3.1735322386549734e-05,-0.0004518601031078488,0.018151462078094482,18.130334854125977,-0.9418671131134033,-18.245882034301758,-0.5102439522743225,-2.2424349784851074,0.22830526530742645,0
3,0.010001897811889648,-0.018151462078094482,-18.130334854125977,0.9418671131134033,18.245882034301758,0.5102439522743225,2.2424349784851074,-0.22830526530742645,0.0,0.0,0.0,0.0,0.0,0.0,0.0,0.001729629639502279,0.5457343135340428,0.13930304036611119,0.6192041379770844,0.09097077208685153,0.06638221320423374,-0.21007590925984007,-0.6088615817790031,-0.057632559693696205,-0.6665296498432493,-2.594666824441207,-0.05559958642112588,2.5079581617249382,0.8763215298569782,-0.6090851748156966,-0.05753196718556838,-0.666603097082616,-2.5945565370258534,-0.05562143941554,2.507976027223799,0.8763108487046415,0.000364472495021374,-0.00016212168986913576,0.00037713510926845774,-9.162522243176218e-05,0.0002938887286829637,-3.1735322386549734e-05,0.0004518601031078488,0.0,0.0,0.0,0.0,0.0,0.0,0.0,-0.0002235930366935035,0.00010059250812782111,-7.34472393667529e-05,0.00011028741535357156,-2.185299441412325e-05,1.7865498860736295e-05,-1.0681152336711186e-05,-0.000364472495021374,0.00016212168986913576,-0.00037713510926845774,9.162522243176218e-05,-0.0002938887286829637,3.1735322386549734e-05,-0.0004518601031078488,0.018151462078094482,18.130334854125977,-0.9418671131134033,-18.245882034301758,-0.5102439522743225,-2.2424349784851074,0.22830526530742645,0
4,0.01500082015991211,-0.04592245817184448,-18.130334854125977,0.9180634021759033,18.222078323364258,0.5166526436805725,2.2552523612976074,-0.20724813640117645,0.0,0.0,0.0,0.0,0.0,0.0,0.0,-0.006219147939128923,0.54903735879545,0.1332469381294906,0.61333731616621,0.09092952633614171,0.0648664395661087,-0.213559343167597,-0.608862574838094,-0.057632559693696205,-0.666527978444417,-2.594665154005352,-0.05559852177361545,2.5079567375712926,0.8763191901759968,-0.6090851748156966,-0.05753196718556838,-0.666603097082616,-2.5945565370258534,-0.05562143941554,2.507976027223799,0.8763108487046415,-1.9605645597108416e-05,0.0005059977276598059,-4.066905670836703e-06,0.00020711302080871237,-0.00022830615158868177,-0.00017085419584081152,-0.0004377676228025183,0.0,0.0,0.0,0.0,0.0,0.0,0.0,-0.00022259997760254446,0.00010059250812782111,-7.51186381989788e-05,0.00010861697949859916,-2.291764192455248e-05,1.9289652506415678e-05,-8.341471355310937e-06,1.9605645597108416e-05,-0.0005059977276598059,4.066905670836703e-06,-0.00020711302080871237,0.00022830615158868177,0.00017085419584081152,0.0004377676228025183,0.04592245817184448,18.130334854125977,-0.9180634021759033,-18.222078323364258,-0.5166526436805725,-2.2552523612976074,0.20724813640117645,0
5,0.02001953125,-0.04592245817184448,-18.130334854125977,0.9180634021759033,18.222078323364258,0.5166526436805725,2.2552523612976074,-0.20724813640117645,0.0,0.0,0.0,0.0,0.0,0.0,0.0,-0.006219147939128923,0.54903735879545,0.1332469381294906,0.61333731616621,0.09092952633614171,0.0648664395661087,-0.213559343167597,-0.608862574838094,-0.057632559693696205,-0.666527978444417,-2.594665154005352,-0.05559852177361545,2.5079567375712926,0.8763191901759968,-0.6090851748156966,-0.05753196718556838,-0.666603097082616,-2.5945565370258534,-0.05562143941554,2.507976027223799,0.8763108487046415,-1.9605645597108416e-05,0.0005059977276598059,-4.066905670836703e-06,0.00020711302080871237,-0.00022830615158868177,-0.00017085419584081152,-0.0004377676228025183,0.0,0.0,0.0,0.0,0.0,0.0,0.0,-0.00022259997760254446,0.00010059250812782111,-7.51186381989788e-05,0.00010861697949859916,-2.291764192455248e-05,1.9289652506415678e-05,-8.341471355310937e-06,1.9605645597108416e-05,-0.0005059977276598059,4.066905670836703e-06,-0.00020711302080871237,0.00022830615158868177,0.00017085419584081152,0.0004377676228025183,0.04592245817184448,18.130334854125977,-0.9180634021759033,-18.222078323364258,-0.5166526436805725,-2.2552523612976074,0.20724813640117645,0
6,0.02502155303955078,-0.04592245817184448,-18.130334854125977,0.9180634021759033,18.222078323364258,0.5166526436805725,2.2552523612976074,-0.20724813640117645,0.0,0.0,0.0,0.0,0.0,0.0,0.0,-0.006219147939128923,0.54903735879545,0.1332469381294906,0.61333731616621,0.09092952633614171,0.0648664395661087,-0.213559343167597,-0.608862574838094,-0.057632559693696205,-0.666527978444417,-2.594665154005352,-0.05559852177361545,2.5079567375712926,0.8763191901759968,-0.6090851748156966,-0.05753196718556838,-0.666603097082616,-2.5945565370258534,-0.05562143941554,2.507976027223799,0.8763108487046415,-1.9605645597108416e-05,0.0005059977276598059,-4.066905670836703e-06,0.00020711302080871237,-0.00022830615158868177,-0.00017085419584081152,-0.0004377676228025183,0.0,0.0,0.0,0.0,0.0,0.0,0.0,-0.00022259997760254446,0.00010059250812782111,-7.51186381989788e-05,0.00010861697949859916,-2.291764192455248e-05,1.9289652506415678e-05,-8.341471355310937e-06,1.9605645597108416e-05,-0.0005059977276598059,4.066905670836703e-06,-0.00020711302080871237,0.00022830615158868177,0.00017085419584081152,0.0004377676228025183,0.04592245817184448,18.130334854125977,-0.9180634021759033,-18.222078323364258,-0.5166526436805725,-2.2552523612976074,0.20724813640117645,0
7,0.030015230178833008,-0.04592245817184448,-18.130334854125977,0.9180634021759033,18.222078323364258,0.5166526436805725,2.2552523612976074,-0.20724813640117645,0.0,0.0,0.0,0.0,0.0,0.0,0.0,-0.006219147939128923,0.54903735879545,0.1332469381294906,0.61333731616621,0.09092952633614171,0.0648664395661087,-0.213559343167597,-0.608862574838094,-0.057632559693696205,-0.666527978444417,-2.594665154005352,-0.05559852177361545,2.5079567375712926,0.8763191901759968,-0.6090851748156966,-0.05753196718556838,-0.666603097082616,-2.5945565370258534,-0.05562143941554,2.507976027223799,0.8763108487046415,-1.9605645597108416e-05,0.0005059977276598059,-4.066905670836703e-06,0.00020711302080871237,-0.00022830615158868177,-0.00017085419584081152,-0.0004377676228025183,0.0,0.0,0.0,0.0,0.0,0.0,0.0,-0.00022259997760254446,0.00010059250812782111,-7.51186381989788e-05,0.00010861697949859916,-2.291764192455248e-05,1.9289652506415678e-05,-8.341471355310937e-06,1.9605645597108416e-05,-0.0005059977276598059,4.066905670836703e-06,-0.00020711302080871237,0.00022830615158868177,0.00017085419584081152,0.0004377676228025183,0.04592245817184448,18.130334854125977,-0.9180634021759033,-18.222078323364258,-0.5166526436805725,-2.2552523612976074,0.20724813640117645,0
8,0.03500795364379883,-0.04592245817184448,-18.106531143188477,0.9180634021759033,18.222078323364258,0.5166526436805725,2.2488436698913574,-0.22830526530742645,0.0,0.0,0.0,0.0,0.0,0.0,0.0,-0.008779278355925513,0.5431457658037833,0.1339182802955998,0.6220206164567978,0.09006312790046624,0.06661520822638738,-0.21451154470029288,-0.6088624941099849,-0.05763423012955147,-0.6665279794073887,-2.594665154005352,-0.05559749493968972,2.507957449809621,0.8763215254963356,-0.6090851748156966,-0.05753196718556838,-0.666603097082616,-2.5945565370258534,-0.05562143941554,2.507976027223799,0.8763108487046415,-0.000318223061690135,-5.082868899688533e-05,-0.00014837555829962318,0.00139115222537455,0.00017143341867461846,-0.0001369881736407987,0.0007037391574329891,0.0,0.0,0.0,0.0,0.0,0.0,0.0,-0.0002226807057116309,0.00010226294398308494,-7.511767522727641e-05,0.00010861697949859916,-2.3944475850280755e-05,1.8577414178100327e-05,-1.0676791694086418e-05,0.000318223061690135,5.082868899688533e-05,0.00014837555829962318,-0.00139115222537455,-0.00017143341867461846,0.0001369881736407987,-0.0007037391574329891,0.04592245817184448,18.106531143188477,-0.9180634021759033,-18.222078323364258,-0.5166526436805725,-2.2488436698913574,0.22830526530742645,0
9,0.040003061294555664,-0.04592245817184448,-18.106531143188477,0.9180634021759033,18.222078323364258,0.5166526436805725,2.2488436698913574,-0.22830526530742645,0.0,0.0,0.0,0.0,0.0,0.0,0.0,-0.008779278355925513,0.5431457658037833,0.1339182802955998,0.6220206164567978,0.09006312790046624,0.06661520822638738,-0.21451154470029288,-0.6088624941099849,-0.05763423012955147,-0.6665279794073887,-2.594665154005352,-0.05559749493968972,2.507957449809621,0.8763215254963356,-0.6090851748156966,-0.05753196718556838,-0.666603097082616,-2.5945565370258534,-0.05562143941554,2.507976027223799,0.8763108487046415,-0.000318223061690135,-5.082868899688533e-05,-0.00014837555829962318,0.00139115222537455,0.00017143341867461846,-0.0001369881736407987,0.0007037391574329891,0.0,0.0,0.0,0.0,0.0,0.0,0.0,-0.0002226807057116309,0.00010226294398308494,-7.511767522727641e-05,0.00010861697949859916,-2.3944475850280755e-05,1.8577414178100327e-05,-1.0676791694086418e-05,0.000318223061690135,5.082868899688533e-05,0.00014837555829962318,-0.00139115222537455,-0.00017143341867461846,0.0001369881736407987,-0.0007037391574329891,0.04592245817184448,18.106531143188477,-0.9180634021759033,-18.222078323364258,-0.5166526436805725,-2.2488436698913574,0.22830526530742645,0
10,0.045000553131103516,0.05722695589065552,-18.078760147094727,0.9418671131134033,18.269685745239258,0.5102439522743225,2.2360262870788574,-0.18710653483867645,0.0,0.0,0.0,0.0,0.0,0.0,0.0,-0.009192688133217245,0.5449896885135095,0.13501058831801485,0.6199848528666785,0.08990774824764068,0.06548674210141334,-0.21359329404857494,-0.608868771323108,-0.05763617897138261,-0.6665296495222569,-2.5946684948770624,-0.05559971056466528,2.507958873801762,0.8763169522202431,-0.6090851748156966,-0.05753196718556838,-0.666603097082616,-2.5945565370258534,-0.05562143941554,2.507976027223799,0.8763108487046415,-0.0019067303887630226,-0.0011846840937431923,-0.0001505766892609496,-0.0005631148242999423,0.00012545834681106294,0.0005110881144765382,-0.0008043103553657893,0.0,0.0,0.0,0.0,0.0,0.0,0.0,-0.00021640349258855718,0.00010421178581422608,-7.344756035909672e-05,0.00011195785120898805,-2.1728850874716543e-05,1.7153422037008426e-05,-6.103515601596499e-06,0.0019067303887630226,0.0011846840937431923,0.0001505766892609496,0.0005631148242999423,-0.00012545834681106294,-0.0005110881144765382,0.0008043103553657893,-0.05722695589065552,18.078760147094727,-0.9418671131134033,-18.269685745239258,-0.5102439522743225,-2.2360262870788574,0.18710653483867645,0
11,0.04999947547912598,0.05722695589065552,-18.078760147094727,0.9418671131134033,18.269685745239258,0.5102439522743225,2.2360262870788574,-0.18710653483867645,0.0,0.0,0.0,0.0,0.0,0.0,0.0,-0.009192688133217245,0.5449896885135095,0.13501058831801485,0.6199848528666785,0.08990774824764068,0.06548674210141334,-0.21359329404857494,-0.608868771323108,-0.05763617897138261,-0.6665296495222569,-2.5946684948770624,-0.05559971056466528,2.507958873801762,0.8763169522202431,-0.6090851748156966,-0.05753196718556838,-0.666603097082616,-2.5945565370258534,-0.05562143941554,2.507976027223799,0.8763108487046415,-0.0019067303887630226,-0.0011846840937431923,-0.0001505766892609496,-0.0005631148242999423,0.00012545834681106294,0.0005110881144765382,-0.0008043103553657893,0.0,0.0,0.0,0.0,0.0,0.0,0.0,-0.00021640349258855718,0.00010421178581422608,-7.344756035909672e-05,0.00011195785120898805,-2.1728850874716543e-05,1.7153422037008426e-05,-6.103515601596499e-06,0.0019067303887630226,0.0011846840937431923,0.0001505766892609496,0.0005631148242999423,-0.00012545834681106294,-0.0005110881144765382,0.0008043103553657893,-0.05722695589065552,18.078760147094727,-0.9418671131134033,-18.269685745239258,-0.5102439522743225,-2.2360262870788574,0.18710653483867645,0
12,0.055001020431518555,0.005652248859405518,-18.130334854125977,1.0172455310821533,18.297456741333008,0.5047507882118225,2.2552523612976074,-0.20724813640117645,0.0,0.0,0.0,0.0,0.0,0.0,0.0,-0.006204563767673156,0.5496346094077836,0.13613394728119801,0.6180320286442306,0.08949100316599883,0.06494052124171569,-0.21077556097515757,-0.6088654509626029,-0.057632559693696205,-0.6665347052323767,-2.5946704437188934,-0.055595777177228974,2.5079567375712926,0.8763191901759968,-0.6090851748156966,-0.05753196718556838,-0.666603097082616,-2.5945565370258534,-0.05562143941554,2.507976027223799,0.8763108487046415,0.0004686615772094655,0.0006499978402168865,-0.0009236314611560401,-0.001359001499673341,7.518253431618167e-05,-0.00018979414690665315,-0.00023790269439438936,0.0,0.0,0.0,0.0,0.0,0.0,0.0,-0.00021972385309365627,0.00010059250812782111,-6.839185023932437e-05,0.00011390669304001122,-2.5662238311026375e-05,1.9289652506415678e-05,-8.341471355310937e-06,-0.0004686615772094655,-0.0006499978402168865,0.0009236314611560401,0.001359001499673341,-7.518253431618167e-05,0.00018979414690665315,0.00023790269439438936,-0.005652248859405518,18.130334854125977,-1.0172455310821533,-18.297456741333008,-0.5047507882118225,-2.2552523612976074,0.20724813640117645,0
13,0.05999922752380371,0.005652248859405518,-18.130334854125977,1.0172455310821533,18.297456741333008,0.5047507882118225,2.2552523612976074,-0.20724813640117645,0.0,0.0,0.0,0.0,0.0,0.0,0.0,-0.006204563767673156,0.5496346094077836,0.13613394728119801,0.6180320286442306,0.08949100316599883,0.06494052124171569,-0.21077556097515757,-0.6088654509626029,-0.057632559693696205,-0.6665347052323767,-2.5946704437188934,-0.055595777177228974,2.5079567375712926,0.8763191901759968,-0.6090851748156966,-0.05753196718556838,-0.666603097082616,-2.5945565370258534,-0.05562143941554,2.507976027223799,0.8763108487046415,0.0004686615772094655,0.0006499978402168865,-0.0009236314611560401,-0.001359001499673341,7.518253431618167e-05,-0.00018979414690665315,-0.00023790269439438936,0.0,0.0,0.0,0.0,0.0,0.0,0.0,-0.00021972385309365627,0.00010059250812782111,-6.839185023932437e-05,0.00011390669304001122,-2.5662238311026375e-05,1.9289652506415678e-05,-8.341471355310937e-06,-0.0004686615772094655,-0.0006499978402168865,0.0009236314611560401,0.001359001499673341,-7.518253431618167e-05,0.00018979414690665315,0.00023790269439438936,-0.005652248859405518,18.130334854125977,-1.0172455310821533,-18.297456741333008,-0.5047507882118225,-2.2552523612976074,0.20724813640117645,0
14,0.0650014877319336,0.005652248859405518,-18.130334854125977,0.9934418201446533,18.222078323364258,0.4983420968055725,2.2552523612976074,-0.20724813640117645,0.0,0.0,0.0,0.0,0.0,0.0,0.0,-0.003271300530475284,0.550236083084834,0.13789682894649274,0.6175849553894169,0.08915408636746434,0.06488656474148698,-0.21221042186068573,-0.6088653600810612,-0.057632559693696205,-0.6665332604528197,-2.594665154005352,-0.05559826581443029,2.5079567390248427,0.8763191901759968,-0.6090851748156966,-0.05753196718556838,-0.666603097082616,-2.5945565370258534,-0.05562143941554,2.507976027223799,0.8763108487046415,0.0009731259897975998,0.000781519932307488,-0.00011821709957165734,0.0005124972084491314,0.00040268416640922017,-0.0001765766010411447,-0.000488929007807293,0.0,0.0,0.0,0.0,0.0,0.0,0.0,-0.00021981473463539292,0.00010059250812782111,-6.9836629796316e-05,0.00010861697949859916,-2.317360110971195e-05,1.928819895624656e-05,-8.341471355310937e-06,-0.0009731259897975998,-0.000781519932307488,0.00011821709957165734,-0.0005124972084491314,-0.00040268416640922017,0.0001765766010411447,0.000488929007807293,-0.005652248859405518,18.130334854125977,-0.9934418201446533,-18.222078323364258,-0.4983420968055725,-2.2552523612976074,0.20724813640117645,0
15,0.06999921798706055,0.005652248859405518,-18.130334854125977,0.9934418201446533,18.222078323364258,0.4983420968055725,2.2552523612976074,-0.20724813640117645,0.0,0.0,0.0,0.0,0.0,0.0,0.0,-0.003271300530475284,0.550236083084834,0.13789682894649274,0.6175849553894169,0.08915408636746434,0.06488656474148698,-0.21221042186068573,-0.6088653600810612,-0.057632559693696205,-0.6665332604528197,-2.594665154005352,-0.05559826581443029,2.5079567390248427,0.8763191901759968,-0.6090851748156966,-0.05753196718556838,-0.666603097082616,-2.5945565370258534,-0.05562143941554,2.507976027223799,0.8763108487046415,0.0009731259897975998,0.000781519932307488,-0.00011821709957165734,0.0005124972084491314,0.00040268416640922017,-0.0001765766010411447,-0.000488929007807293,0.0,0.0,0.0,0.0,0.0,0.0,0.0,-0.00021981473463539292,0.00010059250812782111,-6.9836629796316e-05,0.00010861697949859916,-2.317360110971195e-05,1.928819895624656e-05,-8.341471355310937e-06,-0.0009731259897975998,-0.000781519932307488,0.00011821709957165734,-0.0005124972084491314,-0.00040268416640922017,0.0001765766010411447,0.000488929007807293,-0.005652248859405518,18.130334854125977,-0.9934418201446533,-18.222078323364258,-0.4983420968055725,-2.2552523612976074,0.20724813640117645,0
16,0.07553625106811523,0.05722695589065552,-18.106531143188477,0.9180634021759033,18.245882034301758,0.5102439522743225,2.2552523612976074,-0.22098104655742645,0.0,0.0,0.0,0.0,0.0,0.0,0.0,0.0008048139744076674,0.5464128383137814,0.1399969306082128,0.6214856678750589,0.08874609056498241,0.06551611270773712,-0.21323819677598943,-0.6088688558428024,-0.05763423012955147,-0.6665279794073452,-2.594666824441207,-0.055596426965072554,2.507956750653253,0.876317537140515,-0.6090851748156966,-0.05753196718556838,-0.666603097082616,-2.5945565370258534,-0.05562143941554,2.507976027223799,0.8763108487046415,-0.0005215222780138031,-4.786025344680065e-05,0.001559237188370123,0.00044569129619403134,0.00029723062713213843,-6.665856905608388e-05,0.0005952464457342175,0.0,0.0,0.0,0.0,0.0,0.0,0.0,-0.00021631897289420277,0.00010226294398308494,-7.511767527079716e-05,0.00011028741535357156,-2.5012450467445935e-05,1.927657054601184e-05,-6.688435873480891e-06,0.0005215222780138031,4.786025344680065e-05,-0.001559237188370123,-0.00044569129619403134,-0.00029723062713213843,6.665856905608388e-05,-0.0005952464457342175,-0.05722695589065552,18.106531143188477,-0.9180634021759033,-18.245882034301758,-0.5102439522743225,-2.2552523612976074,0.22098104655742645,0
17,0.08001375198364258,0.05722695589065552,-18.106531143188477,0.9180634021759033,18.245882034301758,0.5102439522743225,2.2552523612976074,-0.22098104655742645,0.0,0.0,0.0,0.0,0.0,0.0,0.0,0.0008048139744076674,0.5464128383137814,0.1399969306082128,0.6214856678750589,0.08874609056498241,0.06551611270773712,-0.21323819677598943,-0.6088688558428024,-0.05763423012955147,-0.6665279794073452,-2.594666824441207,-0.055596426965072554,2.507956750653253,0.876317537140515,-0.6090851748156966,-0.05753196718556838,-0.666603097082616,-2.5945565370258534,-0.05562143941554,2.507976027223799,0.8763108487046415,-0.0005215222780138031,-4.786025344680065e-05,0.001559237188370123,0.00044569129619403134,0.00029723062713213843,-6.665856905608388e-05,0.0005952464457342175,0.0,0.0,0.0,0.0,0.0,0.0,0.0,-0.00021631897289420277,0.00010226294398308494,-7.511767527079716e-05,0.00011028741535357156,-2.5012450467445935e-05,1.927657054601184e-05,-6.688435873480891e-06,0.0005215222780138031,4.786025344680065e-05,-0.001559237188370123,-0.00044569129619403134,-0.00029723062713213843,6.665856905608388e-05,-0.0005952464457342175,-0.05722695589065552,18.106531143188477,-0.9180634021759033,-18.245882034301758,-0.5102439522743225,-2.2552523612976074,0.22098104655742645,0
18,0.08511066436767578,0.005652248859405518,-18.106531143188477,0.9696381092071533,18.245882034301758,0.5102439522743225,2.2625765800476074,-0.21457235515117645,0.0,0.0,0.0,0.0,0.0,0.0,0.0,-0.001448318176952595,0.5473525057227843,0.13580652364005139,0.6181824784673392,0.08937524550427035,0.06525223232662002,-0.21158071875180673,-0.6088629877768331,-0.05763423012955147,-0.6665315986850804,-2.594666824441207,-0.055600784136698556,2.507955923769283,0.8763200039601351,-0.6090851748156966,-0.05753196718556838,-0.666603097082616,-2.5945565370258534,-0.05562143941554,2.507976027223799,0.8763108487046415,-0.00031179546178109385,-0.00024148739479040707,-0.00029042721299108164,-0.0001602624374018241,3.3071774085646117e-05,-0.0004211037790307378,2.6623524241044234e-05,0.0,0.0,0.0,0.0,0.0,0.0,0.0,-0.0002221870388634528,0.00010226294398308494,-7.149839753561871e-05,0.00011028741535357156,-2.0655278841444358e-05,2.0103454516195995e-05,-9.155255493609182e-06,0.00031179546178109385,0.00024148739479040707,0.00029042721299108164,0.0001602624374018241,-3.3071774085646117e-05,0.0004211037790307378,-2.6623524241044234e-05,-0.005652248859405518,18.106531143188477,-0.9696381092071533,-18.245882034301758,-0.5102439522743225,-2.2625765800476074,0.21457235515117645,0
19,0.09000754356384277,0.005652248859405518,-18.106531143188477,0.9696381092071533,18.245882034301758,0.5102439522743225,2.2625765800476074,-0.21457235515117645,0.0,0.0,0.0,0.0,0.0,0.0,0.0,-0.001448318176952595,0.5473525057227843,0.13580652364005139,0.6181824784673392,0.08937524550427035,0.06525223232662002,-0.21158071875180673,-0.6088629877768331,-0.05763423012955147,-0.6665315986850804,-2.594666824441207,-0.055600784136698556,2.507955923769283,0.8763200039601351,-0.6090851748156966,-0.05753196718556838,-0.666603097082616,-2.5945565370258534,-0.05562143941554,2.507976027223799,0.8763108487046415,-0.00031179546178109385,-0.00024148739479040707,-0.00029042721299108164,-0.0001602624374018241,3.3071774085646117e-05,-0.0004211037790307378,2.6623524241044234e-05,0.0,0.0,0.0,0.0,0.0,0.0,0.0,-0.0002221870388634528,0.00010226294398308494,-7.149839753561871e-05,0.00011028741535357156,-2.0655278841444358e-05,2.0103454516195995e-05,-9.155255493609182e-06,0.00031179546178109385,0.00024148739479040707,0.00029042721299108164,0.0001602624374018241,-3.3071774085646117e-05,0.0004211037790307378,-2.6623524241044234e-05,-0.005652248859405518,18.106531143188477,-0.9696381092071533,-18.245882034301758,-0.5102439522743225,-2.2625765800476074,0.21457235515117645,0
20,0.09500551223754883,0.005652248859405518,-18.078760147094727,0.9934418201446533,18.222078323364258,0.5221458077430725,2.2552523612976074,-0.24844686686992645,0.0,0.0,0.0,0.0,0.0,0.0,0.0,0.006741308067707927,0.5507450136023193,0.14528962441299323,0.6177983548676117,0.08906098727308523,0.06641299822575517,-0.21207646450766815,-0.608863250348129,-0.05763617897138261,-0.6665332691209357,-2.594665154005352,-0.05560095310790034,2.5079567375712926,0.8763237673281985,-0.6090851748156966,-0.05753196718556838,-0.666603097082616,-2.5945565370258534,-0.05562143941554,2.507976027223799,0.8763108487046415,-0.0004068134620589751,-0.0008053268998178143,-0.0011773646996568825,0.00042070680311927385,-0.00016579360111593135,-4.889953102928603e-05,0.001414344444766739,0.0,0.0,0.0,0.0,0.0,0.0,0.0,-0.0002219244675675247,0.00010421178581422608,-6.982796168031324e-05,0.00010861697949859916,-2.048630763965692e-05,1.9289652506415678e-05,-1.2918623557012232e-05,0.0004068134620589751,0.0008053268998178143,0.0011773646996568825,-0.00042070680311927385,0.00016579360111593135,4.889953102928603e-05,-0.001414344444766739,-0.005652248859405518,18.078760147094727,-0.9934418201446533,-18.222078323364258,-0.5221458077430725,-2.2552523612976074,0.24844686686992645,0
21,0.10000109672546387,0.005652248859405518,-18.078760147094727,0.9934418201446533,18.222078323364258,0.5221458077430725,2.2552523612976074,-0.24844686686992645,0.0,0.0,0.0,0.0,0.0,0.0,0.0,0.006741308067707927,0.5507450136023193,0.14528962441299323,0.6177983548676117,0.08906098727308523,0.06641299822575517,-0.21207646450766815,-0.608863250348129,-0.05763617897138261,-0.6665332691209357,-2.594665154005352,-0.05560095310790034,2.5079567375712926,0.8763237673281985,-0.6090851748156966,-0.05753196718556838,-0.666603097082616,-2.5945565370258534,-0.05562143941554,2.507976027223799,0.8763108487046415,-0.0004068134620589751,-0.0008053268998178143,-0.0011773646996568825,0.00042070680311927385,-0.00016579360111593135,-4.889953102928603e-05,0.001414344444766739,0.0,0.0,0.0,0.0,0.0,0.0,0.0,-0.0002219244675675247,0.00010421178581422608,-6.982796168031324e-05,0.00010861697949859916,-2.048630763965692e-05,1.9289652506415678e-05,-1.2918623557012232e-05,0.0004068134620589751,0.0008053268998178143,0.0011773646996568825,-0.00042070680311927385,0.00016579360111593135,4.889953102928603e-05,-0.001414344444766739,-0.005652248859405518,18.078760147094727,-0.9934418201446533,-18.222078323364258,-0.5221458077430725,-2.2552523612976074,0.24844686686992645,0
22,0.10500073432922363,0.005652248859405518,-18.106531143188477,0.9180634021759033,18.269685745239258,0.5102439522743225,2.2552523612976074,-0.24112264811992645,0.0,0.0,0.0,0.0,0.0,0.0,0.0,0.0006217463811356622,0.5521372834005315,0.13937156988764582,0.616996794290152,0.08970163907668059,0.06700191658935499,-0.21353063908105346,-0.6088630118582162,-0.05763423012955147,-0.6665279794073941,-2.5946684948770624,-0.055596387636683856,2.5079567375712926,0.8763229540106295,-0.6090851748156966,-0.05753196718556838,-0.666603097082616,-2.5945565370258534,-0.05562143941554,2.507976027223799,0.8763108487046415,-0.0003859160148973477,0.00032876645955051735,0.00019062545391255523,-0.0007345346449564851,0.00023951127716886723,-0.0001463797467123353,0.000618409622822471,0.0,0.0,0.0,0.0,0.0,0.0,0.0,-0.00022216295748034298,0.00010226294398308494,-7.511767522194734e-05,0.00011195785120898805,-2.5051778856144402e-05,1.9289652506415678e-05,-1.2105305988052706e-05,0.0003859160148973477,-0.00032876645955051735,-0.00019062545391255523,0.0007345346449564851,-0.00023951127716886723,0.0001463797467123353,-0.000618409622822471,-0.005652248859405518,18.106531143188477,-0.9180634021759033,-18.269685745239258,-0.5102439522743225,-2.2552523612976074,0.24112264811992645,0
23,0.10999870300292969,0.005652248859405518,-18.106531143188477,0.9180634021759033,18.269685745239258,0.5102439522743225,2.2552523612976074,-0.24112264811992645,0.0,0.0,0.0,0.0,0.0,0.0,0.0,0.0006217463811356622,0.5521372834005315,0.13937156988764582,0.616996794290152,0.08970163907668059,0.06700191658935499,-0.21353063908105346,-0.6088630118582162,-0.05763423012955147,-0.6665279794073941,-2.5946684948770624,-0.055596387636683856,2.5079567375712926,0.8763229540106295,-0.6090851748156966,-0.05753196718556838,-0.666603097082616,-2.5945565370258534,-0.05562143941554,2.507976027223799,0.8763108487046415,-0.0003859160148973477,0.00032876645955051735,0.00019062545391255523,-0.0007345346449564851,0.00023951127716886723,-0.0001463797467123353,0.000618409622822471,0.0,0.0,0.0,0.0,0.0,0.0,0.0,-0.00022216295748034298,0.00010226294398308494,-7.511767522194734e-05,0.00011195785120898805,-2.5051778856144402e-05,1.9289652506415678e-05,-1.2105305988052706e-05,0.0003859160148973477,-0.00032876645955051735,-0.00019062545391255523,0.0007345346449564851,-0.00023951127716886723,0.0001463797467123353,-0.000618409622822471,-0.005652248859405518,18.106531143188477,-0.9180634021759033,-18.269685745239258,-0.5102439522743225,-2.2552523612976074,0.24112264811992645,0
24,0.11500120162963867,-0.018151462078094482,-18.130334854125977,0.9696381092071533,18.245882034301758,0.5102439522743225,2.2488436698913574,-0.16604940593242645,0.0,0.0,0.0,0.0,0.0,0.0,0.0,0.004909566339097582,0.558132645294383,0.14067821431583052,0.611179978954334,0.08949358929409112,0.06560049015863034,-0.21517887514057016,-0.608862294562226,-0.057632559693696205,-0.6665315986850804,-2.594666824441207,-0.05559640061957553,2.5079574496481154,0.876314612539278,-0.6090851748156966,-0.05753196718556838,-0.666603097082616,-2.5945565370258534,-0.05562143941554,2.507976027223799,0.8763108487046415,0.0003099582848919634,0.0006738973699429137,-0.00027419220470250666,-0.000788841665927895,-0.00011476687253944873,-0.00012432513661084983,-0.0019075015395291057,0.0,0.0,0.0,0.0,0.0,0.0,0.0,-0.00022288025347061424,0.00010059250812782111,-7.149839753561871e-05,0.00011028741535357156,-2.503879596447295e-05,1.8577575683575986e-05,-3.7638346365165276e-06,-0.0003099582848919634,-0.0006738973699429137,0.00027419220470250666,0.000788841665927895,0.00011476687253944873,0.00012432513661084983,0.0019075015395291057,0.018151462078094482,18.130334854125977,-0.9696381092071533,-18.245882034301758,-0.5102439522743225,-2.2488436698913574,0.16604940593242645,0
25,0.12000060081481934,-0.018151462078094482,-18.130334854125977,0.9696381092071533,18.245882034301758,0.5102439522743225,2.2488436698913574,-0.16604940593242645,0.0,0.0,0.0,0.0,0.0,0.0,0.0,0.004909566339097582,0.558132645294383,0.14067821431583052,0.611179978954334,0.08949358929409112,0.06560049015863034,-0.21517887514057016,-0.608862294562226,-0.057632559693696205,-0.6665315986850804,-2.594666824441207,-0.05559640061957553,2.5079574496481154,0.876314612539278,-0.6090851748156966,-0.05753196718556838,-0.666603097082616,-2.5945565370258534,-0.05562143941554,2.507976027223799,0.8763108487046415,0.0003099582848919634,0.0006738973699429137,-0.00027419220470250666,-0.000788841665927895,-0.00011476687253944873,-0.00012432513661084983,-0.0019075015395291057,0.0,0.0,0.0,0.0,0.0,0.0,0.0,-0.00022288025347061424,0.00010059250812782111,-7.149839753561871e-05,0.00011028741535357156,-2.503879596447295e-05,1.8577575683575986e-05,-3.7638346365165276e-06,-0.0003099582848919634,-0.0006738973699429137,0.00027419220470250666,0.000788841665927895,0.00011476687253944873,0.00012432513661084983,0.0019075015395291057,0.018151462078094482,18.130334854125977,-0.9696381092071533,-18.245882034301758,-0.5102439522743225,-2.2488436698913574,0.16604940593242645,0
26,0.1250002384185791,-0.06972616910934448,-18.130334854125977,0.9418671131134033,18.245882034301758,0.5166526436805725,2.2424349784851074,-0.23471395671367645,0.0,0.0,0.0,0.0,0.0,0.0,0.0,-0.0069808515836610584,0.5521675839847792,0.13065592146127875,0.6206905332613432,0.08952121266028142,0.06671404712283027,-0.21172355456923417,-0.6088599242773315,-0.057632559693696205,-0.6665296498432493,-2.594666824441207,-0.055597460803586955,2.507961341123843,0.8763222419338093,-0.6090851748156966,-0.05753196718556838,-0.666603097082616,-2.5945565370258534,-0.05562143941554,2.507976027223799,0.8763108487046415,0.0011141662722993037,0.0008724514081067007,-0.00012810664077610157,0.0004846784392782142,-5.237410616032384e-06,0.0002695302813653829,0.0014692321777350556,0.0,0.0,0.0,0.0,0.0,0.0,0.0,-0.0002252505383650849,0.00010059250812782111,-7.34472393667529e-05,0.00011028741535357156,-2.3978611953044682e-05,1.4686099956140453e-05,-1.1393229167766528e-05,-0.0011141662722993037,-0.0008724514081067007,0.00012810664077610157,-0.0004846784392782142,5.237410616032384e-06,-0.0002695302813653829,-0.0014692321777350556,0.06972616910934448,18.130334854125977,-0.9418671131134033,-18.245882034301758,-0.5166526436805725,-2.2424349784851074,0.23471395671367645,0
27,0.12999939918518066,-0.06972616910934448,-18.130334854125977,0.9418671131134033,18.245882034301758,0.5166526436805725,2.2424349784851074,-0.23471395671367645,0.0,0.0,0.0,0.0,0.0,0.0,0.0,-0.0069808515836610584,0.5521675839847792,0.13065592146127875,0.6206905332613432,0.08952121266028142,0.06671404712283027,-0.21172355456923417,-0.6088599242773315,-0.057632559693696205,-0.6665296498432493,-2.594666824441207,-0.055597460803586955,2.507961341123843,0.8763222419338093,-0.6090851748156966,-0.05753196718556838,-0.666603097082616,-2.5945565370258534,-0.05562143941554,2.507976027223799,0.8763108487046415,0.0011141662722993037,0.0008724514081067007,-0.00012810664077610157,0.0004846784392782142,-5.237410616032384e-06,0.0002695302813653829,0.0014692321777350556,0.0,0.0,0.0,0.0,0.0,0.0,0.0,-0.0002252505383650849,0.00010059250812782111,-7.34472393667529e-05,0.00011028741535357156,-2.3978611953044682e-05,1.4686099956140453e-05,-1.1393229167766528e-05,-0.0011141662722993037,-0.0008724514081067007,0.00012810664077610157,-0.0004846784392782142,5.237410616032384e-06,-0.0002695302813653829,-0.0014692321777350556,0.06972616910934448,18.130334854125977,-0.9418671131134033,-18.245882034301758,-0.5166526436805725,-2.2424349784851074,0.23471395671367645,0
28,0.13501286506652832,-0.018151462078094482,-18.130334854125977,0.9696381092071533,18.245882034301758,0.5221458077430725,2.2488436698913574,-0.22830526530742645,0.0,0.0,0.0,0.0,0.0,0.0,0.0,-0.01060045679593678,0.5529157181990686,0.13110236166342554,0.6191747797785228,0.08969108124701301,0.06578191375993436,-0.2096829970480397,-0.6088615832315293,-0.057632559693696205,-0.6665315726847004,-2.594666824441207,-0.05560102735900491,2.5079575674574683,0.8763215298569863,-0.6090851748156966,-0.05753196718556838,-0.666603097082616,-2.5945565370258534,-0.05562143941554,2.507976027223799,0.8763108487046415,0.00011828405849280367,0.00027816221224790045,-0.0007823244123415109,0.00013946053402571907,-0.00022064875105352693,0.00012250499152502854,0.0007982111530695632,0.0,0.0,0.0,0.0,0.0,0.0,0.0,-0.00022359158416729308,0.00010059250812782111,-7.152439791557885e-05,0.00011028741535357156,-2.0412056535086542e-05,1.8459766330636285e-05,-1.0681152344815814e-05,-0.00011828405849280367,-0.00027816221224790045,0.0007823244123415109,-0.00013946053402571907,0.00022064875105352693,-0.00012250499152502854,-0.0007982111530695632,0.018151462078094482,18.130334854125977,-0.9696381092071533,-18.245882034301758,-0.5221458077430725,-2.2488436698913574,0.22830526530742645,0
29,0.1400144100189209,-0.018151462078094482,-18.130334854125977,0.9696381092071533,18.245882034301758,0.5221458077430725,2.2488436698913574,-0.22830526530742645,0.0,0.0,0.0,0.0,0.0,0.0,0.0,-0.01060045679593678,0.5529157181990686,0.13110236166342554,0.6191747797785228,0.08969108124701301,0.06578191375993436,-0.2096829970480397,-0.6088615832315293,-0.057632559693696205,-0.6665315726847004,-2.594666824441207,-0.05560102735900491,2.5079575674574683,0.8763215298569863,-0.6090851748156966,-0.05753196718556838,-0.666603097082616,-2.5945565370258534,-0.05562143941554,2.507976027223799,0.8763108487046415,0.00011828405849280367,0.00027816221224790045,-0.0007823244123415109,0.00013946053402571907,-0.00022064875105352693,0.00012250499152502854,0.0007982111530695632,0.0,0.0,0.0,0.0,0.0,0.0,0.0,-0.00022359158416729308,0.00010059250812782111,-7.152439791557885e-05,0.00011028741535357156,-2.0412056535086542e-05,1.8459766330636285e-05,-1.0681152344815814e-05,-0.00011828405849280367,-0.00027816221224790045,0.0007823244123415109,-0.00013946053402571907,0.00022064875105352693,-0.00012250499152502854,-0.0007982111530695632,0.018151462078094482,18.130334854125977,-0.9696381092071533,-18.245882034301758,-0.5221458077430725,-2.2488436698913574,0.22830526530742645,0
30,0.14501094818115234,0.005652248859405518,-18.130334854125977,0.9180634021759033,18.222078323364258,0.5166526436805725,2.2552523612976074,-0.24844686686992645,0.0,0.0,0.0,0.0,0.0,0.0,0.0,-0.010791580144282003,0.5531674840936979,0.13221492628265233,0.6158601021274601,0.09008875120747523,0.0655264194497087,-0.2106072919424809,-0.6088640391185326,-0.057632559693696205,-0.6665279794072473,-2.594665154005352,-0.055597112715125345,2.5079577976946035,0.8763237678127155,-0.6090851748156966,-0.05753196718556838,-0.666603097082616,-2.5945565370258534,-0.05562143941554,2.507976027223799,0.8763108487046415,-0.00036882208027303755,8.797904629287663e-05,0.0006644406580869551,-4.914754997373318e-05,-0.00023545145013287766,-8.050968534878796e-05,0.001663822827618253,0.0,0.0,0.0,0.0,0.0,0.0,0.0,-0.00022113569716397663,0.00010059250812782111,-7.511767536871883e-05,0.00010861697949859916,-2.4326700414654956e-05,1.822952919550147e-05,-1.2919108073994323e-05,0.00036882208027303755,-8.797904629287663e-05,-0.0006644406580869551,4.914754997373318e-05,0.00023545145013287766,8.050968534878796e-05,-0.001663822827618253,-0.005652248859405518,18.130334854125977,-0.9180634021759033,-18.222078323364258,-0.5166526436805725,-2.2552523612976074,0.24844686686992645,0
31,0.1500096321105957,0.005652248859405518,-18.130334854125977,0.9180634021759033,18.222078323364258,0.5166526436805725,2.2552523612976074,-0.24844686686992645,0.0,0.0,0.0,0.0,0.0,0.0,0.0,-0.010791580144282003,0.5531674840936979,0.13221492628265233,0.6158601021274601,0.09008875120747523,0.0655264194497087,-0.2106072919424809,-0.6088640391185326,-0.057632559693696205,-0.6665279794072473,-2.594665154005352,-0.055597112715125345,2.5079577976946035,0.8763237678127155,-0.6090851748156966,-0.05753196718556838,-0.666603097082616,-2.5945565370258534,-0.05562143941554,2.507976027223799,0.8763108487046415,-0.00036882208027303755,8.797904629287663e-05,0.0006644406580869551,-4.914754997373318e-05,-0.00023545145013287766,-8.050968534878796e-05,0.001663822827618253,0.0,0.0,0.0,0.0,0.0,0.0,0.0,-0.00022113569716397663,0.00010059250812782111,-7.511767536871883e-05,0.00010861697949859916,-2.4326700414654956e-05,1.822952919550147e-05,-1.2919108073994323e-05,0.00036882208027303755,-8.797904629287663e-05,-0.0006644406580869551,4.914754997373318e-05,0.00023545145013287766,8.050968534878796e-05,-0.001663822827618253,-0.005652248859405518,18.130334854125977,-0.9180634021759033,-18.222078323364258,-0.5166526436805725,-2.2552523612976074,0.24844686686992645,0
32,0.15500617027282715,0.005652248859405518,-18.130334854125977,0.9180634021759033,18.222078323364258,0.5166526436805725,2.2552523612976074,-0.24844686686992645,0.0,0.0,0.0,0.0,0.0,0.0,0.0,-0.010791580144282003,0.5531674840936979,0.13221492628265233,0.6158601021274601,0.09008875120747523,0.0655264194497087,-0.2106072919424809,-0.6088640391185326,-0.057632559693696205,-0.6665279794072473,-2.594665154005352,-0.055597112715125345,2.5079577976946035,0.8763237678127155,-0.6090851748156966,-0.05753196718556838,-0.666603097082616,-2.5945565370258534,-0.05562143941554,2.507976027223799,0.8763108487046415,-0.00036882208027303755,8.797904629287663e-05,0.0006644406580869551,-4.914754997373318e-05,-0.00023545145013287766,-8.050968534878796e-05,0.001663822827618253,0.0,0.0,0.0,0.0,0.0,0.0,0.0,-0.00022113569716397663,0.00010059250812782111,-7.511767536871883e-05,0.00010861697949859916,-2.4326700414654956e-05,1.822952919550147e-05,-1.2919108073994323e-05,0.00036882208027303755,-8.797904629287663e-05,-0.0006644406580869551,4.914754997373318e-05,0.00023545145013287766,8.050968534878796e-05,-0.001663822827618253,-0.005652248859405518,18.130334854125977,-0.9180634021759033,-18.222078323364258,-0.5166526436805725,-2.2552523612976074,0.24844686686992645,0
33,0.1600041389465332,0.005652248859405518,-18.130334854125977,0.9180634021759033,18.222078323364258,0.5166526436805725,2.2552523612976074,-0.24844686686992645,0.0,0.0,0.0,0.0,0.0,0.0,0.0,-0.010791580144282003,0.5531674840936979,0.13221492628265233,0.6158601021274601,0.09008875120747523,0.0655264194497087,-0.2106072919424809,-0.6088640391185326,-0.057632559693696205,-0.6665279794072473,-2.594665154005352,-0.055597112715125345,2.5079577976946035,0.8763237678127155,-0.6090851748156966,-0.05753196718556838,-0.666603097082616,-2.5945565370258534,-0.05562143941554,2.507976027223799,0.8763108487046415,-0.00036882208027303755,8.797904629287663e-05,0.0006644406580869551,-4.914754997373318e-05,-0.00023545145013287766,-8.050968534878796e-05,0.001663822827618253,0.0,0.0,0.0,0.0,0.0,0.0,0.0,-0.00022113569716397663,0.00010059250812782111,-7.511767536871883e-05,0.00010861697949859916,-2.4326700414654956e-05,1.822952919550147e-05,-1.2919108073994323e-05,0.00036882208027303755,-8.797904629287663e-05,-0.0006644406580869551,4.914754997373318e-05,0.00023545145013287766,8.050968534878796e-05,-0.001663822827618253,-0.005652248859405518,18.130334854125977,-0.9180634021759033,-18.222078323364258,-0.5166526436805725,-2.2552523612976074,0.24844686686992645,0
34,0.16500473022460938,0.05722695589065552,-18.078760147094727,1.0172455310821533,18.198274612426758,0.5221458077430725,2.2488436698913574,-0.22830526530742645,0.0,0.0,0.0,0.0,0.0,0.0,0.0,-0.0012924183944326819,0.5487393259663147,0.13896963415813762,0.6198040715983804,0.08957542084175345,0.06695167276789225,-0.2117467493971079,-0.6088674291394404,-0.05763617897138261,-0.666534939556791,-2.5946634835694966,-0.05559913172799246,2.5079574496541,0.8763215298569863,-0.6090851748156966,-0.05753196718556838,-0.666603097082616,-2.5945565370258534,-0.05562143941554,2.507976027223799,0.8763108487046415,-0.0008584024984342721,-0.0012966030030081399,-0.0010025555072905614,0.001159694802580082,-0.000274555622705397,0.00012081371347007158,0.0002572594021853655,0.0,0.0,0.0,0.0,0.0,0.0,0.0,-0.0002177456762562091,0.00010421178581422608,-6.815752582500778e-05,0.00010694654364318268,-2.2307687547538924e-05,1.8577569699029794e-05,-1.0681152344815814e-05,0.0008584024984342721,0.0012966030030081399,0.0010025555072905614,-0.001159694802580082,0.000274555622705397,-0.00012081371347007158,-0.0002572594021853655,-0.05722695589065552,18.078760147094727,-1.0172455310821533,-18.198274612426758,-0.5221458077430725,-2.2488436698913574,0.22830526530742645,0
35,0.17000436782836914,0.05722695589065552,-18.078760147094727,1.0172455310821533,18.198274612426758,0.5221458077430725,2.2488436698913574,-0.22830526530742645,0.0,0.0,0.0,0.0,0.0,0.0,0.0,-0.0012924183944326819,0.5487393259663147,0.13896963415813762,0.6198040715983804,0.08957542084175345,0.06695167276789225,-0.2117467493971079,-0.6088674291394404,-0.05763617897138261,-0.666534939556791,-2.5946634835694966,-0.05559913172799246,2.5079574496541,0.8763215298569863,-0.6090851748156966,-0.05753196718556838,-0.666603097082616,-2.5945565370258534,-0.05562143941554,2.507976027223799,0.8763108487046415,-0.0008584024984342721,-0.0012966030030081399,-0.0010025555072905614,0.001159694802580082,-0.000274555622705397,0.00012081371347007158,0.0002572594021853655,0.0,0.0,0.0,0.0,0.0,0.0,0.0,-0.0002177456762562091,0.00010421178581422608,-6.815752582500778e-05,0.00010694654364318268,-2.2307687547538924e-05,1.8577569699029794e-05,-1.0681152344815814e-05,0.0008584024984342721,0.0012966030030081399,0.0010025555072905614,-0.001159694802580082,0.000274555622705397,-0.00012081371347007158,-0.0002572594021853655,-0.05722695589065552,18.078760147094727,-1.0172455310821533,-18.198274612426758,-0.5221458077430725,-2.2488436698913574,0.22830526530742645,0
36,0.1750028133392334,0.05722695589065552,-18.078760147094727,1.0172455310821533,18.198274612426758,0.5166526436805725,2.2488436698913574,-0.24112264811992645,0.0,0.0,0.0,0.0,0.0,0.0,0.0,0.0004585966377436846,0.5536224728482381,0.13890516257567675,0.6139499382527857,0.08981834691245416,0.06601560762523796,-0.21270725121632164,-0.6088675793625641,-0.05763617897138261,-0.666534939556791,-2.5946634835694966,-0.05559710116585996,2.5079574496481154,0.87632294092868,-0.6090851748156966,-0.05753196718556838,-0.666603097082616,-2.5945565370258534,-0.05562143941554,2.507976027223799,0.8763108487046415,-0.00020723019950842915,0.0001236322249098843,-0.0008192125939172256,0.0010927543467101944,-0.0001351929697389893,5.3226670730377646e-05,0.0011105137178206788,0.0,0.0,0.0,0.0,0.0,0.0,0.0,-0.00021759545313249085,0.00010421178581422608,-6.815752582500778e-05,0.00010694654364318268,-2.433824968003928e-05,1.8577575683575986e-05,-1.2092224038529054e-05,0.00020723019950842915,-0.0001236322249098843,0.0008192125939172256,-0.0010927543467101944,0.0001351929697389893,-5.3226670730377646e-05,-0.0011105137178206788,-0.05722695589065552,18.078760147094727,-1.0172455310821533,-18.198274612426758,-0.5166526436805725,-2.2488436698913574,0.24112264811992645,0
37,0.18000316619873047,0.05722695589065552,-18.078760147094727,1.0172455310821533,18.198274612426758,0.5166526436805725,2.2488436698913574,-0.24112264811992645,0.0,0.0,0.0,0.0,0.0,0.0,0.0,0.0004585966377436846,0.5536224728482381,0.13890516257567675,0.6139499382527857,0.08981834691245416,0.06601560762523796,-0.21270725121632164,-0.6088675793625641,-0.05763617897138261,-0.666534939556791,-2.5946634835694966,-0.05559710116585996,2.5079574496481154,0.87632294092868,-0.6090851748156966,-0.05753196718556838,-0.666603097082616,-2.5945565370258534,-0.05562143941554,2.507976027223799,0.8763108487046415,-0.00020723019950842915,0.0001236322249098843,-0.0008192125939172256,0.0010927543467101944,-0.0001351929697389893,5.3226670730377646e-05,0.0011105137178206788,0.0,0.0,0.0,0.0,0.0,0.0,0.0,-0.00021759545313249085,0.00010421178581422608,-6.815752582500778e-05,0.00010694654364318268,-2.433824968003928e-05,1.8577575683575986e-05,-1.2092224038529054e-05,0.00020723019950842915,-0.0001236322249098843,0.0008192125939172256,-0.0010927543467101944,0.0001351929697389893,-5.3226670730377646e-05,-0.0011105137178206788,-0.05722695589065552,18.078760147094727,-1.0172455310821533,-18.198274612426758,-0.5166526436805725,-2.2488436698913574,0.24112264811992645,0
38,0.18500351905822754,0.005652248859405518,-18.031152725219727,0.9696381092071533,18.245882034301758,0.5166526436805725,2.2488436698913574,-0.17337362468242645,0.0,0.0,0.0,0.0,0.0,0.0,0.0,0.004388495048235801,0.5556626592591896,0.1415857294516333,0.6149406450436512,0.08994806221607236,0.06587095268499549,-0.2112132132949245,-0.6088661941197763,-0.05763951984309314,-0.6665315986850804,-2.594666824441207,-0.05559829748487637,2.5079574496481154,0.8763154263412876,-0.6090851748156966,-0.05753196718556838,-0.666603097082616,-2.5945565370258534,-0.05562143941554,2.507976027223799,0.8763108487046415,0.0005497909114003305,-0.0010648702721053076,0.00047305416268595324,-0.00017308378503359028,-0.00035668517685108996,0.0003368685425733383,-0.0014837923635318123,0.0,0.0,0.0,0.0,0.0,0.0,0.0,-0.00021898069592030112,0.00010755265752475374,-7.149839753561871e-05,0.00011028741535357156,-2.3141930663626853e-05,1.8577575683575986e-05,-4.577636646074801e-06,-0.0005497909114003305,0.0010648702721053076,-0.00047305416268595324,0.00017308378503359028,0.00035668517685108996,-0.0003368685425733383,0.0014837923635318123,-0.005652248859405518,18.031152725219727,-0.9696381092071533,-18.245882034301758,-0.5166526436805725,-2.2488436698913574,0.17337362468242645,0
39,0.1904590129852295,0.005652248859405518,-18.031152725219727,0.9696381092071533,18.245882034301758,0.5166526436805725,2.2488436698913574,-0.17337362468242645,0.0,0.0,0.0,0.0,0.0,0.0,0.0,0.004388495048235801,0.5556626592591896,0.1415857294516333,0.6149406450436512,0.08994806221607236,0.06587095268499549,-0.2112132132949245,-0.6088661941197763,-0.05763951984309314,-0.6665315986850804,-2.594666824441207,-0.05559829748487637,2.5079574496481154,0.8763154263412876,-0.6090851748156966,-0.05753196718556838,-0.666603097082616,-2.5945565370258534,-0.05562143941554,2.507976027223799,0.8763108487046415,0.0005497909114003305,-0.0010648702721053076,0.00047305416268595324,-0.00017308378503359028,-0.00035668517685108996,0.0003368685425733383,-0.0014837923635318123,0.0,0.0,0.0,0.0,0.0,0.0,0.0,-0.00021898069592030112,0.00010755265752475374,-7.149839753561871e-05,0.00011028741535357156,-2.3141930663626853e-05,1.8577575683575986e-05,-4.577636646074801e-06,-0.0005497909114003305,0.0010648702721053076,-0.00047305416268595324,0.00017308378503359028,0.00035668517685108996,-0.0003368685425733383,0.0014837923635318123,-0.005652248859405518,18.031152725219727,-0.9696381092071533,-18.245882034301758,-0.5166526436805725,-2.2488436698913574,0.17337362468242645,0
40,0.1950058937072754,-0.018151462078094482,-18.106531143188477,0.9418671131134033,18.245882034301758,0.5166526436805725,2.2625765800476074,-0.24844686686992645,0.0,0.0,0.0,0.0,0.0,0.0,0.0,-0.0014192399437349791,0.5550002581458593,0.1377973413446769,0.6199646851712247,0.08966203581109296,0.06663591138841052,-0.21127689392796375,-0.6088623769845128,-0.05763423012955147,-0.6665296498432493,-2.594666824441207,-0.055601364578408446,2.507956041506779,0.8763237678127155,-0.6090851748156966,-0.05753196718556838,-0.666603097082616,-2.5945565370258534,-0.05562143941554,2.507976027223799,0.8763108487046415,-0.00011894221025252504,0.00013207771704047423,-0.00020753122752195186,0.00024816114761924484,-9.348010940616876e-05,-0.0002622285766736587,0.0006006792298877109,0.0,0.0,0.0,0.0,0.0,0.0,0.0,-0.00022279783118372976,0.00010226294398308494,-7.34472393667529e-05,0.00011028741535357156,-2.0074837131553447e-05,1.9985717019999072e-05,-1.2919108073994323e-05,0.00011894221025252504,-0.00013207771704047423,0.00020753122752195186,-0.00024816114761924484,9.348010940616876e-05,0.0002622285766736587,-0.0006006792298877109,0.018151462078094482,18.106531143188477,-0.9418671131134033,-18.245882034301758,-0.5166526436805725,-2.2625765800476074,0.24844686686992645,0
41,0.20010924339294434,-0.018151462078094482,-18.106531143188477,0.9418671131134033,18.245882034301758,0.5166526436805725,2.2625765800476074,-0.24844686686992645,0.0,0.0,0.0,0.0,0.0,0.0,0.0,-0.0014192399437349791,0.5550002581458593,0.1377973413446769,0.6199646851712247,0.08966203581109296,0.06663591138841052,-0.21127689392796375,-0.6088623769845128,-0.05763423012955147,-0.6665296498432493,-2.594666824441207,-0.055601364578408446,2.507956041506779,0.8763237678127155,-0.6090851748156966,-0.05753196718556838,-0.666603097082616,-2.5945565370258534,-0.05562143941554,2.507976027223799,0.8763108487046415,-0.00011894221025252504,0.00013207771704047423,-0.00020753122752195186,0.00024816114761924484,-9.348010940616876e-05,-0.0002622285766736587,0.0006006792298877109,0.0,0.0,0.0,0.0,0.0,0.0,0.0,-0.00022279783118372976,0.00010226294398308494,-7.34472393667529e-05,0.00011028741535357156,-2.0074837131553447e-05,1.9985717019999072e-05,-1.2919108073994323e-05,0.00011894221025252504,-0.00013207771704047423,0.00020753122752195186,-0.00024816114761924484,9.348010940616876e-05,0.0002622285766736587,-0.0006006792298877109,0.018151462078094482,18.106531143188477,-0.9418671131134033,-18.245882034301758,-0.5166526436805725,-2.2625765800476074,0.24844686686992645,0
42,0.20500636100769043,-0.04592245817184448,-18.130334854125977,0.9180634021759033,18.269685745239258,0.5221458077430725,2.2488436698913574,-0.23471395671367645,0.0,0.0,0.0,0.0,0.0,0.0,0.0,-0.0007571176320430226,0.5826562635547077,0.1420659855445574,0.5669362257924115,0.08841623773940628,0.05899240488384712,-0.21531971414486517,-0.6088595990618418,-0.05763255872049889,-0.6665279794073941,-2.5946684948770624,-0.05559771153347242,2.50795744964878,0.8763218887210995,-0.6090851748156966,-0.05753196718556838,-0.666603097082616,-2.5945565370258534,-0.05562143941554,2.507976027223799,0.8763108487046415,-5.030873857028034e-05,0.000322517270377621,1.5539082539909303e-05,0.000886485988309712,-0.0002783035510541815,1.9946666726194977e-05,0.000843083416025942,0.0,0.0,0.0,0.0,0.0,0.0,0.0,-0.00022557575385473427,0.00010059153493050671,-7.511767522194734e-05,0.00011195785120898805,-2.3727882067579864e-05,1.857757501877444e-05,-1.104001645801933e-05,5.030873857028034e-05,-0.000322517270377621,-1.5539082539909303e-05,-0.000886485988309712,0.0002783035510541815,-1.9946666726194977e-05,-0.000843083416025942,0.04592245817184448,18.130334854125977,-0.9180634021759033,-18.269685745239258,-0.5221458077430725,-2.2488436698913574,0.23471395671367645,0
43,0.21000170707702637,-0.04592245817184448,-18.130334854125977,0.9180634021759033,18.269685745239258,0.5221458077430725,2.2488436698913574,-0.23471395671367645,0.0,0.0,0.0,0.0,0.0,0.0,0.0,-0.0007571176320430226,0.5826562635547077,0.1420659855445574,0.5669362257924115,0.08841623773940628,0.05899240488384712,-0.21531971414486517,-0.6088595990618418,-0.05763255872049889,-0.6665279794073941,-2.5946684948770624,-0.05559771153347242,2.50795744964878,0.8763218887210995,-0.6090851748156966,-0.05753196718556838,-0.666603097082616,-2.5945565370258534,-0.05562143941554,2.507976027223799,0.8763108487046415,-5.030873857028034e-05,0.000322517270377621,1.5539082539909303e-05,0.000886485988309712,-0.0002783035510541815,1.9946666726194977e-05,0.000843083416025942,0.0,0.0,0.0,0.0,0.0,0.0,0.0,-0.00022557575385473427,0.00010059153493050671,-7.511767522194734e-05,0.00011195785120898805,-2.3727882067579864e-05,1.857757501877444e-05,-1.104001645801933e-05,5.030873857028034e-05,-0.000322517270377621,-1.5539082539909303e-05,-0.000886485988309712,0.0002783035510541815,-1.9946666726194977e-05,-0.000843083416025942,0.04592245817184448,18.130334854125977,-0.9180634021759033,-18.269685745239258,-0.5221458077430725,-2.2488436698913574,0.23471395671367645,0
44,0.21500229835510254,-0.018151462078094482,-18.154138565063477,0.9696381092071533,18.222078323364258,0.5102439522743225,2.2625765800476074,-0.19351522624492645,0.0,0.0,0.0,0.0,0.0,0.0,0.0,-0.003955504794815132,0.5578580224979672,0.14331238437644128,0.6111026973797049,0.08958378919701174,0.06609659993899263,-0.21437320516850464,-0.6088644074683918,-0.057630890233303936,-0.6665315977221034,-2.594665154005352,-0.055600652661855675,2.507955923769209,0.876317665748647,-0.6090851748156966,-0.05753196718556838,-0.666603097082616,-2.5945565370258534,-0.05562143941554,2.507976027223799,0.8763108487046415,-6.335486226173039e-05,0.0006523100246156504,-0.0008136235237277906,0.0007460178684505728,0.00015158211106303075,-0.00044573382907852753,-0.0008309159263294264,0.0,0.0,0.0,0.0,0.0,0.0,0.0,-0.00022076734730480663,9.892304773555238e-05,-7.149936051265016e-05,0.00010861697949859916,-2.0786753684325088e-05,2.0103454589914804e-05,-6.8170440055137504e-06,6.335486226173039e-05,-0.0006523100246156504,0.0008136235237277906,-0.0007460178684505728,-0.00015158211106303075,0.00044573382907852753,0.0008309159263294264,0.018151462078094482,18.154138565063477,-0.9696381092071533,-18.222078323364258,-0.5102439522743225,-2.2625765800476074,0.19351522624492645,0
45,0.22000455856323242,-0.018151462078094482,-18.154138565063477,0.9696381092071533,18.222078323364258,0.5102439522743225,2.2625765800476074,-0.19351522624492645,0.0,0.0,0.0,0.0,0.0,0.0,0.0,-0.003955504794815132,0.5578580224979672,0.14331238437644128,0.6111026973797049,0.08958378919701174,0.06609659993899263,-0.21437320516850464,-0.6088644074683918,-0.057630890233303936,-0.6665315977221034,-2.594665154005352,-0.055600652661855675,2.507955923769209,0.876317665748647,-0.6090851748156966,-0.05753196718556838,-0.666603097082616,-2.5945565370258534,-0.05562143941554,2.507976027223799,0.8763108487046415,-6.335486226173039e-05,0.0006523100246156504,-0.0008136235237277906,0.0007460178684505728,0.00015158211106303075,-0.00044573382907852753,-0.0008309159263294264,0.0,0.0,0.0,0.0,0.0,0.0,0.0,-0.00022076734730480663,9.892304773555238e-05,-7.149936051265016e-05,0.00010861697949859916,-2.0786753684325088e-05,2.0103454589914804e-05,-6.8170440055137504e-06,6.335486226173039e-05,-0.0006523100246156504,0.0008136235237277906,-0.0007460178684505728,-0.00015158211106303075,0.00044573382907852753,0.0008309159263294264,0.018151462078094482,18.154138565063477,-0.9696381092071533,-18.222078323364258,-0.5102439522743225,-2.2625765800476074,0.19351522624492645,0
46,0.2250058650970459,0.005652248859405518,-18.106531143188477,0.9696381092071533,18.198274612426758,0.5102439522743225,2.2424349784851074,-0.18710653483867645,0.0,0.0,0.0,0.0,0.0,0.0,0.0,-0.010832416451255267,0.5491694840123839,0.13772598579413425,0.6248601783030815,0.09017851804155683,0.06864697160763218,-0.21319481008566957,-0.6088630149266334,-0.05763423012955698,-0.666531598685075,-2.5946634835694966,-0.05559674436286213,2.5079581617249382,0.8763169522202758,-0.6090851748156966,-0.05753196718556838,-0.666603097082616,-2.5945565370258534,-0.05562143941554,2.507976027223799,0.8763108487046415,-0.0005053402331094148,9.102685777904931e-05,-0.0006266325250369688,0.0009071279223885224,7.543688958369088e-05,0.00024929295039380714,-0.0011960081588795121,0.0,0.0,0.0,0.0,0.0,0.0,0.0,-0.00022215988906315598,0.00010226294398859442,-7.149839754094778e-05,0.00010694654364318268,-2.4695052677867202e-05,1.7865498860736295e-05,-6.103515634348078e-06,0.0005053402331094148,-9.102685777904931e-05,0.0006266325250369688,-0.0009071279223885224,-7.543688958369088e-05,-0.00024929295039380714,0.0011960081588795121,-0.005652248859405518,18.106531143188477,-0.9696381092071533,-18.198274612426758,-0.5102439522743225,-2.2424349784851074,0.18710653483867645,0
47,0.23012065887451172,0.005652248859405518,-18.106531143188477,0.9696381092071533,18.198274612426758,0.5102439522743225,2.2424349784851074,-0.18710653483867645,0.0,0.0,0.0,0.0,0.0,0.0,0.0,-0.010832416451255267,0.5491694840123839,0.13772598579413425,0.6248601783030815,0.09017851804155683,0.06864697160763218,-0.21319481008566957,-0.6088630149266334,-0.05763423012955698,-0.666531598685075,-2.5946634835694966,-0.05559674436286213,2.5079581617249382,0.8763169522202758,-0.6090851748156966,-0.05753196718556838,-0.666603097082616,-2.5945565370258534,-0.05562143941554,2.507976027223799,0.8763108487046415,-0.0005053402331094148,9.102685777904931e-05,-0.0006266325250369688,0.0009071279223885224,7.543688958369088e-05,0.00024929295039380714,-0.0011960081588795121,0.0,0.0,0.0,0.0,0.0,0.0,0.0,-0.00022215988906315598,0.00010226294398859442,-7.149839754094778e-05,0.00010694654364318268,-2.4695052677867202e-05,1.7865498860736295e-05,-6.103515634348078e-06,0.0005053402331094148,-9.102685777904931e-05,0.0006266325250369688,-0.0009071279223885224,-7.543688958369088e-05,-0.00024929295039380714,0.0011960081588795121,-0.005652248859405518,18.106531143188477,-0.9696381092071533,-18.198274612426758,-0.5102439522743225,-2.2424349784851074,0.18710653483867645,0
48,0.2349550724029541,0.005652248859405518,-18.106531143188477,0.9418671131134033,18.245882034301758,0.5166526436805725,2.2552523612976074,-0.23471395671367645,0.0,0.0,0.0,0.0,0.0,0.0,0.0,-0.00805432879064939,0.5456316153984155,0.13766139749135384,0.6260923899784846,0.08973135070448338,0.0687393698001024,-0.21389569697356295,-0.6088661643893383,-0.05763423012955147,-0.6665296495222569,-2.594666824441207,-0.055597099534698435,2.5079567375712926,0.8763222419338094,-0.6090851748156966,-0.05753196718556838,-0.666603097082616,-2.5945565370258534,-0.05562143941554,2.507976027223799,0.8763108487046415,0.000286331029935552,-8.829919623726626e-06,0.0006859910364961203,-0.00015932169912847067,-0.00022035003710799562,-0.0002359159108345267,0.0006590307379134642,0.0,0.0,0.0,0.0,0.0,0.0,0.0,-0.00021901042635830148,0.00010226294398308494,-7.344756035909672e-05,0.00011028741535357156,-2.4339880841564576e-05,1.9289652506415678e-05,-1.139322916787755e-05,-0.000286331029935552,8.829919623726626e-06,-0.0006859910364961203,0.00015932169912847067,0.00022035003710799562,0.0002359159108345267,-0.0006590307379134642,-0.005652248859405518,18.106531143188477,-0.9418671131134033,-18.245882034301758,-0.5166526436805725,-2.2552523612976074,0.23471395671367645,0
49,0.24005889892578125,0.005652248859405518,-18.106531143188477,0.9418671131134033,18.245882034301758,0.5166526436805725,2.2552523612976074,-0.23471395671367645,0.0,0.0,0.0,0.0,0.0,0.0,0.0,-0.00805432879064939,0.5456316153984155,0.13766139749135384,0.6260923899784846,0.08973135070448338,0.0687393698001024,-0.21389569697356295,-0.6088661643893383,-0.05763423012955147,-0.6665296495222569,-2.594666824441207,-0.055597099534698435,2.5079567375712926,0.8763222419338094,-0.6090851748156966,-0.05753196718556838,-0.666603097082616,-2.5945565370258534,-0.05562143941554,2.507976027223799,0.8763108487046415,0.000286331029935552,-8.829919623726626e-06,0.0006859910364961203,-0.00015932169912847067,-0.00022035003710799562,-0.0002359159108345267,0.0006590307379134642,0.0,0.0,0.0,0.0,0.0,0.0,0.0,-0.00021901042635830148,0.00010226294398308494,-7.344756035909672e-05,0.00011028741535357156,-2.4339880841564576e-05,1.9289652506415678e-05,-1.139322916787755e-05,-0.000286331029935552,8.829919623726626e-06,-0.0006859910364961203,0.00015932169912847067,0.00022035003710799562,0.0002359159108345267,-0.0006590307379134642,-0.005652248859405518,18.106531143188477,-0.9418671131134033,-18.245882034301758,-0.5166526436805725,-2.2552523612976074,0.23471395671367645,0
50,0.24500393867492676,0.005652248859405518,-18.106531143188477,0.9418671131134033,18.245882034301758,0.5102439522743225,2.2552523612976074,-0.18710653483867645,0.0,0.0,0.0,0.0,0.0,0.0,0.0,-0.005784421782721319,0.5460124831869175,0.13628063669863147,0.6244747304235182,0.08964407581041085,0.06801061764159727,-0.21225651705410775,-0.6088640384688652,-0.05763423012955147,-0.6665296498432487,-2.594666824441207,-0.0555974542042734,2.5079567375712926,0.8763169522202677,-0.6090851748156966,-0.05753196718556838,-0.666603097082616,-2.5945565370258534,-0.05562143941554,2.507976027223799,0.8763108487046415,0.00027407493126390325,0.0002695589078216067,0.0004105582111350898,0.0003344628754608587,0.00014251683997119278,-0.00016521752753107647,-0.0008240984193160596,0.0,0.0,0.0,0.0,0.0,0.0,0.0,-0.0002211363468314076,0.00010226294398308494,-7.344723936730801e-05,0.00011028741535357156,-2.398521126659864e-05,1.9289652506415678e-05,-6.10351562624345e-06,-0.00027407493126390325,-0.0002695589078216067,-0.0004105582111350898,-0.0003344628754608587,-0.00014251683997119278,0.00016521752753107647,0.0008240984193160596,-0.005652248859405518,18.106531143188477,-0.9418671131134033,-18.245882034301758,-0.5102439522743225,-2.2552523612976074,0.18710653483867645,0
51,0.2500033378601074,0.005652248859405518,-18.106531143188477,0.9418671131134033,18.245882034301758,0.5102439522743225,2.2552523612976074,-0.18710653483867645,0.0,0.0,0.0,0.0,0.0,0.0,0.0,-0.005784421782721319,0.5460124831869175,0.13628063669863147,0.6244747304235182,0.08964407581041085,0.06801061764159727,-0.21225651705410775,-0.6088640384688652,-0.05763423012955147,-0.6665296498432487,-2.594666824441207,-0.0555974542042734,2.5079567375712926,0.8763169522202677,-0.6090851748156966,-0.05753196718556838,-0.666603097082616,-2.5945565370258534,-0.05562143941554,2.507976027223799,0.8763108487046415,0.00027407493126390325,0.0002695589078216067,0.0004105582111350898,0.0003344628754608587,0.00014251683997119278,-0.00016521752753107647,-0.0008240984193160596,0.0,0.0,0.0,0.0,0.0,0.0,0.0,-0.0002211363468314076,0.00010226294398308494,-7.344723936730801e-05,0.00011028741535357156,-2.398521126659864e-05,1.9289652506415678e-05,-6.10351562624345e-06,-0.00027407493126390325,-0.0002695589078216067,-0.0004105582111350898,-0.0003344628754608587,-0.00014251683997119278,0.00016521752753107647,0.0008240984193160596,-0.005652248859405518,18.106531143188477,-0.9418671131134033,-18.245882034301758,-0.5102439522743225,-2.2552523612976074,0.18710653483867645,0
52,0.2550039291381836,0.005652248859405518,-18.106531143188477,0.9418671131134033,18.245882034301758,0.5102439522743225,2.2552523612976074,-0.18710653483867645,0.0,0.0,0.0,0.0,0.0,0.0,0.0,-0.005784421782721319,0.5460124831869175,0.13628063669863147,0.6244747304235182,0.08964407581041085,0.06801061764159727,-0.21225651705410775,-0.6088640384688652,-0.05763423012955147,-0.6665296498432487,-2.594666824441207,-0.0555974542042734,2.5079567375712926,0.8763169522202677,-0.6090851748156966,-0.05753196718556838,-0.666603097082616,-2.5945565370258534,-0.05562143941554,2.507976027223799,0.8763108487046415,0.00027407493126390325,0.0002695589078216067,0.0004105582111350898,0.0003344628754608587,0.00014251683997119278,-0.00016521752753107647,-0.0008240984193160596,0.0,0.0,0.0,0.0,0.0,0.0,0.0,-0.0002211363468314076,0.00010226294398308494,-7.344723936730801e-05,0.00011028741535357156,-2.398521126659864e-05,1.9289652506415678e-05,-6.10351562624345e-06,-0.00027407493126390325,-0.0002695589078216067,-0.0004105582111350898,-0.0003344628754608587,-0.00014251683997119278,0.00016521752753107647,0.0008240984193160596,-0.005652248859405518,18.106531143188477,-0.9418671131134033,-18.245882034301758,-0.5102439522743225,-2.2552523612976074,0.18710653483867645,0
53,0.26000094413757324,0.005652248859405518,-18.106531143188477,0.9418671131134033,18.245882034301758,0.5102439522743225,2.2552523612976074,-0.18710653483867645,0.0,0.0,0.0,0.0,0.0,0.0,0.0,-0.005784421782721319,0.5460124831869175,0.13628063669863147,0.6244747304235182,0.08964407581041085,0.06801061764159727,-0.21225651705410775,-0.6088640384688652,-0.05763423012955147,-0.6665296498432487,-2.594666824441207,-0.0555974542042734,2.5079567375712926,0.8763169522202677,-0.6090851748156966,-0.05753196718556838,-0.666603097082616,-2.5945565370258534,-0.05562143941554,2.507976027223799,0.8763108487046415,0.00027407493126390325,0.0002695589078216067,0.0004105582111350898,0.0003344628754608587,0.00014251683997119278,-0.00016521752753107647,-0.0008240984193160596,0.0,0.0,0.0,0.0,0.0,0.0,0.0,-0.0002211363468314076,0.00010226294398308494,-7.344723936730801e-05,0.00011028741535357156,-2.398521126659864e-05,1.9289652506415678e-05,-6.10351562624345e-06,-0.00027407493126390325,-0.0002695589078216067,-0.0004105582111350898,-0.0003344628754608587,-0.00014251683997119278,0.00016521752753107647,0.0008240984193160596,-0.005652248859405518,18.106531143188477,-0.9418671131134033,-18.245882034301758,-0.5102439522743225,-2.2552523612976074,0.18710653483867645,0
54,0.26000094413757324,0.005652248859405518,-18.106531143188477,0.9418671131134033,18.245882034301758,0.5102439522743225,2.2552523612976074,-0.18710653483867645,0.0,0.0,0.0,0.0,0.0,0.0,0.0,-0.005784421782721319,0.5460124831869175,0.13628063669863147,0.6244747304235182,0.08964407581041085,0.06801061764159727,-0.21225651705410775,-0.6088640384688652,-0.05763423012955147,-0.6665296498432487,-2.594666824441207,-0.0555974542042734,2.5079567375712926,0.8763169522202677,-0.6090851748156966,-0.05753196718556838,-0.666603097082616,-2.5945565370258534,-0.05562143941554,2.507976027223799,0.8763108487046415,0.00027407493126390325,0.0002695589078216067,0.0004105582111350898,0.0003344628754608587,0.00014251683997119278,-0.00016521752753107647,-0.0008240984193160596,0.0,0.0,0.0,0.0,0.0,0.0,0.0,-0.0002211363468314076,0.00010226294398308494,-7.344723936730801e-05,0.00011028741535357156,-2.398521126659864e-05,1.9289652506415678e-05,-6.10351562624345e-06,-0.00027407493126390325,-0.0002695589078216067,-0.0004105582111350898,-0.0003344628754608587,-0.00014251683997119278,0.00016521752753107647,0.0008240984193160596,-0.005652248859405518,18.106531143188477,-0.9418671131134033,-18.245882034301758,-0.5102439522743225,-2.2552523612976074,0.18710653483867645,0
55,0.2700204849243164,0.005652248859405518,-18.078760147094727,0.9418671131134033,18.245882034301758,0.5102439522743225,2.2360262870788574,-0.19351522624492645,0.0,0.0,0.0,0.0,0.0,0.0,0.0,-0.004029786639665395,0.5513378329966462,0.13638737215298374,0.6245316908085202,0.08927373238656207,0.06813987294132497,-0.21023466556988518,-0.6088661941565575,-0.05763617897138261,-0.6665296498432493,-2.594666824441207,-0.05559757219617999,2.507958873801761,0.8763176642970907,-0.6090851748156966,-0.05753196718556838,-0.666603097082616,-2.5945565370258534,-0.05562143941554,2.507976027223799,0.8763108487046415,-4.9937683797285545e-05,2.176195555682954e-05,0.0004616747573312778,0.00041442478196730665,-3.343051121131886e-05,0.00044304827764848133,-0.0010673347203140786,0.0,0.0,0.0,0.0,0.0,0.0,0.0,-0.0002189806591390564,0.00010421178581422608,-7.34472393667529e-05,0.00011028741535357156,-2.3867219360013125e-05,1.7153422037896604e-05,-6.815592449194163e-06,4.9937683797285545e-05,-2.176195555682954e-05,-0.0004616747573312778,-0.00041442478196730665,3.343051121131886e-05,-0.00044304827764848133,0.0010673347203140786,-0.005652248859405518,18.078760147094727,-0.9418671131134033,-18.245882034301758,-0.5102439522743225,-2.2360262870788574,0.19351522624492645,0
56,0.27501916885375977,0.005652248859405518,-18.078760147094727,0.9418671131134033,18.245882034301758,0.5102439522743225,2.2360262870788574,-0.19351522624492645,0.0,0.0,0.0,0.0,0.0,0.0,0.0,-0.004029786639665395,0.5513378329966462,0.13638737215298374,0.6245316908085202,0.08927373238656207,0.06813987294132497,-0.21023466556988518,-0.6088661941565575,-0.05763617897138261,-0.6665296498432493,-2.594666824441207,-0.05559757219617999,2.507958873801761,0.8763176642970907,-0.6090851748156966,-0.05753196718556838,-0.666603097082616,-2.5945565370258534,-0.05562143941554,2.507976027223799,0.8763108487046415,-4.9937683797285545e-05,2.176195555682954e-05,0.0004616747573312778,0.00041442478196730665,-3.343051121131886e-05,0.00044304827764848133,-0.0010673347203140786,0.0,0.0,0.0,0.0,0.0,0.0,0.0,-0.0002189806591390564,0.00010421178581422608,-7.34472393667529e-05,0.00011028741535357156,-2.3867219360013125e-05,1.7153422037896604e-05,-6.815592449194163e-06,4.9937683797285545e-05,-2.176195555682954e-05,-0.0004616747573312778,-0.00041442478196730665,3.343051121131886e-05,-0.00044304827764848133,0.0010673347203140786,-0.005652248859405518,18.078760147094727,-0.9418671131134033,-18.245882034301758,-0.5102439522743225,-2.2360262870788574,0.19351522624492645,0
57,0.2800006866455078,-0.018151462078094482,-18.106531143188477,0.9418671131134033,18.245882034301758,0.4928489327430725,2.2552523612976074,-0.22830526530742645,0.0,0.0,0.0,0.0,0.0,0.0,0.0,-0.0034394455139002415,0.5544494055740307,0.13656864772096364,0.6234456084723898,0.08913338472597036,0.06747388682224721,-0.21230848096706678,-0.6088644177690583,-0.05763423012955147,-0.6665296498432493,-2.594666824441207,-0.05559871972607134,2.5079567375712926,0.8763204702188571,-0.6090851748156966,-0.05753196718556838,-0.666603097082616,-2.5945565370258534,-0.05562143941554,2.507976027223799,0.8763108487046415,0.0005307493953394232,0.0004612346295635983,0.00045024604435900633,-7.088183786751284e-05,0.0007033707129634784,-0.0003214017145631575,0.0007427922927979358,0.0,0.0,0.0,0.0,0.0,0.0,0.0,-0.00022075704663826468,0.00010226294398308494,-7.34472393667529e-05,0.00011028741535357156,-2.2719689468660154e-05,1.9289652506415678e-05,-9.621514215574223e-06,-0.0005307493953394232,-0.0004612346295635983,-0.00045024604435900633,7.088183786751284e-05,-0.0007033707129634784,0.0003214017145631575,-0.0007427922927979358,0.018151462078094482,18.106531143188477,-0.9418671131134033,-18.245882034301758,-0.4928489327430725,-2.2552523612976074,0.22830526530742645,0
58,0.2850055694580078,-0.018151462078094482,-18.106531143188477,0.9418671131134033,18.245882034301758,0.4928489327430725,2.2552523612976074,-0.22830526530742645,0.0,0.0,0.0,0.0,0.0,0.0,0.0,-0.0034394455139002415,0.5544494055740307,0.13656864772096364,0.6234456084723898,0.08913338472597036,0.06747388682224721,-0.21230848096706678,-0.6088644177690583,-0.05763423012955147,-0.6665296498432493,-2.594666824441207,-0.05559871972607134,2.5079567375712926,0.8763204702188571,-0.6090851748156966,-0.05753196718556838,-0.666603097082616,-2.5945565370258534,-0.05562143941554,2.507976027223799,0.8763108487046415,0.0005307493953394232,0.0004612346295635983,0.00045024604435900633,-7.088183786751284e-05,0.0007033707129634784,-0.0003214017145631575,0.0007427922927979358,0.0,0.0,0.0,0.0,0.0,0.0,0.0,-0.00022075704663826468,0.00010226294398308494,-7.34472393667529e-05,0.00011028741535357156,-2.2719689468660154e-05,1.9289652506415678e-05,-9.621514215574223e-06,-0.0005307493953394232,-0.0004612346295635983,-0.00045024604435900633,7.088183786751284e-05,-0.0007033707129634784,0.0003214017145631575,-0.0007427922927979358,0.018151462078094482,18.106531143188477,-0.9418671131134033,-18.245882034301758,-0.4928489327430725,-2.2552523612976074,0.22830526530742645,0
59,0.29001355171203613,0.005652248859405518,-18.130334854125977,0.9696381092071533,18.222078323364258,0.5102439522743225,2.2488436698913574,-0.17337362468242645,0.0,0.0,0.0,0.0,0.0,0.0,0.0,-0.000917084355816616,0.5575972284205473,0.13837683563658323,0.6252795998026653,0.08858407472504608,0.06745057868720666,-0.21206925047814995,-0.6088658723157652,-0.057632559693696205,-0.6665315986850804,-2.594665154005352,-0.05559674290022632,2.5079574496481154,0.8763154263353797,-0.6090851748156966,-0.05753196718556838,-0.666603097082616,-2.5945565370258534,-0.05562143941554,2.507976027223799,0.8763108487046415,-0.00022080760592594449,0.0007430240191165435,-0.0002998976094548354,0.0009666635776052906,3.294353430897806e-05,0.00013740712889449198,-0.00081550965869786,0.0,0.0,0.0,0.0,0.0,0.0,0.0,-0.00021930249993140638,0.00010059250812782111,-7.149839753561871e-05,0.00010861697949859916,-2.469651531367828e-05,1.8577575683575986e-05,-4.57763073824502e-06,0.00022080760592594449,-0.0007430240191165435,0.0002998976094548354,-0.0009666635776052906,-3.294353430897806e-05,-0.00013740712889449198,0.00081550965869786,-0.005652248859405518,18.130334854125977,-0.9696381092071533,-18.222078323364258,-0.5102439522743225,-2.2488436698913574,0.17337362468242645,0
60,0.2950005531311035,0.005652248859405518,-18.130334854125977,0.9696381092071533,18.222078323364258,0.5102439522743225,2.2488436698913574,-0.17337362468242645,0.0,0.0,0.0,0.0,0.0,0.0,0.0,-0.000917084355816616,0.5575972284205473,0.13837683563658323,0.6252795998026653,0.08858407472504608,0.06745057868720666,-0.21206925047814995,-0.6088658723157652,-0.057632559693696205,-0.6665315986850804,-2.594665154005352,-0.05559674290022632,2.5079574496481154,0.8763154263353797,-0.6090851748156966,-0.05753196718556838,-0.666603097082616,-2.5945565370258534,-0.05562143941554,2.507976027223799,0.8763108487046415,-0.00022080760592594449,0.0007430240191165435,-0.0002998976094548354,0.0009666635776052906,3.294353430897806e-05,0.00013740712889449198,-0.00081550965869786,0.0,0.0,0.0,0.0,0.0,0.0,0.0,-0.00021930249993140638,0.00010059250812782111,-7.149839753561871e-05,0.00010861697949859916,-2.469651531367828e-05,1.8577575683575986e-05,-4.57763073824502e-06,0.00022080760592594449,-0.0007430240191165435,0.0002998976094548354,-0.0009666635776052906,-3.294353430897806e-05,-0.00013740712889449198,0.00081550965869786,-0.005652248859405518,18.130334854125977,-0.9696381092071533,-18.222078323364258,-0.5102439522743225,-2.2488436698913574,0.17337362468242645,0
61,0.30002784729003906,0.005652248859405518,-18.154138565063477,0.9418671131134033,18.245882034301758,0.5047507882118225,2.2552523612976074,-0.23471395671367645,0.0,0.0,0.0,0.0,0.0,0.0,0.0,-0.0001725350535211395,0.563125867253848,0.13920552982259615,0.6166775121634298,0.0879861080454048,0.06666449995327473,-0.20957305171933888,-0.6088661662587449,-0.05763088925784094,-0.6665296498432493,-2.594666824441207,-0.05559898905262212,2.5079567375712926,0.8763222419338093,-0.6090851748156966,-0.05753196718556838,-0.666603097082616,-2.5945565370258534,-0.05562143941554,2.507976027223799,0.8763108487046415,-0.000109994299151579,0.001226141437330726,0.00042165020778599374,-0.0005080119942560598,0.0003344840865092162,-0.00013823995233756614,0.0013105109226037516,0.0,0.0,0.0,0.0,0.0,0.0,0.0,-0.00021900855695167198,9.892207227255728e-05,-7.34472393667529e-05,0.00011028741535357156,-2.2450362917876554e-05,1.9289652506415678e-05,-1.1393229167766528e-05,0.000109994299151579,-0.001226141437330726,-0.00042165020778599374,0.0005080119942560598,-0.0003344840865092162,0.00013823995233756614,-0.0013105109226037516,-0.005652248859405518,18.154138565063477,-0.9418671131134033,-18.245882034301758,-0.5047507882118225,-2.2552523612976074,0.23471395671367645,0
62,0.30500030517578125,0.005652248859405518,-18.154138565063477,0.9418671131134033,18.245882034301758,0.5047507882118225,2.2552523612976074,-0.23471395671367645,0.0,0.0,0.0,0.0,0.0,0.0,0.0,-0.0001725350535211395,0.563125867253848,0.13920552982259615,0.6166775121634298,0.0879861080454048,0.06666449995327473,-0.20957305171933888,-0.6088661662587449,-0.05763088925784094,-0.6665296498432493,-2.594666824441207,-0.05559898905262212,2.5079567375712926,0.8763222419338093,-0.6090851748156966,-0.05753196718556838,-0.666603097082616,-2.5945565370258534,-0.05562143941554,2.507976027223799,0.8763108487046415,-0.000109994299151579,0.001226141437330726,0.00042165020778599374,-0.0005080119942560598,0.0003344840865092162,-0.00013823995233756614,0.0013105109226037516,0.0,0.0,0.0,0.0,0.0,0.0,0.0,-0.00021900855695167198,9.892207227255728e-05,-7.34472393667529e-05,0.00011028741535357156,-2.2450362917876554e-05,1.9289652506415678e-05,-1.1393229167766528e-05,0.000109994299151579,-0.001226141437330726,-0.00042165020778599374,0.0005080119942560598,-0.0003344840865092162,0.00013823995233756614,-0.0013105109226037516,-0.005652248859405518,18.154138565063477,-0.9418671131134033,-18.245882034301758,-0.5047507882118225,-2.2552523612976074,0.23471395671367645,0
63,0.3100104331970215,-0.04592245817184448,-18.130334854125977,0.9934418201446533,18.269685745239258,0.5102439522743225,2.2424349784851074,-0.19351522624492645,0.0,0.0,0.0,0.0,0.0,0.0,0.0,-0.00017736930511388238,0.5822450505347491,0.13692298115593204,0.5701527606699117,0.08710374277810744,0.05970957694899207,-0.21096353508447027,-0.6088625647524747,-0.057632559693696205,-0.6665332691209357,-2.5946684948770624,-0.05559758537797364,2.5079581617249382,0.8763176642970906,-0.6090851748156966,-0.05753196718556838,-0.666603097082616,-2.5945565370258534,-0.05562143941554,2.507976027223799,0.8763108487046415,0.0008013082063400142,0.00012008744185104793,-0.0011743087608360927,0.00034405736329046156,0.00012032287630981942,0.0005012818846179466,-0.0012775699078965933,0.0,0.0,0.0,0.0,0.0,0.0,0.0,-0.00022261006322188415,0.00010059250812782111,-6.982796168031324e-05,0.00011195785120898805,-2.3854037566356512e-05,1.7865498860736295e-05,-6.815592449083141e-06,-0.0008013082063400142,-0.00012008744185104793,0.0011743087608360927,-0.00034405736329046156,-0.00012032287630981942,-0.0005012818846179466,0.0012775699078965933,0.04592245817184448,18.130334854125977,-0.9934418201446533,-18.269685745239258,-0.5102439522743225,-2.2424349784851074,0.19351522624492645,0
64,0.3150181770324707,-0.04592245817184448,-18.130334854125977,0.9934418201446533,18.269685745239258,0.5102439522743225,2.2424349784851074,-0.19351522624492645,0.0,0.0,0.0,0.0,0.0,0.0,0.0,-0.00017736930511388238,0.5822450505347491,0.13692298115593204,0.5701527606699117,0.08710374277810744,0.05970957694899207,-0.21096353508447027,-0.6088625647524747,-0.057632559693696205,-0.6665332691209357,-2.5946684948770624,-0.05559758537797364,2.5079581617249382,0.8763176642970906,-0.6090851748156966,-0.05753196718556838,-0.666603097082616,-2.5945565370258534,-0.05562143941554,2.507976027223799,0.8763108487046415,0.0008013082063400142,0.00012008744185104793,-0.0011743087608360927,0.00034405736329046156,0.00012032287630981942,0.0005012818846179466,-0.0012775699078965933,0.0,0.0,0.0,0.0,0.0,0.0,0.0,-0.00022261006322188415,0.00010059250812782111,-6.982796168031324e-05,0.00011195785120898805,-2.3854037566356512e-05,1.7865498860736295e-05,-6.815592449083141e-06,-0.0008013082063400142,-0.00012008744185104793,0.0011743087608360927,-0.00034405736329046156,-0.00012032287630981942,-0.0005012818846179466,0.0012775699078965933,0.04592245817184448,18.130334854125977,-0.9934418201446533,-18.269685745239258,-0.5102439522743225,-2.2424349784851074,0.19351522624492645,0
65,0.3200111389160156,-0.06972616910934448,-18.106531143188477,0.9934418201446533,18.222078323364258,0.5102439522743225,2.2552523612976074,-0.20083944499492645,0.0,0.0,0.0,0.0,0.0,0.0,0.0,-0.007644580111699787,0.5536401152185808,0.13307471778784166,0.6177835457986104,0.08875545037801204,0.06700786270658068,-0.21303635701360024,-0.6088599473649682,-0.05763423012955147,-0.6665332691209357,-2.594665154005352,-0.055596389087773,2.5079567375712926,0.8763184780991738,-0.6090851748156966,-0.05753196718556838,-0.666603097082616,-2.5945565370258534,-0.05562143941554,2.507976027223799,0.8763108487046415,0.00020447989011495533,-0.0004459547036798437,-0.0013576594120911808,0.0006129961901805488,-1.079091615323238e-05,-4.650893506575957e-05,-0.0008532782854453584,0.0,0.0,0.0,0.0,0.0,0.0,0.0,-0.00022522745072839356,0.00010226294398308494,-6.982796168031324e-05,0.00010861697949859916,-2.5050327766999725e-05,1.9289652506415678e-05,-7.629394532360223e-06,-0.00020447989011495533,0.0004459547036798437,0.0013576594120911808,-0.0006129961901805488,1.079091615323238e-05,4.650893506575957e-05,0.0008532782854453584,0.06972616910934448,18.106531143188477,-0.9934418201446533,-18.222078323364258,-0.5102439522743225,-2.2552523612976074,0.20083944499492645,0
66,0.32502102851867676,-0.06972616910934448,-18.106531143188477,0.9934418201446533,18.222078323364258,0.5102439522743225,2.2552523612976074,-0.20083944499492645,0.0,0.0,0.0,0.0,0.0,0.0,0.0,-0.007644580111699787,0.5536401152185808,0.13307471778784166,0.6177835457986104,0.08875545037801204,0.06700786270658068,-0.21303635701360024,-0.6088599473649682,-0.05763423012955147,-0.6665332691209357,-2.594665154005352,-0.055596389087773,2.5079567375712926,0.8763184780991738,-0.6090851748156966,-0.05753196718556838,-0.666603097082616,-2.5945565370258534,-0.05562143941554,2.507976027223799,0.8763108487046415,0.00020447989011495533,-0.0004459547036798437,-0.0013576594120911808,0.0006129961901805488,-1.079091615323238e-05,-4.650893506575957e-05,-0.0008532782854453584,0.0,0.0,0.0,0.0,0.0,0.0,0.0,-0.00022522745072839356,0.00010226294398308494,-6.982796168031324e-05,0.00010861697949859916,-2.5050327766999725e-05,1.9289652506415678e-05,-7.629394532360223e-06,-0.00020447989011495533,0.0004459547036798437,0.0013576594120911808,-0.0006129961901805488,1.079091615323238e-05,4.650893506575957e-05,0.0008532782854453584,0.06972616910934448,18.106531143188477,-0.9934418201446533,-18.222078323364258,-0.5102439522743225,-2.2552523612976074,0.20083944499492645,0
67,0.3300011157989502,-0.04592245817184448,-18.154138565063477,0.8942596912384033,18.198274612426758,0.5166526436805725,2.2488436698913574,-0.17978231608867645,0.0,0.0,0.0,0.0,0.0,0.0,0.0,-0.008945593379351375,0.5449174831112126,0.13881305275122457,0.6241391494413098,0.08869078453970608,0.06854932257953791,-0.21323050539177033,-0.608859677523932,-0.05763088925784094,-0.6665263089715388,-2.5946634835694966,-0.05559709969520789,2.5079574511016656,0.8763161379336676,-0.6090851748156966,-0.05753196718556838,-0.666603097082616,-2.5945565370258534,-0.05562143941554,2.507976027223799,0.8763108487046415,0.00042120117302680307,0.0006431522446776763,0.0010470706801668653,0.0008509814089246144,-0.0001462641932687527,-8.578335214600547e-05,-0.0010247566622823513,0.0,0.0,0.0,0.0,0.0,0.0,0.0,-0.0002254972917645759,9.892207227255728e-05,-7.678811107725281e-05,0.00010694654364318268,-2.4339720332111625e-05,1.857612213340687e-05,-5.289229026095299e-06,-0.00042120117302680307,-0.0006431522446776763,-0.0010470706801668653,-0.0008509814089246144,0.0001462641932687527,8.578335214600547e-05,0.0010247566622823513,0.04592245817184448,18.154138565063477,-0.8942596912384033,-18.198274612426758,-0.5166526436805725,-2.2488436698913574,0.17978231608867645,0
68,0.33501243591308594,-0.04592245817184448,-18.154138565063477,0.8942596912384033,18.198274612426758,0.5166526436805725,2.2488436698913574,-0.17978231608867645,0.0,0.0,0.0,0.0,0.0,0.0,0.0,-0.008945593379351375,0.5449174831112126,0.13881305275122457,0.6241391494413098,0.08869078453970608,0.06854932257953791,-0.21323050539177033,-0.608859677523932,-0.05763088925784094,-0.6665263089715388,-2.5946634835694966,-0.05559709969520789,2.5079574511016656,0.8763161379336676,-0.6090851748156966,-0.05753196718556838,-0.666603097082616,-2.5945565370258534,-0.05562143941554,2.507976027223799,0.8763108487046415,0.00042120117302680307,0.0006431522446776763,0.0010470706801668653,0.0008509814089246144,-0.0001462641932687527,-8.578335214600547e-05,-0.0010247566622823513,0.0,0.0,0.0,0.0,0.0,0.0,0.0,-0.0002254972917645759,9.892207227255728e-05,-7.678811107725281e-05,0.00010694654364318268,-2.4339720332111625e-05,1.857612213340687e-05,-5.289229026095299e-06,-0.00042120117302680307,-0.0006431522446776763,-0.0010470706801668653,-0.0008509814089246144,0.0001462641932687527,8.578335214600547e-05,0.0010247566622823513,0.04592245817184448,18.154138565063477,-0.8942596912384033,-18.198274612426758,-0.5166526436805725,-2.2488436698913574,0.17978231608867645,0
69,0.34000253677368164,-0.018151462078094482,-18.130334854125977,0.9180634021759033,18.222078323364258,0.5166526436805725,2.2424349784851074,-0.17978231608867645,0.0,0.0,0.0,0.0,0.0,0.0,0.0,-0.008768629266139466,0.5475013583587822,0.13772606330730836,0.624393990486442,0.08913944398876587,0.06847382917249513,-0.21074053264416626,-0.6088614208627715,-0.057632559693696205,-0.6665279794073941,-2.594665154005352,-0.05559709953268644,2.5079581617249627,0.8763161384181761,-0.6090851748156966,-0.05753196718556838,-0.666603097082616,-2.5945565370258534,-0.05562143941554,2.507976027223799,0.8763108487046415,0.0006039093867250536,0.0009654111904725635,0.0004895653350369377,0.000601644921391772,-3.173148609101683e-05,0.00028657115898548223,-0.000990080970920162,0.0,0.0,0.0,0.0,0.0,0.0,0.0,-0.0002237539529250654,0.00010059250812782111,-7.511767522194734e-05,0.00010861697949859916,-2.4339882853559314e-05,1.786549883631139e-05,-5.289713534639695e-06,-0.0006039093867250536,-0.0009654111904725635,-0.0004895653350369377,-0.000601644921391772,3.173148609101683e-05,-0.00028657115898548223,0.000990080970920162,0.018151462078094482,18.130334854125977,-0.9180634021759033,-18.222078323364258,-0.5166526436805725,-2.2424349784851074,0.17978231608867645,0
70,0.34500813484191895,-0.018151462078094482,-18.130334854125977,0.9180634021759033,18.222078323364258,0.5166526436805725,2.2424349784851074,-0.17978231608867645,0.0,0.0,0.0,0.0,0.0,0.0,0.0,-0.008768629266139466,0.5475013583587822,0.13772606330730836,0.624393990486442,0.08913944398876587,0.06847382917249513,-0.21074053264416626,-0.6088614208627715,-0.057632559693696205,-0.6665279794073941,-2.594665154005352,-0.05559709953268644,2.5079581617249627,0.8763161384181761,-0.6090851748156966,-0.05753196718556838,-0.666603097082616,-2.5945565370258534,-0.05562143941554,2.507976027223799,0.8763108487046415,0.0006039093867250536,0.0009654111904725635,0.0004895653350369377,0.000601644921391772,-3.173148609101683e-05,0.00028657115898548223,-0.000990080970920162,0.0,0.0,0.0,0.0,0.0,0.0,0.0,-0.0002237539529250654,0.00010059250812782111,-7.511767522194734e-05,0.00010861697949859916,-2.4339882853559314e-05,1.786549883631139e-05,-5.289713534639695e-06,-0.0006039093867250536,-0.0009654111904725635,-0.0004895653350369377,-0.000601644921391772,3.173148609101683e-05,-0.00028657115898548223,0.000990080970920162,0.018151462078094482,18.130334854125977,-0.9180634021759033,-18.222078323364258,-0.5166526436805725,-2.2424349784851074,0.17978231608867645,0
71,0.35000038146972656,0.03342324495315552,-18.078760147094727,0.9180634021759033,18.297456741333008,0.5102439522743225,2.2424349784851074,-0.24112264811992645,0.0,0.0,0.0,0.0,0.0,0.0,0.0,-0.01037032986367904,0.5484742458922748,0.13055209820807387,0.620760608073107,0.09003135944817292,0.0669480172788877,-0.20971719408716638,-0.6088650434541745,-0.05763617897138261,-0.6665279794073941,-2.5946704437188934,-0.055599590626368524,2.5079581748068906,0.8763229540106322,-0.6090851748156966,-0.05753196718556838,-0.666603097082616,-2.5945565370258534,-0.05562143941554,2.507976027223799,0.8763108487046415,-0.00044001361799371485,-0.0002848378176263774,0.0010718681388139145,-0.0015723943081191244,1.461643644581497e-05,0.0001707558338530805,0.0012346900903191817,0.0,0.0,0.0,0.0,0.0,0.0,0.0,-0.00022013136152210233,0.00010421178581422608,-7.511767522194734e-05,0.00011390669304001122,-2.184878917147609e-05,1.7852416908326063e-05,-1.2105305990717241e-05,0.00044001361799371485,0.0002848378176263774,-0.0010718681388139145,0.0015723943081191244,-1.461643644581497e-05,-0.0001707558338530805,-0.0012346900903191817,-0.03342324495315552,18.078760147094727,-0.9180634021759033,-18.297456741333008,-0.5102439522743225,-2.2424349784851074,0.24112264811992645,0
72,0.35500168800354004,0.03342324495315552,-18.078760147094727,0.9180634021759033,18.297456741333008,0.5102439522743225,2.2424349784851074,-0.24112264811992645,0.0,0.0,0.0,0.0,0.0,0.0,0.0,-0.01037032986367904,0.5484742458922748,0.13055209820807387,0.620760608073107,0.09003135944817292,0.0669480172788877,-0.20971719408716638,-0.6088650434541745,-0.05763617897138261,-0.6665279794073941,-2.5946704437188934,-0.055599590626368524,2.5079581748068906,0.8763229540106322,-0.6090851748156966,-0.05753196718556838,-0.666603097082616,-2.5945565370258534,-0.05562143941554,2.507976027223799,0.8763108487046415,-0.00044001361799371485,-0.0002848378176263774,0.0010718681388139145,-0.0015723943081191244,1.461643644581497e-05,0.0001707558338530805,0.0012346900903191817,0.0,0.0,0.0,0.0,0.0,0.0,0.0,-0.00022013136152210233,0.00010421178581422608,-7.511767522194734e-05,0.00011390669304001122,-2.184878917147609e-05,1.7852416908326063e-05,-1.2105305990717241e-05,0.00044001361799371485,0.0002848378176263774,-0.0010718681388139145,0.0015723943081191244,-1.461643644581497e-05,-0.0001707558338530805,-0.0012346900903191817,-0.03342324495315552,18.078760147094727,-0.9180634021759033,-18.297456741333008,-0.5102439522743225,-2.2424349784851074,0.24112264811992645,0
73,0.3600327968597412,-0.018151462078094482,-18.106531143188477,0.9418671131134033,18.269685745239258,0.5102439522743225,2.2552523612976074,-0.19351522624492645,0.0,0.0,0.0,0.0,0.0,0.0,0.0,-0.0011190111342838835,0.549723144075889,0.13645814587007893,0.6233128699555933,0.08962897018170429,0.06687783250518209,-0.21134532233086759,-0.6088616498285053,-0.05763423012955147,-0.6665296498432493,-2.5946684948770624,-0.055596387473942764,2.5079567375713663,0.8763176642970906,-0.6090851748156966,-0.05753196718556838,-0.666603097082616,-2.5945565370258534,-0.05562143941554,2.507976027223799,0.8763108487046415,0.001254012966080654,0.0001523906592823808,0.0006855925537619173,-0.0006177381368110052,-0.0001003819544651512,-7.994726246174396e-05,-0.00048151374981794556,0.0,0.0,0.0,0.0,0.0,0.0,0.0,-0.00022352498719124814,0.00010226294398308494,-7.34472393667529e-05,0.00011195785120898805,-2.505194159723584e-05,1.928965243269687e-05,-6.815592449083141e-06,-0.001254012966080654,-0.0001523906592823808,-0.0006855925537619173,0.0006177381368110052,0.0001003819544651512,7.994726246174396e-05,0.00048151374981794556,0.018151462078094482,18.106531143188477,-0.9418671131134033,-18.269685745239258,-0.5102439522743225,-2.2552523612976074,0.19351522624492645,0
74,0.36499738693237305,-0.018151462078094482,-18.106531143188477,0.9418671131134033,18.269685745239258,0.5102439522743225,2.2552523612976074,-0.19351522624492645,0.0,0.0,0.0,0.0,0.0,0.0,0.0,-0.0011190111342838835,0.549723144075889,0.13645814587007893,0.6233128699555933,0.08962897018170429,0.06687783250518209,-0.21134532233086759,-0.6088616498285053,-0.05763423012955147,-0.6665296498432493,-2.5946684948770624,-0.055596387473942764,2.5079567375713663,0.8763176642970906,-0.6090851748156966,-0.05753196718556838,-0.666603097082616,-2.5945565370258534,-0.05562143941554,2.507976027223799,0.8763108487046415,0.001254012966080654,0.0001523906592823808,0.0006855925537619173,-0.0006177381368110052,-0.0001003819544651512,-7.994726246174396e-05,-0.00048151374981794556,0.0,0.0,0.0,0.0,0.0,0.0,0.0,-0.00022352498719124814,0.00010226294398308494,-7.34472393667529e-05,0.00011195785120898805,-2.505194159723584e-05,1.928965243269687e-05,-6.815592449083141e-06,-0.001254012966080654,-0.0001523906592823808,-0.0006855925537619173,0.0006177381368110052,0.0001003819544651512,7.994726246174396e-05,0.00048151374981794556,0.018151462078094482,18.106531143188477,-0.9418671131134033,-18.269685745239258,-0.5102439522743225,-2.2552523612976074,0.19351522624492645,0
75,0.3700284957885742,0.03342324495315552,-18.078760147094727,0.9418671131134033,18.222078323364258,0.5166526436805725,2.2488436698913574,-0.19351522624492645,0.0,0.0,0.0,0.0,0.0,0.0,0.0,-0.0015229924840452897,0.5516189867223087,0.13424998025241683,0.6220046782385554,0.08922683627312365,0.06686159930150566,-0.2111682245163277,-0.6088671088296731,-0.05763617897138261,-0.6665296498432493,-2.594665154005352,-0.05559721800611353,2.5079574496481154,0.8763176642970906,-0.6090851748156966,-0.05753196718556838,-0.666603097082616,-2.5945565370258534,-0.05562143941554,2.507976027223799,0.8763108487046415,-0.000750733327427814,-0.0010577971604853978,0.0004038618269168861,0.0004730542906765225,6.730751301041156e-05,-0.00013678305534375402,-0.0006601648527349583,0.0,0.0,0.0,0.0,0.0,0.0,0.0,-0.0002180659860234746,0.00010421178581422608,-7.34472393667529e-05,0.00010861697949859916,-2.4221409426469775e-05,1.8577575683575986e-05,-6.815592449083141e-06,0.000750733327427814,0.0010577971604853978,-0.0004038618269168861,-0.0004730542906765225,-6.730751301041156e-05,0.00013678305534375402,0.0006601648527349583,-0.03342324495315552,18.078760147094727,-0.9418671131134033,-18.222078323364258,-0.5166526436805725,-2.2488436698913574,0.19351522624492645,0
76,0.37502121925354004,0.03342324495315552,-18.078760147094727,0.9418671131134033,18.222078323364258,0.5166526436805725,2.2488436698913574,-0.19351522624492645,0.0,0.0,0.0,0.0,0.0,0.0,0.0,-0.0015229924840452897,0.5516189867223087,0.13424998025241683,0.6220046782385554,0.08922683627312365,0.06686159930150566,-0.2111682245163277,-0.6088671088296731,-0.05763617897138261,-0.6665296498432493,-2.594665154005352,-0.05559721800611353,2.5079574496481154,0.8763176642970906,-0.6090851748156966,-0.05753196718556838,-0.666603097082616,-2.5945565370258534,-0.05562143941554,2.507976027223799,0.8763108487046415,-0.000750733327427814,-0.0010577971604853978,0.0004038618269168861,0.0004730542906765225,6.730751301041156e-05,-0.00013678305534375402,-0.0006601648527349583,0.0,0.0,0.0,0.0,0.0,0.0,0.0,-0.0002180659860234746,0.00010421178581422608,-7.34472393667529e-05,0.00010861697949859916,-2.4221409426469775e-05,1.8577575683575986e-05,-6.815592449083141e-06,0.000750733327427814,0.0010577971604853978,-0.0004038618269168861,-0.0004730542906765225,-6.730751301041156e-05,0.00013678305534375402,0.0006601648527349583,-0.03342324495315552,18.078760147094727,-0.9418671131134033,-18.222078323364258,-0.5166526436805725,-2.2488436698913574,0.19351522624492645,0
77,0.3800027370452881,0.03342324495315552,-18.078760147094727,0.9418671131134033,18.222078323364258,0.5166526436805725,2.2488436698913574,-0.19351522624492645,0.0,0.0,0.0,0.0,0.0,0.0,0.0,-0.0015229924840452897,0.5516189867223087,0.13424998025241683,0.6220046782385554,0.08922683627312365,0.06686159930150566,-0.2111682245163277,-0.6088671088296731,-0.05763617897138261,-0.6665296498432493,-2.594665154005352,-0.05559721800611353,2.5079574496481154,0.8763176642970906,-0.6090851748156966,-0.05753196718556838,-0.666603097082616,-2.5945565370258534,-0.05562143941554,2.507976027223799,0.8763108487046415,-0.000750733327427814,-0.0010577971604853978,0.0004038618269168861,0.0004730542906765225,6.730751301041156e-05,-0.00013678305534375402,-0.0006601648527349583,0.0,0.0,0.0,0.0,0.0,0.0,0.0,-0.0002180659860234746,0.00010421178581422608,-7.34472393667529e-05,0.00010861697949859916,-2.4221409426469775e-05,1.8577575683575986e-05,-6.815592449083141e-06,0.000750733327427814,0.0010577971604853978,-0.0004038618269168861,-0.0004730542906765225,-6.730751301041156e-05,0.00013678305534375402,0.0006601648527349583,-0.03342324495315552,18.078760147094727,-0.9418671131134033,-18.222078323364258,-0.5166526436805725,-2.2488436698913574,0.19351522624492645,0
78,0.38500285148620605,0.03342324495315552,-18.078760147094727,0.9418671131134033,18.222078323364258,0.5166526436805725,2.2488436698913574,-0.19351522624492645,0.0,0.0,0.0,0.0,0.0,0.0,0.0,-0.0015229924840452897,0.5516189867223087,0.13424998025241683,0.6220046782385554,0.08922683627312365,0.06686159930150566,-0.2111682245163277,-0.6088671088296731,-0.05763617897138261,-0.6665296498432493,-2.594665154005352,-0.05559721800611353,2.5079574496481154,0.8763176642970906,-0.6090851748156966,-0.05753196718556838,-0.666603097082616,-2.5945565370258534,-0.05562143941554,2.507976027223799,0.8763108487046415,-0.000750733327427814,-0.0010577971604853978,0.0004038618269168861,0.0004730542906765225,6.730751301041156e-05,-0.00013678305534375402,-0.0006601648527349583,0.0,0.0,0.0,0.0,0.0,0.0,0.0,-0.0002180659860234746,0.00010421178581422608,-7.34472393667529e-05,0.00010861697949859916,-2.4221409426469775e-05,1.8577575683575986e-05,-6.815592449083141e-06,0.000750733327427814,0.0010577971604853978,-0.0004038618269168861,-0.0004730542906765225,-6.730751301041156e-05,0.00013678305534375402,0.0006601648527349583,-0.03342324495315552,18.078760147094727,-0.9418671131134033,-18.222078323364258,-0.5166526436805725,-2.2488436698913574,0.19351522624492645,0
79,0.3900027275085449,-0.04592245817184448,-18.078760147094727,0.9180634021759033,18.245882034301758,0.5166526436805725,2.2625765800476074,-0.18710653483867645,0.0,0.0,0.0,0.0,0.0,0.0,0.0,0.0015696973223650501,0.5510871776556511,0.1348965893906234,0.6214425179600357,0.08930180610087265,0.06629027563151377,-0.2103618585999579,-0.6088622569937634,-0.05763617897138261,-0.6665279794073941,-2.594666824441207,-0.05560030319140521,2.507955923769209,0.8763168344826977,-0.6090851748156966,-0.05753196718556838,-0.666603097082616,-2.5945565370258534,-0.05562143941554,2.507976027223799,0.8763108487046415,0.0009113883306136309,-0.0011835704905170982,0.0010104695189271488,4.175431921196005e-05,-8.840739277925776e-05,-0.0006309472176353434,-0.0010020575123294798,0.0,0.0,0.0,0.0,0.0,0.0,0.0,-0.00022291782193317733,0.00010421178581422608,-7.511767522194734e-05,0.00011028741535357156,-2.1136224134792048e-05,2.0103454589914804e-05,-5.985778056216695e-06,-0.0009113883306136309,0.0011835704905170982,-0.0010104695189271488,-4.175431921196005e-05,8.840739277925776e-05,0.0006309472176353434,0.0010020575123294798,0.04592245817184448,18.078760147094727,-0.9180634021759033,-18.245882034301758,-0.5166526436805725,-2.2625765800476074,0.18710653483867645,0
