rezayati/contactInterpretation/dataset/franka_main/labeled_data/link5/c13_7.csv
index,time,tau_J0,tau_J1,tau_J2,tau_J3,tau_J4,tau_J5,tau_J6,tau_J_d0,tau_J_d1,tau_J_d2,tau_J_d3,tau_J_d4,tau_J_d5,tau_J_d6,tau_ext0,tau_ext1,tau_ext2,tau_ext3,tau_ext4,tau_ext5,tau_ext6,q0,q1,q2,q3,q4,q5,q6,q_d0,q_d1,q_d2,q_d3,q_d4,q_d5,q_d6,dq0,dq1,dq2,dq3,dq4,dq5,dq6,dq_d0,dq_d1,dq_d2,dq_d3,dq_d4,dq_d5,dq_d6,e0,e1,e2,e3,e4,e5,e6,de0,de1,de2,de3,de4,de5,de6,etau_J0,etau_J1,etau_J2,etau_J3,etau_J4,etau_J5,etau_J6,label
1,0.0,-0.12130087614059448,-11.925500869750977,1.2909882068634033,21.741060256958008,0.4507346749305725,2.5207552909851074,-0.19351522624492645,0.0,0.0,0.0,0.0,0.0,0.0,0.0,-0.12711909978102365,0.41032909305096105,0.1010866751934881,0.4639255577683877,-0.0743153428107408,0.12692822068860302,-0.21815452340625288,0.17281784494958335,-0.4874420183625138,-0.11145445249437444,-1.9466550829703348,0.13375139353672663,2.5955463034841744,0.9452460848407613,0.1728802376190821,-0.48752024683155326,-0.11147110072896137,-1.9463801863486305,0.1336059019074957,2.595550359778934,0.9452445589611904,-3.750413792287013e-05,3.0029463753225132e-05,-0.0001733087296005427,0.0005854320983094628,0.0004161464279555619,0.00025537307769303764,-0.0007407428750619379,0.0,0.0,0.0,0.0,0.0,0.0,0.0,6.239266949875644e-05,-7.822846903948744e-05,-1.6648234586927324e-05,0.0002748966217043236,-0.00014549162923094272,4.056294759635648e-06,-1.5258795709183204e-06,3.750413792287013e-05,-3.0029463753225132e-05,0.0001733087296005427,-0.0005854320983094628,-0.0004161464279555619,-0.00025537307769303764,0.0007407428750619379,0.12130087614059448,11.925500869750977,-1.2909882068634033,-21.741060256958008,-0.4507346749305725,-2.5207552909851074,0.19351522624492645,0
2,0.005015373229980469,-0.12130087614059448,-11.925500869750977,1.2909882068634033,21.741060256958008,0.4507346749305725,2.5207552909851074,-0.19351522624492645,0.0,0.0,0.0,0.0,0.0,0.0,0.0,-0.12711909978102365,0.41032909305096105,0.1010866751934881,0.4639255577683877,-0.0743153428107408,0.12692822068860302,-0.21815452340625288,0.17281784494958335,-0.4874420183625138,-0.11145445249437444,-1.9466550829703348,0.13375139353672663,2.5955463034841744,0.9452460848407613,0.1728802376190821,-0.48752024683155326,-0.11147110072896137,-1.9463801863486305,0.1336059019074957,2.595550359778934,0.9452445589611904,-3.750413792287013e-05,3.0029463753225132e-05,-0.0001733087296005427,0.0005854320983094628,0.0004161464279555619,0.00025537307769303764,-0.0007407428750619379,0.0,0.0,0.0,0.0,0.0,0.0,0.0,6.239266949875644e-05,-7.822846903948744e-05,-1.6648234586927324e-05,0.0002748966217043236,-0.00014549162923094272,4.056294759635648e-06,-1.5258795709183204e-06,3.750413792287013e-05,-3.0029463753225132e-05,0.0001733087296005427,-0.0005854320983094628,-0.0004161464279555619,-0.00025537307769303764,0.0007407428750619379,0.12130087614059448,11.925500869750977,-1.2909882068634033,-21.741060256958008,-0.4507346749305725,-2.5207552909851074,0.19351522624492645,0
3,0.010010242462158203,-0.09352988004684448,-11.901697158813477,1.2909882068634033,21.768831253051758,0.4690452218055725,2.5271639823913574,-0.22830526530742645,0.0,0.0,0.0,0.0,0.0,0.0,0.0,-0.12867998818805132,0.4110006343538867,0.09991433228901792,0.46505622431864135,-0.0742891353754924,0.12727073315958343,-0.2172413220607796,0.17281589610953077,-0.487443688798369,-0.11145679376775741,-1.9466570318121659,0.1337493590315183,2.5955455914073515,0.9452499504006571,0.1728802376190821,-0.48752024683155326,-0.11147110072896137,-1.9463801863486305,0.1336059019074957,2.595550359778934,0.9452445589611904,-0.0005119548842434322,-0.0001647897371873609,0.00011016217164351272,-0.0003968825184789163,-0.0002577689454284484,2.606679516698022e-06,0.000885816561868228,0.0,0.0,0.0,0.0,0.0,0.0,0.0,6.43415095513411e-05,-7.655803318423748e-05,-1.430696120395536e-05,0.0002768454635353468,-0.00014345712402261124,4.768371582475339e-06,-5.3914394666509935e-06,0.0005119548842434322,0.0001647897371873609,-0.00011016217164351272,0.0003968825184789163,0.0002577689454284484,-2.606679516698022e-06,-0.000885816561868228,0.09352988004684448,11.901697158813477,-1.2909882068634033,-21.768831253051758,-0.4690452218055725,-2.5271639823913574,0.22830526530742645,0
4,0.015001296997070312,-0.09352988004684448,-11.901697158813477,1.2909882068634033,21.768831253051758,0.4690452218055725,2.5271639823913574,-0.22830526530742645,0.0,0.0,0.0,0.0,0.0,0.0,0.0,-0.12867998818805132,0.4110006343538867,0.09991433228901792,0.46505622431864135,-0.0742891353754924,0.12727073315958343,-0.2172413220607796,0.17281589610953077,-0.487443688798369,-0.11145679376775741,-1.9466570318121659,0.1337493590315183,2.5955455914073515,0.9452499504006571,0.1728802376190821,-0.48752024683155326,-0.11147110072896137,-1.9463801863486305,0.1336059019074957,2.595550359778934,0.9452445589611904,-0.0005119548842434322,-0.0001647897371873609,0.00011016217164351272,-0.0003968825184789163,-0.0002577689454284484,2.606679516698022e-06,0.000885816561868228,0.0,0.0,0.0,0.0,0.0,0.0,0.0,6.43415095513411e-05,-7.655803318423748e-05,-1.430696120395536e-05,0.0002768454635353468,-0.00014345712402261124,4.768371582475339e-06,-5.3914394666509935e-06,0.0005119548842434322,0.0001647897371873609,-0.00011016217164351272,0.0003968825184789163,0.0002577689454284484,-2.606679516698022e-06,-0.000885816561868228,0.09352988004684448,11.901697158813477,-1.2909882068634033,-21.768831253051758,-0.4690452218055725,-2.5271639823913574,0.22830526530742645,0
5,0.01999688148498535,-0.14510458707809448,-11.901697158813477,1.2909882068634033,21.768831253051758,0.4452415108680725,2.5335726737976074,-0.18710653483867645,0.0,0.0,0.0,0.0,0.0,0.0,0.0,-0.12791942724082195,0.41322224011776637,0.09917626896267732,0.463220862682535,-0.07368661597188032,0.12730438439329467,-0.21681762501955965,0.1728195153512149,-0.487443688798369,-0.11145450799599227,-1.9466570318121659,0.13375200437583412,2.5955448793305287,0.9452453727639384,0.1728802376190821,-0.48752024683155326,-0.11147110072896137,-1.9463801863486305,0.1336059019074957,2.595550359778934,0.9452445589611904,0.00044080824528899614,-9.469298490829191e-05,0.0002447568197388379,-0.0006660255315719459,0.000510549626931593,-0.00021290514127089022,-0.0007211355817999408,0.0,0.0,0.0,0.0,0.0,0.0,0.0,6.0722267867213686e-05,-7.655803318423748e-05,-1.6592732969097912e-05,0.0002768454635353468,-0.00014610246833843266,5.48044840531503e-06,-8.138027479676069e-07,-0.00044080824528899614,9.469298490829191e-05,-0.0002447568197388379,0.0006660255315719459,-0.000510549626931593,0.00021290514127089022,0.0007211355817999408,0.14510458707809448,11.901697158813477,-1.2909882068634033,-21.768831253051758,-0.4452415108680725,-2.5335726737976074,0.18710653483867645,0
6,0.02500152587890625,-0.14510458707809448,-11.901697158813477,1.2909882068634033,21.768831253051758,0.4452415108680725,2.5335726737976074,-0.18710653483867645,0.0,0.0,0.0,0.0,0.0,0.0,0.0,-0.12791942724082195,0.41322224011776637,0.09917626896267732,0.463220862682535,-0.07368661597188032,0.12730438439329467,-0.21681762501955965,0.1728195153512149,-0.487443688798369,-0.11145450799599227,-1.9466570318121659,0.13375200437583412,2.5955448793305287,0.9452453727639384,0.1728802376190821,-0.48752024683155326,-0.11147110072896137,-1.9463801863486305,0.1336059019074957,2.595550359778934,0.9452445589611904,0.00044080824528899614,-9.469298490829191e-05,0.0002447568197388379,-0.0006660255315719459,0.000510549626931593,-0.00021290514127089022,-0.0007211355817999408,0.0,0.0,0.0,0.0,0.0,0.0,0.0,6.0722267867213686e-05,-7.655803318423748e-05,-1.6592732969097912e-05,0.0002768454635353468,-0.00014610246833843266,5.48044840531503e-06,-8.138027479676069e-07,-0.00044080824528899614,9.469298490829191e-05,-0.0002447568197388379,0.0006660255315719459,-0.000510549626931593,0.00021290514127089022,0.0007211355817999408,0.14510458707809448,11.901697158813477,-1.2909882068634033,-21.768831253051758,-0.4452415108680725,-2.5335726737976074,0.18710653483867645,0
7,0.030104637145996094,-0.09352988004684448,-11.901697158813477,1.3425629138946533,21.741060256958008,0.4626365303993225,2.5271639823913574,-0.21457235515117645,0.0,0.0,0.0,0.0,0.0,0.0,0.0,-0.12648910603857083,0.40833469910905823,0.10384385817951802,0.46550718032974325,-0.07403262697483115,0.12786642403062265,-0.21656050537542826,0.17281565989853093,-0.487443688798369,-0.11145811863612495,-1.9466550829703348,0.1337532698909469,2.595545587046701,0.9452484260116398,0.1728802376190821,-0.48752024683155326,-0.11147110072896137,-1.9463801863486305,0.1336059019074957,2.595550359778934,0.9452445589611904,-0.00031134431373135965,-0.00044576919089646963,-0.000979179795414022,0.0003176060235408161,-0.0002549280151483876,-1.3394969644736382e-05,-0.00032870212115336083,0.0,0.0,0.0,0.0,0.0,0.0,0.0,6.457772055118438e-05,-7.655803318423748e-05,-1.2982092836413828e-05,0.0002748966217043236,-0.0001473679834512187,4.7727322329826904e-06,-3.867050449413156e-06,0.00031134431373135965,0.00044576919089646963,0.000979179795414022,-0.0003176060235408161,0.0002549280151483876,1.3394969644736382e-05,0.00032870212115336083,0.09352988004684448,11.901697158813477,-1.3425629138946533,-21.741060256958008,-0.4626365303993225,-2.5271639823913574,0.21457235515117645,0
8,0.03501582145690918,-0.09352988004684448,-11.901697158813477,1.3425629138946533,21.741060256958008,0.4626365303993225,2.5271639823913574,-0.21457235515117645,0.0,0.0,0.0,0.0,0.0,0.0,0.0,-0.12648910603857083,0.40833469910905823,0.10384385817951802,0.46550718032974325,-0.07403262697483115,0.12786642403062265,-0.21656050537542826,0.17281565989853093,-0.487443688798369,-0.11145811863612495,-1.9466550829703348,0.1337532698909469,2.595545587046701,0.9452484260116398,0.1728802376190821,-0.48752024683155326,-0.11147110072896137,-1.9463801863486305,0.1336059019074957,2.595550359778934,0.9452445589611904,-0.00031134431373135965,-0.00044576919089646963,-0.000979179795414022,0.0003176060235408161,-0.0002549280151483876,-1.3394969644736382e-05,-0.00032870212115336083,0.0,0.0,0.0,0.0,0.0,0.0,0.0,6.457772055118438e-05,-7.655803318423748e-05,-1.2982092836413828e-05,0.0002748966217043236,-0.0001473679834512187,4.7727322329826904e-06,-3.867050449413156e-06,0.00031134431373135965,0.00044576919089646963,0.000979179795414022,-0.0003176060235408161,0.0002549280151483876,1.3394969644736382e-05,0.00032870212115336083,0.09352988004684448,11.901697158813477,-1.3425629138946533,-21.741060256958008,-0.4626365303993225,-2.5271639823913574,0.21457235515117645,0
9,0.04021573066711426,-0.12130087614059448,-11.925500869750977,1.3147919178009033,21.792634963989258,0.4626365303993225,2.5271639823913574,-0.18710653483867645,0.0,0.0,0.0,0.0,0.0,0.0,0.0,-0.1278653630548894,0.4141404755571353,0.10154247373323404,0.4620567197663406,-0.07425418338039853,0.12722234293961887,-0.21889503938332608,0.17281781870436186,-0.4874420183625138,-0.11145609596146312,-1.946658702248021,0.13375007112639842,2.595545591407327,0.9452453727639468,0.1728802376190821,-0.48752024683155326,-0.11147110072896137,-1.9463801863486305,0.1336059019074957,2.595550359778934,0.9452445589611904,0.0003040636076316567,0.00034858126265491864,-0.00038779317808648175,-0.0007166881130073149,-0.00026164730029796894,-6.769778632040718e-05,-0.0007156771184537029,0.0,0.0,0.0,0.0,0.0,0.0,0.0,6.241891472025252e-05,-7.822846903948744e-05,-1.5004767498244531e-05,0.0002785158993905412,-0.00014416921890272882,4.768371606900246e-06,-8.138027564053019e-07,-0.0003040636076316567,-0.00034858126265491864,0.00038779317808648175,0.0007166881130073149,0.00026164730029796894,6.769778632040718e-05,0.0007156771184537029,0.12130087614059448,11.925500869750977,-1.3147919178009033,-21.792634963989258,-0.4626365303993225,-2.5271639823913574,0.18710653483867645,0
10,0.044962406158447266,-0.12130087614059448,-11.925500869750977,1.3147919178009033,21.792634963989258,0.4626365303993225,2.5271639823913574,-0.18710653483867645,0.0,0.0,0.0,0.0,0.0,0.0,0.0,-0.1278653630548894,0.4141404755571353,0.10154247373323404,0.4620567197663406,-0.07425418338039853,0.12722234293961887,-0.21889503938332608,0.17281781870436186,-0.4874420183625138,-0.11145609596146312,-1.946658702248021,0.13375007112639842,2.595545591407327,0.9452453727639468,0.1728802376190821,-0.48752024683155326,-0.11147110072896137,-1.9463801863486305,0.1336059019074957,2.595550359778934,0.9452445589611904,0.0003040636076316567,0.00034858126265491864,-0.00038779317808648175,-0.0007166881130073149,-0.00026164730029796894,-6.769778632040718e-05,-0.0007156771184537029,0.0,0.0,0.0,0.0,0.0,0.0,0.0,6.241891472025252e-05,-7.822846903948744e-05,-1.5004767498244531e-05,0.0002785158993905412,-0.00014416921890272882,4.768371606900246e-06,-8.138027564053019e-07,-0.0003040636076316567,-0.00034858126265491864,0.00038779317808648175,0.0007166881130073149,0.00026164730029796894,6.769778632040718e-05,0.0007156771184537029,0.12130087614059448,11.925500869750977,-1.3147919178009033,-21.792634963989258,-0.4626365303993225,-2.5271639823913574,0.18710653483867645,0
11,0.049950599670410156,-0.12130087614059448,-11.901697158813477,1.2671844959259033,21.768831253051758,0.4626365303993225,2.5271639823913574,-0.21457235515117645,0.0,0.0,0.0,0.0,0.0,0.0,0.0,-0.12795081049323812,0.420526772387787,0.0979231422055919,0.4601392865891134,-0.07425557408119013,0.1268036609039382,-0.21812138148937033,0.1728178448072046,-0.487443688798369,-0.11145521924941088,-1.9466570318121659,0.13375018958177104,2.5955455914073515,0.9452484240372341,0.1728802376190821,-0.48752024683155326,-0.11147110072896137,-1.9463801863486305,0.1336059019074957,2.595550359778934,0.9452445589611904,-0.00026455735546689985,0.00027006736103056143,0.0007039387292453958,-7.773822950094488e-05,-5.4752061266465093e-05,8.683864541625492e-05,0.00030137057561834517,0.0,0.0,0.0,0.0,0.0,0.0,0.0,6.239281187750412e-05,-7.655803318423748e-05,-1.5881479550491906e-05,0.0002768454635353468,-0.00014428767427535072,4.768371582475339e-06,-3.8650760436631515e-06,0.00026455735546689985,-0.00027006736103056143,-0.0007039387292453958,7.773822950094488e-05,5.4752061266465093e-05,-8.683864541625492e-05,-0.00030137057561834517,0.12130087614059448,11.901697158813477,-1.2671844959259033,-21.768831253051758,-0.4626365303993225,-2.5271639823913574,0.21457235515117645,0
12,0.05499100685119629,-0.12130087614059448,-11.901697158813477,1.2671844959259033,21.768831253051758,0.4626365303993225,2.5271639823913574,-0.21457235515117645,0.0,0.0,0.0,0.0,0.0,0.0,0.0,-0.12795081049323812,0.420526772387787,0.0979231422055919,0.4601392865891134,-0.07425557408119013,0.1268036609039382,-0.21812138148937033,0.1728178448072046,-0.487443688798369,-0.11145521924941088,-1.9466570318121659,0.13375018958177104,2.5955455914073515,0.9452484240372341,0.1728802376190821,-0.48752024683155326,-0.11147110072896137,-1.9463801863486305,0.1336059019074957,2.595550359778934,0.9452445589611904,-0.00026455735546689985,0.00027006736103056143,0.0007039387292453958,-7.773822950094488e-05,-5.4752061266465093e-05,8.683864541625492e-05,0.00030137057561834517,0.0,0.0,0.0,0.0,0.0,0.0,0.0,6.239281187750412e-05,-7.655803318423748e-05,-1.5881479550491906e-05,0.0002768454635353468,-0.00014428767427535072,4.768371582475339e-06,-3.8650760436631515e-06,0.00026455735546689985,-0.00027006736103056143,-0.0007039387292453958,7.773822950094488e-05,5.4752061266465093e-05,-8.683864541625492e-05,-0.00030137057561834517,0.12130087614059448,11.901697158813477,-1.2671844959259033,-21.768831253051758,-0.4626365303993225,-2.5271639823913574,0.21457235515117645,0
13,0.05999755859375,-0.12130087614059448,-11.901697158813477,1.2671844959259033,21.768831253051758,0.4626365303993225,2.5271639823913574,-0.21457235515117645,0.0,0.0,0.0,0.0,0.0,0.0,0.0,-0.12795081049323812,0.420526772387787,0.0979231422055919,0.4601392865891134,-0.07425557408119013,0.1268036609039382,-0.21812138148937033,0.1728178448072046,-0.487443688798369,-0.11145521924941088,-1.9466570318121659,0.13375018958177104,2.5955455914073515,0.9452484240372341,0.1728802376190821,-0.48752024683155326,-0.11147110072896137,-1.9463801863486305,0.1336059019074957,2.595550359778934,0.9452445589611904,-0.00026455735546689985,0.00027006736103056143,0.0007039387292453958,-7.773822950094488e-05,-5.4752061266465093e-05,8.683864541625492e-05,0.00030137057561834517,0.0,0.0,0.0,0.0,0.0,0.0,0.0,6.239281187750412e-05,-7.655803318423748e-05,-1.5881479550491906e-05,0.0002768454635353468,-0.00014428767427535072,4.768371582475339e-06,-3.8650760436631515e-06,0.00026455735546689985,-0.00027006736103056143,-0.0007039387292453958,7.773822950094488e-05,5.4752061266465093e-05,-8.683864541625492e-05,-0.00030137057561834517,0.12130087614059448,11.901697158813477,-1.2671844959259033,-21.768831253051758,-0.4626365303993225,-2.5271639823913574,0.21457235515117645,0
14,0.0650022029876709,-0.12130087614059448,-11.901697158813477,1.2671844959259033,21.768831253051758,0.4626365303993225,2.5271639823913574,-0.21457235515117645,0.0,0.0,0.0,0.0,0.0,0.0,0.0,-0.12795081049323812,0.420526772387787,0.0979231422055919,0.4601392865891134,-0.07425557408119013,0.1268036609039382,-0.21812138148937033,0.1728178448072046,-0.487443688798369,-0.11145521924941088,-1.9466570318121659,0.13375018958177104,2.5955455914073515,0.9452484240372341,0.1728802376190821,-0.48752024683155326,-0.11147110072896137,-1.9463801863486305,0.1336059019074957,2.595550359778934,0.9452445589611904,-0.00026455735546689985,0.00027006736103056143,0.0007039387292453958,-7.773822950094488e-05,-5.4752061266465093e-05,8.683864541625492e-05,0.00030137057561834517,0.0,0.0,0.0,0.0,0.0,0.0,0.0,6.239281187750412e-05,-7.655803318423748e-05,-1.5881479550491906e-05,0.0002768454635353468,-0.00014428767427535072,4.768371582475339e-06,-3.8650760436631515e-06,0.00026455735546689985,-0.00027006736103056143,-0.0007039387292453958,7.773822950094488e-05,5.4752061266465093e-05,-8.683864541625492e-05,-0.00030137057561834517,0.12130087614059448,11.901697158813477,-1.2671844959259033,-21.768831253051758,-0.4626365303993225,-2.5271639823913574,0.21457235515117645,0
15,0.07000064849853516,-0.12130087614059448,-11.949304580688477,1.3147919178009033,21.768831253051758,0.4626365303993225,2.5271639823913574,-0.18710653483867645,0.0,0.0,0.0,0.0,0.0,0.0,0.0,-0.13023345987855853,0.41181202407544004,0.09587650148735248,0.46588213418951535,-0.07395038711856164,0.12776451408967288,-0.21873499386185088,0.17281568405814196,-0.4874403479266585,-0.11145640263721503,-1.9466570318121659,0.13375007110901,2.5955455914073515,0.9452453722794188,0.1728802376190821,-0.48752024683155326,-0.11147110072896137,-1.9463801863486305,0.1336059019074957,2.595550359778934,0.9452445589611904,-0.0009458217447623939,0.0008855120524056057,-0.0007764659816735915,-0.00040434199136042096,-0.00017596861863449151,0.00014513812926628963,-0.0010041378391335907,0.0,0.0,0.0,0.0,0.0,0.0,0.0,6.455356094015041e-05,-7.989890489473739e-05,-1.469809174634018e-05,0.0002768454635353468,-0.0001441692015143048,4.768371582475339e-06,-8.133182284320029e-07,0.0009458217447623939,-0.0008855120524056057,0.0007764659816735915,0.00040434199136042096,0.00017596861863449151,-0.00014513812926628963,0.0010041378391335907,0.12130087614059448,11.949304580688477,-1.3147919178009033,-21.768831253051758,-0.4626365303993225,-2.5271639823913574,0.18710653483867645,0
16,0.07500934600830078,-0.12130087614059448,-11.949304580688477,1.3147919178009033,21.768831253051758,0.4626365303993225,2.5271639823913574,-0.18710653483867645,0.0,0.0,0.0,0.0,0.0,0.0,0.0,-0.13023345987855853,0.41181202407544004,0.09587650148735248,0.46588213418951535,-0.07395038711856164,0.12776451408967288,-0.21873499386185088,0.17281568405814196,-0.4874403479266585,-0.11145640263721503,-1.9466570318121659,0.13375007110901,2.5955455914073515,0.9452453722794188,0.1728802376190821,-0.48752024683155326,-0.11147110072896137,-1.9463801863486305,0.1336059019074957,2.595550359778934,0.9452445589611904,-0.0009458217447623939,0.0008855120524056057,-0.0007764659816735915,-0.00040434199136042096,-0.00017596861863449151,0.00014513812926628963,-0.0010041378391335907,0.0,0.0,0.0,0.0,0.0,0.0,0.0,6.455356094015041e-05,-7.989890489473739e-05,-1.469809174634018e-05,0.0002768454635353468,-0.0001441692015143048,4.768371582475339e-06,-8.133182284320029e-07,0.0009458217447623939,-0.0008855120524056057,0.0007764659816735915,0.00040434199136042096,0.00017596861863449151,-0.00014513812926628963,0.0010041378391335907,0.12130087614059448,11.949304580688477,-1.3147919178009033,-21.768831253051758,-0.4626365303993225,-2.5271639823913574,0.18710653483867645,0
17,0.08000016212463379,-0.09352988004684448,-11.925500869750977,1.2909882068634033,21.768831253051758,0.4507346749305725,2.5271639823913574,-0.17337362468242645,0.0,0.0,0.0,0.0,0.0,0.0,0.0,-0.12320325118099223,0.4212744998009314,0.1077706668386471,0.4626499093933804,-0.07462960076743609,0.12732301017951927,-0.21982134725181904,0.17281297991215144,-0.4874420183625138,-0.11145466293937205,-1.9466572699036961,0.13375139353672663,2.5955455914073515,0.9452438468850294,0.1728802376190821,-0.48752024683155326,-0.11147110072896137,-1.9463801863486305,0.1336059019074957,2.595550359778934,0.9452445589611904,-0.0003644054427555241,0.0007361467395737295,0.00018375606764583187,-5.431233235906565e-05,0.000285068858034905,-1.7218639072600124e-05,-0.0018128661239427551,0.0,0.0,0.0,0.0,0.0,0.0,0.0,6.72577069306679e-05,-7.822846903948744e-05,-1.643778958931863e-05,0.0002770835550656159,-0.00014549162923094272,4.768371582475339e-06,7.120761610357462e-07,0.0003644054427555241,-0.0007361467395737295,-0.00018375606764583187,5.431233235906565e-05,-0.000285068858034905,1.7218639072600124e-05,0.0018128661239427551,0.09352988004684448,11.925500869750977,-1.2909882068634033,-21.768831253051758,-0.4507346749305725,-2.5271639823913574,0.17337362468242645,0
18,0.08499598503112793,-0.09352988004684448,-11.925500869750977,1.2909882068634033,21.768831253051758,0.4507346749305725,2.5271639823913574,-0.17337362468242645,0.0,0.0,0.0,0.0,0.0,0.0,0.0,-0.12320325118099223,0.4212744998009314,0.1077706668386471,0.4626499093933804,-0.07462960076743609,0.12732301017951927,-0.21982134725181904,0.17281297991215144,-0.4874420183625138,-0.11145466293937205,-1.9466572699036961,0.13375139353672663,2.5955455914073515,0.9452438468850294,0.1728802376190821,-0.48752024683155326,-0.11147110072896137,-1.9463801863486305,0.1336059019074957,2.595550359778934,0.9452445589611904,-0.0003644054427555241,0.0007361467395737295,0.00018375606764583187,-5.431233235906565e-05,0.000285068858034905,-1.7218639072600124e-05,-0.0018128661239427551,0.0,0.0,0.0,0.0,0.0,0.0,0.0,6.72577069306679e-05,-7.822846903948744e-05,-1.643778958931863e-05,0.0002770835550656159,-0.00014549162923094272,4.768371582475339e-06,7.120761610357462e-07,0.0003644054427555241,-0.0007361467395737295,-0.00018375606764583187,5.431233235906565e-05,-0.000285068858034905,1.7218639072600124e-05,0.0018128661239427551,0.09352988004684448,11.925500869750977,-1.2909882068634033,-21.768831253051758,-0.4507346749305725,-2.5271639823913574,0.17337362468242645,0
19,0.0900423526763916,-0.17287558317184448,-11.973108291625977,1.2671844959259033,21.768831253051758,0.4507346749305725,2.5335726737976074,-0.22830526530742645,0.0,0.0,0.0,0.0,0.0,0.0,0.0,-0.12990111181094766,0.4135841482394412,0.09531840480833689,0.4658581151541687,-0.07455220217311269,0.12779232434626406,-0.22003214760389112,0.1728193081796758,-0.4874386774908032,-0.11145495618086829,-1.94665703181351,0.13375139353672663,2.5955448793305287,0.9452499504006571,0.1728802376190821,-0.48752024683155326,-0.11147110072896137,-1.9463801863486305,0.1336059019074957,2.595550359778934,0.9452445589611904,0.0011475461187192848,0.0015170156381448347,0.00047888798155567934,-9.686072229043458e-05,0.00027119167265660587,-0.00016465682641427892,0.0005776876306797146,0.0,0.0,0.0,0.0,0.0,0.0,0.0,6.092943940630424e-05,-8.156934075004285e-05,-1.6144548093080524e-05,0.0002768454648793828,-0.00014549162923094272,5.48044840531503e-06,-5.3914394666509935e-06,-0.0011475461187192848,-0.0015170156381448347,-0.00047888798155567934,9.686072229043458e-05,-0.00027119167265660587,0.00016465682641427892,-0.0005776876306797146,0.17287558317184448,11.973108291625977,-1.2671844959259033,-21.768831253051758,-0.4507346749305725,-2.5335726737976074,0.22830526530742645,0
20,0.09499621391296387,-0.17287558317184448,-11.973108291625977,1.2671844959259033,21.768831253051758,0.4507346749305725,2.5335726737976074,-0.22830526530742645,0.0,0.0,0.0,0.0,0.0,0.0,0.0,-0.12990111181094766,0.4135841482394412,0.09531840480833689,0.4658581151541687,-0.07455220217311269,0.12779232434626406,-0.22003214760389112,0.1728193081796758,-0.4874386774908032,-0.11145495618086829,-1.94665703181351,0.13375139353672663,2.5955448793305287,0.9452499504006571,0.1728802376190821,-0.48752024683155326,-0.11147110072896137,-1.9463801863486305,0.1336059019074957,2.595550359778934,0.9452445589611904,0.0011475461187192848,0.0015170156381448347,0.00047888798155567934,-9.686072229043458e-05,0.00027119167265660587,-0.00016465682641427892,0.0005776876306797146,0.0,0.0,0.0,0.0,0.0,0.0,0.0,6.092943940630424e-05,-8.156934075004285e-05,-1.6144548093080524e-05,0.0002768454648793828,-0.00014549162923094272,5.48044840531503e-06,-5.3914394666509935e-06,-0.0011475461187192848,-0.0015170156381448347,-0.00047888798155567934,9.686072229043458e-05,-0.00027119167265660587,0.00016465682641427892,-0.0005776876306797146,0.17287558317184448,11.973108291625977,-1.2671844959259033,-21.768831253051758,-0.4507346749305725,-2.5335726737976074,0.22830526530742645,0
21,0.10008525848388672,-0.09352988004684448,-11.901697158813477,1.3425629138946533,21.741060256958008,0.4571433663368225,2.5335726737976074,-0.18710653483867645,0.0,0.0,0.0,0.0,0.0,0.0,0.0,-0.12712072659518467,0.4163391688388876,0.09870445741669535,0.46390995065558593,-0.07535512898688453,0.12734632383389977,-0.22034372620458983,0.17281589574899733,-0.487443688798369,-0.11146042964632963,-1.9466550829703348,0.1337506814599037,2.5955448793305287,0.9452453727639384,0.1728802376190821,-0.48752024683155326,-0.11147110072896137,-1.9463801863486305,0.1336059019074957,2.595550359778934,0.9452445589611904,-0.0004275748468726664,-0.0006260175986893022,-0.001118148304722151,0.0004448853769849265,0.00013135426456185325,-0.0002192797732583725,-0.0015816675216674793,0.0,0.0,0.0,0.0,0.0,0.0,0.0,6.434187008477754e-05,-7.655803318423748e-05,-1.0671082631738549e-05,0.0002748966217043236,-0.00014477955240801976,5.48044840531503e-06,-8.138027479676069e-07,0.0004275748468726664,0.0006260175986893022,0.001118148304722151,-0.0004448853769849265,-0.00013135426456185325,0.0002192797732583725,0.0015816675216674793,0.09352988004684448,11.901697158813477,-1.3425629138946533,-21.741060256958008,-0.4571433663368225,-2.5335726737976074,0.18710653483867645,0
22,0.1049962043762207,-0.09352988004684448,-11.901697158813477,1.3425629138946533,21.741060256958008,0.4571433663368225,2.5335726737976074,-0.18710653483867645,0.0,0.0,0.0,0.0,0.0,0.0,0.0,-0.12712072659518467,0.4163391688388876,0.09870445741669535,0.46390995065558593,-0.07535512898688453,0.12734632383389977,-0.22034372620458983,0.17281589574899733,-0.487443688798369,-0.11146042964632963,-1.9466550829703348,0.1337506814599037,2.5955448793305287,0.9452453727639384,0.1728802376190821,-0.48752024683155326,-0.11147110072896137,-1.9463801863486305,0.1336059019074957,2.595550359778934,0.9452445589611904,-0.0004275748468726664,-0.0006260175986893022,-0.001118148304722151,0.0004448853769849265,0.00013135426456185325,-0.0002192797732583725,-0.0015816675216674793,0.0,0.0,0.0,0.0,0.0,0.0,0.0,6.434187008477754e-05,-7.655803318423748e-05,-1.0671082631738549e-05,0.0002748966217043236,-0.00014477955240801976,5.48044840531503e-06,-8.138027479676069e-07,0.0004275748468726664,0.0006260175986893022,0.001118148304722151,-0.0004448853769849265,-0.00013135426456185325,0.0002192797732583725,0.0015816675216674793,0.09352988004684448,11.901697158813477,-1.3425629138946533,-21.741060256958008,-0.4571433663368225,-2.5335726737976074,0.18710653483867645,0
23,0.10999774932861328,-0.06972616910934448,-11.925500869750977,1.2909882068634033,21.768831253051758,0.4626365303993225,2.5463900566101074,-0.20083944499492645,0.0,0.0,0.0,0.0,0.0,0.0,0.0,-0.13037462920589893,0.42026393439217036,0.09095249189826284,0.4630799314905189,-0.07482255486655785,0.12758748947907542,-0.2214795393436865,0.17281419910398765,-0.4874420183625138,-0.11145749565260983,-1.9466570318121659,0.13375007110834122,2.595543459483699,0.9452468986428446,0.1728802376190821,-0.48752024683155326,-0.11147110072896137,-1.9463801863486305,0.1336059019074957,2.595550359778934,0.9452445589611904,-0.0012097156004530665,0.0005920002047368779,-0.000231453378604903,-7.430922542340193e-05,-2.655984026274484e-05,-0.0005925663992465683,-0.0006204751262597194,0.0,0.0,0.0,0.0,0.0,0.0,0.0,6.603851509445757e-05,-7.822846903948744e-05,-1.3605076351536072e-05,0.0002768454635353468,-0.0001441692008455342,6.900295235201526e-06,-2.3396816541954024e-06,0.0012097156004530665,-0.0005920002047368779,0.000231453378604903,7.430922542340193e-05,2.655984026274484e-05,0.0005925663992465683,0.0006204751262597194,0.06972616910934448,11.925500869750977,-1.2909882068634033,-21.768831253051758,-0.4626365303993225,-2.5463900566101074,0.20083944499492645,0
24,0.11499404907226562,-0.06972616910934448,-11.925500869750977,1.2909882068634033,21.768831253051758,0.4626365303993225,2.5463900566101074,-0.20083944499492645,0.0,0.0,0.0,0.0,0.0,0.0,0.0,-0.13037462920589893,0.42026393439217036,0.09095249189826284,0.4630799314905189,-0.07482255486655785,0.12758748947907542,-0.2214795393436865,0.17281419910398765,-0.4874420183625138,-0.11145749565260983,-1.9466570318121659,0.13375007110834122,2.595543459483699,0.9452468986428446,0.1728802376190821,-0.48752024683155326,-0.11147110072896137,-1.9463801863486305,0.1336059019074957,2.595550359778934,0.9452445589611904,-0.0012097156004530665,0.0005920002047368779,-0.000231453378604903,-7.430922542340193e-05,-2.655984026274484e-05,-0.0005925663992465683,-0.0006204751262597194,0.0,0.0,0.0,0.0,0.0,0.0,0.0,6.603851509445757e-05,-7.822846903948744e-05,-1.3605076351536072e-05,0.0002768454635353468,-0.0001441692008455342,6.900295235201526e-06,-2.3396816541954024e-06,0.0012097156004530665,-0.0005920002047368779,0.000231453378604903,7.430922542340193e-05,2.655984026274484e-05,0.0005925663992465683,0.0006204751262597194,0.06972616910934448,11.925500869750977,-1.2909882068634033,-21.768831253051758,-0.4626365303993225,-2.5463900566101074,0.20083944499492645,0
25,0.12041568756103516,-0.09352988004684448,-11.873926162719727,1.2909882068634033,21.768831253051758,0.4690452218055725,2.5271639823913574,-0.26217979192733765,0.0,0.0,0.0,0.0,0.0,0.0,0.0,-0.12410952214882755,0.4297498550752206,0.09518705895570259,0.46103823836833807,-0.07448115822713099,0.12750277781993874,-0.2211580291130325,0.17281586986371417,-0.48744563764020016,-0.11145658235469698,-1.9466570318121659,0.1337493590315183,2.595545591407376,0.9452537098762975,0.1728802376190821,-0.48752024683155326,-0.11147110072896137,-1.9463801863486305,0.1336059019074957,2.595550359778934,0.9452445589611904,-0.0005665054313482105,-0.00032103927202821247,4.651869541976474e-05,7.501194825642125e-05,-0.00023273211192831013,8.25754717481533e-05,0.00199975043969263,0.0,0.0,0.0,0.0,0.0,0.0,0.0,6.436775536794448e-05,-7.460919135310329e-05,-1.45183742643884e-05,0.0002768454635353468,-0.00014345712402261124,4.768371558050433e-06,-9.150915107114521e-06,0.0005665054313482105,0.00032103927202821247,-4.651869541976474e-05,-7.501194825642125e-05,0.00023273211192831013,-8.25754717481533e-05,-0.00199975043969263,0.09352988004684448,11.873926162719727,-1.2909882068634033,-21.768831253051758,-0.4690452218055725,-2.5271639823913574,0.26217979192733765,0
26,0.12500452995300293,-0.09352988004684448,-11.873926162719727,1.2909882068634033,21.768831253051758,0.4690452218055725,2.5271639823913574,-0.26217979192733765,0.0,0.0,0.0,0.0,0.0,0.0,0.0,-0.12410952214882755,0.4297498550752206,0.09518705895570259,0.46103823836833807,-0.07448115822713099,0.12750277781993874,-0.2211580291130325,0.17281586986371417,-0.48744563764020016,-0.11145658235469698,-1.9466570318121659,0.1337493590315183,2.595545591407376,0.9452537098762975,0.1728802376190821,-0.48752024683155326,-0.11147110072896137,-1.9463801863486305,0.1336059019074957,2.595550359778934,0.9452445589611904,-0.0005665054313482105,-0.00032103927202821247,4.651869541976474e-05,7.501194825642125e-05,-0.00023273211192831013,8.25754717481533e-05,0.00199975043969263,0.0,0.0,0.0,0.0,0.0,0.0,0.0,6.436775536794448e-05,-7.460919135310329e-05,-1.45183742643884e-05,0.0002768454635353468,-0.00014345712402261124,4.768371558050433e-06,-9.150915107114521e-06,0.0005665054313482105,0.00032103927202821247,-4.651869541976474e-05,-7.501194825642125e-05,0.00023273211192831013,-8.25754717481533e-05,-0.00199975043969263,0.09352988004684448,11.873926162719727,-1.2909882068634033,-21.768831253051758,-0.4690452218055725,-2.5271639823913574,0.26217979192733765,0
27,0.1300048828125,-0.09352988004684448,-11.850122451782227,1.3147919178009033,21.741060256958008,0.4626365303993225,2.5271639823913574,-0.20083944499492645,0.0,0.0,0.0,0.0,0.0,0.0,0.0,-0.12578209220637382,0.42399889829413934,0.08893066464718818,0.4673522276934988,-0.07315756689982264,0.127957192270968,-0.22172192056084183,0.1728156597903761,-0.4874473080760554,-0.11145927107153561,-1.9466550829703348,0.13375007110834122,2.595545591407352,0.9452468942821692,0.1728802376190821,-0.48752024683155326,-0.11147110072896137,-1.9463801863486305,0.1336059019074957,2.595550359778934,0.9452445589611904,-0.0010538026271458155,-0.0010597186550285829,-0.000583393848323434,0.0007407512867814295,8.690205332135876e-05,-3.4227906428899633e-06,-0.0013516428973852313,0.0,0.0,0.0,0.0,0.0,0.0,0.0,6.457782870600282e-05,-7.293875549785334e-05,-1.182965742575759e-05,0.0002748966217043236,-0.0001441692008455342,4.76837158203125e-06,-2.3353209788190554e-06,0.0010538026271458155,0.0010597186550285829,0.000583393848323434,-0.0007407512867814295,-8.690205332135876e-05,3.4227906428899633e-06,0.0013516428973852313,0.09352988004684448,11.850122451782227,-1.3147919178009033,-21.741060256958008,-0.4626365303993225,-2.5271639823913574,0.20083944499492645,0
28,0.13500428199768066,-0.09352988004684448,-11.850122451782227,1.3147919178009033,21.741060256958008,0.4626365303993225,2.5271639823913574,-0.20083944499492645,0.0,0.0,0.0,0.0,0.0,0.0,0.0,-0.12578209220637382,0.42399889829413934,0.08893066464718818,0.4673522276934988,-0.07315756689982264,0.127957192270968,-0.22172192056084183,0.1728156597903761,-0.4874473080760554,-0.11145927107153561,-1.9466550829703348,0.13375007110834122,2.595545591407352,0.9452468942821692,0.1728802376190821,-0.48752024683155326,-0.11147110072896137,-1.9463801863486305,0.1336059019074957,2.595550359778934,0.9452445589611904,-0.0010538026271458155,-0.0010597186550285829,-0.000583393848323434,0.0007407512867814295,8.690205332135876e-05,-3.4227906428899633e-06,-0.0013516428973852313,0.0,0.0,0.0,0.0,0.0,0.0,0.0,6.457782870600282e-05,-7.293875549785334e-05,-1.182965742575759e-05,0.0002748966217043236,-0.0001441692008455342,4.76837158203125e-06,-2.3353209788190554e-06,0.0010538026271458155,0.0010597186550285829,0.000583393848323434,-0.0007407512867814295,-8.690205332135876e-05,3.4227906428899633e-06,0.0013516428973852313,0.09352988004684448,11.850122451782227,-1.3147919178009033,-21.741060256958008,-0.4626365303993225,-2.5271639823913574,0.20083944499492645,0
29,0.14001059532165527,-0.14510458707809448,-11.901697158813477,1.2909882068634033,21.792634963989258,0.4571433663368225,2.5271639823913574,-0.20724813640117645,0.0,0.0,0.0,0.0,0.0,0.0,0.0,-0.1305120912779562,0.4157149407908038,0.08580297971109449,0.4755369444431351,-0.07282455253993027,0.12855846653282157,-0.22213311199789487,0.17281950659021392,-0.487443688798369,-0.11145513581981481,-1.9466589318362824,0.1337506814599037,2.595545591407352,0.9452476107196593,0.1728802376190821,-0.48752024683155326,-0.11147110072896137,-1.9463801863486305,0.1336059019074957,2.595550359778934,0.9452445589611904,-0.00027509348836741814,0.0003353910161674558,-0.0005085525698248697,-0.00059595018443165,0.00018568541182769686,-5.506135803401028e-05,0.0002738698860291422,0.0,0.0,0.0,0.0,0.0,0.0,0.0,6.0731028868193926e-05,-7.655803318423748e-05,-1.5964909146556905e-05,0.0002787454876518325,-0.00014477955240801976,4.76837158203125e-06,-3.0517584689304655e-06,0.00027509348836741814,-0.0003353910161674558,0.0005085525698248697,0.00059595018443165,-0.00018568541182769686,5.506135803401028e-05,-0.0002738698860291422,0.14510458707809448,11.901697158813477,-1.2909882068634033,-21.792634963989258,-0.4571433663368225,-2.5271639823913574,0.20724813640117645,0
30,0.14500975608825684,-0.14510458707809448,-11.901697158813477,1.2909882068634033,21.792634963989258,0.4571433663368225,2.5271639823913574,-0.20724813640117645,0.0,0.0,0.0,0.0,0.0,0.0,0.0,-0.1305120912779562,0.4157149407908038,0.08580297971109449,0.4755369444431351,-0.07282455253993027,0.12855846653282157,-0.22213311199789487,0.17281950659021392,-0.487443688798369,-0.11145513581981481,-1.9466589318362824,0.1337506814599037,2.595545591407352,0.9452476107196593,0.1728802376190821,-0.48752024683155326,-0.11147110072896137,-1.9463801863486305,0.1336059019074957,2.595550359778934,0.9452445589611904,-0.00027509348836741814,0.0003353910161674558,-0.0005085525698248697,-0.00059595018443165,0.00018568541182769686,-5.506135803401028e-05,0.0002738698860291422,0.0,0.0,0.0,0.0,0.0,0.0,0.0,6.0731028868193926e-05,-7.655803318423748e-05,-1.5964909146556905e-05,0.0002787454876518325,-0.00014477955240801976,4.76837158203125e-06,-3.0517584689304655e-06,0.00027509348836741814,-0.0003353910161674558,0.0005085525698248697,0.00059595018443165,-0.00018568541182769686,5.506135803401028e-05,-0.0002738698860291422,0.14510458707809448,11.901697158813477,-1.2909882068634033,-21.792634963989258,-0.4571433663368225,-2.5271639823913574,0.20724813640117645,0
31,0.15000128746032715,-0.12130087614059448,-11.925500869750977,1.2909882068634033,21.768831253051758,0.4626365303993225,2.5399813652038574,-0.20083944499492645,0.0,0.0,0.0,0.0,0.0,0.0,0.0,-0.12457662015866894,0.4298737727097654,0.0981412754560691,0.47073298619279785,-0.07335412678146665,0.1274064983028712,-0.22074973477895304,0.17281713631831327,-0.4874420183625138,-0.1114575061533098,-1.946657031813462,0.13375008410954065,2.5955441672537063,0.9452468986428446,0.1728802376190821,-0.48752024683155326,-0.11147110072896137,-1.9463801863486305,0.1336059019074957,2.595550359778934,0.9452445589611904,0.0005062616969767664,0.0007151472332455851,-0.0003532586051981733,0.0002495937976566926,-3.491601909368705e-05,-0.00041733819657634565,-0.00034189210978083557,0.0,0.0,0.0,0.0,0.0,0.0,0.0,6.310130076883635e-05,-7.822846903948744e-05,-1.3594575651573737e-05,0.00027684546483142114,-0.0001441822020449568,6.192525227710632e-06,-2.3396816541954024e-06,-0.0005062616969767664,-0.0007151472332455851,0.0003532586051981733,-0.0002495937976566926,3.491601909368705e-05,0.00041733819657634565,0.00034189210978083557,0.12130087614059448,11.925500869750977,-1.2909882068634033,-21.768831253051758,-0.4626365303993225,-2.5399813652038574,0.20083944499492645,0
32,0.15500092506408691,-0.12130087614059448,-11.925500869750977,1.2909882068634033,21.768831253051758,0.4626365303993225,2.5399813652038574,-0.20083944499492645,0.0,0.0,0.0,0.0,0.0,0.0,0.0,-0.12457662015866894,0.4298737727097654,0.0981412754560691,0.47073298619279785,-0.07335412678146665,0.1274064983028712,-0.22074973477895304,0.17281713631831327,-0.4874420183625138,-0.1114575061533098,-1.946657031813462,0.13375008410954065,2.5955441672537063,0.9452468986428446,0.1728802376190821,-0.48752024683155326,-0.11147110072896137,-1.9463801863486305,0.1336059019074957,2.595550359778934,0.9452445589611904,0.0005062616969767664,0.0007151472332455851,-0.0003532586051981733,0.0002495937976566926,-3.491601909368705e-05,-0.00041733819657634565,-0.00034189210978083557,0.0,0.0,0.0,0.0,0.0,0.0,0.0,6.310130076883635e-05,-7.822846903948744e-05,-1.3594575651573737e-05,0.00027684546483142114,-0.0001441822020449568,6.192525227710632e-06,-2.3396816541954024e-06,-0.0005062616969767664,-0.0007151472332455851,0.0003532586051981733,-0.0002495937976566926,3.491601909368705e-05,0.00041733819657634565,0.00034189210978083557,0.12130087614059448,11.925500869750977,-1.2909882068634033,-21.768831253051758,-0.4626365303993225,-2.5399813652038574,0.20083944499492645,0
33,0.1600027084350586,-0.14510458707809448,-11.925500869750977,1.2909882068634033,21.792634963989258,0.4571433663368225,2.5207552909851074,-0.22098104655742645,0.0,0.0,0.0,0.0,0.0,0.0,0.0,-0.1259327346583027,0.43862152609927996,0.09171973658348515,0.4652605058518637,-0.07265400420090574,0.12666802083643117,-0.22052591825770404,0.17281846555655175,-0.4874420183625138,-0.11145657358576017,-1.946658702283014,0.1337506814599771,2.595546303484175,0.9452491365985738,0.1728802376190821,-0.48752024683155326,-0.11147110072896137,-1.9463801863486305,0.1336059019074957,2.595550359778934,0.9452445589611904,0.0008917363886031864,0.00047994881905877806,-0.00012774458178443275,-0.000791006886895401,0.0003530704686904937,7.991030500372558e-05,0.00042850115403018853,0.0,0.0,0.0,0.0,0.0,0.0,0.0,6.17720625303575e-05,-7.822846903948744e-05,-1.4527143201201187e-05,0.0002785159343834387,-0.0001447795524814055,4.056294759191559e-06,-4.5776373833739115e-06,-0.0008917363886031864,-0.00047994881905877806,0.00012774458178443275,0.000791006886895401,-0.0003530704686904937,-7.991030500372558e-05,-0.00042850115403018853,0.14510458707809448,11.925500869750977,-1.2909882068634033,-21.792634963989258,-0.4571433663368225,-2.5207552909851074,0.22098104655742645,0
34,0.1659243106842041,-0.14510458707809448,-11.925500869750977,1.2909882068634033,21.792634963989258,0.4571433663368225,2.5207552909851074,-0.22098104655742645,0.0,0.0,0.0,0.0,0.0,0.0,0.0,-0.1259327346583027,0.43862152609927996,0.09171973658348515,0.4652605058518637,-0.07265400420090574,0.12666802083643117,-0.22052591825770404,0.17281846555655175,-0.4874420183625138,-0.11145657358576017,-1.946658702283014,0.1337506814599771,2.595546303484175,0.9452491365985738,0.1728802376190821,-0.48752024683155326,-0.11147110072896137,-1.9463801863486305,0.1336059019074957,2.595550359778934,0.9452445589611904,0.0008917363886031864,0.00047994881905877806,-0.00012774458178443275,-0.000791006886895401,0.0003530704686904937,7.991030500372558e-05,0.00042850115403018853,0.0,0.0,0.0,0.0,0.0,0.0,0.0,6.17720625303575e-05,-7.822846903948744e-05,-1.4527143201201187e-05,0.0002785159343834387,-0.0001447795524814055,4.056294759191559e-06,-4.5776373833739115e-06,-0.0008917363886031864,-0.00047994881905877806,0.00012774458178443275,0.000791006886895401,-0.0003530704686904937,-7.991030500372558e-05,-0.00042850115403018853,0.14510458707809448,11.925500869750977,-1.2909882068634033,-21.792634963989258,-0.4571433663368225,-2.5207552909851074,0.22098104655742645,0
35,0.17041277885437012,-0.14510458707809448,-11.873926162719727,1.3147919178009033,21.792634963989258,0.4626365303993225,2.5335726737976074,-0.24112264811992645,0.0,0.0,0.0,0.0,0.0,0.0,0.0,-0.12842457090656045,0.4334846894392886,0.09008550970195853,0.4680351307882495,-0.07243898899442255,0.12664900027543002,-0.22066077535641712,0.17281927042173567,-0.48744563764020016,-0.1114569115980681,-1.9466587022480213,0.13375007110834122,2.595544879330529,0.9452513731007527,0.1728802376190821,-0.48752024683155326,-0.11147110072896137,-1.9463801863486305,0.1336059019074957,2.595550359778934,0.9452445589611904,-7.146462323935927e-05,-0.0005319858870649357,-0.0006201473743921999,-0.000985845382100072,-8.348776435740865e-05,-0.0003374098223702647,0.0012158628407593591,0.0,0.0,0.0,0.0,0.0,0.0,0.0,6.096719734643985e-05,-7.460919135310329e-05,-1.4189130893266233e-05,0.00027851589939076327,-0.0001441692008455342,5.480448404870941e-06,-6.814139562272281e-06,7.146462323935927e-05,0.0005319858870649357,0.0006201473743921999,0.000985845382100072,8.348776435740865e-05,0.0003374098223702647,-0.0012158628407593591,0.14510458707809448,11.873926162719727,-1.3147919178009033,-21.792634963989258,-0.4626365303993225,-2.5335726737976074,0.24112264811992645,0
36,0.17540955543518066,-0.14510458707809448,-11.873926162719727,1.3147919178009033,21.792634963989258,0.4626365303993225,2.5335726737976074,-0.24112264811992645,0.0,0.0,0.0,0.0,0.0,0.0,0.0,-0.12842457090656045,0.4334846894392886,0.09008550970195853,0.4680351307882495,-0.07243898899442255,0.12664900027543002,-0.22066077535641712,0.17281927042173567,-0.48744563764020016,-0.1114569115980681,-1.9466587022480213,0.13375007110834122,2.595544879330529,0.9452513731007527,0.1728802376190821,-0.48752024683155326,-0.11147110072896137,-1.9463801863486305,0.1336059019074957,2.595550359778934,0.9452445589611904,-7.146462323935927e-05,-0.0005319858870649357,-0.0006201473743921999,-0.000985845382100072,-8.348776435740865e-05,-0.0003374098223702647,0.0012158628407593591,0.0,0.0,0.0,0.0,0.0,0.0,0.0,6.096719734643985e-05,-7.460919135310329e-05,-1.4189130893266233e-05,0.00027851589939076327,-0.0001441692008455342,5.480448404870941e-06,-6.814139562272281e-06,7.146462323935927e-05,0.0005319858870649357,0.0006201473743921999,0.000985845382100072,8.348776435740865e-05,0.0003374098223702647,-0.0012158628407593591,0.14510458707809448,11.873926162719727,-1.3147919178009033,-21.792634963989258,-0.4626365303993225,-2.5335726737976074,0.24112264811992645,0
37,0.17999482154846191,-0.14510458707809448,-11.873926162719727,1.3147919178009033,21.792634963989258,0.4626365303993225,2.5335726737976074,-0.24112264811992645,0.0,0.0,0.0,0.0,0.0,0.0,0.0,-0.12842457090656045,0.4334846894392886,0.09008550970195853,0.4680351307882495,-0.07243898899442255,0.12664900027543002,-0.22066077535641712,0.17281927042173567,-0.48744563764020016,-0.1114569115980681,-1.9466587022480213,0.13375007110834122,2.595544879330529,0.9452513731007527,0.1728802376190821,-0.48752024683155326,-0.11147110072896137,-1.9463801863486305,0.1336059019074957,2.595550359778934,0.9452445589611904,-7.146462323935927e-05,-0.0005319858870649357,-0.0006201473743921999,-0.000985845382100072,-8.348776435740865e-05,-0.0003374098223702647,0.0012158628407593591,0.0,0.0,0.0,0.0,0.0,0.0,0.0,6.096719734643985e-05,-7.460919135310329e-05,-1.4189130893266233e-05,0.00027851589939076327,-0.0001441692008455342,5.480448404870941e-06,-6.814139562272281e-06,7.146462323935927e-05,0.0005319858870649357,0.0006201473743921999,0.000985845382100072,8.348776435740865e-05,0.0003374098223702647,-0.0012158628407593591,0.14510458707809448,11.873926162719727,-1.3147919178009033,-21.792634963989258,-0.4626365303993225,-2.5335726737976074,0.24112264811992645,0
38,0.18499398231506348,-0.14510458707809448,-11.873926162719727,1.3147919178009033,21.792634963989258,0.4626365303993225,2.5335726737976074,-0.24112264811992645,0.0,0.0,0.0,0.0,0.0,0.0,0.0,-0.12842457090656045,0.4334846894392886,0.09008550970195853,0.4680351307882495,-0.07243898899442255,0.12664900027543002,-0.22066077535641712,0.17281927042173567,-0.48744563764020016,-0.1114569115980681,-1.9466587022480213,0.13375007110834122,2.595544879330529,0.9452513731007527,0.1728802376190821,-0.48752024683155326,-0.11147110072896137,-1.9463801863486305,0.1336059019074957,2.595550359778934,0.9452445589611904,-7.146462323935927e-05,-0.0005319858870649357,-0.0006201473743921999,-0.000985845382100072,-8.348776435740865e-05,-0.0003374098223702647,0.0012158628407593591,0.0,0.0,0.0,0.0,0.0,0.0,0.0,6.096719734643985e-05,-7.460919135310329e-05,-1.4189130893266233e-05,0.00027851589939076327,-0.0001441692008455342,5.480448404870941e-06,-6.814139562272281e-06,7.146462323935927e-05,0.0005319858870649357,0.0006201473743921999,0.000985845382100072,8.348776435740865e-05,0.0003374098223702647,-0.0012158628407593591,0.14510458707809448,11.873926162719727,-1.3147919178009033,-21.792634963989258,-0.4626365303993225,-2.5335726737976074,0.24112264811992645,0
39,0.18499398231506348,-0.14510458707809448,-11.873926162719727,1.3147919178009033,21.792634963989258,0.4626365303993225,2.5335726737976074,-0.24112264811992645,0.0,0.0,0.0,0.0,0.0,0.0,0.0,-0.12842457090656045,0.4334846894392886,0.09008550970195853,0.4680351307882495,-0.07243898899442255,0.12664900027543002,-0.22066077535641712,0.17281927042173567,-0.48744563764020016,-0.1114569115980681,-1.9466587022480213,0.13375007110834122,2.595544879330529,0.9452513731007527,0.1728802376190821,-0.48752024683155326,-0.11147110072896137,-1.9463801863486305,0.1336059019074957,2.595550359778934,0.9452445589611904,-7.146462323935927e-05,-0.0005319858870649357,-0.0006201473743921999,-0.000985845382100072,-8.348776435740865e-05,-0.0003374098223702647,0.0012158628407593591,0.0,0.0,0.0,0.0,0.0,0.0,0.0,6.096719734643985e-05,-7.460919135310329e-05,-1.4189130893266233e-05,0.00027851589939076327,-0.0001441692008455342,5.480448404870941e-06,-6.814139562272281e-06,7.146462323935927e-05,0.0005319858870649357,0.0006201473743921999,0.000985845382100072,8.348776435740865e-05,0.0003374098223702647,-0.0012158628407593591,0.14510458707809448,11.873926162719727,-1.3147919178009033,-21.792634963989258,-0.4626365303993225,-2.5335726737976074,0.24112264811992645,0
40,0.19499659538269043,-0.09352988004684448,-11.925500869750977,1.2671844959259033,21.741060256958008,0.4626365303993225,2.5335726737976074,-0.21457235515117645,0.0,0.0,0.0,0.0,0.0,0.0,0.0,-0.13223079660328008,0.4306758490771967,0.09153195876265025,0.4713220505961568,-0.07282123146766659,0.12691304630612177,-0.22112154044164933,0.17281589513608622,-0.4874420183625138,-0.11145274708275847,-1.9466550829703348,0.13375007110834122,2.595544879330529,0.9452484245217426,0.1728802376190821,-0.48752024683155326,-0.11147110072896137,-1.9463801863486305,0.1336059019074957,2.595550359778934,0.9452445589611904,-0.0012148461183552279,0.0008299838767429238,0.00035117637639336426,0.000845411326075018,-0.0001974145651942538,6.182522320612891e-05,-0.009046422499028619,0.0,0.0,0.0,0.0,0.0,0.0,0.0,6.43424829958883e-05,-7.822846903948744e-05,-1.835364620289548e-05,0.0002748966217043236,-0.0001441692008455342,5.480448404870941e-06,-3.8655605522075476e-06,0.0012148461183552279,-0.0008299838767429238,-0.00035117637639336426,-0.000845411326075018,0.0001974145651942538,-6.182522320612891e-05,0.009046422499028619,0.09352988004684448,11.925500869750977,-1.2671844959259033,-21.741060256958008,-0.4626365303993225,-2.5335726737976074,0.21457235515117645,0
41,0.1999952793121338,-0.09352988004684448,-11.925500869750977,1.2671844959259033,21.741060256958008,0.4626365303993225,2.5335726737976074,-0.21457235515117645,0.0,0.0,0.0,0.0,0.0,0.0,0.0,-0.13223079660328008,0.4306758490771967,0.09153195876265025,0.4713220505961568,-0.07282123146766659,0.12691304630612177,-0.22112154044164933,0.17281589513608622,-0.4874420183625138,-0.11145274708275847,-1.9466550829703348,0.13375007110834122,2.595544879330529,0.9452484245217426,0.1728802376190821,-0.48752024683155326,-0.11147110072896137,-1.9463801863486305,0.1336059019074957,2.595550359778934,0.9452445589611904,-0.0012148461183552279,0.0008299838767429238,0.00035117637639336426,0.000845411326075018,-0.0001974145651942538,6.182522320612891e-05,-0.009046422499028619,0.0,0.0,0.0,0.0,0.0,0.0,0.0,6.43424829958883e-05,-7.822846903948744e-05,-1.835364620289548e-05,0.0002748966217043236,-0.0001441692008455342,5.480448404870941e-06,-3.8655605522075476e-06,0.0012148461183552279,-0.0008299838767429238,-0.00035117637639336426,-0.000845411326075018,0.0001974145651942538,-6.182522320612891e-05,0.009046422499028619,0.09352988004684448,11.925500869750977,-1.2671844959259033,-21.741060256958008,-0.4626365303993225,-2.5335726737976074,0.21457235515117645,0
42,0.20499801635742188,-0.12130087614059448,-11.873926162719727,1.2909882068634033,21.741060256958008,0.4571433663368225,2.5271639823913574,-0.23471395671367645,0.0,0.0,0.0,0.0,0.0,0.0,0.0,-0.12928215275006866,0.4384591800138461,0.09687757565310004,0.4648315731478847,-0.07358807248859878,0.1263690467475999,-0.22240396023540895,0.17281781870569346,-0.48744563764020016,-0.11145475871090679,-1.9466550829703348,0.1337506814599037,2.595545591407352,0.94525066247748,0.1728802376190821,-0.48752024683155326,-0.11147110072896137,-1.9463801863486305,0.1336059019074957,2.595550359778934,0.9452445589611904,0.00047433060956985284,-0.0006097228204602138,7.13419848548259e-05,-5.712174923284922e-05,9.742649185642935e-05,-1.4181977544931656e-05,0.0006648594555738249,0.0,0.0,0.0,0.0,0.0,0.0,0.0,6.241891338865102e-05,-7.460919135310329e-05,-1.6342018054574248e-05,0.0002748966217043236,-0.00014477955240801976,4.76837158203125e-06,-6.103516289601707e-06,-0.00047433060956985284,0.0006097228204602138,-7.13419848548259e-05,5.712174923284922e-05,-9.742649185642935e-05,1.4181977544931656e-05,-0.0006648594555738249,0.12130087614059448,11.873926162719727,-1.2909882068634033,-21.741060256958008,-0.4571433663368225,-2.5271639823913574,0.23471395671367645,0
43,0.2100081443786621,-0.12130087614059448,-11.873926162719727,1.2909882068634033,21.741060256958008,0.4571433663368225,2.5271639823913574,-0.23471395671367645,0.0,0.0,0.0,0.0,0.0,0.0,0.0,-0.12928215275006866,0.4384591800138461,0.09687757565310004,0.4648315731478847,-0.07358807248859878,0.1263690467475999,-0.22240396023540895,0.17281781870569346,-0.48744563764020016,-0.11145475871090679,-1.9466550829703348,0.1337506814599037,2.595545591407352,0.94525066247748,0.1728802376190821,-0.48752024683155326,-0.11147110072896137,-1.9463801863486305,0.1336059019074957,2.595550359778934,0.9452445589611904,0.00047433060956985284,-0.0006097228204602138,7.13419848548259e-05,-5.712174923284922e-05,9.742649185642935e-05,-1.4181977544931656e-05,0.0006648594555738249,0.0,0.0,0.0,0.0,0.0,0.0,0.0,6.241891338865102e-05,-7.460919135310329e-05,-1.6342018054574248e-05,0.0002748966217043236,-0.00014477955240801976,4.76837158203125e-06,-6.103516289601707e-06,-0.00047433060956985284,0.0006097228204602138,-7.13419848548259e-05,5.712174923284922e-05,-9.742649185642935e-05,1.4181977544931656e-05,-0.0006648594555738249,0.12130087614059448,11.873926162719727,-1.2909882068634033,-21.741060256958008,-0.4571433663368225,-2.5271639823913574,0.23471395671367645,0
44,0.21502089500427246,-0.09352988004684448,-11.901697158813477,1.3425629138946533,21.792634963989258,0.4745383858680725,2.5271639823913574,-0.17337362468242645,0.0,0.0,0.0,0.0,0.0,0.0,0.0,-0.13096204974689155,0.4265796282363837,0.09321628534293527,0.47168476088062633,-0.07378696764679021,0.1279496212395994,-0.22246396969338744,0.17281565989838296,-0.487443688798369,-0.1114580633892562,-1.946658702248021,0.1337487486799558,2.595545591407352,0.9452438464005154,0.1728802376190821,-0.48752024683155326,-0.11147110072896137,-1.9463801863486305,0.1336059019074957,2.595550359778934,0.9452445589611904,-0.000783142235414074,-0.0001926938634626613,-0.0010537238735210753,-0.0005226643217561403,-0.0005070348163891954,0.0001848022846364793,-0.001485506429206047,0.0,0.0,0.0,0.0,0.0,0.0,0.0,6.457772069914935e-05,-7.655803318423748e-05,-1.30373397051603e-05,0.0002785158993905412,-0.00014284677246009791,4.76837158203125e-06,7.125606750202351e-07,0.000783142235414074,0.0001926938634626613,0.0010537238735210753,0.0005226643217561403,0.0005070348163891954,-0.0001848022846364793,0.001485506429206047,0.09352988004684448,11.901697158813477,-1.3425629138946533,-21.792634963989258,-0.4745383858680725,-2.5271639823913574,0.17337362468242645,0
45,0.21999812126159668,-0.09352988004684448,-11.901697158813477,1.3425629138946533,21.792634963989258,0.4745383858680725,2.5271639823913574,-0.17337362468242645,0.0,0.0,0.0,0.0,0.0,0.0,0.0,-0.13096204974689155,0.4265796282363837,0.09321628534293527,0.47168476088062633,-0.07378696764679021,0.1279496212395994,-0.22246396969338744,0.17281565989838296,-0.487443688798369,-0.1114580633892562,-1.946658702248021,0.1337487486799558,2.595545591407352,0.9452438464005154,0.1728802376190821,-0.48752024683155326,-0.11147110072896137,-1.9463801863486305,0.1336059019074957,2.595550359778934,0.9452445589611904,-0.000783142235414074,-0.0001926938634626613,-0.0010537238735210753,-0.0005226643217561403,-0.0005070348163891954,0.0001848022846364793,-0.001485506429206047,0.0,0.0,0.0,0.0,0.0,0.0,0.0,6.457772069914935e-05,-7.655803318423748e-05,-1.30373397051603e-05,0.0002785158993905412,-0.00014284677246009791,4.76837158203125e-06,7.125606750202351e-07,0.000783142235414074,0.0001926938634626613,0.0010537238735210753,0.0005226643217561403,0.0005070348163891954,-0.0001848022846364793,0.001485506429206047,0.09352988004684448,11.901697158813477,-1.3425629138946533,-21.792634963989258,-0.4745383858680725,-2.5271639823913574,0.17337362468242645,0
46,0.22499775886535645,-0.12130087614059448,-11.925500869750977,1.2671844959259033,21.741060256958008,0.4626365303993225,2.5271639823913574,-0.22098104655742645,0.0,0.0,0.0,0.0,0.0,0.0,0.0,-0.12737380328367276,0.4213980223646821,0.1007711348297162,0.4743024758049642,-0.07390756375975255,0.12836210495581446,-0.22135210332735428,0.1728178360934661,-0.4874420183625138,-0.11145378102589726,-1.9466550858047578,0.13375007110834122,2.595545591407352,0.945249136598571,0.1728802376190821,-0.48752024683155326,-0.11147110072896137,-1.9463801863486305,0.1336059019074957,2.595550359778934,0.9452445589611904,0.000113427921589895,0.00019752859331260096,0.0011917606291361614,0.000760159718598247,-0.00017407686688942464,-3.364681760723386e-05,0.0005465829657963412,0.0,0.0,0.0,0.0,0.0,0.0,0.0,6.240152561601264e-05,-7.822846903948744e-05,-1.7319703064108682e-05,0.0002748994561272422,-0.0001441692008455342,4.76837158203125e-06,-4.577637380598354e-06,-0.000113427921589895,-0.00019752859331260096,-0.0011917606291361614,-0.000760159718598247,0.00017407686688942464,3.364681760723386e-05,-0.0005465829657963412,0.12130087614059448,11.925500869750977,-1.2671844959259033,-21.741060256958008,-0.4626365303993225,-2.5271639823913574,0.22098104655742645,0
47,0.2299959659576416,-0.12130087614059448,-11.925500869750977,1.2671844959259033,21.741060256958008,0.4626365303993225,2.5271639823913574,-0.22098104655742645,0.0,0.0,0.0,0.0,0.0,0.0,0.0,-0.12737380328367276,0.4213980223646821,0.1007711348297162,0.4743024758049642,-0.07390756375975255,0.12836210495581446,-0.22135210332735428,0.1728178360934661,-0.4874420183625138,-0.11145378102589726,-1.9466550858047578,0.13375007110834122,2.595545591407352,0.945249136598571,0.1728802376190821,-0.48752024683155326,-0.11147110072896137,-1.9463801863486305,0.1336059019074957,2.595550359778934,0.9452445589611904,0.000113427921589895,0.00019752859331260096,0.0011917606291361614,0.000760159718598247,-0.00017407686688942464,-3.364681760723386e-05,0.0005465829657963412,0.0,0.0,0.0,0.0,0.0,0.0,0.0,6.240152561601264e-05,-7.822846903948744e-05,-1.7319703064108682e-05,0.0002748994561272422,-0.0001441692008455342,4.76837158203125e-06,-4.577637380598354e-06,-0.000113427921589895,-0.00019752859331260096,-0.0011917606291361614,-0.000760159718598247,0.00017407686688942464,3.364681760723386e-05,-0.0005465829657963412,0.12130087614059448,11.925500869750977,-1.2671844959259033,-21.741060256958008,-0.4626365303993225,-2.5271639823913574,0.22098104655742645,0
48,0.23504328727722168,-0.09352988004684448,-11.925500869750977,1.3147919178009033,21.741060256958008,0.4507346749305725,2.5271639823913574,-0.22098104655742645,0.0,0.0,0.0,0.0,0.0,0.0,0.0,-0.12137205092643533,0.42447425997590427,0.10702553000358277,0.4723068688759623,-0.07411430751432135,0.12745289774478655,-0.22056837242615004,0.1728158931932956,-0.4874420183625138,-0.1114582220694832,-1.9466550829703508,0.1337481947541237,2.595545591407352,0.9452491365985738,0.1728802376190821,-0.48752024683155326,-0.11147110072896137,-1.9463801863486305,0.1336059019074957,2.595550359778934,0.9452445589611904,-0.0006781851915579683,3.3169253255615474e-07,0.0004589034638474959,0.000569164584635432,0.0002908164963193588,-1.161197859429145e-05,0.0008022791929248762,0.0,0.0,0.0,0.0,0.0,0.0,0.0,6.434442578651112e-05,-7.822846903948744e-05,-1.287865947816047e-05,0.0002748966217203108,-0.000142292846628006,4.76837158203125e-06,-4.5776373833739115e-06,0.0006781851915579683,-3.3169253255615474e-07,-0.0004589034638474959,-0.000569164584635432,-0.0002908164963193588,1.161197859429145e-05,-0.0008022791929248762,0.09352988004684448,11.925500869750977,-1.3147919178009033,-21.741060256958008,-0.4507346749305725,-2.5271639823913574,0.22098104655742645,0
49,0.23504328727722168,-0.09352988004684448,-11.925500869750977,1.3147919178009033,21.741060256958008,0.4507346749305725,2.5271639823913574,-0.22098104655742645,0.0,0.0,0.0,0.0,0.0,0.0,0.0,-0.12137205092643533,0.42447425997590427,0.10702553000358277,0.4723068688759623,-0.07411430751432135,0.12745289774478655,-0.22056837242615004,0.1728158931932956,-0.4874420183625138,-0.1114582220694832,-1.9466550829703508,0.1337481947541237,2.595545591407352,0.9452491365985738,0.1728802376190821,-0.48752024683155326,-0.11147110072896137,-1.9463801863486305,0.1336059019074957,2.595550359778934,0.9452445589611904,-0.0006781851915579683,3.3169253255615474e-07,0.0004589034638474959,0.000569164584635432,0.0002908164963193588,-1.161197859429145e-05,0.0008022791929248762,0.0,0.0,0.0,0.0,0.0,0.0,0.0,6.434442578651112e-05,-7.822846903948744e-05,-1.287865947816047e-05,0.0002748966217203108,-0.000142292846628006,4.76837158203125e-06,-4.5776373833739115e-06,0.0006781851915579683,-3.3169253255615474e-07,-0.0004589034638474959,-0.000569164584635432,-0.0002908164963193588,1.161197859429145e-05,-0.0008022791929248762,0.09352988004684448,11.925500869750977,-1.3147919178009033,-21.741060256958008,-0.4507346749305725,-2.5271639823913574,0.22098104655742645,0
50,0.2449955940246582,-0.17287558317184448,-11.873926162719727,1.2909882068634033,21.741060256958008,0.4626365303993225,2.5271639823913574,-0.16604940593242645,0.0,0.0,0.0,0.0,0.0,0.0,0.0,-0.12408121378600816,0.4334304624549685,0.10033459210355643,0.46489955960897844,-0.07434614357634604,0.1267686140154511,-0.22040533701760037,0.1728212267219499,-0.48744563764020016,-0.1114552322487472,-1.9466550829703348,0.133750071090284,2.595545591407352,0.9452430330829488,0.1728802376190821,-0.48752024683155326,-0.11147110072896137,-1.9463801863486305,0.1336059019074957,2.595550359778934,0.9452445589611904,0.0008373697107400508,-0.0006898998999604148,0.0001680424522238099,0.0002444417072395843,-0.0001837345455367249,6.727201087982565e-05,-0.0015477984078323436,0.0,0.0,0.0,0.0,0.0,0.0,0.0,5.901089713220009e-05,-7.460919135310329e-05,-1.5868480214162317e-05,0.0002748966217043236,-0.0001441691827883118,4.76837158203125e-06,1.525878241648293e-06,-0.0008373697107400508,0.0006898998999604148,-0.0001680424522238099,-0.0002444417072395843,0.0001837345455367249,-6.727201087982565e-05,0.0015477984078323436,0.17287558317184448,11.873926162719727,-1.2909882068634033,-21.741060256958008,-0.4626365303993225,-2.5271639823913574,0.16604940593242645,0
51,0.24999403953552246,-0.17287558317184448,-11.873926162719727,1.2909882068634033,21.741060256958008,0.4626365303993225,2.5271639823913574,-0.16604940593242645,0.0,0.0,0.0,0.0,0.0,0.0,0.0,-0.12408121378600816,0.4334304624549685,0.10033459210355643,0.46489955960897844,-0.07434614357634604,0.1267686140154511,-0.22040533701760037,0.1728212267219499,-0.48744563764020016,-0.1114552322487472,-1.9466550829703348,0.133750071090284,2.595545591407352,0.9452430330829488,0.1728802376190821,-0.48752024683155326,-0.11147110072896137,-1.9463801863486305,0.1336059019074957,2.595550359778934,0.9452445589611904,0.0008373697107400508,-0.0006898998999604148,0.0001680424522238099,0.0002444417072395843,-0.0001837345455367249,6.727201087982565e-05,-0.0015477984078323436,0.0,0.0,0.0,0.0,0.0,0.0,0.0,5.901089713220009e-05,-7.460919135310329e-05,-1.5868480214162317e-05,0.0002748966217043236,-0.0001441691827883118,4.76837158203125e-06,1.525878241648293e-06,-0.0008373697107400508,0.0006898998999604148,-0.0001680424522238099,-0.0002444417072395843,0.0001837345455367249,-6.727201087982565e-05,0.0015477984078323436,0.17287558317184448,11.873926162719727,-1.2909882068634033,-21.741060256958008,-0.4626365303993225,-2.5271639823913574,0.16604940593242645,0
52,0.25540590286254883,-0.17287558317184448,-11.873926162719727,1.2909882068634033,21.768831253051758,0.4626365303993225,2.5207552909851074,-0.23471395671367645,0.0,0.0,0.0,0.0,0.0,0.0,0.0,-0.12878910821554637,0.428183494423456,0.10043956076731844,0.4683534697732258,-0.07458472901284889,0.12759354633287656,-0.2196193068589619,0.17282146293162529,-0.48744563764020016,-0.1114551659866621,-1.9466570318121659,0.1337500711083411,2.595546303484175,0.94525066247748,0.1728802376190821,-0.48752024683155326,-0.11147110072896137,-1.9463801863486305,0.1336059019074957,2.595550359778934,0.9452445589611904,0.0005754211154238467,-0.0004372407550129993,-0.000349151762416856,-0.0001449807707885065,-0.00021894762896298018,0.0002520608958055822,0.0016158549737025267,0.0,0.0,0.0,0.0,0.0,0.0,0.0,5.8774687456825125e-05,-7.460919135310329e-05,-1.593474229927283e-05,0.0002768454635353468,-0.00014416920084542317,4.056294759191559e-06,-6.103516289601707e-06,-0.0005754211154238467,0.0004372407550129993,0.000349151762416856,0.0001449807707885065,0.00021894762896298018,-0.0002520608958055822,-0.0016158549737025267,0.17287558317184448,11.873926162719727,-1.2909882068634033,-21.768831253051758,-0.4626365303993225,-2.5207552909851074,0.23471395671367645,0
53,0.2599947452545166,-0.17287558317184448,-11.873926162719727,1.2909882068634033,21.768831253051758,0.4626365303993225,2.5207552909851074,-0.23471395671367645,0.0,0.0,0.0,0.0,0.0,0.0,0.0,-0.12878910821554637,0.428183494423456,0.10043956076731844,0.4683534697732258,-0.07458472901284889,0.12759354633287656,-0.2196193068589619,0.17282146293162529,-0.48744563764020016,-0.1114551659866621,-1.9466570318121659,0.1337500711083411,2.595546303484175,0.94525066247748,0.1728802376190821,-0.48752024683155326,-0.11147110072896137,-1.9463801863486305,0.1336059019074957,2.595550359778934,0.9452445589611904,0.0005754211154238467,-0.0004372407550129993,-0.000349151762416856,-0.0001449807707885065,-0.00021894762896298018,0.0002520608958055822,0.0016158549737025267,0.0,0.0,0.0,0.0,0.0,0.0,0.0,5.8774687456825125e-05,-7.460919135310329e-05,-1.593474229927283e-05,0.0002768454635353468,-0.00014416920084542317,4.056294759191559e-06,-6.103516289601707e-06,-0.0005754211154238467,0.0004372407550129993,0.000349151762416856,0.0001449807707885065,0.00021894762896298018,-0.0002520608958055822,-0.0016158549737025267,0.17287558317184448,11.873926162719727,-1.2909882068634033,-21.768831253051758,-0.4626365303993225,-2.5207552909851074,0.23471395671367645,0
54,0.2649955749511719,-0.12130087614059448,-11.901697158813477,1.2909882068634033,21.792634963989258,0.4626365303993225,2.5143465995788574,-0.22830526530742645,0.0,0.0,0.0,0.0,0.0,0.0,0.0,-0.1279625891025759,0.42373313910407107,0.1083271830258448,0.4713596330063193,-0.07513004255128873,0.12754267743626768,-0.2184736137966473,0.1728177370165006,-0.487443688798369,-0.1114545336803228,-1.946658702248021,0.1337500711083412,2.5955470155609977,0.9452499504006571,0.1728802376190821,-0.48752024683155326,-0.11147110072896137,-1.9463801863486305,0.1336059019074957,2.595550359778934,0.9452445589611904,-0.00010734898267422978,2.9294156505643895e-05,0.0001601809661466363,-0.0007164537298592552,-6.14915626987611e-05,0.000563259495386279,0.0003853608270101392,0.0,0.0,0.0,0.0,0.0,0.0,0.0,6.250060258150558e-05,-7.655803318423748e-05,-1.656704863856051e-05,0.0002785158993905412,-0.00014416920084550644,3.3442179363518676e-06,-5.3914394666509935e-06,0.00010734898267422978,-2.9294156505643895e-05,-0.0001601809661466363,0.0007164537298592552,6.14915626987611e-05,-0.000563259495386279,-0.0003853608270101392,0.12130087614059448,11.901697158813477,-1.2909882068634033,-21.792634963989258,-0.4626365303993225,-2.5143465995788574,0.22830526530742645,0
55,0.26999402046203613,-0.12130087614059448,-11.901697158813477,1.2909882068634033,21.792634963989258,0.4626365303993225,2.5143465995788574,-0.22830526530742645,0.0,0.0,0.0,0.0,0.0,0.0,0.0,-0.1279625891025759,0.42373313910407107,0.1083271830258448,0.4713596330063193,-0.07513004255128873,0.12754267743626768,-0.2184736137966473,0.1728177370165006,-0.487443688798369,-0.1114545336803228,-1.946658702248021,0.1337500711083412,2.5955470155609977,0.9452499504006571,0.1728802376190821,-0.48752024683155326,-0.11147110072896137,-1.9463801863486305,0.1336059019074957,2.595550359778934,0.9452445589611904,-0.00010734898267422978,2.9294156505643895e-05,0.0001601809661466363,-0.0007164537298592552,-6.14915626987611e-05,0.000563259495386279,0.0003853608270101392,0.0,0.0,0.0,0.0,0.0,0.0,0.0,6.250060258150558e-05,-7.655803318423748e-05,-1.656704863856051e-05,0.0002785158993905412,-0.00014416920084550644,3.3442179363518676e-06,-5.3914394666509935e-06,0.00010734898267422978,-2.9294156505643895e-05,-0.0001601809661466363,0.0007164537298592552,6.14915626987611e-05,-0.000563259495386279,-0.0003853608270101392,0.12130087614059448,11.901697158813477,-1.2909882068634033,-21.792634963989258,-0.4626365303993225,-2.5143465995788574,0.22830526530742645,0
56,0.275010347366333,-0.14510458707809448,-11.925500869750977,1.3147919178009033,21.792634963989258,0.4626365303993225,2.5335726737976074,-0.23471395671367645,0.0,0.0,0.0,0.0,0.0,0.0,0.0,-0.12512070340503173,0.42980801900408544,0.10655533338832165,0.4660534401085874,-0.07542593316847813,0.1265812752004428,-0.21961974832984132,0.17281736291832991,-0.4874420183625138,-0.11145616623347224,-1.946658702248021,0.13375018958177096,2.595544879330529,0.94525066247748,0.1728802376190821,-0.48752024683155326,-0.11147110072896137,-1.9463801863486305,0.1336059019074957,2.595550359778934,0.9452445589611904,0.0008742308623363286,0.00044727806938020943,-0.0004292388062805064,-0.0012220428268537417,-0.00010633737699360003,-0.0003937612684587006,0.001121929406853505,0.0,0.0,0.0,0.0,0.0,0.0,0.0,6.287470075219681e-05,-7.822846903948744e-05,-1.4934495489130062e-05,0.0002785158993905412,-0.00014428767427526745,5.480448404870941e-06,-6.103516289601707e-06,-0.0008742308623363286,-0.00044727806938020943,0.0004292388062805064,0.0012220428268537417,0.00010633737699360003,0.0003937612684587006,-0.001121929406853505,0.14510458707809448,11.925500869750977,-1.3147919178009033,-21.792634963989258,-0.4626365303993225,-2.5335726737976074,0.23471395671367645,0
57,0.2800021171569824,-0.14510458707809448,-11.925500869750977,1.3147919178009033,21.792634963989258,0.4626365303993225,2.5335726737976074,-0.23471395671367645,0.0,0.0,0.0,0.0,0.0,0.0,0.0,-0.12512070340503173,0.42980801900408544,0.10655533338832165,0.4660534401085874,-0.07542593316847813,0.1265812752004428,-0.21961974832984132,0.17281736291832991,-0.4874420183625138,-0.11145616623347224,-1.946658702248021,0.13375018958177096,2.595544879330529,0.94525066247748,0.1728802376190821,-0.48752024683155326,-0.11147110072896137,-1.9463801863486305,0.1336059019074957,2.595550359778934,0.9452445589611904,0.0008742308623363286,0.00044727806938020943,-0.0004292388062805064,-0.0012220428268537417,-0.00010633737699360003,-0.0003937612684587006,0.001121929406853505,0.0,0.0,0.0,0.0,0.0,0.0,0.0,6.287470075219681e-05,-7.822846903948744e-05,-1.4934495489130062e-05,0.0002785158993905412,-0.00014428767427526745,5.480448404870941e-06,-6.103516289601707e-06,-0.0008742308623363286,-0.00044727806938020943,0.0004292388062805064,0.0012220428268537417,0.00010633737699360003,0.0003937612684587006,-0.001121929406853505,0.14510458707809448,11.925500869750977,-1.3147919178009033,-21.792634963989258,-0.4626365303993225,-2.5335726737976074,0.23471395671367645,0
58,0.2866652011871338,-0.12130087614059448,-11.873926162719727,1.2909882068634033,21.768831253051758,0.4507346749305725,2.5335726737976074,-0.15964071452617645,0.0,0.0,0.0,0.0,0.0,0.0,0.0,-0.13063357344248225,0.4342169811601349,0.09530451645335547,0.46479432683441424,-0.07474668752979652,0.12628416650670374,-0.21966969857000185,0.1728157187161936,-0.48744563764020016,-0.11145658367295966,-1.9466570318121659,0.1337513935373954,2.595544879330529,0.9452423210061258,0.1728802376190821,-0.48752024683155326,-0.11147110072896137,-1.9463801863486305,0.1336059019074957,2.595550359778934,0.9452445589611904,-0.0008381521460025596,-0.0005553138133695096,-7.950389513295603e-05,-0.0003246325976134473,0.0001930459124627688,-0.000264300921256671,-0.0016426163346128337,0.0,0.0,0.0,0.0,0.0,0.0,0.0,6.45189028884996e-05,-7.460919135310329e-05,-1.4517056001708828e-05,0.0002768454635353468,-0.00014549162989971332,5.480448404870941e-06,2.2379550645990065e-06,0.0008381521460025596,0.0005553138133695096,7.950389513295603e-05,0.0003246325976134473,-0.0001930459124627688,0.000264300921256671,0.0016426163346128337,0.12130087614059448,11.873926162719727,-1.2909882068634033,-21.768831253051758,-0.4507346749305725,-2.5335726737976074,0.15964071452617645,0
59,0.28995180130004883,-0.12130087614059448,-11.873926162719727,1.2909882068634033,21.768831253051758,0.4507346749305725,2.5335726737976074,-0.15964071452617645,0.0,0.0,0.0,0.0,0.0,0.0,0.0,-0.13063357344248225,0.4342169811601349,0.09530451645335547,0.46479432683441424,-0.07474668752979652,0.12628416650670374,-0.21966969857000185,0.1728157187161936,-0.48744563764020016,-0.11145658367295966,-1.9466570318121659,0.1337513935373954,2.595544879330529,0.9452423210061258,0.1728802376190821,-0.48752024683155326,-0.11147110072896137,-1.9463801863486305,0.1336059019074957,2.595550359778934,0.9452445589611904,-0.0008381521460025596,-0.0005553138133695096,-7.950389513295603e-05,-0.0003246325976134473,0.0001930459124627688,-0.000264300921256671,-0.0016426163346128337,0.0,0.0,0.0,0.0,0.0,0.0,0.0,6.45189028884996e-05,-7.460919135310329e-05,-1.4517056001708828e-05,0.0002768454635353468,-0.00014549162989971332,5.480448404870941e-06,2.2379550645990065e-06,0.0008381521460025596,0.0005553138133695096,7.950389513295603e-05,0.0003246325976134473,-0.0001930459124627688,0.000264300921256671,0.0016426163346128337,0.12130087614059448,11.873926162719727,-1.2909882068634033,-21.768831253051758,-0.4507346749305725,-2.5335726737976074,0.15964071452617645,0
60,0.294994592666626,-0.12130087614059448,-11.873926162719727,1.2909882068634033,21.768831253051758,0.4507346749305725,2.5335726737976074,-0.15964071452617645,0.0,0.0,0.0,0.0,0.0,0.0,0.0,-0.13063357344248225,0.4342169811601349,0.09530451645335547,0.46479432683441424,-0.07474668752979652,0.12628416650670374,-0.21966969857000185,0.1728157187161936,-0.48744563764020016,-0.11145658367295966,-1.9466570318121659,0.1337513935373954,2.595544879330529,0.9452423210061258,0.1728802376190821,-0.48752024683155326,-0.11147110072896137,-1.9463801863486305,0.1336059019074957,2.595550359778934,0.9452445589611904,-0.0008381521460025596,-0.0005553138133695096,-7.950389513295603e-05,-0.0003246325976134473,0.0001930459124627688,-0.000264300921256671,-0.0016426163346128337,0.0,0.0,0.0,0.0,0.0,0.0,0.0,6.45189028884996e-05,-7.460919135310329e-05,-1.4517056001708828e-05,0.0002768454635353468,-0.00014549162989971332,5.480448404870941e-06,2.2379550645990065e-06,0.0008381521460025596,0.0005553138133695096,7.950389513295603e-05,0.0003246325976134473,-0.0001930459124627688,0.000264300921256671,0.0016426163346128337,0.12130087614059448,11.873926162719727,-1.2909882068634033,-21.768831253051758,-0.4507346749305725,-2.5335726737976074,0.15964071452617645,0
61,0.29999494552612305,-0.12130087614059448,-11.873926162719727,1.2909882068634033,21.768831253051758,0.4507346749305725,2.5335726737976074,-0.15964071452617645,0.0,0.0,0.0,0.0,0.0,0.0,0.0,-0.13063357344248225,0.4342169811601349,0.09530451645335547,0.46479432683441424,-0.07474668752979652,0.12628416650670374,-0.21966969857000185,0.1728157187161936,-0.48744563764020016,-0.11145658367295966,-1.9466570318121659,0.1337513935373954,2.595544879330529,0.9452423210061258,0.1728802376190821,-0.48752024683155326,-0.11147110072896137,-1.9463801863486305,0.1336059019074957,2.595550359778934,0.9452445589611904,-0.0008381521460025596,-0.0005553138133695096,-7.950389513295603e-05,-0.0003246325976134473,0.0001930459124627688,-0.000264300921256671,-0.0016426163346128337,0.0,0.0,0.0,0.0,0.0,0.0,0.0,6.45189028884996e-05,-7.460919135310329e-05,-1.4517056001708828e-05,0.0002768454635353468,-0.00014549162989971332,5.480448404870941e-06,2.2379550645990065e-06,0.0008381521460025596,0.0005553138133695096,7.950389513295603e-05,0.0003246325976134473,-0.0001930459124627688,0.000264300921256671,0.0016426163346128337,0.12130087614059448,11.873926162719727,-1.2909882068634033,-21.768831253051758,-0.4507346749305725,-2.5335726737976074,0.15964071452617645,0
62,0.3049964904785156,-0.09352988004684448,-11.925500869750977,1.2909882068634033,21.717256546020508,0.4690452218055725,2.5207552909851074,-0.18710653483867645,0.0,0.0,0.0,0.0,0.0,0.0,0.0,-0.12955746304895807,0.4247535586175382,0.1032421058598616,0.470394633958825,-0.07511404079333159,0.12687830662554386,-0.21873957143082526,0.17281589318134294,-0.4874420183625138,-0.1114545053965852,-1.9466534125344794,0.1337493590315183,2.595546303484175,0.9452453727639384,0.1728802376190821,-0.48752024683155326,-0.11147110072896137,-1.9463801863486305,0.1336059019074957,2.595550359778934,0.9452445589611904,-0.0009394527286264216,0.00045074560468501247,-6.571033513830581e-05,0.001060275526507361,-0.00017630349814775535,0.00022590621092425877,0.00013352600945593963,0.0,0.0,0.0,0.0,0.0,0.0,0.0,6.43444377391722e-05,-7.822846903948744e-05,-1.6595332376162508e-05,0.0002732261858489071,-0.00014345712402261124,4.056294759191559e-06,-8.138027479676069e-07,0.0009394527286264216,-0.00045074560468501247,6.571033513830581e-05,-0.001060275526507361,0.00017630349814775535,-0.00022590621092425877,-0.00013352600945593963,0.09352988004684448,11.925500869750977,-1.2909882068634033,-21.717256546020508,-0.4690452218055725,-2.5207552909851074,0.18710653483867645,0
63,0.3099966049194336,-0.09352988004684448,-11.925500869750977,1.2909882068634033,21.717256546020508,0.4690452218055725,2.5207552909851074,-0.18710653483867645,0.0,0.0,0.0,0.0,0.0,0.0,0.0,-0.12955746304895807,0.4247535586175382,0.1032421058598616,0.470394633958825,-0.07511404079333159,0.12687830662554386,-0.21873957143082526,0.17281589318134294,-0.4874420183625138,-0.1114545053965852,-1.9466534125344794,0.1337493590315183,2.595546303484175,0.9452453727639384,0.1728802376190821,-0.48752024683155326,-0.11147110072896137,-1.9463801863486305,0.1336059019074957,2.595550359778934,0.9452445589611904,-0.0009394527286264216,0.00045074560468501247,-6.571033513830581e-05,0.001060275526507361,-0.00017630349814775535,0.00022590621092425877,0.00013352600945593963,0.0,0.0,0.0,0.0,0.0,0.0,0.0,6.43444377391722e-05,-7.822846903948744e-05,-1.6595332376162508e-05,0.0002732261858489071,-0.00014345712402261124,4.056294759191559e-06,-8.138027479676069e-07,0.0009394527286264216,-0.00045074560468501247,6.571033513830581e-05,-0.001060275526507361,0.00017630349814775535,-0.00022590621092425877,-0.00013352600945593963,0.09352988004684448,11.925500869750977,-1.2909882068634033,-21.717256546020508,-0.4690452218055725,-2.5207552909851074,0.18710653483867645,0
64,0.31499385833740234,-0.09352988004684448,-11.901697158813477,1.3147919178009033,21.741060256958008,0.4571433663368225,2.5207552909851074,-0.24844686686992645,0.0,0.0,0.0,0.0,0.0,0.0,0.0,-0.1267012987323986,0.4263556253562909,0.10517843128734965,0.46903082378463407,-0.0744134396755466,0.12723171951903517,-0.21853253773811934,0.17281565979050773,-0.487443688798369,-0.11145825374800507,-1.9466550829703348,0.1337506814599037,2.595546303484175,0.9452521883563862,0.1728802376190821,-0.48752024683155326,-0.11147110072896137,-1.9463801863486305,0.1336059019074957,2.595550359778934,0.9452445589611904,-0.0006857936106545133,-9.112232043993697e-05,-0.00044176598443840763,0.0007097304743670846,0.0002504812576699581,0.00015339446688004857,0.0018243388279839338,0.0,0.0,0.0,0.0,0.0,0.0,0.0,6.457782857438588e-05,-7.655803318423748e-05,-1.2846980956299214e-05,0.0002748966217043236,-0.00014477955240801976,4.056294759191559e-06,-7.629395195829503e-06,0.0006857936106545133,9.112232043993697e-05,0.00044176598443840763,-0.0007097304743670846,-0.0002504812576699581,-0.00015339446688004857,-0.0018243388279839338,0.09352988004684448,11.901697158813477,-1.3147919178009033,-21.741060256958008,-0.4571433663368225,-2.5207552909851074,0.24844686686992645,0
65,0.31999683380126953,-0.09352988004684448,-11.901697158813477,1.3147919178009033,21.741060256958008,0.4571433663368225,2.5207552909851074,-0.24844686686992645,0.0,0.0,0.0,0.0,0.0,0.0,0.0,-0.1267012987323986,0.4263556253562909,0.10517843128734965,0.46903082378463407,-0.0744134396755466,0.12723171951903517,-0.21853253773811934,0.17281565979050773,-0.487443688798369,-0.11145825374800507,-1.9466550829703348,0.1337506814599037,2.595546303484175,0.9452521883563862,0.1728802376190821,-0.48752024683155326,-0.11147110072896137,-1.9463801863486305,0.1336059019074957,2.595550359778934,0.9452445589611904,-0.0006857936106545133,-9.112232043993697e-05,-0.00044176598443840763,0.0007097304743670846,0.0002504812576699581,0.00015339446688004857,0.0018243388279839338,0.0,0.0,0.0,0.0,0.0,0.0,0.0,6.457782857438588e-05,-7.655803318423748e-05,-1.2846980956299214e-05,0.0002748966217043236,-0.00014477955240801976,4.056294759191559e-06,-7.629395195829503e-06,0.0006857936106545133,9.112232043993697e-05,0.00044176598443840763,-0.0007097304743670846,-0.0002504812576699581,-0.00015339446688004857,-0.0018243388279839338,0.09352988004684448,11.901697158813477,-1.3147919178009033,-21.741060256958008,-0.4571433663368225,-2.5207552909851074,0.24844686686992645,0
66,0.3249948024749756,-0.14510458707809448,-11.901697158813477,1.3425629138946533,21.741060256958008,0.4571433663368225,2.5271639823913574,-0.23471395671367645,0.0,0.0,0.0,0.0,0.0,0.0,0.0,-0.12848132276016833,0.435216639880344,0.09937560476937748,0.46287587264219604,-0.07402113090894641,0.12641419592311678,-0.21707372194655283,0.17281857050588223,-0.487443688798369,-0.11145885152661245,-1.9466550829703348,0.1337506814599037,2.595545591407352,0.94525066247748,0.1728802376190821,-0.48752024683155326,-0.11147110072896137,-1.9463801863486305,0.1336059019074957,2.595550359778934,0.9452445589611904,0.0005180547786866656,0.00015440389618569562,-0.0013248682359000067,0.00027900144899447086,0.00010801312715440046,7.260041371269063e-05,0.0006953917161109151,0.0,0.0,0.0,0.0,0.0,0.0,0.0,6.166711319988138e-05,-7.655803318423748e-05,-1.224920234892124e-05,0.0002748966217043236,-0.00014477955240801976,4.76837158203125e-06,-6.103516289601707e-06,-0.0005180547786866656,-0.00015440389618569562,0.0013248682359000067,-0.00027900144899447086,-0.00010801312715440046,-7.260041371269063e-05,-0.0006953917161109151,0.14510458707809448,11.901697158813477,-1.3425629138946533,-21.741060256958008,-0.4571433663368225,-2.5271639823913574,0.23471395671367645,0
67,0.3302886486053467,-0.14510458707809448,-11.901697158813477,1.3425629138946533,21.741060256958008,0.4571433663368225,2.5271639823913574,-0.23471395671367645,0.0,0.0,0.0,0.0,0.0,0.0,0.0,-0.12848132276016833,0.435216639880344,0.09937560476937748,0.46287587264219604,-0.07402113090894641,0.12641419592311678,-0.21707372194655283,0.17281857050588223,-0.487443688798369,-0.11145885152661245,-1.9466550829703348,0.1337506814599037,2.595545591407352,0.94525066247748,0.1728802376190821,-0.48752024683155326,-0.11147110072896137,-1.9463801863486305,0.1336059019074957,2.595550359778934,0.9452445589611904,0.0005180547786866656,0.00015440389618569562,-0.0013248682359000067,0.00027900144899447086,0.00010801312715440046,7.260041371269063e-05,0.0006953917161109151,0.0,0.0,0.0,0.0,0.0,0.0,0.0,6.166711319988138e-05,-7.655803318423748e-05,-1.224920234892124e-05,0.0002748966217043236,-0.00014477955240801976,4.76837158203125e-06,-6.103516289601707e-06,-0.0005180547786866656,-0.00015440389618569562,0.0013248682359000067,-0.00027900144899447086,-0.00010801312715440046,-7.260041371269063e-05,-0.0006953917161109151,0.14510458707809448,11.901697158813477,-1.3425629138946533,-21.741060256958008,-0.4571433663368225,-2.5271639823913574,0.23471395671367645,0
68,0.3350362777709961,-0.09352988004684448,-11.873926162719727,1.2433807849884033,21.792634963989258,0.4571433663368225,2.5399813652038574,-0.22098104655742645,0.0,0.0,0.0,0.0,0.0,0.0,0.0,-0.12408175159636843,0.4077754016495149,0.10731931716353105,0.48152601200337264,-0.07470794762837747,0.13070619440370967,-0.2182583746248386,0.17281487155113662,-0.48744563764020016,-0.11145347967656016,-1.946658702248021,0.1337506814599037,2.5955441672537063,0.9452491365985738,0.1728802376190821,-0.48752024683155326,-0.11147110072896137,-1.9463801863486305,0.1336059019074957,2.595550359778934,0.9452445589611904,3.732399946818053e-05,-0.0010930691001573764,0.0015470802773937897,-0.0008809323180602913,0.0001866778237893866,-0.0017702645924452883,-7.19406565042182e-05,0.0,0.0,0.0,0.0,0.0,0.0,0.0,6.536606794549371e-05,-7.460919135310329e-05,-1.762105240120382e-05,0.0002785158993905412,-0.00014477955240801976,6.192525227710632e-06,-4.5776373833739115e-06,-3.732399946818053e-05,0.0010930691001573764,-0.0015470802773937897,0.0008809323180602913,-0.0001866778237893866,0.0017702645924452883,7.19406565042182e-05,0.09352988004684448,11.873926162719727,-1.2433807849884033,-21.792634963989258,-0.4571433663368225,-2.5399813652038574,0.22098104655742645,0
69,0.3399472236633301,-0.09352988004684448,-11.873926162719727,1.2433807849884033,21.792634963989258,0.4571433663368225,2.5399813652038574,-0.22098104655742645,0.0,0.0,0.0,0.0,0.0,0.0,0.0,-0.12408175159636843,0.4077754016495149,0.10731931716353105,0.48152601200337264,-0.07470794762837747,0.13070619440370967,-0.2182583746248386,0.17281487155113662,-0.48744563764020016,-0.11145347967656016,-1.946658702248021,0.1337506814599037,2.5955441672537063,0.9452491365985738,0.1728802376190821,-0.48752024683155326,-0.11147110072896137,-1.9463801863486305,0.1336059019074957,2.595550359778934,0.9452445589611904,3.732399946818053e-05,-0.0010930691001573764,0.0015470802773937897,-0.0008809323180602913,0.0001866778237893866,-0.0017702645924452883,-7.19406565042182e-05,0.0,0.0,0.0,0.0,0.0,0.0,0.0,6.536606794549371e-05,-7.460919135310329e-05,-1.762105240120382e-05,0.0002785158993905412,-0.00014477955240801976,6.192525227710632e-06,-4.5776373833739115e-06,-3.732399946818053e-05,0.0010930691001573764,-0.0015470802773937897,0.0008809323180602913,-0.0001866778237893866,0.0017702645924452883,7.19406565042182e-05,0.09352988004684448,11.873926162719727,-1.2433807849884033,-21.792634963989258,-0.4571433663368225,-2.5399813652038574,0.22098104655742645,0
70,0.3449568748474121,-0.14510458707809448,-11.901697158813477,1.2909882068634033,21.768831253051758,0.4690452218055725,2.5335726737976074,-0.23471395671367645,0.0,0.0,0.0,0.0,0.0,0.0,0.0,-0.12559617569674636,0.42198182494354175,0.10047875267820457,0.4698771926205504,-0.07385504304282708,0.1279749931297175,-0.22012193949999842,0.172817389158416,-0.487443688798369,-0.11145468925814911,-1.9466570319171446,0.1337493590315183,2.595544879330529,0.94525066247748,0.1728802376190821,-0.48752024683155326,-0.11147110072896137,-1.9463801863486305,0.1336059019074957,2.595550359778934,0.9452445589611904,0.00026456254681555646,-0.0004654775220264805,0.00022066121943742432,-0.00021174344354483833,-0.00030389963102944495,4.761949997531285e-05,0.0011408092484628384,0.0,0.0,0.0,0.0,0.0,0.0,0.0,6.28484606661206e-05,-7.655803318423748e-05,-1.6411470812258133e-05,0.0002768455685140392,-0.00014345712402261124,5.480448404870941e-06,-6.103516289601707e-06,-0.00026456254681555646,0.0004654775220264805,-0.00022066121943742432,0.00021174344354483833,0.00030389963102944495,-4.761949997531285e-05,-0.0011408092484628384,0.14510458707809448,11.901697158813477,-1.2909882068634033,-21.768831253051758,-0.4690452218055725,-2.5335726737976074,0.23471395671367645,0
71,0.34996533393859863,-0.14510458707809448,-11.901697158813477,1.2909882068634033,21.768831253051758,0.4690452218055725,2.5335726737976074,-0.23471395671367645,0.0,0.0,0.0,0.0,0.0,0.0,0.0,-0.12559617569674636,0.42198182494354175,0.10047875267820457,0.4698771926205504,-0.07385504304282708,0.1279749931297175,-0.22012193949999842,0.172817389158416,-0.487443688798369,-0.11145468925814911,-1.9466570319171446,0.1337493590315183,2.595544879330529,0.94525066247748,0.1728802376190821,-0.48752024683155326,-0.11147110072896137,-1.9463801863486305,0.1336059019074957,2.595550359778934,0.9452445589611904,0.00026456254681555646,-0.0004654775220264805,0.00022066121943742432,-0.00021174344354483833,-0.00030389963102944495,4.761949997531285e-05,0.0011408092484628384,0.0,0.0,0.0,0.0,0.0,0.0,0.0,6.28484606661206e-05,-7.655803318423748e-05,-1.6411470812258133e-05,0.0002768455685140392,-0.00014345712402261124,5.480448404870941e-06,-6.103516289601707e-06,-0.00026456254681555646,0.0004654775220264805,-0.00022066121943742432,0.00021174344354483833,0.00030389963102944495,-4.761949997531285e-05,-0.0011408092484628384,0.14510458707809448,11.901697158813477,-1.2909882068634033,-21.768831253051758,-0.4690452218055725,-2.5335726737976074,0.23471395671367645,0
72,0.35501694679260254,-0.12130087614059448,-11.850122451782227,1.2909882068634033,21.768831253051758,0.4626365303993225,2.5335726737976074,-0.21457235515117645,0.0,0.0,0.0,0.0,0.0,0.0,0.0,-0.1236938876746685,0.4216143425318332,0.10476327648973614,0.4702769873367254,-0.07389705108454148,0.12879978677709703,-0.21989513468749206,0.17281783586678318,-0.4874473080760554,-0.1114572692435488,-1.9466570318121665,0.13375007110834122,2.595544879330529,0.9452484243602453,0.1728802376190821,-0.48752024683155326,-0.11147110072896137,-1.9463801863486305,0.1336059019074957,2.595550359778934,0.9452445589611904,-0.00014303195536905563,-0.0015974426369421615,0.0003549405798604764,8.658687289660514e-05,-9.298030459034006e-05,-0.00013752991283104651,0.0005128847313757336,0.0,0.0,0.0,0.0,0.0,0.0,0.0,6.240175229893508e-05,-7.293875549785334e-05,-1.3831485412563183e-05,0.0002768454635360129,-0.0001441692008455342,5.480448404870941e-06,-3.865399054836516e-06,0.00014303195536905563,0.0015974426369421615,-0.0003549405798604764,-8.658687289660514e-05,9.298030459034006e-05,0.00013752991283104651,-0.0005128847313757336,0.12130087614059448,11.850122451782227,-1.2909882068634033,-21.768831253051758,-0.4626365303993225,-2.5335726737976074,0.21457235515117645,0
73,0.36002063751220703,-0.12130087614059448,-11.850122451782227,1.2909882068634033,21.768831253051758,0.4626365303993225,2.5335726737976074,-0.21457235515117645,0.0,0.0,0.0,0.0,0.0,0.0,0.0,-0.1236938876746685,0.4216143425318332,0.10476327648973614,0.4702769873367254,-0.07389705108454148,0.12879978677709703,-0.21989513468749206,0.17281783586678318,-0.4874473080760554,-0.1114572692435488,-1.9466570318121665,0.13375007110834122,2.595544879330529,0.9452484243602453,0.1728802376190821,-0.48752024683155326,-0.11147110072896137,-1.9463801863486305,0.1336059019074957,2.595550359778934,0.9452445589611904,-0.00014303195536905563,-0.0015974426369421615,0.0003549405798604764,8.658687289660514e-05,-9.298030459034006e-05,-0.00013752991283104651,0.0005128847313757336,0.0,0.0,0.0,0.0,0.0,0.0,0.0,6.240175229893508e-05,-7.293875549785334e-05,-1.3831485412563183e-05,0.0002768454635360129,-0.0001441692008455342,5.480448404870941e-06,-3.865399054836516e-06,0.00014303195536905563,0.0015974426369421615,-0.0003549405798604764,-8.658687289660514e-05,9.298030459034006e-05,0.00013752991283104651,-0.0005128847313757336,0.12130087614059448,11.850122451782227,-1.2909882068634033,-21.768831253051758,-0.4626365303993225,-2.5335726737976074,0.21457235515117645,0
74,0.36500096321105957,-0.12130087614059448,-11.925500869750977,1.2671844959259033,21.768831253051758,0.4626365303993225,2.5335726737976074,-0.18710653483867645,0.0,0.0,0.0,0.0,0.0,0.0,0.0,-0.12602733471836183,0.4288282562462634,0.10243182312688955,0.4661101617189607,-0.07393598693027294,0.129005746509509,-0.2194527309913991,0.1728178439792489,-0.4874420183625138,-0.11145285412648036,-1.9466570318121659,0.13375007110834122,2.595544879330529,0.9452453727639375,0.1728802376190821,-0.48752024683155326,-0.11147110072896137,-1.9463801863486305,0.1336059019074957,2.595550359778934,0.9452445589611904,-0.00025435589153551246,0.0005234513103217349,0.00037772543573863,-0.00013927457911905075,2.04491002411972e-06,7.253092145091123e-06,-0.0011791746603740127,0.0,0.0,0.0,0.0,0.0,0.0,0.0,6.239363983320811e-05,-7.822846903948744e-05,-1.8246602481009067e-05,0.0002768454635353468,-0.0001441692008455342,5.480448404870941e-06,-8.138027470794285e-07,0.00025435589153551246,-0.0005234513103217349,-0.00037772543573863,0.00013927457911905075,-2.04491002411972e-06,-7.253092145091123e-06,0.0011791746603740127,0.12130087614059448,11.925500869750977,-1.2671844959259033,-21.768831253051758,-0.4626365303993225,-2.5335726737976074,0.18710653483867645,0
75,0.3699967861175537,-0.12130087614059448,-11.925500869750977,1.2671844959259033,21.768831253051758,0.4626365303993225,2.5335726737976074,-0.18710653483867645,0.0,0.0,0.0,0.0,0.0,0.0,0.0,-0.12602733471836183,0.4288282562462634,0.10243182312688955,0.4661101617189607,-0.07393598693027294,0.129005746509509,-0.2194527309913991,0.1728178439792489,-0.4874420183625138,-0.11145285412648036,-1.9466570318121659,0.13375007110834122,2.595544879330529,0.9452453727639375,0.1728802376190821,-0.48752024683155326,-0.11147110072896137,-1.9463801863486305,0.1336059019074957,2.595550359778934,0.9452445589611904,-0.00025435589153551246,0.0005234513103217349,0.00037772543573863,-0.00013927457911905075,2.04491002411972e-06,7.253092145091123e-06,-0.0011791746603740127,0.0,0.0,0.0,0.0,0.0,0.0,0.0,6.239363983320811e-05,-7.822846903948744e-05,-1.8246602481009067e-05,0.0002768454635353468,-0.0001441692008455342,5.480448404870941e-06,-8.138027470794285e-07,0.00025435589153551246,-0.0005234513103217349,-0.00037772543573863,0.00013927457911905075,-2.04491002411972e-06,-7.253092145091123e-06,0.0011791746603740127,0.12130087614059448,11.925500869750977,-1.2671844959259033,-21.768831253051758,-0.4626365303993225,-2.5335726737976074,0.18710653483867645,0
76,0.37542295455932617,-0.09352988004684448,-11.925500869750977,1.2909882068634033,21.741060256958008,0.4507346749305725,2.5335726737976074,-0.24112264811992645,0.0,0.0,0.0,0.0,0.0,0.0,0.0,-0.12602853776793616,0.42095787010193736,0.10451436351300553,0.4704439097192389,-0.07384475746855218,0.13035181112454178,-0.219458335260904,0.17281565989852563,-0.4874420183625138,-0.11145539314657832,-1.9466550829703348,0.1337513940242716,2.595544879330529,0.945251374554303,0.1728802376190821,-0.48752024683155326,-0.11147110072896137,-1.9463801863486305,0.1336059019074957,2.595550359778934,0.9452445589611904,-0.0010338805495089282,0.00011588201607557936,-0.00012112301461187254,0.0002159132244473499,0.00038241201156354976,-1.87191547447734e-05,0.0017770369294798573,0.0,0.0,0.0,0.0,0.0,0.0,0.0,6.45777205564857e-05,-7.822846903948744e-05,-1.5707582383048257e-05,0.0002748966217043236,-0.00014549211677591933,5.480448404870941e-06,-6.8155931125524205e-06,0.0010338805495089282,-0.00011588201607557936,0.00012112301461187254,-0.0002159132244473499,-0.00038241201156354976,1.87191547447734e-05,-0.0017770369294798573,0.09352988004684448,11.925500869750977,-1.2909882068634033,-21.741060256958008,-0.4507346749305725,-2.5335726737976074,0.24112264811992645,0
77,0.37999653816223145,-0.09352988004684448,-11.925500869750977,1.2909882068634033,21.741060256958008,0.4507346749305725,2.5335726737976074,-0.24112264811992645,0.0,0.0,0.0,0.0,0.0,0.0,0.0,-0.12602853776793616,0.42095787010193736,0.10451436351300553,0.4704439097192389,-0.07384475746855218,0.13035181112454178,-0.219458335260904,0.17281565989852563,-0.4874420183625138,-0.11145539314657832,-1.9466550829703348,0.1337513940242716,2.595544879330529,0.945251374554303,0.1728802376190821,-0.48752024683155326,-0.11147110072896137,-1.9463801863486305,0.1336059019074957,2.595550359778934,0.9452445589611904,-0.0010338805495089282,0.00011588201607557936,-0.00012112301461187254,0.0002159132244473499,0.00038241201156354976,-1.87191547447734e-05,0.0017770369294798573,0.0,0.0,0.0,0.0,0.0,0.0,0.0,6.45777205564857e-05,-7.822846903948744e-05,-1.5707582383048257e-05,0.0002748966217043236,-0.00014549211677591933,5.480448404870941e-06,-6.8155931125524205e-06,0.0010338805495089282,-0.00011588201607557936,0.00012112301461187254,-0.0002159132244473499,-0.00038241201156354976,1.87191547447734e-05,-0.0017770369294798573,0.09352988004684448,11.925500869750977,-1.2909882068634033,-21.741060256958008,-0.4507346749305725,-2.5335726737976074,0.24112264811992645,0
78,0.3849949836730957,-0.09352988004684448,-11.901697158813477,1.2909882068634033,21.816438674926758,0.4507346749305725,2.5335726737976074,-0.19351522624492645,0.0,0.0,0.0,0.0,0.0,0.0,0.0,-0.12812282369994,0.41958540051165066,0.101146743368518,0.47037248058345094,-0.07386866923737871,0.13068508407432064,-0.21850186094257545,0.17281589610819736,-0.487443688798369,-0.11145452498478185,-1.9466603726838765,0.13375139353672938,2.595544879330529,0.9452460848407613,0.1728802376190821,-0.48752024683155326,-0.11147110072896137,-1.9463801863486305,0.1336059019074957,2.595550359778934,0.9452445589611904,-0.0009529698469724145,-0.0004951978552370027,-8.472077512478551e-05,-0.0015981617709905497,0.00032698031016110485,-0.00024388237651731102,-0.00029671404930536465,0.0,0.0,0.0,0.0,0.0,0.0,0.0,6.434151088474671e-05,-7.655803318423748e-05,-1.6575744179514462e-05,0.0002801863352459577,-0.00014549162923369052,5.480448404870941e-06,-1.5258795709183204e-06,0.0009529698469724145,0.0004951978552370027,8.472077512478551e-05,0.0015981617709905497,-0.00032698031016110485,0.00024388237651731102,0.00029671404930536465,0.09352988004684448,11.901697158813477,-1.2909882068634033,-21.816438674926758,-0.4507346749305725,-2.5335726737976074,0.19351522624492645,0
79,0.3900644779205322,-0.09352988004684448,-11.901697158813477,1.2909882068634033,21.816438674926758,0.4507346749305725,2.5335726737976074,-0.19351522624492645,0.0,0.0,0.0,0.0,0.0,0.0,0.0,-0.12812282369994,0.41958540051165066,0.101146743368518,0.47037248058345094,-0.07386866923737871,0.13068508407432064,-0.21850186094257545,0.17281589610819736,-0.487443688798369,-0.11145452498478185,-1.9466603726838765,0.13375139353672938,2.595544879330529,0.9452460848407613,0.1728802376190821,-0.48752024683155326,-0.11147110072896137,-1.9463801863486305,0.1336059019074957,2.595550359778934,0.9452445589611904,-0.0009529698469724145,-0.0004951978552370027,-8.472077512478551e-05,-0.0015981617709905497,0.00032698031016110485,-0.00024388237651731102,-0.00029671404930536465,0.0,0.0,0.0,0.0,0.0,0.0,0.0,6.434151088474671e-05,-7.655803318423748e-05,-1.6575744179514462e-05,0.0002801863352459577,-0.00014549162923369052,5.480448404870941e-06,-1.5258795709183204e-06,0.0009529698469724145,0.0004951978552370027,8.472077512478551e-05,0.0015981617709905497,-0.00032698031016110485,0.00024388237651731102,0.00029671404930536465,0.09352988004684448,11.901697158813477,-1.2909882068634033,-21.816438674926758,-0.4507346749305725,-2.5335726737976074,0.19351522624492645,0
