rezayati/contactInterpretation/dataset/franka_main/labeled_data/link5/c1_3.csv
index,time,tau_J0,tau_J1,tau_J2,tau_J3,tau_J4,tau_J5,tau_J6,tau_J_d0,tau_J_d1,tau_J_d2,tau_J_d3,tau_J_d4,tau_J_d5,tau_J_d6,tau_ext0,tau_ext1,tau_ext2,tau_ext3,tau_ext4,tau_ext5,tau_ext6,q0,q1,q2,q3,q4,q5,q6,q_d0,q_d1,q_d2,q_d3,q_d4,q_d5,q_d6,dq0,dq1,dq2,dq3,dq4,dq5,dq6,dq_d0,dq_d1,dq_d2,dq_d3,dq_d4,dq_d5,dq_d6,e0,e1,e2,e3,e4,e5,e6,de0,de1,de2,de3,de4,de5,de6,etau_J0,etau_J1,etau_J2,etau_J3,etau_J4,etau_J5,etau_J6,label
1,0.0,-0.4267818331718445,-34.21371078491211,-3.8228423595428467,19.511445999145508,0.12389141321182251,1.796573281288147,-0.04336874559521675,0.0,0.0,0.0,0.0,0.0,0.0,0.0,-0.4174212959571228,-0.13227683191646117,-0.24124842966045648,0.49947735180241126,0.07183089906155309,-0.11625552417699637,-0.06983278383845053,1.054414896425448,0.3242300827442936,-0.3925618727381781,-2.1536094211425834,0.8647008567849794,2.465928491632144,0.5444817450762622,1.0544104758940245,0.3238615046091247,-0.39250456234122666,-2.153291787532338,0.8647539153680389,2.46587817577521,0.5445020185570556,-0.00032024280194135413,0.00029273161243060304,0.0003534693817898188,0.00021740245396252862,7.563186815160649e-05,-0.00015448291567184374,-0.0013107810457109435,0.0,0.0,0.0,0.0,0.0,0.0,0.0,-4.42053142357679e-06,-0.0003685781351688844,5.7310396951448794e-05,0.00031763361024550463,5.30585830594843e-05,-5.0315856933824676e-05,2.0273480793364662e-05,0.00032024280194135413,-0.00029273161243060304,-0.0003534693817898188,-0.00021740245396252862,-7.563186815160649e-05,0.00015448291567184374,0.0013107810457109435,0.4267818331718445,34.21371078491211,3.8228423595428467,-19.511445999145508,-0.12389141321182251,-1.796573281288147,0.04336874559521675,0
2,0.0049591064453125,-0.4267818331718445,-34.21371078491211,-3.8228423595428467,19.511445999145508,0.12389141321182251,1.796573281288147,-0.04336874559521675,0.0,0.0,0.0,0.0,0.0,0.0,0.0,-0.4174212959571228,-0.13227683191646117,-0.24124842966045648,0.49947735180241126,0.07183089906155309,-0.11625552417699637,-0.06983278383845053,1.054414896425448,0.3242300827442936,-0.3925618727381781,-2.1536094211425834,0.8647008567849794,2.465928491632144,0.5444817450762622,1.0544104758940245,0.3238615046091247,-0.39250456234122666,-2.153291787532338,0.8647539153680389,2.46587817577521,0.5445020185570556,-0.00032024280194135413,0.00029273161243060304,0.0003534693817898188,0.00021740245396252862,7.563186815160649e-05,-0.00015448291567184374,-0.0013107810457109435,0.0,0.0,0.0,0.0,0.0,0.0,0.0,-4.42053142357679e-06,-0.0003685781351688844,5.7310396951448794e-05,0.00031763361024550463,5.30585830594843e-05,-5.0315856933824676e-05,2.0273480793364662e-05,0.00032024280194135413,-0.00029273161243060304,-0.0003534693817898188,-0.00021740245396252862,-7.563186815160649e-05,0.00015448291567184374,0.0013107810457109435,0.4267818331718445,34.21371078491211,3.8228423595428467,-19.511445999145508,-0.12389141321182251,-1.796573281288147,0.04336874559521675,0
3,0.010004281997680664,-0.4267818331718445,-34.16213607788086,-3.8506133556365967,19.535249710083008,0.1293845772743225,1.790164589881897,-0.08365194499492645,0.0,0.0,0.0,0.0,0.0,0.0,0.0,-0.4142248074877311,-0.1250398475796878,-0.235885647831239,0.49747895724100916,0.07156672390489686,-0.11695533658470454,-0.07066788237339656,1.054414896425448,0.32422653975698057,-0.39256063021280074,-2.153613316770133,0.8647002464334169,2.4659292037089666,0.5444862209873067,1.0544104758940245,0.3238615046091247,-0.39250456234122666,-2.153291787532338,0.8647539153680389,2.46587817577521,0.5445020185570556,0.00018733313425234647,-0.00015268601499434165,0.000834325534095852,-8.416403414036752e-05,-0.0001683755721513017,0.0001412106323400428,0.0004880226923773711,0.0,0.0,0.0,0.0,0.0,0.0,0.0,-4.42053142357679e-06,-0.0003650351478558522,5.606787157408366e-05,0.00032152923779493747,5.366893462199762e-05,-5.102793375666437e-05,1.5797569748898788e-05,-0.00018733313425234647,0.00015268601499434165,-0.000834325534095852,8.416403414036752e-05,0.0001683755721513017,-0.0001412106323400428,-0.0004880226923773711,0.4267818331718445,34.16213607788086,3.8506133556365967,-19.535249710083008,-0.1293845772743225,-1.790164589881897,0.08365194499492645,0
4,0.015399932861328125,-0.4267818331718445,-34.16213607788086,-3.8506133556365967,19.535249710083008,0.1293845772743225,1.790164589881897,-0.08365194499492645,0.0,0.0,0.0,0.0,0.0,0.0,0.0,-0.4142248074877311,-0.1250398475796878,-0.235885647831239,0.49747895724100916,0.07156672390489686,-0.11695533658470454,-0.07066788237339656,1.054414896425448,0.32422653975698057,-0.39256063021280074,-2.153613316770133,0.8647002464334169,2.4659292037089666,0.5444862209873067,1.0544104758940245,0.3238615046091247,-0.39250456234122666,-2.153291787532338,0.8647539153680389,2.46587817577521,0.5445020185570556,0.00018733313425234647,-0.00015268601499434165,0.000834325534095852,-8.416403414036752e-05,-0.0001683755721513017,0.0001412106323400428,0.0004880226923773711,0.0,0.0,0.0,0.0,0.0,0.0,0.0,-4.42053142357679e-06,-0.0003650351478558522,5.606787157408366e-05,0.00032152923779493747,5.366893462199762e-05,-5.102793375666437e-05,1.5797569748898788e-05,-0.00018733313425234647,0.00015268601499434165,-0.000834325534095852,8.416403414036752e-05,0.0001683755721513017,-0.0001412106323400428,-0.0004880226923773711,0.4267818331718445,34.16213607788086,3.8506133556365967,-19.535249710083008,-0.1293845772743225,-1.790164589881897,0.08365194499492645,0
5,0.020000219345092773,-0.4267818331718445,-34.21371078491211,-3.8228423595428467,19.511445999145508,0.1293845772743225,1.790164589881897,-0.09097616374492645,0.0,0.0,0.0,0.0,0.0,0.0,0.0,-0.4098903074450928,-0.1345967042302338,-0.2352829785213254,0.5067045249261645,0.0713737842774749,-0.11558265191183047,-0.07107502590298709,1.054414896425448,0.3242301352375864,-0.39256186478402816,-2.1536113686110716,0.8647002464334169,2.4659292037089666,0.54448703478939,1.0544104758940245,0.3238615046091247,-0.39250456234122666,-2.153291787532338,0.8647539153680389,2.46587817577521,0.5445020185570556,0.0005027769444529944,0.0004042162020346933,0.0009014682549134248,0.0007155867878063297,0.00010737478370417133,-5.886788309531826e-05,0.0005376502978492899,0.0,0.0,0.0,0.0,0.0,0.0,0.0,-4.42053142357679e-06,-0.000368630628461708,5.730244280149899e-05,0.00031958107873375496,5.366893462199762e-05,-5.102793375666437e-05,1.4983767665621706e-05,-0.0005027769444529944,-0.0004042162020346933,-0.0009014682549134248,-0.0007155867878063297,-0.00010737478370417133,5.886788309531826e-05,-0.0005376502978492899,0.4267818331718445,34.21371078491211,3.8228423595428467,-19.511445999145508,-0.1293845772743225,-1.790164589881897,0.09097616374492645,0
6,0.025004148483276367,-0.4267818331718445,-34.21371078491211,-3.8228423595428467,19.511445999145508,0.1293845772743225,1.790164589881897,-0.09097616374492645,0.0,0.0,0.0,0.0,0.0,0.0,0.0,-0.4098903074450928,-0.1345967042302338,-0.2352829785213254,0.5067045249261645,0.0713737842774749,-0.11558265191183047,-0.07107502590298709,1.054414896425448,0.3242301352375864,-0.39256186478402816,-2.1536113686110716,0.8647002464334169,2.4659292037089666,0.54448703478939,1.0544104758940245,0.3238615046091247,-0.39250456234122666,-2.153291787532338,0.8647539153680389,2.46587817577521,0.5445020185570556,0.0005027769444529944,0.0004042162020346933,0.0009014682549134248,0.0007155867878063297,0.00010737478370417133,-5.886788309531826e-05,0.0005376502978492899,0.0,0.0,0.0,0.0,0.0,0.0,0.0,-4.42053142357679e-06,-0.000368630628461708,5.730244280149899e-05,0.00031958107873375496,5.366893462199762e-05,-5.102793375666437e-05,1.4983767665621706e-05,-0.0005027769444529944,-0.0004042162020346933,-0.0009014682549134248,-0.0007155867878063297,-0.00010737478370417133,5.886788309531826e-05,-0.0005376502978492899,0.4267818331718445,34.21371078491211,3.8228423595428467,-19.511445999145508,-0.1293845772743225,-1.790164589881897,0.09097616374492645,0
7,0.030001401901245117,-0.4029781222343445,-34.16213607788086,-3.7990386486053467,19.559053421020508,0.12389141321182251,1.777347207069397,-0.09097616374492645,0.0,0.0,0.0,0.0,0.0,0.0,0.0,-0.416799939091983,-0.12435421177171432,-0.23912179016923654,0.49961170967476143,0.0725343019628794,-0.11557842163798954,-0.07211340881957369,1.0544132259895926,0.32422654267346207,-0.39256353423470497,-2.153613989101712,0.8647008567849794,2.4659306278626123,0.54448703478939,1.0544104758940245,0.3238615046091247,-0.39250456234122666,-2.153291787532338,0.8647539153680389,2.46587817577521,0.5445020185570556,-0.0003955954090586118,-0.0007962868238367751,0.000586875824541257,-0.0011478127461920949,0.00015009007718081135,0.0002884962500976352,0.0009879181584933944,0.0,0.0,0.0,0.0,0.0,0.0,0.0,-2.7500955681603045e-06,-0.000365038064337353,5.897189347831011e-05,0.0003222015693742364,5.30585830594843e-05,-5.245208740234375e-05,1.4983767665621706e-05,0.0003955954090586118,0.0007962868238367751,-0.000586875824541257,0.0011478127461920949,-0.00015009007718081135,-0.0002884962500976352,-0.0009879181584933944,0.4029781222343445,34.16213607788086,3.7990386486053467,-19.559053421020508,-0.12389141321182251,-1.777347207069397,0.09097616374492645,0
8,0.0350031852722168,-0.4029781222343445,-34.16213607788086,-3.7990386486053467,19.559053421020508,0.12389141321182251,1.777347207069397,-0.09097616374492645,0.0,0.0,0.0,0.0,0.0,0.0,0.0,-0.416799939091983,-0.12435421177171432,-0.23912179016923654,0.49961170967476143,0.0725343019628794,-0.11557842163798954,-0.07211340881957369,1.0544132259895926,0.32422654267346207,-0.39256353423470497,-2.153613989101712,0.8647008567849794,2.4659306278626123,0.54448703478939,1.0544104758940245,0.3238615046091247,-0.39250456234122666,-2.153291787532338,0.8647539153680389,2.46587817577521,0.5445020185570556,-0.0003955954090586118,-0.0007962868238367751,0.000586875824541257,-0.0011478127461920949,0.00015009007718081135,0.0002884962500976352,0.0009879181584933944,0.0,0.0,0.0,0.0,0.0,0.0,0.0,-2.7500955681603045e-06,-0.000365038064337353,5.897189347831011e-05,0.0003222015693742364,5.30585830594843e-05,-5.245208740234375e-05,1.4983767665621706e-05,0.0003955954090586118,0.0007962868238367751,-0.000586875824541257,0.0011478127461920949,-0.00015009007718081135,-0.0002884962500976352,-0.0009879181584933944,0.4029781222343445,34.16213607788086,3.7990386486053467,-19.559053421020508,-0.12389141321182251,-1.777347207069397,0.09097616374492645,0
9,0.04039740562438965,-0.4029781222343445,-34.16213607788086,-3.7990386486053467,19.559053421020508,0.12389141321182251,1.783755898475647,-0.07724325358867645,0.0,0.0,0.0,0.0,0.0,0.0,0.0,-0.41605017644612574,-0.13139498473799568,-0.2368945115162911,0.5059564132840685,0.07259293876395007,-0.11517496620235596,-0.07275357716186752,1.0544132259895926,0.3242243278849713,-0.3925635342346994,-2.1536119835966865,0.8647008567849794,2.4659299157857895,0.5444855089104838,1.0544104758940245,0.3238615046091247,-0.39250456234122666,-2.153291787532338,0.8647539153680389,2.46587817577521,0.5445020185570556,0.00012725315054066343,-0.0006845989484695642,-5.909071672795996e-05,-0.000728386958061912,0.00015287915338518503,0.00019480541937593943,-0.00015118852974271862,0.0,0.0,0.0,0.0,0.0,0.0,0.0,-2.7500955681603045e-06,-0.0003628232758465799,5.8971893472758996e-05,0.00032019606434863235,5.30585830594843e-05,-5.174001057950406e-05,1.65096465718495e-05,-0.00012725315054066343,0.0006845989484695642,5.909071672795996e-05,0.000728386958061912,-0.00015287915338518503,-0.00019480541937593943,0.00015118852974271862,0.4029781222343445,34.16213607788086,3.7990386486053467,-19.559053421020508,-0.12389141321182251,-1.783755898475647,0.07724325358867645,0
10,0.045073509216308594,-0.4029781222343445,-34.16213607788086,-3.7990386486053467,19.559053421020508,0.12389141321182251,1.783755898475647,-0.07724325358867645,0.0,0.0,0.0,0.0,0.0,0.0,0.0,-0.41605017644612574,-0.13139498473799568,-0.2368945115162911,0.5059564132840685,0.07259293876395007,-0.11517496620235596,-0.07275357716186752,1.0544132259895926,0.3242243278849713,-0.3925635342346994,-2.1536119835966865,0.8647008567849794,2.4659299157857895,0.5444855089104838,1.0544104758940245,0.3238615046091247,-0.39250456234122666,-2.153291787532338,0.8647539153680389,2.46587817577521,0.5445020185570556,0.00012725315054066343,-0.0006845989484695642,-5.909071672795996e-05,-0.000728386958061912,0.00015287915338518503,0.00019480541937593943,-0.00015118852974271862,0.0,0.0,0.0,0.0,0.0,0.0,0.0,-2.7500955681603045e-06,-0.0003628232758465799,5.8971893472758996e-05,0.00032019606434863235,5.30585830594843e-05,-5.174001057950406e-05,1.65096465718495e-05,-0.00012725315054066343,0.0006845989484695642,5.909071672795996e-05,0.000728386958061912,-0.00015287915338518503,-0.00019480541937593943,0.00015118852974271862,0.4029781222343445,34.16213607788086,3.7990386486053467,-19.559053421020508,-0.12389141321182251,-1.783755898475647,0.07724325358867645,0
11,0.05000734329223633,-0.4267818331718445,-34.21371078491211,-3.8506133556365967,19.535249710083008,0.12389141321182251,1.802981972694397,-0.08365194499492645,0.0,0.0,0.0,0.0,0.0,0.0,0.0,-0.42096204366076306,-0.13587234445950536,-0.24279289885136252,0.5074468851064985,0.07295755796404237,-0.114965535140355,-0.07457165281445165,1.054414896425448,0.3242294529457749,-0.3925620607242249,-2.1536133157482533,0.8647008567849794,2.465927779555321,0.5444862209873067,1.0544104758940245,0.3238615046091247,-0.39250456234122666,-2.153291787532338,0.8647539153680389,2.46587817577521,0.5445020185570556,0.00017892793449792916,-0.0002870482933496695,0.0009153280995229225,-0.0001659622140030166,0.0001709977261935713,-0.0003744535214299621,0.00045702095050343425,0.0,0.0,0.0,0.0,0.0,0.0,0.0,-4.42053142357679e-06,-0.000367948336650159,5.74983829982334e-05,0.00032152821591546754,5.30585830594843e-05,-4.9603780110984985e-05,1.5797569748898788e-05,-0.00017892793449792916,0.0002870482933496695,-0.0009153280995229225,0.0001659622140030166,-0.0001709977261935713,0.0003744535214299621,-0.00045702095050343425,0.4267818331718445,34.21371078491211,3.8506133556365967,-19.535249710083008,-0.12389141321182251,-1.802981972694397,0.08365194499492645,0
12,0.05500435829162598,-0.4267818331718445,-34.21371078491211,-3.8506133556365967,19.535249710083008,0.12389141321182251,1.802981972694397,-0.08365194499492645,0.0,0.0,0.0,0.0,0.0,0.0,0.0,-0.42096204366076306,-0.13587234445950536,-0.24279289885136252,0.5074468851064985,0.07295755796404237,-0.114965535140355,-0.07457165281445165,1.054414896425448,0.3242294529457749,-0.3925620607242249,-2.1536133157482533,0.8647008567849794,2.465927779555321,0.5444862209873067,1.0544104758940245,0.3238615046091247,-0.39250456234122666,-2.153291787532338,0.8647539153680389,2.46587817577521,0.5445020185570556,0.00017892793449792916,-0.0002870482933496695,0.0009153280995229225,-0.0001659622140030166,0.0001709977261935713,-0.0003744535214299621,0.00045702095050343425,0.0,0.0,0.0,0.0,0.0,0.0,0.0,-4.42053142357679e-06,-0.000367948336650159,5.74983829982334e-05,0.00032152821591546754,5.30585830594843e-05,-4.9603780110984985e-05,1.5797569748898788e-05,-0.00017892793449792916,0.0002870482933496695,-0.0009153280995229225,0.0001659622140030166,-0.0001709977261935713,0.0003744535214299621,-0.00045702095050343425,0.4267818331718445,34.21371078491211,3.8506133556365967,-19.535249710083008,-0.12389141321182251,-1.802981972694397,0.08365194499492645,0
13,0.06000208854675293,-0.4029781222343445,-34.21371078491211,-3.8228423595428467,19.535249710083008,0.1293845772743225,1.777347207069397,-0.06351034343242645,0.0,0.0,0.0,0.0,0.0,0.0,0.0,-0.41224391947097294,-0.12835777551555083,-0.23586863102664102,0.5024357893896669,0.07294873127038266,-0.11646697658085339,-0.07505967389329254,1.0544132259895926,0.3242293712290854,-0.39256210222953614,-2.1536125442099654,0.8647002464334169,2.4659306278626123,0.5444839830315775,1.0544104758940245,0.3238615046091247,-0.39250456234122666,-2.153291787532338,0.8647539153680389,2.46587817577521,0.5445020185570556,-0.00042524270800691936,0.0003953344201722453,-9.057454368130754e-05,-0.00037917107191084987,-0.00019777836497379502,0.0003475429334720187,0.0001393179344922516,0.0,0.0,0.0,0.0,0.0,0.0,0.0,-2.7500955681603045e-06,-0.00036786661996068837,5.753988830947687e-05,0.0003207566776275428,5.366893462199762e-05,-5.245208740234375e-05,1.8035525478077297e-05,0.00042524270800691936,-0.0003953344201722453,9.057454368130754e-05,0.00037917107191084987,0.00019777836497379502,-0.0003475429334720187,-0.0001393179344922516,0.4029781222343445,34.21371078491211,3.8228423595428467,-19.535249710083008,-0.1293845772743225,-1.777347207069397,0.06351034343242645,0
14,0.06499409675598145,-0.4029781222343445,-34.21371078491211,-3.8228423595428467,19.535249710083008,0.1293845772743225,1.777347207069397,-0.06351034343242645,0.0,0.0,0.0,0.0,0.0,0.0,0.0,-0.41224391947097294,-0.12835777551555083,-0.23586863102664102,0.5024357893896669,0.07294873127038266,-0.11646697658085339,-0.07505967389329254,1.0544132259895926,0.3242293712290854,-0.39256210222953614,-2.1536125442099654,0.8647002464334169,2.4659306278626123,0.5444839830315775,1.0544104758940245,0.3238615046091247,-0.39250456234122666,-2.153291787532338,0.8647539153680389,2.46587817577521,0.5445020185570556,-0.00042524270800691936,0.0003953344201722453,-9.057454368130754e-05,-0.00037917107191084987,-0.00019777836497379502,0.0003475429334720187,0.0001393179344922516,0.0,0.0,0.0,0.0,0.0,0.0,0.0,-2.7500955681603045e-06,-0.00036786661996068837,5.753988830947687e-05,0.0003207566776275428,5.366893462199762e-05,-5.245208740234375e-05,1.8035525478077297e-05,0.00042524270800691936,-0.0003953344201722453,9.057454368130754e-05,0.00037917107191084987,0.00019777836497379502,-0.0003475429334720187,-0.0001393179344922516,0.4029781222343445,34.21371078491211,3.8228423595428467,-19.535249710083008,-0.1293845772743225,-1.777347207069397,0.06351034343242645,0
15,0.07001256942749023,-0.4505855441093445,-34.21371078491211,-3.8228423595428467,19.535249710083008,0.12389141321182251,1.790164589881897,-0.08365194499492645,0.0,0.0,0.0,0.0,0.0,0.0,0.0,-0.40230347401631905,-0.13086024118087636,-0.22927298052467798,0.5031647762164205,0.07284447425011979,-0.11756710940527047,-0.0721906717831067,1.0544165668613033,0.3242301356651667,-0.39256186380019004,-2.1536125709993863,0.8647008567849794,2.4659292037089666,0.5444862209873067,1.0544104758940245,0.3238615046091247,-0.39250456234122666,-2.153291787532338,0.8647539153680389,2.46587817577521,0.5445020185570556,0.0011711508679369273,0.00017170175047388306,0.0007390491053798534,-0.0005209309108860661,9.397942141150952e-05,-4.7590906996315994e-05,-0.006081370198612315,0.0,0.0,0.0,0.0,0.0,0.0,0.0,-6.090967278771231e-06,-0.000368631056041957,5.7301458963376906e-05,0.0003207834670484466,5.30585830594843e-05,-5.102793375666437e-05,1.5797569748898788e-05,-0.0011711508679369273,-0.00017170175047388306,-0.0007390491053798534,0.0005209309108860661,-9.397942141150952e-05,4.7590906996315994e-05,0.006081370198612315,0.4505855441093445,34.21371078491211,3.8228423595428467,-19.535249710083008,-0.12389141321182251,-1.790164589881897,0.08365194499492645,0
16,0.0750279426574707,-0.4505855441093445,-34.21371078491211,-3.8228423595428467,19.535249710083008,0.12389141321182251,1.790164589881897,-0.08365194499492645,0.0,0.0,0.0,0.0,0.0,0.0,0.0,-0.40230347401631905,-0.13086024118087636,-0.22927298052467798,0.5031647762164205,0.07284447425011979,-0.11756710940527047,-0.0721906717831067,1.0544165668613033,0.3242301356651667,-0.39256186380019004,-2.1536125709993863,0.8647008567849794,2.4659292037089666,0.5444862209873067,1.0544104758940245,0.3238615046091247,-0.39250456234122666,-2.153291787532338,0.8647539153680389,2.46587817577521,0.5445020185570556,0.0011711508679369273,0.00017170175047388306,0.0007390491053798534,-0.0005209309108860661,9.397942141150952e-05,-4.7590906996315994e-05,-0.006081370198612315,0.0,0.0,0.0,0.0,0.0,0.0,0.0,-6.090967278771231e-06,-0.000368631056041957,5.7301458963376906e-05,0.0003207834670484466,5.30585830594843e-05,-5.102793375666437e-05,1.5797569748898788e-05,-0.0011711508679369273,-0.00017170175047388306,-0.0007390491053798534,0.0005209309108860661,-9.397942141150952e-05,4.7590906996315994e-05,0.006081370198612315,0.4505855441093445,34.21371078491211,3.8228423595428467,-19.535249710083008,-0.12389141321182251,-1.790164589881897,0.08365194499492645,0
17,0.07995009422302246,-0.4267818331718445,-34.23751449584961,-3.8228423595428467,19.535249710083008,0.11748272180557251,1.777347207069397,-0.06991903483867645,0.0,0.0,0.0,0.0,0.0,0.0,0.0,-0.41459701697449103,-0.13602862281167377,-0.24068051251562297,0.5019895874512699,0.07352463766054984,-0.11669342064681994,-0.06969571991539489,1.054414896425448,0.3242295914128007,-0.3925618637988441,-2.15361109122718,0.8647015688618023,2.4659306278626123,0.5444846951084005,1.0544104758940245,0.3238615046091247,-0.39250456234122666,-2.153291787532338,0.8647539153680389,2.46587817577521,0.5445020185570556,0.0003149749047645258,0.00043647070920868467,0.0002587818766894441,-0.00035268922043928894,0.00032586134190891214,0.0003300105520550403,-0.0006324218778976961,0.0,0.0,0.0,0.0,0.0,0.0,0.0,-4.42053142357679e-06,-0.0003680868036760043,5.730145761745353e-05,0.00031930369484234333,5.234650623664461e-05,-5.245208740234375e-05,1.7323448655126583e-05,-0.0003149749047645258,-0.00043647070920868467,-0.0002587818766894441,0.00035268922043928894,-0.00032586134190891214,-0.0003300105520550403,0.0006324218778976961,0.4267818331718445,34.23751449584961,3.8228423595428467,-19.535249710083008,-0.11748272180557251,-1.777347207069397,0.06991903483867645,0
18,0.08502531051635742,-0.4267818331718445,-34.23751449584961,-3.8228423595428467,19.535249710083008,0.11748272180557251,1.777347207069397,-0.06991903483867645,0.0,0.0,0.0,0.0,0.0,0.0,0.0,-0.41459701697449103,-0.13602862281167377,-0.24068051251562297,0.5019895874512699,0.07352463766054984,-0.11669342064681994,-0.06969571991539489,1.054414896425448,0.3242295914128007,-0.3925618637988441,-2.15361109122718,0.8647015688618023,2.4659306278626123,0.5444846951084005,1.0544104758940245,0.3238615046091247,-0.39250456234122666,-2.153291787532338,0.8647539153680389,2.46587817577521,0.5445020185570556,0.0003149749047645258,0.00043647070920868467,0.0002587818766894441,-0.00035268922043928894,0.00032586134190891214,0.0003300105520550403,-0.0006324218778976961,0.0,0.0,0.0,0.0,0.0,0.0,0.0,-4.42053142357679e-06,-0.0003680868036760043,5.730145761745353e-05,0.00031930369484234333,5.234650623664461e-05,-5.245208740234375e-05,1.7323448655126583e-05,-0.0003149749047645258,-0.00043647070920868467,-0.0002587818766894441,0.00035268922043928894,-0.00032586134190891214,-0.0003300105520550403,0.0006324218778976961,0.4267818331718445,34.23751449584961,3.8228423595428467,-19.535249710083008,-0.11748272180557251,-1.777347207069397,0.06991903483867645,0
19,0.09000086784362793,-0.4267818331718445,-34.23751449584961,-3.8228423595428467,19.535249710083008,0.11748272180557251,1.777347207069397,-0.06991903483867645,0.0,0.0,0.0,0.0,0.0,0.0,0.0,-0.41459701697449103,-0.13602862281167377,-0.24068051251562297,0.5019895874512699,0.07352463766054984,-0.11669342064681994,-0.06969571991539489,1.054414896425448,0.3242295914128007,-0.3925618637988441,-2.15361109122718,0.8647015688618023,2.4659306278626123,0.5444846951084005,1.0544104758940245,0.3238615046091247,-0.39250456234122666,-2.153291787532338,0.8647539153680389,2.46587817577521,0.5445020185570556,0.0003149749047645258,0.00043647070920868467,0.0002587818766894441,-0.00035268922043928894,0.00032586134190891214,0.0003300105520550403,-0.0006324218778976961,0.0,0.0,0.0,0.0,0.0,0.0,0.0,-4.42053142357679e-06,-0.0003680868036760043,5.730145761745353e-05,0.00031930369484234333,5.234650623664461e-05,-5.245208740234375e-05,1.7323448655126583e-05,-0.0003149749047645258,-0.00043647070920868467,-0.0002587818766894441,0.00035268922043928894,-0.00032586134190891214,-0.0003300105520550403,0.0006324218778976961,0.4267818331718445,34.23751449584961,3.8228423595428467,-19.535249710083008,-0.11748272180557251,-1.777347207069397,0.06991903483867645,0
20,0.09499955177307129,-0.4267818331718445,-34.23751449584961,-3.8228423595428467,19.535249710083008,0.11748272180557251,1.777347207069397,-0.06991903483867645,0.0,0.0,0.0,0.0,0.0,0.0,0.0,-0.41459701697449103,-0.13602862281167377,-0.24068051251562297,0.5019895874512699,0.07352463766054984,-0.11669342064681994,-0.06969571991539489,1.054414896425448,0.3242295914128007,-0.3925618637988441,-2.15361109122718,0.8647015688618023,2.4659306278626123,0.5444846951084005,1.0544104758940245,0.3238615046091247,-0.39250456234122666,-2.153291787532338,0.8647539153680389,2.46587817577521,0.5445020185570556,0.0003149749047645258,0.00043647070920868467,0.0002587818766894441,-0.00035268922043928894,0.00032586134190891214,0.0003300105520550403,-0.0006324218778976961,0.0,0.0,0.0,0.0,0.0,0.0,0.0,-4.42053142357679e-06,-0.0003680868036760043,5.730145761745353e-05,0.00031930369484234333,5.234650623664461e-05,-5.245208740234375e-05,1.7323448655126583e-05,-0.0003149749047645258,-0.00043647070920868467,-0.0002587818766894441,0.00035268922043928894,-0.00032586134190891214,-0.0003300105520550403,0.0006324218778976961,0.4267818331718445,34.23751449584961,3.8228423595428467,-19.535249710083008,-0.11748272180557251,-1.777347207069397,0.06991903483867645,0
21,0.10002374649047852,-0.4267818331718445,-34.18990707397461,-3.7752349376678467,19.535249710083008,0.12389141321182251,1.796573281288147,-0.05710165575146675,0.0,0.0,0.0,0.0,0.0,0.0,0.0,-0.40793032150956976,-0.1365054161697022,-0.2356234344922352,0.5035863599647434,0.07316390310435315,-0.11743197767743113,-0.07065000000289666,1.054414896425448,0.32422565394660563,-0.39256520467055467,-2.1536130325902905,0.8647008567849794,2.465928532840293,0.5444832709551686,1.0544104758940245,0.3238615046091247,-0.39250456234122666,-2.153291787532338,0.8647539153680389,2.46587817577521,0.5445020185570556,0.0009481113913878755,-0.00016129785823248668,-0.0009547409935940089,0.0001319548178889095,-3.925664932495873e-05,-0.0002793762391725141,6.340953047258578e-05,0.0,0.0,0.0,0.0,0.0,0.0,0.0,-4.42053142357679e-06,-0.0003641493374809124,6.064232932800895e-05,0.0003212450579526127,5.30585830594843e-05,-5.0357065083161956e-05,1.8747601887025844e-05,-0.0009481113913878755,0.00016129785823248668,0.0009547409935940089,-0.0001319548178889095,3.925664932495873e-05,0.0002793762391725141,-6.340953047258578e-05,0.4267818331718445,34.18990707397461,3.7752349376678467,-19.535249710083008,-0.12389141321182251,-1.796573281288147,0.05710165575146675,0
22,0.10499930381774902,-0.4267818331718445,-34.18990707397461,-3.7752349376678467,19.535249710083008,0.12389141321182251,1.796573281288147,-0.05710165575146675,0.0,0.0,0.0,0.0,0.0,0.0,0.0,-0.40793032150956976,-0.1365054161697022,-0.2356234344922352,0.5035863599647434,0.07316390310435315,-0.11743197767743113,-0.07065000000289666,1.054414896425448,0.32422565394660563,-0.39256520467055467,-2.1536130325902905,0.8647008567849794,2.465928532840293,0.5444832709551686,1.0544104758940245,0.3238615046091247,-0.39250456234122666,-2.153291787532338,0.8647539153680389,2.46587817577521,0.5445020185570556,0.0009481113913878755,-0.00016129785823248668,-0.0009547409935940089,0.0001319548178889095,-3.925664932495873e-05,-0.0002793762391725141,6.340953047258578e-05,0.0,0.0,0.0,0.0,0.0,0.0,0.0,-4.42053142357679e-06,-0.0003641493374809124,6.064232932800895e-05,0.0003212450579526127,5.30585830594843e-05,-5.0357065083161956e-05,1.8747601887025844e-05,-0.0009481113913878755,0.00016129785823248668,0.0009547409935940089,-0.0001319548178889095,3.925664932495873e-05,0.0002793762391725141,-6.340953047258578e-05,0.4267818331718445,34.18990707397461,3.7752349376678467,-19.535249710083008,-0.12389141321182251,-1.796573281288147,0.05710165575146675,0
23,0.10996532440185547,-0.4267818331718445,-34.21371078491211,-3.8228423595428467,19.487642288208008,0.1293845772743225,1.790164589881897,-0.09738485515117645,0.0,0.0,0.0,0.0,0.0,0.0,0.0,-0.41328287579601586,-0.13135346505402654,-0.24069285025559795,0.503023658662874,0.0737200162219653,-0.11676059521770002,-0.06884802092547083,1.054414896425448,0.32422803603628414,-0.3925618932332366,-2.153607750593938,0.8647002464334169,2.4659292037091993,0.5444877599481651,1.0544104758940245,0.3238615046091247,-0.39250456234122666,-2.153291787532338,0.8647539153680389,2.46587817577521,0.5445020185570556,0.0009644269899050713,0.0006907531371757583,-4.056675775281049e-05,0.0009637185371597251,0.0001183694712194956,8.241775659796728e-05,0.0014275299483043097,0.0,0.0,0.0,0.0,0.0,0.0,0.0,-4.42053142357679e-06,-0.0003665314271594222,5.7330892009932466e-05,0.0003159630616003106,5.366893462199762e-05,-5.1027933989367114e-05,1.4258608890482805e-05,-0.0009644269899050713,-0.0006907531371757583,4.056675775281049e-05,-0.0009637185371597251,-0.0001183694712194956,-8.241775659796728e-05,-0.0014275299483043097,0.4267818331718445,34.21371078491211,3.8228423595428467,-19.487642288208008,-0.1293845772743225,-1.790164589881897,0.09738485515117645,0
24,0.11499762535095215,-0.4267818331718445,-34.21371078491211,-3.8228423595428467,19.487642288208008,0.1293845772743225,1.790164589881897,-0.09738485515117645,0.0,0.0,0.0,0.0,0.0,0.0,0.0,-0.41328287579601586,-0.13135346505402654,-0.24069285025559795,0.503023658662874,0.0737200162219653,-0.11676059521770002,-0.06884802092547083,1.054414896425448,0.32422803603628414,-0.3925618932332366,-2.153607750593938,0.8647002464334169,2.4659292037091993,0.5444877599481651,1.0544104758940245,0.3238615046091247,-0.39250456234122666,-2.153291787532338,0.8647539153680389,2.46587817577521,0.5445020185570556,0.0009644269899050713,0.0006907531371757583,-4.056675775281049e-05,0.0009637185371597251,0.0001183694712194956,8.241775659796728e-05,0.0014275299483043097,0.0,0.0,0.0,0.0,0.0,0.0,0.0,-4.42053142357679e-06,-0.0003665314271594222,5.7330892009932466e-05,0.0003159630616003106,5.366893462199762e-05,-5.1027933989367114e-05,1.4258608890482805e-05,-0.0009644269899050713,-0.0006907531371757583,4.056675775281049e-05,-0.0009637185371597251,-0.0001183694712194956,-8.241775659796728e-05,-0.0014275299483043097,0.4267818331718445,34.21371078491211,3.8228423595428467,-19.487642288208008,-0.1293845772743225,-1.790164589881897,0.09738485515117645,0
25,0.12001156806945801,-0.4267818331718445,-34.13833236694336,-3.7990386486053467,19.511445999145508,0.1293845772743225,1.790164589881897,-0.06991903483867645,0.0,0.0,0.0,0.0,0.0,0.0,0.0,-0.4008501040902924,-0.13478960424826977,-0.23286261520076673,0.5094047470212998,0.07387761191381605,-0.11671668837152745,-0.06839984825846132,1.054414896425448,0.32422383553992606,-0.39256353423486556,-2.153609420001351,0.8647002462698925,2.4659292037089666,0.544484699469125,1.0544104758940245,0.3238615046091247,-0.39250456234122666,-2.153291787532338,0.8647539153680389,2.46587817577521,0.5445020185570556,0.000712108198243493,-0.0017593916568578612,0.0004956882468489564,0.0005225591411330729,0.007624140717261735,0.00015751591469962176,-4.882917293914471e-05,0.0,0.0,0.0,0.0,0.0,0.0,0.0,-4.42053142357679e-06,-0.0003623309308013467,5.897189363890387e-05,0.00031763246901306275,5.366909814641385e-05,-5.102793375666437e-05,1.7319087930567356e-05,-0.000712108198243493,0.0017593916568578612,-0.0004956882468489564,-0.0005225591411330729,-0.007624140717261735,-0.00015751591469962176,4.882917293914471e-05,0.4267818331718445,34.13833236694336,3.7990386486053467,-19.511445999145508,-0.1293845772743225,-1.790164589881897,0.06991903483867645,0
26,0.12499856948852539,-0.4267818331718445,-34.13833236694336,-3.7990386486053467,19.511445999145508,0.1293845772743225,1.790164589881897,-0.06991903483867645,0.0,0.0,0.0,0.0,0.0,0.0,0.0,-0.4008501040902924,-0.13478960424826977,-0.23286261520076673,0.5094047470212998,0.07387761191381605,-0.11671668837152745,-0.06839984825846132,1.054414896425448,0.32422383553992606,-0.39256353423486556,-2.153609420001351,0.8647002462698925,2.4659292037089666,0.544484699469125,1.0544104758940245,0.3238615046091247,-0.39250456234122666,-2.153291787532338,0.8647539153680389,2.46587817577521,0.5445020185570556,0.000712108198243493,-0.0017593916568578612,0.0004956882468489564,0.0005225591411330729,0.007624140717261735,0.00015751591469962176,-4.882917293914471e-05,0.0,0.0,0.0,0.0,0.0,0.0,0.0,-4.42053142357679e-06,-0.0003623309308013467,5.897189363890387e-05,0.00031763246901306275,5.366909814641385e-05,-5.102793375666437e-05,1.7319087930567356e-05,-0.000712108198243493,0.0017593916568578612,-0.0004956882468489564,-0.0005225591411330729,-0.007624140717261735,-0.00015751591469962176,4.882917293914471e-05,0.4267818331718445,34.13833236694336,3.7990386486053467,-19.511445999145508,-0.1293845772743225,-1.790164589881897,0.06991903483867645,0
27,0.13003277778625488,-0.4267818331718445,-34.16213607788086,-3.7990386486053467,19.487642288208008,0.12389141321182251,1.783755898475647,-0.09097616374492645,0.0,0.0,0.0,0.0,0.0,0.0,0.0,-0.4089983430853992,-0.13161427066754766,-0.23727606916685373,0.5084450360165605,0.07358506236938142,-0.11591076775838578,-0.06846337755968582,1.054414896425448,0.32422432600700024,-0.3925637726532785,-2.153608892314392,0.8647008567849785,2.4659299157857895,0.5444870347894145,1.0544104758940245,0.3238615046091247,-0.39250456234122666,-2.153291787532338,0.8647539153680389,2.46587817577521,0.5445020185570556,0.0004311434868369209,-0.0010758759926711508,-0.00017172609657883396,0.000978880406875815,0.0006307580883793337,9.541159184899307e-05,0.0011693193451928448,0.0,0.0,0.0,0.0,0.0,0.0,0.0,-4.42053142357679e-06,-0.0003628213978755235,5.921031205186056e-05,0.00031710478205404513,5.305858306037248e-05,-5.174001057950406e-05,1.4983767641085777e-05,-0.0004311434868369209,0.0010758759926711508,0.00017172609657883396,-0.000978880406875815,-0.0006307580883793337,-9.541159184899307e-05,-0.0011693193451928448,0.4267818331718445,34.16213607788086,3.7990386486053467,-19.487642288208008,-0.12389141321182251,-1.783755898475647,0.09097616374492645,0
28,0.13502025604248047,-0.4267818331718445,-34.16213607788086,-3.7990386486053467,19.487642288208008,0.12389141321182251,1.783755898475647,-0.09097616374492645,0.0,0.0,0.0,0.0,0.0,0.0,0.0,-0.4089983430853992,-0.13161427066754766,-0.23727606916685373,0.5084450360165605,0.07358506236938142,-0.11591076775838578,-0.06846337755968582,1.054414896425448,0.32422432600700024,-0.3925637726532785,-2.153608892314392,0.8647008567849785,2.4659299157857895,0.5444870347894145,1.0544104758940245,0.3238615046091247,-0.39250456234122666,-2.153291787532338,0.8647539153680389,2.46587817577521,0.5445020185570556,0.0004311434868369209,-0.0010758759926711508,-0.00017172609657883396,0.000978880406875815,0.0006307580883793337,9.541159184899307e-05,0.0011693193451928448,0.0,0.0,0.0,0.0,0.0,0.0,0.0,-4.42053142357679e-06,-0.0003628213978755235,5.921031205186056e-05,0.00031710478205404513,5.305858306037248e-05,-5.174001057950406e-05,1.4983767641085777e-05,-0.0004311434868369209,0.0010758759926711508,0.00017172609657883396,-0.000978880406875815,-0.0006307580883793337,-9.541159184899307e-05,-0.0011693193451928448,0.4267818331718445,34.16213607788086,3.7990386486053467,-19.487642288208008,-0.12389141321182251,-1.783755898475647,0.09097616374492645,0
29,0.14000558853149414,-0.4267818331718445,-34.21371078491211,-3.8228423595428467,19.487642288208008,0.12389141321182251,1.796573281288147,-0.04336874559521675,0.0,0.0,0.0,0.0,0.0,0.0,0.0,-0.41901389036255837,-0.1328394404754611,-0.24481407226065788,0.5069690792312241,0.0747097068606802,-0.11616150631389689,-0.06854886252750189,1.054414896425448,0.32422989915809924,-0.39256186383652875,-2.1536099748120123,0.8647008567849794,2.465928491632144,0.5444817450762622,1.0544104758940245,0.3238615046091247,-0.39250456234122666,-2.153291787532338,0.8647539153680389,2.46587817577521,0.5445020185570556,-0.00012213363529616004,5.925233259735426e-05,0.000445914058061109,0.0009300202721130212,9.190027025665643e-05,-0.0003599258068731262,-0.0012090122749757286,0.0,0.0,0.0,0.0,0.0,0.0,0.0,-4.42053142357679e-06,-0.0003683945489745266,5.7301495302086725e-05,0.0003181872796744756,5.30585830594843e-05,-5.0315856933824676e-05,2.0273480793364662e-05,0.00012213363529616004,-5.925233259735426e-05,-0.000445914058061109,-0.0009300202721130212,-9.190027025665643e-05,0.0003599258068731262,0.0012090122749757286,0.4267818331718445,34.21371078491211,3.8228423595428467,-19.487642288208008,-0.12389141321182251,-1.796573281288147,0.04336874559521675,0
30,0.14499568939208984,-0.4267818331718445,-34.21371078491211,-3.8228423595428467,19.487642288208008,0.12389141321182251,1.796573281288147,-0.04336874559521675,0.0,0.0,0.0,0.0,0.0,0.0,0.0,-0.41901389036255837,-0.1328394404754611,-0.24481407226065788,0.5069690792312241,0.0747097068606802,-0.11616150631389689,-0.06854886252750189,1.054414896425448,0.32422989915809924,-0.39256186383652875,-2.1536099748120123,0.8647008567849794,2.465928491632144,0.5444817450762622,1.0544104758940245,0.3238615046091247,-0.39250456234122666,-2.153291787532338,0.8647539153680389,2.46587817577521,0.5445020185570556,-0.00012213363529616004,5.925233259735426e-05,0.000445914058061109,0.0009300202721130212,9.190027025665643e-05,-0.0003599258068731262,-0.0012090122749757286,0.0,0.0,0.0,0.0,0.0,0.0,0.0,-4.42053142357679e-06,-0.0003683945489745266,5.7301495302086725e-05,0.0003181872796744756,5.30585830594843e-05,-5.0315856933824676e-05,2.0273480793364662e-05,0.00012213363529616004,-5.925233259735426e-05,-0.000445914058061109,-0.0009300202721130212,-9.190027025665643e-05,0.0003599258068731262,0.0012090122749757286,0.4267818331718445,34.21371078491211,3.8228423595428467,-19.487642288208008,-0.12389141321182251,-1.796573281288147,0.04336874559521675,0
31,0.15000033378601074,-0.4267818331718445,-34.23751449584961,-3.7990386486053467,19.511445999145508,0.12389141321182251,1.796573281288147,-0.09097616374492645,0.0,0.0,0.0,0.0,0.0,0.0,0.0,-0.4186544983554122,-0.13264900512675612,-0.24177059528092743,0.5043644789089464,0.0740961761252061,-0.11614930814819052,-0.06907996980455164,1.054414896425448,0.32422943517344543,-0.39256568298168953,-2.1536116157469083,0.8647008567849794,2.465928491632144,0.5444880944275192,1.0544104758940245,0.3238615046091247,-0.39250456234122666,-2.153291787532338,0.8647539153680389,2.46587817577521,0.5445020185570556,0.00014066468721549602,0.0005823535510568469,-0.0008097040718935629,0.00036961652673224763,0.00020489430431306233,-0.00019074326938530757,0.0009231919346406376,0.0,0.0,0.0,0.0,0.0,0.0,0.0,-4.42053142357679e-06,-0.0003679305643207176,6.112064046287502e-05,0.000319828214570439,5.30585830594843e-05,-5.0315856933824676e-05,1.3924129536380114e-05,-0.00014066468721549602,-0.0005823535510568469,0.0008097040718935629,-0.00036961652673224763,-0.00020489430431306233,0.00019074326938530757,-0.0009231919346406376,0.4267818331718445,34.23751449584961,3.7990386486053467,-19.511445999145508,-0.12389141321182251,-1.796573281288147,0.09097616374492645,0
32,0.15500974655151367,-0.4267818331718445,-34.23751449584961,-3.7990386486053467,19.511445999145508,0.12389141321182251,1.796573281288147,-0.09097616374492645,0.0,0.0,0.0,0.0,0.0,0.0,0.0,-0.4186544983554122,-0.13264900512675612,-0.24177059528092743,0.5043644789089464,0.0740961761252061,-0.11614930814819052,-0.06907996980455164,1.054414896425448,0.32422943517344543,-0.39256568298168953,-2.1536116157469083,0.8647008567849794,2.465928491632144,0.5444880944275192,1.0544104758940245,0.3238615046091247,-0.39250456234122666,-2.153291787532338,0.8647539153680389,2.46587817577521,0.5445020185570556,0.00014066468721549602,0.0005823535510568469,-0.0008097040718935629,0.00036961652673224763,0.00020489430431306233,-0.00019074326938530757,0.0009231919346406376,0.0,0.0,0.0,0.0,0.0,0.0,0.0,-4.42053142357679e-06,-0.0003679305643207176,6.112064046287502e-05,0.000319828214570439,5.30585830594843e-05,-5.0315856933824676e-05,1.3924129536380114e-05,-0.00014066468721549602,-0.0005823535510568469,0.0008097040718935629,-0.00036961652673224763,-0.00020489430431306233,0.00019074326938530757,-0.0009231919346406376,0.4267818331718445,34.23751449584961,3.7990386486053467,-19.511445999145508,-0.12389141321182251,-1.796573281288147,0.09097616374492645,0
33,0.1600196361541748,-0.4267818331718445,-34.18990707397461,-3.8228423595428467,19.535249710083008,0.11748272180557251,1.790164589881897,-0.08365194499492645,0.0,0.0,0.0,0.0,0.0,0.0,0.0,-0.4146586349868079,-0.1312442294806247,-0.23895121912167827,0.49963051010625126,0.07401911725240325,-0.11630569983344978,-0.07026032719442472,1.054414896425448,0.32422840884066256,-0.39256186413802263,-2.153613288330621,0.8647015690233079,2.4659292037089666,0.5444862209932884,1.0544104758940245,0.3238615046091247,-0.39250456234122666,-2.153291787532338,0.8647539153680389,2.46587817577521,0.5445020185570556,0.00014125119244638024,-0.0010098035303816293,0.0004054402778366726,-0.0005562540934797667,-0.007436900599246728,6.048998849164897e-05,0.0007990010977354277,0.0,0.0,0.0,0.0,0.0,0.0,0.0,-4.42053142357679e-06,-0.0003669042315378457,5.730179679597214e-05,0.0003215007982833029,5.2346344731057926e-05,-5.102793375666437e-05,1.5797563767239176e-05,-0.00014125119244638024,0.0010098035303816293,-0.0004054402778366726,0.0005562540934797667,0.007436900599246728,-6.048998849164897e-05,-0.0007990010977354277,0.4267818331718445,34.18990707397461,3.8228423595428467,-19.535249710083008,-0.11748272180557251,-1.790164589881897,0.08365194499492645,0
34,0.1650083065032959,-0.4267818331718445,-34.18990707397461,-3.8228423595428467,19.535249710083008,0.11748272180557251,1.790164589881897,-0.08365194499492645,0.0,0.0,0.0,0.0,0.0,0.0,0.0,-0.4146586349868079,-0.1312442294806247,-0.23895121912167827,0.49963051010625126,0.07401911725240325,-0.11630569983344978,-0.07026032719442472,1.054414896425448,0.32422840884066256,-0.39256186413802263,-2.153613288330621,0.8647015690233079,2.4659292037089666,0.5444862209932884,1.0544104758940245,0.3238615046091247,-0.39250456234122666,-2.153291787532338,0.8647539153680389,2.46587817577521,0.5445020185570556,0.00014125119244638024,-0.0010098035303816293,0.0004054402778366726,-0.0005562540934797667,-0.007436900599246728,6.048998849164897e-05,0.0007990010977354277,0.0,0.0,0.0,0.0,0.0,0.0,0.0,-4.42053142357679e-06,-0.0003669042315378457,5.730179679597214e-05,0.0003215007982833029,5.2346344731057926e-05,-5.102793375666437e-05,1.5797563767239176e-05,-0.00014125119244638024,0.0010098035303816293,-0.0004054402778366726,0.0005562540934797667,0.007436900599246728,-6.048998849164897e-05,-0.0007990010977354277,0.4267818331718445,34.18990707397461,3.8228423595428467,-19.535249710083008,-0.11748272180557251,-1.790164589881897,0.08365194499492645,0
35,0.1700115203857422,-0.3752071261405945,-34.26528549194336,-3.7990386486053467,19.511445999145508,0.1357932686805725,1.796573281288147,-0.08365194499492645,0.0,0.0,0.0,0.0,0.0,0.0,0.0,-0.41465871848319824,-0.1327725492418454,-0.2399406044304849,0.49859677414009074,0.07399327389408539,-0.11608719866577939,-0.0690577305566642,1.0544112771477616,0.3242334399988505,-0.3925635342347013,-2.1536116087374118,0.8646995343565949,2.465928491632144,0.5444862209873067,1.0544104758940245,0.3238615046091247,-0.39250456234122666,-2.153291787532338,0.8647539153680389,2.46587817577521,0.5445020185570556,-0.0009233364169554992,0.0013965682481809627,-0.0003923233557510526,6.358435560230992e-05,-0.0007062724667921409,-0.00042439944698074636,0.0013123894086464521,0.0,0.0,0.0,0.0,0.0,0.0,0.0,-8.012537371371309e-07,-0.0003719353897257971,5.8971893474646375e-05,0.0003198212050739002,5.438101144406016e-05,-5.0315856933824676e-05,1.5797569748898788e-05,0.0009233364169554992,-0.0013965682481809627,0.0003923233557510526,-6.358435560230992e-05,0.0007062724667921409,0.00042439944698074636,-0.0013123894086464521,0.3752071261405945,34.26528549194336,3.7990386486053467,-19.511445999145508,-0.1357932686805725,-1.796573281288147,0.08365194499492645,0
36,0.17494893074035645,-0.3752071261405945,-34.26528549194336,-3.7990386486053467,19.511445999145508,0.1357932686805725,1.796573281288147,-0.08365194499492645,0.0,0.0,0.0,0.0,0.0,0.0,0.0,-0.41465871848319824,-0.1327725492418454,-0.2399406044304849,0.49859677414009074,0.07399327389408539,-0.11608719866577939,-0.0690577305566642,1.0544112771477616,0.3242334399988505,-0.3925635342347013,-2.1536116087374118,0.8646995343565949,2.465928491632144,0.5444862209873067,1.0544104758940245,0.3238615046091247,-0.39250456234122666,-2.153291787532338,0.8647539153680389,2.46587817577521,0.5445020185570556,-0.0009233364169554992,0.0013965682481809627,-0.0003923233557510526,6.358435560230992e-05,-0.0007062724667921409,-0.00042439944698074636,0.0013123894086464521,0.0,0.0,0.0,0.0,0.0,0.0,0.0,-8.012537371371309e-07,-0.0003719353897257971,5.8971893474646375e-05,0.0003198212050739002,5.438101144406016e-05,-5.0315856933824676e-05,1.5797569748898788e-05,0.0009233364169554992,-0.0013965682481809627,0.0003923233557510526,-6.358435560230992e-05,0.0007062724667921409,0.00042439944698074636,-0.0013123894086464521,0.3752071261405945,34.26528549194336,3.7990386486053467,-19.511445999145508,-0.1357932686805725,-1.796573281288147,0.08365194499492645,0
37,0.1799485683441162,-0.3752071261405945,-34.16213607788086,-3.7514312267303467,19.511445999145508,0.12389141321182251,1.783755898475647,-0.04336874559521675,0.0,0.0,0.0,0.0,0.0,0.0,0.0,-0.40108662069594037,-0.1258816939199145,-0.2306917433560341,0.4951468653779137,0.07287704405917902,-0.11741421030796924,-0.06820708612540209,1.0544112771477616,0.3242244051079489,-0.3925690298129558,-2.1536116157467022,0.8647008567849794,2.4659299157857895,0.5444817450762622,1.0544104758940245,0.3238615046091247,-0.39250456234122666,-2.153291787532338,0.8647539153680389,2.46587817577521,0.5445020185570556,-0.00021986227254812524,-0.0003732677433463521,-0.0009823850406694107,-3.890718767607008e-05,8.324907989157585e-05,9.177520182320387e-05,-0.0013090898646671584,0.0,0.0,0.0,0.0,0.0,0.0,0.0,-8.012537371371309e-07,-0.0003629004988242035,6.446747172916822e-05,0.0003198282143643816,5.30585830594843e-05,-5.174001057950406e-05,2.0273480793364662e-05,0.00021986227254812524,0.0003732677433463521,0.0009823850406694107,3.890718767607008e-05,-8.324907989157585e-05,-9.177520182320387e-05,0.0013090898646671584,0.3752071261405945,34.16213607788086,3.7514312267303467,-19.511445999145508,-0.12389141321182251,-1.783755898475647,0.04336874559521675,0
38,0.18500137329101562,-0.3752071261405945,-34.16213607788086,-3.7514312267303467,19.511445999145508,0.12389141321182251,1.783755898475647,-0.04336874559521675,0.0,0.0,0.0,0.0,0.0,0.0,0.0,-0.40108662069594037,-0.1258816939199145,-0.2306917433560341,0.4951468653779137,0.07287704405917902,-0.11741421030796924,-0.06820708612540209,1.0544112771477616,0.3242244051079489,-0.3925690298129558,-2.1536116157467022,0.8647008567849794,2.4659299157857895,0.5444817450762622,1.0544104758940245,0.3238615046091247,-0.39250456234122666,-2.153291787532338,0.8647539153680389,2.46587817577521,0.5445020185570556,-0.00021986227254812524,-0.0003732677433463521,-0.0009823850406694107,-3.890718767607008e-05,8.324907989157585e-05,9.177520182320387e-05,-0.0013090898646671584,0.0,0.0,0.0,0.0,0.0,0.0,0.0,-8.012537371371309e-07,-0.0003629004988242035,6.446747172916822e-05,0.0003198282143643816,5.30585830594843e-05,-5.174001057950406e-05,2.0273480793364662e-05,0.00021986227254812524,0.0003732677433463521,0.0009823850406694107,3.890718767607008e-05,-8.324907989157585e-05,-9.177520182320387e-05,0.0013090898646671584,0.3752071261405945,34.16213607788086,3.7514312267303467,-19.511445999145508,-0.12389141321182251,-1.783755898475647,0.04336874559521675,0
39,0.1900334358215332,-0.4029781222343445,-34.16213607788086,-3.7752349376678467,19.487642288208008,0.12389141321182251,1.777347207069397,-0.04336874559521675,0.0,0.0,0.0,0.0,0.0,0.0,0.0,-0.4088025962778777,-0.12946995713381387,-0.23831973126977912,0.497931353925778,0.07346212354848049,-0.11673936149219342,-0.06927944689689383,1.0544132259895926,0.32422582225579966,-0.3925659288051119,-2.1536099756093336,0.8647008567849794,2.4659306278626123,0.5444817450762622,1.0544104758940245,0.3238615046091247,-0.39250456234122666,-2.153291787532338,0.8647539153680389,2.46587817577521,0.5445020185570556,0.0003449709735180978,-0.00048492465920083353,-0.00027634965857675385,0.0007588169300613253,0.0001640590706319561,3.737091542470471e-05,-0.0003683765162689305,0.0,0.0,0.0,0.0,0.0,0.0,0.0,-2.7500955681603045e-06,-0.0003643176466749387,6.136646388521516e-05,0.00031818807699579565,5.30585830594843e-05,-5.245208740234375e-05,2.0273480793364662e-05,-0.0003449709735180978,0.00048492465920083353,0.00027634965857675385,-0.0007588169300613253,-0.0001640590706319561,-3.737091542470471e-05,0.0003683765162689305,0.4029781222343445,34.16213607788086,3.7752349376678467,-19.487642288208008,-0.12389141321182251,-1.777347207069397,0.04336874559521675,0
40,0.19499993324279785,-0.4029781222343445,-34.16213607788086,-3.7752349376678467,19.487642288208008,0.12389141321182251,1.777347207069397,-0.04336874559521675,0.0,0.0,0.0,0.0,0.0,0.0,0.0,-0.4088025962778777,-0.12946995713381387,-0.23831973126977912,0.497931353925778,0.07346212354848049,-0.11673936149219342,-0.06927944689689383,1.0544132259895926,0.32422582225579966,-0.3925659288051119,-2.1536099756093336,0.8647008567849794,2.4659306278626123,0.5444817450762622,1.0544104758940245,0.3238615046091247,-0.39250456234122666,-2.153291787532338,0.8647539153680389,2.46587817577521,0.5445020185570556,0.0003449709735180978,-0.00048492465920083353,-0.00027634965857675385,0.0007588169300613253,0.0001640590706319561,3.737091542470471e-05,-0.0003683765162689305,0.0,0.0,0.0,0.0,0.0,0.0,0.0,-2.7500955681603045e-06,-0.0003643176466749387,6.136646388521516e-05,0.00031818807699579565,5.30585830594843e-05,-5.245208740234375e-05,2.0273480793364662e-05,-0.0003449709735180978,0.00048492465920083353,0.00027634965857675385,-0.0007588169300613253,-0.0001640590706319561,-3.737091542470471e-05,0.0003683765162689305,0.4029781222343445,34.16213607788086,3.7752349376678467,-19.487642288208008,-0.12389141321182251,-1.777347207069397,0.04336874559521675,0
41,0.20002031326293945,-0.3752071261405945,-34.18990707397461,-3.7752349376678467,19.511445999145508,0.12389141321182251,1.790164589881897,-0.09738485515117645,0.0,0.0,0.0,0.0,0.0,0.0,0.0,-0.41443240480140486,-0.13826833838314662,-0.2434008529809067,0.5037191435289763,0.07386975634068951,-0.11662552423408881,-0.06765127351605779,1.0544112771477616,0.32422770118919086,-0.39256520467464245,-2.153610891410524,0.8647008567849794,2.4659292037089666,0.5444877468662129,1.0544104758940245,0.3238615046091247,-0.39250456234122666,-2.153291787532338,0.8647539153680389,2.46587817577521,0.5445020185570556,-0.0008969355772994173,-0.00032138036771264784,-0.0010505094232553928,0.0007385906085155998,0.0001506315743646467,-2.6676773859902815e-05,0.00134886392061783,0.0,0.0,0.0,0.0,0.0,0.0,0.0,-8.012537371371309e-07,-0.0003661965800661471,6.0642333415794614e-05,0.0003191038781862332,5.30585830594843e-05,-5.102793375666437e-05,1.4271690842670992e-05,0.0008969355772994173,0.00032138036771264784,0.0010505094232553928,-0.0007385906085155998,-0.0001506315743646467,2.6676773859902815e-05,-0.00134886392061783,0.3752071261405945,34.18990707397461,3.7752349376678467,-19.511445999145508,-0.12389141321182251,-1.790164589881897,0.09738485515117645,0
42,0.2050018310546875,-0.3752071261405945,-34.18990707397461,-3.7752349376678467,19.511445999145508,0.12389141321182251,1.790164589881897,-0.09738485515117645,0.0,0.0,0.0,0.0,0.0,0.0,0.0,-0.41443240480140486,-0.13826833838314662,-0.2434008529809067,0.5037191435289763,0.07386975634068951,-0.11662552423408881,-0.06765127351605779,1.0544112771477616,0.32422770118919086,-0.39256520467464245,-2.153610891410524,0.8647008567849794,2.4659292037089666,0.5444877468662129,1.0544104758940245,0.3238615046091247,-0.39250456234122666,-2.153291787532338,0.8647539153680389,2.46587817577521,0.5445020185570556,-0.0008969355772994173,-0.00032138036771264784,-0.0010505094232553928,0.0007385906085155998,0.0001506315743646467,-2.6676773859902815e-05,0.00134886392061783,0.0,0.0,0.0,0.0,0.0,0.0,0.0,-8.012537371371309e-07,-0.0003661965800661471,6.0642333415794614e-05,0.0003191038781862332,5.30585830594843e-05,-5.102793375666437e-05,1.4271690842670992e-05,0.0008969355772994173,0.00032138036771264784,0.0010505094232553928,-0.0007385906085155998,-0.0001506315743646467,2.6676773859902815e-05,-0.00134886392061783,0.3752071261405945,34.18990707397461,3.7752349376678467,-19.511445999145508,-0.12389141321182251,-1.790164589881897,0.09738485515117645,0
43,0.2101755142211914,-0.3752071261405945,-34.18990707397461,-3.7752349376678467,19.511445999145508,0.12389141321182251,1.790164589881897,-0.09738485515117645,0.0,0.0,0.0,0.0,0.0,0.0,0.0,-0.41443240480140486,-0.13826833838314662,-0.2434008529809067,0.5037191435289763,0.07386975634068951,-0.11662552423408881,-0.06765127351605779,1.0544112771477616,0.32422770118919086,-0.39256520467464245,-2.153610891410524,0.8647008567849794,2.4659292037089666,0.5444877468662129,1.0544104758940245,0.3238615046091247,-0.39250456234122666,-2.153291787532338,0.8647539153680389,2.46587817577521,0.5445020185570556,-0.0008969355772994173,-0.00032138036771264784,-0.0010505094232553928,0.0007385906085155998,0.0001506315743646467,-2.6676773859902815e-05,0.00134886392061783,0.0,0.0,0.0,0.0,0.0,0.0,0.0,-8.012537371371309e-07,-0.0003661965800661471,6.0642333415794614e-05,0.0003191038781862332,5.30585830594843e-05,-5.102793375666437e-05,1.4271690842670992e-05,0.0008969355772994173,0.00032138036771264784,0.0010505094232553928,-0.0007385906085155998,-0.0001506315743646467,2.6676773859902815e-05,-0.00134886392061783,0.3752071261405945,34.18990707397461,3.7752349376678467,-19.511445999145508,-0.12389141321182251,-1.790164589881897,0.09738485515117645,0
44,0.21494817733764648,-0.3752071261405945,-34.18990707397461,-3.7752349376678467,19.511445999145508,0.12389141321182251,1.790164589881897,-0.09738485515117645,0.0,0.0,0.0,0.0,0.0,0.0,0.0,-0.41443240480140486,-0.13826833838314662,-0.2434008529809067,0.5037191435289763,0.07386975634068951,-0.11662552423408881,-0.06765127351605779,1.0544112771477616,0.32422770118919086,-0.39256520467464245,-2.153610891410524,0.8647008567849794,2.4659292037089666,0.5444877468662129,1.0544104758940245,0.3238615046091247,-0.39250456234122666,-2.153291787532338,0.8647539153680389,2.46587817577521,0.5445020185570556,-0.0008969355772994173,-0.00032138036771264784,-0.0010505094232553928,0.0007385906085155998,0.0001506315743646467,-2.6676773859902815e-05,0.00134886392061783,0.0,0.0,0.0,0.0,0.0,0.0,0.0,-8.012537371371309e-07,-0.0003661965800661471,6.0642333415794614e-05,0.0003191038781862332,5.30585830594843e-05,-5.102793375666437e-05,1.4271690842670992e-05,0.0008969355772994173,0.00032138036771264784,0.0010505094232553928,-0.0007385906085155998,-0.0001506315743646467,2.6676773859902815e-05,-0.00134886392061783,0.3752071261405945,34.18990707397461,3.7752349376678467,-19.511445999145508,-0.12389141321182251,-1.790164589881897,0.09738485515117645,0
45,0.21999859809875488,-0.4267818331718445,-34.21371078491211,-3.7752349376678467,19.511445999145508,0.1357932686805725,1.809390664100647,-0.09097616374492645,0.0,0.0,0.0,0.0,0.0,0.0,0.0,-0.4088139069588376,-0.13139568876631702,-0.23761780594906154,0.5012470723646557,0.07356409077252206,-0.11713877446521256,-0.06686692019960942,1.054414896425448,0.32422945234177714,-0.39256520470689343,-2.1536094118697697,0.864699534356594,2.4659270674784977,0.54448703478939,1.0544104758940245,0.3238615046091247,-0.39250456234122666,-2.153291787532338,0.8647539153680389,2.46587817577521,0.5445020185570556,0.0004552026499211082,0.00048668809132340884,-0.0007497423401658877,0.0005947336308753417,-0.00042227046113175727,-0.000854489473859754,0.0009969181880660452,0.0,0.0,0.0,0.0,0.0,0.0,0.0,-4.42053142357679e-06,-0.0003679477326524183,6.064236566677428e-05,0.00031762433743187657,5.4381011444948335e-05,-4.8891703287701205e-05,1.4983767665621706e-05,-0.0004552026499211082,-0.00048668809132340884,0.0007497423401658877,-0.0005947336308753417,0.00042227046113175727,0.000854489473859754,-0.0009969181880660452,0.4267818331718445,34.21371078491211,3.7752349376678467,-19.511445999145508,-0.1357932686805725,-1.809390664100647,0.09097616374492645,0
46,0.22500181198120117,-0.4267818331718445,-34.21371078491211,-3.7752349376678467,19.511445999145508,0.1357932686805725,1.809390664100647,-0.09097616374492645,0.0,0.0,0.0,0.0,0.0,0.0,0.0,-0.4088139069588376,-0.13139568876631702,-0.23761780594906154,0.5012470723646557,0.07356409077252206,-0.11713877446521256,-0.06686692019960942,1.054414896425448,0.32422945234177714,-0.39256520470689343,-2.1536094118697697,0.864699534356594,2.4659270674784977,0.54448703478939,1.0544104758940245,0.3238615046091247,-0.39250456234122666,-2.153291787532338,0.8647539153680389,2.46587817577521,0.5445020185570556,0.0004552026499211082,0.00048668809132340884,-0.0007497423401658877,0.0005947336308753417,-0.00042227046113175727,-0.000854489473859754,0.0009969181880660452,0.0,0.0,0.0,0.0,0.0,0.0,0.0,-4.42053142357679e-06,-0.0003679477326524183,6.064236566677428e-05,0.00031762433743187657,5.4381011444948335e-05,-4.8891703287701205e-05,1.4983767665621706e-05,-0.0004552026499211082,-0.00048668809132340884,0.0007497423401658877,-0.0005947336308753417,0.00042227046113175727,0.000854489473859754,-0.0009969181880660452,0.4267818331718445,34.21371078491211,3.7752349376678467,-19.511445999145508,-0.1357932686805725,-1.809390664100647,0.09097616374492645,0
47,0.23001313209533691,-0.4783565402030945,-34.21371078491211,-3.8228423595428467,19.535249710083008,0.1293845772743225,1.790164589881897,-0.06991903483867645,0.0,0.0,0.0,0.0,0.0,0.0,0.0,-0.4153408013054919,-0.13881478205397058,-0.24253819613361496,0.5045044357213889,0.07336311301435522,-0.1160543727276219,-0.06744932461114672,1.0544185157031343,0.32422991597967427,-0.39256186379884433,-2.153612317599641,0.8646998888055483,2.4659292037089666,0.5444846951084005,1.0544104758940245,0.3238615046091247,-0.39250456234122666,-2.153291787532338,0.8647539153680389,2.46587817577521,0.5445020185570556,0.0011353082620865586,-0.0005642124153412133,0.0002000671520231532,-4.517599194465573e-05,-0.00018883863440615124,-0.00011338188372225343,-3.4210051798915384e-06,0.0,0.0,0.0,0.0,0.0,0.0,0.0,-8.039809109794405e-06,-0.0003684113705495484,5.730145761767558e-05,0.0003205300673032596,5.4026562490649965e-05,-5.102793375666437e-05,1.7323448655126583e-05,-0.0011353082620865586,0.0005642124153412133,-0.0002000671520231532,4.517599194465573e-05,0.00018883863440615124,0.00011338188372225343,3.4210051798915384e-06,0.4783565402030945,34.21371078491211,3.8228423595428467,-19.535249710083008,-0.1293845772743225,-1.790164589881897,0.06991903483867645,0
48,0.2350478172302246,-0.4783565402030945,-34.21371078491211,-3.8228423595428467,19.535249710083008,0.1293845772743225,1.790164589881897,-0.06991903483867645,0.0,0.0,0.0,0.0,0.0,0.0,0.0,-0.4153408013054919,-0.13881478205397058,-0.24253819613361496,0.5045044357213889,0.07336311301435522,-0.1160543727276219,-0.06744932461114672,1.0544185157031343,0.32422991597967427,-0.39256186379884433,-2.153612317599641,0.8646998888055483,2.4659292037089666,0.5444846951084005,1.0544104758940245,0.3238615046091247,-0.39250456234122666,-2.153291787532338,0.8647539153680389,2.46587817577521,0.5445020185570556,0.0011353082620865586,-0.0005642124153412133,0.0002000671520231532,-4.517599194465573e-05,-0.00018883863440615124,-0.00011338188372225343,-3.4210051798915384e-06,0.0,0.0,0.0,0.0,0.0,0.0,0.0,-8.039809109794405e-06,-0.0003684113705495484,5.730145761767558e-05,0.0003205300673032596,5.4026562490649965e-05,-5.102793375666437e-05,1.7323448655126583e-05,-0.0011353082620865586,0.0005642124153412133,-0.0002000671520231532,4.517599194465573e-05,0.00018883863440615124,0.00011338188372225343,3.4210051798915384e-06,0.4783565402030945,34.21371078491211,3.8228423595428467,-19.535249710083008,-0.1293845772743225,-1.790164589881897,0.06991903483867645,0
49,0.24000072479248047,-0.4783565402030945,-34.21371078491211,-3.8228423595428467,19.535249710083008,0.1293845772743225,1.790164589881897,-0.06991903483867645,0.0,0.0,0.0,0.0,0.0,0.0,0.0,-0.4153408013054919,-0.13881478205397058,-0.24253819613361496,0.5045044357213889,0.07336311301435522,-0.1160543727276219,-0.06744932461114672,1.0544185157031343,0.32422991597967427,-0.39256186379884433,-2.153612317599641,0.8646998888055483,2.4659292037089666,0.5444846951084005,1.0544104758940245,0.3238615046091247,-0.39250456234122666,-2.153291787532338,0.8647539153680389,2.46587817577521,0.5445020185570556,0.0011353082620865586,-0.0005642124153412133,0.0002000671520231532,-4.517599194465573e-05,-0.00018883863440615124,-0.00011338188372225343,-3.4210051798915384e-06,0.0,0.0,0.0,0.0,0.0,0.0,0.0,-8.039809109794405e-06,-0.0003684113705495484,5.730145761767558e-05,0.0003205300673032596,5.4026562490649965e-05,-5.102793375666437e-05,1.7323448655126583e-05,-0.0011353082620865586,0.0005642124153412133,-0.0002000671520231532,4.517599194465573e-05,0.00018883863440615124,0.00011338188372225343,3.4210051798915384e-06,0.4783565402030945,34.21371078491211,3.8228423595428467,-19.535249710083008,-0.1293845772743225,-1.790164589881897,0.06991903483867645,0
50,0.24499797821044922,-0.4267818331718445,-34.21371078491211,-3.7752349376678467,19.511445999145508,0.1293845772743225,1.796573281288147,-0.04336874559521675,0.0,0.0,0.0,0.0,0.0,0.0,0.0,-0.4162018867908499,-0.13252673316417124,-0.24080477727622396,0.5001807047971023,0.07320928246192379,-0.11651248742539141,-0.06801271326807014,1.054414896425448,0.3242294432722739,-0.39256814516636357,-2.153611646378883,0.8647002464313981,2.465928491632144,0.5444817450762622,1.0544104758940245,0.3238615046091247,-0.39250456234122666,-2.153291787532338,0.8647539153680389,2.46587817577521,0.5445020185570556,-0.00013727460108690708,0.00023392401139582639,-0.001048848859999107,0.0003601904764962372,8.19559283770011e-05,-0.00024500478973500027,-0.0013693885980843254,0.0,0.0,0.0,0.0,0.0,0.0,0.0,-4.42053142357679e-06,-0.0003679386631491588,6.358282513690972e-05,0.0003198588465451735,5.366893664082717e-05,-5.0315856933824676e-05,2.0273480793364662e-05,0.00013727460108690708,-0.00023392401139582639,0.001048848859999107,-0.0003601904764962372,-8.19559283770011e-05,0.00024500478973500027,0.0013693885980843254,0.4267818331718445,34.21371078491211,3.7752349376678467,-19.511445999145508,-0.1293845772743225,-1.796573281288147,0.04336874559521675,0
51,0.2500436305999756,-0.4267818331718445,-34.21371078491211,-3.7752349376678467,19.511445999145508,0.1293845772743225,1.796573281288147,-0.04336874559521675,0.0,0.0,0.0,0.0,0.0,0.0,0.0,-0.4162018867908499,-0.13252673316417124,-0.24080477727622396,0.5001807047971023,0.07320928246192379,-0.11651248742539141,-0.06801271326807014,1.054414896425448,0.3242294432722739,-0.39256814516636357,-2.153611646378883,0.8647002464313981,2.465928491632144,0.5444817450762622,1.0544104758940245,0.3238615046091247,-0.39250456234122666,-2.153291787532338,0.8647539153680389,2.46587817577521,0.5445020185570556,-0.00013727460108690708,0.00023392401139582639,-0.001048848859999107,0.0003601904764962372,8.19559283770011e-05,-0.00024500478973500027,-0.0013693885980843254,0.0,0.0,0.0,0.0,0.0,0.0,0.0,-4.42053142357679e-06,-0.0003679386631491588,6.358282513690972e-05,0.0003198588465451735,5.366893664082717e-05,-5.0315856933824676e-05,2.0273480793364662e-05,0.00013727460108690708,-0.00023392401139582639,0.001048848859999107,-0.0003601904764962372,-8.19559283770011e-05,0.00024500478973500027,0.0013693885980843254,0.4267818331718445,34.21371078491211,3.7752349376678467,-19.511445999145508,-0.1293845772743225,-1.796573281288147,0.04336874559521675,0
52,0.25501227378845215,-0.4267818331718445,-34.18990707397461,-3.7990386486053467,19.487642288208008,0.1293845772743225,1.790164589881897,-0.04336874559521675,0.0,0.0,0.0,0.0,0.0,0.0,0.0,-0.41822991281708344,-0.13266534437540692,-0.24113633712404353,0.4990645754541318,0.07479964746869605,-0.11635616623720897,-0.06751986116844282,1.054414896425448,0.32422817328717946,-0.3925635342512986,-2.15360997579793,0.8647002464334169,2.4659292037089666,0.5444817450762622,1.0544104758940245,0.3238615046091247,-0.39250456234122666,-2.153291787532338,0.8647539153680389,2.46587817577521,0.5445020185570556,0.0002261109486133747,-1.4561306009405627e-05,-0.0002225108911359181,0.0008712779194818046,-0.0018138201199313574,2.7186573321390624e-05,-0.0008361586390055373,0.0,0.0,0.0,0.0,0.0,0.0,0.0,-4.42053142357679e-06,-0.0003666686780547379,5.897191007192548e-05,0.0003181882655920454,5.366893462199762e-05,-5.102793375666437e-05,2.0273480793364662e-05,-0.0002261109486133747,1.4561306009405627e-05,0.0002225108911359181,-0.0008712779194818046,0.0018138201199313574,-2.7186573321390624e-05,0.0008361586390055373,0.4267818331718445,34.18990707397461,3.7990386486053467,-19.487642288208008,-0.1293845772743225,-1.790164589881897,0.04336874559521675,0
53,0.26000189781188965,-0.4267818331718445,-34.18990707397461,-3.7990386486053467,19.487642288208008,0.1293845772743225,1.790164589881897,-0.04336874559521675,0.0,0.0,0.0,0.0,0.0,0.0,0.0,-0.41822991281708344,-0.13266534437540692,-0.24113633712404353,0.4990645754541318,0.07479964746869605,-0.11635616623720897,-0.06751986116844282,1.054414896425448,0.32422817328717946,-0.3925635342512986,-2.15360997579793,0.8647002464334169,2.4659292037089666,0.5444817450762622,1.0544104758940245,0.3238615046091247,-0.39250456234122666,-2.153291787532338,0.8647539153680389,2.46587817577521,0.5445020185570556,0.0002261109486133747,-1.4561306009405627e-05,-0.0002225108911359181,0.0008712779194818046,-0.0018138201199313574,2.7186573321390624e-05,-0.0008361586390055373,0.0,0.0,0.0,0.0,0.0,0.0,0.0,-4.42053142357679e-06,-0.0003666686780547379,5.897191007192548e-05,0.0003181882655920454,5.366893462199762e-05,-5.102793375666437e-05,2.0273480793364662e-05,-0.0002261109486133747,1.4561306009405627e-05,0.0002225108911359181,-0.0008712779194818046,0.0018138201199313574,-2.7186573321390624e-05,0.0008361586390055373,0.4267818331718445,34.18990707397461,3.7990386486053467,-19.487642288208008,-0.1293845772743225,-1.790164589881897,0.04336874559521675,0
54,0.26502013206481934,-0.4267818331718445,-34.18990707397461,-3.7990386486053467,19.487642288208008,0.1293845772743225,1.790164589881897,-0.04336874559521675,0.0,0.0,0.0,0.0,0.0,0.0,0.0,-0.41822991281708344,-0.13266534437540692,-0.24113633712404353,0.4990645754541318,0.07479964746869605,-0.11635616623720897,-0.06751986116844282,1.054414896425448,0.32422817328717946,-0.3925635342512986,-2.15360997579793,0.8647002464334169,2.4659292037089666,0.5444817450762622,1.0544104758940245,0.3238615046091247,-0.39250456234122666,-2.153291787532338,0.8647539153680389,2.46587817577521,0.5445020185570556,0.0002261109486133747,-1.4561306009405627e-05,-0.0002225108911359181,0.0008712779194818046,-0.0018138201199313574,2.7186573321390624e-05,-0.0008361586390055373,0.0,0.0,0.0,0.0,0.0,0.0,0.0,-4.42053142357679e-06,-0.0003666686780547379,5.897191007192548e-05,0.0003181882655920454,5.366893462199762e-05,-5.102793375666437e-05,2.0273480793364662e-05,-0.0002261109486133747,1.4561306009405627e-05,0.0002225108911359181,-0.0008712779194818046,0.0018138201199313574,-2.7186573321390624e-05,0.0008361586390055373,0.4267818331718445,34.18990707397461,3.7990386486053467,-19.487642288208008,-0.1293845772743225,-1.790164589881897,0.04336874559521675,0
55,0.2700023651123047,-0.4267818331718445,-34.18990707397461,-3.7514312267303467,19.535249710083008,0.1293845772743225,1.770938515663147,-0.05710165575146675,0.0,0.0,0.0,0.0,0.0,0.0,0.0,-0.4215362407004796,-0.13750083573934938,-0.2468925593511733,0.5016473826344443,0.07373490666110395,-0.11621697120072692,-0.06919967423917892,1.054414896425448,0.32422746496890553,-0.3925668780498492,-2.1536108439922486,0.8647002464334169,2.465931339939435,0.5444832709551686,1.0544104758940245,0.3238615046091247,-0.39250456234122666,-2.153291787532338,0.8647539153680389,2.46587817577521,0.5445020185570556,0.00035703775632001035,-0.0008131898487245189,-0.0014395133135466035,-0.0006084972474014651,-0.00019429089465602262,0.0005063069728116954,-1.392831774736692e-05,0.0,0.0,0.0,0.0,0.0,0.0,0.0,-4.42053142357679e-06,-0.00036596035978081476,6.2315708622529e-05,0.00031905645991070486,5.366893462199762e-05,-5.316416422518344e-05,1.8747601887025844e-05,-0.00035703775632001035,0.0008131898487245189,0.0014395133135466035,0.0006084972474014651,0.00019429089465602262,-0.0005063069728116954,1.392831774736692e-05,0.4267818331718445,34.18990707397461,3.7514312267303467,-19.535249710083008,-0.1293845772743225,-1.770938515663147,0.05710165575146675,0
56,0.2749972343444824,-0.4267818331718445,-34.18990707397461,-3.7514312267303467,19.535249710083008,0.1293845772743225,1.770938515663147,-0.05710165575146675,0.0,0.0,0.0,0.0,0.0,0.0,0.0,-0.4215362407004796,-0.13750083573934938,-0.2468925593511733,0.5016473826344443,0.07373490666110395,-0.11621697120072692,-0.06919967423917892,1.054414896425448,0.32422746496890553,-0.3925668780498492,-2.1536108439922486,0.8647002464334169,2.465931339939435,0.5444832709551686,1.0544104758940245,0.3238615046091247,-0.39250456234122666,-2.153291787532338,0.8647539153680389,2.46587817577521,0.5445020185570556,0.00035703775632001035,-0.0008131898487245189,-0.0014395133135466035,-0.0006084972474014651,-0.00019429089465602262,0.0005063069728116954,-1.392831774736692e-05,0.0,0.0,0.0,0.0,0.0,0.0,0.0,-4.42053142357679e-06,-0.00036596035978081476,6.2315708622529e-05,0.00031905645991070486,5.366893462199762e-05,-5.316416422518344e-05,1.8747601887025844e-05,-0.00035703775632001035,0.0008131898487245189,0.0014395133135466035,0.0006084972474014651,0.00019429089465602262,-0.0005063069728116954,1.392831774736692e-05,0.4267818331718445,34.18990707397461,3.7514312267303467,-19.535249710083008,-0.1293845772743225,-1.770938515663147,0.05710165575146675,0
57,0.2799568176269531,-0.4267818331718445,-34.18990707397461,-3.7514312267303467,19.535249710083008,0.1293845772743225,1.770938515663147,-0.05710165575146675,0.0,0.0,0.0,0.0,0.0,0.0,0.0,-0.4215362407004796,-0.13750083573934938,-0.2468925593511733,0.5016473826344443,0.07373490666110395,-0.11621697120072692,-0.06919967423917892,1.054414896425448,0.32422746496890553,-0.3925668780498492,-2.1536108439922486,0.8647002464334169,2.465931339939435,0.5444832709551686,1.0544104758940245,0.3238615046091247,-0.39250456234122666,-2.153291787532338,0.8647539153680389,2.46587817577521,0.5445020185570556,0.00035703775632001035,-0.0008131898487245189,-0.0014395133135466035,-0.0006084972474014651,-0.00019429089465602262,0.0005063069728116954,-1.392831774736692e-05,0.0,0.0,0.0,0.0,0.0,0.0,0.0,-4.42053142357679e-06,-0.00036596035978081476,6.2315708622529e-05,0.00031905645991070486,5.366893462199762e-05,-5.316416422518344e-05,1.8747601887025844e-05,-0.00035703775632001035,0.0008131898487245189,0.0014395133135466035,0.0006084972474014651,0.00019429089465602262,-0.0005063069728116954,1.392831774736692e-05,0.4267818331718445,34.18990707397461,3.7514312267303467,-19.535249710083008,-0.1293845772743225,-1.770938515663147,0.05710165575146675,0
58,0.2850005626678467,-0.4267818331718445,-34.18990707397461,-3.7514312267303467,19.535249710083008,0.1293845772743225,1.770938515663147,-0.05710165575146675,0.0,0.0,0.0,0.0,0.0,0.0,0.0,-0.4215362407004796,-0.13750083573934938,-0.2468925593511733,0.5016473826344443,0.07373490666110395,-0.11621697120072692,-0.06919967423917892,1.054414896425448,0.32422746496890553,-0.3925668780498492,-2.1536108439922486,0.8647002464334169,2.465931339939435,0.5444832709551686,1.0544104758940245,0.3238615046091247,-0.39250456234122666,-2.153291787532338,0.8647539153680389,2.46587817577521,0.5445020185570556,0.00035703775632001035,-0.0008131898487245189,-0.0014395133135466035,-0.0006084972474014651,-0.00019429089465602262,0.0005063069728116954,-1.392831774736692e-05,0.0,0.0,0.0,0.0,0.0,0.0,0.0,-4.42053142357679e-06,-0.00036596035978081476,6.2315708622529e-05,0.00031905645991070486,5.366893462199762e-05,-5.316416422518344e-05,1.8747601887025844e-05,-0.00035703775632001035,0.0008131898487245189,0.0014395133135466035,0.0006084972474014651,0.00019429089465602262,-0.0005063069728116954,1.392831774736692e-05,0.4267818331718445,34.18990707397461,3.7514312267303467,-19.535249710083008,-0.1293845772743225,-1.770938515663147,0.05710165575146675,0
59,0.2899909019470215,-0.3752071261405945,-34.18990707397461,-3.8228423595428467,19.586824417114258,0.1293845772743225,1.790164589881897,-0.07724325358867645,0.0,0.0,0.0,0.0,0.0,0.0,0.0,-0.4128031485203415,-0.14143478267589535,-0.23888411371322066,0.5064561308448652,0.0734071046446881,-0.1168230769770622,-0.06920697331979164,1.0544112771477616,0.3242260932893594,-0.392562579054598,-2.153616935971052,0.8647002464334169,2.4659292037089666,0.5444855089104838,1.0544104758940245,0.3238615046091247,-0.39250456234122666,-2.153291787532338,0.8647539153680389,2.46587817577521,0.5445020185570556,-0.0008855559191022591,-0.0008417824758527143,0.0007711114954390464,-0.00107326999953102,6.646338122276624e-05,1.2321113472942095e-05,0.0005121460933278551,0.0,0.0,0.0,0.0,0.0,0.0,0.0,-8.012537371371309e-07,-0.0003645886802347009,5.8016713371356055e-05,0.00032514843871433996,5.366893462199762e-05,-5.102793375666437e-05,1.65096465718495e-05,0.0008855559191022591,0.0008417824758527143,-0.0007711114954390464,0.00107326999953102,-6.646338122276624e-05,-1.2321113472942095e-05,-0.0005121460933278551,0.3752071261405945,34.18990707397461,3.8228423595428467,-19.586824417114258,-0.1293845772743225,-1.790164589881897,0.07724325358867645,0
60,0.29495882987976074,-0.3752071261405945,-34.18990707397461,-3.8228423595428467,19.586824417114258,0.1293845772743225,1.790164589881897,-0.07724325358867645,0.0,0.0,0.0,0.0,0.0,0.0,0.0,-0.4128031485203415,-0.14143478267589535,-0.23888411371322066,0.5064561308448652,0.0734071046446881,-0.1168230769770622,-0.06920697331979164,1.0544112771477616,0.3242260932893594,-0.392562579054598,-2.153616935971052,0.8647002464334169,2.4659292037089666,0.5444855089104838,1.0544104758940245,0.3238615046091247,-0.39250456234122666,-2.153291787532338,0.8647539153680389,2.46587817577521,0.5445020185570556,-0.0008855559191022591,-0.0008417824758527143,0.0007711114954390464,-0.00107326999953102,6.646338122276624e-05,1.2321113472942095e-05,0.0005121460933278551,0.0,0.0,0.0,0.0,0.0,0.0,0.0,-8.012537371371309e-07,-0.0003645886802347009,5.8016713371356055e-05,0.00032514843871433996,5.366893462199762e-05,-5.102793375666437e-05,1.65096465718495e-05,0.0008855559191022591,0.0008417824758527143,-0.0007711114954390464,0.00107326999953102,-6.646338122276624e-05,-1.2321113472942095e-05,-0.0005121460933278551,0.3752071261405945,34.18990707397461,3.8228423595428467,-19.586824417114258,-0.1293845772743225,-1.790164589881897,0.07724325358867645,0
61,0.3000023365020752,-0.4505855441093445,-34.21371078491211,-3.7752349376678467,19.535249710083008,0.11748272180557251,1.777347207069397,-0.02963583543896675,0.0,0.0,0.0,0.0,0.0,0.0,0.0,-0.4193702817644478,-0.13139223192790989,-0.2422016976566579,0.5028141889520207,0.07343554129921898,-0.1163745809860503,-0.06928291739115575,1.0544165668613033,0.32422933856547614,-0.3925652046745923,-2.153613315463731,0.8647015688618023,2.4659339657227197,0.544480219197356,1.0544104758940245,0.3238615046091247,-0.39250456234122666,-2.153291787532338,0.8647539153680389,2.46587817577521,0.5445020185570556,0.00041320720747274397,8.266308100771558e-05,-0.0006478515049115395,-3.297732601353808e-05,0.0002360833404047369,0.0004192116758214746,-0.0011273939838311294,0.0,0.0,0.0,0.0,0.0,0.0,0.0,-6.090967278771231e-06,-0.00036783395635142657,6.0642333365668044e-05,0.00032152793139328395,5.234650623664461e-05,-5.5789947509765625e-05,2.1799359699592458e-05,-0.00041320720747274397,-8.266308100771558e-05,0.0006478515049115395,3.297732601353808e-05,-0.0002360833404047369,-0.0004192116758214746,0.0011273939838311294,0.4505855441093445,34.21371078491211,3.7752349376678467,-19.535249710083008,-0.11748272180557251,-1.777347207069397,0.02963583543896675,0
62,0.30539941787719727,-0.4505855441093445,-34.21371078491211,-3.7752349376678467,19.535249710083008,0.11748272180557251,1.777347207069397,-0.02963583543896675,0.0,0.0,0.0,0.0,0.0,0.0,0.0,-0.4193702817644478,-0.13139223192790989,-0.2422016976566579,0.5028141889520207,0.07343554129921898,-0.1163745809860503,-0.06928291739115575,1.0544165668613033,0.32422933856547614,-0.3925652046745923,-2.153613315463731,0.8647015688618023,2.4659339657227197,0.544480219197356,1.0544104758940245,0.3238615046091247,-0.39250456234122666,-2.153291787532338,0.8647539153680389,2.46587817577521,0.5445020185570556,0.00041320720747274397,8.266308100771558e-05,-0.0006478515049115395,-3.297732601353808e-05,0.0002360833404047369,0.0004192116758214746,-0.0011273939838311294,0.0,0.0,0.0,0.0,0.0,0.0,0.0,-6.090967278771231e-06,-0.00036783395635142657,6.0642333365668044e-05,0.00032152793139328395,5.234650623664461e-05,-5.5789947509765625e-05,2.1799359699592458e-05,-0.00041320720747274397,-8.266308100771558e-05,0.0006478515049115395,3.297732601353808e-05,-0.0002360833404047369,-0.0004192116758214746,0.0011273939838311294,0.4505855441093445,34.21371078491211,3.7752349376678467,-19.535249710083008,-0.11748272180557251,-1.777347207069397,0.02963583543896675,0
63,0.3100013732910156,-0.3752071261405945,-34.23751449584961,-3.8228423595428467,19.535249710083008,0.12389141321182251,1.783755898475647,-0.04336874559521675,0.0,0.0,0.0,0.0,0.0,0.0,0.0,-0.4158828737027525,-0.132627101918243,-0.2337674161333201,0.5044925525574325,0.07254247967991671,-0.11714510615628512,-0.06945762676069442,1.0544112771477616,0.3242296185659267,-0.3925618637988441,-2.153613315312986,0.8647008567849794,2.4659299158046317,0.5444817452377677,1.0544104758940245,0.3238615046091247,-0.39250456234122666,-2.153291787532338,0.8647539153680389,2.46587817577521,0.5445020185570556,-0.0014733267126709648,0.0007007872638210884,0.0005039466070543055,-0.00016959648758586423,0.00019752070818078546,0.007512903887211091,-0.0009012225465740293,0.0,0.0,0.0,0.0,0.0,0.0,0.0,-8.012537371371309e-07,-0.00036811395680197423,5.730145761745353e-05,0.00032152778064808984,5.30585830594843e-05,-5.1740029421765144e-05,2.0273319287889002e-05,0.0014733267126709648,-0.0007007872638210884,-0.0005039466070543055,0.00016959648758586423,-0.00019752070818078546,-0.007512903887211091,0.0009012225465740293,0.3752071261405945,34.23751449584961,3.8228423595428467,-19.535249710083008,-0.12389141321182251,-1.783755898475647,0.04336874559521675,0
64,0.3150317668914795,-0.3752071261405945,-34.23751449584961,-3.8228423595428467,19.535249710083008,0.12389141321182251,1.783755898475647,-0.04336874559521675,0.0,0.0,0.0,0.0,0.0,0.0,0.0,-0.4158828737027525,-0.132627101918243,-0.2337674161333201,0.5044925525574325,0.07254247967991671,-0.11714510615628512,-0.06945762676069442,1.0544112771477616,0.3242296185659267,-0.3925618637988441,-2.153613315312986,0.8647008567849794,2.4659299158046317,0.5444817452377677,1.0544104758940245,0.3238615046091247,-0.39250456234122666,-2.153291787532338,0.8647539153680389,2.46587817577521,0.5445020185570556,-0.0014733267126709648,0.0007007872638210884,0.0005039466070543055,-0.00016959648758586423,0.00019752070818078546,0.007512903887211091,-0.0009012225465740293,0.0,0.0,0.0,0.0,0.0,0.0,0.0,-8.012537371371309e-07,-0.00036811395680197423,5.730145761745353e-05,0.00032152778064808984,5.30585830594843e-05,-5.1740029421765144e-05,2.0273319287889002e-05,0.0014733267126709648,-0.0007007872638210884,-0.0005039466070543055,0.00016959648758586423,-0.00019752070818078546,-0.007512903887211091,0.0009012225465740293,0.3752071261405945,34.23751449584961,3.8228423595428467,-19.535249710083008,-0.12389141321182251,-1.783755898475647,0.04336874559521675,0
65,0.3200094699859619,-0.4267818331718445,-34.21371078491211,-3.7752349376678467,19.487642288208008,0.12389141321182251,1.790164589881897,-0.06991903483867645,0.0,0.0,0.0,0.0,0.0,0.0,0.0,-0.41185125505949,-0.1252603649936948,-0.22783039729669624,0.4996872930971759,0.0729092535299338,-0.11814082296867319,-0.0698791425485414,1.054414896425448,0.3242277209477965,-0.3925652051429585,-2.1536077507085882,0.8647008567849794,2.4659292037089666,0.5444846951084014,1.0544104758940245,0.3238615046091247,-0.39250456234122666,-2.153291787532338,0.8647539153680389,2.46587817577521,0.5445020185570556,0.000566999075412381,0.0005706611446286004,-0.0010442937262067744,0.0009475588344095459,0.000328129732108518,0.00034590071372117136,0.0003736689930709526,0.0,0.0,0.0,0.0,0.0,0.0,0.0,-4.42053142357679e-06,-0.0003662163386717876,6.064280173184722e-05,0.00031596317625037784,5.30585830594843e-05,-5.102793375666437e-05,1.7323448654238405e-05,-0.000566999075412381,-0.0005706611446286004,0.0010442937262067744,-0.0009475588344095459,-0.000328129732108518,-0.00034590071372117136,-0.0003736689930709526,0.4267818331718445,34.21371078491211,3.7752349376678467,-19.487642288208008,-0.12389141321182251,-1.790164589881897,0.06991903483867645,0
66,0.324967622756958,-0.4267818331718445,-34.21371078491211,-3.7752349376678467,19.487642288208008,0.12389141321182251,1.790164589881897,-0.06991903483867645,0.0,0.0,0.0,0.0,0.0,0.0,0.0,-0.41185125505949,-0.1252603649936948,-0.22783039729669624,0.4996872930971759,0.0729092535299338,-0.11814082296867319,-0.0698791425485414,1.054414896425448,0.3242277209477965,-0.3925652051429585,-2.1536077507085882,0.8647008567849794,2.4659292037089666,0.5444846951084014,1.0544104758940245,0.3238615046091247,-0.39250456234122666,-2.153291787532338,0.8647539153680389,2.46587817577521,0.5445020185570556,0.000566999075412381,0.0005706611446286004,-0.0010442937262067744,0.0009475588344095459,0.000328129732108518,0.00034590071372117136,0.0003736689930709526,0.0,0.0,0.0,0.0,0.0,0.0,0.0,-4.42053142357679e-06,-0.0003662163386717876,6.064280173184722e-05,0.00031596317625037784,5.30585830594843e-05,-5.102793375666437e-05,1.7323448654238405e-05,-0.000566999075412381,-0.0005706611446286004,0.0010442937262067744,-0.0009475588344095459,-0.000328129732108518,-0.00034590071372117136,-0.0003736689930709526,0.4267818331718445,34.21371078491211,3.7752349376678467,-19.487642288208008,-0.12389141321182251,-1.790164589881897,0.06991903483867645,0
67,0.32996177673339844,-0.4505855441093445,-34.21371078491211,-3.7752349376678467,19.559053421020508,0.1357932686805725,1.783755898475647,-0.09097616374492645,0.0,0.0,0.0,0.0,0.0,0.0,0.0,-0.41243982957787084,-0.13943745758943044,-0.23297545585715418,0.5077066576666714,0.07330023115575202,-0.11600786853796681,-0.06851329020445945,1.0544165668613033,0.32423015275693673,-0.3925652056517038,-2.15361275793366,0.864699534356594,2.4659299157857895,0.54448703478939,1.0544104758940245,0.3238615046091247,-0.39250456234122666,-2.153291787532338,0.8647539153680389,2.46587817577521,0.5445020185570556,0.0011847485831553875,-0.00012460685456672818,-5.4332118729830716e-05,-0.0011389450562368825,-0.00029587815693026616,8.455659673184527e-05,0.0014085944334732727,0.0,0.0,0.0,0.0,0.0,0.0,0.0,-6.090967278771231e-06,-0.00036864814781201183,6.064331047711535e-05,0.0003209704013222847,5.4381011444948335e-05,-5.174001057950406e-05,1.4983767665621706e-05,-0.0011847485831553875,0.00012460685456672818,5.4332118729830716e-05,0.0011389450562368825,0.00029587815693026616,-8.455659673184527e-05,-0.0014085944334732727,0.4505855441093445,34.21371078491211,3.7752349376678467,-19.559053421020508,-0.1357932686805725,-1.783755898475647,0.09097616374492645,0
68,0.3350043296813965,-0.4505855441093445,-34.21371078491211,-3.7752349376678467,19.559053421020508,0.1357932686805725,1.783755898475647,-0.09097616374492645,0.0,0.0,0.0,0.0,0.0,0.0,0.0,-0.41243982957787084,-0.13943745758943044,-0.23297545585715418,0.5077066576666714,0.07330023115575202,-0.11600786853796681,-0.06851329020445945,1.0544165668613033,0.32423015275693673,-0.3925652056517038,-2.15361275793366,0.864699534356594,2.4659299157857895,0.54448703478939,1.0544104758940245,0.3238615046091247,-0.39250456234122666,-2.153291787532338,0.8647539153680389,2.46587817577521,0.5445020185570556,0.0011847485831553875,-0.00012460685456672818,-5.4332118729830716e-05,-0.0011389450562368825,-0.00029587815693026616,8.455659673184527e-05,0.0014085944334732727,0.0,0.0,0.0,0.0,0.0,0.0,0.0,-6.090967278771231e-06,-0.00036864814781201183,6.064331047711535e-05,0.0003209704013222847,5.4381011444948335e-05,-5.174001057950406e-05,1.4983767665621706e-05,-0.0011847485831553875,0.00012460685456672818,5.4332118729830716e-05,0.0011389450562368825,0.00029587815693026616,-8.455659673184527e-05,-0.0014085944334732727,0.4505855441093445,34.21371078491211,3.7752349376678467,-19.559053421020508,-0.1357932686805725,-1.783755898475647,0.09097616374492645,0
69,0.3400144577026367,-0.4267818331718445,-34.16213607788086,-3.8228423595428467,19.535249710083008,0.1357932686805725,1.790164589881897,-0.08365194499492645,0.0,0.0,0.0,0.0,0.0,0.0,0.0,-0.42247362594041454,-0.14156793289807468,-0.2414959196353278,0.5074004955130728,0.07436658073766728,-0.11543342891545645,-0.06772965438636959,1.054414896425448,0.3242264540719347,-0.392562579199942,-2.15361323133904,0.864699534356594,2.4659292037089666,0.5444862209873067,1.0544104758940245,0.3238615046091247,-0.39250456234122666,-2.153291787532338,0.8647539153680389,2.46587817577521,0.5445020185570556,0.00010893646088536712,-0.0014117105660144899,0.00048675952209112437,2.139233480875402e-05,-0.00015193860322301755,-0.00010800767106150798,0.00031426640139762017,0.0,0.0,0.0,0.0,0.0,0.0,0.0,-4.42053142357679e-06,-0.0003649494628099603,5.8016858715315145e-05,0.00032144380670207084,5.4381011444948335e-05,-5.102793375666437e-05,1.5797569748898788e-05,-0.00010893646088536712,0.0014117105660144899,-0.00048675952209112437,-2.139233480875402e-05,0.00015193860322301755,0.00010800767106150798,-0.00031426640139762017,0.4267818331718445,34.16213607788086,3.8228423595428467,-19.535249710083008,-0.1357932686805725,-1.790164589881897,0.08365194499492645,0
70,0.34505319595336914,-0.4267818331718445,-34.16213607788086,-3.8228423595428467,19.535249710083008,0.1357932686805725,1.790164589881897,-0.08365194499492645,0.0,0.0,0.0,0.0,0.0,0.0,0.0,-0.42247362594041454,-0.14156793289807468,-0.2414959196353278,0.5074004955130728,0.07436658073766728,-0.11543342891545645,-0.06772965438636959,1.054414896425448,0.3242264540719347,-0.392562579199942,-2.15361323133904,0.864699534356594,2.4659292037089666,0.5444862209873067,1.0544104758940245,0.3238615046091247,-0.39250456234122666,-2.153291787532338,0.8647539153680389,2.46587817577521,0.5445020185570556,0.00010893646088536712,-0.0014117105660144899,0.00048675952209112437,2.139233480875402e-05,-0.00015193860322301755,-0.00010800767106150798,0.00031426640139762017,0.0,0.0,0.0,0.0,0.0,0.0,0.0,-4.42053142357679e-06,-0.0003649494628099603,5.8016858715315145e-05,0.00032144380670207084,5.4381011444948335e-05,-5.102793375666437e-05,1.5797569748898788e-05,-0.00010893646088536712,0.0014117105660144899,-0.00048675952209112437,-2.139233480875402e-05,0.00015193860322301755,0.00010800767106150798,-0.00031426640139762017,0.4267818331718445,34.16213607788086,3.8228423595428467,-19.535249710083008,-0.1357932686805725,-1.790164589881897,0.08365194499492645,0
71,0.3500528335571289,-0.4029781222343445,-34.21371078491211,-3.7990386486053467,19.535249710083008,0.12389141321182251,1.783755898475647,-0.01590292528271675,0.0,0.0,0.0,0.0,0.0,0.0,0.0,-0.41174929910171154,-0.12673088043052688,-0.23175385064579257,0.49996050260627434,0.0745133044896544,-0.11699810382609259,-0.06993435672154373,1.0544132259895926,0.3242280272672443,-0.3925635352198843,-2.1536129871547005,0.8647008567849794,2.465929917312017,0.5444786933184498,1.0544104758940245,0.3238615046091247,-0.39250456234122666,-2.153291787532338,0.8647539153680389,2.46587817577521,0.5445020185570556,-0.00025295476835704954,0.0007787801997590271,0.00022777135023190965,-0.0006441567397431814,0.00015141217125864826,0.00019829758630413505,-0.0021963615500983948,0.0,0.0,0.0,0.0,0.0,0.0,0.0,-2.7500955681603045e-06,-0.0003665226581195946,5.897287865763712e-05,0.00032119962236265565,5.30585830594843e-05,-5.1741536807092814e-05,2.3325238605820253e-05,0.00025295476835704954,-0.0007787801997590271,-0.00022777135023190965,0.0006441567397431814,-0.00015141217125864826,-0.00019829758630413505,0.0021963615500983948,0.4029781222343445,34.21371078491211,3.7990386486053467,-19.535249710083008,-0.12389141321182251,-1.783755898475647,0.01590292528271675,0
72,0.3550248146057129,-0.4029781222343445,-34.21371078491211,-3.7990386486053467,19.535249710083008,0.12389141321182251,1.783755898475647,-0.01590292528271675,0.0,0.0,0.0,0.0,0.0,0.0,0.0,-0.41174929910171154,-0.12673088043052688,-0.23175385064579257,0.49996050260627434,0.0745133044896544,-0.11699810382609259,-0.06993435672154373,1.0544132259895926,0.3242280272672443,-0.3925635352198843,-2.1536129871547005,0.8647008567849794,2.465929917312017,0.5444786933184498,1.0544104758940245,0.3238615046091247,-0.39250456234122666,-2.153291787532338,0.8647539153680389,2.46587817577521,0.5445020185570556,-0.00025295476835704954,0.0007787801997590271,0.00022777135023190965,-0.0006441567397431814,0.00015141217125864826,0.00019829758630413505,-0.0021963615500983948,0.0,0.0,0.0,0.0,0.0,0.0,0.0,-2.7500955681603045e-06,-0.0003665226581195946,5.897287865763712e-05,0.00032119962236265565,5.30585830594843e-05,-5.1741536807092814e-05,2.3325238605820253e-05,0.00025295476835704954,-0.0007787801997590271,-0.00022777135023190965,0.0006441567397431814,-0.00015141217125864826,-0.00019829758630413505,0.0021963615500983948,0.4029781222343445,34.21371078491211,3.7990386486053467,-19.535249710083008,-0.12389141321182251,-1.783755898475647,0.01590292528271675,0
73,0.3600008487701416,-0.3752071261405945,-34.16213607788086,-3.7990386486053467,19.535249710083008,0.1357932686805725,1.790164589881897,-0.04336874559521675,0.0,0.0,0.0,0.0,0.0,0.0,0.0,-0.41229206310385086,-0.13381360644616044,-0.23400438028629847,0.5092660681806277,0.07441539353997648,-0.1159034500157973,-0.06931276730035271,1.0544112771477616,0.324226297666005,-0.3925642494904423,-2.1536103498317556,0.864699534356594,2.465929203708975,0.5444817450762622,1.0544104758940245,0.3238615046091247,-0.39250456234122666,-2.153291787532338,0.8647539153680389,2.46587817577521,0.5445020185570556,-0.0006191385056098026,-0.0005700923148587919,9.373320757886006e-05,1.2185441738577867e-05,-0.00029829502344266536,-0.0003847631577500913,-0.0006214835237147813,0.0,0.0,0.0,0.0,0.0,0.0,0.0,-8.012537371371309e-07,-0.00036479305688030816,5.96871492156148e-05,0.00031856229941773506,5.4381011444948335e-05,-5.102793376510206e-05,2.0273480793364662e-05,0.0006191385056098026,0.0005700923148587919,-9.373320757886006e-05,-1.2185441738577867e-05,0.00029829502344266536,0.0003847631577500913,0.0006214835237147813,0.3752071261405945,34.16213607788086,3.7990386486053467,-19.535249710083008,-0.1357932686805725,-1.790164589881897,0.04336874559521675,0
74,0.36500024795532227,-0.3752071261405945,-34.16213607788086,-3.7990386486053467,19.535249710083008,0.1357932686805725,1.790164589881897,-0.04336874559521675,0.0,0.0,0.0,0.0,0.0,0.0,0.0,-0.41229206310385086,-0.13381360644616044,-0.23400438028629847,0.5092660681806277,0.07441539353997648,-0.1159034500157973,-0.06931276730035271,1.0544112771477616,0.324226297666005,-0.3925642494904423,-2.1536103498317556,0.864699534356594,2.465929203708975,0.5444817450762622,1.0544104758940245,0.3238615046091247,-0.39250456234122666,-2.153291787532338,0.8647539153680389,2.46587817577521,0.5445020185570556,-0.0006191385056098026,-0.0005700923148587919,9.373320757886006e-05,1.2185441738577867e-05,-0.00029829502344266536,-0.0003847631577500913,-0.0006214835237147813,0.0,0.0,0.0,0.0,0.0,0.0,0.0,-8.012537371371309e-07,-0.00036479305688030816,5.96871492156148e-05,0.00031856229941773506,5.4381011444948335e-05,-5.102793376510206e-05,2.0273480793364662e-05,0.0006191385056098026,0.0005700923148587919,-9.373320757886006e-05,-1.2185441738577867e-05,0.00029829502344266536,0.0003847631577500913,0.0006214835237147813,0.3752071261405945,34.16213607788086,3.7990386486053467,-19.535249710083008,-0.1357932686805725,-1.790164589881897,0.04336874559521675,0
75,0.3700265884399414,-0.4029781222343445,-34.18990707397461,-3.8228423595428467,19.535249710083008,0.1412864327430725,1.796573281288147,-0.04977743700146675,0.0,0.0,0.0,0.0,0.0,0.0,0.0,-0.40212380117586066,-0.12887937749389192,-0.22573287649575183,0.5057710419224438,0.07433458626817992,-0.11799738535514723,-0.06795505856231683,1.0544132259895926,0.3242262778027218,-0.3925621023385524,-2.153613040918597,0.8646989240050315,2.465928491632144,0.5444824571530852,1.0544104758940245,0.3238615046091247,-0.39250456234122666,-2.153291787532338,0.8647539153680389,2.46587817577521,0.5445020185570556,0.0005603280728628267,-0.0001332875093066634,0.0008271261409506504,-0.0006522739607665571,-0.0005072218254577263,-0.00048237907082560814,-0.0010923445051535317,0.0,0.0,0.0,0.0,0.0,0.0,0.0,-2.7500955681603045e-06,-0.0003647731935970677,5.753999732571735e-05,0.0003212533862591016,5.499136300746166e-05,-5.0315856933824676e-05,1.956140397041395e-05,-0.0005603280728628267,0.0001332875093066634,-0.0008271261409506504,0.0006522739607665571,0.0005072218254577263,0.00048237907082560814,0.0010923445051535317,0.4029781222343445,34.18990707397461,3.8228423595428467,-19.535249710083008,-0.1412864327430725,-1.796573281288147,0.04977743700146675,0
76,0.3750009536743164,-0.4029781222343445,-34.18990707397461,-3.8228423595428467,19.535249710083008,0.1412864327430725,1.796573281288147,-0.04977743700146675,0.0,0.0,0.0,0.0,0.0,0.0,0.0,-0.40212380117586066,-0.12887937749389192,-0.22573287649575183,0.5057710419224438,0.07433458626817992,-0.11799738535514723,-0.06795505856231683,1.0544132259895926,0.3242262778027218,-0.3925621023385524,-2.153613040918597,0.8646989240050315,2.465928491632144,0.5444824571530852,1.0544104758940245,0.3238615046091247,-0.39250456234122666,-2.153291787532338,0.8647539153680389,2.46587817577521,0.5445020185570556,0.0005603280728628267,-0.0001332875093066634,0.0008271261409506504,-0.0006522739607665571,-0.0005072218254577263,-0.00048237907082560814,-0.0010923445051535317,0.0,0.0,0.0,0.0,0.0,0.0,0.0,-2.7500955681603045e-06,-0.0003647731935970677,5.753999732571735e-05,0.0003212533862591016,5.499136300746166e-05,-5.0315856933824676e-05,1.956140397041395e-05,-0.0005603280728628267,0.0001332875093066634,-0.0008271261409506504,0.0006522739607665571,0.0005072218254577263,0.00048237907082560814,0.0010923445051535317,0.4029781222343445,34.18990707397461,3.8228423595428467,-19.535249710083008,-0.1412864327430725,-1.796573281288147,0.04977743700146675,0
77,0.37999558448791504,-0.4267818331718445,-34.18990707397461,-3.8228423595428467,19.511445999145508,0.12389141321182251,1.783755898475647,-0.09097616374492645,0.0,0.0,0.0,0.0,0.0,0.0,0.0,-0.4089661490102807,-0.13100739517650906,-0.23171657648410038,0.5057154249156226,0.0748439914746491,-0.11725633805577408,-0.06902683335889195,1.054414896425448,0.3242282512920243,-0.392561863799293,-2.153609338727634,0.8647008567849794,2.4659299157857895,0.54448703478939,1.0544104758940245,0.3238615046091247,-0.39250456234122666,-2.153291787532338,0.8647539153680389,2.46587817577521,0.5445020185570556,0.0005065580128738086,-0.0005235278578325159,0.0006006195038131522,0.0002185342042903959,8.810874658242112e-05,8.494320045621423e-05,0.001132419526703585,0.0,0.0,0.0,0.0,0.0,0.0,0.0,-4.42053142357679e-06,-0.0003667466828995991,5.73014580663167e-05,0.0003175511952959731,5.30585830594843e-05,-5.174001057950406e-05,1.4983767665621706e-05,-0.0005065580128738086,0.0005235278578325159,-0.0006006195038131522,-0.0002185342042903959,-8.810874658242112e-05,-8.494320045621423e-05,-0.001132419526703585,0.4267818331718445,34.18990707397461,3.8228423595428467,-19.511445999145508,-0.12389141321182251,-1.783755898475647,0.09097616374492645,0
78,0.3850102424621582,-0.4267818331718445,-34.18990707397461,-3.8228423595428467,19.511445999145508,0.12389141321182251,1.783755898475647,-0.09097616374492645,0.0,0.0,0.0,0.0,0.0,0.0,0.0,-0.4089661490102807,-0.13100739517650906,-0.23171657648410038,0.5057154249156226,0.0748439914746491,-0.11725633805577408,-0.06902683335889195,1.054414896425448,0.3242282512920243,-0.392561863799293,-2.153609338727634,0.8647008567849794,2.4659299157857895,0.54448703478939,1.0544104758940245,0.3238615046091247,-0.39250456234122666,-2.153291787532338,0.8647539153680389,2.46587817577521,0.5445020185570556,0.0005065580128738086,-0.0005235278578325159,0.0006006195038131522,0.0002185342042903959,8.810874658242112e-05,8.494320045621423e-05,0.001132419526703585,0.0,0.0,0.0,0.0,0.0,0.0,0.0,-4.42053142357679e-06,-0.0003667466828995991,5.73014580663167e-05,0.0003175511952959731,5.30585830594843e-05,-5.174001057950406e-05,1.4983767665621706e-05,-0.0005065580128738086,0.0005235278578325159,-0.0006006195038131522,-0.0002185342042903959,-8.810874658242112e-05,-8.494320045621423e-05,-0.001132419526703585,0.4267818331718445,34.18990707397461,3.8228423595428467,-19.511445999145508,-0.12389141321182251,-1.783755898475647,0.09097616374492645,0
79,0.389998197555542,-0.4029781222343445,-34.21371078491211,-3.7990386486053467,19.511445999145508,0.12389141321182251,1.790164589881897,-0.11111776530742645,0.0,0.0,0.0,0.0,0.0,0.0,0.0,-0.4145517289324901,-0.1289081467279839,-0.23425612043999727,0.5039416672700476,0.07470284130566897,-0.11745170468156405,-0.06917720181938786,1.0544132259895926,0.3242277721901908,-0.3925635695559704,-2.153611617881912,0.8647008567849794,2.4659292037089666,0.5444892727451192,1.0544104758940245,0.3238615046091247,-0.39250456234122666,-2.153291787532338,0.8647539153680389,2.46587817577521,0.5445020185570556,-0.0006943147347380109,0.0002818349822934806,1.9343776036175548e-05,0.00022857427093179756,5.1411814290537234e-05,-0.00011866417692754742,0.001830865465624595,0.0,0.0,0.0,0.0,0.0,0.0,0.0,-2.7500955681603045e-06,-0.00036626758106605983,5.9007214743722614e-05,0.00031983034957416834,5.30585830594843e-05,-5.102793375666437e-05,1.2745811936443197e-05,0.0006943147347380109,-0.0002818349822934806,-1.9343776036175548e-05,-0.00022857427093179756,-5.1411814290537234e-05,0.00011866417692754742,-0.001830865465624595,0.4029781222343445,34.21371078491211,3.7990386486053467,-19.511445999145508,-0.12389141321182251,-1.790164589881897,0.11111776530742645,0
80,0.39499759674072266,-0.4029781222343445,-34.21371078491211,-3.7990386486053467,19.511445999145508,0.12389141321182251,1.790164589881897,-0.11111776530742645,0.0,0.0,0.0,0.0,0.0,0.0,0.0,-0.4145517289324901,-0.1289081467279839,-0.23425612043999727,0.5039416672700476,0.07470284130566897,-0.11745170468156405,-0.06917720181938786,1.0544132259895926,0.3242277721901908,-0.3925635695559704,-2.153611617881912,0.8647008567849794,2.4659292037089666,0.5444892727451192,1.0544104758940245,0.3238615046091247,-0.39250456234122666,-2.153291787532338,0.8647539153680389,2.46587817577521,0.5445020185570556,-0.0006943147347380109,0.0002818349822934806,1.9343776036175548e-05,0.00022857427093179756,5.1411814290537234e-05,-0.00011866417692754742,0.001830865465624595,0.0,0.0,0.0,0.0,0.0,0.0,0.0,-2.7500955681603045e-06,-0.00036626758106605983,5.9007214743722614e-05,0.00031983034957416834,5.30585830594843e-05,-5.102793375666437e-05,1.2745811936443197e-05,0.0006943147347380109,-0.0002818349822934806,-1.9343776036175548e-05,-0.00022857427093179756,-5.1411814290537234e-05,0.00011866417692754742,-0.001830865465624595,0.4029781222343445,34.21371078491211,3.7990386486053467,-19.511445999145508,-0.12389141321182251,-1.790164589881897,0.11111776530742645,0
