rezayati/contactInterpretation/dataset/franka_main/labeled_data/link5/c1_4.csv
index,time,tau_J0,tau_J1,tau_J2,tau_J3,tau_J4,tau_J5,tau_J6,tau_J_d0,tau_J_d1,tau_J_d2,tau_J_d3,tau_J_d4,tau_J_d5,tau_J_d6,tau_ext0,tau_ext1,tau_ext2,tau_ext3,tau_ext4,tau_ext5,tau_ext6,q0,q1,q2,q3,q4,q5,q6,q_d0,q_d1,q_d2,q_d3,q_d4,q_d5,q_d6,dq0,dq1,dq2,dq3,dq4,dq5,dq6,dq_d0,dq_d1,dq_d2,dq_d3,dq_d4,dq_d5,dq_d6,e0,e1,e2,e3,e4,e5,e6,de0,de1,de2,de3,de4,de5,de6,etau_J0,etau_J1,etau_J2,etau_J3,etau_J4,etau_J5,etau_J6,label
1,0.0,-0.19667929410934448,-19.768823623657227,-0.2721221148967743,20.130342483520508,0.9277244210243225,2.4566683769226074,-0.25485557317733765,0.0,0.0,0.0,0.0,0.0,0.0,0.0,-0.2359670740141468,-0.024543888409030098,-0.0866776756475586,0.35010870798583815,0.3396236639548973,0.09371931738975693,-0.24335600017717285,1.2134439551642389,-0.22005565198262347,-0.007522976506566792,-2.604086903300698,-0.1089629920522372,2.4681881922677937,0.8264785533362085,1.2134413937687574,-0.2202432315892585,-0.0075118285948192216,-2.6038483821997875,-0.10888392708698907,2.4681821257803174,0.826474908251239,-0.0004940800491245877,-0.000246025611798064,6.945789904759232e-05,-0.0004469791943103012,-2.7137414053904906e-05,0.00027723658384844885,0.0004886382326467837,0.0,0.0,0.0,0.0,0.0,0.0,0.0,-2.561395481492923e-06,-0.00018757960663501327,1.1147911747570217e-05,0.0002385211009103827,7.906496524812123e-05,-6.0664874763638466e-06,-3.6450849694169563e-06,0.0004940800491245877,0.000246025611798064,-6.945789904759232e-05,0.0004469791943103012,2.7137414053904906e-05,-0.00027723658384844885,-0.0004886382326467837,0.19667929410934448,19.768823623657227,0.2721221148967743,-20.130342483520508,-0.9277244210243225,-2.4566683769226074,0.25485557317733765,0
2,0.004986763000488281,-0.19667929410934448,-19.768823623657227,-0.2721221148967743,20.130342483520508,0.9277244210243225,2.4566683769226074,-0.25485557317733765,0.0,0.0,0.0,0.0,0.0,0.0,0.0,-0.2359670740141468,-0.024543888409030098,-0.0866776756475586,0.35010870798583815,0.3396236639548973,0.09371931738975693,-0.24335600017717285,1.2134439551642389,-0.22005565198262347,-0.007522976506566792,-2.604086903300698,-0.1089629920522372,2.4681881922677937,0.8264785533362085,1.2134413937687574,-0.2202432315892585,-0.0075118285948192216,-2.6038483821997875,-0.10888392708698907,2.4681821257803174,0.826474908251239,-0.0004940800491245877,-0.000246025611798064,6.945789904759232e-05,-0.0004469791943103012,-2.7137414053904906e-05,0.00027723658384844885,0.0004886382326467837,0.0,0.0,0.0,0.0,0.0,0.0,0.0,-2.561395481492923e-06,-0.00018757960663501327,1.1147911747570217e-05,0.0002385211009103827,7.906496524812123e-05,-6.0664874763638466e-06,-3.6450849694169563e-06,0.0004940800491245877,0.000246025611798064,-6.945789904759232e-05,0.0004469791943103012,2.7137414053904906e-05,-0.00027723658384844885,-0.0004886382326467837,0.19667929410934448,19.768823623657227,0.2721221148967743,-20.130342483520508,-0.9277244210243225,-2.4566683769226074,0.25485557317733765,0
3,0.00998544692993164,-0.24825400114059448,-19.768823623657227,-0.2998931109905243,20.106538772583008,0.9277244210243225,2.4630770683288574,-0.24844686686992645,0.0,0.0,0.0,0.0,0.0,0.0,0.0,-0.23949171121544008,-0.025908892289985185,-0.08917675830550933,0.35084503425259783,0.3400930456342363,0.09397245093948921,-0.24317726353730154,1.2134499704016066,-0.2200556519826253,-0.0075210276647356515,-2.6040845242979462,-0.1089629920522372,2.4681846152416624,0.8264787743415439,1.2134413937687574,-0.2202432315892585,-0.0075118285948192216,-2.6038483821997875,-0.10888392708698907,2.4681821257803174,0.826474908251239,0.0005394322506839786,-0.0001359345183048352,0.00046344566335358847,0.0006156623733332673,-0.00010058380036591057,-1.5554776591364577e-05,-2.3009251553735585e-05,0.0,0.0,0.0,0.0,0.0,0.0,0.0,-8.576632849255361e-06,-0.0001875796066331814,9.19906991642995e-06,0.00023614209815869813,7.906496524812123e-05,-2.4894613450676673e-06,-3.86609030489371e-06,-0.0005394322506839786,0.0001359345183048352,-0.00046344566335358847,-0.0006156623733332673,0.00010058380036591057,1.5554776591364577e-05,2.3009251553735585e-05,0.24825400114059448,19.768823623657227,0.2998931109905243,-20.106538772583008,-0.9277244210243225,-2.4630770683288574,0.24844686686992645,0
4,0.014986038208007812,-0.24825400114059448,-19.768823623657227,-0.2998931109905243,20.106538772583008,0.9277244210243225,2.4630770683288574,-0.24844686686992645,0.0,0.0,0.0,0.0,0.0,0.0,0.0,-0.23949171121544008,-0.025908892289985185,-0.08917675830550933,0.35084503425259783,0.3400930456342363,0.09397245093948921,-0.24317726353730154,1.2134499704016066,-0.2200556519826253,-0.0075210276647356515,-2.6040845242979462,-0.1089629920522372,2.4681846152416624,0.8264787743415439,1.2134413937687574,-0.2202432315892585,-0.0075118285948192216,-2.6038483821997875,-0.10888392708698907,2.4681821257803174,0.826474908251239,0.0005394322506839786,-0.0001359345183048352,0.00046344566335358847,0.0006156623733332673,-0.00010058380036591057,-1.5554776591364577e-05,-2.3009251553735585e-05,0.0,0.0,0.0,0.0,0.0,0.0,0.0,-8.576632849255361e-06,-0.0001875796066331814,9.19906991642995e-06,0.00023614209815869813,7.906496524812123e-05,-2.4894613450676673e-06,-3.86609030489371e-06,-0.0005394322506839786,0.0001359345183048352,-0.00046344566335358847,-0.0006156623733332673,0.00010058380036591057,1.5554776591364577e-05,2.3009251553735585e-05,0.24825400114059448,19.768823623657227,0.2998931109905243,-20.106538772583008,-0.9277244210243225,-2.4630770683288574,0.24844686686992645,0
5,0.019985675811767578,-0.2720577120780945,-19.745019912719727,-0.2998931109905243,20.130342483520508,0.9277244210243225,2.4630770683288574,-0.25485557317733765,0.0,0.0,0.0,0.0,0.0,0.0,0.0,-0.23555230307312497,-0.026020040422196283,-0.0853253000160741,0.34854868571345543,0.3401561789563041,0.09350758700962106,-0.24265653444865445,1.213449148630074,-0.22005732241848056,-0.0075210276647356515,-2.604086221569338,-0.1089629920522372,2.468184266373431,0.8264790892292264,1.2134413937687574,-0.2202432315892585,-0.0075118285948192216,-2.6038483821997875,-0.10888392708698907,2.4681821257803174,0.826474908251239,0.0007023149769017627,-0.00022428594975371408,0.0007105062550827911,0.00013561093737026288,-6.366005048997605e-05,4.979301303460339e-05,0.0004383747889105753,0.0,0.0,0.0,0.0,0.0,0.0,0.0,-7.754861316655592e-06,-0.00018590917077793145,9.19906991642995e-06,0.00023783936955057428,7.906496524812123e-05,-2.1405931134310663e-06,-4.180977987378043e-06,-0.0007023149769017627,0.00022428594975371408,-0.0007105062550827911,-0.00013561093737026288,6.366005048997605e-05,-4.979301303460339e-05,-0.0004383747889105753,0.2720577120780945,19.745019912719727,0.2998931109905243,-20.130342483520508,-0.9277244210243225,-2.4630770683288574,0.25485557317733765,0
6,0.02498602867126465,-0.2720577120780945,-19.745019912719727,-0.2998931109905243,20.130342483520508,0.9277244210243225,2.4630770683288574,-0.25485557317733765,0.0,0.0,0.0,0.0,0.0,0.0,0.0,-0.23555230307312497,-0.026020040422196283,-0.0853253000160741,0.34854868571345543,0.3401561789563041,0.09350758700962106,-0.24265653444865445,1.213449148630074,-0.22005732241848056,-0.0075210276647356515,-2.604086221569338,-0.1089629920522372,2.468184266373431,0.8264790892292264,1.2134413937687574,-0.2202432315892585,-0.0075118285948192216,-2.6038483821997875,-0.10888392708698907,2.4681821257803174,0.826474908251239,0.0007023149769017627,-0.00022428594975371408,0.0007105062550827911,0.00013561093737026288,-6.366005048997605e-05,4.979301303460339e-05,0.0004383747889105753,0.0,0.0,0.0,0.0,0.0,0.0,0.0,-7.754861316655592e-06,-0.00018590917077793145,9.19906991642995e-06,0.00023783936955057428,7.906496524812123e-05,-2.1405931134310663e-06,-4.180977987378043e-06,-0.0007023149769017627,0.00022428594975371408,-0.0007105062550827911,-0.00013561093737026288,6.366005048997605e-05,-4.979301303460339e-05,-0.0004383747889105753,0.2720577120780945,19.745019912719727,0.2998931109905243,-20.130342483520508,-0.9277244210243225,-2.4630770683288574,0.25485557317733765,0
7,0.030019044876098633,-0.22445029020309448,-19.792627334594727,-0.2998931109905243,20.106538772583008,0.9277244210243225,2.4694857597351074,-0.26858848333358765,0.0,0.0,0.0,0.0,0.0,0.0,0.0,-0.23852943408323937,-0.03150979058255542,-0.08596476181640403,0.3512960391683696,0.3407949119904306,0.09393423527830119,-0.24290316896659872,1.21344654000657,-0.22005398143825847,-0.0075210276647356515,-2.6040847456940264,-0.1089629920522372,2.46818359068723,0.8264763940498113,1.2134413937687574,-0.2202432315892585,-0.0075118285948192216,-2.6038483821997875,-0.10888392708698907,2.4681821257803174,0.826474908251239,-0.00039654492156270405,0.00034542746128978625,0.0003536933194330894,0.0005977768690435513,-0.00014227739899092,-0.00021508095230957512,0.0015029680710397853,0.0,0.0,0.0,0.0,0.0,0.0,0.0,-5.1462378125588515e-06,-0.00018925015100001996,9.19906991642995e-06,0.00023636349423883374,7.906496524812123e-05,-1.4649069126626557e-06,-1.4857985722871447e-06,0.00039654492156270405,-0.00034542746128978625,-0.0003536933194330894,-0.0005977768690435513,0.00014227739899092,0.00021508095230957512,-0.0015029680710397853,0.22445029020309448,19.792627334594727,0.2998931109905243,-20.106538772583008,-0.9277244210243225,-2.4694857597351074,0.26858848333358765,0
8,0.035027503967285156,-0.22445029020309448,-19.792627334594727,-0.2998931109905243,20.106538772583008,0.9277244210243225,2.4694857597351074,-0.26858848333358765,0.0,0.0,0.0,0.0,0.0,0.0,0.0,-0.23852943408323937,-0.03150979058255542,-0.08596476181640403,0.3512960391683696,0.3407949119904306,0.09393423527830119,-0.24290316896659872,1.21344654000657,-0.22005398143825847,-0.0075210276647356515,-2.6040847456940264,-0.1089629920522372,2.46818359068723,0.8264763940498113,1.2134413937687574,-0.2202432315892585,-0.0075118285948192216,-2.6038483821997875,-0.10888392708698907,2.4681821257803174,0.826474908251239,-0.00039654492156270405,0.00034542746128978625,0.0003536933194330894,0.0005977768690435513,-0.00014227739899092,-0.00021508095230957512,0.0015029680710397853,0.0,0.0,0.0,0.0,0.0,0.0,0.0,-5.1462378125588515e-06,-0.00018925015100001996,9.19906991642995e-06,0.00023636349423883374,7.906496524812123e-05,-1.4649069126626557e-06,-1.4857985722871447e-06,0.00039654492156270405,-0.00034542746128978625,-0.0003536933194330894,-0.0005977768690435513,0.00014227739899092,0.00021508095230957512,-0.0015029680710397853,0.22445029020309448,19.792627334594727,0.2998931109905243,-20.106538772583008,-0.9277244210243225,-2.4694857597351074,0.26858848333358765,0
9,0.039933204650878906,-0.2720577120780945,-19.768823623657227,-0.2483184039592743,20.130342483520508,0.9158225655555725,2.4694857597351074,-0.20083944499492645,0.0,0.0,0.0,0.0,0.0,0.0,0.0,-0.237748458771192,-0.022535037655280046,-0.08709822694230446,0.343520535837298,0.34074805233486855,0.0926370872370737,-0.2420283489130456,1.21345153280593,-0.2200556519826247,-0.007524725851889087,-2.604086271330458,-0.10896166946158914,2.468183907507554,0.8264720466691599,1.2134413937687574,-0.2202432315892585,-0.0075118285948192216,-2.6038483821997875,-0.10888392708698907,2.4681821257803174,0.826474908251239,0.0007811984750268069,0.00012635275279071175,-0.0009312357068050934,-0.0005339554875802752,0.0004343271529832823,-0.00012101528712128206,-0.0017932389723829983,0.0,0.0,0.0,0.0,0.0,0.0,0.0,-1.013903717272946e-05,-0.00018757960663379203,1.2897257069865824e-05,0.00023788913067024353,7.774237460006495e-05,-1.7817272364162307e-06,2.8615820791833e-06,-0.0007811984750268069,-0.00012635275279071175,0.0009312357068050934,0.0005339554875802752,-0.0004343271529832823,0.00012101528712128206,0.0017932389723829983,0.2720577120780945,19.768823623657227,0.2483184039592743,-20.130342483520508,-0.9158225655555725,-2.4694857597351074,0.20083944499492645,0
10,0.04498291015625,-0.2720577120780945,-19.768823623657227,-0.2483184039592743,20.130342483520508,0.9158225655555725,2.4694857597351074,-0.20083944499492645,0.0,0.0,0.0,0.0,0.0,0.0,0.0,-0.237748458771192,-0.022535037655280046,-0.08709822694230446,0.343520535837298,0.34074805233486855,0.0926370872370737,-0.2420283489130456,1.21345153280593,-0.2200556519826247,-0.007524725851889087,-2.604086271330458,-0.10896166946158914,2.468183907507554,0.8264720466691599,1.2134413937687574,-0.2202432315892585,-0.0075118285948192216,-2.6038483821997875,-0.10888392708698907,2.4681821257803174,0.826474908251239,0.0007811984750268069,0.00012635275279071175,-0.0009312357068050934,-0.0005339554875802752,0.0004343271529832823,-0.00012101528712128206,-0.0017932389723829983,0.0,0.0,0.0,0.0,0.0,0.0,0.0,-1.013903717272946e-05,-0.00018757960663379203,1.2897257069865824e-05,0.00023788913067024353,7.774237460006495e-05,-1.7817272364162307e-06,2.8615820791833e-06,-0.0007811984750268069,-0.00012635275279071175,0.0009312357068050934,0.0005339554875802752,-0.0004343271529832823,0.00012101528712128206,0.0017932389723829983,0.2720577120780945,19.768823623657227,0.2483184039592743,-20.130342483520508,-0.9158225655555725,-2.4694857597351074,0.20083944499492645,0
11,0.050011634826660156,-0.24825400114059448,-19.792627334594727,-0.2721221148967743,20.130342483520508,0.9213157296180725,2.4630770683288574,-0.22098104655742645,0.0,0.0,0.0,0.0,0.0,0.0,0.0,-0.24296851783191828,-0.026897622942035355,-0.09446550110944546,0.34747056193980685,0.34100537020443455,0.09359738864738192,-0.2415184561917571,1.2134496260591583,-0.22005398154677003,-0.007522976507903131,-2.604088277997093,-0.10896227997541152,2.4681853265001386,0.8264716114385392,1.2134413937687574,-0.2202432315892585,-0.0075118285948192216,-2.6038483821997875,-0.10888392708698907,2.4681821257803174,0.826474908251239,-0.00026789986427519025,0.0008493894598092895,-0.0011881661205659184,-0.00046270363161603683,0.00011019776508068438,0.00011358419800889756,-0.0008893961014595593,0.0,0.0,0.0,0.0,0.0,0.0,0.0,-8.232290400922437e-06,-0.00018925004248845911,1.1147913083909243e-05,0.00023989579730532284,7.835288842245047e-05,-3.2007198211836396e-06,3.2968126998378366e-06,0.00026789986427519025,-0.0008493894598092895,0.0011881661205659184,0.00046270363161603683,-0.00011019776508068438,-0.00011358419800889756,0.0008893961014595593,0.24825400114059448,19.792627334594727,0.2721221148967743,-20.130342483520508,-0.9213157296180725,-2.4630770683288574,0.22098104655742645,0
12,0.05501580238342285,-0.24825400114059448,-19.792627334594727,-0.2721221148967743,20.130342483520508,0.9213157296180725,2.4630770683288574,-0.22098104655742645,0.0,0.0,0.0,0.0,0.0,0.0,0.0,-0.24296851783191828,-0.026897622942035355,-0.09446550110944546,0.34747056193980685,0.34100537020443455,0.09359738864738192,-0.2415184561917571,1.2134496260591583,-0.22005398154677003,-0.007522976507903131,-2.604088277997093,-0.10896227997541152,2.4681853265001386,0.8264716114385392,1.2134413937687574,-0.2202432315892585,-0.0075118285948192216,-2.6038483821997875,-0.10888392708698907,2.4681821257803174,0.826474908251239,-0.00026789986427519025,0.0008493894598092895,-0.0011881661205659184,-0.00046270363161603683,0.00011019776508068438,0.00011358419800889756,-0.0008893961014595593,0.0,0.0,0.0,0.0,0.0,0.0,0.0,-8.232290400922437e-06,-0.00018925004248845911,1.1147913083909243e-05,0.00023989579730532284,7.835288842245047e-05,-3.2007198211836396e-06,3.2968126998378366e-06,0.00026789986427519025,-0.0008493894598092895,0.0011881661205659184,0.00046270363161603683,-0.00011019776508068438,-0.00011358419800889756,0.0008893961014595593,0.24825400114059448,19.792627334594727,0.2721221148967743,-20.130342483520508,-0.9213157296180725,-2.4630770683288574,0.22098104655742645,0
13,0.06000375747680664,-0.24825400114059448,-19.768823623657227,-0.2998931109905243,20.106538772583008,0.9277244210243225,2.4630770683288574,-0.21457235515117645,0.0,0.0,0.0,0.0,0.0,0.0,0.0,-0.23383607774008947,-0.02204797786665711,-0.08773786336963235,0.34632549842131494,0.34084893919275133,0.09370529140931057,-0.24153639534166335,1.2134474961718391,-0.22005565187411374,-0.007521027664735654,-2.6040869234560904,-0.1089629920522372,2.46818744579029,0.82647041834492,1.2134413937687574,-0.2202432315892585,-0.0075118285948192216,-2.6038483821997875,-0.10888392708698907,2.4681821257803174,0.826474908251239,0.0007436358032112984,0.00040281539801456873,0.0003763719166823054,7.566335173724167e-05,-0.00011074772355215426,-2.093408971375965e-05,-0.0012110313139390987,0.0,0.0,0.0,0.0,0.0,0.0,0.0,-6.10240308174248e-06,-0.00018757971514474225,9.199069916432552e-06,0.00023854125630284884,7.906496524812123e-05,-5.320009972553663e-06,4.489906319071757e-06,-0.0007436358032112984,-0.00040281539801456873,-0.0003763719166823054,-7.566335173724167e-05,0.00011074772355215426,2.093408971375965e-05,0.0012110313139390987,0.24825400114059448,19.768823623657227,0.2998931109905243,-20.106538772583008,-0.9277244210243225,-2.4630770683288574,0.21457235515117645,0
14,0.06499814987182617,-0.24825400114059448,-19.768823623657227,-0.2998931109905243,20.106538772583008,0.9277244210243225,2.4630770683288574,-0.21457235515117645,0.0,0.0,0.0,0.0,0.0,0.0,0.0,-0.23383607774008947,-0.02204797786665711,-0.08773786336963235,0.34632549842131494,0.34084893919275133,0.09370529140931057,-0.24153639534166335,1.2134474961718391,-0.22005565187411374,-0.007521027664735654,-2.6040869234560904,-0.1089629920522372,2.46818744579029,0.82647041834492,1.2134413937687574,-0.2202432315892585,-0.0075118285948192216,-2.6038483821997875,-0.10888392708698907,2.4681821257803174,0.826474908251239,0.0007436358032112984,0.00040281539801456873,0.0003763719166823054,7.566335173724167e-05,-0.00011074772355215426,-2.093408971375965e-05,-0.0012110313139390987,0.0,0.0,0.0,0.0,0.0,0.0,0.0,-6.10240308174248e-06,-0.00018757971514474225,9.199069916432552e-06,0.00023854125630284884,7.906496524812123e-05,-5.320009972553663e-06,4.489906319071757e-06,-0.0007436358032112984,-0.00040281539801456873,-0.0003763719166823054,-7.566335173724167e-05,0.00011074772355215426,2.093408971375965e-05,0.0012110313139390987,0.24825400114059448,19.768823623657227,0.2998931109905243,-20.106538772583008,-0.9277244210243225,-2.4630770683288574,0.21457235515117645,0
15,0.07001042366027832,-0.24825400114059448,-19.768823623657227,-0.2998931109905243,20.106538772583008,0.9277244210243225,2.4630770683288574,-0.21457235515117645,0.0,0.0,0.0,0.0,0.0,0.0,0.0,-0.23383607774008947,-0.02204797786665711,-0.08773786336963235,0.34632549842131494,0.34084893919275133,0.09370529140931057,-0.24153639534166335,1.2134474961718391,-0.22005565187411374,-0.007521027664735654,-2.6040869234560904,-0.1089629920522372,2.46818744579029,0.82647041834492,1.2134413937687574,-0.2202432315892585,-0.0075118285948192216,-2.6038483821997875,-0.10888392708698907,2.4681821257803174,0.826474908251239,0.0007436358032112984,0.00040281539801456873,0.0003763719166823054,7.566335173724167e-05,-0.00011074772355215426,-2.093408971375965e-05,-0.0012110313139390987,0.0,0.0,0.0,0.0,0.0,0.0,0.0,-6.10240308174248e-06,-0.00018757971514474225,9.199069916432552e-06,0.00023854125630284884,7.906496524812123e-05,-5.320009972553663e-06,4.489906319071757e-06,-0.0007436358032112984,-0.00040281539801456873,-0.0003763719166823054,-7.566335173724167e-05,0.00011074772355215426,2.093408971375965e-05,0.0012110313139390987,0.24825400114059448,19.768823623657227,0.2998931109905243,-20.106538772583008,-0.9277244210243225,-2.4630770683288574,0.21457235515117645,0
16,0.07502365112304688,-0.24825400114059448,-19.768823623657227,-0.2998931109905243,20.106538772583008,0.9277244210243225,2.4630770683288574,-0.21457235515117645,0.0,0.0,0.0,0.0,0.0,0.0,0.0,-0.23383607774008947,-0.02204797786665711,-0.08773786336963235,0.34632549842131494,0.34084893919275133,0.09370529140931057,-0.24153639534166335,1.2134474961718391,-0.22005565187411374,-0.007521027664735654,-2.6040869234560904,-0.1089629920522372,2.46818744579029,0.82647041834492,1.2134413937687574,-0.2202432315892585,-0.0075118285948192216,-2.6038483821997875,-0.10888392708698907,2.4681821257803174,0.826474908251239,0.0007436358032112984,0.00040281539801456873,0.0003763719166823054,7.566335173724167e-05,-0.00011074772355215426,-2.093408971375965e-05,-0.0012110313139390987,0.0,0.0,0.0,0.0,0.0,0.0,0.0,-6.10240308174248e-06,-0.00018757971514474225,9.199069916432552e-06,0.00023854125630284884,7.906496524812123e-05,-5.320009972553663e-06,4.489906319071757e-06,-0.0007436358032112984,-0.00040281539801456873,-0.0003763719166823054,-7.566335173724167e-05,0.00011074772355215426,2.093408971375965e-05,0.0012110313139390987,0.24825400114059448,19.768823623657227,0.2998931109905243,-20.106538772583008,-0.9277244210243225,-2.4630770683288574,0.21457235515117645,0
17,0.08002448081970215,-0.17287558317184448,-19.816431045532227,-0.3236968219280243,20.154146194458008,0.9277244210243225,2.4694857597351074,-0.26217979192733765,0.0,0.0,0.0,0.0,0.0,0.0,0.0,-0.23960875346364774,-0.025640527265072745,-0.09740905924013159,0.34679241965904867,0.34123487077989395,0.09342731825782324,-0.24169914958670247,1.2134428939109831,-0.22005231111091417,-0.0075193572288803886,-2.6040878597902974,-0.1089629920522372,2.468186730319874,0.8264768990553804,1.2134413937687574,-0.2202432315892585,-0.0075118285948192216,-2.6038483821997875,-0.10888392708698907,2.4681821257803174,0.826474908251239,-0.0015455159614488271,0.0009508384002443979,0.0006687823249219128,-0.0010769070230071934,-0.0001868139505717131,-0.0003478250034905358,0.0014556138231164406,0.0,0.0,0.0,0.0,0.0,0.0,0.0,-1.5001422257743258e-06,-0.0001909204783443197,7.5286340611669875e-06,0.0002394775905099067,7.906496524812123e-05,-4.604539556751774e-06,-1.99080414131636e-06,0.0015455159614488271,-0.0009508384002443979,-0.0006687823249219128,0.0010769070230071934,0.0001868139505717131,0.0003478250034905358,-0.0014556138231164406,0.17287558317184448,19.816431045532227,0.3236968219280243,-20.154146194458008,-0.9277244210243225,-2.4694857597351074,0.26217979192733765,0
18,0.08501529693603516,-0.17287558317184448,-19.816431045532227,-0.3236968219280243,20.154146194458008,0.9277244210243225,2.4694857597351074,-0.26217979192733765,0.0,0.0,0.0,0.0,0.0,0.0,0.0,-0.23960875346364774,-0.025640527265072745,-0.09740905924013159,0.34679241965904867,0.34123487077989395,0.09342731825782324,-0.24169914958670247,1.2134428939109831,-0.22005231111091417,-0.0075193572288803886,-2.6040878597902974,-0.1089629920522372,2.468186730319874,0.8264768990553804,1.2134413937687574,-0.2202432315892585,-0.0075118285948192216,-2.6038483821997875,-0.10888392708698907,2.4681821257803174,0.826474908251239,-0.0015455159614488271,0.0009508384002443979,0.0006687823249219128,-0.0010769070230071934,-0.0001868139505717131,-0.0003478250034905358,0.0014556138231164406,0.0,0.0,0.0,0.0,0.0,0.0,0.0,-1.5001422257743258e-06,-0.0001909204783443197,7.5286340611669875e-06,0.0002394775905099067,7.906496524812123e-05,-4.604539556751774e-06,-1.99080414131636e-06,0.0015455159614488271,-0.0009508384002443979,-0.0006687823249219128,0.0010769070230071934,0.0001868139505717131,0.0003478250034905358,-0.0014556138231164406,0.17287558317184448,19.816431045532227,0.3236968219280243,-20.154146194458008,-0.9277244210243225,-2.4694857597351074,0.26217979192733765,0
19,0.09002423286437988,-0.22445029020309448,-19.792627334594727,-0.2998931109905243,20.154146194458008,0.9213157296180725,2.4758944511413574,-0.23471395671367645,0.0,0.0,0.0,0.0,0.0,0.0,0.0,-0.23275842046380066,-0.02626383234272511,-0.09371904651464166,0.34472179755894894,0.340045309800637,0.09322483117756485,-0.24064934341443234,1.2134489003298556,-0.22005398154677003,-0.0075210276647356515,-2.6040906882159573,-0.10896227997541427,2.4681828379110007,0.8264731227486959,1.2134413937687574,-0.2202432315892585,-0.0075118285948192216,-2.6038483821997875,-0.10888392708698907,2.4681821257803174,0.826474908251239,-0.0003977172596789509,0.00017801905629905495,-5.527743503060285e-05,-0.0008014029445178695,0.001014049741985814,-0.0005022872228190313,-0.0007591218942583635,0.0,0.0,0.0,0.0,0.0,0.0,0.0,-7.506561098269415e-06,-0.00018925004248845911,9.19906991642995e-06,0.00024230601616981318,7.835288842519827e-05,-7.121306833113294e-07,1.7855025431501304e-06,0.0003977172596789509,-0.00017801905629905495,5.527743503060285e-05,0.0008014029445178695,-0.001014049741985814,0.0005022872228190313,0.0007591218942583635,0.22445029020309448,19.792627334594727,0.2998931109905243,-20.154146194458008,-0.9213157296180725,-2.4758944511413574,0.23471395671367645,0
20,0.09502720832824707,-0.22445029020309448,-19.792627334594727,-0.2998931109905243,20.154146194458008,0.9213157296180725,2.4758944511413574,-0.23471395671367645,0.0,0.0,0.0,0.0,0.0,0.0,0.0,-0.23275842046380066,-0.02626383234272511,-0.09371904651464166,0.34472179755894894,0.340045309800637,0.09322483117756485,-0.24064934341443234,1.2134489003298556,-0.22005398154677003,-0.0075210276647356515,-2.6040906882159573,-0.10896227997541427,2.4681828379110007,0.8264731227486959,1.2134413937687574,-0.2202432315892585,-0.0075118285948192216,-2.6038483821997875,-0.10888392708698907,2.4681821257803174,0.826474908251239,-0.0003977172596789509,0.00017801905629905495,-5.527743503060285e-05,-0.0008014029445178695,0.001014049741985814,-0.0005022872228190313,-0.0007591218942583635,0.0,0.0,0.0,0.0,0.0,0.0,0.0,-7.506561098269415e-06,-0.00018925004248845911,9.19906991642995e-06,0.00024230601616981318,7.835288842519827e-05,-7.121306833113294e-07,1.7855025431501304e-06,0.0003977172596789509,-0.00017801905629905495,5.527743503060285e-05,0.0008014029445178695,-0.001014049741985814,0.0005022872228190313,0.0007591218942583635,0.22445029020309448,19.792627334594727,0.2998931109905243,-20.154146194458008,-0.9213157296180725,-2.4758944511413574,0.23471395671367645,0
21,0.1000361442565918,-0.2998287081718445,-19.792627334594727,-0.2998931109905243,20.130342483520508,0.9277244210243225,2.4694857597351074,-0.27591270208358765,0.0,0.0,0.0,0.0,0.0,0.0,0.0,-0.23416904879989467,-0.02907271182184336,-0.09756945464024441,0.34445820981940367,0.3401275484897824,0.0935070114122918,-0.24242735932236878,1.2134532334626293,-0.22005398154677003,-0.0075210276647356515,-2.6040869036199217,-0.1089629920522372,2.468184060638543,0.826480727202212,1.2134413937687574,-0.2202432315892585,-0.0075118285948192216,-2.6038483821997875,-0.10888392708698907,2.4681821257803174,0.826474908251239,0.0013115145945527225,0.0005357331881602056,2.0946588869210287e-05,-0.0004845270946527354,-0.00019492645370654472,-2.5117582623044113e-05,0.0019880940484481966,0.0,0.0,0.0,0.0,0.0,0.0,0.0,-1.1839693871973367e-05,-0.00018925004248845911,9.19906991642995e-06,0.00023852142013414124,7.906496524812123e-05,-1.934858225638436e-06,-5.818950972957815e-06,-0.0013115145945527225,-0.0005357331881602056,-2.0946588869210287e-05,0.0004845270946527354,0.00019492645370654472,2.5117582623044113e-05,-0.0019880940484481966,0.2998287081718445,19.792627334594727,0.2998931109905243,-20.130342483520508,-0.9277244210243225,-2.4694857597351074,0.27591270208358765,0
22,0.10502457618713379,-0.2998287081718445,-19.792627334594727,-0.2998931109905243,20.130342483520508,0.9277244210243225,2.4694857597351074,-0.27591270208358765,0.0,0.0,0.0,0.0,0.0,0.0,0.0,-0.23416904879989467,-0.02907271182184336,-0.09756945464024441,0.34445820981940367,0.3401275484897824,0.0935070114122918,-0.24242735932236878,1.2134532334626293,-0.22005398154677003,-0.0075210276647356515,-2.6040869036199217,-0.1089629920522372,2.468184060638543,0.826480727202212,1.2134413937687574,-0.2202432315892585,-0.0075118285948192216,-2.6038483821997875,-0.10888392708698907,2.4681821257803174,0.826474908251239,0.0013115145945527225,0.0005357331881602056,2.0946588869210287e-05,-0.0004845270946527354,-0.00019492645370654472,-2.5117582623044113e-05,0.0019880940484481966,0.0,0.0,0.0,0.0,0.0,0.0,0.0,-1.1839693871973367e-05,-0.00018925004248845911,9.19906991642995e-06,0.00023852142013414124,7.906496524812123e-05,-1.934858225638436e-06,-5.818950972957815e-06,-0.0013115145945527225,-0.0005357331881602056,-2.0946588869210287e-05,0.0004845270946527354,0.00019492645370654472,2.5117582623044113e-05,-0.0019880940484481966,0.2998287081718445,19.792627334594727,0.2998931109905243,-20.130342483520508,-0.9277244210243225,-2.4694857597351074,0.27591270208358765,0
23,0.11003375053405762,-0.2998287081718445,-19.768823623657227,-0.2998931109905243,20.106538772583008,0.9213157296180725,2.4694857597351074,-0.26217979192733765,0.0,0.0,0.0,0.0,0.0,0.0,0.0,-0.23425419452185736,-0.027473610092272553,-0.0966667833608441,0.3448581929185291,0.3403913352600869,0.09406200501557145,-0.242349203025267,1.2134510968521355,-0.2200556519826253,-0.007521027628654505,-2.604084779500995,-0.10896228435650555,2.46818672901274,0.8264772084659616,1.2134413937687574,-0.2202432315892585,-0.0075118285948192216,-2.6038483821997875,-0.10888392708698907,2.4681821257803174,0.826474908251239,0.0016444362672116773,0.00017021311586309376,0.0002385375123845367,0.00025635430783113296,0.00036702837916399695,-0.00024021791063614967,0.0008806636301433231,0.0,0.0,0.0,0.0,0.0,0.0,0.0,-9.703083378109767e-06,-0.0001875796066331814,9.199033835283199e-06,0.0002363973012076137,7.83572695164797e-05,-4.603232422795145e-06,-2.300214722583682e-06,-0.0016444362672116773,-0.00017021311586309376,-0.0002385375123845367,-0.00025635430783113296,-0.00036702837916399695,0.00024021791063614967,-0.0008806636301433231,0.2998287081718445,19.768823623657227,0.2998931109905243,-20.106538772583008,-0.9213157296180725,-2.4694857597351074,0.26217979192733765,0
24,0.11502933502197266,-0.2998287081718445,-19.768823623657227,-0.2998931109905243,20.106538772583008,0.9213157296180725,2.4694857597351074,-0.26217979192733765,0.0,0.0,0.0,0.0,0.0,0.0,0.0,-0.23425419452185736,-0.027473610092272553,-0.0966667833608441,0.3448581929185291,0.3403913352600869,0.09406200501557145,-0.242349203025267,1.2134510968521355,-0.2200556519826253,-0.007521027628654505,-2.604084779500995,-0.10896228435650555,2.46818672901274,0.8264772084659616,1.2134413937687574,-0.2202432315892585,-0.0075118285948192216,-2.6038483821997875,-0.10888392708698907,2.4681821257803174,0.826474908251239,0.0016444362672116773,0.00017021311586309376,0.0002385375123845367,0.00025635430783113296,0.00036702837916399695,-0.00024021791063614967,0.0008806636301433231,0.0,0.0,0.0,0.0,0.0,0.0,0.0,-9.703083378109767e-06,-0.0001875796066331814,9.199033835283199e-06,0.0002363973012076137,7.83572695164797e-05,-4.603232422795145e-06,-2.300214722583682e-06,-0.0016444362672116773,-0.00017021311586309376,-0.0002385375123845367,-0.00025635430783113296,-0.00036702837916399695,0.00024021791063614967,-0.0008806636301433231,0.2998287081718445,19.768823623657227,0.2998931109905243,-20.106538772583008,-0.9213157296180725,-2.4694857597351074,0.26217979192733765,0
25,0.1200249195098877,-0.19667929410934448,-19.768823623657227,-0.2483184039592743,20.205720901489258,0.9277244210243225,2.4493441581726074,-0.24112264811992645,0.0,0.0,0.0,0.0,0.0,0.0,0.0,-0.23441895191799733,-0.030698128735595555,-0.0967305775982233,0.34923522979597066,0.3409159392768257,0.09476786054056574,-0.2424480538849433,1.2134438847756546,-0.2200556519826253,-0.007524646942421852,-2.6040914853545987,-0.10896299205226193,2.468185944891065,0.8264765056311492,1.2134413937687574,-0.2202432315892585,-0.0075118285948192216,-2.6038483821997875,-0.10888392708698907,2.4681821257803174,0.826474908251239,-0.000459314393734456,-3.90323213906902e-05,-0.0010389052932651412,-0.0019327520281351375,3.805431374782866e-05,0.0005165897617515779,0.00040425713442220193,0.0,0.0,0.0,0.0,0.0,0.0,0.0,-2.491006897198389e-06,-0.0001875796066331814,1.2818347602630217e-05,0.00024310315481113065,7.906496527285145e-05,-3.81911074764929e-06,-1.597379910123209e-06,0.000459314393734456,3.90323213906902e-05,0.0010389052932651412,0.0019327520281351375,-3.805431374782866e-05,-0.0005165897617515779,-0.00040425713442220193,0.19667929410934448,19.768823623657227,0.2483184039592743,-20.205720901489258,-0.9277244210243225,-2.4493441581726074,0.24112264811992645,0
26,0.12501215934753418,-0.19667929410934448,-19.768823623657227,-0.2483184039592743,20.205720901489258,0.9277244210243225,2.4493441581726074,-0.24112264811992645,0.0,0.0,0.0,0.0,0.0,0.0,0.0,-0.23441895191799733,-0.030698128735595555,-0.0967305775982233,0.34923522979597066,0.3409159392768257,0.09476786054056574,-0.2424480538849433,1.2134438847756546,-0.2200556519826253,-0.007524646942421852,-2.6040914853545987,-0.10896299205226193,2.468185944891065,0.8264765056311492,1.2134413937687574,-0.2202432315892585,-0.0075118285948192216,-2.6038483821997875,-0.10888392708698907,2.4681821257803174,0.826474908251239,-0.000459314393734456,-3.90323213906902e-05,-0.0010389052932651412,-0.0019327520281351375,3.805431374782866e-05,0.0005165897617515779,0.00040425713442220193,0.0,0.0,0.0,0.0,0.0,0.0,0.0,-2.491006897198389e-06,-0.0001875796066331814,1.2818347602630217e-05,0.00024310315481113065,7.906496527285145e-05,-3.81911074764929e-06,-1.597379910123209e-06,0.000459314393734456,3.90323213906902e-05,0.0010389052932651412,0.0019327520281351375,-3.805431374782866e-05,-0.0005165897617515779,-0.00040425713442220193,0.19667929410934448,19.768823623657227,0.2483184039592743,-20.205720901489258,-0.9277244210243225,-2.4493441581726074,0.24112264811992645,0
27,0.13001084327697754,-0.2720577120780945,-19.768823623657227,-0.2721221148967743,20.130342483520508,0.9332175850868225,2.4630770683288574,-0.22098104655742645,0.0,0.0,0.0,0.0,0.0,0.0,0.0,-0.23628935212014146,-0.022808757264905256,-0.09996712319722567,0.3460606622705595,0.34091294756590906,0.0933965859054629,-0.24228555573873242,1.213452008985003,-0.2200556519826253,-0.007522976506566792,-2.604088278100683,-0.1089636024037997,2.4681844321308866,0.8264723032922553,1.2134413937687574,-0.2202432315892585,-0.0075118285948192216,-2.6038483821997875,-0.10888392708698907,2.4681821257803174,0.826474908251239,0.0010152493098328304,8.184138322790354e-05,-0.0005089774238491963,-0.00022056859601946044,-0.000392836292100942,-0.00011709179129224517,-0.0007187303270721938,0.0,0.0,0.0,0.0,0.0,0.0,0.0,-1.0615216245568604e-05,-0.0001875796066331814,1.1147911747570217e-05,0.0002398959008953483,7.967531681062068e-05,-2.3063505691922614e-06,2.604958983742911e-06,-0.0010152493098328304,-8.184138322790354e-05,0.0005089774238491963,0.00022056859601946044,0.000392836292100942,0.00011709179129224517,0.0007187303270721938,0.2720577120780945,19.768823623657227,0.2721221148967743,-20.130342483520508,-0.9332175850868225,-2.4630770683288574,0.22098104655742645,0
28,0.13501620292663574,-0.2720577120780945,-19.768823623657227,-0.2721221148967743,20.130342483520508,0.9332175850868225,2.4630770683288574,-0.22098104655742645,0.0,0.0,0.0,0.0,0.0,0.0,0.0,-0.23628935212014146,-0.022808757264905256,-0.09996712319722567,0.3460606622705595,0.34091294756590906,0.0933965859054629,-0.24228555573873242,1.213452008985003,-0.2200556519826253,-0.007522976506566792,-2.604088278100683,-0.1089636024037997,2.4681844321308866,0.8264723032922553,1.2134413937687574,-0.2202432315892585,-0.0075118285948192216,-2.6038483821997875,-0.10888392708698907,2.4681821257803174,0.826474908251239,0.0010152493098328304,8.184138322790354e-05,-0.0005089774238491963,-0.00022056859601946044,-0.000392836292100942,-0.00011709179129224517,-0.0007187303270721938,0.0,0.0,0.0,0.0,0.0,0.0,0.0,-1.0615216245568604e-05,-0.0001875796066331814,1.1147911747570217e-05,0.0002398959008953483,7.967531681062068e-05,-2.3063505691922614e-06,2.604958983742911e-06,-0.0010152493098328304,-8.184138322790354e-05,0.0005089774238491963,0.00022056859601946044,0.000392836292100942,0.00011709179129224517,0.0007187303270721938,0.2720577120780945,19.768823623657227,0.2721221148967743,-20.130342483520508,-0.9332175850868225,-2.4630770683288574,0.22098104655742645,0
29,0.14001131057739258,-0.22445029020309448,-19.745019912719727,-0.3236968219280243,20.130342483520508,0.9396262764930725,2.4630770683288574,-0.24844686686992645,0.0,0.0,0.0,0.0,0.0,0.0,0.0,-0.23843840882306877,-0.02730453547418447,-0.10028595879156768,0.35065718705894977,0.34092310549215943,0.09355577944311644,-0.24254927887007313,1.2134458019825793,-0.22005731948866833,-0.0075193572288803886,-2.6040862146525092,-0.1089643144806226,2.468184732962026,0.8264777249719021,1.2134413937687574,-0.2202432315892585,-0.0075118285948192216,-2.6038483821997875,-0.10888392708698907,2.4681821257803174,0.826474908251239,-0.0005635379071364564,-0.0005994308078369899,0.00037424098416215636,-0.0005764532071654983,-0.0006009028526734526,0.0002496842608467835,0.00041713625083053475,0.0,0.0,0.0,0.0,0.0,0.0,0.0,-4.4082138219714295e-06,-0.00018591210059015761,7.5286340611669875e-06,0.00023783245272168685,8.038739363352976e-05,-2.607181708746964e-06,-2.8167206630458352e-06,0.0005635379071364564,0.0005994308078369899,-0.00037424098416215636,0.0005764532071654983,0.0006009028526734526,-0.0002496842608467835,-0.00041713625083053475,0.22445029020309448,19.745019912719727,0.3236968219280243,-20.130342483520508,-0.9396262764930725,-2.4630770683288574,0.24844686686992645,0
30,0.14502334594726562,-0.22445029020309448,-19.745019912719727,-0.3236968219280243,20.130342483520508,0.9396262764930725,2.4630770683288574,-0.24844686686992645,0.0,0.0,0.0,0.0,0.0,0.0,0.0,-0.23843840882306877,-0.02730453547418447,-0.10028595879156768,0.35065718705894977,0.34092310549215943,0.09355577944311644,-0.24254927887007313,1.2134458019825793,-0.22005731948866833,-0.0075193572288803886,-2.6040862146525092,-0.1089643144806226,2.468184732962026,0.8264777249719021,1.2134413937687574,-0.2202432315892585,-0.0075118285948192216,-2.6038483821997875,-0.10888392708698907,2.4681821257803174,0.826474908251239,-0.0005635379071364564,-0.0005994308078369899,0.00037424098416215636,-0.0005764532071654983,-0.0006009028526734526,0.0002496842608467835,0.00041713625083053475,0.0,0.0,0.0,0.0,0.0,0.0,0.0,-4.4082138219714295e-06,-0.00018591210059015761,7.5286340611669875e-06,0.00023783245272168685,8.038739363352976e-05,-2.607181708746964e-06,-2.8167206630458352e-06,0.0005635379071364564,0.0005994308078369899,-0.00037424098416215636,0.0005764532071654983,0.0006009028526734526,-0.0002496842608467835,-0.00041713625083053475,0.22445029020309448,19.745019912719727,0.3236968219280243,-20.130342483520508,-0.9396262764930725,-2.4630770683288574,0.24844686686992645,0
31,0.1500239372253418,-0.2720577120780945,-19.768823623657227,-0.3236968219280243,20.130342483520508,0.9332175850868225,2.4566683769226074,-0.24844686686992645,0.0,0.0,0.0,0.0,0.0,0.0,0.0,-0.23877631088820025,-0.027165999326846497,-0.1018613351712635,0.3520177114070426,0.3410717444063737,0.09407282636391034,-0.242121351301324,1.2134512845717205,-0.22005565198260876,-0.0075193572288803886,-2.6040884830540665,-0.1089636024037997,2.4681849745747844,0.8264752040984723,1.2134413937687574,-0.2202432315892585,-0.0075118285948192216,-2.6038483821997875,-0.10888392708698907,2.4681821257803174,0.826474908251239,0.0005591890474867308,-0.0002100543224140055,0.000300710228806248,0.00014886841339924238,-0.00012925831271496036,0.00040338886697215473,0.0006834887205111111,0.0,0.0,0.0,0.0,0.0,0.0,0.0,-9.8908029630973e-06,-0.00018757960664972373,7.5286340611669875e-06,0.00024010085427894623,7.967531681062068e-05,-2.848794466991933e-06,-2.9584723326703255e-07,-0.0005591890474867308,0.0002100543224140055,-0.000300710228806248,-0.00014886841339924238,0.00012925831271496036,-0.00040338886697215473,-0.0006834887205111111,0.2720577120780945,19.768823623657227,0.3236968219280243,-20.130342483520508,-0.9332175850868225,-2.4566683769226074,0.24844686686992645,0
32,0.15502309799194336,-0.2720577120780945,-19.768823623657227,-0.3236968219280243,20.130342483520508,0.9332175850868225,2.4566683769226074,-0.24844686686992645,0.0,0.0,0.0,0.0,0.0,0.0,0.0,-0.23877631088820025,-0.027165999326846497,-0.1018613351712635,0.3520177114070426,0.3410717444063737,0.09407282636391034,-0.242121351301324,1.2134512845717205,-0.22005565198260876,-0.0075193572288803886,-2.6040884830540665,-0.1089636024037997,2.4681849745747844,0.8264752040984723,1.2134413937687574,-0.2202432315892585,-0.0075118285948192216,-2.6038483821997875,-0.10888392708698907,2.4681821257803174,0.826474908251239,0.0005591890474867308,-0.0002100543224140055,0.000300710228806248,0.00014886841339924238,-0.00012925831271496036,0.00040338886697215473,0.0006834887205111111,0.0,0.0,0.0,0.0,0.0,0.0,0.0,-9.8908029630973e-06,-0.00018757960664972373,7.5286340611669875e-06,0.00024010085427894623,7.967531681062068e-05,-2.848794466991933e-06,-2.9584723326703255e-07,-0.0005591890474867308,0.0002100543224140055,-0.000300710228806248,-0.00014886841339924238,0.00012925831271496036,-0.00040338886697215473,-0.0006834887205111111,0.2720577120780945,19.768823623657227,0.3236968219280243,-20.130342483520508,-0.9332175850868225,-2.4566683769226074,0.24844686686992645,0
33,0.16002345085144043,-0.24825400114059448,-19.745019912719727,-0.2721221148967743,20.106538772583008,0.9277244210243225,2.4630770683288574,-0.22830526530742645,0.0,0.0,0.0,0.0,0.0,0.0,0.0,-0.23550871566027165,-0.028364080394593406,-0.098099870973866,0.34614518778327413,0.34112051427822265,0.0933112567266408,-0.24147180247151567,1.2134503294036927,-0.22005732241848056,-0.007522976506566792,-2.6040845924379945,-0.10896192744705412,2.468184263464339,0.8264756072293096,1.2134413937687574,-0.2202432315892585,-0.0075118285948192216,-2.6038483821997875,-0.10888392708698907,2.4681821257803174,0.826474908251239,0.0003342303231911628,-0.0010643212348230486,-0.0003371039174911204,0.0001715586642719684,-0.00011637607840232436,-6.133175768760896e-05,-0.0004758156985157975,0.0,0.0,0.0,0.0,0.0,0.0,0.0,-8.93563493531424e-06,-0.00018590917077793145,1.1147911747570217e-05,0.00023621023820696863,7.800036006504196e-05,-2.137684021796815e-06,-6.989780705346504e-07,-0.0003342303231911628,0.0010643212348230486,0.0003371039174911204,-0.0001715586642719684,0.00011637607840232436,6.133175768760896e-05,0.0004758156985157975,0.24825400114059448,19.745019912719727,0.2721221148967743,-20.106538772583008,-0.9277244210243225,-2.4630770683288574,0.22830526530742645,0
34,0.16501379013061523,-0.24825400114059448,-19.745019912719727,-0.2721221148967743,20.106538772583008,0.9277244210243225,2.4630770683288574,-0.22830526530742645,0.0,0.0,0.0,0.0,0.0,0.0,0.0,-0.23550871566027165,-0.028364080394593406,-0.098099870973866,0.34614518778327413,0.34112051427822265,0.0933112567266408,-0.24147180247151567,1.2134503294036927,-0.22005732241848056,-0.007522976506566792,-2.6040845924379945,-0.10896192744705412,2.468184263464339,0.8264756072293096,1.2134413937687574,-0.2202432315892585,-0.0075118285948192216,-2.6038483821997875,-0.10888392708698907,2.4681821257803174,0.826474908251239,0.0003342303231911628,-0.0010643212348230486,-0.0003371039174911204,0.0001715586642719684,-0.00011637607840232436,-6.133175768760896e-05,-0.0004758156985157975,0.0,0.0,0.0,0.0,0.0,0.0,0.0,-8.93563493531424e-06,-0.00018590917077793145,1.1147911747570217e-05,0.00023621023820696863,7.800036006504196e-05,-2.137684021796815e-06,-6.989780705346504e-07,-0.0003342303231911628,0.0010643212348230486,0.0003371039174911204,-0.0001715586642719684,0.00011637607840232436,6.133175768760896e-05,0.0004758156985157975,0.24825400114059448,19.745019912719727,0.2721221148967743,-20.106538772583008,-0.9277244210243225,-2.4630770683288574,0.22830526530742645,0
35,0.17002344131469727,-0.24825400114059448,-19.745019912719727,-0.2721221148967743,20.106538772583008,0.9277244210243225,2.4630770683288574,-0.22830526530742645,0.0,0.0,0.0,0.0,0.0,0.0,0.0,-0.23550871566027165,-0.028364080394593406,-0.098099870973866,0.34614518778327413,0.34112051427822265,0.0933112567266408,-0.24147180247151567,1.2134503294036927,-0.22005732241848056,-0.007522976506566792,-2.6040845924379945,-0.10896192744705412,2.468184263464339,0.8264756072293096,1.2134413937687574,-0.2202432315892585,-0.0075118285948192216,-2.6038483821997875,-0.10888392708698907,2.4681821257803174,0.826474908251239,0.0003342303231911628,-0.0010643212348230486,-0.0003371039174911204,0.0001715586642719684,-0.00011637607840232436,-6.133175768760896e-05,-0.0004758156985157975,0.0,0.0,0.0,0.0,0.0,0.0,0.0,-8.93563493531424e-06,-0.00018590917077793145,1.1147911747570217e-05,0.00023621023820696863,7.800036006504196e-05,-2.137684021796815e-06,-6.989780705346504e-07,-0.0003342303231911628,0.0010643212348230486,0.0003371039174911204,-0.0001715586642719684,0.00011637607840232436,6.133175768760896e-05,0.0004758156985157975,0.24825400114059448,19.745019912719727,0.2721221148967743,-20.106538772583008,-0.9277244210243225,-2.4630770683288574,0.22830526530742645,0
36,0.17501139640808105,-0.24825400114059448,-19.745019912719727,-0.2721221148967743,20.106538772583008,0.9277244210243225,2.4630770683288574,-0.22830526530742645,0.0,0.0,0.0,0.0,0.0,0.0,0.0,-0.23550871566027165,-0.028364080394593406,-0.098099870973866,0.34614518778327413,0.34112051427822265,0.0933112567266408,-0.24147180247151567,1.2134503294036927,-0.22005732241848056,-0.007522976506566792,-2.6040845924379945,-0.10896192744705412,2.468184263464339,0.8264756072293096,1.2134413937687574,-0.2202432315892585,-0.0075118285948192216,-2.6038483821997875,-0.10888392708698907,2.4681821257803174,0.826474908251239,0.0003342303231911628,-0.0010643212348230486,-0.0003371039174911204,0.0001715586642719684,-0.00011637607840232436,-6.133175768760896e-05,-0.0004758156985157975,0.0,0.0,0.0,0.0,0.0,0.0,0.0,-8.93563493531424e-06,-0.00018590917077793145,1.1147911747570217e-05,0.00023621023820696863,7.800036006504196e-05,-2.137684021796815e-06,-6.989780705346504e-07,-0.0003342303231911628,0.0010643212348230486,0.0003371039174911204,-0.0001715586642719684,0.00011637607840232436,6.133175768760896e-05,0.0004758156985157975,0.24825400114059448,19.745019912719727,0.2721221148967743,-20.106538772583008,-0.9277244210243225,-2.4630770683288574,0.22830526530742645,0
37,0.18002581596374512,-0.22445029020309448,-19.768823623657227,-0.2721221148967743,20.106538772583008,0.9094138741493225,2.4566683769226074,-0.22830526530742645,0.0,0.0,0.0,0.0,0.0,0.0,0.0,-0.23536646584564902,-0.029626771971450187,-0.09747080132047155,0.34710570379935135,0.341299314675374,0.09295089011219072,-0.24126029470422752,1.2134460363675048,-0.2200556519826253,-0.007522976506566792,-2.6040852046608247,-0.10896095754101914,2.468185328753877,0.8264719009602673,1.2134413937687574,-0.2202432315892585,-0.0075118285948192216,-2.6038483821997875,-0.10888392708698907,2.4681821257803174,0.826474908251239,-0.00018146648036628687,-0.00011027879910527307,-3.7102238713357503e-05,0.0003072969018167934,0.0006567497707310585,0.0003879339572977971,-0.00048591036261275687,0.0,0.0,0.0,0.0,0.0,0.0,0.0,-4.6425987474396635e-06,-0.0001875796066331814,1.1147911747570217e-05,0.0002368224610371783,7.703045403006925e-05,-3.202973559712774e-06,3.0072909716905016e-06,0.00018146648036628687,0.00011027879910527307,3.7102238713357503e-05,-0.0003072969018167934,-0.0006567497707310585,-0.0003879339572977971,0.00048591036261275687,0.22445029020309448,19.768823623657227,0.2721221148967743,-20.106538772583008,-0.9094138741493225,-2.4566683769226074,0.22830526530742645,0
38,0.18502497673034668,-0.22445029020309448,-19.768823623657227,-0.2721221148967743,20.106538772583008,0.9094138741493225,2.4566683769226074,-0.22830526530742645,0.0,0.0,0.0,0.0,0.0,0.0,0.0,-0.23536646584564902,-0.029626771971450187,-0.09747080132047155,0.34710570379935135,0.341299314675374,0.09295089011219072,-0.24126029470422752,1.2134460363675048,-0.2200556519826253,-0.007522976506566792,-2.6040852046608247,-0.10896095754101914,2.468185328753877,0.8264719009602673,1.2134413937687574,-0.2202432315892585,-0.0075118285948192216,-2.6038483821997875,-0.10888392708698907,2.4681821257803174,0.826474908251239,-0.00018146648036628687,-0.00011027879910527307,-3.7102238713357503e-05,0.0003072969018167934,0.0006567497707310585,0.0003879339572977971,-0.00048591036261275687,0.0,0.0,0.0,0.0,0.0,0.0,0.0,-4.6425987474396635e-06,-0.0001875796066331814,1.1147911747570217e-05,0.0002368224610371783,7.703045403006925e-05,-3.202973559712774e-06,3.0072909716905016e-06,0.00018146648036628687,0.00011027879910527307,3.7102238713357503e-05,-0.0003072969018167934,-0.0006567497707310585,-0.0003879339572977971,0.00048591036261275687,0.22445029020309448,19.768823623657227,0.2721221148967743,-20.106538772583008,-0.9094138741493225,-2.4566683769226074,0.22830526530742645,0
39,0.1900033950805664,-0.19667929410934448,-19.745019912719727,-0.2998931109905243,20.130342483520508,0.9332175850868225,2.4694857597351074,-0.21457235515117645,0.0,0.0,0.0,0.0,0.0,0.0,0.0,-0.2400378998154601,-0.03127178260143018,-0.09891396930824452,0.3477771361252092,0.3410634659464267,0.0926975823988962,-0.24118428067919714,1.2134467104422881,-0.22005732241848056,-0.0075210276647356515,-2.604088941254517,-0.10896360240379967,2.468184622656047,0.8264739198388075,1.2134413937687574,-0.2202432315892585,-0.0075118285948192216,-2.6038483821997875,-0.10888392708698907,2.4681821257803174,0.826474908251239,-0.0007967966192364288,-0.0005544281793434814,0.00015670690278254948,-0.00026608844195119986,-0.0005045433724327483,-0.0002711053432156389,-0.0012378178642489135,0.0,0.0,0.0,0.0,0.0,0.0,0.0,-5.316673530764149e-06,-0.00018590917077793145,9.19906991642995e-06,0.00024055905472941674,7.967531681059292e-05,-2.496875729729453e-06,9.884124315684417e-07,0.0007967966192364288,0.0005544281793434814,-0.00015670690278254948,0.00026608844195119986,0.0005045433724327483,0.0002711053432156389,0.0012378178642489135,0.19667929410934448,19.745019912719727,0.2998931109905243,-20.130342483520508,-0.9332175850868225,-2.4694857597351074,0.21457235515117645,0
40,0.19503307342529297,-0.19667929410934448,-19.745019912719727,-0.2998931109905243,20.130342483520508,0.9332175850868225,2.4694857597351074,-0.21457235515117645,0.0,0.0,0.0,0.0,0.0,0.0,0.0,-0.2400378998154601,-0.03127178260143018,-0.09891396930824452,0.3477771361252092,0.3410634659464267,0.0926975823988962,-0.24118428067919714,1.2134467104422881,-0.22005732241848056,-0.0075210276647356515,-2.604088941254517,-0.10896360240379967,2.468184622656047,0.8264739198388075,1.2134413937687574,-0.2202432315892585,-0.0075118285948192216,-2.6038483821997875,-0.10888392708698907,2.4681821257803174,0.826474908251239,-0.0007967966192364288,-0.0005544281793434814,0.00015670690278254948,-0.00026608844195119986,-0.0005045433724327483,-0.0002711053432156389,-0.0012378178642489135,0.0,0.0,0.0,0.0,0.0,0.0,0.0,-5.316673530764149e-06,-0.00018590917077793145,9.19906991642995e-06,0.00024055905472941674,7.967531681059292e-05,-2.496875729729453e-06,9.884124315684417e-07,0.0007967966192364288,0.0005544281793434814,-0.00015670690278254948,0.00026608844195119986,0.0005045433724327483,0.0002711053432156389,0.0012378178642489135,0.19667929410934448,19.745019912719727,0.2998931109905243,-20.130342483520508,-0.9332175850868225,-2.4694857597351074,0.21457235515117645,0
41,0.20002269744873047,-0.22445029020309448,-19.768823623657227,-0.2998931109905243,20.130342483520508,0.9158225655555725,2.4630770683288574,-0.24844686686992645,0.0,0.0,0.0,0.0,0.0,0.0,0.0,-0.24092519737156684,-0.02605824640540027,-0.09864587577313459,0.3473568990194482,0.3404577122375687,0.09285337040717376,-0.24100869252542,1.2134457979489275,-0.2200556519826253,-0.0075210276647356515,-2.604086189986275,-0.10896166962385177,2.4681875630294505,0.8264746507801122,1.2134413937687574,-0.2202432315892585,-0.0075118285948192216,-2.6038483821997875,-0.10888392708698907,2.4681821257803174,0.826474908251239,-0.0005592469515467265,0.0006836527120237004,0.00010021332959926762,-0.00023326366685264216,0.00020659633388765347,0.00022458545926347306,-4.557709836231986e-05,0.0,0.0,0.0,0.0,0.0,0.0,0.0,-4.404180170114458e-06,-0.0001875796066331814,9.19906991642995e-06,0.0002378077864872985,7.774253686269883e-05,-5.437249133155575e-06,2.5747112686325124e-07,0.0005592469515467265,-0.0006836527120237004,-0.00010021332959926762,0.00023326366685264216,-0.00020659633388765347,-0.00022458545926347306,4.557709836231986e-05,0.22445029020309448,19.768823623657227,0.2998931109905243,-20.130342483520508,-0.9158225655555725,-2.4630770683288574,0.24844686686992645,0
42,0.20501303672790527,-0.22445029020309448,-19.768823623657227,-0.2998931109905243,20.130342483520508,0.9158225655555725,2.4630770683288574,-0.24844686686992645,0.0,0.0,0.0,0.0,0.0,0.0,0.0,-0.24092519737156684,-0.02605824640540027,-0.09864587577313459,0.3473568990194482,0.3404577122375687,0.09285337040717376,-0.24100869252542,1.2134457979489275,-0.2200556519826253,-0.0075210276647356515,-2.604086189986275,-0.10896166962385177,2.4681875630294505,0.8264746507801122,1.2134413937687574,-0.2202432315892585,-0.0075118285948192216,-2.6038483821997875,-0.10888392708698907,2.4681821257803174,0.826474908251239,-0.0005592469515467265,0.0006836527120237004,0.00010021332959926762,-0.00023326366685264216,0.00020659633388765347,0.00022458545926347306,-4.557709836231986e-05,0.0,0.0,0.0,0.0,0.0,0.0,0.0,-4.404180170114458e-06,-0.0001875796066331814,9.19906991642995e-06,0.0002378077864872985,7.774253686269883e-05,-5.437249133155575e-06,2.5747112686325124e-07,0.0005592469515467265,-0.0006836527120237004,-0.00010021332959926762,0.00023326366685264216,-0.00020659633388765347,-0.00022458545926347306,4.557709836231986e-05,0.22445029020309448,19.768823623657227,0.2998931109905243,-20.130342483520508,-0.9158225655555725,-2.4630770683288574,0.24844686686992645,0
43,0.21001291275024414,-0.24825400114059448,-19.792627334594727,-0.2721221148967743,20.082735061645508,0.9158225655555725,2.4758944511413574,-0.24112264811992645,0.0,0.0,0.0,0.0,0.0,0.0,0.0,-0.23388612675721335,-0.02673628092206177,-0.09082769008024663,0.34809746865318864,0.33914140054138575,0.0932951502396653,-0.24071647421369263,1.2134499614616738,-0.22005398154677003,-0.007522976506566792,-2.6040831117905556,-0.10896166962385177,2.4681828378757746,0.8264765602680467,1.2134413937687574,-0.2202432315892585,-0.0075118285948192216,-2.6038483821997875,-0.10888392708698907,2.4681821257803174,0.826474908251239,0.000604944213916353,0.0008243236244639126,-0.0005314521628697184,0.0008334499831675417,-0.006854964827710624,-0.0004157452295033766,-0.00022020807921247103,0.0,0.0,0.0,0.0,0.0,0.0,0.0,-8.567692916461311e-06,-0.00018925004248845911,1.1147911747570217e-05,0.0002347295907680902,7.774253686269883e-05,-7.120954572670257e-07,-1.6520168076850084e-06,-0.000604944213916353,-0.0008243236244639126,0.0005314521628697184,-0.0008334499831675417,0.006854964827710624,0.0004157452295033766,0.00022020807921247103,0.24825400114059448,19.792627334594727,0.2721221148967743,-20.082735061645508,-0.9158225655555725,-2.4758944511413574,0.24112264811992645,0
44,0.21501994132995605,-0.24825400114059448,-19.792627334594727,-0.2721221148967743,20.082735061645508,0.9158225655555725,2.4758944511413574,-0.24112264811992645,0.0,0.0,0.0,0.0,0.0,0.0,0.0,-0.23388612675721335,-0.02673628092206177,-0.09082769008024663,0.34809746865318864,0.33914140054138575,0.0932951502396653,-0.24071647421369263,1.2134499614616738,-0.22005398154677003,-0.007522976506566792,-2.6040831117905556,-0.10896166962385177,2.4681828378757746,0.8264765602680467,1.2134413937687574,-0.2202432315892585,-0.0075118285948192216,-2.6038483821997875,-0.10888392708698907,2.4681821257803174,0.826474908251239,0.000604944213916353,0.0008243236244639126,-0.0005314521628697184,0.0008334499831675417,-0.006854964827710624,-0.0004157452295033766,-0.00022020807921247103,0.0,0.0,0.0,0.0,0.0,0.0,0.0,-8.567692916461311e-06,-0.00018925004248845911,1.1147911747570217e-05,0.0002347295907680902,7.774253686269883e-05,-7.120954572670257e-07,-1.6520168076850084e-06,-0.000604944213916353,-0.0008243236244639126,0.0005314521628697184,-0.0008334499831675417,0.006854964827710624,0.0004157452295033766,0.00022020807921247103,0.24825400114059448,19.792627334594727,0.2721221148967743,-20.082735061645508,-0.9158225655555725,-2.4758944511413574,0.24112264811992645,0
45,0.22002458572387695,-0.2720577120780945,-19.768823623657227,-0.2483184039592743,20.082735061645508,0.9332175850868225,2.4823031425476074,-0.25485557317733765,0.0,0.0,0.0,0.0,0.0,0.0,0.0,-0.23822282741545928,-0.025333381621887967,-0.09675629675745048,0.3507507559072167,0.3389338450876965,0.09407574364647278,-0.2409455838649455,1.2134493802169164,-0.2200556519826253,-0.007524646942422056,-2.6040829477104412,-0.1089636024037997,2.4681853177766575,0.8264749088108144,1.2134413937687574,-0.2202432315892585,-0.0075118285948192216,-2.6038483821997875,-0.10888392708698907,2.4681821257803174,0.826474908251239,0.0007661190640665998,0.00014950388444866916,-0.0010635751212097102,0.0010612311365390014,-0.0007597913858178866,-0.00043080964309815203,0.0006234726229678008,0.0,0.0,0.0,0.0,0.0,0.0,0.0,-7.986448159025272e-06,-0.0001875796066331814,1.2818347602834047e-05,0.0002345655106537059,7.967531681062068e-05,-3.191996340135006e-06,-5.595753860276886e-10,-0.0007661190640665998,-0.00014950388444866916,0.0010635751212097102,-0.0010612311365390014,0.0007597913858178866,0.00043080964309815203,-0.0006234726229678008,0.2720577120780945,19.768823623657227,0.2483184039592743,-20.082735061645508,-0.9332175850868225,-2.4823031425476074,0.25485557317733765,0
46,0.225020170211792,-0.2720577120780945,-19.768823623657227,-0.2483184039592743,20.082735061645508,0.9332175850868225,2.4823031425476074,-0.25485557317733765,0.0,0.0,0.0,0.0,0.0,0.0,0.0,-0.23822282741545928,-0.025333381621887967,-0.09675629675745048,0.3507507559072167,0.3389338450876965,0.09407574364647278,-0.2409455838649455,1.2134493802169164,-0.2200556519826253,-0.007524646942422056,-2.6040829477104412,-0.1089636024037997,2.4681853177766575,0.8264749088108144,1.2134413937687574,-0.2202432315892585,-0.0075118285948192216,-2.6038483821997875,-0.10888392708698907,2.4681821257803174,0.826474908251239,0.0007661190640665998,0.00014950388444866916,-0.0010635751212097102,0.0010612311365390014,-0.0007597913858178866,-0.00043080964309815203,0.0006234726229678008,0.0,0.0,0.0,0.0,0.0,0.0,0.0,-7.986448159025272e-06,-0.0001875796066331814,1.2818347602834047e-05,0.0002345655106537059,7.967531681062068e-05,-3.191996340135006e-06,-5.595753860276886e-10,-0.0007661190640665998,-0.00014950388444866916,0.0010635751212097102,-0.0010612311365390014,0.0007597913858178866,0.00043080964309815203,-0.0006234726229678008,0.2720577120780945,19.768823623657227,0.2483184039592743,-20.082735061645508,-0.9332175850868225,-2.4823031425476074,0.25485557317733765,0
47,0.23001599311828613,-0.24825400114059448,-19.745019912719727,-0.2998931109905243,20.130342483520508,0.9158225655555725,2.4566683769226074,-0.22830526530742645,0.0,0.0,0.0,0.0,0.0,0.0,0.0,-0.23431894024170685,-0.02750234649683251,-0.09188427043272511,0.35236580337231127,0.33789604227601466,0.09532315481988425,-0.24024894910387884,1.2134503293929426,-0.22005732241848056,-0.0075210276647356515,-2.6040861891314715,-0.10896166962385177,2.4681849755591783,0.8264761914969867,1.2134413937687574,-0.2202432315892585,-0.0075118285948192216,-2.6038483821997875,-0.10888392708698907,2.4681821257803174,0.826474908251239,0.00021379190325347092,-0.000661676403043676,0.00027507442545955126,0.000496580930593661,0.00021702420869118444,0.00023887818811494117,-0.00044889891084637357,0.0,0.0,0.0,0.0,0.0,0.0,0.0,-8.935624185246738e-06,-0.00018590917077793145,9.19906991642995e-06,0.00023780693168395928,7.774253686269883e-05,-2.8497788608916608e-06,-1.283245747663031e-06,-0.00021379190325347092,0.000661676403043676,-0.00027507442545955126,-0.000496580930593661,-0.00021702420869118444,-0.00023887818811494117,0.00044889891084637357,0.24825400114059448,19.745019912719727,0.2998931109905243,-20.130342483520508,-0.9158225655555725,-2.4566683769226074,0.22830526530742645,0
48,0.2350006103515625,-0.24825400114059448,-19.745019912719727,-0.2998931109905243,20.130342483520508,0.9158225655555725,2.4566683769226074,-0.22830526530742645,0.0,0.0,0.0,0.0,0.0,0.0,0.0,-0.23431894024170685,-0.02750234649683251,-0.09188427043272511,0.35236580337231127,0.33789604227601466,0.09532315481988425,-0.24024894910387884,1.2134503293929426,-0.22005732241848056,-0.0075210276647356515,-2.6040861891314715,-0.10896166962385177,2.4681849755591783,0.8264761914969867,1.2134413937687574,-0.2202432315892585,-0.0075118285948192216,-2.6038483821997875,-0.10888392708698907,2.4681821257803174,0.826474908251239,0.00021379190325347092,-0.000661676403043676,0.00027507442545955126,0.000496580930593661,0.00021702420869118444,0.00023887818811494117,-0.00044889891084637357,0.0,0.0,0.0,0.0,0.0,0.0,0.0,-8.935624185246738e-06,-0.00018590917077793145,9.19906991642995e-06,0.00023780693168395928,7.774253686269883e-05,-2.8497788608916608e-06,-1.283245747663031e-06,-0.00021379190325347092,0.000661676403043676,-0.00027507442545955126,-0.000496580930593661,-0.00021702420869118444,-0.00023887818811494117,0.00044889891084637357,0.24825400114059448,19.745019912719727,0.2998931109905243,-20.130342483520508,-0.9158225655555725,-2.4566683769226074,0.22830526530742645,0
49,0.24002361297607422,-0.24825400114059448,-19.792627334594727,-0.2721221148967743,20.106538772583008,0.9158225655555725,2.4566683769226074,-0.26858848333358765,0.0,0.0,0.0,0.0,0.0,0.0,0.0,-0.23615219357714423,-0.024994521412586446,-0.09320858494466645,0.3493008414915791,0.337635576645006,0.09391064283995373,-0.24067502021414514,1.2134474688208463,-0.22005398154677003,-0.007522976506566792,-2.604084515755653,-0.10896166967793931,2.4681881530558405,0.8264768909489499,1.2134413937687574,-0.2202432315892585,-0.0075118285948192216,-2.6038483821997875,-0.10888392708698907,2.4681821257803174,0.826474908251239,0.0004896298542138457,0.00028555617204987485,-0.000497332030010355,0.00023424048609681594,0.00024146967238176205,0.0003679830790576296,0.0009379866158111865,0.0,0.0,0.0,0.0,0.0,0.0,0.0,-6.075052088938548e-06,-0.00018925004248845911,1.1147911747570217e-05,0.00023613355586560303,7.774259095023883e-05,-6.027275523123876e-06,-1.9826977109005384e-06,-0.0004896298542138457,-0.00028555617204987485,0.000497332030010355,-0.00023424048609681594,-0.00024146967238176205,-0.0003679830790576296,-0.0009379866158111865,0.24825400114059448,19.792627334594727,0.2721221148967743,-20.106538772583008,-0.9158225655555725,-2.4566683769226074,0.26858848333358765,0
50,0.2450261116027832,-0.24825400114059448,-19.792627334594727,-0.2721221148967743,20.106538772583008,0.9158225655555725,2.4566683769226074,-0.26858848333358765,0.0,0.0,0.0,0.0,0.0,0.0,0.0,-0.23615219357714423,-0.024994521412586446,-0.09320858494466645,0.3493008414915791,0.337635576645006,0.09391064283995373,-0.24067502021414514,1.2134474688208463,-0.22005398154677003,-0.007522976506566792,-2.604084515755653,-0.10896166967793931,2.4681881530558405,0.8264768909489499,1.2134413937687574,-0.2202432315892585,-0.0075118285948192216,-2.6038483821997875,-0.10888392708698907,2.4681821257803174,0.826474908251239,0.0004896298542138457,0.00028555617204987485,-0.000497332030010355,0.00023424048609681594,0.00024146967238176205,0.0003679830790576296,0.0009379866158111865,0.0,0.0,0.0,0.0,0.0,0.0,0.0,-6.075052088938548e-06,-0.00018925004248845911,1.1147911747570217e-05,0.00023613355586560303,7.774259095023883e-05,-6.027275523123876e-06,-1.9826977109005384e-06,-0.0004896298542138457,-0.00028555617204987485,0.000497332030010355,-0.00023424048609681594,-0.00024146967238176205,-0.0003679830790576296,-0.0009379866158111865,0.24825400114059448,19.792627334594727,0.2721221148967743,-20.106538772583008,-0.9158225655555725,-2.4566683769226074,0.26858848333358765,0
51,0.25001001358032227,-0.24825400114059448,-19.792627334594727,-0.2721221148967743,20.154146194458008,0.9277244210243225,2.4823031425476074,-0.23471395671367645,0.0,0.0,0.0,0.0,0.0,0.0,0.0,-0.23832969286515338,-0.030988814665320153,-0.0966384225902999,0.3542679020361791,0.33758201341607164,0.09432278504575946,-0.24242340483895658,1.2134496259096021,-0.22005113376929744,-0.007522976506566792,-2.6040880862156084,-0.1089629920522375,2.4681821257982626,0.8264727847533401,1.2134413937687574,-0.2202432315892585,-0.0075118285948192216,-2.6038483821997875,-0.10888392708698907,2.4681821257803174,0.826474908251239,0.00030574066827815,0.000161380129034021,-0.0007052025018289065,-0.0007021401141068392,-0.00013165766929259252,-0.0006965272216346475,-0.0003409361611434123,0.0,0.0,0.0,0.0,0.0,0.0,0.0,-8.232140844777192e-06,-0.0001920978199610457,1.1147911747570217e-05,0.00023970401582085188,7.906496524842654e-05,-1.794520088083118e-11,2.1234978989648212e-06,-0.00030574066827815,-0.000161380129034021,0.0007052025018289065,0.0007021401141068392,0.00013165766929259252,0.0006965272216346475,0.0003409361611434123,0.24825400114059448,19.792627334594727,0.2721221148967743,-20.154146194458008,-0.9277244210243225,-2.4823031425476074,0.23471395671367645,0
52,0.2550230026245117,-0.24825400114059448,-19.792627334594727,-0.2721221148967743,20.154146194458008,0.9277244210243225,2.4823031425476074,-0.23471395671367645,0.0,0.0,0.0,0.0,0.0,0.0,0.0,-0.23832969286515338,-0.030988814665320153,-0.0966384225902999,0.3542679020361791,0.33758201341607164,0.09432278504575946,-0.24242340483895658,1.2134496259096021,-0.22005113376929744,-0.007522976506566792,-2.6040880862156084,-0.1089629920522375,2.4681821257982626,0.8264727847533401,1.2134413937687574,-0.2202432315892585,-0.0075118285948192216,-2.6038483821997875,-0.10888392708698907,2.4681821257803174,0.826474908251239,0.00030574066827815,0.000161380129034021,-0.0007052025018289065,-0.0007021401141068392,-0.00013165766929259252,-0.0006965272216346475,-0.0003409361611434123,0.0,0.0,0.0,0.0,0.0,0.0,0.0,-8.232140844777192e-06,-0.0001920978199610457,1.1147911747570217e-05,0.00023970401582085188,7.906496524842654e-05,-1.794520088083118e-11,2.1234978989648212e-06,-0.00030574066827815,-0.000161380129034021,0.0007052025018289065,0.0007021401141068392,0.00013165766929259252,0.0006965272216346475,0.0003409361611434123,0.24825400114059448,19.792627334594727,0.2721221148967743,-20.154146194458008,-0.9277244210243225,-2.4823031425476074,0.23471395671367645,0
53,0.2600107192993164,-0.17287558317184448,-19.768823623657227,-0.2998931109905243,20.130342483520508,0.9158225655555725,2.4694857597351074,-0.21457235515117645,0.0,0.0,0.0,0.0,0.0,0.0,0.0,-0.23451792483662018,-0.027676657841795838,-0.09574430262900294,0.3513477735702822,0.3372238074955962,0.09421120578006963,-0.24352530624283972,1.2134444303982932,-0.22005565196654953,-0.0075210276647356515,-2.6040861984752874,-0.10896166946158914,2.4681835632312565,0.8264749814159732,1.2134413937687574,-0.2202432315892585,-0.0075118285948192216,-2.6038483821997875,-0.10888392708698907,2.4681821257803174,0.826474908251239,-0.0012653532846792226,0.00010049995512379153,-0.0002485274485156989,-6.567609620381445e-05,0.007286858069701345,-8.812889938430047e-05,-0.000638070387673873,0.0,0.0,0.0,0.0,0.0,0.0,0.0,-3.0366295358241757e-06,-0.000187579622708961,9.19906991642995e-06,0.00023781627549990247,7.774237460006495e-05,-1.4374509391679169e-06,-7.316473416008051e-08,0.0012653532846792226,-0.00010049995512379153,0.0002485274485156989,6.567609620381445e-05,-0.007286858069701345,8.812889938430047e-05,0.000638070387673873,0.17287558317184448,19.768823623657227,0.2998931109905243,-20.130342483520508,-0.9158225655555725,-2.4694857597351074,0.21457235515117645,0
54,0.2650313377380371,-0.17287558317184448,-19.768823623657227,-0.2998931109905243,20.130342483520508,0.9158225655555725,2.4694857597351074,-0.21457235515117645,0.0,0.0,0.0,0.0,0.0,0.0,0.0,-0.23451792483662018,-0.027676657841795838,-0.09574430262900294,0.3513477735702822,0.3372238074955962,0.09421120578006963,-0.24352530624283972,1.2134444303982932,-0.22005565196654953,-0.0075210276647356515,-2.6040861984752874,-0.10896166946158914,2.4681835632312565,0.8264749814159732,1.2134413937687574,-0.2202432315892585,-0.0075118285948192216,-2.6038483821997875,-0.10888392708698907,2.4681821257803174,0.826474908251239,-0.0012653532846792226,0.00010049995512379153,-0.0002485274485156989,-6.567609620381445e-05,0.007286858069701345,-8.812889938430047e-05,-0.000638070387673873,0.0,0.0,0.0,0.0,0.0,0.0,0.0,-3.0366295358241757e-06,-0.000187579622708961,9.19906991642995e-06,0.00023781627549990247,7.774237460006495e-05,-1.4374509391679169e-06,-7.316473416008051e-08,0.0012653532846792226,-0.00010049995512379153,0.0002485274485156989,6.567609620381445e-05,-0.007286858069701345,8.812889938430047e-05,0.000638070387673873,0.17287558317184448,19.768823623657227,0.2998931109905243,-20.130342483520508,-0.9158225655555725,-2.4694857597351074,0.21457235515117645,0
55,0.27000951766967773,-0.22445029020309448,-19.745019912719727,-0.2483184039592743,20.082735061645508,0.9213157296180725,2.4694857597351074,-0.25485557317733765,0.0,0.0,0.0,0.0,0.0,0.0,0.0,-0.2242872179180142,-0.028037491550330595,-0.08986260214485135,0.3521195318395419,0.33727037102880764,0.09448693274810724,-0.24293061125294083,1.2134465136736274,-0.22005732241848047,-0.007524646942422056,-2.6040828453548435,-0.10896227997541336,2.4681867288484267,0.8264748506765449,1.2134413937687574,-0.2202432315892585,-0.0075118285948192216,-2.6038483821997875,-0.10888392708698907,2.4681821257803174,0.826474908251239,0.0005242683961421137,-4.964983712957037e-05,-0.00027750262811814116,0.0009157187339546035,0.0003920575765839278,-0.00013935262674385238,0.0006624195602981045,0.0,0.0,0.0,0.0,0.0,0.0,0.0,-5.119904870065639e-06,-0.00018590917077801472,1.2818347602834047e-05,0.00023446315505593063,7.835288842428234e-05,-4.603068109343411e-06,5.757469412337457e-08,-0.0005242683961421137,4.964983712957037e-05,0.00027750262811814116,-0.0009157187339546035,-0.0003920575765839278,0.00013935262674385238,-0.0006624195602981045,0.22445029020309448,19.745019912719727,0.2483184039592743,-20.082735061645508,-0.9213157296180725,-2.4694857597351074,0.25485557317733765,0
56,0.2750210762023926,-0.22445029020309448,-19.745019912719727,-0.2483184039592743,20.082735061645508,0.9213157296180725,2.4694857597351074,-0.25485557317733765,0.0,0.0,0.0,0.0,0.0,0.0,0.0,-0.2242872179180142,-0.028037491550330595,-0.08986260214485135,0.3521195318395419,0.33727037102880764,0.09448693274810724,-0.24293061125294083,1.2134465136736274,-0.22005732241848047,-0.007524646942422056,-2.6040828453548435,-0.10896227997541336,2.4681867288484267,0.8264748506765449,1.2134413937687574,-0.2202432315892585,-0.0075118285948192216,-2.6038483821997875,-0.10888392708698907,2.4681821257803174,0.826474908251239,0.0005242683961421137,-4.964983712957037e-05,-0.00027750262811814116,0.0009157187339546035,0.0003920575765839278,-0.00013935262674385238,0.0006624195602981045,0.0,0.0,0.0,0.0,0.0,0.0,0.0,-5.119904870065639e-06,-0.00018590917077801472,1.2818347602834047e-05,0.00023446315505593063,7.835288842428234e-05,-4.603068109343411e-06,5.757469412337457e-08,-0.0005242683961421137,4.964983712957037e-05,0.00027750262811814116,-0.0009157187339546035,-0.0003920575765839278,0.00013935262674385238,-0.0006624195602981045,0.22445029020309448,19.745019912719727,0.2483184039592743,-20.082735061645508,-0.9213157296180725,-2.4694857597351074,0.25485557317733765,0
57,0.28002357482910156,-0.24825400114059448,-19.768823623657227,-0.2998931109905243,20.130342483520508,0.9039207100868225,2.4566683769226074,-0.22098104655742645,0.0,0.0,0.0,0.0,0.0,0.0,0.0,-0.23224199620350192,-0.020645960568701438,-0.0957628795212146,0.35076944663065235,0.3386310798629333,0.09361950548142647,-0.2426256691340896,1.2134475478455307,-0.2200556519826253,-0.0075210276647356515,-2.6040884906823534,-0.10896030776564476,2.468185327372099,0.826472187636302,1.2134413937687574,-0.2202432315892585,-0.0075118285948192216,-2.6038483821997875,-0.10888392708698907,2.4681821257803174,0.826474908251239,0.0003094100737080678,0.0007702723556919168,0.0008293976985885025,-0.0005055646183248965,0.0008393474274644386,0.0003799808380664049,-0.0008560693440517768,0.0,0.0,0.0,0.0,0.0,0.0,0.0,-6.1540767732903845e-06,-0.0001875796066331814,9.19906991642995e-06,0.00024010848256583728,7.63806786556881e-05,-3.201591781465396e-06,2.7206149370018196e-06,-0.0003094100737080678,-0.0007702723556919168,-0.0008293976985885025,0.0005055646183248965,-0.0008393474274644386,-0.0003799808380664049,0.0008560693440517768,0.24825400114059448,19.768823623657227,0.2998931109905243,-20.130342483520508,-0.9039207100868225,-2.4566683769226074,0.22098104655742645,0
58,0.2850172519683838,-0.24825400114059448,-19.768823623657227,-0.2998931109905243,20.130342483520508,0.9039207100868225,2.4566683769226074,-0.22098104655742645,0.0,0.0,0.0,0.0,0.0,0.0,0.0,-0.23224199620350192,-0.020645960568701438,-0.0957628795212146,0.35076944663065235,0.3386310798629333,0.09361950548142647,-0.2426256691340896,1.2134475478455307,-0.2200556519826253,-0.0075210276647356515,-2.6040884906823534,-0.10896030776564476,2.468185327372099,0.826472187636302,1.2134413937687574,-0.2202432315892585,-0.0075118285948192216,-2.6038483821997875,-0.10888392708698907,2.4681821257803174,0.826474908251239,0.0003094100737080678,0.0007702723556919168,0.0008293976985885025,-0.0005055646183248965,0.0008393474274644386,0.0003799808380664049,-0.0008560693440517768,0.0,0.0,0.0,0.0,0.0,0.0,0.0,-6.1540767732903845e-06,-0.0001875796066331814,9.19906991642995e-06,0.00024010848256583728,7.63806786556881e-05,-3.201591781465396e-06,2.7206149370018196e-06,-0.0003094100737080678,-0.0007702723556919168,-0.0008293976985885025,0.0005055646183248965,-0.0008393474274644386,-0.0003799808380664049,0.0008560693440517768,0.24825400114059448,19.768823623657227,0.2998931109905243,-20.130342483520508,-0.9039207100868225,-2.4566683769226074,0.22098104655742645,0
59,0.29001355171203613,-0.24825400114059448,-19.768823623657227,-0.2998931109905243,20.130342483520508,0.9039207100868225,2.4566683769226074,-0.22098104655742645,0.0,0.0,0.0,0.0,0.0,0.0,0.0,-0.23224199620350192,-0.020645960568701438,-0.0957628795212146,0.35076944663065235,0.3386310798629333,0.09361950548142647,-0.2426256691340896,1.2134475478455307,-0.2200556519826253,-0.0075210276647356515,-2.6040884906823534,-0.10896030776564476,2.468185327372099,0.826472187636302,1.2134413937687574,-0.2202432315892585,-0.0075118285948192216,-2.6038483821997875,-0.10888392708698907,2.4681821257803174,0.826474908251239,0.0003094100737080678,0.0007702723556919168,0.0008293976985885025,-0.0005055646183248965,0.0008393474274644386,0.0003799808380664049,-0.0008560693440517768,0.0,0.0,0.0,0.0,0.0,0.0,0.0,-6.1540767732903845e-06,-0.0001875796066331814,9.19906991642995e-06,0.00024010848256583728,7.63806786556881e-05,-3.201591781465396e-06,2.7206149370018196e-06,-0.0003094100737080678,-0.0007702723556919168,-0.0008293976985885025,0.0005055646183248965,-0.0008393474274644386,-0.0003799808380664049,0.0008560693440517768,0.24825400114059448,19.768823623657227,0.2998931109905243,-20.130342483520508,-0.9039207100868225,-2.4566683769226074,0.22098104655742645,0
60,0.29499268531799316,-0.24825400114059448,-19.768823623657227,-0.2998931109905243,20.130342483520508,0.9039207100868225,2.4566683769226074,-0.22098104655742645,0.0,0.0,0.0,0.0,0.0,0.0,0.0,-0.23224199620350192,-0.020645960568701438,-0.0957628795212146,0.35076944663065235,0.3386310798629333,0.09361950548142647,-0.2426256691340896,1.2134475478455307,-0.2200556519826253,-0.0075210276647356515,-2.6040884906823534,-0.10896030776564476,2.468185327372099,0.826472187636302,1.2134413937687574,-0.2202432315892585,-0.0075118285948192216,-2.6038483821997875,-0.10888392708698907,2.4681821257803174,0.826474908251239,0.0003094100737080678,0.0007702723556919168,0.0008293976985885025,-0.0005055646183248965,0.0008393474274644386,0.0003799808380664049,-0.0008560693440517768,0.0,0.0,0.0,0.0,0.0,0.0,0.0,-6.1540767732903845e-06,-0.0001875796066331814,9.19906991642995e-06,0.00024010848256583728,7.63806786556881e-05,-3.201591781465396e-06,2.7206149370018196e-06,-0.0003094100737080678,-0.0007702723556919168,-0.0008293976985885025,0.0005055646183248965,-0.0008393474274644386,-0.0003799808380664049,0.0008560693440517768,0.24825400114059448,19.768823623657227,0.2998931109905243,-20.130342483520508,-0.9039207100868225,-2.4566683769226074,0.22098104655742645,0
61,0.29998350143432617,-0.19667929410934448,-19.745019912719727,-0.2245146930217743,20.130342483520508,0.9396262764930725,2.4566683769226074,-0.27591270208358765,0.0,0.0,0.0,0.0,0.0,0.0,0.0,-0.23083380874223636,-0.023495000392930347,-0.08920622417185571,0.3553674215086876,0.3386755195317473,0.09464558262032503,-0.24243210364068576,1.213443875582346,-0.22005732241848056,-0.007526317378277319,-2.6040862656033372,-0.10896431448040002,2.468186152918853,0.8264786617074391,1.2134413937687574,-0.2202432315892585,-0.0075118285948192216,-2.6038483821997875,-0.10888392708698907,2.4681821257803174,0.826474908251239,-0.0009350464754357284,-0.00044177600231440746,-0.0010842486517517388,-0.00011824638144064661,-0.00045183529033069567,0.0003654097691530292,0.0017813182448272176,0.0,0.0,0.0,0.0,0.0,0.0,0.0,-2.4818135886395254e-06,-0.00018590917077793145,1.448878345809701e-05,0.00023788340354968796,8.038739341094392e-05,-4.027138535533936e-06,-3.7534562000729466e-06,0.0009350464754357284,0.00044177600231440746,0.0010842486517517388,0.00011824638144064661,0.00045183529033069567,-0.0003654097691530292,-0.0017813182448272176,0.19667929410934448,19.745019912719727,0.2245146930217743,-20.130342483520508,-0.9396262764930725,-2.4566683769226074,0.27591270208358765,0
62,0.30499935150146484,-0.19667929410934448,-19.745019912719727,-0.2245146930217743,20.130342483520508,0.9396262764930725,2.4566683769226074,-0.27591270208358765,0.0,0.0,0.0,0.0,0.0,0.0,0.0,-0.23083380874223636,-0.023495000392930347,-0.08920622417185571,0.3553674215086876,0.3386755195317473,0.09464558262032503,-0.24243210364068576,1.213443875582346,-0.22005732241848056,-0.007526317378277319,-2.6040862656033372,-0.10896431448040002,2.468186152918853,0.8264786617074391,1.2134413937687574,-0.2202432315892585,-0.0075118285948192216,-2.6038483821997875,-0.10888392708698907,2.4681821257803174,0.826474908251239,-0.0009350464754357284,-0.00044177600231440746,-0.0010842486517517388,-0.00011824638144064661,-0.00045183529033069567,0.0003654097691530292,0.0017813182448272176,0.0,0.0,0.0,0.0,0.0,0.0,0.0,-2.4818135886395254e-06,-0.00018590917077793145,1.448878345809701e-05,0.00023788340354968796,8.038739341094392e-05,-4.027138535533936e-06,-3.7534562000729466e-06,0.0009350464754357284,0.00044177600231440746,0.0010842486517517388,0.00011824638144064661,0.00045183529033069567,-0.0003654097691530292,-0.0017813182448272176,0.19667929410934448,19.745019912719727,0.2245146930217743,-20.130342483520508,-0.9396262764930725,-2.4566683769226074,0.27591270208358765,0
63,0.3099956512451172,-0.22445029020309448,-19.816431045532227,-0.2998931109905243,20.130342483520508,0.9213157296180725,2.4694857597351074,-0.19351522624492645,0.0,0.0,0.0,0.0,0.0,0.0,0.0,-0.23526487030463947,-0.03069702922174328,-0.09016594179109153,0.36010049784953485,0.3393224117013223,0.09509034449817219,-0.24139223772588125,1.2134479441362016,-0.2200520737961254,-0.0075210276647356515,-2.60408826413892,-0.10896227997541427,2.468183667732023,0.8264713451216638,1.2134413937687574,-0.2202432315892585,-0.0075118285948192216,-2.6038483821997875,-0.10888392708698907,2.4681821257803174,0.826474908251239,-0.00018105158826645405,0.00012312184075968614,0.00016485258716473445,0.00031229170838020386,0.00013577290106344506,-0.00024202829256218952,-0.001862212401084356,0.0,0.0,0.0,0.0,0.0,0.0,0.0,-6.550367444235761e-06,-0.00019115779313308434,9.19906991642995e-06,0.00023988193913249134,7.835288842519827e-05,-1.5419517054304777e-06,3.563129575279156e-06,0.00018105158826645405,-0.00012312184075968614,-0.00016485258716473445,-0.00031229170838020386,-0.00013577290106344506,0.00024202829256218952,0.001862212401084356,0.22445029020309448,19.816431045532227,0.2998931109905243,-20.130342483520508,-0.9213157296180725,-2.4694857597351074,0.19351522624492645,0
64,0.31499338150024414,-0.22445029020309448,-19.816431045532227,-0.2998931109905243,20.130342483520508,0.9213157296180725,2.4694857597351074,-0.19351522624492645,0.0,0.0,0.0,0.0,0.0,0.0,0.0,-0.23526487030463947,-0.03069702922174328,-0.09016594179109153,0.36010049784953485,0.3393224117013223,0.09509034449817219,-0.24139223772588125,1.2134479441362016,-0.2200520737961254,-0.0075210276647356515,-2.60408826413892,-0.10896227997541427,2.468183667732023,0.8264713451216638,1.2134413937687574,-0.2202432315892585,-0.0075118285948192216,-2.6038483821997875,-0.10888392708698907,2.4681821257803174,0.826474908251239,-0.00018105158826645405,0.00012312184075968614,0.00016485258716473445,0.00031229170838020386,0.00013577290106344506,-0.00024202829256218952,-0.001862212401084356,0.0,0.0,0.0,0.0,0.0,0.0,0.0,-6.550367444235761e-06,-0.00019115779313308434,9.19906991642995e-06,0.00023988193913249134,7.835288842519827e-05,-1.5419517054304777e-06,3.563129575279156e-06,0.00018105158826645405,-0.00012312184075968614,-0.00016485258716473445,-0.00031229170838020386,-0.00013577290106344506,0.00024202829256218952,0.001862212401084356,0.22445029020309448,19.816431045532227,0.2998931109905243,-20.130342483520508,-0.9213157296180725,-2.4694857597351074,0.19351522624492645,0
65,0.3199934959411621,-0.2720577120780945,-19.816431045532227,-0.3236968219280243,20.106538772583008,0.9277244210243225,2.4630770683288574,-0.26858848333358765,0.0,0.0,0.0,0.0,0.0,0.0,0.0,-0.2388407959893216,-0.02360589281516155,-0.09074426385540699,0.34974231530101324,0.3394468451925524,0.09303499346375124,-0.24073643644106532,1.21344913914365,-0.22005231110957513,-0.0075193572288803886,-2.604084516747167,-0.1089629920522372,2.468184262011451,0.8264778066800682,1.2134413937687574,-0.2202432315892585,-0.0075118285948192216,-2.6038483821997875,-0.10888392708698907,2.4681821257803174,0.826474908251239,-0.00018777256221531576,0.0006260723347845191,0.0011246718222440086,0.0004553570985501011,-5.936821429007814e-05,9.22837599626495e-05,0.0011927504286924871,0.0,0.0,0.0,0.0,0.0,0.0,0.0,-7.745374892564882e-06,-0.00019092047968335968,7.5286340611669875e-06,0.00023613454737958506,7.906496524812123e-05,-2.13623113376471e-06,-2.8984288291677984e-06,0.00018777256221531576,-0.0006260723347845191,-0.0011246718222440086,-0.0004553570985501011,5.936821429007814e-05,-9.22837599626495e-05,-0.0011927504286924871,0.2720577120780945,19.816431045532227,0.3236968219280243,-20.106538772583008,-0.9277244210243225,-2.4630770683288574,0.26858848333358765,0
66,0.3249993324279785,-0.2720577120780945,-19.816431045532227,-0.3236968219280243,20.106538772583008,0.9277244210243225,2.4630770683288574,-0.26858848333358765,0.0,0.0,0.0,0.0,0.0,0.0,0.0,-0.2388407959893216,-0.02360589281516155,-0.09074426385540699,0.34974231530101324,0.3394468451925524,0.09303499346375124,-0.24073643644106532,1.21344913914365,-0.22005231110957513,-0.0075193572288803886,-2.604084516747167,-0.1089629920522372,2.468184262011451,0.8264778066800682,1.2134413937687574,-0.2202432315892585,-0.0075118285948192216,-2.6038483821997875,-0.10888392708698907,2.4681821257803174,0.826474908251239,-0.00018777256221531576,0.0006260723347845191,0.0011246718222440086,0.0004553570985501011,-5.936821429007814e-05,9.22837599626495e-05,0.0011927504286924871,0.0,0.0,0.0,0.0,0.0,0.0,0.0,-7.745374892564882e-06,-0.00019092047968335968,7.5286340611669875e-06,0.00023613454737958506,7.906496524812123e-05,-2.13623113376471e-06,-2.8984288291677984e-06,0.00018777256221531576,-0.0006260723347845191,-0.0011246718222440086,-0.0004553570985501011,5.936821429007814e-05,-9.22837599626495e-05,-0.0011927504286924871,0.2720577120780945,19.816431045532227,0.3236968219280243,-20.106538772583008,-0.9277244210243225,-2.4630770683288574,0.26858848333358765,0
67,0.3299984931945801,-0.17287558317184448,-19.745019912719727,-0.3236968219280243,20.130342483520508,0.9213157296180725,2.4566683769226074,-0.21457235515117645,0.0,0.0,0.0,0.0,0.0,0.0,0.0,-0.23620674162258082,-0.026229772543794348,-0.08246761738535381,0.34487428201230913,0.33856088104331306,0.09304186309850848,-0.240679591712733,1.2134421796362374,-0.22005732241848056,-0.0075193572288803886,-2.6040882534306573,-0.1089622668321404,2.468185327300319,0.8264715960507171,1.2134413937687574,-0.2202432315892585,-0.0075118285948192216,-2.6038483821997875,-0.10888392708698907,2.4681821257803174,0.826474908251239,-0.001976312449367518,-0.0006770440513654924,0.0007237534931246985,-0.0005496427680787168,0.002180962199718666,9.848821047272513e-05,-0.0012914613790416707,0.0,0.0,0.0,0.0,0.0,0.0,0.0,-7.858674799798848e-07,-0.00018590917077793145,7.5286340611669875e-06,0.00023987123086977036,7.833974515132625e-05,-3.201520001550051e-06,3.3122005219654582e-06,0.001976312449367518,0.0006770440513654924,-0.0007237534931246985,0.0005496427680787168,-0.002180962199718666,-9.848821047272513e-05,0.0012914613790416707,0.17287558317184448,19.745019912719727,0.3236968219280243,-20.130342483520508,-0.9213157296180725,-2.4566683769226074,0.21457235515117645,0
68,0.3349933624267578,-0.17287558317184448,-19.745019912719727,-0.3236968219280243,20.130342483520508,0.9213157296180725,2.4566683769226074,-0.21457235515117645,0.0,0.0,0.0,0.0,0.0,0.0,0.0,-0.23620674162258082,-0.026229772543794348,-0.08246761738535381,0.34487428201230913,0.33856088104331306,0.09304186309850848,-0.240679591712733,1.2134421796362374,-0.22005732241848056,-0.0075193572288803886,-2.6040882534306573,-0.1089622668321404,2.468185327300319,0.8264715960507171,1.2134413937687574,-0.2202432315892585,-0.0075118285948192216,-2.6038483821997875,-0.10888392708698907,2.4681821257803174,0.826474908251239,-0.001976312449367518,-0.0006770440513654924,0.0007237534931246985,-0.0005496427680787168,0.002180962199718666,9.848821047272513e-05,-0.0012914613790416707,0.0,0.0,0.0,0.0,0.0,0.0,0.0,-7.858674799798848e-07,-0.00018590917077793145,7.5286340611669875e-06,0.00023987123086977036,7.833974515132625e-05,-3.201520001550051e-06,3.3122005219654582e-06,0.001976312449367518,0.0006770440513654924,-0.0007237534931246985,0.0005496427680787168,-0.002180962199718666,-9.848821047272513e-05,0.0012914613790416707,0.17287558317184448,19.745019912719727,0.3236968219280243,-20.130342483520508,-0.9213157296180725,-2.4566683769226074,0.21457235515117645,0
69,0.3399829864501953,-0.24825400114059448,-19.792627334594727,-0.3236968219280243,20.106538772583008,0.9158225655555725,2.4694857597351074,-0.25485557317733765,0.0,0.0,0.0,0.0,0.0,0.0,0.0,-0.24010073003893523,-0.0243089579479002,-0.08890462860071545,0.34569506423539004,0.3390070950266388,0.09266503792585401,-0.24029066760965453,1.2134482229065688,-0.22005398154677003,-0.0075193572288803886,-2.6040845414170843,-0.10896166962377758,2.468183549935957,0.8264760415996026,1.2134413937687574,-0.2202432315892585,-0.0075118285948192216,-2.6038483821997875,-0.10888392708698907,2.4681821257803174,0.826474908251239,0.00019790642291040407,0.001553747833742714,0.0007028271602825994,0.0004289186420877698,0.00036572344458185677,-0.00017254031641920144,0.0005714885598847119,0.0,0.0,0.0,0.0,0.0,0.0,0.0,-6.8291378114704315e-06,-0.00018925004248845911,7.5286340611669875e-06,0.00023615921729680522,7.774253678850818e-05,-1.4241556396399346e-06,-1.133348363602238e-06,-0.00019790642291040407,-0.001553747833742714,-0.0007028271602825994,-0.0004289186420877698,-0.00036572344458185677,0.00017254031641920144,-0.0005714885598847119,0.24825400114059448,19.792627334594727,0.3236968219280243,-20.106538772583008,-0.9158225655555725,-2.4694857597351074,0.25485557317733765,0
70,0.34499335289001465,-0.24825400114059448,-19.792627334594727,-0.3236968219280243,20.106538772583008,0.9158225655555725,2.4694857597351074,-0.25485557317733765,0.0,0.0,0.0,0.0,0.0,0.0,0.0,-0.24010073003893523,-0.0243089579479002,-0.08890462860071545,0.34569506423539004,0.3390070950266388,0.09266503792585401,-0.24029066760965453,1.2134482229065688,-0.22005398154677003,-0.0075193572288803886,-2.6040845414170843,-0.10896166962377758,2.468183549935957,0.8264760415996026,1.2134413937687574,-0.2202432315892585,-0.0075118285948192216,-2.6038483821997875,-0.10888392708698907,2.4681821257803174,0.826474908251239,0.00019790642291040407,0.001553747833742714,0.0007028271602825994,0.0004289186420877698,0.00036572344458185677,-0.00017254031641920144,0.0005714885598847119,0.0,0.0,0.0,0.0,0.0,0.0,0.0,-6.8291378114704315e-06,-0.00018925004248845911,7.5286340611669875e-06,0.00023615921729680522,7.774253678850818e-05,-1.4241556396399346e-06,-1.133348363602238e-06,-0.00019790642291040407,-0.001553747833742714,-0.0007028271602825994,-0.0004289186420877698,-0.00036572344458185677,0.00017254031641920144,-0.0005714885598847119,0.24825400114059448,19.792627334594727,0.3236968219280243,-20.106538772583008,-0.9158225655555725,-2.4694857597351074,0.25485557317733765,0
71,0.34998178482055664,-0.24825400114059448,-19.717248916625977,-0.2483184039592743,20.106538772583008,0.9332175850868225,2.4566683769226074,-0.20083944499492645,0.0,0.0,0.0,0.0,0.0,0.0,0.0,-0.23925083404568212,-0.025948769280219927,-0.08964121288998662,0.3493396742895634,0.33909425548417094,0.09320492337670558,-0.24069463245323722,1.21344746837289,-0.2200592712603117,-0.007524645968231105,-2.604087274594148,-0.1089636024037997,2.4681849873310666,0.8264731061524077,1.2134413937687574,-0.2202432315892585,-0.0075118285948192216,-2.6038483821997875,-0.10888392708698907,2.4681821257803174,0.826474908251239,0.00015836772076544496,-0.0004318475548121408,-0.0008337168644697054,0.0003923762891411234,-0.0004980123734586848,0.0001861470593833825,-0.001593172548674908,0.0,0.0,0.0,0.0,0.0,0.0,0.0,-6.074604132599859e-06,-0.00018396032894679726,1.2817373411883048e-05,0.0002388923943605903,7.967531681062068e-05,-2.861550749244657e-06,1.8020988313827146e-06,-0.00015836772076544496,0.0004318475548121408,0.0008337168644697054,-0.0003923762891411234,0.0004980123734586848,-0.0001861470593833825,0.001593172548674908,0.24825400114059448,19.717248916625977,0.2483184039592743,-20.106538772583008,-0.9332175850868225,-2.4566683769226074,0.20083944499492645,0
72,0.3549926280975342,-0.24825400114059448,-19.717248916625977,-0.2483184039592743,20.106538772583008,0.9332175850868225,2.4566683769226074,-0.20083944499492645,0.0,0.0,0.0,0.0,0.0,0.0,0.0,-0.23925083404568212,-0.025948769280219927,-0.08964121288998662,0.3493396742895634,0.33909425548417094,0.09320492337670558,-0.24069463245323722,1.21344746837289,-0.2200592712603117,-0.007524645968231105,-2.604087274594148,-0.1089636024037997,2.4681849873310666,0.8264731061524077,1.2134413937687574,-0.2202432315892585,-0.0075118285948192216,-2.6038483821997875,-0.10888392708698907,2.4681821257803174,0.826474908251239,0.00015836772076544496,-0.0004318475548121408,-0.0008337168644697054,0.0003923762891411234,-0.0004980123734586848,0.0001861470593833825,-0.001593172548674908,0.0,0.0,0.0,0.0,0.0,0.0,0.0,-6.074604132599859e-06,-0.00018396032894679726,1.2817373411883048e-05,0.0002388923943605903,7.967531681062068e-05,-2.861550749244657e-06,1.8020988313827146e-06,-0.00015836772076544496,0.0004318475548121408,0.0008337168644697054,-0.0003923762891411234,0.0004980123734586848,-0.0001861470593833825,0.001593172548674908,0.24825400114059448,19.717248916625977,0.2483184039592743,-20.106538772583008,-0.9332175850868225,-2.4566683769226074,0.20083944499492645,0
73,0.3599817752838135,-0.24825400114059448,-19.816431045532227,-0.2721221148967743,20.154146194458008,0.9277244210243225,2.4630770683288574,-0.24844686686992645,0.0,0.0,0.0,0.0,0.0,0.0,0.0,-0.24238949450810152,-0.022166029694043642,-0.09241810449567736,0.34811097177207706,0.3399549952748261,0.09266732318196418,-0.24049781423664024,1.2134481924546856,-0.22005231111091478,-0.007522976506561293,-2.604088851665358,-0.1089628737627724,2.468184262010861,0.8264752118545274,1.2134413937687574,-0.2202432315892585,-0.0075118285948192216,-2.6038483821997875,-0.10888392708698907,2.4681821257803174,0.826474908251239,0.00024244750862773638,0.0016984486362142416,-0.0006254409459963678,-0.0010103025226222886,-7.505064525656776e-05,8.95040312080885e-05,0.00017861205506631365,0.0,0.0,0.0,0.0,0.0,0.0,0.0,-6.7986859282331835e-06,-0.00019092047834370907,1.1147911742071144e-05,0.00024046946557065851,7.894667578332848e-05,-2.13623054357015e-06,-3.036032883985129e-07,-0.00024244750862773638,-0.0016984486362142416,0.0006254409459963678,0.0010103025226222886,7.505064525656776e-05,-8.95040312080885e-05,-0.00017861205506631365,0.24825400114059448,19.816431045532227,0.2721221148967743,-20.154146194458008,-0.9277244210243225,-2.4630770683288574,0.24844686686992645,0
74,0.3650169372558594,-0.24825400114059448,-19.816431045532227,-0.2721221148967743,20.154146194458008,0.9277244210243225,2.4630770683288574,-0.24844686686992645,0.0,0.0,0.0,0.0,0.0,0.0,0.0,-0.24238949450810152,-0.022166029694043642,-0.09241810449567736,0.34811097177207706,0.3399549952748261,0.09266732318196418,-0.24049781423664024,1.2134481924546856,-0.22005231111091478,-0.007522976506561293,-2.604088851665358,-0.1089628737627724,2.468184262010861,0.8264752118545274,1.2134413937687574,-0.2202432315892585,-0.0075118285948192216,-2.6038483821997875,-0.10888392708698907,2.4681821257803174,0.826474908251239,0.00024244750862773638,0.0016984486362142416,-0.0006254409459963678,-0.0010103025226222886,-7.505064525656776e-05,8.95040312080885e-05,0.00017861205506631365,0.0,0.0,0.0,0.0,0.0,0.0,0.0,-6.7986859282331835e-06,-0.00019092047834370907,1.1147911742071144e-05,0.00024046946557065851,7.894667578332848e-05,-2.13623054357015e-06,-3.036032883985129e-07,-0.00024244750862773638,-0.0016984486362142416,0.0006254409459963678,0.0010103025226222886,7.505064525656776e-05,-8.95040312080885e-05,-0.00017861205506631365,0.24825400114059448,19.816431045532227,0.2721221148967743,-20.154146194458008,-0.9277244210243225,-2.4630770683288574,0.24844686686992645,0
75,0.3700089454650879,-0.22445029020309448,-19.717248916625977,-0.2721221148967743,20.106538772583008,0.9213157296180725,2.4694857597351074,-0.24112264811992645,0.0,0.0,0.0,0.0,0.0,0.0,0.0,-0.24077090726715653,-0.023749607778012473,-0.0914388608674117,0.3507055825709715,0.34061343950554157,0.09311720243242938,-0.2411014493662611,1.2134458080753756,-0.2200592712603117,-0.007522976506566792,-2.604084542215868,-0.10896227997474653,2.468183916228625,0.826476870038922,1.2134413937687574,-0.2202432315892585,-0.0075118285948192216,-2.6038483821997875,-0.10888392708698907,2.4681821257803174,0.826474908251239,-0.00020349914558969538,-0.0013678961333449518,-0.0005151027552598631,0.0007860501894879517,0.0001287277924719843,-0.00011208748493966405,5.362365192261472e-05,0.0,0.0,0.0,0.0,0.0,0.0,0.0,-4.414306618238939e-06,-0.00018396032894679726,1.1147911747570217e-05,0.00023616001608051107,7.835288775745464e-05,-1.7904483078368116e-06,-1.961787682969174e-06,0.00020349914558969538,0.0013678961333449518,0.0005151027552598631,-0.0007860501894879517,-0.0001287277924719843,0.00011208748493966405,-5.362365192261472e-05,0.22445029020309448,19.717248916625977,0.2721221148967743,-20.106538772583008,-0.9213157296180725,-2.4694857597351074,0.24112264811992645,0
76,0.37499260902404785,-0.22445029020309448,-19.717248916625977,-0.2721221148967743,20.106538772583008,0.9213157296180725,2.4694857597351074,-0.24112264811992645,0.0,0.0,0.0,0.0,0.0,0.0,0.0,-0.24077090726715653,-0.023749607778012473,-0.0914388608674117,0.3507055825709715,0.34061343950554157,0.09311720243242938,-0.2411014493662611,1.2134458080753756,-0.2200592712603117,-0.007522976506566792,-2.604084542215868,-0.10896227997474653,2.468183916228625,0.826476870038922,1.2134413937687574,-0.2202432315892585,-0.0075118285948192216,-2.6038483821997875,-0.10888392708698907,2.4681821257803174,0.826474908251239,-0.00020349914558969538,-0.0013678961333449518,-0.0005151027552598631,0.0007860501894879517,0.0001287277924719843,-0.00011208748493966405,5.362365192261472e-05,0.0,0.0,0.0,0.0,0.0,0.0,0.0,-4.414306618238939e-06,-0.00018396032894679726,1.1147911747570217e-05,0.00023616001608051107,7.835288775745464e-05,-1.7904483078368116e-06,-1.961787682969174e-06,0.00020349914558969538,0.0013678961333449518,0.0005151027552598631,-0.0007860501894879517,-0.0001287277924719843,0.00011208748493966405,-5.362365192261472e-05,0.22445029020309448,19.717248916625977,0.2721221148967743,-20.106538772583008,-0.9213157296180725,-2.4694857597351074,0.24112264811992645,0
77,0.3800034523010254,-0.24825400114059448,-19.768823623657227,-0.2721221148967743,20.130342483520508,0.9332175850868225,2.4694857597351074,-0.22098104655742645,0.0,0.0,0.0,0.0,0.0,0.0,0.0,-0.24099758165097745,-0.024720591307551967,-0.09462111714602581,0.34815774689620627,0.34058173880468184,0.09298877997746573,-0.24072079681227398,1.2134474693498343,-0.22005564905281308,-0.007522976506566792,-2.604088562382906,-0.1089636024037997,2.4681835891818875,0.8264712050563489,1.2134413937687574,-0.2202432315892585,-0.0075118285948192216,-2.6038483821997875,-0.10888392708698907,2.4681821257803174,0.826474908251239,0.00017457603968531752,-0.000596825875205799,-0.0007855411942331659,-0.0002424674791149945,-0.00013570717912329407,-5.453267970592087e-05,-0.0010449275661896743,0.0,0.0,0.0,0.0,0.0,0.0,0.0,-6.0755810769030916e-06,-0.00018758253644540757,1.1147911747570217e-05,0.00024018018311844358,7.967531681062068e-05,-1.4634015701453507e-06,3.7031948901811163e-06,-0.00017457603968531752,0.000596825875205799,0.0007855411942331659,0.0002424674791149945,0.00013570717912329407,5.453267970592087e-05,0.0010449275661896743,0.24825400114059448,19.768823623657227,0.2721221148967743,-20.130342483520508,-0.9332175850868225,-2.4694857597351074,0.22098104655742645,0
78,0.3849928379058838,-0.24825400114059448,-19.768823623657227,-0.2721221148967743,20.130342483520508,0.9332175850868225,2.4694857597351074,-0.22098104655742645,0.0,0.0,0.0,0.0,0.0,0.0,0.0,-0.24099758165097745,-0.024720591307551967,-0.09462111714602581,0.34815774689620627,0.34058173880468184,0.09298877997746573,-0.24072079681227398,1.2134474693498343,-0.22005564905281308,-0.007522976506566792,-2.604088562382906,-0.1089636024037997,2.4681835891818875,0.8264712050563489,1.2134413937687574,-0.2202432315892585,-0.0075118285948192216,-2.6038483821997875,-0.10888392708698907,2.4681821257803174,0.826474908251239,0.00017457603968531752,-0.000596825875205799,-0.0007855411942331659,-0.0002424674791149945,-0.00013570717912329407,-5.453267970592087e-05,-0.0010449275661896743,0.0,0.0,0.0,0.0,0.0,0.0,0.0,-6.0755810769030916e-06,-0.00018758253644540757,1.1147911747570217e-05,0.00024018018311844358,7.967531681062068e-05,-1.4634015701453507e-06,3.7031948901811163e-06,-0.00017457603968531752,0.000596825875205799,0.0007855411942331659,0.0002424674791149945,0.00013570717912329407,5.453267970592087e-05,0.0010449275661896743,0.24825400114059448,19.768823623657227,0.2721221148967743,-20.130342483520508,-0.9332175850868225,-2.4694857597351074,0.22098104655742645,0
79,0.390000581741333,-0.22445029020309448,-19.768823623657227,-0.2721221148967743,20.082735061645508,0.9277244210243225,2.4630770683288574,-0.26858848333358765,0.0,0.0,0.0,0.0,0.0,0.0,0.0,-0.2343847384629936,-0.02308762803664059,-0.08977653067387303,0.3445448586605383,0.34085769777039415,0.09335015795835241,-0.24129045343282698,1.2134457983688458,-0.22005565198260876,-0.007522976506566792,-2.604082955875691,-0.1089629920522372,2.468185321649137,0.8264767472392617,1.2134413937687574,-0.2202432315892585,-0.0075118285948192216,-2.6038483821997875,-0.10888392708698907,2.4681821257803174,0.826474908251239,-0.00020394434126111286,-0.000306112434959535,-0.00014159508788648298,0.000499835387738544,-9.058216796922472e-05,0.00014599594315169617,0.0014161186217744267,0.0,0.0,0.0,0.0,0.0,0.0,0.0,-4.404600088436794e-06,-0.00018757960664972373,1.1147911747570217e-05,0.00023457367590351552,7.906496524812123e-05,-3.19586881980527e-06,-1.8389880226399313e-06,0.00020394434126111286,0.000306112434959535,0.00014159508788648298,-0.000499835387738544,9.058216796922472e-05,-0.00014599594315169617,-0.0014161186217744267,0.22445029020309448,19.768823623657227,0.2721221148967743,-20.082735061645508,-0.9277244210243225,-2.4630770683288574,0.26858848333358765,0
