rezayati/contactInterpretation/dataset/franka_main/labeled_data/link5/c1_5.csv
index,time,tau_J0,tau_J1,tau_J2,tau_J3,tau_J4,tau_J5,tau_J6,tau_J_d0,tau_J_d1,tau_J_d2,tau_J_d3,tau_J_d4,tau_J_d5,tau_J_d6,tau_ext0,tau_ext1,tau_ext2,tau_ext3,tau_ext4,tau_ext5,tau_ext6,q0,q1,q2,q3,q4,q5,q6,q_d0,q_d1,q_d2,q_d3,q_d4,q_d5,q_d6,dq0,dq1,dq2,dq3,dq4,dq5,dq6,dq_d0,dq_d1,dq_d2,dq_d3,dq_d4,dq_d5,dq_d6,e0,e1,e2,e3,e4,e5,e6,de0,de1,de2,de3,de4,de5,de6,etau_J0,etau_J1,etau_J2,etau_J3,etau_J4,etau_J5,etau_J6,label
1,0.0,-0.6053096652030945,-46.52419662475586,-5.635891437530518,19.610628128051758,0.9094138741493225,2.3788485527038574,-0.04977743700146675,0.0,0.0,0.0,0.0,0.0,0.0,0.0,-0.6596023392312483,-0.23277667851762282,-0.47002204387876234,0.4371977931783912,0.3313021631559585,0.11501713020045884,-0.07255932667347949,0.8781017780015117,0.7556729431570786,-0.2825152928661882,-1.669193653747432,0.14130468793726006,2.4034164848857453,1.0273076767842804,0.878092876070424,0.7554597494309409,-0.2825552651693207,-1.6690993614607135,0.1414185955172306,2.4034451173676383,1.0273381002308042,-0.001478899431638962,-0.0007322809017618962,8.879370668695453e-05,0.00010393617874467621,0.000264471711560985,1.0137919680991135e-07,-0.0005558718905727151,0.0,0.0,0.0,0.0,0.0,0.0,0.0,-8.901931087712533e-06,-0.00021319372613770593,-3.9972303132518316e-05,9.42922867184226e-05,0.00011390757997054024,2.8632481892998385e-05,3.0423446523819564e-05,0.001478899431638962,0.0007322809017618962,-8.879370668695453e-05,-0.00010393617874467621,-0.000264471711560985,-1.0137919680991135e-07,0.0005558718905727151,0.6053096652030945,46.52419662475586,5.635891437530518,-19.610628128051758,-0.9094138741493225,-2.3788485527038574,0.04977743700146675,0
2,0.004481077194213867,-0.6568843722343445,-46.54800033569336,-5.663662433624268,19.634431838989258,0.9039207100868225,2.3852572441101074,-0.02963583543896675,0.0,0.0,0.0,0.0,0.0,0.0,0.0,-0.6689983164300454,-0.25076057228743603,-0.47994927657256153,0.4430567029225538,0.33170965447082584,0.11614086766929986,-0.07214329217772006,0.8781035173523846,0.7556746135929174,-0.28251334696779623,-1.6691953273326385,0.14130399345866487,2.403415772808922,1.0273054388285512,0.878092876070424,0.7554597494309409,-0.2825552651693207,-1.6690993614607135,0.1414185955172306,2.4034451173676383,1.0273381002308042,0.00033726483352056056,-0.0010635233675819248,0.00044466258410732926,4.3649443996766465e-05,0.0005270910631357746,-0.000363874024536056,-0.001715389673172136,0.0,0.0,0.0,0.0,0.0,0.0,0.0,-1.0641281960599436e-05,-0.0002148641619765801,-4.191820152449344e-05,9.596587192506334e-05,0.00011460205856572703,2.9344558716282165e-05,3.266140225299807e-05,-0.00033726483352056056,0.0010635233675819248,-0.00044466258410732926,-4.3649443996766465e-05,-0.0005270910631357746,0.000363874024536056,0.001715389673172136,0.6568843722343445,46.54800033569336,5.663662433624268,-19.634431838989258,-0.9039207100868225,-2.3852572441101074,0.02963583543896675,0
3,0.009482622146606445,-0.6568843722343445,-46.54800033569336,-5.663662433624268,19.634431838989258,0.9039207100868225,2.3852572441101074,-0.02963583543896675,0.0,0.0,0.0,0.0,0.0,0.0,0.0,-0.6689983164300454,-0.25076057228743603,-0.47994927657256153,0.4430567029225538,0.33170965447082584,0.11614086766929986,-0.07214329217772006,0.8781035173523846,0.7556746135929174,-0.28251334696779623,-1.6691953273326385,0.14130399345866487,2.403415772808922,1.0273054388285512,0.878092876070424,0.7554597494309409,-0.2825552651693207,-1.6690993614607135,0.1414185955172306,2.4034451173676383,1.0273381002308042,0.00033726483352056056,-0.0010635233675819248,0.00044466258410732926,4.3649443996766465e-05,0.0005270910631357746,-0.000363874024536056,-0.001715389673172136,0.0,0.0,0.0,0.0,0.0,0.0,0.0,-1.0641281960599436e-05,-0.0002148641619765801,-4.191820152449344e-05,9.596587192506334e-05,0.00011460205856572703,2.9344558716282165e-05,3.266140225299807e-05,-0.00033726483352056056,0.0010635233675819248,-0.00044466258410732926,-4.3649443996766465e-05,-0.0005270910631357746,0.000363874024536056,0.001715389673172136,0.6568843722343445,46.54800033569336,5.663662433624268,-19.634431838989258,-0.9039207100868225,-2.3852572441101074,0.02963583543896675,0
4,0.0144805908203125,-0.6806880831718445,-46.59957504272461,-5.663662433624268,19.634431838989258,0.9158225655555725,2.3916659355163574,-0.08365194499492645,0.0,0.0,0.0,0.0,0.0,0.0,0.0,-0.6792702040291789,-0.23546963232094203,-0.485926187754605,0.4322452751946976,0.3318630647027906,0.11433932596889765,-0.07166364445408281,0.8781055494293493,0.7556782328706039,-0.2825133440243736,-1.6691932591486736,0.1413026315372754,2.403415060732099,1.0273114406185018,0.878092876070424,0.7554597494309409,-0.2825552651693207,-1.6690993614607135,0.1414185955172306,2.4034451173676383,1.0273381002308042,-0.00040435325891288406,0.0005087466959624577,0.0008742520193634136,-3.2848072836460206e-05,-4.226895705255861e-05,-0.0002681760734664681,0.0003009841790290163,0.0,0.0,0.0,0.0,0.0,0.0,0.0,-1.2673358925296974e-05,-0.00021848343966301975,-4.192114494711019e-05,9.389768796008724e-05,0.00011596397995519703,3.0056635539121856e-05,2.6659612302415425e-05,0.00040435325891288406,-0.0005087466959624577,-0.0008742520193634136,3.2848072836460206e-05,4.226895705255861e-05,0.0002681760734664681,-0.0003009841790290163,0.6806880831718445,46.59957504272461,5.663662433624268,-19.634431838989258,-0.9158225655555725,-2.3916659355163574,0.08365194499492645,0
5,0.01949024200439453,-0.6806880831718445,-46.59957504272461,-5.663662433624268,19.634431838989258,0.9158225655555725,2.3916659355163574,-0.08365194499492645,0.0,0.0,0.0,0.0,0.0,0.0,0.0,-0.6792702040291789,-0.23546963232094203,-0.485926187754605,0.4322452751946976,0.3318630647027906,0.11433932596889765,-0.07166364445408281,0.8781055494293493,0.7556782328706039,-0.2825133440243736,-1.6691932591486736,0.1413026315372754,2.403415060732099,1.0273114406185018,0.878092876070424,0.7554597494309409,-0.2825552651693207,-1.6690993614607135,0.1414185955172306,2.4034451173676383,1.0273381002308042,-0.00040435325891288406,0.0005087466959624577,0.0008742520193634136,-3.2848072836460206e-05,-4.226895705255861e-05,-0.0002681760734664681,0.0003009841790290163,0.0,0.0,0.0,0.0,0.0,0.0,0.0,-1.2673358925296974e-05,-0.00021848343966301975,-4.192114494711019e-05,9.389768796008724e-05,0.00011596397995519703,3.0056635539121856e-05,2.6659612302415425e-05,0.00040435325891288406,-0.0005087466959624577,-0.0008742520193634136,3.2848072836460206e-05,4.226895705255861e-05,0.0002681760734664681,-0.0003009841790290163,0.6806880831718445,46.59957504272461,5.663662433624268,-19.634431838989258,-0.9158225655555725,-2.3916659355163574,0.08365194499492645,0
6,0.02447986602783203,-0.7322627902030945,-46.52419662475586,-5.663662433624268,19.634431838989258,0.9094138741493225,2.3852572441101074,-0.09097616374492645,0.0,0.0,0.0,0.0,0.0,0.0,0.0,-0.670786557026849,-0.24110340591548854,-0.47476891056799375,0.43362561308498404,0.3315910118533642,0.11526533729483217,-0.07222084084453728,0.8781113371153342,0.7556750520767753,-0.2825133440606957,-1.6691932531532168,0.14130334383056206,2.403415772808922,1.027312254420585,0.878092876070424,0.7554597494309409,-0.2825552651693207,-1.6690993614607135,0.1414185955172306,2.4034451173676383,1.0273381002308042,0.0012613528925658004,-0.001620701594009891,0.00013530797472120304,-3.953170262110967e-05,0.0005444440848614788,-0.0001771290429406848,0.0013164134343665182,0.0,0.0,0.0,0.0,0.0,0.0,0.0,-1.8461044910211832e-05,-0.00021530264583446979,-4.1921108624998205e-05,9.389169250328955e-05,0.00011525168666853824,2.9344558716282165e-05,2.5845810219138343e-05,-0.0012613528925658004,0.001620701594009891,-0.00013530797472120304,3.953170262110967e-05,-0.0005444440848614788,0.0001771290429406848,-0.0013164134343665182,0.7322627902030945,46.52419662475586,5.663662433624268,-19.634431838989258,-0.9094138741493225,-2.3852572441101074,0.09097616374492645,0
7,0.02948164939880371,-0.7322627902030945,-46.52419662475586,-5.663662433624268,19.634431838989258,0.9094138741493225,2.3852572441101074,-0.09097616374492645,0.0,0.0,0.0,0.0,0.0,0.0,0.0,-0.670786557026849,-0.24110340591548854,-0.47476891056799375,0.43362561308498404,0.3315910118533642,0.11526533729483217,-0.07222084084453728,0.8781113371153342,0.7556750520767753,-0.2825133440606957,-1.6691932531532168,0.14130334383056206,2.403415772808922,1.027312254420585,0.878092876070424,0.7554597494309409,-0.2825552651693207,-1.6690993614607135,0.1414185955172306,2.4034451173676383,1.0273381002308042,0.0012613528925658004,-0.001620701594009891,0.00013530797472120304,-3.953170262110967e-05,0.0005444440848614788,-0.0001771290429406848,0.0013164134343665182,0.0,0.0,0.0,0.0,0.0,0.0,0.0,-1.8461044910211832e-05,-0.00021530264583446979,-4.1921108624998205e-05,9.389169250328955e-05,0.00011525168666853824,2.9344558716282165e-05,2.5845810219138343e-05,-0.0012613528925658004,0.001620701594009891,-0.00013530797472120304,3.953170262110967e-05,-0.0005444440848614788,0.0001771290429406848,-0.0013164134343665182,0.7322627902030945,46.52419662475586,5.663662433624268,-19.634431838989258,-0.9094138741493225,-2.3852572441101074,0.09097616374492645,0
8,0.034491539001464844,-0.7322627902030945,-46.59957504272461,-5.663662433624268,19.634431838989258,0.9158225655555725,2.3788485527038574,-0.02963583543896675,0.0,0.0,0.0,0.0,0.0,0.0,0.0,-0.6783966825756196,-0.2416831123603869,-0.47942192953393525,0.432312877288921,0.33170520813052445,0.1151399085396516,-0.07024377358366878,0.8781088070053392,0.7556782338454858,-0.28251549277134713,-1.6691953196574922,0.14130287352187795,2.4034164848857453,1.0273054388285512,0.878092876070424,0.7554597494309409,-0.2825552651693207,-1.6690993614607135,0.1414185955172306,2.4034451173676383,1.0273381002308042,0.0007768227486791681,0.0003974190470278634,-0.0003206943082377314,-9.395209871972009e-05,7.928623875853845e-05,-2.6081545858305642e-05,-0.0017059203961904028,0.0,0.0,0.0,0.0,0.0,0.0,0.0,-1.593093491525366e-05,-0.0002184844145449727,-3.9772397973592e-05,9.595819677876705e-05,0.00011572199535264671,2.8632481892998385e-05,3.266140225299807e-05,-0.0007768227486791681,-0.0003974190470278634,0.0003206943082377314,9.395209871972009e-05,-7.928623875853845e-05,2.6081545858305642e-05,0.0017059203961904028,0.7322627902030945,46.59957504272461,5.663662433624268,-19.634431838989258,-0.9158225655555725,-2.3788485527038574,0.02963583543896675,0
9,0.039487600326538086,-0.7322627902030945,-46.59957504272461,-5.663662433624268,19.634431838989258,0.9158225655555725,2.3788485527038574,-0.02963583543896675,0.0,0.0,0.0,0.0,0.0,0.0,0.0,-0.6783966825756196,-0.2416831123603869,-0.47942192953393525,0.432312877288921,0.33170520813052445,0.1151399085396516,-0.07024377358366878,0.8781088070053392,0.7556782338454858,-0.28251549277134713,-1.6691953196574922,0.14130287352187795,2.4034164848857453,1.0273054388285512,0.878092876070424,0.7554597494309409,-0.2825552651693207,-1.6690993614607135,0.1414185955172306,2.4034451173676383,1.0273381002308042,0.0007768227486791681,0.0003974190470278634,-0.0003206943082377314,-9.395209871972009e-05,7.928623875853845e-05,-2.6081545858305642e-05,-0.0017059203961904028,0.0,0.0,0.0,0.0,0.0,0.0,0.0,-1.593093491525366e-05,-0.0002184844145449727,-3.9772397973592e-05,9.595819677876705e-05,0.00011572199535264671,2.8632481892998385e-05,3.266140225299807e-05,-0.0007768227486791681,-0.0003974190470278634,0.0003206943082377314,9.395209871972009e-05,-7.928623875853845e-05,2.6081545858305642e-05,0.0017059203961904028,0.7322627902030945,46.59957504272461,5.663662433624268,-19.634431838989258,-0.9158225655555725,-2.3788485527038574,0.02963583543896675,0
10,0.04448509216308594,-0.7322627902030945,-46.59957504272461,-5.663662433624268,19.658235549926758,0.9277244210243225,2.3788485527038574,-0.06351034343242645,0.0,0.0,0.0,0.0,0.0,0.0,0.0,-0.6885432053258028,-0.24321941008492523,-0.4870909433352819,0.4329441593452338,0.33205949948520935,0.11481833952859802,-0.06830621698715007,0.8781095194123709,0.7556782329062752,-0.2825133440364867,-1.669196284333691,0.1413027717449681,2.4034164718037934,1.0273092026627726,0.878092876070424,0.7554597494309409,-0.2825552651693207,-1.6690993614607135,0.1414185955172306,2.4034451173676383,1.0273381002308042,0.00030537705749393584,0.0006542603763683471,-0.00022597405255340912,-0.00047183363344919946,-0.0003645752417892556,4.5032585383530934e-05,0.0003198758727842904,0.0,0.0,0.0,0.0,0.0,0.0,0.0,-1.6643341946953605e-05,-0.0002184834753343745,-4.192113283402188e-05,9.692287297746738e-05,0.00011582377226249108,2.8645563844964528e-05,2.8897568031593934e-05,-0.00030537705749393584,-0.0006542603763683471,0.00022597405255340912,0.00047183363344919946,0.0003645752417892556,-4.5032585383530934e-05,-0.0003198758727842904,0.7322627902030945,46.59957504272461,5.663662433624268,-19.658235549926758,-0.9277244210243225,-2.3788485527038574,0.06351034343242645,0
11,0.04948282241821289,-0.7322627902030945,-46.59957504272461,-5.663662433624268,19.658235549926758,0.9277244210243225,2.3788485527038574,-0.06351034343242645,0.0,0.0,0.0,0.0,0.0,0.0,0.0,-0.6885432053258028,-0.24321941008492523,-0.4870909433352819,0.4329441593452338,0.33205949948520935,0.11481833952859802,-0.06830621698715007,0.8781095194123709,0.7556782329062752,-0.2825133440364867,-1.669196284333691,0.1413027717449681,2.4034164718037934,1.0273092026627726,0.878092876070424,0.7554597494309409,-0.2825552651693207,-1.6690993614607135,0.1414185955172306,2.4034451173676383,1.0273381002308042,0.00030537705749393584,0.0006542603763683471,-0.00022597405255340912,-0.00047183363344919946,-0.0003645752417892556,4.5032585383530934e-05,0.0003198758727842904,0.0,0.0,0.0,0.0,0.0,0.0,0.0,-1.6643341946953605e-05,-0.0002184834753343745,-4.192113283402188e-05,9.692287297746738e-05,0.00011582377226249108,2.8645563844964528e-05,2.8897568031593934e-05,-0.00030537705749393584,-0.0006542603763683471,0.00022597405255340912,0.00047183363344919946,0.0003645752417892556,-4.5032585383530934e-05,-0.0003198758727842904,0.7322627902030945,46.59957504272461,5.663662433624268,-19.658235549926758,-0.9277244210243225,-2.3788485527038574,0.06351034343242645,0
12,0.05448412895202637,-0.7084590792655945,-46.54800033569336,-5.663662433624268,19.610628128051758,0.9158225655555725,2.3724398612976074,-0.09097616374492645,0.0,0.0,0.0,0.0,0.0,0.0,0.0,-0.6736170172822564,-0.23847492271401607,-0.47478475558770555,0.43328726412642726,0.33224796527724276,0.11440339984069259,-0.06770354312527989,0.878109916921812,0.7556746135929229,-0.28251334500550523,-1.6691934281444545,0.14130588321483045,2.4034171969605747,1.027312254420585,0.878092876070424,0.7554597494309409,-0.2825552651693207,-1.6690993614607135,0.1414185955172306,2.4034451173676383,1.0273381002308042,0.000293970591125461,-0.00025567836393657387,4.617661747952581e-05,0.0005383168714137749,0.00013136243460058688,0.00017888092011251092,0.0007181699663997634,0.0,0.0,0.0,0.0,0.0,0.0,0.0,-1.7040851387983835e-05,-0.00021486416198202019,-4.19201638154898e-05,9.406668374101201e-05,0.00011271230240014751,2.7920407063675157e-05,2.5845810219138343e-05,-0.000293970591125461,0.00025567836393657387,-4.617661747952581e-05,-0.0005383168714137749,-0.00013136243460058688,-0.00017888092011251092,-0.0007181699663997634,0.7084590792655945,46.54800033569336,5.663662433624268,-19.610628128051758,-0.9158225655555725,-2.3724398612976074,0.09097616374492645,0
13,0.05944108963012695,-0.7084590792655945,-46.54800033569336,-5.663662433624268,19.610628128051758,0.9158225655555725,2.3724398612976074,-0.09097616374492645,0.0,0.0,0.0,0.0,0.0,0.0,0.0,-0.6736170172822564,-0.23847492271401607,-0.47478475558770555,0.43328726412642726,0.33224796527724276,0.11440339984069259,-0.06770354312527989,0.878109916921812,0.7556746135929229,-0.28251334500550523,-1.6691934281444545,0.14130588321483045,2.4034171969605747,1.027312254420585,0.878092876070424,0.7554597494309409,-0.2825552651693207,-1.6690993614607135,0.1414185955172306,2.4034451173676383,1.0273381002308042,0.000293970591125461,-0.00025567836393657387,4.617661747952581e-05,0.0005383168714137749,0.00013136243460058688,0.00017888092011251092,0.0007181699663997634,0.0,0.0,0.0,0.0,0.0,0.0,0.0,-1.7040851387983835e-05,-0.00021486416198202019,-4.19201638154898e-05,9.406668374101201e-05,0.00011271230240014751,2.7920407063675157e-05,2.5845810219138343e-05,-0.000293970591125461,0.00025567836393657387,-4.617661747952581e-05,-0.0005383168714137749,-0.00013136243460058688,-0.00017888092011251092,-0.0007181699663997634,0.7084590792655945,46.54800033569336,5.663662433624268,-19.610628128051758,-0.9158225655555725,-2.3724398612976074,0.09097616374492645,0
14,0.06448245048522949,-0.6568843722343445,-46.57577133178711,-5.612087726593018,19.586824417114258,0.9094138741493225,2.3788485527038574,-0.04336874559521675,0.0,0.0,0.0,0.0,0.0,0.0,0.0,-0.6722465666678129,-0.24240507072442585,-0.4755138705297625,0.4361445209544514,0.3332984286083757,0.11440324255521514,-0.06748108611527481,0.8781060513346498,0.755676571101542,-0.28251696331415643,-1.669191976055075,0.14130431043519712,2.403416483432195,1.0273069647074573,0.878092876070424,0.7554597494309409,-0.2825552651693207,-1.6690993614607135,0.1414185955172306,2.4034451173676383,1.0273381002308042,-0.00012966410304080146,0.0003546518339939004,-0.0008394125752798084,0.0010940074017958292,0.000269949304005511,0.0002767631950421698,-0.001096461495169349,0.0,0.0,0.0,0.0,0.0,0.0,0.0,-1.3175264225839811e-05,-0.00021682167060110835,-3.8301855164291077e-05,9.261459436160635e-05,0.00011428508203348287,2.8633935443167502e-05,3.11355233468813e-05,0.00012966410304080146,-0.0003546518339939004,0.0008394125752798084,-0.0010940074017958292,-0.000269949304005511,-0.0002767631950421698,0.001096461495169349,0.6568843722343445,46.57577133178711,5.612087726593018,-19.586824417114258,-0.9094138741493225,-2.3788485527038574,0.04336874559521675,0
15,0.06948614120483398,-0.6568843722343445,-46.57577133178711,-5.612087726593018,19.586824417114258,0.9094138741493225,2.3788485527038574,-0.04336874559521675,0.0,0.0,0.0,0.0,0.0,0.0,0.0,-0.6722465666678129,-0.24240507072442585,-0.4755138705297625,0.4361445209544514,0.3332984286083757,0.11440324255521514,-0.06748108611527481,0.8781060513346498,0.755676571101542,-0.28251696331415643,-1.669191976055075,0.14130431043519712,2.403416483432195,1.0273069647074573,0.878092876070424,0.7554597494309409,-0.2825552651693207,-1.6690993614607135,0.1414185955172306,2.4034451173676383,1.0273381002308042,-0.00012966410304080146,0.0003546518339939004,-0.0008394125752798084,0.0010940074017958292,0.000269949304005511,0.0002767631950421698,-0.001096461495169349,0.0,0.0,0.0,0.0,0.0,0.0,0.0,-1.3175264225839811e-05,-0.00021682167060110835,-3.8301855164291077e-05,9.261459436160635e-05,0.00011428508203348287,2.8633935443167502e-05,3.11355233468813e-05,0.00012966410304080146,-0.0003546518339939004,0.0008394125752798084,-0.0010940074017958292,-0.000269949304005511,-0.0002767631950421698,0.001096461495169349,0.6568843722343445,46.57577133178711,5.612087726593018,-19.586824417114258,-0.9094138741493225,-2.3788485527038574,0.04336874559521675,0
16,0.07463407516479492,-0.6806880831718445,-46.54800033569336,-5.612087726593018,19.686006546020508,0.9158225655555725,2.3724398612976074,-0.08365194499492645,0.0,0.0,0.0,0.0,0.0,0.0,0.0,-0.6856690771401254,-0.24392613841598348,-0.4873002364162277,0.4336330223509346,0.3334425978153673,0.11517028116424481,-0.06830692893147858,0.8781077044409096,0.7556746139139587,-0.2825172017206226,-1.669196651357527,0.14130298717948608,2.403416137324431,1.0273114406185018,0.878092876070424,0.7554597494309409,-0.2825552651693207,-1.6690993614607135,0.1414185955172306,2.4034451173676383,1.0273381002308042,-6.202017425122858e-05,-0.0005130758135886686,-0.000492616177377601,-0.0014713400754471368,0.00016487109930017605,0.00030985411940429714,0.0007737459343159112,0.0,0.0,0.0,0.0,0.0,0.0,0.0,-1.4828370485608922e-05,-0.00021486448301788474,-3.806344869811129e-05,9.728989681345723e-05,0.00011560833774451607,2.898004320739389e-05,2.6659612302415425e-05,6.202017425122858e-05,0.0005130758135886686,0.000492616177377601,0.0014713400754471368,-0.00016487109930017605,-0.00030985411940429714,-0.0007737459343159112,0.6806880831718445,46.54800033569336,5.612087726593018,-19.686006546020508,-0.9158225655555725,-2.3724398612976074,0.08365194499492645,0
17,0.07949066162109375,-0.6806880831718445,-46.54800033569336,-5.612087726593018,19.686006546020508,0.9158225655555725,2.3724398612976074,-0.08365194499492645,0.0,0.0,0.0,0.0,0.0,0.0,0.0,-0.6856690771401254,-0.24392613841598348,-0.4873002364162277,0.4336330223509346,0.3334425978153673,0.11517028116424481,-0.06830692893147858,0.8781077044409096,0.7556746139139587,-0.2825172017206226,-1.669196651357527,0.14130298717948608,2.403416137324431,1.0273114406185018,0.878092876070424,0.7554597494309409,-0.2825552651693207,-1.6690993614607135,0.1414185955172306,2.4034451173676383,1.0273381002308042,-6.202017425122858e-05,-0.0005130758135886686,-0.000492616177377601,-0.0014713400754471368,0.00016487109930017605,0.00030985411940429714,0.0007737459343159112,0.0,0.0,0.0,0.0,0.0,0.0,0.0,-1.4828370485608922e-05,-0.00021486448301788474,-3.806344869811129e-05,9.728989681345723e-05,0.00011560833774451607,2.898004320739389e-05,2.6659612302415425e-05,6.202017425122858e-05,0.0005130758135886686,0.000492616177377601,0.0014713400754471368,-0.00016487109930017605,-0.00030985411940429714,-0.0007737459343159112,0.6806880831718445,46.54800033569336,5.612087726593018,-19.686006546020508,-0.9158225655555725,-2.3724398612976074,0.08365194499492645,0
18,0.0844869613647461,-0.6806880831718445,-46.54800033569336,-5.612087726593018,19.686006546020508,0.9158225655555725,2.3724398612976074,-0.08365194499492645,0.0,0.0,0.0,0.0,0.0,0.0,0.0,-0.6856690771401254,-0.24392613841598348,-0.4873002364162277,0.4336330223509346,0.3334425978153673,0.11517028116424481,-0.06830692893147858,0.8781077044409096,0.7556746139139587,-0.2825172017206226,-1.669196651357527,0.14130298717948608,2.403416137324431,1.0273114406185018,0.878092876070424,0.7554597494309409,-0.2825552651693207,-1.6690993614607135,0.1414185955172306,2.4034451173676383,1.0273381002308042,-6.202017425122858e-05,-0.0005130758135886686,-0.000492616177377601,-0.0014713400754471368,0.00016487109930017605,0.00030985411940429714,0.0007737459343159112,0.0,0.0,0.0,0.0,0.0,0.0,0.0,-1.4828370485608922e-05,-0.00021486448301788474,-3.806344869811129e-05,9.728989681345723e-05,0.00011560833774451607,2.898004320739389e-05,2.6659612302415425e-05,6.202017425122858e-05,0.0005130758135886686,0.000492616177377601,0.0014713400754471368,-0.00016487109930017605,-0.00030985411940429714,-0.0007737459343159112,0.6806880831718445,46.54800033569336,5.612087726593018,-19.686006546020508,-0.9158225655555725,-2.3724398612976074,0.08365194499492645,0
19,0.08948516845703125,-0.6806880831718445,-46.54800033569336,-5.612087726593018,19.686006546020508,0.9158225655555725,2.3724398612976074,-0.08365194499492645,0.0,0.0,0.0,0.0,0.0,0.0,0.0,-0.6856690771401254,-0.24392613841598348,-0.4873002364162277,0.4336330223509346,0.3334425978153673,0.11517028116424481,-0.06830692893147858,0.8781077044409096,0.7556746139139587,-0.2825172017206226,-1.669196651357527,0.14130298717948608,2.403416137324431,1.0273114406185018,0.878092876070424,0.7554597494309409,-0.2825552651693207,-1.6690993614607135,0.1414185955172306,2.4034451173676383,1.0273381002308042,-6.202017425122858e-05,-0.0005130758135886686,-0.000492616177377601,-0.0014713400754471368,0.00016487109930017605,0.00030985411940429714,0.0007737459343159112,0.0,0.0,0.0,0.0,0.0,0.0,0.0,-1.4828370485608922e-05,-0.00021486448301788474,-3.806344869811129e-05,9.728989681345723e-05,0.00011560833774451607,2.898004320739389e-05,2.6659612302415425e-05,6.202017425122858e-05,0.0005130758135886686,0.000492616177377601,0.0014713400754471368,-0.00016487109930017605,-0.00030985411940429714,-0.0007737459343159112,0.6806880831718445,46.54800033569336,5.612087726593018,-19.686006546020508,-0.9158225655555725,-2.3724398612976074,0.08365194499492645,0
20,0.09448075294494629,-0.6806880831718445,-46.62337875366211,-5.635891437530518,19.634431838989258,0.9213157296180725,2.3788485527038574,-0.09738485515117645,0.0,0.0,0.0,0.0,0.0,0.0,0.0,-0.6828114536067872,-0.25170510704557264,-0.48352987457875835,0.4374137847159356,0.33312728970752004,0.1156150093950192,-0.0691088969014049,0.8781080183349874,0.755679903306461,-0.28251529319458285,-1.6691945626203586,0.14130348306402934,2.403416484879764,1.0273119068592786,0.878092876070424,0.7554597494309409,-0.2825552651693207,-1.6690993614607135,0.1414185955172306,2.4034451173676383,1.0273381002308042,0.00032018371902202126,0.0007317945720691393,-0.00031897514462396394,0.0001855828947928074,-0.00037923848392176833,0.0002039278236014699,0.000965181766419811,0.0,0.0,0.0,0.0,0.0,0.0,0.0,-1.5142264563450247e-05,-0.00022015387552010157,-3.9971974737873506e-05,9.520115964511966e-05,0.00011511245320125485,2.8632487874435952e-05,2.6193371525540243e-05,-0.00032018371902202126,-0.0007317945720691393,0.00031897514462396394,-0.0001855828947928074,0.00037923848392176833,-0.0002039278236014699,-0.000965181766419811,0.6806880831718445,46.62337875366211,5.635891437530518,-19.634431838989258,-0.9213157296180725,-2.3788485527038574,0.09738485515117645,0
21,0.09948205947875977,-0.6806880831718445,-46.62337875366211,-5.635891437530518,19.634431838989258,0.9213157296180725,2.3788485527038574,-0.09738485515117645,0.0,0.0,0.0,0.0,0.0,0.0,0.0,-0.6828114536067872,-0.25170510704557264,-0.48352987457875835,0.4374137847159356,0.33312728970752004,0.1156150093950192,-0.0691088969014049,0.8781080183349874,0.755679903306461,-0.28251529319458285,-1.6691945626203586,0.14130348306402934,2.403416484879764,1.0273119068592786,0.878092876070424,0.7554597494309409,-0.2825552651693207,-1.6690993614607135,0.1414185955172306,2.4034451173676383,1.0273381002308042,0.00032018371902202126,0.0007317945720691393,-0.00031897514462396394,0.0001855828947928074,-0.00037923848392176833,0.0002039278236014699,0.000965181766419811,0.0,0.0,0.0,0.0,0.0,0.0,0.0,-1.5142264563450247e-05,-0.00022015387552010157,-3.9971974737873506e-05,9.520115964511966e-05,0.00011511245320125485,2.8632487874435952e-05,2.6193371525540243e-05,-0.00032018371902202126,-0.0007317945720691393,0.00031897514462396394,-0.0001855828947928074,0.00037923848392176833,-0.0002039278236014699,-0.000965181766419811,0.6806880831718445,46.62337875366211,5.635891437530518,-19.634431838989258,-0.9213157296180725,-2.3788485527038574,0.09738485515117645,0
22,0.10448336601257324,-0.6806880831718445,-46.57577133178711,-5.687466144561768,19.634431838989258,0.9158225655555725,2.3788485527038574,-0.05710165575146675,0.0,0.0,0.0,0.0,0.0,0.0,0.0,-0.6797814469954709,-0.23377035698772902,-0.4799482193660418,0.42665258890398333,0.33217891906837504,0.11402413894228208,-0.06948479177267156,0.8781049195493287,0.7556765624347486,-0.28251167456965,-1.6691952259189686,0.14130251307187508,2.4034164848857453,1.027308490580382,0.878092876070424,0.7554597494309409,-0.2825552651693207,-1.6690993614607135,0.1414185955172306,2.4034451173676383,1.0273381002308042,0.00037841116501606553,5.93364467628246e-05,0.0006167949049205295,-0.00021873481179556265,9.136129403964347e-05,3.670590320219211e-05,6.356674107843197e-05,0.0,0.0,0.0,0.0,0.0,0.0,0.0,-1.2043478904710803e-05,-0.0002168130038077143,-4.359059967073975e-05,9.58644582551571e-05,0.00011608244535551981,2.8632481892998385e-05,2.9609650422202094e-05,-0.00037841116501606553,-5.93364467628246e-05,-0.0006167949049205295,0.00021873481179556265,-9.136129403964347e-05,-3.670590320219211e-05,-6.356674107843197e-05,0.6806880831718445,46.57577133178711,5.687466144561768,-19.634431838989258,-0.9158225655555725,-2.3788485527038574,0.05710165575146675,0
23,0.10948514938354492,-0.6806880831718445,-46.57577133178711,-5.687466144561768,19.634431838989258,0.9158225655555725,2.3788485527038574,-0.05710165575146675,0.0,0.0,0.0,0.0,0.0,0.0,0.0,-0.6797814469954709,-0.23377035698772902,-0.4799482193660418,0.42665258890398333,0.33217891906837504,0.11402413894228208,-0.06948479177267156,0.8781049195493287,0.7556765624347486,-0.28251167456965,-1.6691952259189686,0.14130251307187508,2.4034164848857453,1.027308490580382,0.878092876070424,0.7554597494309409,-0.2825552651693207,-1.6690993614607135,0.1414185955172306,2.4034451173676383,1.0273381002308042,0.00037841116501606553,5.93364467628246e-05,0.0006167949049205295,-0.00021873481179556265,9.136129403964347e-05,3.670590320219211e-05,6.356674107843197e-05,0.0,0.0,0.0,0.0,0.0,0.0,0.0,-1.2043478904710803e-05,-0.0002168130038077143,-4.359059967073975e-05,9.58644582551571e-05,0.00011608244535551981,2.8632481892998385e-05,2.9609650422202094e-05,-0.00037841116501606553,-5.93364467628246e-05,-0.0006167949049205295,0.00021873481179556265,-9.136129403964347e-05,-3.670590320219211e-05,-6.356674107843197e-05,0.6806880831718445,46.57577133178711,5.687466144561768,-19.634431838989258,-0.9158225655555725,-2.3788485527038574,0.05710165575146675,0
24,0.11449050903320312,-0.7084590792655945,-46.57577133178711,-5.635891437530518,19.658235549926758,0.9213157296180725,2.3788485527038574,-0.09097616374492645,0.0,0.0,0.0,0.0,0.0,0.0,0.0,-0.6591483954457371,-0.2418766028633796,-0.4698352195048594,0.4339734828380384,0.33187503190229733,0.11505108763945343,-0.0694398199392766,0.8781096665669069,0.7556766404358887,-0.2825152928661937,-1.669194844236331,0.14130202725204763,2.4034133059713576,1.027312254420585,0.878092876070424,0.7554597494309409,-0.2825552651693207,-1.6690993614607135,0.1414185955172306,2.4034451173676383,1.0273381002308042,0.0010125232684819684,0.0003603269089445691,0.00021518992411813538,-0.00031116154627129145,-0.0002071306397047987,9.358881727885698e-05,0.0008779596315043101,0.0,0.0,0.0,0.0,0.0,0.0,0.0,-1.679049648295461e-05,-0.00021689100494781677,-3.997230312702271e-05,9.548277561743923e-05,0.00011656826518297025,3.181139628072316e-05,2.5845810219138343e-05,-0.0010125232684819684,-0.0003603269089445691,-0.00021518992411813538,0.00031116154627129145,0.0002071306397047987,-9.358881727885698e-05,-0.0008779596315043101,0.7084590792655945,46.57577133178711,5.635891437530518,-19.658235549926758,-0.9213157296180725,-2.3788485527038574,0.09097616374492645,0
25,0.1195075511932373,-0.7084590792655945,-46.57577133178711,-5.635891437530518,19.658235549926758,0.9213157296180725,2.3788485527038574,-0.09097616374492645,0.0,0.0,0.0,0.0,0.0,0.0,0.0,-0.6591483954457371,-0.2418766028633796,-0.4698352195048594,0.4339734828380384,0.33187503190229733,0.11505108763945343,-0.0694398199392766,0.8781096665669069,0.7556766404358887,-0.2825152928661937,-1.669194844236331,0.14130202725204763,2.4034133059713576,1.027312254420585,0.878092876070424,0.7554597494309409,-0.2825552651693207,-1.6690993614607135,0.1414185955172306,2.4034451173676383,1.0273381002308042,0.0010125232684819684,0.0003603269089445691,0.00021518992411813538,-0.00031116154627129145,-0.0002071306397047987,9.358881727885698e-05,0.0008779596315043101,0.0,0.0,0.0,0.0,0.0,0.0,0.0,-1.679049648295461e-05,-0.00021689100494781677,-3.997230312702271e-05,9.548277561743923e-05,0.00011656826518297025,3.181139628072316e-05,2.5845810219138343e-05,-0.0010125232684819684,-0.0003603269089445691,-0.00021518992411813538,0.00031116154627129145,0.0002071306397047987,-9.358881727885698e-05,-0.0008779596315043101,0.7084590792655945,46.57577133178711,5.635891437530518,-19.658235549926758,-0.9213157296180725,-2.3788485527038574,0.09097616374492645,0
26,0.12443327903747559,-0.6806880831718445,-46.59957504272461,-5.663662433624268,19.658235549926758,0.9094138741493225,2.3852572441101074,-0.07724325358867645,0.0,0.0,0.0,0.0,0.0,0.0,0.0,-0.6768611576900408,-0.24514828011101789,-0.48134634910928936,0.4345460920567901,0.33198404960229094,0.11464710939135976,-0.07007737521175997,0.8781072502064349,0.7556782328710442,-0.2825133705153102,-1.6691969949219163,0.14130465169708653,2.403412593876589,1.027310728541679,0.878092876070424,0.7554597494309409,-0.2825552651693207,-1.6690993614607135,0.1414185955172306,2.4034451173676383,1.0273381002308042,-4.172421947899691e-05,0.0007925041230234155,0.0005630386266696019,-0.00035810538606570827,0.00013048784532960377,-0.000369107763788833,0.00030538799780077154,0.0,0.0,0.0,0.0,0.0,0.0,0.0,-1.4374136010908423e-05,-0.0002184834401033342,-4.189465401049919e-05,9.763346120283956e-05,0.00011394382014406901,3.252349104920782e-05,2.7371689125255116e-05,4.172421947899691e-05,-0.0007925041230234155,-0.0005630386266696019,0.00035810538606570827,-0.00013048784532960377,0.000369107763788833,-0.00030538799780077154,0.6806880831718445,46.59957504272461,5.663662433624268,-19.658235549926758,-0.9094138741493225,-2.3852572441101074,0.07724325358867645,0
27,0.12948250770568848,-0.6806880831718445,-46.59957504272461,-5.663662433624268,19.658235549926758,0.9094138741493225,2.3852572441101074,-0.07724325358867645,0.0,0.0,0.0,0.0,0.0,0.0,0.0,-0.6768611576900408,-0.24514828011101789,-0.48134634910928936,0.4345460920567901,0.33198404960229094,0.11464710939135976,-0.07007737521175997,0.8781072502064349,0.7556782328710442,-0.2825133705153102,-1.6691969949219163,0.14130465169708653,2.403412593876589,1.027310728541679,0.878092876070424,0.7554597494309409,-0.2825552651693207,-1.6690993614607135,0.1414185955172306,2.4034451173676383,1.0273381002308042,-4.172421947899691e-05,0.0007925041230234155,0.0005630386266696019,-0.00035810538606570827,0.00013048784532960377,-0.000369107763788833,0.00030538799780077154,0.0,0.0,0.0,0.0,0.0,0.0,0.0,-1.4374136010908423e-05,-0.0002184834401033342,-4.189465401049919e-05,9.763346120283956e-05,0.00011394382014406901,3.252349104920782e-05,2.7371689125255116e-05,4.172421947899691e-05,-0.0007925041230234155,-0.0005630386266696019,0.00035810538606570827,-0.00013048784532960377,0.000369107763788833,-0.00030538799780077154,0.6806880831718445,46.59957504272461,5.663662433624268,-19.658235549926758,-0.9094138741493225,-2.3852572441101074,0.07724325358867645,0
28,0.13443970680236816,-0.6806880831718445,-46.59957504272461,-5.635891437530518,19.610628128051758,0.9158225655555725,2.3852572441101074,-0.06351034343242645,0.0,0.0,0.0,0.0,0.0,0.0,0.0,-0.6983433199461053,-0.24642931184671182,-0.4956098962598659,0.43265163271317436,0.3320239426093648,0.11380217264287346,-0.06998906688171883,0.8781056544963357,0.7556782329062697,-0.2825152928663377,-1.6691935812071779,0.14130575134475307,2.4034157727909773,1.0273092026627726,0.878092876070424,0.7554597494309409,-0.2825552651693207,-1.6690993614607135,0.1414185955172306,2.4034451173676383,1.0273381002308042,-0.0006030045997240447,0.00045824339349216365,-0.0012153340876242705,0.00014680992249595001,0.0001890698152696256,-0.00010377078005678164,-0.00031719801762292545,0.0,0.0,0.0,0.0,0.0,0.0,0.0,-1.2778425911741387e-05,-0.0002184834753288234,-3.9972302983026786e-05,9.421974646439679e-05,0.00011284417247753309,2.9344576661038957e-05,2.8897568031593934e-05,0.0006030045997240447,-0.00045824339349216365,0.0012153340876242705,-0.00014680992249595001,-0.0001890698152696256,0.00010377078005678164,0.00031719801762292545,0.6806880831718445,46.59957504272461,5.635891437530518,-19.610628128051758,-0.9158225655555725,-2.3852572441101074,0.06351034343242645,0
29,0.13950228691101074,-0.6806880831718445,-46.59957504272461,-5.635891437530518,19.610628128051758,0.9158225655555725,2.3852572441101074,-0.06351034343242645,0.0,0.0,0.0,0.0,0.0,0.0,0.0,-0.6983433199461053,-0.24642931184671182,-0.4956098962598659,0.43265163271317436,0.3320239426093648,0.11380217264287346,-0.06998906688171883,0.8781056544963357,0.7556782329062697,-0.2825152928663377,-1.6691935812071779,0.14130575134475307,2.4034157727909773,1.0273092026627726,0.878092876070424,0.7554597494309409,-0.2825552651693207,-1.6690993614607135,0.1414185955172306,2.4034451173676383,1.0273381002308042,-0.0006030045997240447,0.00045824339349216365,-0.0012153340876242705,0.00014680992249595001,0.0001890698152696256,-0.00010377078005678164,-0.00031719801762292545,0.0,0.0,0.0,0.0,0.0,0.0,0.0,-1.2778425911741387e-05,-0.0002184834753288234,-3.9972302983026786e-05,9.421974646439679e-05,0.00011284417247753309,2.9344576661038957e-05,2.8897568031593934e-05,0.0006030045997240447,-0.00045824339349216365,0.0012153340876242705,-0.00014680992249595001,-0.0001890698152696256,0.00010377078005678164,0.00031719801762292545,0.6806880831718445,46.59957504272461,5.635891437530518,-19.610628128051758,-0.9158225655555725,-2.3852572441101074,0.06351034343242645,0
30,0.14447999000549316,-0.6568843722343445,-46.59957504272461,-5.663662433624268,19.658235549926758,0.9158225655555725,2.3724398612976074,-0.10470907390117645,0.0,0.0,0.0,0.0,0.0,0.0,0.0,-0.6704033109055589,-0.2460889395771765,-0.4743642973606082,0.4346352453551483,0.3320420763613548,0.11409676123497554,-0.0696566674352162,0.8781063783757767,0.7556803389013861,-0.282513344024357,-1.6691969974531329,0.14130288621565756,2.403417196962568,1.027313780137986,0.878092876070424,0.7554597494309409,-0.2825552651693207,-1.6690993614607135,0.1414185955172306,2.4034451173676383,1.0273381002308042,-0.000649159435221718,0.0003843260596235122,7.73197537304822e-05,-0.0004298982335242653,0.0001404943400343671,6.666078661745825e-05,0.0012781290010073789,0.0,0.0,0.0,0.0,0.0,0.0,0.0,-1.350230535268615e-05,-0.00022058947044523158,-4.1921144963708024e-05,9.763599241940923e-05,0.00011570930157303594,2.7920405070158694e-05,2.4320092818275185e-05,0.000649159435221718,-0.0003843260596235122,-7.73197537304822e-05,0.0004298982335242653,-0.0001404943400343671,-6.666078661745825e-05,-0.0012781290010073789,0.6568843722343445,46.59957504272461,5.663662433624268,-19.658235549926758,-0.9158225655555725,-2.3724398612976074,0.10470907390117645,0
31,0.14947986602783203,-0.6568843722343445,-46.59957504272461,-5.663662433624268,19.658235549926758,0.9158225655555725,2.3724398612976074,-0.10470907390117645,0.0,0.0,0.0,0.0,0.0,0.0,0.0,-0.6704033109055589,-0.2460889395771765,-0.4743642973606082,0.4346352453551483,0.3320420763613548,0.11409676123497554,-0.0696566674352162,0.8781063783757767,0.7556803389013861,-0.282513344024357,-1.6691969974531329,0.14130288621565756,2.403417196962568,1.027313780137986,0.878092876070424,0.7554597494309409,-0.2825552651693207,-1.6690993614607135,0.1414185955172306,2.4034451173676383,1.0273381002308042,-0.000649159435221718,0.0003843260596235122,7.73197537304822e-05,-0.0004298982335242653,0.0001404943400343671,6.666078661745825e-05,0.0012781290010073789,0.0,0.0,0.0,0.0,0.0,0.0,0.0,-1.350230535268615e-05,-0.00022058947044523158,-4.1921144963708024e-05,9.763599241940923e-05,0.00011570930157303594,2.7920405070158694e-05,2.4320092818275185e-05,0.000649159435221718,-0.0003843260596235122,-7.73197537304822e-05,0.0004298982335242653,-0.0001404943400343671,-6.666078661745825e-05,-0.0012781290010073789,0.6568843722343445,46.59957504272461,5.663662433624268,-19.658235549926758,-0.9158225655555725,-2.3724398612976074,0.10470907390117645,0
32,0.15448451042175293,-0.6806880831718445,-46.59957504272461,-5.663662433624268,19.634431838989258,0.9094138741493225,2.3788485527038574,-0.04977743700146675,0.0,0.0,0.0,0.0,0.0,0.0,0.0,-0.6682383817999141,-0.24763884380128892,-0.4712567564825261,0.43656427041945267,0.33168739418323046,0.11368642417263898,-0.06932428654948541,0.878107960231258,0.7556803390083833,-0.2825135834240825,-1.669193233638808,0.14130339628702238,2.4034164848857453,1.0273076767842722,0.878092876070424,0.7554597494309409,-0.2825552651693207,-1.6690993614607135,0.1414185955172306,2.4034451173676383,1.0273381002308042,0.0002412507965719276,0.0004612346890698292,0.00029186013166618123,7.549478863034152e-05,0.0002044434890283754,0.00020324128569801212,-0.000609296968061608,0.0,0.0,0.0,0.0,0.0,0.0,0.0,-1.5084160834066829e-05,-0.00022058957744242047,-4.16817452382201e-05,9.387217809453396e-05,0.00011519923020822387,2.8632481892998385e-05,3.0423446532035214e-05,-0.0002412507965719276,-0.0004612346890698292,-0.00029186013166618123,-7.549478863034152e-05,-0.0002044434890283754,-0.00020324128569801212,0.000609296968061608,0.6806880831718445,46.59957504272461,5.663662433624268,-19.634431838989258,-0.9094138741493225,-2.3788485527038574,0.04977743700146675,0
33,0.15948104858398438,-0.6806880831718445,-46.59957504272461,-5.663662433624268,19.634431838989258,0.9094138741493225,2.3788485527038574,-0.04977743700146675,0.0,0.0,0.0,0.0,0.0,0.0,0.0,-0.6682383817999141,-0.24763884380128892,-0.4712567564825261,0.43656427041945267,0.33168739418323046,0.11368642417263898,-0.06932428654948541,0.878107960231258,0.7556803390083833,-0.2825135834240825,-1.669193233638808,0.14130339628702238,2.4034164848857453,1.0273076767842722,0.878092876070424,0.7554597494309409,-0.2825552651693207,-1.6690993614607135,0.1414185955172306,2.4034451173676383,1.0273381002308042,0.0002412507965719276,0.0004612346890698292,0.00029186013166618123,7.549478863034152e-05,0.0002044434890283754,0.00020324128569801212,-0.000609296968061608,0.0,0.0,0.0,0.0,0.0,0.0,0.0,-1.5084160834066829e-05,-0.00022058957744242047,-4.16817452382201e-05,9.387217809453396e-05,0.00011519923020822387,2.8632481892998385e-05,3.0423446532035214e-05,-0.0002412507965719276,-0.0004612346890698292,-0.00029186013166618123,-7.549478863034152e-05,-0.0002044434890283754,-0.00020324128569801212,0.000609296968061608,0.6806880831718445,46.59957504272461,5.663662433624268,-19.634431838989258,-0.9094138741493225,-2.3788485527038574,0.04977743700146675,0
34,0.16448020935058594,-0.6806880831718445,-46.54800033569336,-5.635891437530518,19.686006546020508,0.9213157296180725,2.3852572441101074,-0.09097616374492645,0.0,0.0,0.0,0.0,0.0,0.0,0.0,-0.6860010288665271,-0.2437088365972821,-0.4851569563859081,0.4333766671617182,0.3309842745222468,0.11323303146163041,-0.0694512589407517,0.8781080105954122,0.7556746135933577,-0.2825153193571915,-1.669198862520717,0.1413061741531733,2.403415772808922,1.027312254420585,0.878092876070424,0.7554597494309409,-0.2825552651693207,-1.6690993614607135,0.1414185955172306,2.4034451173676383,1.0273381002308042,-2.444508535092066e-05,-0.0005595800606102724,-0.0008858110900730118,-0.0013168093232513234,-0.0002164309453747132,-0.0001427635700814766,0.0007730944986953973,0.0,0.0,0.0,0.0,0.0,0.0,0.0,-1.51345249882473e-05,-0.00021486416241689454,-3.994581212923842e-05,9.950106000355952e-05,0.00011242136405731351,2.9344558716282165e-05,2.5845810219138343e-05,2.444508535092066e-05,0.0005595800606102724,0.0008858110900730118,0.0013168093232513234,0.0002164309453747132,0.0001427635700814766,-0.0007730944986953973,0.6806880831718445,46.54800033569336,5.635891437530518,-19.686006546020508,-0.9213157296180725,-2.3852572441101074,0.09097616374492645,0
35,0.1694788932800293,-0.6806880831718445,-46.54800033569336,-5.635891437530518,19.686006546020508,0.9213157296180725,2.3852572441101074,-0.09097616374492645,0.0,0.0,0.0,0.0,0.0,0.0,0.0,-0.6860010288665271,-0.2437088365972821,-0.4851569563859081,0.4333766671617182,0.3309842745222468,0.11323303146163041,-0.0694512589407517,0.8781080105954122,0.7556746135933577,-0.2825153193571915,-1.669198862520717,0.1413061741531733,2.403415772808922,1.027312254420585,0.878092876070424,0.7554597494309409,-0.2825552651693207,-1.6690993614607135,0.1414185955172306,2.4034451173676383,1.0273381002308042,-2.444508535092066e-05,-0.0005595800606102724,-0.0008858110900730118,-0.0013168093232513234,-0.0002164309453747132,-0.0001427635700814766,0.0007730944986953973,0.0,0.0,0.0,0.0,0.0,0.0,0.0,-1.51345249882473e-05,-0.00021486416241689454,-3.994581212923842e-05,9.950106000355952e-05,0.00011242136405731351,2.9344558716282165e-05,2.5845810219138343e-05,2.444508535092066e-05,0.0005595800606102724,0.0008858110900730118,0.0013168093232513234,0.0002164309453747132,0.0001427635700814766,-0.0007730944986953973,0.6806880831718445,46.54800033569336,5.635891437530518,-19.686006546020508,-0.9213157296180725,-2.3852572441101074,0.09097616374492645,0
36,0.17447900772094727,-0.6568843722343445,-46.59957504272461,-5.663662433624268,19.634431838989258,0.9213157296180725,2.3788485527038574,-0.11111776530742645,0.0,0.0,0.0,0.0,0.0,0.0,0.0,-0.6740542037025457,-0.24781169294451957,-0.4811199894847003,0.43869251649413715,0.3309006389539642,0.11429443448040721,-0.0705520817166093,0.8781063784249836,0.7556782328706039,-0.28251334696824487,-1.6691944099229685,0.1413031408229437,2.4034164848857453,1.0273144923763142,0.878092876070424,0.7554597494309409,-0.2825552651693207,-1.6690993614607135,0.1414185955172306,2.4034451173676383,1.0273381002308042,-0.00026866000350564114,0.0008575512207274925,-0.00022721747491575732,0.0004269828342826167,-3.794591367870255e-05,0.00011870599159555879,0.0018292668042947915,0.0,0.0,0.0,0.0,0.0,0.0,0.0,-1.350235455965798e-05,-0.00021848343966301975,-4.191820107585231e-05,9.504846225505403e-05,0.00011545469428689281,2.8632481892998385e-05,2.3607854489959834e-05,0.00026866000350564114,-0.0008575512207274925,0.00022721747491575732,-0.0004269828342826167,3.794591367870255e-05,-0.00011870599159555879,-0.0018292668042947915,0.6568843722343445,46.59957504272461,5.663662433624268,-19.634431838989258,-0.9213157296180725,-2.3788485527038574,0.11111776530742645,0
37,0.17943453788757324,-0.6568843722343445,-46.59957504272461,-5.663662433624268,19.634431838989258,0.9213157296180725,2.3788485527038574,-0.11111776530742645,0.0,0.0,0.0,0.0,0.0,0.0,0.0,-0.6740542037025457,-0.24781169294451957,-0.4811199894847003,0.43869251649413715,0.3309006389539642,0.11429443448040721,-0.0705520817166093,0.8781063784249836,0.7556782328706039,-0.28251334696824487,-1.6691944099229685,0.1413031408229437,2.4034164848857453,1.0273144923763142,0.878092876070424,0.7554597494309409,-0.2825552651693207,-1.6690993614607135,0.1414185955172306,2.4034451173676383,1.0273381002308042,-0.00026866000350564114,0.0008575512207274925,-0.00022721747491575732,0.0004269828342826167,-3.794591367870255e-05,0.00011870599159555879,0.0018292668042947915,0.0,0.0,0.0,0.0,0.0,0.0,0.0,-1.350235455965798e-05,-0.00021848343966301975,-4.191820107585231e-05,9.504846225505403e-05,0.00011545469428689281,2.8632481892998385e-05,2.3607854489959834e-05,0.00026866000350564114,-0.0008575512207274925,0.00022721747491575732,-0.0004269828342826167,3.794591367870255e-05,-0.00011870599159555879,-0.0018292668042947915,0.6568843722343445,46.59957504272461,5.663662433624268,-19.634431838989258,-0.9213157296180725,-2.3788485527038574,0.11111776530742645,0
38,0.18444061279296875,-0.7084590792655945,-46.57577133178711,-5.687466144561768,19.610628128051758,0.9158225655555725,2.3724398612976074,-0.02963583543896675,0.0,0.0,0.0,0.0,0.0,0.0,0.0,-0.6849655554763759,-0.24956160804535418,-0.4892839132014179,0.44098219323182264,0.3316215292283347,0.11490743673677546,-0.07205237193743017,0.8781075251780107,0.7556765624347486,-0.282511673927669,-1.6691934186635609,0.1413060721436256,2.403417195509018,1.0273054388285512,0.878092876070424,0.7554597494309409,-0.2825552651693207,-1.6690993614607135,0.1414185955172306,2.4034451173676383,1.0273381002308042,0.0002922992094224907,-6.73609939650118e-05,0.0007069400392318464,0.0009683159505954674,0.00011690402802400132,0.00030067558673054797,-0.001988416999563446,0.0,0.0,0.0,0.0,0.0,0.0,0.0,-1.4649107586750532e-05,-0.0002168130038077143,-4.3591241651708135e-05,9.405720284738628e-05,0.0001125233736050113,2.792185862032781e-05,3.266140225299807e-05,-0.0002922992094224907,6.73609939650118e-05,-0.0007069400392318464,-0.0009683159505954674,-0.00011690402802400132,-0.00030067558673054797,0.001988416999563446,0.7084590792655945,46.57577133178711,5.687466144561768,-19.610628128051758,-0.9158225655555725,-2.3724398612976074,0.02963583543896675,0
39,0.18950390815734863,-0.7084590792655945,-46.57577133178711,-5.687466144561768,19.610628128051758,0.9158225655555725,2.3724398612976074,-0.02963583543896675,0.0,0.0,0.0,0.0,0.0,0.0,0.0,-0.6849655554763759,-0.24956160804535418,-0.4892839132014179,0.44098219323182264,0.3316215292283347,0.11490743673677546,-0.07205237193743017,0.8781075251780107,0.7556765624347486,-0.282511673927669,-1.6691934186635609,0.1413060721436256,2.403417195509018,1.0273054388285512,0.878092876070424,0.7554597494309409,-0.2825552651693207,-1.6690993614607135,0.1414185955172306,2.4034451173676383,1.0273381002308042,0.0002922992094224907,-6.73609939650118e-05,0.0007069400392318464,0.0009683159505954674,0.00011690402802400132,0.00030067558673054797,-0.001988416999563446,0.0,0.0,0.0,0.0,0.0,0.0,0.0,-1.4649107586750532e-05,-0.0002168130038077143,-4.3591241651708135e-05,9.405720284738628e-05,0.0001125233736050113,2.792185862032781e-05,3.266140225299807e-05,-0.0002922992094224907,6.73609939650118e-05,-0.0007069400392318464,-0.0009683159505954674,-0.00011690402802400132,-0.00030067558673054797,0.001988416999563446,0.7084590792655945,46.57577133178711,5.687466144561768,-19.610628128051758,-0.9158225655555725,-2.3724398612976074,0.02963583543896675,0
40,0.1944866180419922,-0.7084590792655945,-46.57577133178711,-5.687466144561768,19.610628128051758,0.9158225655555725,2.3724398612976074,-0.02963583543896675,0.0,0.0,0.0,0.0,0.0,0.0,0.0,-0.6849655554763759,-0.24956160804535418,-0.4892839132014179,0.44098219323182264,0.3316215292283347,0.11490743673677546,-0.07205237193743017,0.8781075251780107,0.7556765624347486,-0.282511673927669,-1.6691934186635609,0.1413060721436256,2.403417195509018,1.0273054388285512,0.878092876070424,0.7554597494309409,-0.2825552651693207,-1.6690993614607135,0.1414185955172306,2.4034451173676383,1.0273381002308042,0.0002922992094224907,-6.73609939650118e-05,0.0007069400392318464,0.0009683159505954674,0.00011690402802400132,0.00030067558673054797,-0.001988416999563446,0.0,0.0,0.0,0.0,0.0,0.0,0.0,-1.4649107586750532e-05,-0.0002168130038077143,-4.3591241651708135e-05,9.405720284738628e-05,0.0001125233736050113,2.792185862032781e-05,3.266140225299807e-05,-0.0002922992094224907,6.73609939650118e-05,-0.0007069400392318464,-0.0009683159505954674,-0.00011690402802400132,-0.00030067558673054797,0.001988416999563446,0.7084590792655945,46.57577133178711,5.687466144561768,-19.610628128051758,-0.9158225655555725,-2.3724398612976074,0.02963583543896675,0
41,0.19946646690368652,-0.7084590792655945,-46.57577133178711,-5.687466144561768,19.610628128051758,0.9158225655555725,2.3724398612976074,-0.02963583543896675,0.0,0.0,0.0,0.0,0.0,0.0,0.0,-0.6849655554763759,-0.24956160804535418,-0.4892839132014179,0.44098219323182264,0.3316215292283347,0.11490743673677546,-0.07205237193743017,0.8781075251780107,0.7556765624347486,-0.282511673927669,-1.6691934186635609,0.1413060721436256,2.403417195509018,1.0273054388285512,0.878092876070424,0.7554597494309409,-0.2825552651693207,-1.6690993614607135,0.1414185955172306,2.4034451173676383,1.0273381002308042,0.0002922992094224907,-6.73609939650118e-05,0.0007069400392318464,0.0009683159505954674,0.00011690402802400132,0.00030067558673054797,-0.001988416999563446,0.0,0.0,0.0,0.0,0.0,0.0,0.0,-1.4649107586750532e-05,-0.0002168130038077143,-4.3591241651708135e-05,9.405720284738628e-05,0.0001125233736050113,2.792185862032781e-05,3.266140225299807e-05,-0.0002922992094224907,6.73609939650118e-05,-0.0007069400392318464,-0.0009683159505954674,-0.00011690402802400132,-0.00030067558673054797,0.001988416999563446,0.7084590792655945,46.57577133178711,5.687466144561768,-19.610628128051758,-0.9158225655555725,-2.3724398612976074,0.02963583543896675,0
42,0.20450520515441895,-0.6806880831718445,-46.59957504272461,-5.635891437530518,19.658235549926758,0.9213157296180725,2.3788485527038574,-0.07724325358867645,0.0,0.0,0.0,0.0,0.0,0.0,0.0,-0.6810942329682768,-0.23553228795043935,-0.483641829520361,0.4327468431948855,0.33161744856157926,0.11347499739036568,-0.07252912462556252,0.8781058765893642,0.755678934987862,-0.2825153193571433,-1.6691968966727317,0.1413031449960874,2.403416484831902,1.027310728541679,0.878092876070424,0.7554597494309409,-0.2825552651693207,-1.6690993614607135,0.1414185955172306,2.4034451173676383,1.0273381002308042,-5.6731657800886274e-05,0.0007316040163871734,-0.0007527156903401843,-0.000758482360679691,-8.483072044087781e-05,0.0001671299389378901,0.00016489118404641642,0.0,0.0,0.0,0.0,0.0,0.0,0.0,-1.3000518940264882e-05,-0.00021918555692113095,-3.99458121774221e-05,9.753521201827375e-05,0.00011545052114320109,2.8632535736150544e-05,2.7371689125255116e-05,5.6731657800886274e-05,-0.0007316040163871734,0.0007527156903401843,0.000758482360679691,8.483072044087781e-05,-0.0001671299389378901,-0.00016489118404641642,0.6806880831718445,46.59957504272461,5.635891437530518,-19.658235549926758,-0.9213157296180725,-2.3788485527038574,0.07724325358867645,0
43,0.20950555801391602,-0.6806880831718445,-46.59957504272461,-5.635891437530518,19.658235549926758,0.9213157296180725,2.3788485527038574,-0.07724325358867645,0.0,0.0,0.0,0.0,0.0,0.0,0.0,-0.6810942329682768,-0.23553228795043935,-0.483641829520361,0.4327468431948855,0.33161744856157926,0.11347499739036568,-0.07252912462556252,0.8781058765893642,0.755678934987862,-0.2825153193571433,-1.6691968966727317,0.1413031449960874,2.403416484831902,1.027310728541679,0.878092876070424,0.7554597494309409,-0.2825552651693207,-1.6690993614607135,0.1414185955172306,2.4034451173676383,1.0273381002308042,-5.6731657800886274e-05,0.0007316040163871734,-0.0007527156903401843,-0.000758482360679691,-8.483072044087781e-05,0.0001671299389378901,0.00016489118404641642,0.0,0.0,0.0,0.0,0.0,0.0,0.0,-1.3000518940264882e-05,-0.00021918555692113095,-3.99458121774221e-05,9.753521201827375e-05,0.00011545052114320109,2.8632535736150544e-05,2.7371689125255116e-05,5.6731657800886274e-05,-0.0007316040163871734,0.0007527156903401843,0.000758482360679691,8.483072044087781e-05,-0.0001671299389378901,-0.00016489118404641642,0.6806880831718445,46.59957504272461,5.635891437530518,-19.658235549926758,-0.9213157296180725,-2.3788485527038574,0.07724325358867645,0
44,0.21448111534118652,-0.6806880831718445,-46.57577133178711,-5.663662433624268,19.658235549926758,0.9158225655555725,2.3852572441101074,-0.07724325358867645,0.0,0.0,0.0,0.0,0.0,0.0,0.0,-0.663894329912676,-0.2444095067815202,-0.4747537238273557,0.438905224837179,0.33211648987114156,0.11488089787455642,-0.072514359497915,0.8781051482170309,0.7556765624387121,-0.2825133440245065,-1.669196913575065,0.14130373799963894,2.403415772755087,1.027310728541679,0.878092876070424,0.7554597494309409,-0.2825552651693207,-1.6690993614607135,0.1414185955172306,2.4034451173676383,1.0273381002308042,0.0003693450956191161,9.225004112646193e-05,0.0007042099422379138,-7.368889073033743e-05,3.7305137806663856e-05,-0.00032224813008201403,7.645552722686214e-05,0.0,0.0,0.0,0.0,0.0,0.0,0.0,-1.2272146606928658e-05,-0.00021681300777121049,-4.192114481421649e-05,9.755211435158451e-05,0.00011485751759165996,2.934461255144072e-05,2.7371689125255116e-05,-0.0003693450956191161,-9.225004112646193e-05,-0.0007042099422379138,7.368889073033743e-05,-3.7305137806663856e-05,0.00032224813008201403,-7.645552722686214e-05,0.6806880831718445,46.57577133178711,5.663662433624268,-19.658235549926758,-0.9158225655555725,-2.3852572441101074,0.07724325358867645,0
45,0.21948647499084473,-0.6806880831718445,-46.57577133178711,-5.663662433624268,19.658235549926758,0.9158225655555725,2.3852572441101074,-0.07724325358867645,0.0,0.0,0.0,0.0,0.0,0.0,0.0,-0.663894329912676,-0.2444095067815202,-0.4747537238273557,0.438905224837179,0.33211648987114156,0.11488089787455642,-0.072514359497915,0.8781051482170309,0.7556765624387121,-0.2825133440245065,-1.669196913575065,0.14130373799963894,2.403415772755087,1.027310728541679,0.878092876070424,0.7554597494309409,-0.2825552651693207,-1.6690993614607135,0.1414185955172306,2.4034451173676383,1.0273381002308042,0.0003693450956191161,9.225004112646193e-05,0.0007042099422379138,-7.368889073033743e-05,3.7305137806663856e-05,-0.00032224813008201403,7.645552722686214e-05,0.0,0.0,0.0,0.0,0.0,0.0,0.0,-1.2272146606928658e-05,-0.00021681300777121049,-4.192114481421649e-05,9.755211435158451e-05,0.00011485751759165996,2.934461255144072e-05,2.7371689125255116e-05,-0.0003693450956191161,-9.225004112646193e-05,-0.0007042099422379138,7.368889073033743e-05,-3.7305137806663856e-05,0.00032224813008201403,-7.645552722686214e-05,0.6806880831718445,46.57577133178711,5.663662433624268,-19.658235549926758,-0.9158225655555725,-2.3852572441101074,0.07724325358867645,0
46,0.22449564933776855,-0.6568843722343445,-46.57577133178711,-5.588284015655518,19.610628128051758,0.9158225655555725,2.3852572441101074,-0.04336874559521675,0.0,0.0,0.0,0.0,0.0,0.0,0.0,-0.6796672573564898,-0.2492086213313877,-0.48492351489282765,0.4401567799192289,0.3325485224259591,0.11510184917737885,-0.0717260845284365,0.8781035085559905,0.7556772644450093,-0.282520780486257,-1.669192968131526,0.1413062312503886,2.403415772808922,1.0273069647074573,0.878092876070424,0.7554597494309409,-0.2825552651693207,-1.6690993614607135,0.1414185955172306,2.4034451173676383,1.0273381002308042,-0.0002439374859659428,-0.0005606017217264067,-0.0012445102717585587,0.0007413974262895799,0.00010754695619339052,-0.000256656754552961,-0.0012027020806881748,0.0,0.0,0.0,0.0,0.0,0.0,0.0,-1.0632485566541838e-05,-0.00021751501406841456,-3.448468306371799e-05,9.3606670812596e-05,0.00011236426684199663,2.9344558716282165e-05,3.11355233468813e-05,0.0002439374859659428,0.0005606017217264067,0.0012445102717585587,-0.0007413974262895799,-0.00010754695619339052,0.000256656754552961,0.0012027020806881748,0.6568843722343445,46.57577133178711,5.588284015655518,-19.610628128051758,-0.9158225655555725,-2.3852572441101074,0.04336874559521675,0
47,0.2294783592224121,-0.6568843722343445,-46.57577133178711,-5.588284015655518,19.610628128051758,0.9158225655555725,2.3852572441101074,-0.04336874559521675,0.0,0.0,0.0,0.0,0.0,0.0,0.0,-0.6796672573564898,-0.2492086213313877,-0.48492351489282765,0.4401567799192289,0.3325485224259591,0.11510184917737885,-0.0717260845284365,0.8781035085559905,0.7556772644450093,-0.282520780486257,-1.669192968131526,0.1413062312503886,2.403415772808922,1.0273069647074573,0.878092876070424,0.7554597494309409,-0.2825552651693207,-1.6690993614607135,0.1414185955172306,2.4034451173676383,1.0273381002308042,-0.0002439374859659428,-0.0005606017217264067,-0.0012445102717585587,0.0007413974262895799,0.00010754695619339052,-0.000256656754552961,-0.0012027020806881748,0.0,0.0,0.0,0.0,0.0,0.0,0.0,-1.0632485566541838e-05,-0.00021751501406841456,-3.448468306371799e-05,9.3606670812596e-05,0.00011236426684199663,2.9344558716282165e-05,3.11355233468813e-05,0.0002439374859659428,0.0005606017217264067,0.0012445102717585587,-0.0007413974262895799,-0.00010754695619339052,0.000256656754552961,0.0012027020806881748,0.6568843722343445,46.57577133178711,5.588284015655518,-19.610628128051758,-0.9158225655555725,-2.3852572441101074,0.04336874559521675,0
48,0.23443222045898438,-0.6806880831718445,-46.54800033569336,-5.663662433624268,19.658235549926758,0.9213157296180725,2.3724398612976074,-0.08365194499492645,0.0,0.0,0.0,0.0,0.0,0.0,0.0,-0.6722451743496417,-0.2405903408938599,-0.4733669488036188,0.43812130441866226,0.3325868010451282,0.11471928622450533,-0.07157291439881952,0.8781058206604629,0.7556753156163877,-0.2825133440405094,-1.669196990197078,0.14130203928515347,2.403417196962568,1.0273114406185018,0.878092876070424,0.7554597494309409,-0.2825552651693207,-1.6690993614607135,0.1414185955172306,2.4034451173676383,1.0273381002308042,0.0004250665731731904,-0.0002002250668791511,0.0008037125751200751,-0.00021083477555254088,-0.00024867411065108947,0.0003808776607929099,0.0002932171253242918,0.0,0.0,0.0,0.0,0.0,0.0,0.0,-1.2944590038976855e-05,-0.00021556618544682493,-4.1921128811350794e-05,9.762873636454117e-05,0.00011655623207712518,2.7920405070158694e-05,2.6659612302415425e-05,-0.0004250665731731904,0.0002002250668791511,-0.0008037125751200751,0.00021083477555254088,0.00024867411065108947,-0.0003808776607929099,-0.0002932171253242918,0.6806880831718445,46.54800033569336,5.663662433624268,-19.658235549926758,-0.9213157296180725,-2.3724398612976074,0.08365194499492645,0
49,0.2395327091217041,-0.6806880831718445,-46.54800033569336,-5.663662433624268,19.658235549926758,0.9213157296180725,2.3724398612976074,-0.08365194499492645,0.0,0.0,0.0,0.0,0.0,0.0,0.0,-0.6722451743496417,-0.2405903408938599,-0.4733669488036188,0.43812130441866226,0.3325868010451282,0.11471928622450533,-0.07157291439881952,0.8781058206604629,0.7556753156163877,-0.2825133440405094,-1.669196990197078,0.14130203928515347,2.403417196962568,1.0273114406185018,0.878092876070424,0.7554597494309409,-0.2825552651693207,-1.6690993614607135,0.1414185955172306,2.4034451173676383,1.0273381002308042,0.0004250665731731904,-0.0002002250668791511,0.0008037125751200751,-0.00021083477555254088,-0.00024867411065108947,0.0003808776607929099,0.0002932171253242918,0.0,0.0,0.0,0.0,0.0,0.0,0.0,-1.2944590038976855e-05,-0.00021556618544682493,-4.1921128811350794e-05,9.762873636454117e-05,0.00011655623207712518,2.7920405070158694e-05,2.6659612302415425e-05,-0.0004250665731731904,0.0002002250668791511,-0.0008037125751200751,0.00021083477555254088,0.00024867411065108947,-0.0003808776607929099,-0.0002932171253242918,0.6806880831718445,46.54800033569336,5.663662433624268,-19.658235549926758,-0.9213157296180725,-2.3724398612976074,0.08365194499492645,0
50,0.24449825286865234,-0.7084590792655945,-46.57577133178711,-5.711269855499268,19.610628128051758,0.9094138741493225,2.3788485527038574,-0.08365194499492645,0.0,0.0,0.0,0.0,0.0,0.0,0.0,-0.6824453551254226,-0.25221146480991957,-0.4809950263012725,0.44274007891010975,0.3329139968464812,0.11570897682125272,-0.07163035664793344,0.8781099697909606,0.7556765624360695,-0.2825100031526465,-1.669193654995495,0.14130334428158078,2.4034164848857453,1.0273114406185018,0.878092876070424,0.7554597494309409,-0.2825552651693207,-1.6690993614607135,0.1414185955172306,2.4034451173676383,1.0273381002308042,0.0006991645605173882,0.0002469403674576497,0.0013625493503271059,0.0004487826995645255,0.00026357444253535085,2.2682868668304755e-06,0.0007264799544709058,0.0,0.0,0.0,0.0,0.0,0.0,0.0,-1.709372053659841e-05,-0.00021681300512865764,-4.526201667420793e-05,9.429353478163094e-05,0.00011525123564981588,2.8632481892998385e-05,2.6659612302415425e-05,-0.0006991645605173882,-0.0002469403674576497,-0.0013625493503271059,-0.0004487826995645255,-0.00026357444253535085,-2.2682868668304755e-06,-0.0007264799544709058,0.7084590792655945,46.57577133178711,5.711269855499268,-19.610628128051758,-0.9094138741493225,-2.3788485527038574,0.08365194499492645,0
51,0.2494964599609375,-0.7084590792655945,-46.57577133178711,-5.711269855499268,19.610628128051758,0.9094138741493225,2.3788485527038574,-0.08365194499492645,0.0,0.0,0.0,0.0,0.0,0.0,0.0,-0.6824453551254226,-0.25221146480991957,-0.4809950263012725,0.44274007891010975,0.3329139968464812,0.11570897682125272,-0.07163035664793344,0.8781099697909606,0.7556765624360695,-0.2825100031526465,-1.669193654995495,0.14130334428158078,2.4034164848857453,1.0273114406185018,0.878092876070424,0.7554597494309409,-0.2825552651693207,-1.6690993614607135,0.1414185955172306,2.4034451173676383,1.0273381002308042,0.0006991645605173882,0.0002469403674576497,0.0013625493503271059,0.0004487826995645255,0.00026357444253535085,2.2682868668304755e-06,0.0007264799544709058,0.0,0.0,0.0,0.0,0.0,0.0,0.0,-1.709372053659841e-05,-0.00021681300512865764,-4.526201667420793e-05,9.429353478163094e-05,0.00011525123564981588,2.8632481892998385e-05,2.6659612302415425e-05,-0.0006991645605173882,-0.0002469403674576497,-0.0013625493503271059,-0.0004487826995645255,-0.00026357444253535085,-2.2682868668304755e-06,-0.0007264799544709058,0.7084590792655945,46.57577133178711,5.711269855499268,-19.610628128051758,-0.9094138741493225,-2.3788485527038574,0.08365194499492645,0
52,0.2545497417449951,-0.7084590792655945,-46.54800033569336,-5.663662433624268,19.634431838989258,0.9213157296180725,2.3980746269226074,-0.08365194499492645,0.0,0.0,0.0,0.0,0.0,0.0,0.0,-0.6790176502168899,-0.24548940948611805,-0.4771157872875944,0.43941206071526057,0.3325765470892531,0.11550472660114382,-0.07145478789192088,0.8781097236362615,0.7556746135929174,-0.2825133528546747,-1.6691950986541837,0.1413061824360556,2.4034143486552764,1.0273114406185018,0.878092876070424,0.7554597494309409,-0.2825552651693207,-1.6690993614607135,0.1414185955172306,2.4034451173676383,1.0273381002308042,0.0002974258644785748,-0.0001856267191000842,-3.247710386430133e-05,-6.255428664048721e-05,-6.0505329260562884e-05,-0.000782359075837304,0.0002068413625242839,0.0,0.0,0.0,0.0,0.0,0.0,0.0,-1.684756583753e-05,-0.0002148641619765801,-4.191231464600875e-05,9.573719347022447e-05,0.00011241308117498905,3.076871236196155e-05,2.6659612302415425e-05,-0.0002974258644785748,0.0001856267191000842,3.247710386430133e-05,6.255428664048721e-05,6.0505329260562884e-05,0.000782359075837304,-0.0002068413625242839,0.7084590792655945,46.54800033569336,5.663662433624268,-19.634431838989258,-0.9213157296180725,-2.3980746269226074,0.08365194499492645,0
53,0.2594795227050781,-0.7084590792655945,-46.54800033569336,-5.663662433624268,19.634431838989258,0.9213157296180725,2.3980746269226074,-0.08365194499492645,0.0,0.0,0.0,0.0,0.0,0.0,0.0,-0.6790176502168899,-0.24548940948611805,-0.4771157872875944,0.43941206071526057,0.3325765470892531,0.11550472660114382,-0.07145478789192088,0.8781097236362615,0.7556746135929174,-0.2825133528546747,-1.6691950986541837,0.1413061824360556,2.4034143486552764,1.0273114406185018,0.878092876070424,0.7554597494309409,-0.2825552651693207,-1.6690993614607135,0.1414185955172306,2.4034451173676383,1.0273381002308042,0.0002974258644785748,-0.0001856267191000842,-3.247710386430133e-05,-6.255428664048721e-05,-6.0505329260562884e-05,-0.000782359075837304,0.0002068413625242839,0.0,0.0,0.0,0.0,0.0,0.0,0.0,-1.684756583753e-05,-0.0002148641619765801,-4.191231464600875e-05,9.573719347022447e-05,0.00011241308117498905,3.076871236196155e-05,2.6659612302415425e-05,-0.0002974258644785748,0.0001856267191000842,3.247710386430133e-05,6.255428664048721e-05,6.0505329260562884e-05,0.000782359075837304,-0.0002068413625242839,0.7084590792655945,46.54800033569336,5.663662433624268,-19.634431838989258,-0.9213157296180725,-2.3980746269226074,0.08365194499492645,0
54,0.2644541263580322,-0.7322627902030945,-46.62337875366211,-5.687466144561768,19.658235549926758,0.9213157296180725,2.3916659355163574,-0.04336874559521675,0.0,0.0,0.0,0.0,0.0,0.0,0.0,-0.6829141994224605,-0.24613917006246136,-0.4780040729167555,0.43794342691137805,0.3335262443297266,0.11580975207535754,-0.07119162888539769,0.8781092750125011,0.7556799034134566,-0.2825119120434694,-1.6691962330678796,0.14130652336182542,2.403415060732099,1.0273069647074573,0.878092876070424,0.7554597494309409,-0.2825552651693207,-1.6690993614607135,0.1414185955172306,2.4034451173676383,1.0273381002308042,0.0006829633693506152,0.0012421603742670878,0.0006709816979940583,-0.0008254411933611944,-0.00015916332595012082,-0.00047730310174996034,-0.00145567295958042,0.0,0.0,0.0,0.0,0.0,0.0,0.0,-1.6398942077167078e-05,-0.00022015398251573615,-4.335312585129758e-05,9.687160716609355e-05,0.00011207215540517956,3.0056635539121856e-05,3.11355233468813e-05,-0.0006829633693506152,-0.0012421603742670878,-0.0006709816979940583,0.0008254411933611944,0.00015916332595012082,0.00047730310174996034,0.00145567295958042,0.7322627902030945,46.62337875366211,5.687466144561768,-19.658235549926758,-0.9213157296180725,-2.3916659355163574,0.04336874559521675,0
55,0.26948070526123047,-0.7322627902030945,-46.62337875366211,-5.687466144561768,19.658235549926758,0.9213157296180725,2.3916659355163574,-0.04336874559521675,0.0,0.0,0.0,0.0,0.0,0.0,0.0,-0.6829141994224605,-0.24613917006246136,-0.4780040729167555,0.43794342691137805,0.3335262443297266,0.11580975207535754,-0.07119162888539769,0.8781092750125011,0.7556799034134566,-0.2825119120434694,-1.6691962330678796,0.14130652336182542,2.403415060732099,1.0273069647074573,0.878092876070424,0.7554597494309409,-0.2825552651693207,-1.6690993614607135,0.1414185955172306,2.4034451173676383,1.0273381002308042,0.0006829633693506152,0.0012421603742670878,0.0006709816979940583,-0.0008254411933611944,-0.00015916332595012082,-0.00047730310174996034,-0.00145567295958042,0.0,0.0,0.0,0.0,0.0,0.0,0.0,-1.6398942077167078e-05,-0.00022015398251573615,-4.335312585129758e-05,9.687160716609355e-05,0.00011207215540517956,3.0056635539121856e-05,3.11355233468813e-05,-0.0006829633693506152,-0.0012421603742670878,-0.0006709816979940583,0.0008254411933611944,0.00015916332595012082,0.00047730310174996034,0.00145567295958042,0.7322627902030945,46.62337875366211,5.687466144561768,-19.658235549926758,-0.9213157296180725,-2.3916659355163574,0.04336874559521675,0
56,0.27449584007263184,-0.7084590792655945,-46.59957504272461,-5.635891437530518,19.610628128051758,0.9158225655555725,2.3724398612976074,-0.04977743700146675,0.0,0.0,0.0,0.0,0.0,0.0,0.0,-0.6753639967252698,-0.24285812352988043,-0.4688616181836024,0.43473632873140317,0.33339217479637817,0.11541899024657025,-0.06999679220357398,0.878107851595548,0.755678232977602,-0.2825174396158926,-1.6691936578372764,0.14130583202439193,2.403417196962568,1.0273076767842804,0.878092876070424,0.7554597494309409,-0.2825552651693207,-1.6690993614607135,0.1414185955172306,2.4034451173676383,1.0273381002308042,0.000406836348959048,0.0006418793212340492,-0.00035848130459490676,0.00022223808339043102,0.00010305670899742392,0.00019743224530957717,-0.001193297072630589,0.0,0.0,0.0,0.0,0.0,0.0,0.0,-1.497552512408351e-05,-0.00021848354666109682,-3.782555342812799e-05,9.42963765628857e-05,0.00011276349283867448,2.7920405070158694e-05,3.0423446523819564e-05,-0.000406836348959048,-0.0006418793212340492,0.00035848130459490676,-0.00022223808339043102,-0.00010305670899742392,-0.00019743224530957717,0.001193297072630589,0.7084590792655945,46.59957504272461,5.635891437530518,-19.610628128051758,-0.9158225655555725,-2.3724398612976074,0.04977743700146675,0
57,0.279768705368042,-0.7084590792655945,-46.59957504272461,-5.635891437530518,19.610628128051758,0.9158225655555725,2.3724398612976074,-0.04977743700146675,0.0,0.0,0.0,0.0,0.0,0.0,0.0,-0.6753639967252698,-0.24285812352988043,-0.4688616181836024,0.43473632873140317,0.33339217479637817,0.11541899024657025,-0.06999679220357398,0.878107851595548,0.755678232977602,-0.2825174396158926,-1.6691936578372764,0.14130583202439193,2.403417196962568,1.0273076767842804,0.878092876070424,0.7554597494309409,-0.2825552651693207,-1.6690993614607135,0.1414185955172306,2.4034451173676383,1.0273381002308042,0.000406836348959048,0.0006418793212340492,-0.00035848130459490676,0.00022223808339043102,0.00010305670899742392,0.00019743224530957717,-0.001193297072630589,0.0,0.0,0.0,0.0,0.0,0.0,0.0,-1.497552512408351e-05,-0.00021848354666109682,-3.782555342812799e-05,9.42963765628857e-05,0.00011276349283867448,2.7920405070158694e-05,3.0423446523819564e-05,-0.000406836348959048,-0.0006418793212340492,0.00035848130459490676,-0.00022223808339043102,-0.00010305670899742392,-0.00019743224530957717,0.001193297072630589,0.7084590792655945,46.59957504272461,5.635891437530518,-19.610628128051758,-0.9158225655555725,-2.3724398612976074,0.04977743700146675,0
58,0.2845885753631592,-0.7084590792655945,-46.59957504272461,-5.663662433624268,19.610628128051758,0.9158225655555725,2.3788485527038574,-0.04977743700146675,0.0,0.0,0.0,0.0,0.0,0.0,0.0,-0.6862128924418799,-0.2415145741553969,-0.47661794264515517,0.4328227401247504,0.33333571120067584,0.11461006051751932,-0.07083233156440825,0.8781092722969529,0.7556782328706044,-0.2825133453810094,-1.6691934253139356,0.1413029124351985,2.4034164848857453,1.0273076767842804,0.878092876070424,0.7554597494309409,-0.2825552651693207,-1.6690993614607135,0.1414185955172306,2.4034451173676383,1.0273381002308042,0.0006226007278164296,0.0005634783586450828,0.0004333964966402354,0.0008379522455836227,-1.220964657779714e-05,0.0003048449237036558,-0.0007533390625556287,0.0,0.0,0.0,0.0,0.0,0.0,0.0,-1.6396226528936353e-05,-0.00021848343966357486,-4.1919788311306494e-05,9.406385322208166e-05,0.00011568308203210864,2.8632481892998385e-05,3.0423446523819564e-05,-0.0006226007278164296,-0.0005634783586450828,-0.0004333964966402354,-0.0008379522455836227,1.220964657779714e-05,-0.0003048449237036558,0.0007533390625556287,0.7084590792655945,46.59957504272461,5.663662433624268,-19.610628128051758,-0.9158225655555725,-2.3788485527038574,0.04977743700146675,0
59,0.28948307037353516,-0.7084590792655945,-46.59957504272461,-5.663662433624268,19.610628128051758,0.9158225655555725,2.3788485527038574,-0.04977743700146675,0.0,0.0,0.0,0.0,0.0,0.0,0.0,-0.6862128924418799,-0.2415145741553969,-0.47661794264515517,0.4328227401247504,0.33333571120067584,0.11461006051751932,-0.07083233156440825,0.8781092722969529,0.7556782328706044,-0.2825133453810094,-1.6691934253139356,0.1413029124351985,2.4034164848857453,1.0273076767842804,0.878092876070424,0.7554597494309409,-0.2825552651693207,-1.6690993614607135,0.1414185955172306,2.4034451173676383,1.0273381002308042,0.0006226007278164296,0.0005634783586450828,0.0004333964966402354,0.0008379522455836227,-1.220964657779714e-05,0.0003048449237036558,-0.0007533390625556287,0.0,0.0,0.0,0.0,0.0,0.0,0.0,-1.6396226528936353e-05,-0.00021848343966357486,-4.1919788311306494e-05,9.406385322208166e-05,0.00011568308203210864,2.8632481892998385e-05,3.0423446523819564e-05,-0.0006226007278164296,-0.0005634783586450828,-0.0004333964966402354,-0.0008379522455836227,1.220964657779714e-05,-0.0003048449237036558,0.0007533390625556287,0.7084590792655945,46.59957504272461,5.663662433624268,-19.610628128051758,-0.9158225655555725,-2.3788485527038574,0.04977743700146675,0
60,0.29448962211608887,-0.7084590792655945,-46.59957504272461,-5.663662433624268,19.610628128051758,0.9158225655555725,2.3788485527038574,-0.04977743700146675,0.0,0.0,0.0,0.0,0.0,0.0,0.0,-0.6862128924418799,-0.2415145741553969,-0.47661794264515517,0.4328227401247504,0.33333571120067584,0.11461006051751932,-0.07083233156440825,0.8781092722969529,0.7556782328706044,-0.2825133453810094,-1.6691934253139356,0.1413029124351985,2.4034164848857453,1.0273076767842804,0.878092876070424,0.7554597494309409,-0.2825552651693207,-1.6690993614607135,0.1414185955172306,2.4034451173676383,1.0273381002308042,0.0006226007278164296,0.0005634783586450828,0.0004333964966402354,0.0008379522455836227,-1.220964657779714e-05,0.0003048449237036558,-0.0007533390625556287,0.0,0.0,0.0,0.0,0.0,0.0,0.0,-1.6396226528936353e-05,-0.00021848343966357486,-4.1919788311306494e-05,9.406385322208166e-05,0.00011568308203210864,2.8632481892998385e-05,3.0423446523819564e-05,-0.0006226007278164296,-0.0005634783586450828,-0.0004333964966402354,-0.0008379522455836227,1.220964657779714e-05,-0.0003048449237036558,0.0007533390625556287,0.7084590792655945,46.59957504272461,5.663662433624268,-19.610628128051758,-0.9158225655555725,-2.3788485527038574,0.04977743700146675,0
61,0.2994415760040283,-0.7084590792655945,-46.59957504272461,-5.663662433624268,19.610628128051758,0.9158225655555725,2.3788485527038574,-0.04977743700146675,0.0,0.0,0.0,0.0,0.0,0.0,0.0,-0.6862128924418799,-0.2415145741553969,-0.47661794264515517,0.4328227401247504,0.33333571120067584,0.11461006051751932,-0.07083233156440825,0.8781092722969529,0.7556782328706044,-0.2825133453810094,-1.6691934253139356,0.1413029124351985,2.4034164848857453,1.0273076767842804,0.878092876070424,0.7554597494309409,-0.2825552651693207,-1.6690993614607135,0.1414185955172306,2.4034451173676383,1.0273381002308042,0.0006226007278164296,0.0005634783586450828,0.0004333964966402354,0.0008379522455836227,-1.220964657779714e-05,0.0003048449237036558,-0.0007533390625556287,0.0,0.0,0.0,0.0,0.0,0.0,0.0,-1.6396226528936353e-05,-0.00021848343966357486,-4.1919788311306494e-05,9.406385322208166e-05,0.00011568308203210864,2.8632481892998385e-05,3.0423446523819564e-05,-0.0006226007278164296,-0.0005634783586450828,-0.0004333964966402354,-0.0008379522455836227,1.220964657779714e-05,-0.0003048449237036558,0.0007533390625556287,0.7084590792655945,46.59957504272461,5.663662433624268,-19.610628128051758,-0.9158225655555725,-2.3788485527038574,0.04977743700146675,0
62,0.304492712020874,-0.6806880831718445,-46.54800033569336,-5.635891437530518,19.658235549926758,0.9158225655555725,2.3788485527038574,-0.08365194499492645,0.0,0.0,0.0,0.0,0.0,0.0,0.0,-0.6868863513069162,-0.23689334212106794,-0.4753383052268271,0.4302297934944953,0.33270308017891354,0.11412077202154225,-0.07111849992004018,0.8781055576176253,0.7556767196236994,-0.2825152928661958,-1.6691967681789275,0.1413025541815016,2.4034164848857453,1.0273114406185018,0.878092876070424,0.7554597494309409,-0.2825552651693207,-1.6690993614607135,0.1414185955172306,2.4034451173676383,1.0273381002308042,0.0002852502630849678,-0.0007241757697960116,-0.00036768892007359833,-0.0005913306119096155,5.711519235298025e-06,7.864034950402116e-05,0.00012527562183698037,0.0,0.0,0.0,0.0,0.0,0.0,0.0,-1.268154720135417e-05,-0.00021697019275856988,-3.997230312491329e-05,9.740671821401037e-05,0.00011604133572901132,2.8632481892998385e-05,2.6659612302415425e-05,-0.0002852502630849678,0.0007241757697960116,0.00036768892007359833,0.0005913306119096155,-5.711519235298025e-06,-7.864034950402116e-05,-0.00012527562183698037,0.6806880831718445,46.54800033569336,5.635891437530518,-19.658235549926758,-0.9158225655555725,-2.3788485527038574,0.08365194499492645,0
63,0.30950140953063965,-0.6806880831718445,-46.54800033569336,-5.635891437530518,19.658235549926758,0.9158225655555725,2.3788485527038574,-0.08365194499492645,0.0,0.0,0.0,0.0,0.0,0.0,0.0,-0.6868863513069162,-0.23689334212106794,-0.4753383052268271,0.4302297934944953,0.33270308017891354,0.11412077202154225,-0.07111849992004018,0.8781055576176253,0.7556767196236994,-0.2825152928661958,-1.6691967681789275,0.1413025541815016,2.4034164848857453,1.0273114406185018,0.878092876070424,0.7554597494309409,-0.2825552651693207,-1.6690993614607135,0.1414185955172306,2.4034451173676383,1.0273381002308042,0.0002852502630849678,-0.0007241757697960116,-0.00036768892007359833,-0.0005913306119096155,5.711519235298025e-06,7.864034950402116e-05,0.00012527562183698037,0.0,0.0,0.0,0.0,0.0,0.0,0.0,-1.268154720135417e-05,-0.00021697019275856988,-3.997230312491329e-05,9.740671821401037e-05,0.00011604133572901132,2.8632481892998385e-05,2.6659612302415425e-05,-0.0002852502630849678,0.0007241757697960116,0.00036768892007359833,0.0005913306119096155,-5.711519235298025e-06,-7.864034950402116e-05,-0.00012527562183698037,0.6806880831718445,46.54800033569336,5.635891437530518,-19.658235549926758,-0.9158225655555725,-2.3788485527038574,0.08365194499492645,0
64,0.3152487277984619,-0.6291133761405945,-46.57577133178711,-5.612087726593018,19.586824417114258,0.9213157296180725,2.3852572441101074,-0.06351034343242645,0.0,0.0,0.0,0.0,0.0,0.0,0.0,-0.6794159418657022,-0.2397955097415895,-0.469450532999631,0.43396723193865233,0.33224690720850764,0.11453007778851709,-0.07251002323993491,0.8781033609641477,0.7556765663223225,-0.28251696330204346,-1.6691899201626794,0.14130194659113585,2.403415772808922,1.0273092026627726,0.878092876070424,0.7554597494309409,-0.2825552651693207,-1.6690993614607135,0.1414185955172306,2.4034451173676383,1.0273381002308042,-0.000933016819347218,0.00048749180184741637,-0.0005242626065887313,0.001259298172126616,-0.00010092850981689876,-0.00011568172069530472,-0.00014594756898163959,0.0,0.0,0.0,0.0,0.0,0.0,0.0,-1.0484893723683442e-05,-0.00021681689138164373,-3.8301867277268364e-05,9.055870196594817e-05,0.00011664892609475341,2.9344558716282165e-05,2.8897568031593934e-05,0.000933016819347218,-0.00048749180184741637,0.0005242626065887313,-0.001259298172126616,0.00010092850981689876,0.00011568172069530472,0.00014594756898163959,0.6291133761405945,46.57577133178711,5.612087726593018,-19.586824417114258,-0.9213157296180725,-2.3852572441101074,0.06351034343242645,0
65,0.3194911479949951,-0.6291133761405945,-46.57577133178711,-5.612087726593018,19.586824417114258,0.9213157296180725,2.3852572441101074,-0.06351034343242645,0.0,0.0,0.0,0.0,0.0,0.0,0.0,-0.6794159418657022,-0.2397955097415895,-0.469450532999631,0.43396723193865233,0.33224690720850764,0.11453007778851709,-0.07251002323993491,0.8781033609641477,0.7556765663223225,-0.28251696330204346,-1.6691899201626794,0.14130194659113585,2.403415772808922,1.0273092026627726,0.878092876070424,0.7554597494309409,-0.2825552651693207,-1.6690993614607135,0.1414185955172306,2.4034451173676383,1.0273381002308042,-0.000933016819347218,0.00048749180184741637,-0.0005242626065887313,0.001259298172126616,-0.00010092850981689876,-0.00011568172069530472,-0.00014594756898163959,0.0,0.0,0.0,0.0,0.0,0.0,0.0,-1.0484893723683442e-05,-0.00021681689138164373,-3.8301867277268364e-05,9.055870196594817e-05,0.00011664892609475341,2.9344558716282165e-05,2.8897568031593934e-05,0.000933016819347218,-0.00048749180184741637,0.0005242626065887313,-0.001259298172126616,0.00010092850981689876,0.00011568172069530472,0.00014594756898163959,0.6291133761405945,46.57577133178711,5.612087726593018,-19.586824417114258,-0.9213157296180725,-2.3852572441101074,0.06351034343242645,0
66,0.3244767189025879,-0.6568843722343445,-46.54800033569336,-5.612087726593018,19.658235549926758,0.9277244210243225,2.3724398612976074,-0.08365194499492645,0.0,0.0,0.0,0.0,0.0,0.0,0.0,-0.6824745132687897,-0.23929206884244067,-0.47127829959979206,0.43286361034022003,0.33238132886969785,0.11479210747485964,-0.07249418337666519,0.8781038765002599,0.7556746164818559,-0.2825169633504951,-1.6691969135367584,0.14130226193348353,2.403417196962568,1.0273114406185018,0.878092876070424,0.7554597494309409,-0.2825552651693207,-1.6690993614607135,0.1414185955172306,2.4034451173676383,1.0273381002308042,-0.0003930998907159598,-0.00024352140224618202,-0.00045849681695258845,-0.0003863759899263752,-0.0004038512264353577,0.00017142198523027242,0.0005332383253708363,0.0,0.0,0.0,0.0,0.0,0.0,0.0,-1.100042983592786e-05,-0.0002148670509150019,-3.830181882563677e-05,9.755207604489335e-05,0.0001163335837470747,2.7920405070158694e-05,2.6659612302415425e-05,0.0003930998907159598,0.00024352140224618202,0.00045849681695258845,0.0003863759899263752,0.0004038512264353577,-0.00017142198523027242,-0.0005332383253708363,0.6568843722343445,46.54800033569336,5.612087726593018,-19.658235549926758,-0.9277244210243225,-2.3724398612976074,0.08365194499492645,0
67,0.32947516441345215,-0.6568843722343445,-46.54800033569336,-5.612087726593018,19.658235549926758,0.9277244210243225,2.3724398612976074,-0.08365194499492645,0.0,0.0,0.0,0.0,0.0,0.0,0.0,-0.6824745132687897,-0.23929206884244067,-0.47127829959979206,0.43286361034022003,0.33238132886969785,0.11479210747485964,-0.07249418337666519,0.8781038765002599,0.7556746164818559,-0.2825169633504951,-1.6691969135367584,0.14130226193348353,2.403417196962568,1.0273114406185018,0.878092876070424,0.7554597494309409,-0.2825552651693207,-1.6690993614607135,0.1414185955172306,2.4034451173676383,1.0273381002308042,-0.0003930998907159598,-0.00024352140224618202,-0.00045849681695258845,-0.0003863759899263752,-0.0004038512264353577,0.00017142198523027242,0.0005332383253708363,0.0,0.0,0.0,0.0,0.0,0.0,0.0,-1.100042983592786e-05,-0.0002148670509150019,-3.830181882563677e-05,9.755207604489335e-05,0.0001163335837470747,2.7920405070158694e-05,2.6659612302415425e-05,0.0003930998907159598,0.00024352140224618202,0.00045849681695258845,0.0003863759899263752,0.0004038512264353577,-0.00017142198523027242,-0.0005332383253708363,0.6568843722343445,46.54800033569336,5.612087726593018,-19.658235549926758,-0.9277244210243225,-2.3724398612976074,0.08365194499492645,0
68,0.3344852924346924,-0.6806880831718445,-46.54800033569336,-5.663662433624268,19.634431838989258,0.9158225655555725,2.3788485527038574,-0.05710165575146675,0.0,0.0,0.0,0.0,0.0,0.0,0.0,-0.6863130940576803,-0.24126535404409466,-0.4748186286419791,0.4365881912735737,0.33294759290963144,0.11477451949890007,-0.07282364450444777,0.878107701384269,0.7556746222597597,-0.2825133440243578,-1.6691925642936918,0.14130251356864146,2.403416484401229,1.0273084905863636,0.878092876070424,0.7554597494309409,-0.2825552651693207,-1.6690993614607135,0.1414185955172306,2.4034451173676383,1.0273381002308042,0.00018494459792348808,2.225544962025146e-05,0.0005907427472489354,0.000358086019067788,8.281954685524214e-05,4.51192163960363e-05,-8.064635450599381e-05,0.0,0.0,0.0,0.0,0.0,0.0,0.0,-1.4825313845001631e-05,-0.00021487282881882397,-4.192114496293087e-05,9.320283297831189e-05,0.00011608194858914178,2.8632966409425364e-05,2.9609644440542482e-05,-0.00018494459792348808,-2.225544962025146e-05,-0.0005907427472489354,-0.000358086019067788,-8.281954685524214e-05,-4.51192163960363e-05,8.064635450599381e-05,0.6806880831718445,46.54800033569336,5.663662433624268,-19.634431838989258,-0.9158225655555725,-2.3788485527038574,0.05710165575146675,0
69,0.3395047187805176,-0.6806880831718445,-46.54800033569336,-5.663662433624268,19.634431838989258,0.9158225655555725,2.3788485527038574,-0.05710165575146675,0.0,0.0,0.0,0.0,0.0,0.0,0.0,-0.6863130940576803,-0.24126535404409466,-0.4748186286419791,0.4365881912735737,0.33294759290963144,0.11477451949890007,-0.07282364450444777,0.878107701384269,0.7556746222597597,-0.2825133440243578,-1.6691925642936918,0.14130251356864146,2.403416484401229,1.0273084905863636,0.878092876070424,0.7554597494309409,-0.2825552651693207,-1.6690993614607135,0.1414185955172306,2.4034451173676383,1.0273381002308042,0.00018494459792348808,2.225544962025146e-05,0.0005907427472489354,0.000358086019067788,8.281954685524214e-05,4.51192163960363e-05,-8.064635450599381e-05,0.0,0.0,0.0,0.0,0.0,0.0,0.0,-1.4825313845001631e-05,-0.00021487282881882397,-4.192114496293087e-05,9.320283297831189e-05,0.00011608194858914178,2.8632966409425364e-05,2.9609644440542482e-05,-0.00018494459792348808,-2.225544962025146e-05,-0.0005907427472489354,-0.000358086019067788,-8.281954685524214e-05,-4.51192163960363e-05,8.064635450599381e-05,0.6806880831718445,46.54800033569336,5.663662433624268,-19.634431838989258,-0.9158225655555725,-2.3788485527038574,0.05710165575146675,0
70,0.3444831371307373,-0.6568843722343445,-46.54800033569336,-5.612087726593018,19.686006546020508,0.9213157296180725,2.3852572441101074,-0.06351034343242645,0.0,0.0,0.0,0.0,0.0,0.0,0.0,-0.6714274821414311,-0.24241861368844275,-0.46602814552423993,0.44228736395331825,0.3331459434995291,0.11505189013383314,-0.07232742555128978,0.8781039939000251,0.755674847596354,-0.28251911005040176,-1.6691965751379054,0.14130308798740643,2.403415772808921,1.0273092026627726,0.878092876070424,0.7554597494309409,-0.2825552651693207,-1.6690993614607135,0.1414185955172306,2.4034451173676383,1.0273381002308042,-0.0006422195372558391,-0.00032435019419841554,-0.0007500800479083043,-0.0008968814668680547,-1.5495012071518145e-05,-0.00029477554150248293,-0.0007307730489710902,0.0,0.0,0.0,0.0,0.0,0.0,0.0,-1.111782960117047e-05,-0.0002150981654130968,-3.615511891896794e-05,9.721367719195406e-05,0.00011550752982417145,2.9344558717170344e-05,2.8897568031593934e-05,0.0006422195372558391,0.00032435019419841554,0.0007500800479083043,0.0008968814668680547,1.5495012071518145e-05,0.00029477554150248293,0.0007307730489710902,0.6568843722343445,46.54800033569336,5.612087726593018,-19.686006546020508,-0.9213157296180725,-2.3852572441101074,0.06351034343242645,0
71,0.34951353073120117,-0.6568843722343445,-46.54800033569336,-5.612087726593018,19.686006546020508,0.9213157296180725,2.3852572441101074,-0.06351034343242645,0.0,0.0,0.0,0.0,0.0,0.0,0.0,-0.6714274821414311,-0.24241861368844275,-0.46602814552423993,0.44228736395331825,0.3331459434995291,0.11505189013383314,-0.07232742555128978,0.8781039939000251,0.755674847596354,-0.28251911005040176,-1.6691965751379054,0.14130308798740643,2.403415772808921,1.0273092026627726,0.878092876070424,0.7554597494309409,-0.2825552651693207,-1.6690993614607135,0.1414185955172306,2.4034451173676383,1.0273381002308042,-0.0006422195372558391,-0.00032435019419841554,-0.0007500800479083043,-0.0008968814668680547,-1.5495012071518145e-05,-0.00029477554150248293,-0.0007307730489710902,0.0,0.0,0.0,0.0,0.0,0.0,0.0,-1.111782960117047e-05,-0.0002150981654130968,-3.615511891896794e-05,9.721367719195406e-05,0.00011550752982417145,2.9344558717170344e-05,2.8897568031593934e-05,0.0006422195372558391,0.00032435019419841554,0.0007500800479083043,0.0008968814668680547,1.5495012071518145e-05,0.00029477554150248293,0.0007307730489710902,0.6568843722343445,46.54800033569336,5.612087726593018,-19.686006546020508,-0.9213157296180725,-2.3852572441101074,0.06351034343242645,0
72,0.35448384284973145,-0.6568843722343445,-46.57577133178711,-5.663662433624268,19.634431838989258,0.9158225655555725,2.3788485527038574,-0.07724325358867645,0.0,0.0,0.0,0.0,0.0,0.0,0.0,-0.6860135544931278,-0.24134500134570663,-0.47832976450276504,0.4422864467436002,0.33335606211731955,0.11463376939199126,-0.07221184570549492,0.8781063685643681,0.7556786684668515,-0.2825157282586052,-1.669195327844147,0.1413058742047256,2.4034164848857453,1.027310728541679,0.878092876070424,0.7554597494309409,-0.2825552651693207,-1.6690993614607135,0.1414185955172306,2.4034451173676383,1.0273381002308042,-0.0008492905503136478,-2.4768150590065288e-06,-4.5845714678772705e-07,0.00030308872656359046,8.411442992035118e-05,-1.979218072677167e-05,0.0007127030149942613,0.0,0.0,0.0,0.0,0.0,0.0,0.0,-1.3492493944111672e-05,-0.00021891903591064743,-3.953691071550969e-05,9.596638343345454e-05,0.00011272131250500417,2.8632481892998385e-05,2.7371689125255116e-05,0.0008492905503136478,2.4768150590065288e-06,4.5845714678772705e-07,-0.00030308872656359046,-8.411442992035118e-05,1.979218072677167e-05,-0.0007127030149942613,0.6568843722343445,46.57577133178711,5.663662433624268,-19.634431838989258,-0.9158225655555725,-2.3788485527038574,0.07724325358867645,0
73,0.3594801425933838,-0.6568843722343445,-46.57577133178711,-5.663662433624268,19.634431838989258,0.9158225655555725,2.3788485527038574,-0.07724325358867645,0.0,0.0,0.0,0.0,0.0,0.0,0.0,-0.6860135544931278,-0.24134500134570663,-0.47832976450276504,0.4422864467436002,0.33335606211731955,0.11463376939199126,-0.07221184570549492,0.8781063685643681,0.7556786684668515,-0.2825157282586052,-1.669195327844147,0.1413058742047256,2.4034164848857453,1.027310728541679,0.878092876070424,0.7554597494309409,-0.2825552651693207,-1.6690993614607135,0.1414185955172306,2.4034451173676383,1.0273381002308042,-0.0008492905503136478,-2.4768150590065288e-06,-4.5845714678772705e-07,0.00030308872656359046,8.411442992035118e-05,-1.979218072677167e-05,0.0007127030149942613,0.0,0.0,0.0,0.0,0.0,0.0,0.0,-1.3492493944111672e-05,-0.00021891903591064743,-3.953691071550969e-05,9.596638343345454e-05,0.00011272131250500417,2.8632481892998385e-05,2.7371689125255116e-05,0.0008492905503136478,2.4768150590065288e-06,4.5845714678772705e-07,-0.00030308872656359046,-8.411442992035118e-05,1.979218072677167e-05,-0.0007127030149942613,0.6568843722343445,46.57577133178711,5.663662433624268,-19.634431838989258,-0.9158225655555725,-2.3788485527038574,0.07724325358867645,0
74,0.36447668075561523,-0.7084590792655945,-46.54800033569336,-5.735073566436768,19.634431838989258,0.9158225655555725,2.3724398612976074,-0.09738485515117645,0.0,0.0,0.0,0.0,0.0,0.0,0.0,-0.6728941029505422,-0.2372979285166943,-0.46909391078944573,0.4390494315295765,0.33248479622328386,0.11422437577950409,-0.07139607904073351,0.8781099857841503,0.7556767456359681,-0.28250833273025033,-1.6691925732183153,0.14130263177204408,2.403417196962568,1.027312966497408,0.878092876070424,0.7554597494309409,-0.2825552651693207,-1.6690993614607135,0.1414185955172306,2.4034451173676383,1.0273381002308042,0.0006769167041506969,-0.0009021877134803598,0.0021976600939646947,-0.0002973869836553251,1.5112585395049752e-05,0.00033378367760847805,0.0013845237268345235,0.0,0.0,0.0,0.0,0.0,0.0,0.0,-1.7109713726370934e-05,-0.00021699620502724226,-4.6932439070390686e-05,9.321175760179656e-05,0.0001159637451865203,2.7920405070158694e-05,2.5133733396076607e-05,-0.0006769167041506969,0.0009021877134803598,-0.0021976600939646947,0.0002973869836553251,-1.5112585395049752e-05,-0.00033378367760847805,-0.0013845237268345235,0.7084590792655945,46.54800033569336,5.735073566436768,-19.634431838989258,-0.9158225655555725,-2.3724398612976074,0.09738485515117645,0
75,0.36948394775390625,-0.7084590792655945,-46.54800033569336,-5.735073566436768,19.634431838989258,0.9158225655555725,2.3724398612976074,-0.09738485515117645,0.0,0.0,0.0,0.0,0.0,0.0,0.0,-0.6728941029505422,-0.2372979285166943,-0.46909391078944573,0.4390494315295765,0.33248479622328386,0.11422437577950409,-0.07139607904073351,0.8781099857841503,0.7556767456359681,-0.28250833273025033,-1.6691925732183153,0.14130263177204408,2.403417196962568,1.027312966497408,0.878092876070424,0.7554597494309409,-0.2825552651693207,-1.6690993614607135,0.1414185955172306,2.4034451173676383,1.0273381002308042,0.0006769167041506969,-0.0009021877134803598,0.0021976600939646947,-0.0002973869836553251,1.5112585395049752e-05,0.00033378367760847805,0.0013845237268345235,0.0,0.0,0.0,0.0,0.0,0.0,0.0,-1.7109713726370934e-05,-0.00021699620502724226,-4.6932439070390686e-05,9.321175760179656e-05,0.0001159637451865203,2.7920405070158694e-05,2.5133733396076607e-05,-0.0006769167041506969,0.0009021877134803598,-0.0021976600939646947,0.0002973869836553251,-1.5112585395049752e-05,-0.00033378367760847805,-0.0013845237268345235,0.7084590792655945,46.54800033569336,5.735073566436768,-19.634431838989258,-0.9158225655555725,-2.3724398612976074,0.09738485515117645,0
76,0.37524962425231934,-0.6568843722343445,-46.54800033569336,-5.663662433624268,19.610628128051758,0.9158225655555725,2.3788485527038574,-0.10470907390117645,0.0,0.0,0.0,0.0,0.0,0.0,0.0,-0.6710951086068351,-0.2453103036651846,-0.4700569386964066,0.4408335642826607,0.33224679590028017,0.11513573800619732,-0.0701821938540594,0.8781063784255644,0.7556746222717462,-0.28251334402435707,-1.6691936491828057,0.1413069024310641,2.4034163670943403,1.0273137802994914,0.878092876070424,0.7554597494309409,-0.2825552651693207,-1.6690993614607135,0.1414185955172306,2.4034451173676383,1.0273381002308042,-0.0006329540770461834,-0.0012042989426543477,0.0005466457542374053,0.0005921014656329143,4.347371765159197e-05,6.682739421345969e-05,0.0012026932100244337,0.0,0.0,0.0,0.0,0.0,0.0,0.0,-1.3502355140415645e-05,-0.00021487284080534685,-4.192114496365251e-05,9.428772209219005e-05,0.00011169308616648665,2.875027329807267e-05,2.4319931312799525e-05,0.0006329540770461834,0.0012042989426543477,-0.0005466457542374053,-0.0005921014656329143,-4.347371765159197e-05,-6.682739421345969e-05,-0.0012026932100244337,0.6568843722343445,46.54800033569336,5.663662433624268,-19.610628128051758,-0.9158225655555725,-2.3788485527038574,0.10470907390117645,0
77,0.3795044422149658,-0.6568843722343445,-46.54800033569336,-5.663662433624268,19.610628128051758,0.9158225655555725,2.3788485527038574,-0.10470907390117645,0.0,0.0,0.0,0.0,0.0,0.0,0.0,-0.6710951086068351,-0.2453103036651846,-0.4700569386964066,0.4408335642826607,0.33224679590028017,0.11513573800619732,-0.0701821938540594,0.8781063784255644,0.7556746222717462,-0.28251334402435707,-1.6691936491828057,0.1413069024310641,2.4034163670943403,1.0273137802994914,0.878092876070424,0.7554597494309409,-0.2825552651693207,-1.6690993614607135,0.1414185955172306,2.4034451173676383,1.0273381002308042,-0.0006329540770461834,-0.0012042989426543477,0.0005466457542374053,0.0005921014656329143,4.347371765159197e-05,6.682739421345969e-05,0.0012026932100244337,0.0,0.0,0.0,0.0,0.0,0.0,0.0,-1.3502355140415645e-05,-0.00021487284080534685,-4.192114496365251e-05,9.428772209219005e-05,0.00011169308616648665,2.875027329807267e-05,2.4319931312799525e-05,0.0006329540770461834,0.0012042989426543477,-0.0005466457542374053,-0.0005921014656329143,-4.347371765159197e-05,-6.682739421345969e-05,-0.0012026932100244337,0.6568843722343445,46.54800033569336,5.663662433624268,-19.610628128051758,-0.9158225655555725,-2.3788485527038574,0.10470907390117645,0
78,0.38448548316955566,-0.6568843722343445,-46.54800033569336,-5.663662433624268,19.610628128051758,0.9158225655555725,2.3788485527038574,-0.10470907390117645,0.0,0.0,0.0,0.0,0.0,0.0,0.0,-0.6710951086068351,-0.2453103036651846,-0.4700569386964066,0.4408335642826607,0.33224679590028017,0.11513573800619732,-0.0701821938540594,0.8781063784255644,0.7556746222717462,-0.28251334402435707,-1.6691936491828057,0.1413069024310641,2.4034163670943403,1.0273137802994914,0.878092876070424,0.7554597494309409,-0.2825552651693207,-1.6690993614607135,0.1414185955172306,2.4034451173676383,1.0273381002308042,-0.0006329540770461834,-0.0012042989426543477,0.0005466457542374053,0.0005921014656329143,4.347371765159197e-05,6.682739421345969e-05,0.0012026932100244337,0.0,0.0,0.0,0.0,0.0,0.0,0.0,-1.3502355140415645e-05,-0.00021487284080534685,-4.192114496365251e-05,9.428772209219005e-05,0.00011169308616648665,2.875027329807267e-05,2.4319931312799525e-05,0.0006329540770461834,0.0012042989426543477,-0.0005466457542374053,-0.0005921014656329143,-4.347371765159197e-05,-6.682739421345969e-05,-0.0012026932100244337,0.6568843722343445,46.54800033569336,5.663662433624268,-19.610628128051758,-0.9158225655555725,-2.3788485527038574,0.10470907390117645,0
79,0.38950014114379883,-0.7084590792655945,-46.59957504272461,-5.635891437530518,19.634431838989258,0.9094138741493225,2.3660311698913574,-0.05710165575146675,0.0,0.0,0.0,0.0,0.0,0.0,0.0,-0.6940487434206988,-0.2416289758187686,-0.4851581375984132,0.4357666422030899,0.33261607189243675,0.1145382560827549,-0.07083828921732936,0.878107825118104,0.7556782328706528,-0.2825153723390479,-1.6691950901508819,0.14130326530575818,2.403417909038726,1.0273084905863636,0.878092876070424,0.7554597494309409,-0.2825552651693207,-1.6690993614607135,0.1414185955172306,2.4034451173676383,1.0273381002308042,-0.00027079170509067887,0.0008185509726820866,-0.00024400623963736934,0.00022729187186889025,0.0003522746804975202,0.0003860723704628383,-0.0007309920007859252,0.0,0.0,0.0,0.0,0.0,0.0,0.0,-1.4949047680068439e-05,-0.0002184834397119806,-3.98928302728363e-05,9.572869016838403e-05,0.00011533021147241973,2.720832891212055e-05,2.9609644440542482e-05,0.00027079170509067887,-0.0008185509726820866,0.00024400623963736934,-0.00022729187186889025,-0.0003522746804975202,-0.0003860723704628383,0.0007309920007859252,0.7084590792655945,46.59957504272461,5.635891437530518,-19.634431838989258,-0.9094138741493225,-2.3660311698913574,0.05710165575146675,0
80,0.3944387435913086,-0.7084590792655945,-46.59957504272461,-5.635891437530518,19.634431838989258,0.9094138741493225,2.3660311698913574,-0.05710165575146675,0.0,0.0,0.0,0.0,0.0,0.0,0.0,-0.6940487434206988,-0.2416289758187686,-0.4851581375984132,0.4357666422030899,0.33261607189243675,0.1145382560827549,-0.07083828921732936,0.878107825118104,0.7556782328706528,-0.2825153723390479,-1.6691950901508819,0.14130326530575818,2.403417909038726,1.0273084905863636,0.878092876070424,0.7554597494309409,-0.2825552651693207,-1.6690993614607135,0.1414185955172306,2.4034451173676383,1.0273381002308042,-0.00027079170509067887,0.0008185509726820866,-0.00024400623963736934,0.00022729187186889025,0.0003522746804975202,0.0003860723704628383,-0.0007309920007859252,0.0,0.0,0.0,0.0,0.0,0.0,0.0,-1.4949047680068439e-05,-0.0002184834397119806,-3.98928302728363e-05,9.572869016838403e-05,0.00011533021147241973,2.720832891212055e-05,2.9609644440542482e-05,0.00027079170509067887,-0.0008185509726820866,0.00024400623963736934,-0.00022729187186889025,-0.0003522746804975202,-0.0003860723704628383,0.0007309920007859252,0.7084590792655945,46.59957504272461,5.635891437530518,-19.634431838989258,-0.9094138741493225,-2.3660311698913574,0.05710165575146675,0
