rezayati/contactInterpretation/dataset/franka_main/labeled_data/link5/c1_6.csv
index,time,tau_J0,tau_J1,tau_J2,tau_J3,tau_J4,tau_J5,tau_J6,tau_J_d0,tau_J_d1,tau_J_d2,tau_J_d3,tau_J_d4,tau_J_d5,tau_J_d6,tau_ext0,tau_ext1,tau_ext2,tau_ext3,tau_ext4,tau_ext5,tau_ext6,q0,q1,q2,q3,q4,q5,q6,q_d0,q_d1,q_d2,q_d3,q_d4,q_d5,q_d6,dq0,dq1,dq2,dq3,dq4,dq5,dq6,dq_d0,dq_d1,dq_d2,dq_d3,dq_d4,dq_d5,dq_d6,e0,e1,e2,e3,e4,e5,e6,de0,de1,de2,de3,de4,de5,de6,etau_J0,etau_J1,etau_J2,etau_J3,etau_J4,etau_J5,etau_J6,label
1,0.0,0.005652248859405518,-18.427881240844727,0.9696381092071533,18.071321487426758,0.7610984444618225,2.2488436698913574,-0.22830526530742645,0.0,0.0,0.0,0.0,0.0,0.0,0.0,0.047628952010877294,0.3384774960250921,0.18662412308703435,0.4114831724127981,0.3365975215699164,0.063881563808371,-0.19420455037770534,-0.6089651974836985,-0.05745508666780957,-0.6664901138523168,-2.594642193818443,-0.05568178222212109,2.5079574496481154,0.8763183509403829,-0.6090851748156966,-0.05753196718556838,-0.666603097082616,-2.5945565370258534,-0.05562143941554,2.507976027223799,0.8763108487046415,0.00039681807532596406,6.412536797358174e-05,0.0004274985451182169,-0.00041664993581141697,-8.989127676948245e-05,0.00019500702144912289,0.0006835503078146606,0.0,0.0,0.0,0.0,0.0,0.0,0.0,-0.00011997733199808902,-7.688051775881638e-05,-0.00011298323029917956,8.565679258953907e-05,6.0342806581091535e-05,1.8577575683575986e-05,-7.50223574141895e-06,-0.00039681807532596406,-6.412536797358174e-05,-0.0004274985451182169,0.00041664993581141697,8.989127676948245e-05,-0.00019500702144912289,-0.0006835503078146606,-0.005652248859405518,18.427881240844727,-0.9696381092071533,-18.071321487426758,-0.7610984444618225,-2.2488436698913574,0.22830526530742645,0
2,0.00461268424987793,0.03342324495315552,-18.304895401000977,0.9696381092071533,17.999910354614258,0.7730002999305725,2.2360262870788574,-0.15964071452617645,0.0,0.0,0.0,0.0,0.0,0.0,0.0,0.058325096767388084,0.3383003212350204,0.1973938234525932,0.399490100517901,0.33540189515299723,0.06354865311268858,-0.19654926183643898,-0.6089671463255296,-0.057463717253061763,-0.6664901138523168,-2.5946376161671716,-0.05567986994510077,2.507958873801761,0.8763139004445101,-0.6090851748156966,-0.05753196718556838,-0.666603097082616,-2.5945565370258534,-0.05562143941554,2.507976027223799,0.8763108487046415,0.00014348021666971716,-0.0009396879965657904,0.0006575030314494652,0.0005252619694334161,-0.0003366969337858115,0.0006494942048172486,-0.001489538751594496,0.0,0.0,0.0,0.0,0.0,0.0,0.0,-0.00011802849016695482,-6.824993250661993e-05,-0.00011298323029917956,8.10791413181633e-05,5.843052956076844e-05,1.7153422037896604e-05,-3.051739868586978e-06,-0.00014348021666971716,0.0009396879965657904,-0.0006575030314494652,-0.0005252619694334161,0.0003366969337858115,-0.0006494942048172486,0.001489538751594496,-0.03342324495315552,18.304895401000977,-0.9696381092071533,-17.999910354614258,-0.7730002999305725,-2.2360262870788574,0.15964071452617645,0
3,0.009609699249267578,0.03342324495315552,-18.304895401000977,0.9696381092071533,17.999910354614258,0.7730002999305725,2.2360262870788574,-0.15964071452617645,0.0,0.0,0.0,0.0,0.0,0.0,0.0,0.058325096767388084,0.3383003212350204,0.1973938234525932,0.399490100517901,0.33540189515299723,0.06354865311268858,-0.19654926183643898,-0.6089671463255296,-0.057463717253061763,-0.6664901138523168,-2.5946376161671716,-0.05567986994510077,2.507958873801761,0.8763139004445101,-0.6090851748156966,-0.05753196718556838,-0.666603097082616,-2.5945565370258534,-0.05562143941554,2.507976027223799,0.8763108487046415,0.00014348021666971716,-0.0009396879965657904,0.0006575030314494652,0.0005252619694334161,-0.0003366969337858115,0.0006494942048172486,-0.001489538751594496,0.0,0.0,0.0,0.0,0.0,0.0,0.0,-0.00011802849016695482,-6.824993250661993e-05,-0.00011298323029917956,8.10791413181633e-05,5.843052956076844e-05,1.7153422037896604e-05,-3.051739868586978e-06,-0.00014348021666971716,0.0009396879965657904,-0.0006575030314494652,-0.0005252619694334161,0.0003366969337858115,-0.0006494942048172486,0.001489538751594496,-0.03342324495315552,18.304895401000977,-0.9696381092071533,-17.999910354614258,-0.7730002999305725,-2.2360262870788574,0.15964071452617645,0
4,0.01461172103881836,0.03342324495315552,-18.253320693969727,1.0172455310821533,18.047517776489258,0.7546897530555725,2.2296175956726074,-0.22830526530742645,0.0,0.0,0.0,0.0,0.0,0.0,0.0,0.05507552747204053,0.3391545738133348,0.19505962278569164,0.3983300310663617,0.33597756699486414,0.06353169689230996,-0.19460724207106672,-0.6089671463255296,-0.05746733653074817,-0.6664934547240274,-2.594641060060358,-0.05568067599141369,2.507959585878584,0.8763215298569863,-0.6090851748156966,-0.05753196718556838,-0.666603097082616,-2.5945565370258534,-0.05562143941554,2.507976027223799,0.8763108487046415,0.0003383541924603064,-7.603212706221618e-05,-0.00047876156149612837,-0.0009094341976008051,0.00033038580951761574,0.0003921533828761512,0.0015679752281562954,0.0,0.0,0.0,0.0,0.0,0.0,0.0,-0.00011802849016695482,-6.463065482021496e-05,-0.00010964235858856863,8.452303450479093e-05,5.923657587369319e-05,1.6441345215056913e-05,-1.0681152344815814e-05,-0.0003383541924603064,7.603212706221618e-05,0.00047876156149612837,0.0009094341976008051,-0.00033038580951761574,-0.0003921533828761512,-0.0015679752281562954,-0.03342324495315552,18.253320693969727,-1.0172455310821533,-18.047517776489258,-0.7546897530555725,-2.2296175956726074,0.22830526530742645,0
5,0.019611597061157227,0.03342324495315552,-18.253320693969727,1.0172455310821533,18.047517776489258,0.7546897530555725,2.2296175956726074,-0.22830526530742645,0.0,0.0,0.0,0.0,0.0,0.0,0.0,0.05507552747204053,0.3391545738133348,0.19505962278569164,0.3983300310663617,0.33597756699486414,0.06353169689230996,-0.19460724207106672,-0.6089671463255296,-0.05746733653074817,-0.6664934547240274,-2.594641060060358,-0.05568067599141369,2.507959585878584,0.8763215298569863,-0.6090851748156966,-0.05753196718556838,-0.666603097082616,-2.5945565370258534,-0.05562143941554,2.507976027223799,0.8763108487046415,0.0003383541924603064,-7.603212706221618e-05,-0.00047876156149612837,-0.0009094341976008051,0.00033038580951761574,0.0003921533828761512,0.0015679752281562954,0.0,0.0,0.0,0.0,0.0,0.0,0.0,-0.00011802849016695482,-6.463065482021496e-05,-0.00010964235858856863,8.452303450479093e-05,5.923657587369319e-05,1.6441345215056913e-05,-1.0681152344815814e-05,-0.0003383541924603064,7.603212706221618e-05,0.00047876156149612837,0.0009094341976008051,-0.00033038580951761574,-0.0003921533828761512,-0.0015679752281562954,-0.03342324495315552,18.253320693969727,-1.0172455310821533,-18.047517776489258,-0.7546897530555725,-2.2296175956726074,0.22830526530742645,0
6,0.024616479873657227,0.03342324495315552,-18.277124404907227,0.9418671131134033,18.023714065551758,0.7610984444618225,2.2296175956726074,-0.17337362468242645,0.0,0.0,0.0,0.0,0.0,0.0,0.0,0.04437024178798851,0.34033251178675406,0.18487674446882124,0.40505389929904617,0.3364241154737188,0.06289654996747605,-0.1950610000415852,-0.6089671463255296,-0.057465666094892905,-0.6664881650104857,-2.5946408962433734,-0.05568067347960368,2.507959585878584,0.8763154263413614,-0.6090851748156966,-0.05753196718556838,-0.666603097082616,-2.5945565370258534,-0.05562143941554,2.507976027223799,0.8763108487046415,0.00021194886294983547,0.0006810928106494533,0.0007284178444937604,-0.0003558752586027401,-0.00012272670282527604,0.00015583097464755697,-0.0011056614717824772,0.0,0.0,0.0,0.0,0.0,0.0,0.0,-0.00011802849016695482,-6.630109067547879e-05,-0.00011493207213031376,8.435921751992481e-05,5.92340640636832e-05,1.6441345215056913e-05,-4.577636719904632e-06,-0.00021194886294983547,-0.0006810928106494533,-0.0007284178444937604,0.0003558752586027401,0.00012272670282527604,-0.00015583097464755697,0.0011056614717824772,-0.03342324495315552,18.277124404907227,-0.9418671131134033,-18.023714065551758,-0.7610984444618225,-2.2296175956726074,0.17337362468242645,0
7,0.029620647430419922,0.03342324495315552,-18.277124404907227,0.9418671131134033,18.023714065551758,0.7610984444618225,2.2296175956726074,-0.17337362468242645,0.0,0.0,0.0,0.0,0.0,0.0,0.0,0.04437024178798851,0.34033251178675406,0.18487674446882124,0.40505389929904617,0.3364241154737188,0.06289654996747605,-0.1950610000415852,-0.6089671463255296,-0.057465666094892905,-0.6664881650104857,-2.5946408962433734,-0.05568067347960368,2.507959585878584,0.8763154263413614,-0.6090851748156966,-0.05753196718556838,-0.666603097082616,-2.5945565370258534,-0.05562143941554,2.507976027223799,0.8763108487046415,0.00021194886294983547,0.0006810928106494533,0.0007284178444937604,-0.0003558752586027401,-0.00012272670282527604,0.00015583097464755697,-0.0011056614717824772,0.0,0.0,0.0,0.0,0.0,0.0,0.0,-0.00011802849016695482,-6.630109067547879e-05,-0.00011493207213031376,8.435921751992481e-05,5.92340640636832e-05,1.6441345215056913e-05,-4.577636719904632e-06,-0.00021194886294983547,-0.0006810928106494533,-0.0007284178444937604,0.0003558752586027401,0.00012272670282527604,-0.00015583097464755697,0.0011056614717824772,-0.03342324495315552,18.277124404907227,-0.9418671131134033,-18.023714065551758,-0.7610984444618225,-2.2296175956726074,0.17337362468242645,0
8,0.034620046615600586,0.03342324495315552,-18.352502822875977,0.9418671131134033,18.047517776489258,0.7491965889930725,2.2552523612976074,-0.17337362468242645,0.0,0.0,0.0,0.0,0.0,0.0,0.0,0.04222280701367288,0.34393641000782726,0.17873521881049698,0.4107280114311985,0.33641860545320373,0.062026551181398736,-0.1946164615594255,-0.6089671463255296,-0.057460376381351236,-0.6664902710412678,-2.5946403700099245,-0.055680441884827646,2.5079567375712926,0.8763154132594092,-0.6090851748156966,-0.05753196718556838,-0.666603097082616,-2.5945565370258534,-0.05562143941554,2.507976027223799,0.8763108487046415,-0.00017427404304965548,0.0009119615718656023,0.0006431740538910343,-8.469071964437494e-05,0.0005557194265088886,-0.00042110590018967846,-0.0011038987877943066,0.0,0.0,0.0,0.0,0.0,0.0,0.0,-0.00011802849016695482,-7.159080421714759e-05,-0.00011282604134821295,8.383298407110829e-05,5.900246928764591e-05,1.9289652506415678e-05,-4.564554767716444e-06,0.00017427404304965548,-0.0009119615718656023,-0.0006431740538910343,8.469071964437494e-05,-0.0005557194265088886,0.00042110590018967846,0.0011038987877943066,-0.03342324495315552,18.352502822875977,-0.9418671131134033,-18.047517776489258,-0.7491965889930725,-2.2552523612976074,0.17337362468242645,0
9,0.03961825370788574,0.03342324495315552,-18.352502822875977,0.9418671131134033,18.047517776489258,0.7491965889930725,2.2552523612976074,-0.17337362468242645,0.0,0.0,0.0,0.0,0.0,0.0,0.0,0.04222280701367288,0.34393641000782726,0.17873521881049698,0.4107280114311985,0.33641860545320373,0.062026551181398736,-0.1946164615594255,-0.6089671463255296,-0.057460376381351236,-0.6664902710412678,-2.5946403700099245,-0.055680441884827646,2.5079567375712926,0.8763154132594092,-0.6090851748156966,-0.05753196718556838,-0.666603097082616,-2.5945565370258534,-0.05562143941554,2.507976027223799,0.8763108487046415,-0.00017427404304965548,0.0009119615718656023,0.0006431740538910343,-8.469071964437494e-05,0.0005557194265088886,-0.00042110590018967846,-0.0011038987877943066,0.0,0.0,0.0,0.0,0.0,0.0,0.0,-0.00011802849016695482,-7.159080421714759e-05,-0.00011282604134821295,8.383298407110829e-05,5.900246928764591e-05,1.9289652506415678e-05,-4.564554767716444e-06,0.00017427404304965548,-0.0009119615718656023,-0.0006431740538910343,8.469071964437494e-05,-0.0005557194265088886,0.00042110590018967846,0.0011038987877943066,-0.03342324495315552,18.352502822875977,-0.9418671131134033,-18.047517776489258,-0.7491965889930725,-2.2552523612976074,0.17337362468242645,0
10,0.044615745544433594,0.03342324495315552,-18.376306533813477,1.0172455310821533,18.047517776489258,0.7610984444618225,2.2625765800476074,-0.20724813640117645,0.0,0.0,0.0,0.0,0.0,0.0,0.0,0.042912482072122456,0.3464566331871741,0.17846554977142332,0.4058627829996943,0.33638611019896775,0.062297805974079225,-0.19487574064282778,-0.6089671463255296,-0.05745870594549597,-0.666493454735916,-2.5946424373766557,-0.05567857488491292,2.507955923769209,0.876319190175923,-0.6090851748156966,-0.05753196718556838,-0.666603097082616,-2.5945565370258534,-0.05562143941554,2.507976027223799,0.8763108487046415,-0.00011895199061391999,3.7648761566014084e-05,-0.00048752706836917525,-0.0003362695066776394,6.535340485274116e-05,-0.0003018916802573388,0.0006807298565806422,0.0,0.0,0.0,0.0,0.0,0.0,0.0,-0.00011802849016695482,-7.326124007241142e-05,-0.00010964234669996742,8.590035080224823e-05,5.71354693729223e-05,2.0103454589914804e-05,-8.341471281481105e-06,0.00011895199061391999,-3.7648761566014084e-05,0.00048752706836917525,0.0003362695066776394,-6.535340485274116e-05,0.0003018916802573388,-0.0006807298565806422,-0.03342324495315552,18.376306533813477,-1.0172455310821533,-18.047517776489258,-0.7610984444618225,-2.2625765800476074,0.20724813640117645,0
11,0.04961085319519043,0.03342324495315552,-18.376306533813477,1.0172455310821533,18.047517776489258,0.7610984444618225,2.2625765800476074,-0.20724813640117645,0.0,0.0,0.0,0.0,0.0,0.0,0.0,0.042912482072122456,0.3464566331871741,0.17846554977142332,0.4058627829996943,0.33638611019896775,0.062297805974079225,-0.19487574064282778,-0.6089671463255296,-0.05745870594549597,-0.666493454735916,-2.5946424373766557,-0.05567857488491292,2.507955923769209,0.876319190175923,-0.6090851748156966,-0.05753196718556838,-0.666603097082616,-2.5945565370258534,-0.05562143941554,2.507976027223799,0.8763108487046415,-0.00011895199061391999,3.7648761566014084e-05,-0.00048752706836917525,-0.0003362695066776394,6.535340485274116e-05,-0.0003018916802573388,0.0006807298565806422,0.0,0.0,0.0,0.0,0.0,0.0,0.0,-0.00011802849016695482,-7.326124007241142e-05,-0.00010964234669996742,8.590035080224823e-05,5.71354693729223e-05,2.0103454589914804e-05,-8.341471281481105e-06,0.00011895199061391999,-3.7648761566014084e-05,0.00048752706836917525,0.0003362695066776394,-6.535340485274116e-05,0.0003018916802573388,-0.0006807298565806422,-0.03342324495315552,18.376306533813477,-1.0172455310821533,-18.047517776489258,-0.7610984444618225,-2.2625765800476074,0.20724813640117645,0
12,0.0546112060546875,0.10880166292190552,-18.328699111938477,1.0926239490509033,18.023714065551758,0.7730002999305725,2.2488436698913574,-0.19351522624492645,0.0,0.0,0.0,0.0,0.0,0.0,0.0,0.049837468769254274,0.3443580901458723,0.18718145952344054,0.4017167369422223,0.3361507835537277,0.06369746143874194,-0.19450932359782164,-0.6089724630205978,-0.0574620468172065,-0.6664987444375691,-2.5946414385707453,-0.05568204013572185,2.5079574496481154,0.8763176642970906,-0.6090851748156966,-0.05753196718556838,-0.666603097082616,-2.5945565370258534,-0.05562143941554,2.507976027223799,0.8763108487046415,-0.0008222317628600134,-0.0009412293785082573,-0.001441404092579992,0.0004328753407870477,-0.0005188272888096769,2.3668028840334873e-05,-0.000793067406734849,0.0,0.0,0.0,0.0,0.0,0.0,0.0,-0.00011271179509875218,-6.992036836188376e-05,-0.00010435264504693453,8.490154489182444e-05,6.0600720181852585e-05,1.8577575683575986e-05,-6.815592449083141e-06,0.0008222317628600134,0.0009412293785082573,0.001441404092579992,-0.0004328753407870477,0.0005188272888096769,-2.3668028840334873e-05,0.000793067406734849,-0.10880166292190552,18.328699111938477,-1.0926239490509033,-18.023714065551758,-0.7730002999305725,-2.2488436698913574,0.19351522624492645,0
13,0.059612274169921875,0.10880166292190552,-18.328699111938477,1.0926239490509033,18.023714065551758,0.7730002999305725,2.2488436698913574,-0.19351522624492645,0.0,0.0,0.0,0.0,0.0,0.0,0.0,0.049837468769254274,0.3443580901458723,0.18718145952344054,0.4017167369422223,0.3361507835537277,0.06369746143874194,-0.19450932359782164,-0.6089724630205978,-0.0574620468172065,-0.6664987444375691,-2.5946414385707453,-0.05568204013572185,2.5079574496481154,0.8763176642970906,-0.6090851748156966,-0.05753196718556838,-0.666603097082616,-2.5945565370258534,-0.05562143941554,2.507976027223799,0.8763108487046415,-0.0008222317628600134,-0.0009412293785082573,-0.001441404092579992,0.0004328753407870477,-0.0005188272888096769,2.3668028840334873e-05,-0.000793067406734849,0.0,0.0,0.0,0.0,0.0,0.0,0.0,-0.00011271179509875218,-6.992036836188376e-05,-0.00010435264504693453,8.490154489182444e-05,6.0600720181852585e-05,1.8577575683575986e-05,-6.815592449083141e-06,0.0008222317628600134,0.0009412293785082573,0.001441404092579992,-0.0004328753407870477,0.0005188272888096769,-2.3668028840334873e-05,0.000793067406734849,-0.10880166292190552,18.328699111938477,-1.0926239490509033,-18.023714065551758,-0.7730002999305725,-2.2488436698913574,0.19351522624492645,0
14,0.06460952758789062,0.10880166292190552,-18.277124404907227,1.0688202381134033,17.999910354614258,0.7610984444618225,2.2424349784851074,-0.17337362468242645,0.0,0.0,0.0,0.0,0.0,0.0,0.0,0.05494911091411376,0.34220285019692626,0.19439065927287488,0.3976602272582625,0.3362854593500363,0.06377003666057296,-0.19534558218918757,-0.6089724450330658,-0.057465666094892905,-0.6664970740017138,-2.5946369274169836,-0.05568034538076077,2.5079581617249382,0.8763154263413614,-0.6090851748156966,-0.05753196718556838,-0.666603097082616,-2.5945565370258534,-0.05562143941554,2.507976027223799,0.8763108487046415,-0.00011373029039489869,-0.0012377886870748994,0.0003298664479977757,0.0006929169853911709,-0.000349784842353931,0.00014078204806244017,-0.00040149200052036146,0.0,0.0,0.0,0.0,0.0,0.0,0.0,-0.0001127297826307716,-6.630109067547879e-05,-0.00010602308090224,8.039039113016955e-05,5.890596522076935e-05,1.7865498860736295e-05,-4.577636719904632e-06,0.00011373029039489869,0.0012377886870748994,-0.0003298664479977757,-0.0006929169853911709,0.000349784842353931,-0.00014078204806244017,0.00040149200052036146,-0.10880166292190552,18.277124404907227,-1.0688202381134033,-17.999910354614258,-0.7610984444618225,-2.2424349784851074,0.17337362468242645,0
15,0.069610595703125,0.10880166292190552,-18.277124404907227,1.0688202381134033,17.999910354614258,0.7610984444618225,2.2424349784851074,-0.17337362468242645,0.0,0.0,0.0,0.0,0.0,0.0,0.0,0.05494911091411376,0.34220285019692626,0.19439065927287488,0.3976602272582625,0.3362854593500363,0.06377003666057296,-0.19534558218918757,-0.6089724450330658,-0.057465666094892905,-0.6664970740017138,-2.5946369274169836,-0.05568034538076077,2.5079581617249382,0.8763154263413614,-0.6090851748156966,-0.05753196718556838,-0.666603097082616,-2.5945565370258534,-0.05562143941554,2.507976027223799,0.8763108487046415,-0.00011373029039489869,-0.0012377886870748994,0.0003298664479977757,0.0006929169853911709,-0.000349784842353931,0.00014078204806244017,-0.00040149200052036146,0.0,0.0,0.0,0.0,0.0,0.0,0.0,-0.0001127297826307716,-6.630109067547879e-05,-0.00010602308090224,8.039039113016955e-05,5.890596522076935e-05,1.7865498860736295e-05,-4.577636719904632e-06,0.00011373029039489869,0.0012377886870748994,-0.0003298664479977757,-0.0006929169853911709,0.000349784842353931,-0.00014078204806244017,0.00040149200052036146,-0.10880166292190552,18.277124404907227,-1.0688202381134033,-17.999910354614258,-0.7610984444618225,-2.2424349784851074,0.17337362468242645,0
16,0.07461214065551758,0.05722695589065552,-18.277124404907227,1.0410492420196533,18.023714065551758,0.7491965889930725,2.2296175956726074,-0.23471395671367645,0.0,0.0,0.0,0.0,0.0,0.0,0.0,0.05116496950451751,0.3392096110423182,0.19368363968385885,0.3980112233390935,0.33629068451693284,0.06295730972926218,-0.19437839689180889,-0.6089688167614357,-0.057465666094892905,-0.6664951251598826,-2.5946392980442576,-0.05568045410676108,2.507959585878584,0.8763222419338093,-0.6090851748156966,-0.05753196718556838,-0.666603097082616,-2.5945565370258534,-0.05562143941554,2.507976027223799,0.8763108487046415,0.0006705452434465133,-0.0006673218639772757,9.92417446570509e-05,-0.00034089599651425644,0.0003468042549475435,0.00026136818405526554,0.0010765350004096582,0.0,0.0,0.0,0.0,0.0,0.0,0.0,-0.00011635805426091217,-6.630109067547879e-05,-0.00010797192273337419,8.276101840420935e-05,5.901469122108344e-05,1.6441345215056913e-05,-1.1393229167766528e-05,-0.0006705452434465133,0.0006673218639772757,-9.92417446570509e-05,0.00034089599651425644,-0.0003468042549475435,-0.00026136818405526554,-0.0010765350004096582,-0.05722695589065552,18.277124404907227,-1.0410492420196533,-18.023714065551758,-0.7491965889930725,-2.2296175956726074,0.23471395671367645,0
17,0.07960867881774902,0.05722695589065552,-18.277124404907227,1.0410492420196533,18.023714065551758,0.7491965889930725,2.2296175956726074,-0.23471395671367645,0.0,0.0,0.0,0.0,0.0,0.0,0.0,0.05116496950451751,0.3392096110423182,0.19368363968385885,0.3980112233390935,0.33629068451693284,0.06295730972926218,-0.19437839689180889,-0.6089688167614357,-0.057465666094892905,-0.6664951251598826,-2.5946392980442576,-0.05568045410676108,2.507959585878584,0.8763222419338093,-0.6090851748156966,-0.05753196718556838,-0.666603097082616,-2.5945565370258534,-0.05562143941554,2.507976027223799,0.8763108487046415,0.0006705452434465133,-0.0006673218639772757,9.92417446570509e-05,-0.00034089599651425644,0.0003468042549475435,0.00026136818405526554,0.0010765350004096582,0.0,0.0,0.0,0.0,0.0,0.0,0.0,-0.00011635805426091217,-6.630109067547879e-05,-0.00010797192273337419,8.276101840420935e-05,5.901469122108344e-05,1.6441345215056913e-05,-1.1393229167766528e-05,-0.0006705452434465133,0.0006673218639772757,-9.92417446570509e-05,0.00034089599651425644,-0.0003468042549475435,-0.00026136818405526554,-0.0010765350004096582,-0.05722695589065552,18.277124404907227,-1.0410492420196533,-18.023714065551758,-0.7491965889930725,-2.2296175956726074,0.23471395671367645,0
18,0.08462977409362793,0.05722695589065552,-18.277124404907227,1.0410492420196533,18.023714065551758,0.7491965889930725,2.2296175956726074,-0.23471395671367645,0.0,0.0,0.0,0.0,0.0,0.0,0.0,0.05116496950451751,0.3392096110423182,0.19368363968385885,0.3980112233390935,0.33629068451693284,0.06295730972926218,-0.19437839689180889,-0.6089688167614357,-0.057465666094892905,-0.6664951251598826,-2.5946392980442576,-0.05568045410676108,2.507959585878584,0.8763222419338093,-0.6090851748156966,-0.05753196718556838,-0.666603097082616,-2.5945565370258534,-0.05562143941554,2.507976027223799,0.8763108487046415,0.0006705452434465133,-0.0006673218639772757,9.92417446570509e-05,-0.00034089599651425644,0.0003468042549475435,0.00026136818405526554,0.0010765350004096582,0.0,0.0,0.0,0.0,0.0,0.0,0.0,-0.00011635805426091217,-6.630109067547879e-05,-0.00010797192273337419,8.276101840420935e-05,5.901469122108344e-05,1.6441345215056913e-05,-1.1393229167766528e-05,-0.0006705452434465133,0.0006673218639772757,-9.92417446570509e-05,0.00034089599651425644,-0.0003468042549475435,-0.00026136818405526554,-0.0010765350004096582,-0.05722695589065552,18.277124404907227,-1.0410492420196533,-18.023714065551758,-0.7491965889930725,-2.2296175956726074,0.23471395671367645,0
19,0.08962535858154297,0.05722695589065552,-18.277124404907227,1.0410492420196533,18.023714065551758,0.7491965889930725,2.2296175956726074,-0.23471395671367645,0.0,0.0,0.0,0.0,0.0,0.0,0.0,0.05116496950451751,0.3392096110423182,0.19368363968385885,0.3980112233390935,0.33629068451693284,0.06295730972926218,-0.19437839689180889,-0.6089688167614357,-0.057465666094892905,-0.6664951251598826,-2.5946392980442576,-0.05568045410676108,2.507959585878584,0.8763222419338093,-0.6090851748156966,-0.05753196718556838,-0.666603097082616,-2.5945565370258534,-0.05562143941554,2.507976027223799,0.8763108487046415,0.0006705452434465133,-0.0006673218639772757,9.92417446570509e-05,-0.00034089599651425644,0.0003468042549475435,0.00026136818405526554,0.0010765350004096582,0.0,0.0,0.0,0.0,0.0,0.0,0.0,-0.00011635805426091217,-6.630109067547879e-05,-0.00010797192273337419,8.276101840420935e-05,5.901469122108344e-05,1.6441345215056913e-05,-1.1393229167766528e-05,-0.0006705452434465133,0.0006673218639772757,-9.92417446570509e-05,0.00034089599651425644,-0.0003468042549475435,-0.00026136818405526554,-0.0010765350004096582,-0.05722695589065552,18.277124404907227,-1.0410492420196533,-18.023714065551758,-0.7491965889930725,-2.2296175956726074,0.23471395671367645,0
20,0.09465336799621582,0.03342324495315552,-18.277124404907227,0.9696381092071533,18.047517776489258,0.7665916085243225,2.2552523612976074,-0.15964071452617645,0.0,0.0,0.0,0.0,0.0,0.0,0.0,0.049172776180456866,0.3356765669564413,0.1928621895554787,0.4042074306128582,0.33620905651967703,0.06222518486637945,-0.19588934377466827,-0.6089671463255296,-0.057465666094892905,-0.6664901139593142,-2.5946423607106417,-0.05568132796879725,2.5079567375712926,0.876313900462455,-0.6090851748156966,-0.05753196718556838,-0.666603097082616,-2.5945565370258534,-0.05562143941554,2.507976027223799,0.8763108487046415,-7.58653168722451e-05,-0.0009181563844319279,0.0007981421394655272,-0.0001388135223215191,-0.0002025557989264844,-0.0004785779161526904,-0.0011929221478439314,0.0,0.0,0.0,0.0,0.0,0.0,0.0,-0.00011802849016695482,-6.630109067547879e-05,-0.00011298312330176863,8.582368478826652e-05,5.988855325725351e-05,1.9289652506415678e-05,-3.051757813565814e-06,7.58653168722451e-05,0.0009181563844319279,-0.0007981421394655272,0.0001388135223215191,0.0002025557989264844,0.0004785779161526904,0.0011929221478439314,-0.03342324495315552,18.277124404907227,-0.9696381092071533,-18.047517776489258,-0.7665916085243225,-2.2552523612976074,0.15964071452617645,0
21,0.09961533546447754,0.03342324495315552,-18.277124404907227,0.9696381092071533,18.047517776489258,0.7665916085243225,2.2552523612976074,-0.15964071452617645,0.0,0.0,0.0,0.0,0.0,0.0,0.0,0.049172776180456866,0.3356765669564413,0.1928621895554787,0.4042074306128582,0.33620905651967703,0.06222518486637945,-0.19588934377466827,-0.6089671463255296,-0.057465666094892905,-0.6664901139593142,-2.5946423607106417,-0.05568132796879725,2.5079567375712926,0.876313900462455,-0.6090851748156966,-0.05753196718556838,-0.666603097082616,-2.5945565370258534,-0.05562143941554,2.507976027223799,0.8763108487046415,-7.58653168722451e-05,-0.0009181563844319279,0.0007981421394655272,-0.0001388135223215191,-0.0002025557989264844,-0.0004785779161526904,-0.0011929221478439314,0.0,0.0,0.0,0.0,0.0,0.0,0.0,-0.00011802849016695482,-6.630109067547879e-05,-0.00011298312330176863,8.582368478826652e-05,5.988855325725351e-05,1.9289652506415678e-05,-3.051757813565814e-06,7.58653168722451e-05,0.0009181563844319279,-0.0007981421394655272,0.0001388135223215191,0.0002025557989264844,0.0004785779161526904,0.0011929221478439314,-0.03342324495315552,18.277124404907227,-0.9696381092071533,-18.047517776489258,-0.7665916085243225,-2.2552523612976074,0.15964071452617645,0
22,0.10478639602661133,0.005652248859405518,-18.352502822875977,0.9696381092071533,18.047517776489258,0.7491965889930725,2.2625765800476074,-0.22098104655742645,0.0,0.0,0.0,0.0,0.0,0.0,0.0,0.048292944766584356,0.3403735646309764,0.19201896880541552,0.40157964138159935,0.3358871056748763,0.0620577463946413,-0.19368218533446205,-0.6089652244652249,-0.057460376381351236,-0.6664901138523174,-2.5946423343688654,-0.05567722232385533,2.507955923769209,0.876320716054903,-0.6090851748156966,-0.05753196718556838,-0.666603097082616,-2.5945565370258534,-0.05562143941554,2.507976027223799,0.8763108487046415,0.00014895549093831448,0.0008251421655492929,-0.00047220863298143767,-0.00039193614278806654,0.0002287516340880656,-0.00039971844828870636,0.0007959955860197029,0.0,0.0,0.0,0.0,0.0,0.0,0.0,-0.0001199503504716315,-7.159080421714759e-05,-0.00011298323029862445,8.579734301195074e-05,5.578290831532995e-05,2.0103454589914804e-05,-9.867350261538732e-06,-0.00014895549093831448,-0.0008251421655492929,0.00047220863298143767,0.00039193614278806654,-0.0002287516340880656,0.00039971844828870636,-0.0007959955860197029,-0.005652248859405518,18.352502822875977,-0.9696381092071533,-18.047517776489258,-0.7491965889930725,-2.2625765800476074,0.22098104655742645,0
23,0.10961222648620605,0.005652248859405518,-18.352502822875977,0.9696381092071533,18.047517776489258,0.7491965889930725,2.2625765800476074,-0.22098104655742645,0.0,0.0,0.0,0.0,0.0,0.0,0.0,0.048292944766584356,0.3403735646309764,0.19201896880541552,0.40157964138159935,0.3358871056748763,0.0620577463946413,-0.19368218533446205,-0.6089652244652249,-0.057460376381351236,-0.6664901138523174,-2.5946423343688654,-0.05567722232385533,2.507955923769209,0.876320716054903,-0.6090851748156966,-0.05753196718556838,-0.666603097082616,-2.5945565370258534,-0.05562143941554,2.507976027223799,0.8763108487046415,0.00014895549093831448,0.0008251421655492929,-0.00047220863298143767,-0.00039193614278806654,0.0002287516340880656,-0.00039971844828870636,0.0007959955860197029,0.0,0.0,0.0,0.0,0.0,0.0,0.0,-0.0001199503504716315,-7.159080421714759e-05,-0.00011298323029862445,8.579734301195074e-05,5.578290831532995e-05,2.0103454589914804e-05,-9.867350261538732e-06,-0.00014895549093831448,-0.0008251421655492929,0.00047220863298143767,0.00039193614278806654,-0.0002287516340880656,0.00039971844828870636,-0.0007959955860197029,-0.005652248859405518,18.352502822875977,-0.9696381092071533,-18.047517776489258,-0.7491965889930725,-2.2625765800476074,0.22098104655742645,0
24,0.11461162567138672,0.005652248859405518,-18.352502822875977,0.9418671131134033,18.047517776489258,0.7546897530555725,2.2552523612976074,-0.21457235515117645,0.0,0.0,0.0,0.0,0.0,0.0,0.0,0.048959145831639725,0.3381194462644633,0.18805039590389339,0.40362986207814205,0.3347237275883645,0.06403631223029359,-0.19609452357432472,-0.608965197816956,-0.057460376381351236,-0.6664881650104857,-2.5946402765776333,-0.055677876419977276,2.5079567375712926,0.876316825063692,-0.6090851748156966,-0.05753196718556838,-0.666603097082616,-2.5945565370258534,-0.05562143941554,2.507976027223799,0.8763108487046415,0.00016254963152005089,-0.00013006662084103093,0.00045705771698325415,-0.00029773700770536663,0.00011597012672707237,-0.0003113450908300584,0.0011012915003838716,0.0,0.0,0.0,0.0,0.0,0.0,0.0,-0.00011997699874055634,-7.159080421714759e-05,-0.00011493207213031376,8.373955177987114e-05,5.6437004437276395e-05,1.9289652506415678e-05,-5.976359050530178e-06,-0.00016254963152005089,0.00013006662084103093,-0.00045705771698325415,0.00029773700770536663,-0.00011597012672707237,0.0003113450908300584,-0.0011012915003838716,-0.005652248859405518,18.352502822875977,-0.9418671131134033,-18.047517776489258,-0.7546897530555725,-2.2552523612976074,0.21457235515117645,0
25,0.1196131706237793,0.005652248859405518,-18.352502822875977,0.9418671131134033,18.047517776489258,0.7546897530555725,2.2552523612976074,-0.21457235515117645,0.0,0.0,0.0,0.0,0.0,0.0,0.0,0.048959145831639725,0.3381194462644633,0.18805039590389339,0.40362986207814205,0.3347237275883645,0.06403631223029359,-0.19609452357432472,-0.608965197816956,-0.057460376381351236,-0.6664881650104857,-2.5946402765776333,-0.055677876419977276,2.5079567375712926,0.876316825063692,-0.6090851748156966,-0.05753196718556838,-0.666603097082616,-2.5945565370258534,-0.05562143941554,2.507976027223799,0.8763108487046415,0.00016254963152005089,-0.00013006662084103093,0.00045705771698325415,-0.00029773700770536663,0.00011597012672707237,-0.0003113450908300584,0.0011012915003838716,0.0,0.0,0.0,0.0,0.0,0.0,0.0,-0.00011997699874055634,-7.159080421714759e-05,-0.00011493207213031376,8.373955177987114e-05,5.6437004437276395e-05,1.9289652506415678e-05,-5.976359050530178e-06,-0.00016254963152005089,0.00013006662084103093,-0.00045705771698325415,0.00029773700770536663,-0.00011597012672707237,0.0003113450908300584,-0.0011012915003838716,-0.005652248859405518,18.352502822875977,-0.9418671131134033,-18.047517776489258,-0.7546897530555725,-2.2552523612976074,0.21457235515117645,0
26,0.12461185455322266,0.05722695589065552,-18.328699111938477,1.0172455310821533,17.999910354614258,0.7665916085243225,2.2488436698913574,-0.17978231608867645,0.0,0.0,0.0,0.0,0.0,0.0,0.0,0.053001748103998866,0.33850500328426647,0.18952361235363516,0.40098166667967955,0.3343072515456244,0.06402742154053426,-0.19490473219074408,-0.6089688167613856,-0.0574620468172065,-0.6664934547240274,-2.5946392317868443,-0.055682261225410735,2.5079574496481154,0.8763161384122026,-0.6090851748156966,-0.05753196718556838,-0.666603097082616,-2.5945565370258534,-0.05562143941554,2.507976027223799,0.8763108487046415,-7.40335734626365e-05,-0.0005287962154133346,-0.00018039756360950973,0.0007619476913996529,-0.00017333390262667305,-2.080180599159158e-05,-0.0005427564078164968,0.0,0.0,0.0,0.0,0.0,0.0,0.0,-0.00011635805431098323,-6.992036836188376e-05,-0.00010964235858856863,8.269476099087569e-05,6.0821809870735544e-05,1.8577575683575986e-05,-5.289707561084711e-06,7.40335734626365e-05,0.0005287962154133346,0.00018039756360950973,-0.0007619476913996529,0.00017333390262667305,2.080180599159158e-05,0.0005427564078164968,-0.05722695589065552,18.328699111938477,-1.0172455310821533,-17.999910354614258,-0.7665916085243225,-2.2488436698913574,0.17978231608867645,0
27,0.12961077690124512,0.05722695589065552,-18.328699111938477,1.0172455310821533,17.999910354614258,0.7665916085243225,2.2488436698913574,-0.17978231608867645,0.0,0.0,0.0,0.0,0.0,0.0,0.0,0.053001748103998866,0.33850500328426647,0.18952361235363516,0.40098166667967955,0.3343072515456244,0.06402742154053426,-0.19490473219074408,-0.6089688167613856,-0.0574620468172065,-0.6664934547240274,-2.5946392317868443,-0.055682261225410735,2.5079574496481154,0.8763161384122026,-0.6090851748156966,-0.05753196718556838,-0.666603097082616,-2.5945565370258534,-0.05562143941554,2.507976027223799,0.8763108487046415,-7.40335734626365e-05,-0.0005287962154133346,-0.00018039756360950973,0.0007619476913996529,-0.00017333390262667305,-2.080180599159158e-05,-0.0005427564078164968,0.0,0.0,0.0,0.0,0.0,0.0,0.0,-0.00011635805431098323,-6.992036836188376e-05,-0.00010964235858856863,8.269476099087569e-05,6.0821809870735544e-05,1.8577575683575986e-05,-5.289707561084711e-06,7.40335734626365e-05,0.0005287962154133346,0.00018039756360950973,-0.0007619476913996529,0.00017333390262667305,2.080180599159158e-05,0.0005427564078164968,-0.05722695589065552,18.328699111938477,-1.0172455310821533,-17.999910354614258,-0.7665916085243225,-2.2488436698913574,0.17978231608867645,0
28,0.13461041450500488,0.05722695589065552,-18.328699111938477,1.0172455310821533,17.999910354614258,0.7665916085243225,2.2488436698913574,-0.17978231608867645,0.0,0.0,0.0,0.0,0.0,0.0,0.0,0.053001748103998866,0.33850500328426647,0.18952361235363516,0.40098166667967955,0.3343072515456244,0.06402742154053426,-0.19490473219074408,-0.6089688167613856,-0.0574620468172065,-0.6664934547240274,-2.5946392317868443,-0.055682261225410735,2.5079574496481154,0.8763161384122026,-0.6090851748156966,-0.05753196718556838,-0.666603097082616,-2.5945565370258534,-0.05562143941554,2.507976027223799,0.8763108487046415,-7.40335734626365e-05,-0.0005287962154133346,-0.00018039756360950973,0.0007619476913996529,-0.00017333390262667305,-2.080180599159158e-05,-0.0005427564078164968,0.0,0.0,0.0,0.0,0.0,0.0,0.0,-0.00011635805431098323,-6.992036836188376e-05,-0.00010964235858856863,8.269476099087569e-05,6.0821809870735544e-05,1.8577575683575986e-05,-5.289707561084711e-06,7.40335734626365e-05,0.0005287962154133346,0.00018039756360950973,-0.0007619476913996529,0.00017333390262667305,2.080180599159158e-05,0.0005427564078164968,-0.05722695589065552,18.328699111938477,-1.0172455310821533,-17.999910354614258,-0.7665916085243225,-2.2488436698913574,0.17978231608867645,0
29,0.1396024227142334,0.05722695589065552,-18.328699111938477,1.0172455310821533,17.999910354614258,0.7665916085243225,2.2488436698913574,-0.17978231608867645,0.0,0.0,0.0,0.0,0.0,0.0,0.0,0.053001748103998866,0.33850500328426647,0.18952361235363516,0.40098166667967955,0.3343072515456244,0.06402742154053426,-0.19490473219074408,-0.6089688167613856,-0.0574620468172065,-0.6664934547240274,-2.5946392317868443,-0.055682261225410735,2.5079574496481154,0.8763161384122026,-0.6090851748156966,-0.05753196718556838,-0.666603097082616,-2.5945565370258534,-0.05562143941554,2.507976027223799,0.8763108487046415,-7.40335734626365e-05,-0.0005287962154133346,-0.00018039756360950973,0.0007619476913996529,-0.00017333390262667305,-2.080180599159158e-05,-0.0005427564078164968,0.0,0.0,0.0,0.0,0.0,0.0,0.0,-0.00011635805431098323,-6.992036836188376e-05,-0.00010964235858856863,8.269476099087569e-05,6.0821809870735544e-05,1.8577575683575986e-05,-5.289707561084711e-06,7.40335734626365e-05,0.0005287962154133346,0.00018039756360950973,-0.0007619476913996529,0.00017333390262667305,2.080180599159158e-05,0.0005427564078164968,-0.05722695589065552,18.328699111938477,-1.0172455310821533,-17.999910354614258,-0.7665916085243225,-2.2488436698913574,0.17978231608867645,0
30,0.14461040496826172,0.05722695589065552,-18.328699111938477,1.0172455310821533,17.999910354614258,0.7665916085243225,2.2488436698913574,-0.17978231608867645,0.0,0.0,0.0,0.0,0.0,0.0,0.0,0.053001748103998866,0.33850500328426647,0.18952361235363516,0.40098166667967955,0.3343072515456244,0.06402742154053426,-0.19490473219074408,-0.6089688167613856,-0.0574620468172065,-0.6664934547240274,-2.5946392317868443,-0.055682261225410735,2.5079574496481154,0.8763161384122026,-0.6090851748156966,-0.05753196718556838,-0.666603097082616,-2.5945565370258534,-0.05562143941554,2.507976027223799,0.8763108487046415,-7.40335734626365e-05,-0.0005287962154133346,-0.00018039756360950973,0.0007619476913996529,-0.00017333390262667305,-2.080180599159158e-05,-0.0005427564078164968,0.0,0.0,0.0,0.0,0.0,0.0,0.0,-0.00011635805431098323,-6.992036836188376e-05,-0.00010964235858856863,8.269476099087569e-05,6.0821809870735544e-05,1.8577575683575986e-05,-5.289707561084711e-06,7.40335734626365e-05,0.0005287962154133346,0.00018039756360950973,-0.0007619476913996529,0.00017333390262667305,2.080180599159158e-05,0.0005427564078164968,-0.05722695589065552,18.328699111938477,-1.0172455310821533,-17.999910354614258,-0.7665916085243225,-2.2488436698913574,0.17978231608867645,0
31,0.14962124824523926,0.05722695589065552,-18.304895401000977,1.0172455310821533,18.047517776489258,0.7610984444618225,2.2552523612976074,-0.17978231608867645,0.0,0.0,0.0,0.0,0.0,0.0,0.0,0.043339813610699156,0.3349011226214157,0.1804991454714628,0.40256270701009705,0.3364173574577405,0.06210099025550297,-0.19644007977461375,-0.6089688167613849,-0.057463717253061763,-0.6664934547240274,-2.5946402794359673,-0.05568177653494837,2.5079567375712926,0.8763161384175197,-0.6090851748156966,-0.05753196718556838,-0.666603097082616,-2.5945565370258534,-0.05562143941554,2.507976027223799,0.8763108487046415,-7.990231762076866e-05,-0.00020346488123370928,-0.0001500002172437977,-0.000636930501290446,-1.3884160347897252e-05,-0.000472846964303379,-0.0006010528023254855,0.0,0.0,0.0,0.0,0.0,0.0,0.0,-0.00011635805431164936,-6.824993250661993e-05,-0.00010964235858856863,8.374241011388506e-05,6.0337119408372664e-05,1.9289652506415678e-05,-5.289712878164821e-06,7.990231762076866e-05,0.00020346488123370928,0.0001500002172437977,0.000636930501290446,1.3884160347897252e-05,0.000472846964303379,0.0006010528023254855,-0.05722695589065552,18.304895401000977,-1.0172455310821533,-18.047517776489258,-0.7610984444618225,-2.2552523612976074,0.17978231608867645,0
32,0.15462040901184082,0.05722695589065552,-18.304895401000977,1.0172455310821533,18.047517776489258,0.7610984444618225,2.2552523612976074,-0.17978231608867645,0.0,0.0,0.0,0.0,0.0,0.0,0.0,0.043339813610699156,0.3349011226214157,0.1804991454714628,0.40256270701009705,0.3364173574577405,0.06210099025550297,-0.19644007977461375,-0.6089688167613849,-0.057463717253061763,-0.6664934547240274,-2.5946402794359673,-0.05568177653494837,2.5079567375712926,0.8763161384175197,-0.6090851748156966,-0.05753196718556838,-0.666603097082616,-2.5945565370258534,-0.05562143941554,2.507976027223799,0.8763108487046415,-7.990231762076866e-05,-0.00020346488123370928,-0.0001500002172437977,-0.000636930501290446,-1.3884160347897252e-05,-0.000472846964303379,-0.0006010528023254855,0.0,0.0,0.0,0.0,0.0,0.0,0.0,-0.00011635805431164936,-6.824993250661993e-05,-0.00010964235858856863,8.374241011388506e-05,6.0337119408372664e-05,1.9289652506415678e-05,-5.289712878164821e-06,7.990231762076866e-05,0.00020346488123370928,0.0001500002172437977,0.000636930501290446,1.3884160347897252e-05,0.000472846964303379,0.0006010528023254855,-0.05722695589065552,18.304895401000977,-1.0172455310821533,-18.047517776489258,-0.7610984444618225,-2.2552523612976074,0.17978231608867645,0
33,0.15961647033691406,0.03342324495315552,-18.304895401000977,1.0172455310821533,17.999910354614258,0.7730002999305725,2.2488436698913574,-0.20724813640117645,0.0,0.0,0.0,0.0,0.0,0.0,0.0,0.0461702449828724,0.33137448029670735,0.18487537173789945,0.40310994910860665,0.33647953828065186,0.06226792870340172,-0.19578769289003067,-0.6089671463255296,-0.057463717253061763,-0.6664934547240274,-2.594639224240053,-0.05568269715524789,2.5079574496481154,0.8763191901759968,-0.6090851748156966,-0.05753196718556838,-0.666603097082616,-2.5945565370258534,-0.05562143941554,2.507976027223799,0.8763108487046415,0.00023569771353249005,-0.0009026412709097213,-0.00016161118624514155,0.0005310853630969553,-0.0005049113482992734,7.841785932776174e-05,0.0008088470284126042,0.0,0.0,0.0,0.0,0.0,0.0,0.0,-0.00011802849016695482,-6.824993250661993e-05,-0.00010964235858856863,8.268721419968372e-05,6.125773970788728e-05,1.8577575683575986e-05,-8.341471355310937e-06,-0.00023569771353249005,0.0009026412709097213,0.00016161118624514155,-0.0005310853630969553,0.0005049113482992734,-7.841785932776174e-05,-0.0008088470284126042,-0.03342324495315552,18.304895401000977,-1.0172455310821533,-17.999910354614258,-0.7730002999305725,-2.2488436698913574,0.20724813640117645,0
34,0.16461849212646484,0.03342324495315552,-18.304895401000977,1.0172455310821533,17.999910354614258,0.7730002999305725,2.2488436698913574,-0.20724813640117645,0.0,0.0,0.0,0.0,0.0,0.0,0.0,0.0461702449828724,0.33137448029670735,0.18487537173789945,0.40310994910860665,0.33647953828065186,0.06226792870340172,-0.19578769289003067,-0.6089671463255296,-0.057463717253061763,-0.6664934547240274,-2.594639224240053,-0.05568269715524789,2.5079574496481154,0.8763191901759968,-0.6090851748156966,-0.05753196718556838,-0.666603097082616,-2.5945565370258534,-0.05562143941554,2.507976027223799,0.8763108487046415,0.00023569771353249005,-0.0009026412709097213,-0.00016161118624514155,0.0005310853630969553,-0.0005049113482992734,7.841785932776174e-05,0.0008088470284126042,0.0,0.0,0.0,0.0,0.0,0.0,0.0,-0.00011802849016695482,-6.824993250661993e-05,-0.00010964235858856863,8.268721419968372e-05,6.125773970788728e-05,1.8577575683575986e-05,-8.341471355310937e-06,-0.00023569771353249005,0.0009026412709097213,0.00016161118624514155,-0.0005310853630969553,0.0005049113482992734,-7.841785932776174e-05,-0.0008088470284126042,-0.03342324495315552,18.304895401000977,-1.0172455310821533,-17.999910354614258,-0.7730002999305725,-2.2488436698913574,0.20724813640117645,0
35,0.1696162223815918,0.08103066682815552,-18.304895401000977,1.0172455310821533,17.999910354614258,0.7730002999305725,2.2552523612976074,-0.17978231608867645,0.0,0.0,0.0,0.0,0.0,0.0,0.0,0.042887427244545875,0.333081574325773,0.18544292158041276,0.40178729826950216,0.3370262689943942,0.06261661607509836,-0.19574692013823053,-0.6089704871972402,-0.057463717253061763,-0.6664934547240274,-2.5946389933933296,-0.055678806960243785,2.5079567375712926,0.8763161238826819,-0.6090851748156966,-0.05753196718556838,-0.666603097082616,-2.5945565370258534,-0.05562143941554,2.507976027223799,0.8763108487046415,-0.0009795564164312412,-0.001062040488055828,-0.0006780881175637275,0.0009664375318346459,-0.00042816821632225073,-0.00027742107695681925,-0.0012732604919668208,0.0,0.0,0.0,0.0,0.0,0.0,0.0,-0.0001146876184563439,-6.824993250661993e-05,-0.00010964235858856863,8.245636747616913e-05,5.736754470378469e-05,1.9289652506415678e-05,-5.2751780403870185e-06,0.0009795564164312412,0.001062040488055828,0.0006780881175637275,-0.0009664375318346459,0.00042816821632225073,0.00027742107695681925,0.0012732604919668208,-0.08103066682815552,18.304895401000977,-1.0172455310821533,-17.999910354614258,-0.7730002999305725,-2.2552523612976074,0.17978231608867645,0
36,0.17461419105529785,0.08103066682815552,-18.304895401000977,1.0172455310821533,17.999910354614258,0.7730002999305725,2.2552523612976074,-0.17978231608867645,0.0,0.0,0.0,0.0,0.0,0.0,0.0,0.042887427244545875,0.333081574325773,0.18544292158041276,0.40178729826950216,0.3370262689943942,0.06261661607509836,-0.19574692013823053,-0.6089704871972402,-0.057463717253061763,-0.6664934547240274,-2.5946389933933296,-0.055678806960243785,2.5079567375712926,0.8763161238826819,-0.6090851748156966,-0.05753196718556838,-0.666603097082616,-2.5945565370258534,-0.05562143941554,2.507976027223799,0.8763108487046415,-0.0009795564164312412,-0.001062040488055828,-0.0006780881175637275,0.0009664375318346459,-0.00042816821632225073,-0.00027742107695681925,-0.0012732604919668208,0.0,0.0,0.0,0.0,0.0,0.0,0.0,-0.0001146876184563439,-6.824993250661993e-05,-0.00010964235858856863,8.245636747616913e-05,5.736754470378469e-05,1.9289652506415678e-05,-5.2751780403870185e-06,0.0009795564164312412,0.001062040488055828,0.0006780881175637275,-0.0009664375318346459,0.00042816821632225073,0.00027742107695681925,0.0012732604919668208,-0.08103066682815552,18.304895401000977,-1.0172455310821533,-17.999910354614258,-0.7730002999305725,-2.2552523612976074,0.17978231608867645,0
37,0.17961478233337402,0.05722695589065552,-18.277124404907227,0.9934418201446533,18.023714065551758,0.7546897530555725,2.2488436698913574,-0.20083944499492645,0.0,0.0,0.0,0.0,0.0,0.0,0.0,0.051288321542090065,0.3433978054459239,0.19285503433603787,0.40047768052747823,0.33751325282082073,0.0625986504535663,-0.19576933419884424,-0.6089688167613849,-0.05746566641967053,-0.6664917842881721,-2.5946389321004197,-0.055677862838018066,2.5079574496481154,0.8763152991847037,-0.6090851748156966,-0.05753196718556838,-0.666603097082616,-2.5945565370258534,-0.05562143941554,2.507976027223799,0.8763108487046415,0.00016971221433269786,-0.00031934098174058926,0.00029051502986647136,0.00029188453115506504,0.00030484147774049205,-7.786505669099004e-05,0.0004935420426679765,0.0,0.0,0.0,0.0,0.0,0.0,0.0,-0.00011635805431164936,-6.630076589785039e-05,-0.0001113127944438741,8.239507456631046e-05,5.642342247806631e-05,1.8577575683575986e-05,-4.450480062256901e-06,-0.00016971221433269786,0.00031934098174058926,-0.00029051502986647136,-0.00029188453115506504,-0.00030484147774049205,7.786505669099004e-05,-0.0004935420426679765,-0.05722695589065552,18.277124404907227,-0.9934418201446533,-18.023714065551758,-0.7546897530555725,-2.2488436698913574,0.20083944499492645,0
38,0.18456292152404785,0.05722695589065552,-18.277124404907227,0.9934418201446533,18.023714065551758,0.7546897530555725,2.2488436698913574,-0.20083944499492645,0.0,0.0,0.0,0.0,0.0,0.0,0.0,0.051288321542090065,0.3433978054459239,0.19285503433603787,0.40047768052747823,0.33751325282082073,0.0625986504535663,-0.19576933419884424,-0.6089688167613849,-0.05746566641967053,-0.6664917842881721,-2.5946389321004197,-0.055677862838018066,2.5079574496481154,0.8763152991847037,-0.6090851748156966,-0.05753196718556838,-0.666603097082616,-2.5945565370258534,-0.05562143941554,2.507976027223799,0.8763108487046415,0.00016971221433269786,-0.00031934098174058926,0.00029051502986647136,0.00029188453115506504,0.00030484147774049205,-7.786505669099004e-05,0.0004935420426679765,0.0,0.0,0.0,0.0,0.0,0.0,0.0,-0.00011635805431164936,-6.630076589785039e-05,-0.0001113127944438741,8.239507456631046e-05,5.642342247806631e-05,1.8577575683575986e-05,-4.450480062256901e-06,-0.00016971221433269786,0.00031934098174058926,-0.00029051502986647136,-0.00029188453115506504,-0.00030484147774049205,7.786505669099004e-05,-0.0004935420426679765,-0.05722695589065552,18.277124404907227,-0.9934418201446533,-18.023714065551758,-0.7546897530555725,-2.2488436698913574,0.20083944499492645,0
39,0.18961405754089355,0.05722695589065552,-18.277124404907227,0.9934418201446533,18.023714065551758,0.7546897530555725,2.2488436698913574,-0.20083944499492645,0.0,0.0,0.0,0.0,0.0,0.0,0.0,0.051288321542090065,0.3433978054459239,0.19285503433603787,0.40047768052747823,0.33751325282082073,0.0625986504535663,-0.19576933419884424,-0.6089688167613849,-0.05746566641967053,-0.6664917842881721,-2.5946389321004197,-0.055677862838018066,2.5079574496481154,0.8763152991847037,-0.6090851748156966,-0.05753196718556838,-0.666603097082616,-2.5945565370258534,-0.05562143941554,2.507976027223799,0.8763108487046415,0.00016971221433269786,-0.00031934098174058926,0.00029051502986647136,0.00029188453115506504,0.00030484147774049205,-7.786505669099004e-05,0.0004935420426679765,0.0,0.0,0.0,0.0,0.0,0.0,0.0,-0.00011635805431164936,-6.630076589785039e-05,-0.0001113127944438741,8.239507456631046e-05,5.642342247806631e-05,1.8577575683575986e-05,-4.450480062256901e-06,-0.00016971221433269786,0.00031934098174058926,-0.00029051502986647136,-0.00029188453115506504,-0.00030484147774049205,7.786505669099004e-05,-0.0004935420426679765,-0.05722695589065552,18.277124404907227,-0.9934418201446533,-18.023714065551758,-0.7546897530555725,-2.2488436698913574,0.20083944499492645,0
40,0.1946120262145996,0.05722695589065552,-18.277124404907227,0.9934418201446533,18.023714065551758,0.7546897530555725,2.2488436698913574,-0.20083944499492645,0.0,0.0,0.0,0.0,0.0,0.0,0.0,0.051288321542090065,0.3433978054459239,0.19285503433603787,0.40047768052747823,0.33751325282082073,0.0625986504535663,-0.19576933419884424,-0.6089688167613849,-0.05746566641967053,-0.6664917842881721,-2.5946389321004197,-0.055677862838018066,2.5079574496481154,0.8763152991847037,-0.6090851748156966,-0.05753196718556838,-0.666603097082616,-2.5945565370258534,-0.05562143941554,2.507976027223799,0.8763108487046415,0.00016971221433269786,-0.00031934098174058926,0.00029051502986647136,0.00029188453115506504,0.00030484147774049205,-7.786505669099004e-05,0.0004935420426679765,0.0,0.0,0.0,0.0,0.0,0.0,0.0,-0.00011635805431164936,-6.630076589785039e-05,-0.0001113127944438741,8.239507456631046e-05,5.642342247806631e-05,1.8577575683575986e-05,-4.450480062256901e-06,-0.00016971221433269786,0.00031934098174058926,-0.00029051502986647136,-0.00029188453115506504,-0.00030484147774049205,7.786505669099004e-05,-0.0004935420426679765,-0.05722695589065552,18.277124404907227,-0.9934418201446533,-18.023714065551758,-0.7546897530555725,-2.2488436698913574,0.20083944499492645,0
41,0.1996173858642578,0.03342324495315552,-18.229516983032227,0.9934418201446533,18.023714065551758,0.7665916085243225,2.2424349784851074,-0.22098104655742645,0.0,0.0,0.0,0.0,0.0,0.0,0.0,0.050698250878558476,0.34987784949689543,0.19020006689279492,0.401360822176559,0.33746955624379443,0.06204298707679244,-0.19553892997106487,-0.6089671473248454,-0.057469006966605264,-0.6664917842881721,-2.5946395187112223,-0.055682273941917014,2.5079581617249382,0.876320716036958,-0.6090851748156966,-0.05753196718556838,-0.666603097082616,-2.5945565370258534,-0.05562143941554,2.507976027223799,0.8763108487046415,0.0006124947670568612,-0.0012741546192040374,0.0004771141627317586,-1.280681246550046e-05,-0.0003220589176185243,-8.842502767921922e-05,0.0006407389104164353,0.0,0.0,0.0,0.0,0.0,0.0,0.0,-0.00011802749085121356,-6.296021896311926e-05,-0.0001113127944438741,8.298168536891026e-05,6.0834526377014086e-05,1.7865498860736295e-05,-9.867332316559896e-06,-0.0006124947670568612,0.0012741546192040374,-0.0004771141627317586,1.280681246550046e-05,0.0003220589176185243,8.842502767921922e-05,-0.0006407389104164353,-0.03342324495315552,18.229516983032227,-0.9934418201446533,-18.023714065551758,-0.7665916085243225,-2.2424349784851074,0.22098104655742645,0
42,0.20470857620239258,0.03342324495315552,-18.229516983032227,0.9934418201446533,18.023714065551758,0.7665916085243225,2.2424349784851074,-0.22098104655742645,0.0,0.0,0.0,0.0,0.0,0.0,0.0,0.050698250878558476,0.34987784949689543,0.19020006689279492,0.401360822176559,0.33746955624379443,0.06204298707679244,-0.19553892997106487,-0.6089671473248454,-0.057469006966605264,-0.6664917842881721,-2.5946395187112223,-0.055682273941917014,2.5079581617249382,0.876320716036958,-0.6090851748156966,-0.05753196718556838,-0.666603097082616,-2.5945565370258534,-0.05562143941554,2.507976027223799,0.8763108487046415,0.0006124947670568612,-0.0012741546192040374,0.0004771141627317586,-1.280681246550046e-05,-0.0003220589176185243,-8.842502767921922e-05,0.0006407389104164353,0.0,0.0,0.0,0.0,0.0,0.0,0.0,-0.00011802749085121356,-6.296021896311926e-05,-0.0001113127944438741,8.298168536891026e-05,6.0834526377014086e-05,1.7865498860736295e-05,-9.867332316559896e-06,-0.0006124947670568612,0.0012741546192040374,-0.0004771141627317586,1.280681246550046e-05,0.0003220589176185243,8.842502767921922e-05,-0.0006407389104164353,-0.03342324495315552,18.229516983032227,-0.9934418201446533,-18.023714065551758,-0.7665916085243225,-2.2424349784851074,0.22098104655742645,0
43,0.20961380004882812,0.03342324495315552,-18.328699111938477,0.9696381092071533,18.023714065551758,0.7610984444618225,2.2488436698913574,-0.14590780436992645,0.0,0.0,0.0,0.0,0.0,0.0,0.0,0.04466514456599964,0.348021389969334,0.18409366044783732,0.4062121447987772,0.3372103061908395,0.06244172739079934,-0.19534577360564007,-0.6089671463255353,-0.0574620468172065,-0.6664901138523168,-2.59463890647917,-0.055681624502493865,2.5079574496481154,0.8763123745835488,-0.6090851748156966,-0.05753196718556838,-0.666603097082616,-2.5945565370258534,-0.05562143941554,2.507976027223799,0.8763108487046415,-9.42641990635367e-05,0.00022110210880257612,0.00040090154062139835,-0.00017330489346207792,4.661128505297726e-05,-0.00014383686118067175,-0.0018742527490587411,0.0,0.0,0.0,0.0,0.0,0.0,0.0,-0.00011802849016129269,-6.992036836188376e-05,-0.00011298323029917956,8.236945331674406e-05,6.018508695386504e-05,1.8577575683575986e-05,-1.5258789073380186e-06,9.42641990635367e-05,-0.00022110210880257612,-0.00040090154062139835,0.00017330489346207792,-4.661128505297726e-05,0.00014383686118067175,0.0018742527490587411,-0.03342324495315552,18.328699111938477,-0.9696381092071533,-18.023714065551758,-0.7610984444618225,-2.2488436698913574,0.14590780436992645,0
44,0.21461248397827148,0.03342324495315552,-18.328699111938477,0.9696381092071533,18.023714065551758,0.7610984444618225,2.2488436698913574,-0.14590780436992645,0.0,0.0,0.0,0.0,0.0,0.0,0.0,0.04466514456599964,0.348021389969334,0.18409366044783732,0.4062121447987772,0.3372103061908395,0.06244172739079934,-0.19534577360564007,-0.6089671463255353,-0.0574620468172065,-0.6664901138523168,-2.59463890647917,-0.055681624502493865,2.5079574496481154,0.8763123745835488,-0.6090851748156966,-0.05753196718556838,-0.666603097082616,-2.5945565370258534,-0.05562143941554,2.507976027223799,0.8763108487046415,-9.42641990635367e-05,0.00022110210880257612,0.00040090154062139835,-0.00017330489346207792,4.661128505297726e-05,-0.00014383686118067175,-0.0018742527490587411,0.0,0.0,0.0,0.0,0.0,0.0,0.0,-0.00011802849016129269,-6.992036836188376e-05,-0.00011298323029917956,8.236945331674406e-05,6.018508695386504e-05,1.8577575683575986e-05,-1.5258789073380186e-06,9.42641990635367e-05,-0.00022110210880257612,-0.00040090154062139835,0.00017330489346207792,-4.661128505297726e-05,0.00014383686118067175,0.0018742527490587411,-0.03342324495315552,18.328699111938477,-0.9696381092071533,-18.023714065551758,-0.7610984444618225,-2.2488436698913574,0.14590780436992645,0
45,0.21976566314697266,-0.018151462078094482,-18.376306533813477,0.9696381092071533,18.047517776489258,0.7665916085243225,2.2360262870788574,-0.21457235515117645,0.0,0.0,0.0,0.0,0.0,0.0,0.0,0.03828960810686575,0.34308836117305175,0.1771912047144108,0.4063030151249808,0.33751720036504684,0.06238418733151295,-0.1952642926904219,-0.6089635270478433,-0.05745870594549597,-0.6664901138523168,-2.5946405098652185,-0.055682270064828655,2.507958873801761,0.8763200039780801,-0.6090851748156966,-0.05753196718556838,-0.666603097082616,-2.5945565370258534,-0.05562143941554,2.507976027223799,0.8763108487046415,0.0011557643862647416,0.00024225810518731418,-0.0005925030590259754,-0.0004690828952257748,-0.00028960439828005987,0.0004248709030624984,0.0004479388540874633,0.0,0.0,0.0,0.0,0.0,0.0,0.0,-0.00012164776785328346,-7.326124007241142e-05,-0.00011298323029917956,8.397283936512068e-05,6.083064928865539e-05,1.7153422037896604e-05,-9.155273438588019e-06,-0.0011557643862647416,-0.00024225810518731418,0.0005925030590259754,0.0004690828952257748,0.00028960439828005987,-0.0004248709030624984,-0.0004479388540874633,0.018151462078094482,18.376306533813477,-0.9696381092071533,-18.047517776489258,-0.7665916085243225,-2.2360262870788574,0.21457235515117645,0
46,0.22472548484802246,-0.018151462078094482,-18.376306533813477,0.9696381092071533,18.047517776489258,0.7665916085243225,2.2360262870788574,-0.21457235515117645,0.0,0.0,0.0,0.0,0.0,0.0,0.0,0.03828960810686575,0.34308836117305175,0.1771912047144108,0.4063030151249808,0.33751720036504684,0.06238418733151295,-0.1952642926904219,-0.6089635270478433,-0.05745870594549597,-0.6664901138523168,-2.5946405098652185,-0.055682270064828655,2.507958873801761,0.8763200039780801,-0.6090851748156966,-0.05753196718556838,-0.666603097082616,-2.5945565370258534,-0.05562143941554,2.507976027223799,0.8763108487046415,0.0011557643862647416,0.00024225810518731418,-0.0005925030590259754,-0.0004690828952257748,-0.00028960439828005987,0.0004248709030624984,0.0004479388540874633,0.0,0.0,0.0,0.0,0.0,0.0,0.0,-0.00012164776785328346,-7.326124007241142e-05,-0.00011298323029917956,8.397283936512068e-05,6.083064928865539e-05,1.7153422037896604e-05,-9.155273438588019e-06,-0.0011557643862647416,-0.00024225810518731418,0.0005925030590259754,0.0004690828952257748,0.00028960439828005987,-0.0004248709030624984,-0.0004479388540874633,0.018151462078094482,18.376306533813477,-0.9696381092071533,-18.047517776489258,-0.7665916085243225,-2.2360262870788574,0.21457235515117645,0
47,0.22961759567260742,0.005652248859405518,-18.376306533813477,0.9696381092071533,18.071321487426758,0.7665916085243225,2.2488436698913574,-0.21457235515117645,0.0,0.0,0.0,0.0,0.0,0.0,0.0,0.04422376669148551,0.340659308694327,0.18202952799449826,0.4033180310806173,0.3362988069119109,0.062360747224829906,-0.19712622145217004,-0.6089651974836985,-0.05745870594549597,-0.6664901138523168,-2.594641972408017,-0.05567801602538643,2.5079574496481154,0.8763200038165746,-0.6090851748156966,-0.05753196718556838,-0.666603097082616,-2.5945565370258534,-0.05562143941554,2.507976027223799,0.8763108487046415,0.0004551397815157652,0.00018051210987323014,9.531570395752377e-05,-0.000594908797921181,-0.0004173703398320584,2.250154990654606e-05,0.0013803712482738223,0.0,0.0,0.0,0.0,0.0,0.0,0.0,-0.00011997733199808902,-7.326124007241142e-05,-0.00011298323029917956,8.543538216354563e-05,5.6576609846432924e-05,1.8577575683575986e-05,-9.155111933112359e-06,-0.0004551397815157652,-0.00018051210987323014,-9.531570395752377e-05,0.000594908797921181,0.0004173703398320584,-2.250154990654606e-05,-0.0013803712482738223,-0.005652248859405518,18.376306533813477,-0.9696381092071533,-18.071321487426758,-0.7665916085243225,-2.2488436698913574,0.21457235515117645,0
48,0.23462367057800293,0.005652248859405518,-18.376306533813477,0.9696381092071533,18.071321487426758,0.7665916085243225,2.2488436698913574,-0.21457235515117645,0.0,0.0,0.0,0.0,0.0,0.0,0.0,0.04422376669148551,0.340659308694327,0.18202952799449826,0.4033180310806173,0.3362988069119109,0.062360747224829906,-0.19712622145217004,-0.6089651974836985,-0.05745870594549597,-0.6664901138523168,-2.594641972408017,-0.05567801602538643,2.5079574496481154,0.8763200038165746,-0.6090851748156966,-0.05753196718556838,-0.666603097082616,-2.5945565370258534,-0.05562143941554,2.507976027223799,0.8763108487046415,0.0004551397815157652,0.00018051210987323014,9.531570395752377e-05,-0.000594908797921181,-0.0004173703398320584,2.250154990654606e-05,0.0013803712482738223,0.0,0.0,0.0,0.0,0.0,0.0,0.0,-0.00011997733199808902,-7.326124007241142e-05,-0.00011298323029917956,8.543538216354563e-05,5.6576609846432924e-05,1.8577575683575986e-05,-9.155111933112359e-06,-0.0004551397815157652,-0.00018051210987323014,-9.531570395752377e-05,0.000594908797921181,0.0004173703398320584,-2.250154990654606e-05,-0.0013803712482738223,-0.005652248859405518,18.376306533813477,-0.9696381092071533,-18.071321487426758,-0.7665916085243225,-2.2488436698913574,0.21457235515117645,0
49,0.2396104335784912,0.05722695589065552,-18.304895401000977,0.9696381092071533,18.047517776489258,0.7610984444618225,2.2488436698913574,-0.17978231608867645,0.0,0.0,0.0,0.0,0.0,0.0,0.0,0.04307148215748261,0.3327723877961818,0.1819020368025279,0.4027775123206409,0.33568814338317843,0.0627303945890831,-0.19517043087763336,-0.6089688167613849,-0.057463717253061763,-0.6664901918534568,-2.5946402682728484,-0.055681741469821466,2.5079574496481154,0.8763161384181833,-0.6090851748156966,-0.05753196718556838,-0.666603097082616,-2.5945565370258534,-0.05562143941554,2.507976027223799,0.8763108487046415,-0.00042006918888270165,-0.001242147210311764,0.0008297992649829906,-0.00010324887048006487,3.708870204878687e-05,0.00011743481000237014,-0.0014805909928659402,0.0,0.0,0.0,0.0,0.0,0.0,0.0,-0.00011635805431164936,-6.824993250661993e-05,-0.0001129052291591881,8.373124699501133e-05,6.03020542814664e-05,1.8577575683575986e-05,-5.289713541856145e-06,0.00042006918888270165,0.001242147210311764,-0.0008297992649829906,0.00010324887048006487,-3.708870204878687e-05,-0.00011743481000237014,0.0014805909928659402,-0.05722695589065552,18.304895401000977,-0.9696381092071533,-18.047517776489258,-0.7610984444618225,-2.2488436698913574,0.17978231608867645,0
50,0.24461007118225098,0.05722695589065552,-18.304895401000977,0.9696381092071533,18.047517776489258,0.7610984444618225,2.2488436698913574,-0.17978231608867645,0.0,0.0,0.0,0.0,0.0,0.0,0.0,0.04307148215748261,0.3327723877961818,0.1819020368025279,0.4027775123206409,0.33568814338317843,0.0627303945890831,-0.19517043087763336,-0.6089688167613849,-0.057463717253061763,-0.6664901918534568,-2.5946402682728484,-0.055681741469821466,2.5079574496481154,0.8763161384181833,-0.6090851748156966,-0.05753196718556838,-0.666603097082616,-2.5945565370258534,-0.05562143941554,2.507976027223799,0.8763108487046415,-0.00042006918888270165,-0.001242147210311764,0.0008297992649829906,-0.00010324887048006487,3.708870204878687e-05,0.00011743481000237014,-0.0014805909928659402,0.0,0.0,0.0,0.0,0.0,0.0,0.0,-0.00011635805431164936,-6.824993250661993e-05,-0.0001129052291591881,8.373124699501133e-05,6.03020542814664e-05,1.8577575683575986e-05,-5.289713541856145e-06,0.00042006918888270165,0.001242147210311764,-0.0008297992649829906,0.00010324887048006487,-3.708870204878687e-05,-0.00011743481000237014,0.0014805909928659402,-0.05722695589065552,18.304895401000977,-0.9696381092071533,-18.047517776489258,-0.7610984444618225,-2.2488436698913574,0.17978231608867645,0
51,0.24961090087890625,0.05722695589065552,-18.328699111938477,1.0410492420196533,18.023714065551758,0.7610984444618225,2.2552523612976074,-0.19351522624492645,0.0,0.0,0.0,0.0,0.0,0.0,0.0,0.040074547542714486,0.33733547043270196,0.1806763742026541,0.3984857002386515,0.3360758638373028,0.06208327563962959,-0.19638474271978787,-0.6089688167613849,-0.0574620468172065,-0.6664951251603229,-2.5946388271451215,-0.05568176778084489,2.5079567375712926,0.8763176205290777,-0.6090851748156966,-0.05753196718556838,-0.666603097082616,-2.5945565370258534,-0.05562143941554,2.507976027223799,0.8763108487046415,-9.571119558497909e-05,0.0008714947093780642,-0.0005796566538798528,9.801578319971835e-05,-4.640008354599761e-05,-0.00042307383747531793,0.0001971331494935241,0.0,0.0,0.0,0.0,0.0,0.0,0.0,-0.00011635805431164936,-6.992036836188376e-05,-0.00010797192229305974,8.229011926808028e-05,6.032836530488889e-05,1.9289652506415678e-05,-6.7718244362025e-06,9.571119558497909e-05,-0.0008714947093780642,0.0005796566538798528,-9.801578319971835e-05,4.640008354599761e-05,0.00042307383747531793,-0.0001971331494935241,-0.05722695589065552,18.328699111938477,-1.0410492420196533,-18.023714065551758,-0.7610984444618225,-2.2552523612976074,0.19351522624492645,0
52,0.2546103000640869,0.05722695589065552,-18.328699111938477,1.0410492420196533,18.023714065551758,0.7610984444618225,2.2552523612976074,-0.19351522624492645,0.0,0.0,0.0,0.0,0.0,0.0,0.0,0.040074547542714486,0.33733547043270196,0.1806763742026541,0.3984857002386515,0.3360758638373028,0.06208327563962959,-0.19638474271978787,-0.6089688167613849,-0.0574620468172065,-0.6664951251603229,-2.5946388271451215,-0.05568176778084489,2.5079567375712926,0.8763176205290777,-0.6090851748156966,-0.05753196718556838,-0.666603097082616,-2.5945565370258534,-0.05562143941554,2.507976027223799,0.8763108487046415,-9.571119558497909e-05,0.0008714947093780642,-0.0005796566538798528,9.801578319971835e-05,-4.640008354599761e-05,-0.00042307383747531793,0.0001971331494935241,0.0,0.0,0.0,0.0,0.0,0.0,0.0,-0.00011635805431164936,-6.992036836188376e-05,-0.00010797192229305974,8.229011926808028e-05,6.032836530488889e-05,1.9289652506415678e-05,-6.7718244362025e-06,9.571119558497909e-05,-0.0008714947093780642,0.0005796566538798528,-9.801578319971835e-05,4.640008354599761e-05,0.00042307383747531793,-0.0001971331494935241,-0.05722695589065552,18.328699111938477,-1.0410492420196533,-18.023714065551758,-0.7610984444618225,-2.2552523612976074,0.19351522624492645,0
53,0.2596094608306885,0.005652248859405518,-18.253320693969727,0.9934418201446533,17.999910354614258,0.7610984444618225,2.2360262870788574,-0.17337362468242645,0.0,0.0,0.0,0.0,0.0,0.0,0.0,0.04549782350308072,0.34133581457153356,0.18938862271254403,0.4023635577893783,0.33596927780228786,0.06214619878172425,-0.1963476724228926,-0.6089651974836985,-0.05746733653074817,-0.6664917842881721,-2.59463764139689,-0.055677522016747076,2.507958873801761,0.8763154263411144,-0.6090851748156966,-0.05753196718556838,-0.666603097082616,-2.5945565370258534,-0.05562143941554,2.507976027223799,0.8763108487046415,0.0018489926347839561,2.463790488850709e-05,0.0008242684439827337,0.0007678493301020346,-1.8043587873472413e-06,0.0003606035777143919,-0.0008051024224478457,0.0,0.0,0.0,0.0,0.0,0.0,0.0,-0.00011997733199808902,-6.463065482021496e-05,-0.0001113127944438741,8.110437103647783e-05,5.6082601207076144e-05,1.7153422037896604e-05,-4.577636472880009e-06,-0.0018489926347839561,-2.463790488850709e-05,-0.0008242684439827337,-0.0007678493301020346,1.8043587873472413e-06,-0.0003606035777143919,0.0008051024224478457,-0.005652248859405518,18.253320693969727,-0.9934418201446533,-17.999910354614258,-0.7610984444618225,-2.2360262870788574,0.17337362468242645,0
54,0.2657308578491211,0.005652248859405518,-18.253320693969727,0.9934418201446533,17.999910354614258,0.7610984444618225,2.2360262870788574,-0.17337362468242645,0.0,0.0,0.0,0.0,0.0,0.0,0.0,0.04549782350308072,0.34133581457153356,0.18938862271254403,0.4023635577893783,0.33596927780228786,0.06214619878172425,-0.1963476724228926,-0.6089651974836985,-0.05746733653074817,-0.6664917842881721,-2.59463764139689,-0.055677522016747076,2.507958873801761,0.8763154263411144,-0.6090851748156966,-0.05753196718556838,-0.666603097082616,-2.5945565370258534,-0.05562143941554,2.507976027223799,0.8763108487046415,0.0018489926347839561,2.463790488850709e-05,0.0008242684439827337,0.0007678493301020346,-1.8043587873472413e-06,0.0003606035777143919,-0.0008051024224478457,0.0,0.0,0.0,0.0,0.0,0.0,0.0,-0.00011997733199808902,-6.463065482021496e-05,-0.0001113127944438741,8.110437103647783e-05,5.6082601207076144e-05,1.7153422037896604e-05,-4.577636472880009e-06,-0.0018489926347839561,-2.463790488850709e-05,-0.0008242684439827337,-0.0007678493301020346,1.8043587873472413e-06,-0.0003606035777143919,0.0008051024224478457,-0.005652248859405518,18.253320693969727,-0.9934418201446533,-17.999910354614258,-0.7610984444618225,-2.2360262870788574,0.17337362468242645,0
55,0.2696084976196289,0.005652248859405518,-18.253320693969727,0.9934418201446533,17.999910354614258,0.7610984444618225,2.2360262870788574,-0.17337362468242645,0.0,0.0,0.0,0.0,0.0,0.0,0.0,0.04549782350308072,0.34133581457153356,0.18938862271254403,0.4023635577893783,0.33596927780228786,0.06214619878172425,-0.1963476724228926,-0.6089651974836985,-0.05746733653074817,-0.6664917842881721,-2.59463764139689,-0.055677522016747076,2.507958873801761,0.8763154263411144,-0.6090851748156966,-0.05753196718556838,-0.666603097082616,-2.5945565370258534,-0.05562143941554,2.507976027223799,0.8763108487046415,0.0018489926347839561,2.463790488850709e-05,0.0008242684439827337,0.0007678493301020346,-1.8043587873472413e-06,0.0003606035777143919,-0.0008051024224478457,0.0,0.0,0.0,0.0,0.0,0.0,0.0,-0.00011997733199808902,-6.463065482021496e-05,-0.0001113127944438741,8.110437103647783e-05,5.6082601207076144e-05,1.7153422037896604e-05,-4.577636472880009e-06,-0.0018489926347839561,-2.463790488850709e-05,-0.0008242684439827337,-0.0007678493301020346,1.8043587873472413e-06,-0.0003606035777143919,0.0008051024224478457,-0.005652248859405518,18.253320693969727,-0.9934418201446533,-17.999910354614258,-0.7610984444618225,-2.2360262870788574,0.17337362468242645,0
56,0.27463459968566895,0.005652248859405518,-18.253320693969727,0.9934418201446533,17.999910354614258,0.7610984444618225,2.2360262870788574,-0.17337362468242645,0.0,0.0,0.0,0.0,0.0,0.0,0.0,0.04549782350308072,0.34133581457153356,0.18938862271254403,0.4023635577893783,0.33596927780228786,0.06214619878172425,-0.1963476724228926,-0.6089651974836985,-0.05746733653074817,-0.6664917842881721,-2.59463764139689,-0.055677522016747076,2.507958873801761,0.8763154263411144,-0.6090851748156966,-0.05753196718556838,-0.666603097082616,-2.5945565370258534,-0.05562143941554,2.507976027223799,0.8763108487046415,0.0018489926347839561,2.463790488850709e-05,0.0008242684439827337,0.0007678493301020346,-1.8043587873472413e-06,0.0003606035777143919,-0.0008051024224478457,0.0,0.0,0.0,0.0,0.0,0.0,0.0,-0.00011997733199808902,-6.463065482021496e-05,-0.0001113127944438741,8.110437103647783e-05,5.6082601207076144e-05,1.7153422037896604e-05,-4.577636472880009e-06,-0.0018489926347839561,-2.463790488850709e-05,-0.0008242684439827337,-0.0007678493301020346,1.8043587873472413e-06,-0.0003606035777143919,0.0008051024224478457,-0.005652248859405518,18.253320693969727,-0.9934418201446533,-17.999910354614258,-0.7610984444618225,-2.2360262870788574,0.17337362468242645,0
57,0.27962660789489746,0.03342324495315552,-18.328699111938477,0.9934418201446533,18.047517776489258,0.7665916085243225,2.2488436698913574,-0.22830526530742645,0.0,0.0,0.0,0.0,0.0,0.0,0.0,0.04451876965446919,0.34776675927184036,0.1841826701051008,0.4128776109339195,0.33649729076382057,0.06400982837942476,-0.19389160327789554,-0.6089671463269004,-0.0574620468172065,-0.6664917842881721,-2.5946412206742036,-0.05568239273625081,2.5079574496481154,0.8763215298569863,-0.6090851748156966,-0.05753196718556838,-0.666603097082616,-2.5945565370258534,-0.05562143941554,2.507976027223799,0.8763108487046415,0.00028468052404616084,-0.00022994227001054933,-3.092255849955372e-05,-9.219361802223495e-05,-0.00012840162067933187,-5.5024171636098014e-05,0.0015905515528636656,0.0,0.0,0.0,0.0,0.0,0.0,0.0,-0.00011802848879616246,-6.992036836188376e-05,-0.0001113127944438741,8.468364835012565e-05,6.095332071080761e-05,1.8577575683575986e-05,-1.0681152344815814e-05,-0.00028468052404616084,0.00022994227001054933,3.092255849955372e-05,9.219361802223495e-05,0.00012840162067933187,5.5024171636098014e-05,-0.0015905515528636656,-0.03342324495315552,18.328699111938477,-0.9934418201446533,-18.047517776489258,-0.7665916085243225,-2.2488436698913574,0.22830526530742645,0
58,0.28462672233581543,0.03342324495315552,-18.328699111938477,0.9934418201446533,18.047517776489258,0.7665916085243225,2.2488436698913574,-0.22830526530742645,0.0,0.0,0.0,0.0,0.0,0.0,0.0,0.04451876965446919,0.34776675927184036,0.1841826701051008,0.4128776109339195,0.33649729076382057,0.06400982837942476,-0.19389160327789554,-0.6089671463269004,-0.0574620468172065,-0.6664917842881721,-2.5946412206742036,-0.05568239273625081,2.5079574496481154,0.8763215298569863,-0.6090851748156966,-0.05753196718556838,-0.666603097082616,-2.5945565370258534,-0.05562143941554,2.507976027223799,0.8763108487046415,0.00028468052404616084,-0.00022994227001054933,-3.092255849955372e-05,-9.219361802223495e-05,-0.00012840162067933187,-5.5024171636098014e-05,0.0015905515528636656,0.0,0.0,0.0,0.0,0.0,0.0,0.0,-0.00011802848879616246,-6.992036836188376e-05,-0.0001113127944438741,8.468364835012565e-05,6.095332071080761e-05,1.8577575683575986e-05,-1.0681152344815814e-05,-0.00028468052404616084,0.00022994227001054933,3.092255849955372e-05,9.219361802223495e-05,0.00012840162067933187,5.5024171636098014e-05,-0.0015905515528636656,-0.03342324495315552,18.328699111938477,-0.9934418201446533,-18.047517776489258,-0.7665916085243225,-2.2488436698913574,0.22830526530742645,0
59,0.2896144390106201,0.05722695589065552,-18.376306533813477,0.9696381092071533,17.972139358520508,0.7730002999305725,2.2424349784851074,-0.15231649577617645,0.0,0.0,0.0,0.0,0.0,0.0,0.0,0.04674115585958668,0.3515539733039095,0.18224356052741125,0.4076006361699162,0.33660947402440894,0.06325032945467789,-0.1931599751826398,-0.6089688167613849,-0.05745870594549597,-0.6664901138523168,-2.5946356708985503,-0.05568298198028018,2.5079581617249382,0.8763120270222424,-0.6090851748156966,-0.05753196718556838,-0.666603097082616,-2.5945565370258534,-0.05562143941554,2.507976027223799,0.8763108487046415,-0.00027200770592311104,0.00040872937892588745,0.0003184970031107573,0.0016899879530566475,-0.00041476475054753973,0.0003075538423428571,-0.0013252306681515197,0.0,0.0,0.0,0.0,0.0,0.0,0.0,-0.00011635805431164936,-7.326124007241142e-05,-0.00011298323029917956,7.913387269686822e-05,6.154256474018294e-05,1.7865498860736295e-05,-1.1783176009361185e-06,0.00027200770592311104,-0.00040872937892588745,-0.0003184970031107573,-0.0016899879530566475,0.00041476475054753973,-0.0003075538423428571,0.0013252306681515197,-0.05722695589065552,18.376306533813477,-0.9696381092071533,-17.972139358520508,-0.7730002999305725,-2.2424349784851074,0.15231649577617645,0
60,0.29461002349853516,0.05722695589065552,-18.376306533813477,0.9696381092071533,17.972139358520508,0.7730002999305725,2.2424349784851074,-0.15231649577617645,0.0,0.0,0.0,0.0,0.0,0.0,0.0,0.04674115585958668,0.3515539733039095,0.18224356052741125,0.4076006361699162,0.33660947402440894,0.06325032945467789,-0.1931599751826398,-0.6089688167613849,-0.05745870594549597,-0.6664901138523168,-2.5946356708985503,-0.05568298198028018,2.5079581617249382,0.8763120270222424,-0.6090851748156966,-0.05753196718556838,-0.666603097082616,-2.5945565370258534,-0.05562143941554,2.507976027223799,0.8763108487046415,-0.00027200770592311104,0.00040872937892588745,0.0003184970031107573,0.0016899879530566475,-0.00041476475054753973,0.0003075538423428571,-0.0013252306681515197,0.0,0.0,0.0,0.0,0.0,0.0,0.0,-0.00011635805431164936,-7.326124007241142e-05,-0.00011298323029917956,7.913387269686822e-05,6.154256474018294e-05,1.7865498860736295e-05,-1.1783176009361185e-06,0.00027200770592311104,-0.00040872937892588745,-0.0003184970031107573,-0.0016899879530566475,0.00041476475054753973,-0.0003075538423428571,0.0013252306681515197,-0.05722695589065552,18.376306533813477,-0.9696381092071533,-17.972139358520508,-0.7730002999305725,-2.2424349784851074,0.15231649577617645,0
61,0.2996096611022949,0.05722695589065552,-18.352502822875977,1.0172455310821533,18.023714065551758,0.7665916085243225,2.2552523612976074,-0.23471395671367645,0.0,0.0,0.0,0.0,0.0,0.0,0.0,0.05297376268025021,0.34815360659859884,0.18711451186501224,0.40571123978923185,0.3365910704633098,0.06354905102833916,-0.19293665174185642,-0.6089688167613849,-0.057460376381351236,-0.6664934547240274,-2.5946406666545507,-0.0556781294469711,2.5079567375712926,0.8763210645521283,-0.6090851748156966,-0.05753196718556838,-0.666603097082616,-2.5945565370258534,-0.05562143941554,2.507976027223799,0.8763108487046415,-0.00030475233908743954,0.0002117817873173615,6.904854844312938e-05,0.00013482814219975013,-0.0001271419710352167,-0.0002758292109427867,0.0014533978321688737,0.0,0.0,0.0,0.0,0.0,0.0,0.0,-0.00011635805431164936,-7.159080421714759e-05,-0.00010964235858856863,8.412962869730478e-05,5.669003143109891e-05,1.9289652506415678e-05,-1.021584748683857e-05,0.00030475233908743954,-0.0002117817873173615,-6.904854844312938e-05,-0.00013482814219975013,0.0001271419710352167,0.0002758292109427867,-0.0014533978321688737,-0.05722695589065552,18.352502822875977,-1.0172455310821533,-18.023714065551758,-0.7665916085243225,-2.2552523612976074,0.23471395671367645,0
62,0.3046128749847412,0.05722695589065552,-18.352502822875977,1.0172455310821533,18.023714065551758,0.7665916085243225,2.2552523612976074,-0.23471395671367645,0.0,0.0,0.0,0.0,0.0,0.0,0.0,0.05297376268025021,0.34815360659859884,0.18711451186501224,0.40571123978923185,0.3365910704633098,0.06354905102833916,-0.19293665174185642,-0.6089688167613849,-0.057460376381351236,-0.6664934547240274,-2.5946406666545507,-0.0556781294469711,2.5079567375712926,0.8763210645521283,-0.6090851748156966,-0.05753196718556838,-0.666603097082616,-2.5945565370258534,-0.05562143941554,2.507976027223799,0.8763108487046415,-0.00030475233908743954,0.0002117817873173615,6.904854844312938e-05,0.00013482814219975013,-0.0001271419710352167,-0.0002758292109427867,0.0014533978321688737,0.0,0.0,0.0,0.0,0.0,0.0,0.0,-0.00011635805431164936,-7.159080421714759e-05,-0.00010964235858856863,8.412962869730478e-05,5.669003143109891e-05,1.9289652506415678e-05,-1.021584748683857e-05,0.00030475233908743954,-0.0002117817873173615,-6.904854844312938e-05,-0.00013482814219975013,0.0001271419710352167,0.0002758292109427867,-0.0014533978321688737,-0.05722695589065552,18.352502822875977,-1.0172455310821533,-18.023714065551758,-0.7665916085243225,-2.2552523612976074,0.23471395671367645,0
63,0.30961084365844727,0.05722695589065552,-18.352502822875977,1.0172455310821533,18.023714065551758,0.7665916085243225,2.2552523612976074,-0.23471395671367645,0.0,0.0,0.0,0.0,0.0,0.0,0.0,0.05297376268025021,0.34815360659859884,0.18711451186501224,0.40571123978923185,0.3365910704633098,0.06354905102833916,-0.19293665174185642,-0.6089688167613849,-0.057460376381351236,-0.6664934547240274,-2.5946406666545507,-0.0556781294469711,2.5079567375712926,0.8763210645521283,-0.6090851748156966,-0.05753196718556838,-0.666603097082616,-2.5945565370258534,-0.05562143941554,2.507976027223799,0.8763108487046415,-0.00030475233908743954,0.0002117817873173615,6.904854844312938e-05,0.00013482814219975013,-0.0001271419710352167,-0.0002758292109427867,0.0014533978321688737,0.0,0.0,0.0,0.0,0.0,0.0,0.0,-0.00011635805431164936,-7.159080421714759e-05,-0.00010964235858856863,8.412962869730478e-05,5.669003143109891e-05,1.9289652506415678e-05,-1.021584748683857e-05,0.00030475233908743954,-0.0002117817873173615,-6.904854844312938e-05,-0.00013482814219975013,0.0001271419710352167,0.0002758292109427867,-0.0014533978321688737,-0.05722695589065552,18.352502822875977,-1.0172455310821533,-18.023714065551758,-0.7665916085243225,-2.2552523612976074,0.23471395671367645,0
64,0.3146076202392578,0.05722695589065552,-18.352502822875977,1.0172455310821533,18.023714065551758,0.7665916085243225,2.2552523612976074,-0.23471395671367645,0.0,0.0,0.0,0.0,0.0,0.0,0.0,0.05297376268025021,0.34815360659859884,0.18711451186501224,0.40571123978923185,0.3365910704633098,0.06354905102833916,-0.19293665174185642,-0.6089688167613849,-0.057460376381351236,-0.6664934547240274,-2.5946406666545507,-0.0556781294469711,2.5079567375712926,0.8763210645521283,-0.6090851748156966,-0.05753196718556838,-0.666603097082616,-2.5945565370258534,-0.05562143941554,2.507976027223799,0.8763108487046415,-0.00030475233908743954,0.0002117817873173615,6.904854844312938e-05,0.00013482814219975013,-0.0001271419710352167,-0.0002758292109427867,0.0014533978321688737,0.0,0.0,0.0,0.0,0.0,0.0,0.0,-0.00011635805431164936,-7.159080421714759e-05,-0.00010964235858856863,8.412962869730478e-05,5.669003143109891e-05,1.9289652506415678e-05,-1.021584748683857e-05,0.00030475233908743954,-0.0002117817873173615,-6.904854844312938e-05,-0.00013482814219975013,0.0001271419710352167,0.0002758292109427867,-0.0014533978321688737,-0.05722695589065552,18.352502822875977,-1.0172455310821533,-18.023714065551758,-0.7665916085243225,-2.2552523612976074,0.23471395671367645,0
65,0.31961750984191895,0.03342324495315552,-18.328699111938477,0.9934418201446533,18.023714065551758,0.7730002999305725,2.2424349784851074,-0.20083944499492645,0.0,0.0,0.0,0.0,0.0,0.0,0.0,0.04466000863375013,0.3413555470517137,0.18375560511958516,0.40186623470439553,0.33700852675562876,0.06346135897906993,-0.19492463158049136,-0.6089671463255296,-0.0574620468172065,-0.6664917842881721,-2.5946396192205547,-0.05568298163168851,2.5079581617249382,0.8763184780925275,-0.6090851748156966,-0.05753196718556838,-0.666603097082616,-2.5945565370258534,-0.05562143941554,2.507976027223799,0.8763108487046415,0.0003236387813957007,-9.316833179191556e-05,0.0002482702502031524,-1.8158666746431898e-05,-0.0003505579633967066,0.00032051253774201656,0.000258564416266167,0.0,0.0,0.0,0.0,0.0,0.0,0.0,-0.00011802849016695482,-6.992036836188376e-05,-0.0001113127944438741,8.308219470132272e-05,6.154221614851352e-05,1.7865498860736295e-05,-7.629387886010086e-06,-0.0003236387813957007,9.316833179191556e-05,-0.0002482702502031524,1.8158666746431898e-05,0.0003505579633967066,-0.00032051253774201656,-0.000258564416266167,-0.03342324495315552,18.328699111938477,-0.9934418201446533,-18.023714065551758,-0.7730002999305725,-2.2424349784851074,0.20083944499492645,0
66,0.32462167739868164,0.03342324495315552,-18.328699111938477,0.9934418201446533,18.023714065551758,0.7730002999305725,2.2424349784851074,-0.20083944499492645,0.0,0.0,0.0,0.0,0.0,0.0,0.0,0.04466000863375013,0.3413555470517137,0.18375560511958516,0.40186623470439553,0.33700852675562876,0.06346135897906993,-0.19492463158049136,-0.6089671463255296,-0.0574620468172065,-0.6664917842881721,-2.5946396192205547,-0.05568298163168851,2.5079581617249382,0.8763184780925275,-0.6090851748156966,-0.05753196718556838,-0.666603097082616,-2.5945565370258534,-0.05562143941554,2.507976027223799,0.8763108487046415,0.0003236387813957007,-9.316833179191556e-05,0.0002482702502031524,-1.8158666746431898e-05,-0.0003505579633967066,0.00032051253774201656,0.000258564416266167,0.0,0.0,0.0,0.0,0.0,0.0,0.0,-0.00011802849016695482,-6.992036836188376e-05,-0.0001113127944438741,8.308219470132272e-05,6.154221614851352e-05,1.7865498860736295e-05,-7.629387886010086e-06,-0.0003236387813957007,9.316833179191556e-05,-0.0002482702502031524,1.8158666746431898e-05,0.0003505579633967066,-0.00032051253774201656,-0.000258564416266167,-0.03342324495315552,18.328699111938477,-0.9934418201446533,-18.023714065551758,-0.7730002999305725,-2.2424349784851074,0.20083944499492645,0
67,0.32961153984069824,0.005652248859405518,-18.328699111938477,0.9418671131134033,18.071321487426758,0.7491965889930725,2.2488436698913574,-0.16604940593242645,0.0,0.0,0.0,0.0,0.0,0.0,0.0,0.036690311270324884,0.3339860657925577,0.17668413355192875,0.40538466636565845,0.33792539621734874,0.06371138908957094,-0.19481967791569396,-0.6089652064775406,-0.05746275710589007,-0.6664883990139059,-2.5946426356673964,-0.05567604381561404,2.5079574496481154,0.8763146120547612,-0.6090851748156966,-0.05753196718556838,-0.666603097082616,-2.5945565370258534,-0.05562143941554,2.507976027223799,0.8763108487046415,0.0004336491913585949,-0.00034135580628820217,0.0003608389834991055,-0.0007212394010981772,0.0004394911949484691,-0.00015421226657978131,-0.001363523680949046,0.0,0.0,0.0,0.0,0.0,0.0,0.0,-0.00011996833815597352,-6.921007967831266e-05,-0.00011469806871011734,8.609864154296432e-05,5.46044000740431e-05,1.8577575683575986e-05,-3.763350119756481e-06,-0.0004336491913585949,0.00034135580628820217,-0.0003608389834991055,0.0007212394010981772,-0.0004394911949484691,0.00015421226657978131,0.001363523680949046,-0.005652248859405518,18.328699111938477,-0.9418671131134033,-18.071321487426758,-0.7491965889930725,-2.2488436698913574,0.16604940593242645,0
68,0.3346076011657715,0.005652248859405518,-18.328699111938477,0.9418671131134033,18.071321487426758,0.7491965889930725,2.2488436698913574,-0.16604940593242645,0.0,0.0,0.0,0.0,0.0,0.0,0.0,0.036690311270324884,0.3339860657925577,0.17668413355192875,0.40538466636565845,0.33792539621734874,0.06371138908957094,-0.19481967791569396,-0.6089652064775406,-0.05746275710589007,-0.6664883990139059,-2.5946426356673964,-0.05567604381561404,2.5079574496481154,0.8763146120547612,-0.6090851748156966,-0.05753196718556838,-0.666603097082616,-2.5945565370258534,-0.05562143941554,2.507976027223799,0.8763108487046415,0.0004336491913585949,-0.00034135580628820217,0.0003608389834991055,-0.0007212394010981772,0.0004394911949484691,-0.00015421226657978131,-0.001363523680949046,0.0,0.0,0.0,0.0,0.0,0.0,0.0,-0.00011996833815597352,-6.921007967831266e-05,-0.00011469806871011734,8.609864154296432e-05,5.46044000740431e-05,1.8577575683575986e-05,-3.763350119756481e-06,-0.0004336491913585949,0.00034135580628820217,-0.0003608389834991055,0.0007212394010981772,-0.0004394911949484691,0.00015421226657978131,0.001363523680949046,-0.005652248859405518,18.328699111938477,-0.9418671131134033,-18.071321487426758,-0.7491965889930725,-2.2488436698913574,0.16604940593242645,0
69,0.3396146297454834,0.03342324495315552,-18.328699111938477,0.9696381092071533,18.047517776489258,0.7610984444618225,2.2424349784851074,-0.22098104655742645,0.0,0.0,0.0,0.0,0.0,0.0,0.0,0.0453701881841502,0.3397117551746345,0.17849602018459557,0.40261161292745695,0.3369064147133786,0.06222490539873353,-0.1959673846159627,-0.6089671493234939,-0.05746204681854303,-0.6664901138527571,-2.594641060022788,-0.055680360901587074,2.5079581617249382,0.8763207160549021,-0.6090851748156966,-0.05753196718556838,-0.666603097082616,-2.5945565370258534,-0.05562143941554,2.507976027223799,0.8763108487046415,-0.0002682062334560452,0.0002211474404440921,0.0001963908757833924,-0.00029163584578122343,0.00010276679253049056,0.0001772831889427865,0.0011463947240291596,0.0,0.0,0.0,0.0,0.0,0.0,0.0,-0.00011802549220263359,-6.992036702535565e-05,-0.00011298322985886511,8.452299693439969e-05,5.892148604707409e-05,1.7865498860736295e-05,-9.867350260650554e-06,0.0002682062334560452,-0.0002211474404440921,-0.0001963908757833924,0.00029163584578122343,-0.00010276679253049056,-0.0001772831889427865,-0.0011463947240291596,-0.03342324495315552,18.328699111938477,-0.9696381092071533,-18.047517776489258,-0.7610984444618225,-2.2424349784851074,0.22098104655742645,0
70,0.34460997581481934,0.03342324495315552,-18.328699111938477,0.9696381092071533,18.047517776489258,0.7610984444618225,2.2424349784851074,-0.22098104655742645,0.0,0.0,0.0,0.0,0.0,0.0,0.0,0.0453701881841502,0.3397117551746345,0.17849602018459557,0.40261161292745695,0.3369064147133786,0.06222490539873353,-0.1959673846159627,-0.6089671493234939,-0.05746204681854303,-0.6664901138527571,-2.594641060022788,-0.055680360901587074,2.5079581617249382,0.8763207160549021,-0.6090851748156966,-0.05753196718556838,-0.666603097082616,-2.5945565370258534,-0.05562143941554,2.507976027223799,0.8763108487046415,-0.0002682062334560452,0.0002211474404440921,0.0001963908757833924,-0.00029163584578122343,0.00010276679253049056,0.0001772831889427865,0.0011463947240291596,0.0,0.0,0.0,0.0,0.0,0.0,0.0,-0.00011802549220263359,-6.992036702535565e-05,-0.00011298322985886511,8.452299693439969e-05,5.892148604707409e-05,1.7865498860736295e-05,-9.867350260650554e-06,0.0002682062334560452,-0.0002211474404440921,-0.0001963908757833924,0.00029163584578122343,-0.00010276679253049056,-0.0001772831889427865,-0.0011463947240291596,-0.03342324495315552,18.328699111938477,-0.9696381092071533,-18.047517776489258,-0.7610984444618225,-2.2424349784851074,0.22098104655742645,0
71,0.3496072292327881,0.03342324495315552,-18.304895401000977,0.9696381092071533,18.023714065551758,0.7610984444618225,2.2488436698913574,-0.17978231608867645,0.0,0.0,0.0,0.0,0.0,0.0,0.0,0.048557040369826984,0.33869729975278584,0.18032208337053318,0.403393338443721,0.3370426365016846,0.06251323857749125,-0.19510207858696502,-0.6089671463255465,-0.05746371725306177,-0.6664901138523168,-2.5946385978412723,-0.05568071723063063,2.5079574496481154,0.8763160977187774,-0.6090851748156966,-0.05753196718556838,-0.666603097082616,-2.5945565370258534,-0.05562143941554,2.507976027223799,0.8763108487046415,0.0005392366871213585,-0.0006349920046750319,0.0008495505123124476,0.00021642432069506683,2.0222490915080075e-05,-0.00014938437669723313,-0.0006052471394827387,0.0,0.0,0.0,0.0,0.0,0.0,0.0,-0.00011802849015007943,-6.824993250661299e-05,-0.00011298323029917956,8.206081541883847e-05,5.927781509063035e-05,1.8577575683575986e-05,-5.249014135899621e-06,-0.0005392366871213585,0.0006349920046750319,-0.0008495505123124476,-0.00021642432069506683,-2.0222490915080075e-05,0.00014938437669723313,0.0006052471394827387,-0.03342324495315552,18.304895401000977,-0.9696381092071533,-18.023714065551758,-0.7610984444618225,-2.2488436698913574,0.17978231608867645,0
72,0.35460948944091797,0.03342324495315552,-18.304895401000977,0.9696381092071533,18.023714065551758,0.7610984444618225,2.2488436698913574,-0.17978231608867645,0.0,0.0,0.0,0.0,0.0,0.0,0.0,0.048557040369826984,0.33869729975278584,0.18032208337053318,0.403393338443721,0.3370426365016846,0.06251323857749125,-0.19510207858696502,-0.6089671463255465,-0.05746371725306177,-0.6664901138523168,-2.5946385978412723,-0.05568071723063063,2.5079574496481154,0.8763160977187774,-0.6090851748156966,-0.05753196718556838,-0.666603097082616,-2.5945565370258534,-0.05562143941554,2.507976027223799,0.8763108487046415,0.0005392366871213585,-0.0006349920046750319,0.0008495505123124476,0.00021642432069506683,2.0222490915080075e-05,-0.00014938437669723313,-0.0006052471394827387,0.0,0.0,0.0,0.0,0.0,0.0,0.0,-0.00011802849015007943,-6.824993250661299e-05,-0.00011298323029917956,8.206081541883847e-05,5.927781509063035e-05,1.8577575683575986e-05,-5.249014135899621e-06,-0.0005392366871213585,0.0006349920046750319,-0.0008495505123124476,-0.00021642432069506683,-2.0222490915080075e-05,0.00014938437669723313,0.0006052471394827387,-0.03342324495315552,18.304895401000977,-0.9696381092071533,-18.023714065551758,-0.7610984444618225,-2.2488436698913574,0.17978231608867645,0
73,0.3596174716949463,0.05722695589065552,-18.304895401000977,0.9934418201446533,18.047517776489258,0.7546897530555725,2.2360262870788574,-0.22098104655742645,0.0,0.0,0.0,0.0,0.0,0.0,0.0,0.05099827801518052,0.33927505473544023,0.18408019709767437,0.4071504783606734,0.3371957290318213,0.06365822814936983,-0.19635483627999825,-0.608968825755227,-0.057463717253061763,-0.6664917842881721,-2.594640982652228,-0.05568070905115286,2.507958873801761,0.8763207160546733,-0.6090851748156966,-0.05753196718556838,-0.666603097082616,-2.5945565370258534,-0.05562143941554,2.507976027223799,0.8763108487046415,0.0006671825202812208,-0.00037780417998215123,0.0010510823684894174,-0.00017140912050350794,4.475133504905952e-05,0.00039120441901072453,0.0010812195909932606,0.0,0.0,0.0,0.0,0.0,0.0,0.0,-0.00011634906046953386,-6.824993250661993e-05,-0.0001113127944438741,8.444562637466291e-05,5.926963561286164e-05,1.7153422037896604e-05,-9.867350031833588e-06,-0.0006671825202812208,0.00037780417998215123,-0.0010510823684894174,0.00017140912050350794,-4.475133504905952e-05,-0.00039120441901072453,-0.0010812195909932606,-0.05722695589065552,18.304895401000977,-0.9934418201446533,-18.047517776489258,-0.7546897530555725,-2.2360262870788574,0.22098104655742645,0
74,0.36463022232055664,0.05722695589065552,-18.304895401000977,0.9934418201446533,18.047517776489258,0.7546897530555725,2.2360262870788574,-0.22098104655742645,0.0,0.0,0.0,0.0,0.0,0.0,0.0,0.05099827801518052,0.33927505473544023,0.18408019709767437,0.4071504783606734,0.3371957290318213,0.06365822814936983,-0.19635483627999825,-0.608968825755227,-0.057463717253061763,-0.6664917842881721,-2.594640982652228,-0.05568070905115286,2.507958873801761,0.8763207160546733,-0.6090851748156966,-0.05753196718556838,-0.666603097082616,-2.5945565370258534,-0.05562143941554,2.507976027223799,0.8763108487046415,0.0006671825202812208,-0.00037780417998215123,0.0010510823684894174,-0.00017140912050350794,4.475133504905952e-05,0.00039120441901072453,0.0010812195909932606,0.0,0.0,0.0,0.0,0.0,0.0,0.0,-0.00011634906046953386,-6.824993250661993e-05,-0.0001113127944438741,8.444562637466291e-05,5.926963561286164e-05,1.7153422037896604e-05,-9.867350031833588e-06,-0.0006671825202812208,0.00037780417998215123,-0.0010510823684894174,0.00017140912050350794,-4.475133504905952e-05,-0.00039120441901072453,-0.0010812195909932606,-0.05722695589065552,18.304895401000977,-0.9934418201446533,-18.047517776489258,-0.7546897530555725,-2.2360262870788574,0.22098104655742645,0
75,0.369610071182251,0.08103066682815552,-18.304895401000977,1.0410492420196533,18.071321487426758,0.7610984444618225,2.2488436698913574,-0.19351522624492645,0.0,0.0,0.0,0.0,0.0,0.0,0.0,0.04636950947091966,0.33909421838234377,0.18269614905223955,0.40644205248450016,0.3372742012472198,0.0628417536001305,-0.19679016917028286,-0.608970487197291,-0.057463717253061763,-0.6664951251598826,-2.594642193600657,-0.05568071339639982,2.5079574496481154,0.8763176642970906,-0.6090851748156966,-0.05753196718556838,-0.666603097082616,-2.5945565370258534,-0.05562143941554,2.507976027223799,0.8763108487046415,-0.00011054090358497497,-0.0005917035605543673,-0.0005408036368776511,-0.0009639106386788439,-5.485755548868219e-06,-0.00019877332762551134,-0.00028803992374353395,0.0,0.0,0.0,0.0,0.0,0.0,0.0,-0.0001146876184056067,-6.824993250661993e-05,-0.00010797192273337419,8.565657480374966e-05,5.9273980859822495e-05,1.8577575683575986e-05,-6.815592449083141e-06,0.00011054090358497497,0.0005917035605543673,0.0005408036368776511,0.0009639106386788439,5.485755548868219e-06,0.00019877332762551134,0.00028803992374353395,-0.08103066682815552,18.304895401000977,-1.0410492420196533,-18.071321487426758,-0.7610984444618225,-2.2488436698913574,0.19351522624492645,0
76,0.37462520599365234,0.08103066682815552,-18.304895401000977,1.0410492420196533,18.071321487426758,0.7610984444618225,2.2488436698913574,-0.19351522624492645,0.0,0.0,0.0,0.0,0.0,0.0,0.0,0.04636950947091966,0.33909421838234377,0.18269614905223955,0.40644205248450016,0.3372742012472198,0.0628417536001305,-0.19679016917028286,-0.608970487197291,-0.057463717253061763,-0.6664951251598826,-2.594642193600657,-0.05568071339639982,2.5079574496481154,0.8763176642970906,-0.6090851748156966,-0.05753196718556838,-0.666603097082616,-2.5945565370258534,-0.05562143941554,2.507976027223799,0.8763108487046415,-0.00011054090358497497,-0.0005917035605543673,-0.0005408036368776511,-0.0009639106386788439,-5.485755548868219e-06,-0.00019877332762551134,-0.00028803992374353395,0.0,0.0,0.0,0.0,0.0,0.0,0.0,-0.0001146876184056067,-6.824993250661993e-05,-0.00010797192273337419,8.565657480374966e-05,5.9273980859822495e-05,1.8577575683575986e-05,-6.815592449083141e-06,0.00011054090358497497,0.0005917035605543673,0.0005408036368776511,0.0009639106386788439,5.485755548868219e-06,0.00019877332762551134,0.00028803992374353395,-0.08103066682815552,18.304895401000977,-1.0410492420196533,-18.071321487426758,-0.7610984444618225,-2.2488436698913574,0.19351522624492645,0
77,0.3796117305755615,0.03342324495315552,-18.352502822875977,0.9934418201446533,18.023714065551758,0.7491965889930725,2.2552523612976074,-0.15231649577617645,0.0,0.0,0.0,0.0,0.0,0.0,0.0,0.04380265815304485,0.3366901982388557,0.18382478205257385,0.4099386443028654,0.3368973114792745,0.06279050684730743,-0.19629238498490018,-0.6089671463255296,-0.057460376381351236,-0.6664917842881721,-2.594638678146893,-0.055680098591393626,2.5079567375712926,0.8763130866603718,-0.6090851748156966,-0.05753196718556838,-0.666603097082616,-2.5945565370258534,-0.05562143941554,2.507976027223799,0.8763108487046415,0.0002104178855984909,0.0005771286738616897,0.00021266672857832216,0.00041836776114394995,0.0002813909945479042,-0.0004106386889474088,-0.0014012672335585801,0.0,0.0,0.0,0.0,0.0,0.0,0.0,-0.00011802849016695482,-7.159080421714759e-05,-0.0001113127944438741,8.214112103965832e-05,5.86591758536259e-05,1.9289652506415678e-05,-2.237955730288732e-06,-0.0002104178855984909,-0.0005771286738616897,-0.00021266672857832216,-0.00041836776114394995,-0.0002813909945479042,0.0004106386889474088,0.0014012672335585801,-0.03342324495315552,18.352502822875977,-0.9934418201446533,-18.023714065551758,-0.7491965889930725,-2.2552523612976074,0.15231649577617645,0
78,0.384624719619751,0.03342324495315552,-18.352502822875977,0.9934418201446533,18.023714065551758,0.7491965889930725,2.2552523612976074,-0.15231649577617645,0.0,0.0,0.0,0.0,0.0,0.0,0.0,0.04380265815304485,0.3366901982388557,0.18382478205257385,0.4099386443028654,0.3368973114792745,0.06279050684730743,-0.19629238498490018,-0.6089671463255296,-0.057460376381351236,-0.6664917842881721,-2.594638678146893,-0.055680098591393626,2.5079567375712926,0.8763130866603718,-0.6090851748156966,-0.05753196718556838,-0.666603097082616,-2.5945565370258534,-0.05562143941554,2.507976027223799,0.8763108487046415,0.0002104178855984909,0.0005771286738616897,0.00021266672857832216,0.00041836776114394995,0.0002813909945479042,-0.0004106386889474088,-0.0014012672335585801,0.0,0.0,0.0,0.0,0.0,0.0,0.0,-0.00011802849016695482,-7.159080421714759e-05,-0.0001113127944438741,8.214112103965832e-05,5.86591758536259e-05,1.9289652506415678e-05,-2.237955730288732e-06,-0.0002104178855984909,-0.0005771286738616897,-0.00021266672857832216,-0.00041836776114394995,-0.0002813909945479042,0.0004106386889474088,0.0014012672335585801,-0.03342324495315552,18.352502822875977,-0.9934418201446533,-18.023714065551758,-0.7491965889930725,-2.2552523612976074,0.15231649577617645,0
79,0.38960838317871094,0.005652248859405518,-18.328699111938477,0.9696381092071533,18.023714065551758,0.7665916085243225,2.2552523612976074,-0.24112264811992645,0.0,0.0,0.0,0.0,0.0,0.0,0.0,0.04948531736985109,0.33840141187977696,0.18941370929446782,0.40544207978973923,0.3360668296688058,0.06187073713145166,-0.19443883427455405,-0.6089651974836985,-0.0574620468172065,-0.6664901138523168,-2.5946393725795374,-0.055682340161140605,2.5079567375712926,0.87632291460327,-0.6090851748156966,-0.05753196718556838,-0.666603097082616,-2.5945565370258534,-0.05562143941554,2.507976027223799,0.8763108487046415,0.0009521360665131613,-0.0002207900454232313,0.0003550807536548414,7.133471538405167e-05,-0.0001637421702029203,-0.0002262566876018794,0.0011906351005153038,0.0,0.0,0.0,0.0,0.0,0.0,0.0,-0.00011997733199808902,-6.992036836188376e-05,-0.00011298323029917956,8.283555368393536e-05,6.090074560060471e-05,1.9289652506415678e-05,-1.2065898628565996e-05,-0.0009521360665131613,0.0002207900454232313,-0.0003550807536548414,-7.133471538405167e-05,0.0001637421702029203,0.0002262566876018794,-0.0011906351005153038,-0.005652248859405518,18.328699111938477,-0.9696381092071533,-18.023714065551758,-0.7665916085243225,-2.2552523612976074,0.24112264811992645,0
