rezayati/contactInterpretation/dataset/franka_main/labeled_data/link5/c1_7.csv
index,time,tau_J0,tau_J1,tau_J2,tau_J3,tau_J4,tau_J5,tau_J6,tau_J_d0,tau_J_d1,tau_J_d2,tau_J_d3,tau_J_d4,tau_J_d5,tau_J_d6,tau_ext0,tau_ext1,tau_ext2,tau_ext3,tau_ext4,tau_ext5,tau_ext6,q0,q1,q2,q3,q4,q5,q6,q_d0,q_d1,q_d2,q_d3,q_d4,q_d5,q_d6,dq0,dq1,dq2,dq3,dq4,dq5,dq6,dq_d0,dq_d1,dq_d2,dq_d3,dq_d4,dq_d5,dq_d6,e0,e1,e2,e3,e4,e5,e6,de0,de1,de2,de3,de4,de5,de6,etau_J0,etau_J1,etau_J2,etau_J3,etau_J4,etau_J5,etau_J6,label
1,0.0,-0.24825400114059448,-11.727136611938477,1.0172455310821533,21.792634963989258,0.4095359444618225,2.5271639823913574,-0.24844686686992645,0.0,0.0,0.0,0.0,0.0,0.0,0.0,-0.24297464442868102,0.5581259040347409,-0.13664891213394392,0.4818248423773786,-0.11734380306803224,0.1304650402175365,-0.2257186633471624,0.17289091645918755,-0.4875070794465249,-0.11140643969125914,-1.9466395098790568,0.13359298227230706,2.595545591407352,0.9452521883563862,0.1728802376190821,-0.48752024683155326,-0.11147110072896137,-1.9463801863486305,0.1336059019074957,2.595550359778934,0.9452445589611904,-5.7390334849826975e-05,-0.0007495168396761901,0.00017924252936379512,-0.0005650176578200641,0.00037293921758239695,0.00020485463562805965,0.001195064769419436,0.0,0.0,0.0,0.0,0.0,0.0,0.0,-1.0678840105443621e-05,-1.3167385028378664e-05,-6.466103770222387e-05,0.00025932353042623646,1.2919635188624046e-05,4.76837158203125e-06,-7.629395195829503e-06,5.7390334849826975e-05,0.0007495168396761901,-0.00017924252936379512,0.0005650176578200641,-0.00037293921758239695,-0.00020485463562805965,-0.001195064769419436,0.24825400114059448,11.727136611938477,-1.0172455310821533,-21.792634963989258,-0.4095359444618225,-2.5271639823913574,0.24844686686992645,0
2,0.004996538162231445,-0.24825400114059448,-11.727136611938477,1.0688202381134033,21.768831253051758,0.4150291085243225,2.5271639823913574,-0.20083944499492645,0.0,0.0,0.0,0.0,0.0,0.0,0.0,-0.23849152170997084,0.5718259390090881,-0.13227784566440837,0.47475339564331265,-0.11750145483778393,0.12974049311805486,-0.22529380020241271,0.1728909550189156,-0.4875070794465249,-0.11140792517989613,-1.9466387829794023,0.13359237192074458,2.595545591407352,0.9452468986428446,0.1728802376190821,-0.48752024683155326,-0.11147110072896137,-1.9463801863486305,0.1336059019074957,2.595550359778934,0.9452445589611904,-0.00032301639383079304,-0.00034041945247464115,-0.0008537746524941336,9.139913338819712e-06,0.0001365635267229476,5.34787441907099e-05,-0.0007368996816152914,0.0,0.0,0.0,0.0,0.0,0.0,0.0,-1.0717399833493069e-05,-1.3167385028378664e-05,-6.317554906523637e-05,0.000258596630771768,1.3529986751109613e-05,4.76837158203125e-06,-2.3396816541954024e-06,0.00032301639383079304,0.00034041945247464115,0.0008537746524941336,-9.139913338819712e-06,-0.0001365635267229476,-5.34787441907099e-05,0.0007368996816152914,0.24825400114059448,11.727136611938477,-1.0688202381134033,-21.768831253051758,-0.4150291085243225,-2.5271639823913574,0.20083944499492645,0
3,0.00999760627746582,-0.24825400114059448,-11.727136611938477,1.0688202381134033,21.768831253051758,0.4150291085243225,2.5271639823913574,-0.20083944499492645,0.0,0.0,0.0,0.0,0.0,0.0,0.0,-0.23849152170997084,0.5718259390090881,-0.13227784566440837,0.47475339564331265,-0.11750145483778393,0.12974049311805486,-0.22529380020241271,0.1728909550189156,-0.4875070794465249,-0.11140792517989613,-1.9466387829794023,0.13359237192074458,2.595545591407352,0.9452468986428446,0.1728802376190821,-0.48752024683155326,-0.11147110072896137,-1.9463801863486305,0.1336059019074957,2.595550359778934,0.9452445589611904,-0.00032301639383079304,-0.00034041945247464115,-0.0008537746524941336,9.139913338819712e-06,0.0001365635267229476,5.34787441907099e-05,-0.0007368996816152914,0.0,0.0,0.0,0.0,0.0,0.0,0.0,-1.0717399833493069e-05,-1.3167385028378664e-05,-6.317554906523637e-05,0.000258596630771768,1.3529986751109613e-05,4.76837158203125e-06,-2.3396816541954024e-06,0.00032301639383079304,0.00034041945247464115,0.0008537746524941336,-9.139913338819712e-06,-0.0001365635267229476,-5.34787441907099e-05,0.0007368996816152914,0.24825400114059448,11.727136611938477,-1.0688202381134033,-21.768831253051758,-0.4150291085243225,-2.5271639823913574,0.20083944499492645,0
4,0.014995336532592773,-0.24825400114059448,-11.727136611938477,1.0688202381134033,21.768831253051758,0.4150291085243225,2.5271639823913574,-0.20083944499492645,0.0,0.0,0.0,0.0,0.0,0.0,0.0,-0.23849152170997084,0.5718259390090881,-0.13227784566440837,0.47475339564331265,-0.11750145483778393,0.12974049311805486,-0.22529380020241271,0.1728909550189156,-0.4875070794465249,-0.11140792517989613,-1.9466387829794023,0.13359237192074458,2.595545591407352,0.9452468986428446,0.1728802376190821,-0.48752024683155326,-0.11147110072896137,-1.9463801863486305,0.1336059019074957,2.595550359778934,0.9452445589611904,-0.00032301639383079304,-0.00034041945247464115,-0.0008537746524941336,9.139913338819712e-06,0.0001365635267229476,5.34787441907099e-05,-0.0007368996816152914,0.0,0.0,0.0,0.0,0.0,0.0,0.0,-1.0717399833493069e-05,-1.3167385028378664e-05,-6.317554906523637e-05,0.000258596630771768,1.3529986751109613e-05,4.76837158203125e-06,-2.3396816541954024e-06,0.00032301639383079304,0.00034041945247464115,0.0008537746524941336,-9.139913338819712e-06,-0.0001365635267229476,-5.34787441907099e-05,0.0007368996816152914,0.24825400114059448,11.727136611938477,-1.0688202381134033,-21.768831253051758,-0.4150291085243225,-2.5271639823913574,0.20083944499492645,0
5,0.01999521255493164,-0.24825400114059448,-11.727136611938477,1.0688202381134033,21.768831253051758,0.4150291085243225,2.5271639823913574,-0.20083944499492645,0.0,0.0,0.0,0.0,0.0,0.0,0.0,-0.23849152170997084,0.5718259390090881,-0.13227784566440837,0.47475339564331265,-0.11750145483778393,0.12974049311805486,-0.22529380020241271,0.1728909550189156,-0.4875070794465249,-0.11140792517989613,-1.9466387829794023,0.13359237192074458,2.595545591407352,0.9452468986428446,0.1728802376190821,-0.48752024683155326,-0.11147110072896137,-1.9463801863486305,0.1336059019074957,2.595550359778934,0.9452445589611904,-0.00032301639383079304,-0.00034041945247464115,-0.0008537746524941336,9.139913338819712e-06,0.0001365635267229476,5.34787441907099e-05,-0.0007368996816152914,0.0,0.0,0.0,0.0,0.0,0.0,0.0,-1.0717399833493069e-05,-1.3167385028378664e-05,-6.317554906523637e-05,0.000258596630771768,1.3529986751109613e-05,4.76837158203125e-06,-2.3396816541954024e-06,0.00032301639383079304,0.00034041945247464115,0.0008537746524941336,-9.139913338819712e-06,-0.0001365635267229476,-5.34787441907099e-05,0.0007368996816152914,0.24825400114059448,11.727136611938477,-1.0688202381134033,-21.768831253051758,-0.4150291085243225,-2.5271639823913574,0.20083944499492645,0
6,0.02502131462097168,-0.19667929410934448,-11.774744033813477,1.0172455310821533,21.792634963989258,0.4150291085243225,2.5335726737976074,-0.19351522624492645,0.0,0.0,0.0,0.0,0.0,0.0,0.0,-0.24264160627111753,0.5553679529723448,-0.13738029397171106,0.4841482310167422,-0.11718143547398516,0.13113619774928456,-0.22444725365043489,0.17288729819106236,-0.4875037385748144,-0.11140643967921385,-1.9466397476492616,0.13359237197491622,2.595544879330529,0.9452460848959424,0.1728802376190821,-0.48752024683155326,-0.11147110072896137,-1.9463801863486305,0.1336059019074957,2.595550359778934,0.9452445589611904,-0.0012363763188911673,6.948373119731561e-05,0.0005506001537760635,-0.000584825529053899,0.00016820950704293523,-0.00032210692439942496,-0.0008598561540758417,0.0,0.0,0.0,0.0,0.0,0.0,0.0,-7.060571980244124e-06,-1.650825673887857e-05,-6.466104974751918e-05,0.00025956130063109484,1.3529932579470216e-05,5.480448404870941e-06,-1.5259347520002464e-06,0.0012363763188911673,-6.948373119731561e-05,-0.0005506001537760635,0.000584825529053899,-0.00016820950704293523,0.00032210692439942496,0.0008598561540758417,0.19667929410934448,11.774744033813477,-1.0172455310821533,-21.792634963989258,-0.4150291085243225,-2.5335726737976074,0.19351522624492645,0
7,0.030009746551513672,-0.19667929410934448,-11.774744033813477,1.0172455310821533,21.792634963989258,0.4150291085243225,2.5335726737976074,-0.19351522624492645,0.0,0.0,0.0,0.0,0.0,0.0,0.0,-0.24264160627111753,0.5553679529723448,-0.13738029397171106,0.4841482310167422,-0.11718143547398516,0.13113619774928456,-0.22444725365043489,0.17288729819106236,-0.4875037385748144,-0.11140643967921385,-1.9466397476492616,0.13359237197491622,2.595544879330529,0.9452460848959424,0.1728802376190821,-0.48752024683155326,-0.11147110072896137,-1.9463801863486305,0.1336059019074957,2.595550359778934,0.9452445589611904,-0.0012363763188911673,6.948373119731561e-05,0.0005506001537760635,-0.000584825529053899,0.00016820950704293523,-0.00032210692439942496,-0.0008598561540758417,0.0,0.0,0.0,0.0,0.0,0.0,0.0,-7.060571980244124e-06,-1.650825673887857e-05,-6.466104974751918e-05,0.00025956130063109484,1.3529932579470216e-05,5.480448404870941e-06,-1.5259347520002464e-06,0.0012363763188911673,-6.948373119731561e-05,-0.0005506001537760635,0.000584825529053899,-0.00016820950704293523,0.00032210692439942496,0.0008598561540758417,0.19667929410934448,11.774744033813477,-1.0172455310821533,-21.792634963989258,-0.4150291085243225,-2.5335726737976074,0.19351522624492645,0
8,0.035002708435058594,-0.2998287081718445,-11.802515029907227,1.0410492420196533,21.768831253051758,0.4214377999305725,2.5271639823913574,-0.19351522624492645,0.0,0.0,0.0,0.0,0.0,0.0,0.0,-0.23756421178287088,0.5635355663178637,-0.1293549486257693,0.4804774653744394,-0.11752616864455112,0.12988574527461966,-0.2236247193136157,0.17289527325609852,-0.48750178973298325,-0.11140811012711438,-1.946638553706523,0.13359165984392174,2.595545591407352,0.9452460848407614,0.1728802376190821,-0.48752024683155326,-0.11147110072896137,-1.9463801863486305,0.1336059019074957,2.595550359778934,0.9452445589611904,0.0016106492097127452,0.0005305510145871178,0.001022983718564467,0.0003261969848712135,-0.0003090438740588993,0.00011880365265618141,-0.0006722511027208157,0.0,0.0,0.0,0.0,0.0,0.0,0.0,-1.503563701640842e-05,-1.8457098570012764e-05,-6.299060184698779e-05,0.0002583673578924195,1.4242063573949304e-05,4.76837158203125e-06,-1.5258795710293427e-06,-0.0016106492097127452,-0.0005305510145871178,-0.001022983718564467,-0.0003261969848712135,0.0003090438740588993,-0.00011880365265618141,0.0006722511027208157,0.2998287081718445,11.802515029907227,-1.0410492420196533,-21.768831253051758,-0.4214377999305725,-2.5271639823913574,0.19351522624492645,0
9,0.039999961853027344,-0.2998287081718445,-11.802515029907227,1.0410492420196533,21.768831253051758,0.4214377999305725,2.5271639823913574,-0.19351522624492645,0.0,0.0,0.0,0.0,0.0,0.0,0.0,-0.23756421178287088,0.5635355663178637,-0.1293549486257693,0.4804774653744394,-0.11752616864455112,0.12988574527461966,-0.2236247193136157,0.17289527325609852,-0.48750178973298325,-0.11140811012711438,-1.946638553706523,0.13359165984392174,2.595545591407352,0.9452460848407614,0.1728802376190821,-0.48752024683155326,-0.11147110072896137,-1.9463801863486305,0.1336059019074957,2.595550359778934,0.9452445589611904,0.0016106492097127452,0.0005305510145871178,0.001022983718564467,0.0003261969848712135,-0.0003090438740588993,0.00011880365265618141,-0.0006722511027208157,0.0,0.0,0.0,0.0,0.0,0.0,0.0,-1.503563701640842e-05,-1.8457098570012764e-05,-6.299060184698779e-05,0.0002583673578924195,1.4242063573949304e-05,4.76837158203125e-06,-1.5258795710293427e-06,-0.0016106492097127452,-0.0005305510145871178,-0.001022983718564467,-0.0003261969848712135,0.0003090438740588993,-0.00011880365265618141,0.0006722511027208157,0.2998287081718445,11.802515029907227,-1.0410492420196533,-21.768831253051758,-0.4214377999305725,-2.5271639823913574,0.19351522624492645,0
10,0.04499673843383789,-0.22445029020309448,-11.774744033813477,1.1164276599884033,21.768831253051758,0.4150291085243225,2.5399813652038574,-0.20083944499492645,0.0,0.0,0.0,0.0,0.0,0.0,0.0,-0.23470940013139682,0.5721636177682242,-0.1224760652935239,0.4723149183183701,-0.11809553852047493,0.1284205213854183,-0.22322211980960008,0.17289208027275285,-0.4875037385748144,-0.11141339984065608,-1.946637839435518,0.1335891830722491,2.5955441672537063,0.9452468986428446,0.1728802376190821,-0.48752024683155326,-0.11147110072896137,-1.9463801863486305,0.1336059019074957,2.595550359778934,0.9452445589611904,9.961051971735952e-05,2.046522138054001e-05,4.659231738612246e-05,-0.00020239261455488338,7.643628556950749e-05,-0.000554083974423935,-0.00031376943006159987,0.0,0.0,0.0,0.0,0.0,0.0,0.0,-1.1842653670740555e-05,-1.650825673887857e-05,-5.7700888305284304e-05,0.0002576530868874105,1.671883524659301e-05,6.192525227710632e-06,-2.3396816541954024e-06,-9.961051971735952e-05,-2.046522138054001e-05,-4.659231738612246e-05,0.00020239261455488338,-7.643628556950749e-05,0.000554083974423935,0.00031376943006159987,0.22445029020309448,11.774744033813477,-1.1164276599884033,-21.768831253051758,-0.4150291085243225,-2.5399813652038574,0.20083944499492645,0
11,0.049994468688964844,-0.22445029020309448,-11.774744033813477,1.1164276599884033,21.768831253051758,0.4150291085243225,2.5399813652038574,-0.20083944499492645,0.0,0.0,0.0,0.0,0.0,0.0,0.0,-0.23470940013139682,0.5721636177682242,-0.1224760652935239,0.4723149183183701,-0.11809553852047493,0.1284205213854183,-0.22322211980960008,0.17289208027275285,-0.4875037385748144,-0.11141339984065608,-1.946637839435518,0.1335891830722491,2.5955441672537063,0.9452468986428446,0.1728802376190821,-0.48752024683155326,-0.11147110072896137,-1.9463801863486305,0.1336059019074957,2.595550359778934,0.9452445589611904,9.961051971735952e-05,2.046522138054001e-05,4.659231738612246e-05,-0.00020239261455488338,7.643628556950749e-05,-0.000554083974423935,-0.00031376943006159987,0.0,0.0,0.0,0.0,0.0,0.0,0.0,-1.1842653670740555e-05,-1.650825673887857e-05,-5.7700888305284304e-05,0.0002576530868874105,1.671883524659301e-05,6.192525227710632e-06,-2.3396816541954024e-06,-9.961051971735952e-05,-2.046522138054001e-05,-4.659231738612246e-05,0.00020239261455488338,-7.643628556950749e-05,0.000554083974423935,0.00031376943006159987,0.22445029020309448,11.774744033813477,-1.1164276599884033,-21.768831253051758,-0.4150291085243225,-2.5399813652038574,0.20083944499492645,0
12,0.05499839782714844,-0.19667929410934448,-11.802515029907227,1.1164276599884033,21.768831253051758,0.4095359444618225,2.5271639823913574,-0.21457235515117645,0.0,0.0,0.0,0.0,0.0,0.0,0.0,-0.2356963680125432,0.561650777320198,-0.12171293088026458,0.4770404396621807,-0.11773408439786215,0.12915181622506727,-0.2222621157888991,0.17288709014963224,-0.48750178973298325,-0.11141339984065608,-1.946639930920709,0.1335929822543059,2.595545591407352,0.9452484245217508,0.1728802376190821,-0.48752024683155326,-0.11147110072896137,-1.9463801863486305,0.1336059019074957,2.595550359778934,0.9452445589611904,-0.00043357926847696306,0.0007300403651969935,-0.00020868662574343434,0.0003313757774230145,0.00028418256243597893,0.0002828353621013703,0.0004603888120426615,0.0,0.0,0.0,0.0,0.0,0.0,0.0,-6.85253055013324e-06,-1.8457098570012764e-05,-5.7700888305284304e-05,0.00025974457207844637,1.2919653189780167e-05,4.76837158203125e-06,-3.865560560423198e-06,0.00043357926847696306,-0.0007300403651969935,0.00020868662574343434,-0.0003313757774230145,-0.00028418256243597893,-0.0002828353621013703,-0.0004603888120426615,0.19667929410934448,11.802515029907227,-1.1164276599884033,-21.768831253051758,-0.4095359444618225,-2.5271639823913574,0.21457235515117645,0
13,0.06041526794433594,-0.19667929410934448,-11.802515029907227,1.1164276599884033,21.768831253051758,0.4095359444618225,2.5271639823913574,-0.21457235515117645,0.0,0.0,0.0,0.0,0.0,0.0,0.0,-0.2356963680125432,0.561650777320198,-0.12171293088026458,0.4770404396621807,-0.11773408439786215,0.12915181622506727,-0.2222621157888991,0.17288709014963224,-0.48750178973298325,-0.11141339984065608,-1.946639930920709,0.1335929822543059,2.595545591407352,0.9452484245217508,0.1728802376190821,-0.48752024683155326,-0.11147110072896137,-1.9463801863486305,0.1336059019074957,2.595550359778934,0.9452445589611904,-0.00043357926847696306,0.0007300403651969935,-0.00020868662574343434,0.0003313757774230145,0.00028418256243597893,0.0002828353621013703,0.0004603888120426615,0.0,0.0,0.0,0.0,0.0,0.0,0.0,-6.85253055013324e-06,-1.8457098570012764e-05,-5.7700888305284304e-05,0.00025974457207844637,1.2919653189780167e-05,4.76837158203125e-06,-3.865560560423198e-06,0.00043357926847696306,-0.0007300403651969935,0.00020868662574343434,-0.0003313757774230145,-0.00028418256243597893,-0.0002828353621013703,-0.0004603888120426615,0.19667929410934448,11.802515029907227,-1.1164276599884033,-21.768831253051758,-0.4095359444618225,-2.5271639823913574,0.21457235515117645,0
14,0.06541156768798828,-0.24825400114059448,-11.774744033813477,1.0926239490509033,21.792634963989258,0.4095359444618225,2.5399813652038574,-0.20083944499492645,0.0,0.0,0.0,0.0,0.0,0.0,0.0,-0.23608567469573008,0.5589005905129907,-0.12068283445173292,0.476467534020999,-0.11776477375676736,0.12932370331228826,-0.2217361651166331,0.1728928845606081,-0.4875037385748144,-0.11141172940480082,-1.9466395095878282,0.13359298227230676,2.5955441672537063,0.9452468986428446,0.1728802376190821,-0.48752024683155326,-0.11147110072896137,-1.9463801863486305,0.1336059019074957,2.595550359778934,0.9452445589611904,0.0002974173944505905,-0.00019748465540247342,0.00014540739014657383,-0.0007848030685900759,0.0003854043046246032,-0.0007278292350974733,-0.00025844267830884437,0.0,0.0,0.0,0.0,0.0,0.0,0.0,-1.2646941526001099e-05,-1.650825673887857e-05,-5.9371324160548133e-05,0.00025932323919763967,1.2919635188929357e-05,6.192525227710632e-06,-2.3396816541954024e-06,-0.0002974173944505905,0.00019748465540247342,-0.00014540739014657383,0.0007848030685900759,-0.0003854043046246032,0.0007278292350974733,0.00025844267830884437,0.24825400114059448,11.774744033813477,-1.0926239490509033,-21.792634963989258,-0.4095359444618225,-2.5399813652038574,0.20083944499492645,0
15,0.06999921798706055,-0.24825400114059448,-11.774744033813477,1.0926239490509033,21.792634963989258,0.4095359444618225,2.5399813652038574,-0.20083944499492645,0.0,0.0,0.0,0.0,0.0,0.0,0.0,-0.23608567469573008,0.5589005905129907,-0.12068283445173292,0.476467534020999,-0.11776477375676736,0.12932370331228826,-0.2217361651166331,0.1728928845606081,-0.4875037385748144,-0.11141172940480082,-1.9466395095878282,0.13359298227230676,2.5955441672537063,0.9452468986428446,0.1728802376190821,-0.48752024683155326,-0.11147110072896137,-1.9463801863486305,0.1336059019074957,2.595550359778934,0.9452445589611904,0.0002974173944505905,-0.00019748465540247342,0.00014540739014657383,-0.0007848030685900759,0.0003854043046246032,-0.0007278292350974733,-0.00025844267830884437,0.0,0.0,0.0,0.0,0.0,0.0,0.0,-1.2646941526001099e-05,-1.650825673887857e-05,-5.9371324160548133e-05,0.00025932323919763967,1.2919635188929357e-05,6.192525227710632e-06,-2.3396816541954024e-06,-0.0002974173944505905,0.00019748465540247342,-0.00014540739014657383,0.0007848030685900759,-0.0003854043046246032,0.0007278292350974733,0.00025844267830884437,0.24825400114059448,11.774744033813477,-1.0926239490509033,-21.792634963989258,-0.4095359444618225,-2.5399813652038574,0.20083944499492645,0
16,0.07499837875366211,-0.2998287081718445,-11.774744033813477,1.0688202381134033,21.741060256958008,0.4214377999305725,2.5271639823913574,-0.22098104655742645,0.0,0.0,0.0,0.0,0.0,0.0,0.0,-0.2353069979664219,0.562560336673971,-0.11935204331126507,0.47589514567159225,-0.11776146328458229,0.12852163360778662,-0.2201998130878666,0.17289429931395328,-0.4875037385748144,-0.11141005896894556,-1.9466379821255333,0.13359165984392163,2.595545591407352,0.9452491365985738,0.1728802376190821,-0.48752024683155326,-0.11147110072896137,-1.9463801863486305,0.1336059019074957,2.595550359778934,0.9452445589611904,0.001041726786342225,0.00019717341154723998,-7.583369661432923e-05,0.0006601739676676908,-0.0003525945043014091,4.8461958414655306e-05,0.0002549595989382348,0.0,0.0,0.0,0.0,0.0,0.0,0.0,-1.406169487117026e-05,-1.650825673887857e-05,-6.104176001581196e-05,0.00025779577690276945,1.4242063574060326e-05,4.76837158203125e-06,-4.5776373833739115e-06,-0.001041726786342225,-0.00019717341154723998,7.583369661432923e-05,-0.0006601739676676908,0.0003525945043014091,-4.8461958414655306e-05,-0.0002549595989382348,0.2998287081718445,11.774744033813477,-1.0688202381134033,-21.741060256958008,-0.4214377999305725,-2.5271639823913574,0.22098104655742645,0
17,0.07999730110168457,-0.2998287081718445,-11.774744033813477,1.0688202381134033,21.741060256958008,0.4214377999305725,2.5271639823913574,-0.22098104655742645,0.0,0.0,0.0,0.0,0.0,0.0,0.0,-0.2353069979664219,0.562560336673971,-0.11935204331126507,0.47589514567159225,-0.11776146328458229,0.12852163360778662,-0.2201998130878666,0.17289429931395328,-0.4875037385748144,-0.11141005896894556,-1.9466379821255333,0.13359165984392163,2.595545591407352,0.9452491365985738,0.1728802376190821,-0.48752024683155326,-0.11147110072896137,-1.9463801863486305,0.1336059019074957,2.595550359778934,0.9452445589611904,0.001041726786342225,0.00019717341154723998,-7.583369661432923e-05,0.0006601739676676908,-0.0003525945043014091,4.8461958414655306e-05,0.0002549595989382348,0.0,0.0,0.0,0.0,0.0,0.0,0.0,-1.406169487117026e-05,-1.650825673887857e-05,-6.104176001581196e-05,0.00025779577690276945,1.4242063574060326e-05,4.76837158203125e-06,-4.5776373833739115e-06,-0.001041726786342225,-0.00019717341154723998,7.583369661432923e-05,-0.0006601739676676908,0.0003525945043014091,-4.8461958414655306e-05,-0.0002549595989382348,0.2998287081718445,11.774744033813477,-1.0688202381134033,-21.741060256958008,-0.4214377999305725,-2.5271639823913574,0.22098104655742645,0
18,0.08499598503112793,-0.2720577120780945,-11.774744033813477,1.0172455310821533,21.768831253051758,0.4214377999305725,2.5207552909851074,-0.23471395671367645,0.0,0.0,0.0,0.0,0.0,0.0,0.0,-0.2375690155364562,0.5613768000185558,-0.12032459260430124,0.47697067997584336,-0.11787165475612536,0.12832259207774444,-0.22009581402212036,0.17289544734863485,-0.4875037385748144,-0.11140643969125914,-1.9466378477260942,0.13359165984392163,2.595546303484175,0.94525066247748,0.1728802376190821,-0.48752024683155326,-0.11147110072896137,-1.9463801863486305,0.1336059019074957,2.595550359778934,0.9452445589611904,5.118576901519466e-05,0.00039067941254751373,0.0008982958238055704,-1.9885921117328906e-05,-4.0346245848481157e-05,0.00019723277307564328,0.0012614606929107672,0.0,0.0,0.0,0.0,0.0,0.0,0.0,-1.5209729552739804e-05,-1.650825673887857e-05,-6.466103770222387e-05,0.00025766137746363604,1.4242063574060326e-05,4.056294759191559e-06,-6.103516289601707e-06,-5.118576901519466e-05,-0.00039067941254751373,-0.0008982958238055704,1.9885921117328906e-05,4.0346245848481157e-05,-0.00019723277307564328,-0.0012614606929107672,0.2720577120780945,11.774744033813477,-1.0172455310821533,-21.768831253051758,-0.4214377999305725,-2.5207552909851074,0.23471395671367645,0
19,0.0899958610534668,-0.2720577120780945,-11.774744033813477,1.0172455310821533,21.768831253051758,0.4214377999305725,2.5207552909851074,-0.23471395671367645,0.0,0.0,0.0,0.0,0.0,0.0,0.0,-0.2375690155364562,0.5613768000185558,-0.12032459260430124,0.47697067997584336,-0.11787165475612536,0.12832259207774444,-0.22009581402212036,0.17289544734863485,-0.4875037385748144,-0.11140643969125914,-1.9466378477260942,0.13359165984392163,2.595546303484175,0.94525066247748,0.1728802376190821,-0.48752024683155326,-0.11147110072896137,-1.9463801863486305,0.1336059019074957,2.595550359778934,0.9452445589611904,5.118576901519466e-05,0.00039067941254751373,0.0008982958238055704,-1.9885921117328906e-05,-4.0346245848481157e-05,0.00019723277307564328,0.0012614606929107672,0.0,0.0,0.0,0.0,0.0,0.0,0.0,-1.5209729552739804e-05,-1.650825673887857e-05,-6.466103770222387e-05,0.00025766137746363604,1.4242063574060326e-05,4.056294759191559e-06,-6.103516289601707e-06,-5.118576901519466e-05,-0.00039067941254751373,-0.0008982958238055704,1.9885921117328906e-05,4.0346245848481157e-05,-0.00019723277307564328,-0.0012614606929107672,0.2720577120780945,11.774744033813477,-1.0172455310821533,-21.768831253051758,-0.4214377999305725,-2.5207552909851074,0.23471395671367645,0
20,0.09500837326049805,-0.22445029020309448,-11.727136611938477,1.0410492420196533,21.741060256958008,0.4150291085243225,2.5335726737976074,-0.16604940593242645,0.0,0.0,0.0,0.0,0.0,0.0,0.0,-0.23574163534893508,0.557596070862799,-0.11508193323557388,0.4802047820332582,-0.11786960630979243,0.12872022438039724,-0.2202249248264756,0.17288995736866364,-0.4875070794465249,-0.11140810135811831,-1.9466358904263534,0.13359237192074455,2.595544879330529,0.9452430330829488,0.1728802376190821,-0.48752024683155326,-0.11147110072896137,-1.9463801863486305,0.1336059019074957,2.595550359778934,0.9452445589611904,-1.0899570603000515e-05,-0.0007889790416806274,0.0005560055835884663,0.0010666026640146987,0.00011438872708839324,-0.0002471115058978907,-0.001788494396490234,0.0,0.0,0.0,0.0,0.0,0.0,0.0,-9.719749581527104e-06,-1.3167385028378664e-05,-6.299937084305873e-05,0.00025570407772290693,1.3529986751137368e-05,5.480448404870941e-06,1.525878241648293e-06,1.0899570603000515e-05,0.0007889790416806274,-0.0005560055835884663,-0.0010666026640146987,-0.00011438872708839324,0.0002471115058978907,0.001788494396490234,0.22445029020309448,11.727136611938477,-1.0410492420196533,-21.741060256958008,-0.4150291085243225,-2.5335726737976074,0.16604940593242645,0
21,0.1004171371459961,-0.22445029020309448,-11.727136611938477,1.0410492420196533,21.741060256958008,0.4150291085243225,2.5335726737976074,-0.16604940593242645,0.0,0.0,0.0,0.0,0.0,0.0,0.0,-0.23574163534893508,0.557596070862799,-0.11508193323557388,0.4802047820332582,-0.11786960630979243,0.12872022438039724,-0.2202249248264756,0.17288995736866364,-0.4875070794465249,-0.11140810135811831,-1.9466358904263534,0.13359237192074455,2.595544879330529,0.9452430330829488,0.1728802376190821,-0.48752024683155326,-0.11147110072896137,-1.9463801863486305,0.1336059019074957,2.595550359778934,0.9452445589611904,-1.0899570603000515e-05,-0.0007889790416806274,0.0005560055835884663,0.0010666026640146987,0.00011438872708839324,-0.0002471115058978907,-0.001788494396490234,0.0,0.0,0.0,0.0,0.0,0.0,0.0,-9.719749581527104e-06,-1.3167385028378664e-05,-6.299937084305873e-05,0.00025570407772290693,1.3529986751137368e-05,5.480448404870941e-06,1.525878241648293e-06,1.0899570603000515e-05,0.0007889790416806274,-0.0005560055835884663,-0.0010666026640146987,-0.00011438872708839324,0.0002471115058978907,0.001788494396490234,0.22445029020309448,11.727136611938477,-1.0410492420196533,-21.741060256958008,-0.4150291085243225,-2.5335726737976074,0.16604940593242645,0
22,0.10500240325927734,-0.22445029020309448,-11.774744033813477,1.0410492420196533,21.741060256958008,0.4214377999305725,2.5335726737976074,-0.21457235515117645,0.0,0.0,0.0,0.0,0.0,0.0,0.0,-0.23816380127530948,0.5592972554455391,-0.1278073908616974,0.4785818900947995,-0.11759608332278548,0.12840969627937945,-0.219697428266287,0.1728897969716129,-0.4875037385748144,-0.1114081101270649,-1.9466359016124097,0.13359165984392163,2.595544879330529,0.9452484245217508,0.1728802376190821,-0.48752024683155326,-0.11147110072896137,-1.9463801863486305,0.1336059019074957,2.595550359778934,0.9452445589611904,-0.0002777320366000586,0.0001405147177082162,0.0004513994693179941,0.00113536414654692,-0.000258897067523112,-0.00015303264784752519,-1.0013718343155342e-05,0.0,0.0,0.0,0.0,0.0,0.0,0.0,-9.559352530802423e-06,-1.650825673887857e-05,-6.29906018964621e-05,0.0002557152637792104,1.4242063574060326e-05,5.480448404870941e-06,-3.865560560423198e-06,0.0002777320366000586,-0.0001405147177082162,-0.0004513994693179941,-0.00113536414654692,0.000258897067523112,0.00015303264784752519,1.0013718343155342e-05,0.22445029020309448,11.774744033813477,-1.0410492420196533,-21.741060256958008,-0.4214377999305725,-2.5335726737976074,0.21457235515117645,0
23,0.1100001335144043,-0.22445029020309448,-11.774744033813477,1.0410492420196533,21.741060256958008,0.4214377999305725,2.5335726737976074,-0.21457235515117645,0.0,0.0,0.0,0.0,0.0,0.0,0.0,-0.23816380127530948,0.5592972554455391,-0.1278073908616974,0.4785818900947995,-0.11759608332278548,0.12840969627937945,-0.219697428266287,0.1728897969716129,-0.4875037385748144,-0.1114081101270649,-1.9466359016124097,0.13359165984392163,2.595544879330529,0.9452484245217508,0.1728802376190821,-0.48752024683155326,-0.11147110072896137,-1.9463801863486305,0.1336059019074957,2.595550359778934,0.9452445589611904,-0.0002777320366000586,0.0001405147177082162,0.0004513994693179941,0.00113536414654692,-0.000258897067523112,-0.00015303264784752519,-1.0013718343155342e-05,0.0,0.0,0.0,0.0,0.0,0.0,0.0,-9.559352530802423e-06,-1.650825673887857e-05,-6.29906018964621e-05,0.0002557152637792104,1.4242063574060326e-05,5.480448404870941e-06,-3.865560560423198e-06,0.0002777320366000586,-0.0001405147177082162,-0.0004513994693179941,-0.00113536414654692,0.000258897067523112,0.00015303264784752519,1.0013718343155342e-05,0.22445029020309448,11.774744033813477,-1.0410492420196533,-21.741060256958008,-0.4214377999305725,-2.5335726737976074,0.21457235515117645,0
24,0.11508440971374512,-0.24825400114059448,-11.727136611938477,1.0926239490509033,21.792634963989258,0.4150291085243225,2.5335726737976074,-0.19351522624492645,0.0,0.0,0.0,0.0,0.0,0.0,0.0,-0.23951521115220575,0.564785551220139,-0.13539705078604422,0.47484632416945116,-0.11759656714240616,0.12806973323958012,-0.2205350262311373,0.17289304239857647,-0.4875070794465249,-0.11141101900785803,-1.9466422910662182,0.13359237192074455,2.595544879330529,0.9452460847869262,0.1728802376190821,-0.48752024683155326,-0.11147110072896137,-1.9463801863486305,0.1336059019074957,2.595550359778934,0.9452445589611904,-0.0001286159045882892,-0.0007396064483671816,-0.0013292400278982367,-0.00043057407774036685,-3.252179001300143e-05,-0.000127115347320599,-0.00106854999464375,0.0,0.0,0.0,0.0,0.0,0.0,0.0,-1.2804779494363094e-05,-1.3167385028378664e-05,-6.008172110333332e-05,0.0002621047175876967,1.3529986751137368e-05,5.480448404870941e-06,-1.525825735759767e-06,0.0001286159045882892,0.0007396064483671816,0.0013292400278982367,0.00043057407774036685,3.252179001300143e-05,0.000127115347320599,0.00106854999464375,0.24825400114059448,11.727136611938477,-1.0926239490509033,-21.792634963989258,-0.4150291085243225,-2.5335726737976074,0.19351522624492645,0
25,0.12000274658203125,-0.24825400114059448,-11.727136611938477,1.0926239490509033,21.792634963989258,0.4150291085243225,2.5335726737976074,-0.19351522624492645,0.0,0.0,0.0,0.0,0.0,0.0,0.0,-0.23951521115220575,0.564785551220139,-0.13539705078604422,0.47484632416945116,-0.11759656714240616,0.12806973323958012,-0.2205350262311373,0.17289304239857647,-0.4875070794465249,-0.11141101900785803,-1.9466422910662182,0.13359237192074455,2.595544879330529,0.9452460847869262,0.1728802376190821,-0.48752024683155326,-0.11147110072896137,-1.9463801863486305,0.1336059019074957,2.595550359778934,0.9452445589611904,-0.0001286159045882892,-0.0007396064483671816,-0.0013292400278982367,-0.00043057407774036685,-3.252179001300143e-05,-0.000127115347320599,-0.00106854999464375,0.0,0.0,0.0,0.0,0.0,0.0,0.0,-1.2804779494363094e-05,-1.3167385028378664e-05,-6.008172110333332e-05,0.0002621047175876967,1.3529986751137368e-05,5.480448404870941e-06,-1.525825735759767e-06,0.0001286159045882892,0.0007396064483671816,0.0013292400278982367,0.00043057407774036685,3.252179001300143e-05,0.000127115347320599,0.00106854999464375,0.24825400114059448,11.727136611938477,-1.0926239490509033,-21.792634963989258,-0.4150291085243225,-2.5335726737976074,0.19351522624492645,0
26,0.125,-0.24825400114059448,-11.727136611938477,1.0926239490509033,21.792634963989258,0.4150291085243225,2.5335726737976074,-0.19351522624492645,0.0,0.0,0.0,0.0,0.0,0.0,0.0,-0.23951521115220575,0.564785551220139,-0.13539705078604422,0.47484632416945116,-0.11759656714240616,0.12806973323958012,-0.2205350262311373,0.17289304239857647,-0.4875070794465249,-0.11141101900785803,-1.9466422910662182,0.13359237192074455,2.595544879330529,0.9452460847869262,0.1728802376190821,-0.48752024683155326,-0.11147110072896137,-1.9463801863486305,0.1336059019074957,2.595550359778934,0.9452445589611904,-0.0001286159045882892,-0.0007396064483671816,-0.0013292400278982367,-0.00043057407774036685,-3.252179001300143e-05,-0.000127115347320599,-0.00106854999464375,0.0,0.0,0.0,0.0,0.0,0.0,0.0,-1.2804779494363094e-05,-1.3167385028378664e-05,-6.008172110333332e-05,0.0002621047175876967,1.3529986751137368e-05,5.480448404870941e-06,-1.525825735759767e-06,0.0001286159045882892,0.0007396064483671816,0.0013292400278982367,0.00043057407774036685,3.252179001300143e-05,0.000127115347320599,0.00106854999464375,0.24825400114059448,11.727136611938477,-1.0926239490509033,-21.792634963989258,-0.4150291085243225,-2.5335726737976074,0.19351522624492645,0
27,0.12999844551086426,-0.24825400114059448,-11.727136611938477,1.0926239490509033,21.792634963989258,0.4150291085243225,2.5335726737976074,-0.19351522624492645,0.0,0.0,0.0,0.0,0.0,0.0,0.0,-0.23951521115220575,0.564785551220139,-0.13539705078604422,0.47484632416945116,-0.11759656714240616,0.12806973323958012,-0.2205350262311373,0.17289304239857647,-0.4875070794465249,-0.11141101900785803,-1.9466422910662182,0.13359237192074455,2.595544879330529,0.9452460847869262,0.1728802376190821,-0.48752024683155326,-0.11147110072896137,-1.9463801863486305,0.1336059019074957,2.595550359778934,0.9452445589611904,-0.0001286159045882892,-0.0007396064483671816,-0.0013292400278982367,-0.00043057407774036685,-3.252179001300143e-05,-0.000127115347320599,-0.00106854999464375,0.0,0.0,0.0,0.0,0.0,0.0,0.0,-1.2804779494363094e-05,-1.3167385028378664e-05,-6.008172110333332e-05,0.0002621047175876967,1.3529986751137368e-05,5.480448404870941e-06,-1.525825735759767e-06,0.0001286159045882892,0.0007396064483671816,0.0013292400278982367,0.00043057407774036685,3.252179001300143e-05,0.000127115347320599,0.00106854999464375,0.24825400114059448,11.727136611938477,-1.0926239490509033,-21.792634963989258,-0.4150291085243225,-2.5335726737976074,0.19351522624492645,0
28,0.13494563102722168,-0.2720577120780945,-11.727136611938477,1.0688202381134033,21.792634963989258,0.4150291085243225,2.5271639823913574,-0.19351522624492645,0.0,0.0,0.0,0.0,0.0,0.0,0.0,-0.23718135173393345,0.5665000947102349,-0.1293681064353613,0.4751392988820059,-0.11797209686237838,0.12792451093875756,-0.22231337220574682,0.1728925865843028,-0.4875070794465249,-0.11141005896493535,-1.9466395860975254,0.13359237192074455,2.595545591407352,0.945246084840761,0.1728802376190821,-0.48752024683155326,-0.11147110072896137,-1.9463801863486305,0.1336059019074957,2.595550359778934,0.9452445589611904,0.0008691928019850604,-0.0005264180637631647,-0.00037460752905282184,-0.0004146117049664917,5.9478414637579936e-05,-0.0002633647393114316,-0.0008615249031037734,0.0,0.0,0.0,0.0,0.0,0.0,0.0,-1.2348965220676522e-05,-1.3167385028378664e-05,-6.10417640260208e-05,0.00025939974889488404,1.3529986751137368e-05,4.76837158203125e-06,-1.5258795705852535e-06,-0.0008691928019850604,0.0005264180637631647,0.00037460752905282184,0.0004146117049664917,-5.9478414637579936e-05,0.0002633647393114316,0.0008615249031037734,0.2720577120780945,11.727136611938477,-1.0688202381134033,-21.792634963989258,-0.4150291085243225,-2.5271639823913574,0.19351522624492645,0
29,0.13999271392822266,-0.2720577120780945,-11.727136611938477,1.0688202381134033,21.792634963989258,0.4150291085243225,2.5271639823913574,-0.19351522624492645,0.0,0.0,0.0,0.0,0.0,0.0,0.0,-0.23718135173393345,0.5665000947102349,-0.1293681064353613,0.4751392988820059,-0.11797209686237838,0.12792451093875756,-0.22231337220574682,0.1728925865843028,-0.4875070794465249,-0.11141005896493535,-1.9466395860975254,0.13359237192074455,2.595545591407352,0.945246084840761,0.1728802376190821,-0.48752024683155326,-0.11147110072896137,-1.9463801863486305,0.1336059019074957,2.595550359778934,0.9452445589611904,0.0008691928019850604,-0.0005264180637631647,-0.00037460752905282184,-0.0004146117049664917,5.9478414637579936e-05,-0.0002633647393114316,-0.0008615249031037734,0.0,0.0,0.0,0.0,0.0,0.0,0.0,-1.2348965220676522e-05,-1.3167385028378664e-05,-6.10417640260208e-05,0.00025939974889488404,1.3529986751137368e-05,4.76837158203125e-06,-1.5258795705852535e-06,-0.0008691928019850604,0.0005264180637631647,0.00037460752905282184,0.0004146117049664917,-5.9478414637579936e-05,0.0002633647393114316,0.0008615249031037734,0.2720577120780945,11.727136611938477,-1.0688202381134033,-21.792634963989258,-0.4150291085243225,-2.5271639823913574,0.19351522624492645,0
30,0.14499735832214355,-0.24825400114059448,-11.750940322875977,1.0926239490509033,21.768831253051758,0.4269309639930725,2.5399813652038574,-0.17978231608867645,0.0,0.0,0.0,0.0,0.0,0.0,0.0,-0.23654391294864469,0.5636139446719602,-0.12938834572801147,0.4790166159165143,-0.11740726880140363,0.12742055464604268,-0.22360949904357216,0.17289280974869128,-0.48750540901066963,-0.11141172940480079,-1.9466380687402345,0.13359104949235914,2.5955441672537063,0.945244563431522,0.1728802376190821,-0.48752024683155326,-0.11147110072896137,-1.9463801863486305,0.1336059019074957,2.595550359778934,0.9452445589611904,0.0009122644122466732,-0.0003420301150239292,-0.0006090077474540927,7.632059507190241e-05,-0.00047925872487667576,-0.0004406206696990201,-0.0020712793569117203,0.0,0.0,0.0,0.0,0.0,0.0,0.0,-1.2572129609172977e-05,-1.4837820883628616e-05,-5.937132416057589e-05,0.00025788239160395854,1.4852415136545893e-05,6.192525227710632e-06,-4.470331549377704e-09,-0.0009122644122466732,0.0003420301150239292,0.0006090077474540927,-7.632059507190241e-05,0.00047925872487667576,0.0004406206696990201,0.0020712793569117203,0.24825400114059448,11.750940322875977,-1.0926239490509033,-21.768831253051758,-0.4269309639930725,-2.5399813652038574,0.17978231608867645,0
31,0.14999818801879883,-0.24825400114059448,-11.750940322875977,1.0926239490509033,21.768831253051758,0.4269309639930725,2.5399813652038574,-0.17978231608867645,0.0,0.0,0.0,0.0,0.0,0.0,0.0,-0.23654391294864469,0.5636139446719602,-0.12938834572801147,0.4790166159165143,-0.11740726880140363,0.12742055464604268,-0.22360949904357216,0.17289280974869128,-0.48750540901066963,-0.11141172940480079,-1.9466380687402345,0.13359104949235914,2.5955441672537063,0.945244563431522,0.1728802376190821,-0.48752024683155326,-0.11147110072896137,-1.9463801863486305,0.1336059019074957,2.595550359778934,0.9452445589611904,0.0009122644122466732,-0.0003420301150239292,-0.0006090077474540927,7.632059507190241e-05,-0.00047925872487667576,-0.0004406206696990201,-0.0020712793569117203,0.0,0.0,0.0,0.0,0.0,0.0,0.0,-1.2572129609172977e-05,-1.4837820883628616e-05,-5.937132416057589e-05,0.00025788239160395854,1.4852415136545893e-05,6.192525227710632e-06,-4.470331549377704e-09,-0.0009122644122466732,0.0003420301150239292,0.0006090077474540927,-7.632059507190241e-05,0.00047925872487667576,0.0004406206696990201,0.0020712793569117203,0.24825400114059448,11.750940322875977,-1.0926239490509033,-21.768831253051758,-0.4269309639930725,-2.5399813652038574,0.17978231608867645,0
32,0.15499591827392578,-0.19667929410934448,-11.750940322875977,1.0926239490509033,21.792634963989258,0.4214377999305725,2.5271639823913574,-0.18710653483867645,0.0,0.0,0.0,0.0,0.0,0.0,0.0,-0.2326172508784182,0.5606926949517217,-0.12397956611815225,0.4814304472491793,-0.11797984223616498,0.1275513027742382,-0.22472364705034406,0.1728891878895297,-0.48750540901066963,-0.11141172940480082,-1.9466395870279276,0.13359165984392163,2.595545591407352,0.9452453727639636,0.1728802376190821,-0.48752024683155326,-0.11147110072896137,-1.9463801863486305,0.1336059019074957,2.595550359778934,0.9452445589611904,-0.0006770876229298065,-0.0006430682350688412,0.00026886793705940414,-0.00044049171873413237,-0.00043468502802142863,0.00014494107314163375,-0.0012974171812647156,0.0,0.0,0.0,0.0,0.0,0.0,0.0,-8.95027044758856e-06,-1.4837820883628616e-05,-5.9371324160548133e-05,0.00025940067929708377,1.4242063574060326e-05,4.76837158203125e-06,-8.138027731696695e-07,0.0006770876229298065,0.0006430682350688412,-0.00026886793705940414,0.00044049171873413237,0.00043468502802142863,-0.00014494107314163375,0.0012974171812647156,0.19667929410934448,11.750940322875977,-1.0926239490509033,-21.792634963989258,-0.4214377999305725,-2.5271639823913574,0.18710653483867645,0
33,0.15999627113342285,-0.19667929410934448,-11.750940322875977,1.0926239490509033,21.792634963989258,0.4214377999305725,2.5271639823913574,-0.18710653483867645,0.0,0.0,0.0,0.0,0.0,0.0,0.0,-0.2326172508784182,0.5606926949517217,-0.12397956611815225,0.4814304472491793,-0.11797984223616498,0.1275513027742382,-0.22472364705034406,0.1728891878895297,-0.48750540901066963,-0.11141172940480082,-1.9466395870279276,0.13359165984392163,2.595545591407352,0.9452453727639636,0.1728802376190821,-0.48752024683155326,-0.11147110072896137,-1.9463801863486305,0.1336059019074957,2.595550359778934,0.9452445589611904,-0.0006770876229298065,-0.0006430682350688412,0.00026886793705940414,-0.00044049171873413237,-0.00043468502802142863,0.00014494107314163375,-0.0012974171812647156,0.0,0.0,0.0,0.0,0.0,0.0,0.0,-8.95027044758856e-06,-1.4837820883628616e-05,-5.9371324160548133e-05,0.00025940067929708377,1.4242063574060326e-05,4.76837158203125e-06,-8.138027731696695e-07,0.0006770876229298065,0.0006430682350688412,-0.00026886793705940414,0.00044049171873413237,0.00043468502802142863,-0.00014494107314163375,0.0012974171812647156,0.19667929410934448,11.750940322875977,-1.0926239490509033,-21.792634963989258,-0.4214377999305725,-2.5271639823913574,0.18710653483867645,0
34,0.1649951934814453,-0.19667929410934448,-11.774744033813477,1.0688202381134033,21.768831253051758,0.4031272530555725,2.5271639823913574,-0.17337362468242645,0.0,0.0,0.0,0.0,0.0,0.0,0.0,-0.23578445930337036,0.5588305405457802,-0.12699882088558231,0.48167627876293556,-0.11833216754210348,0.12795028042665527,-0.22420057744747446,0.17288800845461966,-0.4875037385748144,-0.11141005896894556,-1.9466380687052467,0.13359369434912996,2.595545591407352,0.9452438468850322,0.1728802376190821,-0.48752024683155326,-0.11147110072896137,-1.9463801863486305,0.1336059019074957,2.595550359778934,0.9452445589611904,-0.0005274256248561838,-1.701505853538789e-05,0.0006426844589757468,0.0002988599609738431,0.0004698211098904185,0.00015317393292971554,-0.002038257246498225,0.0,0.0,0.0,0.0,0.0,0.0,0.0,-7.770835537546095e-06,-1.650825673887857e-05,-6.104176001581196e-05,0.0002578823566161681,1.2207558365728843e-05,4.76837158203125e-06,7.120761582601887e-07,0.0005274256248561838,1.701505853538789e-05,-0.0006426844589757468,-0.0002988599609738431,-0.0004698211098904185,-0.00015317393292971554,0.002038257246498225,0.19667929410934448,11.774744033813477,-1.0688202381134033,-21.768831253051758,-0.4031272530555725,-2.5271639823913574,0.17337362468242645,0
35,0.17000317573547363,-0.19667929410934448,-11.774744033813477,1.0688202381134033,21.768831253051758,0.4031272530555725,2.5271639823913574,-0.17337362468242645,0.0,0.0,0.0,0.0,0.0,0.0,0.0,-0.23578445930337036,0.5588305405457802,-0.12699882088558231,0.48167627876293556,-0.11833216754210348,0.12795028042665527,-0.22420057744747446,0.17288800845461966,-0.4875037385748144,-0.11141005896894556,-1.9466380687052467,0.13359369434912996,2.595545591407352,0.9452438468850322,0.1728802376190821,-0.48752024683155326,-0.11147110072896137,-1.9463801863486305,0.1336059019074957,2.595550359778934,0.9452445589611904,-0.0005274256248561838,-1.701505853538789e-05,0.0006426844589757468,0.0002988599609738431,0.0004698211098904185,0.00015317393292971554,-0.002038257246498225,0.0,0.0,0.0,0.0,0.0,0.0,0.0,-7.770835537546095e-06,-1.650825673887857e-05,-6.104176001581196e-05,0.0002578823566161681,1.2207558365728843e-05,4.76837158203125e-06,7.120761582601887e-07,0.0005274256248561838,1.701505853538789e-05,-0.0006426844589757468,-0.0002988599609738431,-0.0004698211098904185,-0.00015317393292971554,0.002038257246498225,0.19667929410934448,11.774744033813477,-1.0688202381134033,-21.768831253051758,-0.4031272530555725,-2.5271639823913574,0.17337362468242645,0
36,0.1750049591064453,-0.19667929410934448,-11.802515029907227,1.0688202381134033,21.768831253051758,0.4031272530555725,2.5143465995788574,-0.18710653483867645,0.0,0.0,0.0,0.0,0.0,0.0,0.0,-0.23697000704977636,0.5618446252881186,-0.12888787054899042,0.4772163071108643,-0.11826868770856522,0.12829213541058235,-0.22457114983072266,0.17288740314152407,-0.48750178973298325,-0.11141005896894556,-1.9466380772093743,0.13359369434912996,2.5955470155609977,0.9452453727639384,0.1728802376190821,-0.48752024683155326,-0.11147110072896137,-1.9463801863486305,0.1336059019074957,2.595550359778934,0.9452445589611904,-0.0009314756215458322,0.000900566777965221,-0.00019143671186974684,-0.00033299983253254464,0.0007392130617523474,0.00046096064895553114,0.006125614119100731,0.0,0.0,0.0,0.0,0.0,0.0,0.0,-7.165522441954231e-06,-1.8457098570012764e-05,-6.104176001581196e-05,0.0002578908607437924,1.2207558365728843e-05,3.3442179363518676e-06,-8.138027479676069e-07,0.0009314756215458322,-0.000900566777965221,0.00019143671186974684,0.00033299983253254464,-0.0007392130617523474,-0.00046096064895553114,-0.006125614119100731,0.19667929410934448,11.802515029907227,-1.0688202381134033,-21.768831253051758,-0.4031272530555725,-2.5143465995788574,0.18710653483867645,0
37,0.18000292778015137,-0.19667929410934448,-11.802515029907227,1.0688202381134033,21.768831253051758,0.4031272530555725,2.5143465995788574,-0.18710653483867645,0.0,0.0,0.0,0.0,0.0,0.0,0.0,-0.23697000704977636,0.5618446252881186,-0.12888787054899042,0.4772163071108643,-0.11826868770856522,0.12829213541058235,-0.22457114983072266,0.17288740314152407,-0.48750178973298325,-0.11141005896894556,-1.9466380772093743,0.13359369434912996,2.5955470155609977,0.9452453727639384,0.1728802376190821,-0.48752024683155326,-0.11147110072896137,-1.9463801863486305,0.1336059019074957,2.595550359778934,0.9452445589611904,-0.0009314756215458322,0.000900566777965221,-0.00019143671186974684,-0.00033299983253254464,0.0007392130617523474,0.00046096064895553114,0.006125614119100731,0.0,0.0,0.0,0.0,0.0,0.0,0.0,-7.165522441954231e-06,-1.8457098570012764e-05,-6.104176001581196e-05,0.0002578908607437924,1.2207558365728843e-05,3.3442179363518676e-06,-8.138027479676069e-07,0.0009314756215458322,-0.000900566777965221,0.00019143671186974684,0.00033299983253254464,-0.0007392130617523474,-0.00046096064895553114,-0.006125614119100731,0.19667929410934448,11.802515029907227,-1.0688202381134033,-21.768831253051758,-0.4031272530555725,-2.5143465995788574,0.18710653483867645,0
38,0.18612051010131836,-0.2720577120780945,-11.750940322875977,1.0688202381134033,21.792634963989258,0.4150291085243225,2.5143465995788574,-0.17337362468242645,0.0,0.0,0.0,0.0,0.0,0.0,0.0,-0.23582501193818395,0.573342055744732,-0.12877949309601938,0.46846852548409923,-0.11792757849316676,0.1271892665402195,-0.22518673566953973,0.17289235327808544,-0.48750540901066963,-0.11141005896894556,-1.946639509658726,0.13359237192074455,2.5955470155609977,0.9452438468850322,0.1728802376190821,-0.48752024683155326,-0.11147110072896137,-1.9463801863486305,0.1336059019074957,2.595550359778934,0.9452445589611904,0.00011908388670398777,3.075195548770476e-06,-0.0003428690753619653,-0.0009159807613825349,6.04644312083212e-05,0.00048129316249768614,-0.0017868783563578443,0.0,0.0,0.0,0.0,0.0,0.0,0.0,-1.2115659003331114e-05,-1.4837820883628616e-05,-6.104176001581196e-05,0.0002593233100953718,1.3529986751137368e-05,3.3442179363518676e-06,7.120761582601887e-07,-0.00011908388670398777,-3.075195548770476e-06,0.0003428690753619653,0.0009159807613825349,-6.04644312083212e-05,-0.00048129316249768614,0.0017868783563578443,0.2720577120780945,11.750940322875977,-1.0688202381134033,-21.792634963989258,-0.4150291085243225,-2.5143465995788574,0.17337362468242645,0
39,0.18995952606201172,-0.2720577120780945,-11.750940322875977,1.0688202381134033,21.792634963989258,0.4150291085243225,2.5143465995788574,-0.17337362468242645,0.0,0.0,0.0,0.0,0.0,0.0,0.0,-0.23582501193818395,0.573342055744732,-0.12877949309601938,0.46846852548409923,-0.11792757849316676,0.1271892665402195,-0.22518673566953973,0.17289235327808544,-0.48750540901066963,-0.11141005896894556,-1.946639509658726,0.13359237192074455,2.5955470155609977,0.9452438468850322,0.1728802376190821,-0.48752024683155326,-0.11147110072896137,-1.9463801863486305,0.1336059019074957,2.595550359778934,0.9452445589611904,0.00011908388670398777,3.075195548770476e-06,-0.0003428690753619653,-0.0009159807613825349,6.04644312083212e-05,0.00048129316249768614,-0.0017868783563578443,0.0,0.0,0.0,0.0,0.0,0.0,0.0,-1.2115659003331114e-05,-1.4837820883628616e-05,-6.104176001581196e-05,0.0002593233100953718,1.3529986751137368e-05,3.3442179363518676e-06,7.120761582601887e-07,-0.00011908388670398777,-3.075195548770476e-06,0.0003428690753619653,0.0009159807613825349,-6.04644312083212e-05,-0.00048129316249768614,0.0017868783563578443,0.2720577120780945,11.750940322875977,-1.0688202381134033,-21.792634963989258,-0.4150291085243225,-2.5143465995788574,0.17337362468242645,0
40,0.19541001319885254,-0.2720577120780945,-11.750940322875977,1.0688202381134033,21.792634963989258,0.4150291085243225,2.5143465995788574,-0.17337362468242645,0.0,0.0,0.0,0.0,0.0,0.0,0.0,-0.23582501193818395,0.573342055744732,-0.12877949309601938,0.46846852548409923,-0.11792757849316676,0.1271892665402195,-0.22518673566953973,0.17289235327808544,-0.48750540901066963,-0.11141005896894556,-1.946639509658726,0.13359237192074455,2.5955470155609977,0.9452438468850322,0.1728802376190821,-0.48752024683155326,-0.11147110072896137,-1.9463801863486305,0.1336059019074957,2.595550359778934,0.9452445589611904,0.00011908388670398777,3.075195548770476e-06,-0.0003428690753619653,-0.0009159807613825349,6.04644312083212e-05,0.00048129316249768614,-0.0017868783563578443,0.0,0.0,0.0,0.0,0.0,0.0,0.0,-1.2115659003331114e-05,-1.4837820883628616e-05,-6.104176001581196e-05,0.0002593233100953718,1.3529986751137368e-05,3.3442179363518676e-06,7.120761582601887e-07,-0.00011908388670398777,-3.075195548770476e-06,0.0003428690753619653,0.0009159807613825349,-6.04644312083212e-05,-0.00048129316249768614,0.0017868783563578443,0.2720577120780945,11.750940322875977,-1.0688202381134033,-21.792634963989258,-0.4150291085243225,-2.5143465995788574,0.17337362468242645,0
41,0.1999971866607666,-0.2720577120780945,-11.750940322875977,1.0688202381134033,21.792634963989258,0.4150291085243225,2.5143465995788574,-0.17337362468242645,0.0,0.0,0.0,0.0,0.0,0.0,0.0,-0.23582501193818395,0.573342055744732,-0.12877949309601938,0.46846852548409923,-0.11792757849316676,0.1271892665402195,-0.22518673566953973,0.17289235327808544,-0.48750540901066963,-0.11141005896894556,-1.946639509658726,0.13359237192074455,2.5955470155609977,0.9452438468850322,0.1728802376190821,-0.48752024683155326,-0.11147110072896137,-1.9463801863486305,0.1336059019074957,2.595550359778934,0.9452445589611904,0.00011908388670398777,3.075195548770476e-06,-0.0003428690753619653,-0.0009159807613825349,6.04644312083212e-05,0.00048129316249768614,-0.0017868783563578443,0.0,0.0,0.0,0.0,0.0,0.0,0.0,-1.2115659003331114e-05,-1.4837820883628616e-05,-6.104176001581196e-05,0.0002593233100953718,1.3529986751137368e-05,3.3442179363518676e-06,7.120761582601887e-07,-0.00011908388670398777,-3.075195548770476e-06,0.0003428690753619653,0.0009159807613825349,-6.04644312083212e-05,-0.00048129316249768614,0.0017868783563578443,0.2720577120780945,11.750940322875977,-1.0688202381134033,-21.792634963989258,-0.4150291085243225,-2.5143465995788574,0.17337362468242645,0
42,0.2050011157989502,-0.2720577120780945,-11.750940322875977,1.0688202381134033,21.792634963989258,0.4150291085243225,2.5143465995788574,-0.17337362468242645,0.0,0.0,0.0,0.0,0.0,0.0,0.0,-0.23582501193818395,0.573342055744732,-0.12877949309601938,0.46846852548409923,-0.11792757849316676,0.1271892665402195,-0.22518673566953973,0.17289235327808544,-0.48750540901066963,-0.11141005896894556,-1.946639509658726,0.13359237192074455,2.5955470155609977,0.9452438468850322,0.1728802376190821,-0.48752024683155326,-0.11147110072896137,-1.9463801863486305,0.1336059019074957,2.595550359778934,0.9452445589611904,0.00011908388670398777,3.075195548770476e-06,-0.0003428690753619653,-0.0009159807613825349,6.04644312083212e-05,0.00048129316249768614,-0.0017868783563578443,0.0,0.0,0.0,0.0,0.0,0.0,0.0,-1.2115659003331114e-05,-1.4837820883628616e-05,-6.104176001581196e-05,0.0002593233100953718,1.3529986751137368e-05,3.3442179363518676e-06,7.120761582601887e-07,-0.00011908388670398777,-3.075195548770476e-06,0.0003428690753619653,0.0009159807613825349,-6.04644312083212e-05,-0.00048129316249768614,0.0017868783563578443,0.2720577120780945,11.750940322875977,-1.0688202381134033,-21.792634963989258,-0.4150291085243225,-2.5143465995788574,0.17337362468242645,0
43,0.20999932289123535,-0.24825400114059448,-11.802515029907227,1.0926239490509033,21.741060256958008,0.4095359444618225,2.5271639823913574,-0.19351522624492645,0.0,0.0,0.0,0.0,0.0,0.0,0.0,-0.23404873038688434,0.5591195830988462,-0.1204832502459503,0.47717622441013524,-0.11857529597563873,0.1270903956602361,-0.22442256684498668,0.17289355269102938,-0.48750178973298325,-0.11141172940074172,-1.9466358902747225,0.133592983734942,2.595545591407352,0.9452460848407613,0.1728802376190821,-0.48752024683155326,-0.11147110072896137,-1.9463801863486305,0.1336059019074957,2.595550359778934,0.9452445589611904,0.000681730059346235,0.0007857475522544909,-0.0009483649102083995,0.0007903165381657213,0.0002380065330629489,-0.00012825069516933762,-0.0007035147519975066,0.0,0.0,0.0,0.0,0.0,0.0,0.0,-1.3315071947267443e-05,-1.8457098570012764e-05,-5.937132821964841e-05,0.0002557039260919769,1.2918172553694207e-05,4.76837158203125e-06,-1.5258795709183204e-06,-0.000681730059346235,-0.0007857475522544909,0.0009483649102083995,-0.0007903165381657213,-0.0002380065330629489,0.00012825069516933762,0.0007035147519975066,0.24825400114059448,11.802515029907227,-1.0926239490509033,-21.741060256958008,-0.4095359444618225,-2.5271639823913574,0.19351522624492645,0
44,0.2149977684020996,-0.24825400114059448,-11.802515029907227,1.0926239490509033,21.741060256958008,0.4095359444618225,2.5271639823913574,-0.19351522624492645,0.0,0.0,0.0,0.0,0.0,0.0,0.0,-0.23404873038688434,0.5591195830988462,-0.1204832502459503,0.47717622441013524,-0.11857529597563873,0.1270903956602361,-0.22442256684498668,0.17289355269102938,-0.48750178973298325,-0.11141172940074172,-1.9466358902747225,0.133592983734942,2.595545591407352,0.9452460848407613,0.1728802376190821,-0.48752024683155326,-0.11147110072896137,-1.9463801863486305,0.1336059019074957,2.595550359778934,0.9452445589611904,0.000681730059346235,0.0007857475522544909,-0.0009483649102083995,0.0007903165381657213,0.0002380065330629489,-0.00012825069516933762,-0.0007035147519975066,0.0,0.0,0.0,0.0,0.0,0.0,0.0,-1.3315071947267443e-05,-1.8457098570012764e-05,-5.937132821964841e-05,0.0002557039260919769,1.2918172553694207e-05,4.76837158203125e-06,-1.5258795709183204e-06,-0.000681730059346235,-0.0007857475522544909,0.0009483649102083995,-0.0007903165381657213,-0.0002380065330629489,0.00012825069516933762,0.0007035147519975066,0.24825400114059448,11.802515029907227,-1.0926239490509033,-21.741060256958008,-0.4095359444618225,-2.5271639823913574,0.19351522624492645,0
45,0.22000718116760254,-0.24825400114059448,-11.802515029907227,1.0688202381134033,21.792634963989258,0.4214377999305725,2.5143465995788574,-0.22830526530742645,0.0,0.0,0.0,0.0,0.0,0.0,0.0,-0.23656019961887942,0.5678212742877553,-0.13035642329012478,0.4739340144380232,-0.11840842797224076,0.12646420087384078,-0.2245405047079987,0.1728907858950567,-0.48750178973298325,-0.11141005896894553,-1.9466395870266313,0.13359177831735963,2.5955470155609977,0.9452499504006571,0.1728802376190821,-0.48752024683155326,-0.11147110072896137,-1.9463801863486305,0.1336059019074957,2.595550359778934,0.9452445589611904,0.00021590292209632735,0.0011717311736999375,-0.00046128530335866986,-0.0004484750707034406,-0.00034073302011491865,0.0006414513488488226,0.0006035256088711707,0.0,0.0,0.0,0.0,0.0,0.0,0.0,-1.0548275974575638e-05,-1.8457098570012764e-05,-6.104176001583972e-05,0.00025940067800078737,1.4123590136055908e-05,3.3442179363518676e-06,-5.3914394666509935e-06,-0.00021590292209632735,-0.0011717311736999375,0.00046128530335866986,0.0004484750707034406,0.00034073302011491865,-0.0006414513488488226,-0.0006035256088711707,0.24825400114059448,11.802515029907227,-1.0688202381134033,-21.792634963989258,-0.4214377999305725,-2.5143465995788574,0.22830526530742645,0
46,0.22500014305114746,-0.24825400114059448,-11.802515029907227,1.0688202381134033,21.792634963989258,0.4214377999305725,2.5143465995788574,-0.22830526530742645,0.0,0.0,0.0,0.0,0.0,0.0,0.0,-0.23656019961887942,0.5678212742877553,-0.13035642329012478,0.4739340144380232,-0.11840842797224076,0.12646420087384078,-0.2245405047079987,0.1728907858950567,-0.48750178973298325,-0.11141005896894553,-1.9466395870266313,0.13359177831735963,2.5955470155609977,0.9452499504006571,0.1728802376190821,-0.48752024683155326,-0.11147110072896137,-1.9463801863486305,0.1336059019074957,2.595550359778934,0.9452445589611904,0.00021590292209632735,0.0011717311736999375,-0.00046128530335866986,-0.0004484750707034406,-0.00034073302011491865,0.0006414513488488226,0.0006035256088711707,0.0,0.0,0.0,0.0,0.0,0.0,0.0,-1.0548275974575638e-05,-1.8457098570012764e-05,-6.104176001583972e-05,0.00025940067800078737,1.4123590136055908e-05,3.3442179363518676e-06,-5.3914394666509935e-06,-0.00021590292209632735,-0.0011717311736999375,0.00046128530335866986,0.0004484750707034406,0.00034073302011491865,-0.0006414513488488226,-0.0006035256088711707,0.24825400114059448,11.802515029907227,-1.0688202381134033,-21.792634963989258,-0.4214377999305725,-2.5143465995788574,0.22830526530742645,0
47,0.23041033744812012,-0.22445029020309448,-11.802515029907227,1.0688202381134033,21.792634963989258,0.4031272530555725,2.5271639823913574,-0.22098104655742645,0.0,0.0,0.0,0.0,0.0,0.0,0.0,-0.23728042660561194,0.5746123595686153,-0.13257241948759585,0.4723220870883058,-0.11875181056322444,0.12604427869279775,-0.22564760764383127,0.1728898065794707,-0.48750178973298325,-0.11141005604594685,-1.946639739456038,0.13359369434979876,2.595545591407352,0.9452491365985738,0.1728802376190821,-0.48752024683155326,-0.11147110072896137,-1.9463801863486305,0.1336059019074957,2.595550359778934,0.9452445589611904,-0.0005902051770456881,0.001499885452690486,0.00015471667863471022,-0.0004896524348741774,0.0004249443812028432,-7.52893826543381e-05,-0.00035718157232814325,0.0,0.0,0.0,0.0,0.0,0.0,0.0,-9.568960388589565e-06,-1.8457098570012764e-05,-6.104468301451615e-05,0.00025955310740743975,1.2207557696930493e-05,4.76837158203125e-06,-4.5776373833739115e-06,0.0005902051770456881,-0.001499885452690486,-0.00015471667863471022,0.0004896524348741774,-0.0004249443812028432,7.52893826543381e-05,0.00035718157232814325,0.22445029020309448,11.802515029907227,-1.0688202381134033,-21.792634963989258,-0.4031272530555725,-2.5271639823913574,0.22098104655742645,0
48,0.23503804206848145,-0.22445029020309448,-11.802515029907227,1.0688202381134033,21.792634963989258,0.4031272530555725,2.5271639823913574,-0.22098104655742645,0.0,0.0,0.0,0.0,0.0,0.0,0.0,-0.23728042660561194,0.5746123595686153,-0.13257241948759585,0.4723220870883058,-0.11875181056322444,0.12604427869279775,-0.22564760764383127,0.1728898065794707,-0.48750178973298325,-0.11141005604594685,-1.946639739456038,0.13359369434979876,2.595545591407352,0.9452491365985738,0.1728802376190821,-0.48752024683155326,-0.11147110072896137,-1.9463801863486305,0.1336059019074957,2.595550359778934,0.9452445589611904,-0.0005902051770456881,0.001499885452690486,0.00015471667863471022,-0.0004896524348741774,0.0004249443812028432,-7.52893826543381e-05,-0.00035718157232814325,0.0,0.0,0.0,0.0,0.0,0.0,0.0,-9.568960388589565e-06,-1.8457098570012764e-05,-6.104468301451615e-05,0.00025955310740743975,1.2207557696930493e-05,4.76837158203125e-06,-4.5776373833739115e-06,0.0005902051770456881,-0.001499885452690486,-0.00015471667863471022,0.0004896524348741774,-0.0004249443812028432,7.52893826543381e-05,0.00035718157232814325,0.22445029020309448,11.802515029907227,-1.0688202381134033,-21.792634963989258,-0.4031272530555725,-2.5271639823913574,0.22098104655742645,0
49,0.24002432823181152,-0.2720577120780945,-11.774744033813477,1.0410492420196533,21.816438674926758,0.4214377999305725,2.5207552909851074,-0.22098104655742645,0.0,0.0,0.0,0.0,0.0,0.0,0.0,-0.24024664454663136,0.5662836174481984,-0.13161508803293193,0.4809913683859521,-0.11897216297518552,0.12673782574236053,-0.22737164030233942,0.1728955265221561,-0.4875044538305517,-0.11140739983841433,-1.946644165581762,0.13359165984392166,2.595546303484175,0.9452491365985738,0.1728802376190821,-0.48752024683155326,-0.11147110072896137,-1.9463801863486305,0.1336059019074957,2.595550359778934,0.9452445589611904,0.00019204814072442902,0.0007858888704328891,0.0008693189094256762,-0.0008365835993875214,-0.0002568032022531353,0.0003621481889161436,0.0002099727831845358,0.0,0.0,0.0,0.0,0.0,0.0,0.0,-1.52889030739789e-05,-1.579300100157388e-05,-6.370089054703876e-05,0.00026397923313137284,1.424206357403257e-05,4.056294759191559e-06,-4.5776373833739115e-06,-0.00019204814072442902,-0.0007858888704328891,-0.0008693189094256762,0.0008365835993875214,0.0002568032022531353,-0.0003621481889161436,-0.0002099727831845358,0.2720577120780945,11.774744033813477,-1.0410492420196533,-21.816438674926758,-0.4214377999305725,-2.5207552909851074,0.22098104655742645,0
50,0.24500107765197754,-0.2720577120780945,-11.774744033813477,1.0410492420196533,21.816438674926758,0.4214377999305725,2.5207552909851074,-0.22098104655742645,0.0,0.0,0.0,0.0,0.0,0.0,0.0,-0.24024664454663136,0.5662836174481984,-0.13161508803293193,0.4809913683859521,-0.11897216297518552,0.12673782574236053,-0.22737164030233942,0.1728955265221561,-0.4875044538305517,-0.11140739983841433,-1.946644165581762,0.13359165984392166,2.595546303484175,0.9452491365985738,0.1728802376190821,-0.48752024683155326,-0.11147110072896137,-1.9463801863486305,0.1336059019074957,2.595550359778934,0.9452445589611904,0.00019204814072442902,0.0007858888704328891,0.0008693189094256762,-0.0008365835993875214,-0.0002568032022531353,0.0003621481889161436,0.0002099727831845358,0.0,0.0,0.0,0.0,0.0,0.0,0.0,-1.52889030739789e-05,-1.579300100157388e-05,-6.370089054703876e-05,0.00026397923313137284,1.424206357403257e-05,4.056294759191559e-06,-4.5776373833739115e-06,-0.00019204814072442902,-0.0007858888704328891,-0.0008693189094256762,0.0008365835993875214,0.0002568032022531353,-0.0003621481889161436,-0.0002099727831845358,0.2720577120780945,11.774744033813477,-1.0410492420196533,-21.816438674926758,-0.4214377999305725,-2.5207552909851074,0.22098104655742645,0
51,0.2500002384185791,-0.24825400114059448,-11.774744033813477,1.0688202381134033,21.768831253051758,0.4150291085243225,2.5207552909851074,-0.24844686686992645,0.0,0.0,0.0,0.0,0.0,0.0,0.0,-0.23734733324931856,0.5686611504498482,-0.12178519734959786,0.4787128383822322,-0.11904382760261913,0.12668895864252555,-0.22853314775643244,0.17289360199559484,-0.48750373857885204,-0.11141005896493596,-1.9466378391334018,0.13359237208325955,2.595546303484175,0.9452521883563862,0.1728802376190821,-0.48752024683155326,-0.11147110072896137,-1.9463801863486305,0.1336059019074957,2.595550359778934,0.9452445589611904,0.0007468286038438769,0.00041523053243174333,0.00015262037536158796,-0.00016810418033469146,6.412323983938338e-05,0.0002822692684622108,0.0013017518306488519,0.0,0.0,0.0,0.0,0.0,0.0,0.0,-1.3364376512725595e-05,-1.6508252701219472e-05,-6.104176402541017e-05,0.0002576527847713006,1.3529824236135912e-05,4.056294759191559e-06,-7.629395195829503e-06,-0.0007468286038438769,-0.00041523053243174333,-0.00015262037536158796,0.00016810418033469146,-6.412323983938338e-05,-0.0002822692684622108,-0.0013017518306488519,0.24825400114059448,11.774744033813477,-1.0688202381134033,-21.768831253051758,-0.4150291085243225,-2.5207552909851074,0.24844686686992645,0
52,0.2550036907196045,-0.24825400114059448,-11.774744033813477,1.0688202381134033,21.768831253051758,0.4150291085243225,2.5207552909851074,-0.24844686686992645,0.0,0.0,0.0,0.0,0.0,0.0,0.0,-0.23734733324931856,0.5686611504498482,-0.12178519734959786,0.4787128383822322,-0.11904382760261913,0.12668895864252555,-0.22853314775643244,0.17289360199559484,-0.48750373857885204,-0.11141005896493596,-1.9466378391334018,0.13359237208325955,2.595546303484175,0.9452521883563862,0.1728802376190821,-0.48752024683155326,-0.11147110072896137,-1.9463801863486305,0.1336059019074957,2.595550359778934,0.9452445589611904,0.0007468286038438769,0.00041523053243174333,0.00015262037536158796,-0.00016810418033469146,6.412323983938338e-05,0.0002822692684622108,0.0013017518306488519,0.0,0.0,0.0,0.0,0.0,0.0,0.0,-1.3364376512725595e-05,-1.6508252701219472e-05,-6.104176402541017e-05,0.0002576527847713006,1.3529824236135912e-05,4.056294759191559e-06,-7.629395195829503e-06,-0.0007468286038438769,-0.00041523053243174333,-0.00015262037536158796,0.00016810418033469146,-6.412323983938338e-05,-0.0002822692684622108,-0.0013017518306488519,0.24825400114059448,11.774744033813477,-1.0688202381134033,-21.768831253051758,-0.4150291085243225,-2.5207552909851074,0.24844686686992645,0
53,0.2600078582763672,-0.24825400114059448,-11.774744033813477,1.0688202381134033,21.768831253051758,0.4150291085243225,2.5207552909851074,-0.24844686686992645,0.0,0.0,0.0,0.0,0.0,0.0,0.0,-0.23734733324931856,0.5686611504498482,-0.12178519734959786,0.4787128383822322,-0.11904382760261913,0.12668895864252555,-0.22853314775643244,0.17289360199559484,-0.48750373857885204,-0.11141005896493596,-1.9466378391334018,0.13359237208325955,2.595546303484175,0.9452521883563862,0.1728802376190821,-0.48752024683155326,-0.11147110072896137,-1.9463801863486305,0.1336059019074957,2.595550359778934,0.9452445589611904,0.0007468286038438769,0.00041523053243174333,0.00015262037536158796,-0.00016810418033469146,6.412323983938338e-05,0.0002822692684622108,0.0013017518306488519,0.0,0.0,0.0,0.0,0.0,0.0,0.0,-1.3364376512725595e-05,-1.6508252701219472e-05,-6.104176402541017e-05,0.0002576527847713006,1.3529824236135912e-05,4.056294759191559e-06,-7.629395195829503e-06,-0.0007468286038438769,-0.00041523053243174333,-0.00015262037536158796,0.00016810418033469146,-6.412323983938338e-05,-0.0002822692684622108,-0.0013017518306488519,0.24825400114059448,11.774744033813477,-1.0688202381134033,-21.768831253051758,-0.4150291085243225,-2.5207552909851074,0.24844686686992645,0
54,0.2649993896484375,-0.24825400114059448,-11.774744033813477,1.0688202381134033,21.768831253051758,0.4150291085243225,2.5207552909851074,-0.24844686686992645,0.0,0.0,0.0,0.0,0.0,0.0,0.0,-0.23734733324931856,0.5686611504498482,-0.12178519734959786,0.4787128383822322,-0.11904382760261913,0.12668895864252555,-0.22853314775643244,0.17289360199559484,-0.48750373857885204,-0.11141005896493596,-1.9466378391334018,0.13359237208325955,2.595546303484175,0.9452521883563862,0.1728802376190821,-0.48752024683155326,-0.11147110072896137,-1.9463801863486305,0.1336059019074957,2.595550359778934,0.9452445589611904,0.0007468286038438769,0.00041523053243174333,0.00015262037536158796,-0.00016810418033469146,6.412323983938338e-05,0.0002822692684622108,0.0013017518306488519,0.0,0.0,0.0,0.0,0.0,0.0,0.0,-1.3364376512725595e-05,-1.6508252701219472e-05,-6.104176402541017e-05,0.0002576527847713006,1.3529824236135912e-05,4.056294759191559e-06,-7.629395195829503e-06,-0.0007468286038438769,-0.00041523053243174333,-0.00015262037536158796,0.00016810418033469146,-6.412323983938338e-05,-0.0002822692684622108,-0.0013017518306488519,0.24825400114059448,11.774744033813477,-1.0688202381134033,-21.768831253051758,-0.4150291085243225,-2.5207552909851074,0.24844686686992645,0
55,0.270000696182251,-0.17287558317184448,-11.774744033813477,1.1164276599884033,21.768831253051758,0.4095359444618225,2.5335726737976074,-0.24112264811992645,0.0,0.0,0.0,0.0,0.0,0.0,0.0,-0.23760754341102866,0.5602275510861847,-0.12216699301946639,0.4800743237560787,-0.11868549890494245,0.127590877922834,-0.22802288341195456,0.1728856537638,-0.4875037385748144,-0.11141339691765736,-1.946637847969746,0.13359298227230798,2.5955480582449173,0.9452513614723508,0.1728802376190821,-0.48752024683155326,-0.11147110072896137,-1.9463801863486305,0.1336059019074957,2.595550359778934,0.9452445589611904,-0.0010400477395552776,-2.9721494214963925e-05,-0.0006020449264809749,-5.947695036459953e-05,0.0002031306515380083,-0.00029581400979784107,0.0013132357610127453,0.0,0.0,0.0,0.0,0.0,0.0,0.0,-5.416144717884652e-06,-1.650825673887857e-05,-5.770381130400237e-05,0.0002576616211154015,1.2919635187708112e-05,2.301534016702078e-06,-6.802511160364233e-06,0.0010400477395552776,2.9721494214963925e-05,0.0006020449264809749,5.947695036459953e-05,-0.0002031306515380083,0.00029581400979784107,-0.0013132357610127453,0.17287558317184448,11.774744033813477,-1.1164276599884033,-21.768831253051758,-0.4095359444618225,-2.5335726737976074,0.24112264811992645,0
56,0.27500057220458984,-0.17287558317184448,-11.774744033813477,1.1164276599884033,21.768831253051758,0.4095359444618225,2.5335726737976074,-0.24112264811992645,0.0,0.0,0.0,0.0,0.0,0.0,0.0,-0.23760754341102866,0.5602275510861847,-0.12216699301946639,0.4800743237560787,-0.11868549890494245,0.127590877922834,-0.22802288341195456,0.1728856537638,-0.4875037385748144,-0.11141339691765736,-1.946637847969746,0.13359298227230798,2.5955480582449173,0.9452513614723508,0.1728802376190821,-0.48752024683155326,-0.11147110072896137,-1.9463801863486305,0.1336059019074957,2.595550359778934,0.9452445589611904,-0.0010400477395552776,-2.9721494214963925e-05,-0.0006020449264809749,-5.947695036459953e-05,0.0002031306515380083,-0.00029581400979784107,0.0013132357610127453,0.0,0.0,0.0,0.0,0.0,0.0,0.0,-5.416144717884652e-06,-1.650825673887857e-05,-5.770381130400237e-05,0.0002576616211154015,1.2919635187708112e-05,2.301534016702078e-06,-6.802511160364233e-06,0.0010400477395552776,2.9721494214963925e-05,0.0006020449264809749,5.947695036459953e-05,-0.0002031306515380083,0.00029581400979784107,-0.0013132357610127453,0.17287558317184448,11.774744033813477,-1.1164276599884033,-21.768831253051758,-0.4095359444618225,-2.5335726737976074,0.24112264811992645,0
57,0.28000307083129883,-0.22445029020309448,-11.750940322875977,1.0688202381134033,21.792634963989258,0.4214377999305725,2.5271639823913574,-0.22830526530742645,0.0,0.0,0.0,0.0,0.0,0.0,0.0,-0.2389950935933128,0.5633740666281071,-0.12598274704761808,0.4770696346990544,-0.11853185606281327,0.12752025669095496,-0.22617365222762292,0.17289113639680512,-0.48750540901066963,-0.11141005896892905,-1.9466395095524534,0.13359165984392166,2.5955455914252967,0.9452510365296658,0.1728802376190821,-0.48752024683155326,-0.11147110072896137,-1.9463801863486305,0.1336059019074957,2.595550359778934,0.9452445589611904,-0.0004984435577712518,-0.00044477288305509055,0.0005753117784507313,-0.0004688796279023508,-0.0002099655497086821,0.00012378332102226932,0.0006237124114723519,0.0,0.0,0.0,0.0,0.0,0.0,0.0,-1.0898777723006292e-05,-1.4837820883628616e-05,-6.104176003231265e-05,0.0002593232038228255,1.424206357403257e-05,4.768353637274458e-06,-6.477568475382611e-06,0.0004984435577712518,0.00044477288305509055,-0.0005753117784507313,0.0004688796279023508,0.0002099655497086821,-0.00012378332102226932,-0.0006237124114723519,0.22445029020309448,11.750940322875977,-1.0688202381134033,-21.792634963989258,-0.4214377999305725,-2.5271639823913574,0.22830526530742645,0
58,0.2850000858306885,-0.22445029020309448,-11.750940322875977,1.0688202381134033,21.792634963989258,0.4214377999305725,2.5271639823913574,-0.22830526530742645,0.0,0.0,0.0,0.0,0.0,0.0,0.0,-0.2389950935933128,0.5633740666281071,-0.12598274704761808,0.4770696346990544,-0.11853185606281327,0.12752025669095496,-0.22617365222762292,0.17289113639680512,-0.48750540901066963,-0.11141005896892905,-1.9466395095524534,0.13359165984392166,2.5955455914252967,0.9452510365296658,0.1728802376190821,-0.48752024683155326,-0.11147110072896137,-1.9463801863486305,0.1336059019074957,2.595550359778934,0.9452445589611904,-0.0004984435577712518,-0.00044477288305509055,0.0005753117784507313,-0.0004688796279023508,-0.0002099655497086821,0.00012378332102226932,0.0006237124114723519,0.0,0.0,0.0,0.0,0.0,0.0,0.0,-1.0898777723006292e-05,-1.4837820883628616e-05,-6.104176003231265e-05,0.0002593232038228255,1.424206357403257e-05,4.768353637274458e-06,-6.477568475382611e-06,0.0004984435577712518,0.00044477288305509055,-0.0005753117784507313,0.0004688796279023508,0.0002099655497086821,-0.00012378332102226932,-0.0006237124114723519,0.22445029020309448,11.750940322875977,-1.0688202381134033,-21.792634963989258,-0.4214377999305725,-2.5271639823913574,0.22830526530742645,0
59,0.28999900817871094,-0.24825400114059448,-11.774744033813477,1.0926239490509033,21.768831253051758,0.4150291085243225,2.5207552909851074,-0.22830526530742645,0.0,0.0,0.0,0.0,0.0,0.0,0.0,-0.23634650168172788,0.560738788121609,-0.12128308549214092,0.4796218106431577,-0.11837154856768872,0.12763247494047134,-0.22615131399712113,0.17289076162530542,-0.4875037385748144,-0.11141170306172614,-1.9466380772080785,0.13359237192074458,2.595546303484175,0.9452499503529531,0.1728802376190821,-0.48752024683155326,-0.11147110072896137,-1.9463801863486305,0.1336059019074957,2.595550359778934,0.9452445589611904,0.0004946977918907238,0.00011094650741840341,-0.00046514295259933545,0.00027981703730749755,-0.008963931915671337,0.00012502058877005785,0.00041259407149743277,0.0,0.0,0.0,0.0,0.0,0.0,0.0,-1.05240062233114e-05,-1.650825673887857e-05,-5.93976672352281e-05,0.0002578908594479401,1.3529986751109613e-05,4.056294759191559e-06,-5.391391762699094e-06,-0.0004946977918907238,-0.00011094650741840341,0.00046514295259933545,-0.00027981703730749755,0.008963931915671337,-0.00012502058877005785,-0.00041259407149743277,0.24825400114059448,11.774744033813477,-1.0926239490509033,-21.768831253051758,-0.4150291085243225,-2.5207552909851074,0.22830526530742645,0
60,0.2950150966644287,-0.24825400114059448,-11.774744033813477,1.0926239490509033,21.768831253051758,0.4150291085243225,2.5207552909851074,-0.22830526530742645,0.0,0.0,0.0,0.0,0.0,0.0,0.0,-0.23634650168172788,0.560738788121609,-0.12128308549214092,0.4796218106431577,-0.11837154856768872,0.12763247494047134,-0.22615131399712113,0.17289076162530542,-0.4875037385748144,-0.11141170306172614,-1.9466380772080785,0.13359237192074458,2.595546303484175,0.9452499503529531,0.1728802376190821,-0.48752024683155326,-0.11147110072896137,-1.9463801863486305,0.1336059019074957,2.595550359778934,0.9452445589611904,0.0004946977918907238,0.00011094650741840341,-0.00046514295259933545,0.00027981703730749755,-0.008963931915671337,0.00012502058877005785,0.00041259407149743277,0.0,0.0,0.0,0.0,0.0,0.0,0.0,-1.05240062233114e-05,-1.650825673887857e-05,-5.93976672352281e-05,0.0002578908594479401,1.3529986751109613e-05,4.056294759191559e-06,-5.391391762699094e-06,-0.0004946977918907238,-0.00011094650741840341,0.00046514295259933545,-0.00027981703730749755,0.008963931915671337,-0.00012502058877005785,-0.00041259407149743277,0.24825400114059448,11.774744033813477,-1.0926239490509033,-21.768831253051758,-0.4150291085243225,-2.5207552909851074,0.22830526530742645,0
61,0.30003929138183594,-0.24825400114059448,-11.750940322875977,1.0688202381134033,21.792634963989258,0.4150291085243225,2.5207552909851074,-0.21457235515117645,0.0,0.0,0.0,0.0,0.0,0.0,0.0,-0.23282884570745582,0.5616339640454875,-0.11891702090629266,0.48043219310544644,-0.11821275184187148,0.1272544536831631,-0.2262583525567195,0.17289070631424858,-0.48750540901066963,-0.11141005896879685,-1.946639815671429,0.13359237192074458,2.595546303484175,0.9452484245217506,0.1728802376190821,-0.48752024683155326,-0.11147110072896137,-1.9463801863486305,0.1336059019074957,2.595550359778934,0.9452445589611904,0.00018424152082527107,-0.0005605081570775698,-0.00022106526724307714,-0.00023984278697673642,0.0026534050146664666,0.00026246824805792784,-0.002941720846266921,0.0,0.0,0.0,0.0,0.0,0.0,0.0,-1.0468695166465647e-05,-1.4837820883628616e-05,-6.104176016451246e-05,0.0002596293227985491,1.3529986751109613e-05,4.056294759191559e-06,-3.865560560201153e-06,-0.00018424152082527107,0.0005605081570775698,0.00022106526724307714,0.00023984278697673642,-0.0026534050146664666,-0.00026246824805792784,0.002941720846266921,0.24825400114059448,11.750940322875977,-1.0688202381134033,-21.792634963989258,-0.4150291085243225,-2.5207552909851074,0.21457235515117645,0
62,0.3050072193145752,-0.24825400114059448,-11.750940322875977,1.0688202381134033,21.792634963989258,0.4150291085243225,2.5207552909851074,-0.21457235515117645,0.0,0.0,0.0,0.0,0.0,0.0,0.0,-0.23282884570745582,0.5616339640454875,-0.11891702090629266,0.48043219310544644,-0.11821275184187148,0.1272544536831631,-0.2262583525567195,0.17289070631424858,-0.48750540901066963,-0.11141005896879685,-1.946639815671429,0.13359237192074458,2.595546303484175,0.9452484245217506,0.1728802376190821,-0.48752024683155326,-0.11147110072896137,-1.9463801863486305,0.1336059019074957,2.595550359778934,0.9452445589611904,0.00018424152082527107,-0.0005605081570775698,-0.00022106526724307714,-0.00023984278697673642,0.0026534050146664666,0.00026246824805792784,-0.002941720846266921,0.0,0.0,0.0,0.0,0.0,0.0,0.0,-1.0468695166465647e-05,-1.4837820883628616e-05,-6.104176016451246e-05,0.0002596293227985491,1.3529986751109613e-05,4.056294759191559e-06,-3.865560560201153e-06,-0.00018424152082527107,0.0005605081570775698,0.00022106526724307714,0.00023984278697673642,-0.0026534050146664666,-0.00026246824805792784,0.002941720846266921,0.24825400114059448,11.750940322875977,-1.0688202381134033,-21.792634963989258,-0.4150291085243225,-2.5207552909851074,0.21457235515117645,0
63,0.30995607376098633,-0.24825400114059448,-11.750940322875977,1.0926239490509033,21.768831253051758,0.4095359444618225,2.5335726737976074,-0.19351522624492645,0.0,0.0,0.0,0.0,0.0,0.0,0.0,-0.23410050156582576,0.5657965643712174,-0.12044731020840674,0.4837425271134736,-0.11835943213801838,0.12899199650879417,-0.22537078419991788,0.17289068867281612,-0.48750540901066963,-0.11141172940480082,-1.9466406793150806,0.13359299543602146,2.595544879330529,0.9452460848407613,0.1728802376190821,-0.48752024683155326,-0.11147110072896137,-1.9463801863486305,0.1336059019074957,2.595550359778934,0.9452445589611904,-3.989797158437766e-05,0.0004276803273119582,-0.0009894623102461799,-7.264188779545094e-05,0.0003235120421962893,-0.001349158270841963,-0.0011210309640162944,0.0,0.0,0.0,0.0,0.0,0.0,0.0,-1.0451053734011895e-05,-1.4837820883628616e-05,-5.9371324160548133e-05,0.00026049296645003217,1.2906471474227743e-05,5.480448404870941e-06,-1.5258795709183204e-06,3.989797158437766e-05,-0.0004276803273119582,0.0009894623102461799,7.264188779545094e-05,-0.0003235120421962893,0.001349158270841963,0.0011210309640162944,0.24825400114059448,11.750940322875977,-1.0926239490509033,-21.768831253051758,-0.4095359444618225,-2.5335726737976074,0.19351522624492645,0
64,0.31499338150024414,-0.24825400114059448,-11.750940322875977,1.0926239490509033,21.768831253051758,0.4095359444618225,2.5335726737976074,-0.19351522624492645,0.0,0.0,0.0,0.0,0.0,0.0,0.0,-0.23410050156582576,0.5657965643712174,-0.12044731020840674,0.4837425271134736,-0.11835943213801838,0.12899199650879417,-0.22537078419991788,0.17289068867281612,-0.48750540901066963,-0.11141172940480082,-1.9466406793150806,0.13359299543602146,2.595544879330529,0.9452460848407613,0.1728802376190821,-0.48752024683155326,-0.11147110072896137,-1.9463801863486305,0.1336059019074957,2.595550359778934,0.9452445589611904,-3.989797158437766e-05,0.0004276803273119582,-0.0009894623102461799,-7.264188779545094e-05,0.0003235120421962893,-0.001349158270841963,-0.0011210309640162944,0.0,0.0,0.0,0.0,0.0,0.0,0.0,-1.0451053734011895e-05,-1.4837820883628616e-05,-5.9371324160548133e-05,0.00026049296645003217,1.2906471474227743e-05,5.480448404870941e-06,-1.5258795709183204e-06,3.989797158437766e-05,-0.0004276803273119582,0.0009894623102461799,7.264188779545094e-05,-0.0003235120421962893,0.001349158270841963,0.0011210309640162944,0.24825400114059448,11.750940322875977,-1.0926239490509033,-21.768831253051758,-0.4095359444618225,-2.5335726737976074,0.19351522624492645,0
65,0.31999945640563965,-0.24825400114059448,-11.826318740844727,1.0688202381134033,21.768831253051758,0.4150291085243225,2.5399813652038574,-0.17978231608867645,0.0,0.0,0.0,0.0,0.0,0.0,0.0,-0.23526063917114953,0.5633629524805784,-0.123177985788108,0.4838260757396389,-0.11781378182972364,0.1286911073739489,-0.22498002253154203,0.1728928320688246,-0.487500119297128,-0.11141005896894556,-1.9466399054269334,0.13359237192081888,2.5955441672537063,0.945244558961855,0.1728802376190821,-0.48752024683155326,-0.11147110072896137,-1.9463801863486305,0.1336059019074957,2.595550359778934,0.9452445589611904,0.000296148671902419,0.001986412873097287,-0.00025270016980385676,0.00020253907737704111,0.00017071457458288255,-0.0003781694216299648,-0.0012517351432595417,0.0,0.0,0.0,0.0,0.0,0.0,0.0,-1.2594449742497904e-05,-2.0127534425262716e-05,-6.104176001581196e-05,0.0002597190783029113,1.3529986676807937e-05,6.192525227710632e-06,-6.645795025406187e-13,-0.000296148671902419,-0.001986412873097287,0.00025270016980385676,-0.00020253907737704111,-0.00017071457458288255,0.0003781694216299648,0.0012517351432595417,0.24825400114059448,11.826318740844727,-1.0688202381134033,-21.768831253051758,-0.4150291085243225,-2.5399813652038574,0.17978231608867645,0
66,0.3249964714050293,-0.24825400114059448,-11.826318740844727,1.0688202381134033,21.768831253051758,0.4150291085243225,2.5399813652038574,-0.17978231608867645,0.0,0.0,0.0,0.0,0.0,0.0,0.0,-0.23526063917114953,0.5633629524805784,-0.123177985788108,0.4838260757396389,-0.11781378182972364,0.1286911073739489,-0.22498002253154203,0.1728928320688246,-0.487500119297128,-0.11141005896894556,-1.9466399054269334,0.13359237192081888,2.5955441672537063,0.945244558961855,0.1728802376190821,-0.48752024683155326,-0.11147110072896137,-1.9463801863486305,0.1336059019074957,2.595550359778934,0.9452445589611904,0.000296148671902419,0.001986412873097287,-0.00025270016980385676,0.00020253907737704111,0.00017071457458288255,-0.0003781694216299648,-0.0012517351432595417,0.0,0.0,0.0,0.0,0.0,0.0,0.0,-1.2594449742497904e-05,-2.0127534425262716e-05,-6.104176001581196e-05,0.0002597190783029113,1.3529986676807937e-05,6.192525227710632e-06,-6.645795025406187e-13,-0.000296148671902419,-0.001986412873097287,0.00025270016980385676,-0.00020253907737704111,-0.00017071457458288255,0.0003781694216299648,0.0012517351432595417,0.24825400114059448,11.826318740844727,-1.0688202381134033,-21.768831253051758,-0.4150291085243225,-2.5399813652038574,0.17978231608867645,0
67,0.32999587059020996,-0.24825400114059448,-11.750940322875977,1.1164276599884033,21.816438674926758,0.4269309639930725,2.5463900566101074,-0.21457235515117645,0.0,0.0,0.0,0.0,0.0,0.0,0.0,-0.2345937834876868,0.5735265375335019,-0.12647865289581528,0.47653379020688535,-0.1173966968514047,0.1287391900681028,-0.22482459930700943,0.172892810047525,-0.48750540901066963,-0.11141126897460536,-1.946643257736946,0.13359104949235917,2.5955434551768835,0.9452484245217508,0.1728802376190821,-0.48752024683155326,-0.11147110072896137,-1.9463801863486305,0.1336059019074957,2.595550359778934,0.9452445589611904,0.0005346059184907737,6.298757611357709e-05,-0.001392447776545871,-0.0012837036654184777,-0.0003541843979372117,-0.0004880598905470468,-5.356579034648326e-05,0.0,0.0,0.0,0.0,0.0,0.0,0.0,-1.2572428442880756e-05,-1.4837820883628616e-05,-5.983175435600452e-05,0.00026307138831538346,1.4852415136518138e-05,6.904602050550324e-06,-3.865560560423198e-06,-0.0005346059184907737,-6.298757611357709e-05,0.001392447776545871,0.0012837036654184777,0.0003541843979372117,0.0004880598905470468,5.356579034648326e-05,0.24825400114059448,11.750940322875977,-1.1164276599884033,-21.816438674926758,-0.4269309639930725,-2.5463900566101074,0.21457235515117645,0
68,0.3350389003753662,-0.24825400114059448,-11.750940322875977,1.1164276599884033,21.816438674926758,0.4269309639930725,2.5463900566101074,-0.21457235515117645,0.0,0.0,0.0,0.0,0.0,0.0,0.0,-0.2345937834876868,0.5735265375335019,-0.12647865289581528,0.47653379020688535,-0.1173966968514047,0.1287391900681028,-0.22482459930700943,0.172892810047525,-0.48750540901066963,-0.11141126897460536,-1.946643257736946,0.13359104949235917,2.5955434551768835,0.9452484245217508,0.1728802376190821,-0.48752024683155326,-0.11147110072896137,-1.9463801863486305,0.1336059019074957,2.595550359778934,0.9452445589611904,0.0005346059184907737,6.298757611357709e-05,-0.001392447776545871,-0.0012837036654184777,-0.0003541843979372117,-0.0004880598905470468,-5.356579034648326e-05,0.0,0.0,0.0,0.0,0.0,0.0,0.0,-1.2572428442880756e-05,-1.4837820883628616e-05,-5.983175435600452e-05,0.00026307138831538346,1.4852415136518138e-05,6.904602050550324e-06,-3.865560560423198e-06,-0.0005346059184907737,-6.298757611357709e-05,0.001392447776545871,0.0012837036654184777,0.0003541843979372117,0.0004880598905470468,5.356579034648326e-05,0.24825400114059448,11.750940322875977,-1.1164276599884033,-21.816438674926758,-0.4269309639930725,-2.5463900566101074,0.21457235515117645,0
69,0.3399965763092041,-0.19667929410934448,-11.802515029907227,1.0172455310821533,21.741060256958008,0.4095359444618225,2.5271639823913574,-0.17978231608867645,0.0,0.0,0.0,0.0,0.0,0.0,0.0,-0.23472629526367697,0.5633592208752521,-0.12968191501449933,0.48116189827040795,-0.11682716314123567,0.13108362757405617,-0.22431602873958129,0.17288717546974045,-0.48750178973298325,-0.11140643967923035,-1.9466359753541282,0.13359299543602146,2.595545591407352,0.945244558961855,0.1728802376190821,-0.48752024683155326,-0.11147110072896137,-1.9463801863486305,0.1336059019074957,2.595550359778934,0.9452445589611904,-0.0010140001050318041,0.000719147224998395,0.0016514255456351855,0.0007737159065385267,0.00024923800699101106,0.0002754872637944822,-0.001424975700543631,0.0,0.0,0.0,0.0,0.0,0.0,0.0,-6.937850658333966e-06,-1.8457098570012764e-05,-6.46610497310185e-05,0.00025578900549771966,1.2906471474227743e-05,4.76837158203125e-06,-6.645795025406187e-13,0.0010140001050318041,-0.000719147224998395,-0.0016514255456351855,-0.0007737159065385267,-0.00024923800699101106,-0.0002754872637944822,0.001424975700543631,0.19667929410934448,11.802515029907227,-1.0172455310821533,-21.741060256958008,-0.4095359444618225,-2.5271639823913574,0.17978231608867645,0
70,0.34501051902770996,-0.19667929410934448,-11.802515029907227,1.0172455310821533,21.741060256958008,0.4095359444618225,2.5271639823913574,-0.17978231608867645,0.0,0.0,0.0,0.0,0.0,0.0,0.0,-0.23472629526367697,0.5633592208752521,-0.12968191501449933,0.48116189827040795,-0.11682716314123567,0.13108362757405617,-0.22431602873958129,0.17288717546974045,-0.48750178973298325,-0.11140643967923035,-1.9466359753541282,0.13359299543602146,2.595545591407352,0.945244558961855,0.1728802376190821,-0.48752024683155326,-0.11147110072896137,-1.9463801863486305,0.1336059019074957,2.595550359778934,0.9452445589611904,-0.0010140001050318041,0.000719147224998395,0.0016514255456351855,0.0007737159065385267,0.00024923800699101106,0.0002754872637944822,-0.001424975700543631,0.0,0.0,0.0,0.0,0.0,0.0,0.0,-6.937850658333966e-06,-1.8457098570012764e-05,-6.46610497310185e-05,0.00025578900549771966,1.2906471474227743e-05,4.76837158203125e-06,-6.645795025406187e-13,0.0010140001050318041,-0.000719147224998395,-0.0016514255456351855,-0.0007737159065385267,-0.00024923800699101106,-0.0002754872637944822,0.001424975700543631,0.19667929410934448,11.802515029907227,-1.0172455310821533,-21.741060256958008,-0.4095359444618225,-2.5271639823913574,0.17978231608867645,0
71,0.3500041961669922,-0.22445029020309448,-11.750940322875977,1.0410492420196533,21.768831253051758,0.4150291085243225,2.5335726737976074,-0.20083944499492645,0.0,0.0,0.0,0.0,0.0,0.0,0.0,-0.2338062924676491,0.56499057845815,-0.128022849054561,0.47761837091656073,-0.11695823364870091,0.1309095506813741,-0.22426593709261042,0.1728897182299104,-0.48750540901066963,-0.11140811012711434,-1.9466378394319643,0.13359237192081888,2.595544879330529,0.9452468986428446,0.1728802376190821,-0.48752024683155326,-0.11147110072896137,-1.9463801863486305,0.1336059019074957,2.595550359778934,0.9452445589611904,-0.0005145720302619861,-0.0008526531085376918,0.000752265461621738,2.045227258696857e-05,-4.344126687607389e-05,-0.00020298406963592546,-0.0006334654159187138,0.0,0.0,0.0,0.0,0.0,0.0,0.0,-9.480610828282998e-06,-1.4837820883628616e-05,-6.299060184702943e-05,0.00025765308333380865,1.3529986676807937e-05,5.480448404870941e-06,-2.3396816541954024e-06,0.0005145720302619861,0.0008526531085376918,-0.000752265461621738,-2.045227258696857e-05,4.344126687607389e-05,0.00020298406963592546,0.0006334654159187138,0.22445029020309448,11.750940322875977,-1.0410492420196533,-21.768831253051758,-0.4150291085243225,-2.5335726737976074,0.20083944499492645,0
72,0.3549962043762207,-0.22445029020309448,-11.750940322875977,1.0410492420196533,21.768831253051758,0.4150291085243225,2.5335726737976074,-0.20083944499492645,0.0,0.0,0.0,0.0,0.0,0.0,0.0,-0.2338062924676491,0.56499057845815,-0.128022849054561,0.47761837091656073,-0.11695823364870091,0.1309095506813741,-0.22426593709261042,0.1728897182299104,-0.48750540901066963,-0.11140811012711434,-1.9466378394319643,0.13359237192081888,2.595544879330529,0.9452468986428446,0.1728802376190821,-0.48752024683155326,-0.11147110072896137,-1.9463801863486305,0.1336059019074957,2.595550359778934,0.9452445589611904,-0.0005145720302619861,-0.0008526531085376918,0.000752265461621738,2.045227258696857e-05,-4.344126687607389e-05,-0.00020298406963592546,-0.0006334654159187138,0.0,0.0,0.0,0.0,0.0,0.0,0.0,-9.480610828282998e-06,-1.4837820883628616e-05,-6.299060184702943e-05,0.00025765308333380865,1.3529986676807937e-05,5.480448404870941e-06,-2.3396816541954024e-06,0.0005145720302619861,0.0008526531085376918,-0.000752265461621738,-2.045227258696857e-05,4.344126687607389e-05,0.00020298406963592546,0.0006334654159187138,0.22445029020309448,11.750940322875977,-1.0410492420196533,-21.768831253051758,-0.4150291085243225,-2.5335726737976074,0.20083944499492645,0
73,0.359999418258667,-0.22445029020309448,-11.774744033813477,1.0926239490509033,21.840242385864258,0.4095359444618225,2.5207552909851074,-0.20083944499492645,0.0,0.0,0.0,0.0,0.0,0.0,0.0,-0.2322910387488575,0.5693971176914825,-0.12429395191642015,0.4735074935384932,-0.11723830115487706,0.13001788451849314,-0.22380280733343755,0.17289208315143806,-0.4875037385748144,-0.11141172940480082,-1.9466428505290942,0.13359298227230706,2.595546303484175,0.9452468986428446,0.1728802376190821,-0.48752024683155326,-0.11147110072896137,-1.9463801863486305,0.1336059019074957,2.595550359778934,0.9452445589611904,-5.358761626652447e-05,0.0003316941497581199,-0.00046936476775095537,-0.0016807260491256977,0.00012854835451825604,0.0004057406016205352,-0.00030962361832206946,0.0,0.0,0.0,0.0,0.0,0.0,0.0,-1.184553235594743e-05,-1.650825673887857e-05,-5.9371324160548133e-05,0.0002626641804637231,1.2919635188624046e-05,4.056294759191559e-06,-2.3396816541954024e-06,5.358761626652447e-05,-0.0003316941497581199,0.00046936476775095537,0.0016807260491256977,-0.00012854835451825604,-0.0004057406016205352,0.00030962361832206946,0.22445029020309448,11.774744033813477,-1.0926239490509033,-21.840242385864258,-0.4095359444618225,-2.5207552909851074,0.20083944499492645,0
74,0.36499476432800293,-0.22445029020309448,-11.774744033813477,1.0926239490509033,21.840242385864258,0.4095359444618225,2.5207552909851074,-0.20083944499492645,0.0,0.0,0.0,0.0,0.0,0.0,0.0,-0.2322910387488575,0.5693971176914825,-0.12429395191642015,0.4735074935384932,-0.11723830115487706,0.13001788451849314,-0.22380280733343755,0.17289208315143806,-0.4875037385748144,-0.11141172940480082,-1.9466428505290942,0.13359298227230706,2.595546303484175,0.9452468986428446,0.1728802376190821,-0.48752024683155326,-0.11147110072896137,-1.9463801863486305,0.1336059019074957,2.595550359778934,0.9452445589611904,-5.358761626652447e-05,0.0003316941497581199,-0.00046936476775095537,-0.0016807260491256977,0.00012854835451825604,0.0004057406016205352,-0.00030962361832206946,0.0,0.0,0.0,0.0,0.0,0.0,0.0,-1.184553235594743e-05,-1.650825673887857e-05,-5.9371324160548133e-05,0.0002626641804637231,1.2919635188624046e-05,4.056294759191559e-06,-2.3396816541954024e-06,5.358761626652447e-05,-0.0003316941497581199,0.00046936476775095537,0.0016807260491256977,-0.00012854835451825604,-0.0004057406016205352,0.00030962361832206946,0.22445029020309448,11.774744033813477,-1.0926239490509033,-21.840242385864258,-0.4095359444618225,-2.5207552909851074,0.20083944499492645,0
75,0.37002110481262207,-0.22445029020309448,-11.774744033813477,1.0688202381134033,21.840242385864258,0.4150291085243225,2.5399813652038574,-0.20083944499492645,0.0,0.0,0.0,0.0,0.0,0.0,0.0,-0.23865625521989048,0.5674172938630004,-0.13313766854929193,0.47711692571990744,-0.11750716994268488,0.12996054074757232,-0.22302360559890044,0.17288936052789758,-0.4875037385748144,-0.11141005896894556,-1.9466428599771697,0.13359237192074458,2.5955441672537063,0.9452468986428446,0.1728802376190821,-0.48752024683155326,-0.11147110072896137,-1.9463801863486305,0.1336059019074957,2.595550359778934,0.9452445589611904,-0.00046421615389659424,0.00039774931010103353,0.0001357073752384728,-0.0011577039402820015,-9.029381143204288e-05,-0.0004939442941992969,-0.00039213127583319774,0.0,0.0,0.0,0.0,0.0,0.0,0.0,-9.122908815467623e-06,-1.650825673887857e-05,-6.104176001581196e-05,0.0002626736285391562,1.3529986751109613e-05,6.192525227710632e-06,-2.3396816541954024e-06,0.00046421615389659424,-0.00039774931010103353,-0.0001357073752384728,0.0011577039402820015,9.029381143204288e-05,0.0004939442941992969,0.00039213127583319774,0.22445029020309448,11.774744033813477,-1.0688202381134033,-21.840242385864258,-0.4150291085243225,-2.5399813652038574,0.20083944499492645,0
76,0.3750331401824951,-0.22445029020309448,-11.774744033813477,1.0688202381134033,21.840242385864258,0.4150291085243225,2.5399813652038574,-0.20083944499492645,0.0,0.0,0.0,0.0,0.0,0.0,0.0,-0.23865625521989048,0.5674172938630004,-0.13313766854929193,0.47711692571990744,-0.11750716994268488,0.12996054074757232,-0.22302360559890044,0.17288936052789758,-0.4875037385748144,-0.11141005896894556,-1.9466428599771697,0.13359237192074458,2.5955441672537063,0.9452468986428446,0.1728802376190821,-0.48752024683155326,-0.11147110072896137,-1.9463801863486305,0.1336059019074957,2.595550359778934,0.9452445589611904,-0.00046421615389659424,0.00039774931010103353,0.0001357073752384728,-0.0011577039402820015,-9.029381143204288e-05,-0.0004939442941992969,-0.00039213127583319774,0.0,0.0,0.0,0.0,0.0,0.0,0.0,-9.122908815467623e-06,-1.650825673887857e-05,-6.104176001581196e-05,0.0002626736285391562,1.3529986751109613e-05,6.192525227710632e-06,-2.3396816541954024e-06,0.00046421615389659424,-0.00039774931010103353,-0.0001357073752384728,0.0011577039402820015,9.029381143204288e-05,0.0004939442941992969,0.00039213127583319774,0.22445029020309448,11.774744033813477,-1.0688202381134033,-21.840242385864258,-0.4150291085243225,-2.5399813652038574,0.20083944499492645,0
77,0.3800170421600342,-0.22445029020309448,-11.774744033813477,1.0688202381134033,21.840242385864258,0.4150291085243225,2.5399813652038574,-0.20083944499492645,0.0,0.0,0.0,0.0,0.0,0.0,0.0,-0.23865625521989048,0.5674172938630004,-0.13313766854929193,0.47711692571990744,-0.11750716994268488,0.12996054074757232,-0.22302360559890044,0.17288936052789758,-0.4875037385748144,-0.11141005896894556,-1.9466428599771697,0.13359237192074458,2.5955441672537063,0.9452468986428446,0.1728802376190821,-0.48752024683155326,-0.11147110072896137,-1.9463801863486305,0.1336059019074957,2.595550359778934,0.9452445589611904,-0.00046421615389659424,0.00039774931010103353,0.0001357073752384728,-0.0011577039402820015,-9.029381143204288e-05,-0.0004939442941992969,-0.00039213127583319774,0.0,0.0,0.0,0.0,0.0,0.0,0.0,-9.122908815467623e-06,-1.650825673887857e-05,-6.104176001581196e-05,0.0002626736285391562,1.3529986751109613e-05,6.192525227710632e-06,-2.3396816541954024e-06,0.00046421615389659424,-0.00039774931010103353,-0.0001357073752384728,0.0011577039402820015,9.029381143204288e-05,0.0004939442941992969,0.00039213127583319774,0.22445029020309448,11.774744033813477,-1.0688202381134033,-21.840242385864258,-0.4150291085243225,-2.5399813652038574,0.20083944499492645,0
78,0.385054349899292,-0.22445029020309448,-11.774744033813477,1.0688202381134033,21.840242385864258,0.4150291085243225,2.5399813652038574,-0.20083944499492645,0.0,0.0,0.0,0.0,0.0,0.0,0.0,-0.23865625521989048,0.5674172938630004,-0.13313766854929193,0.47711692571990744,-0.11750716994268488,0.12996054074757232,-0.22302360559890044,0.17288936052789758,-0.4875037385748144,-0.11141005896894556,-1.9466428599771697,0.13359237192074458,2.5955441672537063,0.9452468986428446,0.1728802376190821,-0.48752024683155326,-0.11147110072896137,-1.9463801863486305,0.1336059019074957,2.595550359778934,0.9452445589611904,-0.00046421615389659424,0.00039774931010103353,0.0001357073752384728,-0.0011577039402820015,-9.029381143204288e-05,-0.0004939442941992969,-0.00039213127583319774,0.0,0.0,0.0,0.0,0.0,0.0,0.0,-9.122908815467623e-06,-1.650825673887857e-05,-6.104176001581196e-05,0.0002626736285391562,1.3529986751109613e-05,6.192525227710632e-06,-2.3396816541954024e-06,0.00046421615389659424,-0.00039774931010103353,-0.0001357073752384728,0.0011577039402820015,9.029381143204288e-05,0.0004939442941992969,0.00039213127583319774,0.22445029020309448,11.774744033813477,-1.0688202381134033,-21.840242385864258,-0.4150291085243225,-2.5399813652038574,0.20083944499492645,0
79,0.39000654220581055,-0.19667929410934448,-11.750940322875977,1.0926239490509033,21.741060256958008,0.4150291085243225,2.5271639823913574,-0.18710653483867645,0.0,0.0,0.0,0.0,0.0,0.0,0.0,-0.23273949190052604,0.5728103261808999,-0.12301888913213144,0.47513177730027273,-0.118446021283755,0.12868179812764466,-0.22154462087994453,0.17288780567971715,-0.48750540901066963,-0.11141172940480082,-1.9466366555689756,0.13359237192074458,2.595545591407352,0.9452453727639384,0.1728802376190821,-0.48752024683155326,-0.11147110072896137,-1.9463801863486305,0.1336059019074957,2.595550359778934,0.9452445589611904,-0.0007477497440784531,-0.00021232149473254846,-0.00043180879590143254,0.0006002649848167643,2.2274933543805153e-05,7.72961915267076e-05,-0.00067465498613856,0.0,0.0,0.0,0.0,0.0,0.0,0.0,-7.568060635038121e-06,-1.4837820883628616e-05,-5.9371324160548133e-05,0.0002564692203450569,1.3529986751109613e-05,4.76837158203125e-06,-8.138027479676069e-07,0.0007477497440784531,0.00021232149473254846,0.00043180879590143254,-0.0006002649848167643,-2.2274933543805153e-05,-7.72961915267076e-05,0.00067465498613856,0.19667929410934448,11.750940322875977,-1.0926239490509033,-21.741060256958008,-0.4150291085243225,-2.5271639823913574,0.18710653483867645,0
