rezayati/contactInterpretation/dataset/franka_main/labeled_data/link5/c1_8.csv
index,time,tau_J0,tau_J1,tau_J2,tau_J3,tau_J4,tau_J5,tau_J6,tau_J_d0,tau_J_d1,tau_J_d2,tau_J_d3,tau_J_d4,tau_J_d5,tau_J_d6,tau_ext0,tau_ext1,tau_ext2,tau_ext3,tau_ext4,tau_ext5,tau_ext6,q0,q1,q2,q3,q4,q5,q6,q_d0,q_d1,q_d2,q_d3,q_d4,q_d5,q_d6,dq0,dq1,dq2,dq3,dq4,dq5,dq6,dq_d0,dq_d1,dq_d2,dq_d3,dq_d4,dq_d5,dq_d6,e0,e1,e2,e3,e4,e5,e6,de0,de1,de2,de3,de4,de5,de6,etau_J0,etau_J1,etau_J2,etau_J3,etau_J4,etau_J5,etau_J6,label
1,0.0,-0.3236324191093445,-22.720483779907227,-0.07375786453485489,14.108003616333008,0.1888938546180725,2.1325716972351074,-0.28232139348983765,0.0,0.0,0.0,0.0,0.0,0.0,0.0,-0.2971254618841146,0.06774477801468366,-0.10296480034021407,0.2516956533641613,-0.05008874515976813,-0.04661214395640968,-0.25111582044283504,1.6754973547542302,0.05224455087174449,0.029833921353817273,-2.7526258252127125,0.034244309703113825,2.7663693784607783,0.769169407202146,1.6754973547542302,0.052104326824870026,0.029969505109285054,-2.752394845125968,0.0342448039870148,2.7663679543071322,0.7691630533470046,0.0001355643431802965,4.4816903818285695e-05,0.0009339260519928706,-0.00010470628358313317,-0.00019543065453911436,6.462138489520755e-05,0.002995084755374614,0.0,0.0,0.0,0.0,0.0,0.0,0.0,0.0,-0.00014022404687446394,0.00013558375546778023,0.0002309800867443812,4.942839009758337e-07,-1.4241536461234716e-06,-6.353855141361109e-06,-0.0001355643431802965,-4.4816903818285695e-05,-0.0009339260519928706,0.00010470628358313317,0.00019543065453911436,-6.462138489520755e-05,-0.002995084755374614,0.3236324191093445,22.720483779907227,0.07375786453485489,-14.108003616333008,-0.1888938546180725,-2.1325716972351074,0.28232139348983765,0
2,0.004998445510864258,-0.3236324191093445,-22.720483779907227,-0.07375786453485489,14.108003616333008,0.1888938546180725,2.1325716972351074,-0.28232139348983765,0.0,0.0,0.0,0.0,0.0,0.0,0.0,-0.2971254618841146,0.06774477801468366,-0.10296480034021407,0.2516956533641613,-0.05008874515976813,-0.04661214395640968,-0.25111582044283504,1.6754973547542302,0.05224455087174449,0.029833921353817273,-2.7526258252127125,0.034244309703113825,2.7663693784607783,0.769169407202146,1.6754973547542302,0.052104326824870026,0.029969505109285054,-2.752394845125968,0.0342448039870148,2.7663679543071322,0.7691630533470046,0.0001355643431802965,4.4816903818285695e-05,0.0009339260519928706,-0.00010470628358313317,-0.00019543065453911436,6.462138489520755e-05,0.002995084755374614,0.0,0.0,0.0,0.0,0.0,0.0,0.0,0.0,-0.00014022404687446394,0.00013558375546778023,0.0002309800867443812,4.942839009758337e-07,-1.4241536461234716e-06,-6.353855141361109e-06,-0.0001355643431802965,-4.4816903818285695e-05,-0.0009339260519928706,0.00010470628358313317,0.00019543065453911436,-6.462138489520755e-05,-0.002995084755374614,0.3236324191093445,22.720483779907227,0.07375786453485489,-14.108003616333008,-0.1888938546180725,-2.1325716972351074,0.28232139348983765,0
3,0.010001420974731445,-0.2720577120780945,-22.748254776000977,-0.04995415359735489,14.155611038208008,0.1888938546180725,2.1389803886413574,-0.26858848333358765,0.0,0.0,0.0,0.0,0.0,0.0,0.0,-0.29662032205286665,0.0689835792194501,-0.09962314060766679,0.2532840351721583,-0.05016357110073179,-0.04700646990069933,-0.2515889040561614,1.6754937354765438,0.05224649971357563,0.02983303427714143,-2.752629166084423,0.03424431019027753,2.766368666383955,0.7691678813232314,1.6754973547542302,0.052104326824870026,0.029969505109285054,-2.752394845125968,0.0342448039870148,2.7663679543071322,0.7691630533470046,-0.00022949710930772268,0.000832671417097487,0.0011089642580263711,-0.0006640872701473947,-0.00014329552766838334,-6.89343151676011e-05,0.0007327510534464863,0.0,0.0,0.0,0.0,0.0,0.0,0.0,3.619277686439659e-06,-0.00014217288870560507,0.0001364708321436245,0.00023432095845477008,4.937967372706242e-07,-7.120768228396912e-07,-4.827976226806641e-06,0.00022949710930772268,-0.000832671417097487,-0.0011089642580263711,0.0006640872701473947,0.00014329552766838334,6.89343151676011e-05,-0.0007327510534464863,0.2720577120780945,22.748254776000977,0.04995415359735489,-14.155611038208008,-0.1888938546180725,-2.1389803886413574,0.26858848333358765,0
4,0.014999151229858398,-0.2720577120780945,-22.748254776000977,-0.04995415359735489,14.155611038208008,0.1888938546180725,2.1389803886413574,-0.26858848333358765,0.0,0.0,0.0,0.0,0.0,0.0,0.0,-0.29662032205286665,0.0689835792194501,-0.09962314060766679,0.2532840351721583,-0.05016357110073179,-0.04700646990069933,-0.2515889040561614,1.6754937354765438,0.05224649971357563,0.02983303427714143,-2.752629166084423,0.03424431019027753,2.766368666383955,0.7691678813232314,1.6754973547542302,0.052104326824870026,0.029969505109285054,-2.752394845125968,0.0342448039870148,2.7663679543071322,0.7691630533470046,-0.00022949710930772268,0.000832671417097487,0.0011089642580263711,-0.0006640872701473947,-0.00014329552766838334,-6.89343151676011e-05,0.0007327510534464863,0.0,0.0,0.0,0.0,0.0,0.0,0.0,3.619277686439659e-06,-0.00014217288870560507,0.0001364708321436245,0.00023432095845477008,4.937967372706242e-07,-7.120768228396912e-07,-4.827976226806641e-06,0.00022949710930772268,-0.000832671417097487,-0.0011089642580263711,0.0006640872701473947,0.00014329552766838334,6.89343151676011e-05,-0.0007327510534464863,0.2720577120780945,22.748254776000977,0.04995415359735489,-14.155611038208008,-0.1888938546180725,-2.1389803886413574,0.26858848333358765,0
5,0.020839929580688477,-0.2720577120780945,-22.748254776000977,0.001620553433895111,14.108003616333008,0.1834006905555725,2.1453890800476074,-0.25485557317733765,0.0,0.0,0.0,0.0,0.0,0.0,0.0,-0.2979223059587896,0.06566563511810095,-0.10202649253641326,0.25727410908189086,-0.04953630628602727,-0.046835427077035294,-0.2526334953363386,1.6754937354765438,0.05224649971357563,0.029829423772873204,-2.7526258252127125,0.03424492054184278,2.7663679543071322,0.7691663552808008,1.6754973547542302,0.052104326824870026,0.029969505109285054,-2.752394845125968,0.0342448039870148,2.7663679543071322,0.7691630533470046,1.9805084564925515e-05,0.00018150407404693338,-0.00013245885964565984,0.000730108446817363,-0.00010234482168698086,-7.502864946211526e-05,0.0004936268527183851,0.0,0.0,0.0,0.0,0.0,0.0,0.0,3.619277686439659e-06,-0.00014217288870560507,0.00014008133641185,0.0002309800867443812,-1.1655482797662264e-07,0.0,-3.301933796162615e-06,-1.9805084564925515e-05,-0.00018150407404693338,0.00013245885964565984,-0.000730108446817363,0.00010234482168698086,7.502864946211526e-05,-0.0004936268527183851,0.2720577120780945,22.748254776000977,-0.001620553433895111,-14.108003616333008,-0.1834006905555725,-2.1453890800476074,0.25485557317733765,0
6,0.025002002716064453,-0.2720577120780945,-22.748254776000977,0.001620553433895111,14.108003616333008,0.1834006905555725,2.1453890800476074,-0.25485557317733765,0.0,0.0,0.0,0.0,0.0,0.0,0.0,-0.2979223059587896,0.06566563511810095,-0.10202649253641326,0.25727410908189086,-0.04953630628602727,-0.046835427077035294,-0.2526334953363386,1.6754937354765438,0.05224649971357563,0.029829423772873204,-2.7526258252127125,0.03424492054184278,2.7663679543071322,0.7691663552808008,1.6754973547542302,0.052104326824870026,0.029969505109285054,-2.752394845125968,0.0342448039870148,2.7663679543071322,0.7691630533470046,1.9805084564925515e-05,0.00018150407404693338,-0.00013245885964565984,0.000730108446817363,-0.00010234482168698086,-7.502864946211526e-05,0.0004936268527183851,0.0,0.0,0.0,0.0,0.0,0.0,0.0,3.619277686439659e-06,-0.00014217288870560507,0.00014008133641185,0.0002309800867443812,-1.1655482797662264e-07,0.0,-3.301933796162615e-06,-1.9805084564925515e-05,-0.00018150407404693338,0.00013245885964565984,-0.000730108446817363,0.00010234482168698086,7.502864946211526e-05,-0.0004936268527183851,0.2720577120780945,22.748254776000977,-0.001620553433895111,-14.108003616333008,-0.1834006905555725,-2.1453890800476074,0.25485557317733765,0
7,0.030001401901245117,-0.22445029020309448,-22.772058486938477,-0.02615044265985489,14.108003616333008,0.1834006905555725,2.1453890800476074,-0.21457235515117645,0.0,0.0,0.0,0.0,0.0,0.0,0.0,-0.2942692440924492,0.0722058018701347,-0.10226872422917183,0.2517006800975042,-0.04965259539642406,-0.04726471199847697,-0.25221074752374595,1.6754903946048332,0.052248170149430895,0.02983134533343269,-2.7526258252127125,0.03424456539750099,2.7663679543071322,0.7691618795312103,1.6754973547542302,0.052104326824870026,0.029969505109285054,-2.752394845125968,0.0342448039870148,2.7663679543071322,0.7691630533470046,-0.0012687155696209731,0.001020237545699341,0.0006871119440204263,0.00017332782076166008,-9.321369176107595e-06,-0.00023424685112261094,-0.0015712692655433058,0.0,0.0,0.0,0.0,0.0,0.0,0.0,6.960149397050586e-06,-0.0001438433245608689,0.0001381597758523638,0.0002309800867443812,2.385895138123928e-07,0.0,1.173815794341948e-06,0.0012687155696209731,-0.001020237545699341,-0.0006871119440204263,-0.00017332782076166008,9.321369176107595e-06,0.00023424685112261094,0.0015712692655433058,0.22445029020309448,22.772058486938477,0.02615044265985489,-14.108003616333008,-0.1834006905555725,-2.1453890800476074,0.21457235515117645,0
8,0.03500032424926758,-0.22445029020309448,-22.772058486938477,-0.02615044265985489,14.108003616333008,0.1834006905555725,2.1453890800476074,-0.21457235515117645,0.0,0.0,0.0,0.0,0.0,0.0,0.0,-0.2942692440924492,0.0722058018701347,-0.10226872422917183,0.2517006800975042,-0.04965259539642406,-0.04726471199847697,-0.25221074752374595,1.6754903946048332,0.052248170149430895,0.02983134533343269,-2.7526258252127125,0.03424456539750099,2.7663679543071322,0.7691618795312103,1.6754973547542302,0.052104326824870026,0.029969505109285054,-2.752394845125968,0.0342448039870148,2.7663679543071322,0.7691630533470046,-0.0012687155696209731,0.001020237545699341,0.0006871119440204263,0.00017332782076166008,-9.321369176107595e-06,-0.00023424685112261094,-0.0015712692655433058,0.0,0.0,0.0,0.0,0.0,0.0,0.0,6.960149397050586e-06,-0.0001438433245608689,0.0001381597758523638,0.0002309800867443812,2.385895138123928e-07,0.0,1.173815794341948e-06,0.0012687155696209731,-0.001020237545699341,-0.0006871119440204263,-0.00017332782076166008,9.321369176107595e-06,0.00023424685112261094,0.0015712692655433058,0.22445029020309448,22.772058486938477,0.02615044265985489,-14.108003616333008,-0.1834006905555725,-2.1453890800476074,0.21457235515117645,0
9,0.04000115394592285,-0.2720577120780945,-22.720483779907227,-0.02615044265985489,14.108003616333008,0.1834006905555725,2.1453890800476074,-0.21457235515117645,0.0,0.0,0.0,0.0,0.0,0.0,0.0,-0.2930163243963403,0.0698985575813907,-0.10441025965832205,0.25669579402805315,-0.04938686747059052,-0.04627686709090616,-0.2526995095118272,1.6754937354765438,0.05224455087174449,0.02982915893025271,-2.7526258167094437,0.03424492053983798,2.7663679543071322,0.7691618795312112,1.6754973547542302,0.052104326824870026,0.029969505109285054,-2.752394845125968,0.0342448039870148,2.7663679543071322,0.7691630533470046,-0.0006520073165336666,0.0003785835874596239,0.00011940228776419774,0.0006249082801509718,-8.28916501902949e-05,-1.926123449942668e-05,-0.0016332131882321097,0.0,0.0,0.0,0.0,0.0,0.0,0.0,3.619277686439659e-06,-0.00014022404687446394,0.00014034617903234403,0.0002309715834756254,-1.1655282317751814e-07,0.0,1.1738157934537696e-06,0.0006520073165336666,-0.0003785835874596239,-0.00011940228776419774,-0.0006249082801509718,8.28916501902949e-05,1.926123449942668e-05,0.0016332131882321097,0.2720577120780945,22.720483779907227,0.02615044265985489,-14.108003616333008,-0.1834006905555725,-2.1453890800476074,0.21457235515117645,0
10,0.045015573501586914,-0.2720577120780945,-22.720483779907227,-0.02615044265985489,14.108003616333008,0.1834006905555725,2.1453890800476074,-0.21457235515117645,0.0,0.0,0.0,0.0,0.0,0.0,0.0,-0.2930163243963403,0.0698985575813907,-0.10441025965832205,0.25669579402805315,-0.04938686747059052,-0.04627686709090616,-0.2526995095118272,1.6754937354765438,0.05224455087174449,0.02982915893025271,-2.7526258167094437,0.03424492053983798,2.7663679543071322,0.7691618795312112,1.6754973547542302,0.052104326824870026,0.029969505109285054,-2.752394845125968,0.0342448039870148,2.7663679543071322,0.7691630533470046,-0.0006520073165336666,0.0003785835874596239,0.00011940228776419774,0.0006249082801509718,-8.28916501902949e-05,-1.926123449942668e-05,-0.0016332131882321097,0.0,0.0,0.0,0.0,0.0,0.0,0.0,3.619277686439659e-06,-0.00014022404687446394,0.00014034617903234403,0.0002309715834756254,-1.1655282317751814e-07,0.0,1.1738157934537696e-06,0.0006520073165336666,-0.0003785835874596239,-0.00011940228776419774,-0.0006249082801509718,8.28916501902949e-05,1.926123449942668e-05,0.0016332131882321097,0.2720577120780945,22.720483779907227,0.02615044265985489,-14.108003616333008,-0.1834006905555725,-2.1453890800476074,0.21457235515117645,0
11,0.05000185966491699,-0.2998287081718445,-22.748254776000977,-0.02615044265985489,14.108003616333008,0.1769919991493225,2.1389803886413574,-0.22830526530742645,0.0,0.0,0.0,0.0,0.0,0.0,0.0,-0.2904838400838039,0.0698517726513156,-0.10088896419492771,0.2481858621049788,-0.05022596128174284,-0.047001752285079024,-0.25268861754968663,1.675495684318375,0.05224649971357563,0.02983137162422673,-2.7526258252126965,0.03424563256453608,2.766368666383955,0.7691634054101174,1.6754973547542302,0.052104326824870026,0.029969505109285054,-2.752394845125968,0.0342448039870148,2.7663679543071322,0.7691630533470046,-0.0001003423380345616,6.164820954199828e-06,0.0003255305335065419,0.004860947581681147,0.00016375399734967392,0.00024157051660387503,-0.0009856054731901352,0.0,0.0,0.0,0.0,0.0,0.0,0.0,1.670435855194441e-06,-0.00014217288870560507,0.00013813348505832199,0.00023098008672839399,-8.285775212821256e-07,-7.120768228396912e-07,-3.520631127740259e-07,0.0001003423380345616,-6.164820954199828e-06,-0.0003255305335065419,-0.004860947581681147,-0.00016375399734967392,-0.00024157051660387503,0.0009856054731901352,0.2998287081718445,22.748254776000977,0.02615044265985489,-14.108003616333008,-0.1769919991493225,-2.1389803886413574,0.22830526530742645,0
12,0.05500030517578125,-0.2998287081718445,-22.748254776000977,-0.02615044265985489,14.108003616333008,0.1769919991493225,2.1389803886413574,-0.22830526530742645,0.0,0.0,0.0,0.0,0.0,0.0,0.0,-0.2904838400838039,0.0698517726513156,-0.10088896419492771,0.2481858621049788,-0.05022596128174284,-0.047001752285079024,-0.25268861754968663,1.675495684318375,0.05224649971357563,0.02983137162422673,-2.7526258252126965,0.03424563256453608,2.766368666383955,0.7691634054101174,1.6754973547542302,0.052104326824870026,0.029969505109285054,-2.752394845125968,0.0342448039870148,2.7663679543071322,0.7691630533470046,-0.0001003423380345616,6.164820954199828e-06,0.0003255305335065419,0.004860947581681147,0.00016375399734967392,0.00024157051660387503,-0.0009856054731901352,0.0,0.0,0.0,0.0,0.0,0.0,0.0,1.670435855194441e-06,-0.00014217288870560507,0.00013813348505832199,0.00023098008672839399,-8.285775212821256e-07,-7.120768228396912e-07,-3.520631127740259e-07,0.0001003423380345616,-6.164820954199828e-06,-0.0003255305335065419,-0.004860947581681147,-0.00016375399734967392,-0.00024157051660387503,0.0009856054731901352,0.2998287081718445,22.748254776000977,0.02615044265985489,-14.108003616333008,-0.1769919991493225,-2.1389803886413574,0.22830526530742645,0
13,0.06003236770629883,-0.2998287081718445,-22.748254776000977,-0.02615044265985489,14.108003616333008,0.1769919991493225,2.1389803886413574,-0.22830526530742645,0.0,0.0,0.0,0.0,0.0,0.0,0.0,-0.2904838400838039,0.0698517726513156,-0.10088896419492771,0.2481858621049788,-0.05022596128174284,-0.047001752285079024,-0.25268861754968663,1.675495684318375,0.05224649971357563,0.02983137162422673,-2.7526258252126965,0.03424563256453608,2.766368666383955,0.7691634054101174,1.6754973547542302,0.052104326824870026,0.029969505109285054,-2.752394845125968,0.0342448039870148,2.7663679543071322,0.7691630533470046,-0.0001003423380345616,6.164820954199828e-06,0.0003255305335065419,0.004860947581681147,0.00016375399734967392,0.00024157051660387503,-0.0009856054731901352,0.0,0.0,0.0,0.0,0.0,0.0,0.0,1.670435855194441e-06,-0.00014217288870560507,0.00013813348505832199,0.00023098008672839399,-8.285775212821256e-07,-7.120768228396912e-07,-3.520631127740259e-07,0.0001003423380345616,-6.164820954199828e-06,-0.0003255305335065419,-0.004860947581681147,-0.00016375399734967392,-0.00024157051660387503,0.0009856054731901352,0.2998287081718445,22.748254776000977,0.02615044265985489,-14.108003616333008,-0.1769919991493225,-2.1389803886413574,0.22830526530742645,0
14,0.06500124931335449,-0.2998287081718445,-22.748254776000977,-0.02615044265985489,14.108003616333008,0.1769919991493225,2.1389803886413574,-0.22830526530742645,0.0,0.0,0.0,0.0,0.0,0.0,0.0,-0.2904838400838039,0.0698517726513156,-0.10088896419492771,0.2481858621049788,-0.05022596128174284,-0.047001752285079024,-0.25268861754968663,1.675495684318375,0.05224649971357563,0.02983137162422673,-2.7526258252126965,0.03424563256453608,2.766368666383955,0.7691634054101174,1.6754973547542302,0.052104326824870026,0.029969505109285054,-2.752394845125968,0.0342448039870148,2.7663679543071322,0.7691630533470046,-0.0001003423380345616,6.164820954199828e-06,0.0003255305335065419,0.004860947581681147,0.00016375399734967392,0.00024157051660387503,-0.0009856054731901352,0.0,0.0,0.0,0.0,0.0,0.0,0.0,1.670435855194441e-06,-0.00014217288870560507,0.00013813348505832199,0.00023098008672839399,-8.285775212821256e-07,-7.120768228396912e-07,-3.520631127740259e-07,0.0001003423380345616,-6.164820954199828e-06,-0.0003255305335065419,-0.004860947581681147,-0.00016375399734967392,-0.00024157051660387503,0.0009856054731901352,0.2998287081718445,22.748254776000977,0.02615044265985489,-14.108003616333008,-0.1769919991493225,-2.1389803886413574,0.22830526530742645,0
15,0.07001972198486328,-0.2998287081718445,-22.720483779907227,-0.07375786453485489,14.108003616333008,0.1769919991493225,2.1453890800476074,-0.22830526530742645,0.0,0.0,0.0,0.0,0.0,0.0,0.0,-0.29570522139204514,0.08331492032401426,-0.10358547580051738,0.2312554698266977,-0.05075933964755249,-0.049129400522103475,-0.25250483379930827,1.675495684318375,0.05224455087174449,0.029834710238682473,-2.7526258252127125,0.03424563261866539,2.7663679543071322,0.7691634054101174,1.6754973547542302,0.052104326824870026,0.029969505109285054,-2.752394845125968,0.0342448039870148,2.7663679543071322,0.7691630533470046,-0.00036365187919845855,8.006621464356344e-05,0.0008003622229760733,0.0002837928667951036,7.441764001736108e-05,-0.00026439629235192296,-0.0015013177637736102,0.0,0.0,0.0,0.0,0.0,0.0,0.0,1.670435855194441e-06,-0.00014022404687446394,0.0001347948706025802,0.0002309800867443812,-8.286316505873303e-07,0.0,-3.520631127740259e-07,0.00036365187919845855,-8.006621464356344e-05,-0.0008003622229760733,-0.0002837928667951036,-7.441764001736108e-05,0.00026439629235192296,0.0015013177637736102,0.2998287081718445,22.720483779907227,0.07375786453485489,-14.108003616333008,-0.1769919991493225,-2.1453890800476074,0.22830526530742645,0
16,0.0750124454498291,-0.2998287081718445,-22.720483779907227,-0.07375786453485489,14.108003616333008,0.1769919991493225,2.1453890800476074,-0.22830526530742645,0.0,0.0,0.0,0.0,0.0,0.0,0.0,-0.29570522139204514,0.08331492032401426,-0.10358547580051738,0.2312554698266977,-0.05075933964755249,-0.049129400522103475,-0.25250483379930827,1.675495684318375,0.05224455087174449,0.029834710238682473,-2.7526258252127125,0.03424563261866539,2.7663679543071322,0.7691634054101174,1.6754973547542302,0.052104326824870026,0.029969505109285054,-2.752394845125968,0.0342448039870148,2.7663679543071322,0.7691630533470046,-0.00036365187919845855,8.006621464356344e-05,0.0008003622229760733,0.0002837928667951036,7.441764001736108e-05,-0.00026439629235192296,-0.0015013177637736102,0.0,0.0,0.0,0.0,0.0,0.0,0.0,1.670435855194441e-06,-0.00014022404687446394,0.0001347948706025802,0.0002309800867443812,-8.286316505873303e-07,0.0,-3.520631127740259e-07,0.00036365187919845855,-8.006621464356344e-05,-0.0008003622229760733,-0.0002837928667951036,-7.441764001736108e-05,0.00026439629235192296,0.0015013177637736102,0.2998287081718445,22.720483779907227,0.07375786453485489,-14.108003616333008,-0.1769919991493225,-2.1453890800476074,0.22830526530742645,0
17,0.08001947402954102,-0.3514034152030945,-22.748254776000977,-0.02615044265985489,14.155611038208008,0.2007957100868225,2.1453890800476074,-0.28964561223983765,0.0,0.0,0.0,0.0,0.0,0.0,0.0,-0.2939751006766289,0.059223528227859826,-0.10151032764764152,0.26714053433211443,-0.0513052291923899,-0.04320547363661757,-0.253453756487495,1.6754993035960613,0.05224649971357563,0.02983137261473554,-2.752629166084423,0.0342429744460119,2.7663679543071322,0.769170221004221,1.6754973547542302,0.052104326824870026,0.029969505109285054,-2.752394845125968,0.0342448039870148,2.7663679543071322,0.7691630533470046,0.0012229386703125397,0.0002904067578243701,0.00019561607511359733,-0.0005677022218987908,-0.0008118598674483308,-0.00011357417159764246,0.0011911950863931007,0.0,0.0,0.0,0.0,0.0,0.0,0.0,-1.9488418310231737e-06,-0.00014217288870560507,0.00013813249454951507,0.00023432095845477008,1.8295410028970616e-06,0.0,-7.1676572164225405e-06,-0.0012229386703125397,-0.0002904067578243701,-0.00019561607511359733,0.0005677022218987908,0.0008118598674483308,0.00011357417159764246,-0.0011911950863931007,0.3514034152030945,22.748254776000977,0.02615044265985489,-14.155611038208008,-0.2007957100868225,-2.1453890800476074,0.28964561223983765,0
18,0.08552813529968262,-0.3514034152030945,-22.748254776000977,-0.02615044265985489,14.155611038208008,0.2007957100868225,2.1453890800476074,-0.28964561223983765,0.0,0.0,0.0,0.0,0.0,0.0,0.0,-0.2939751006766289,0.059223528227859826,-0.10151032764764152,0.26714053433211443,-0.0513052291923899,-0.04320547363661757,-0.253453756487495,1.6754993035960613,0.05224649971357563,0.02983137261473554,-2.752629166084423,0.0342429744460119,2.7663679543071322,0.769170221004221,1.6754973547542302,0.052104326824870026,0.029969505109285054,-2.752394845125968,0.0342448039870148,2.7663679543071322,0.7691630533470046,0.0012229386703125397,0.0002904067578243701,0.00019561607511359733,-0.0005677022218987908,-0.0008118598674483308,-0.00011357417159764246,0.0011911950863931007,0.0,0.0,0.0,0.0,0.0,0.0,0.0,-1.9488418310231737e-06,-0.00014217288870560507,0.00013813249454951507,0.00023432095845477008,1.8295410028970616e-06,0.0,-7.1676572164225405e-06,-0.0012229386703125397,-0.0002904067578243701,-0.00019561607511359733,0.0005677022218987908,0.0008118598674483308,0.00011357417159764246,-0.0011911950863931007,0.3514034152030945,22.748254776000977,0.02615044265985489,-14.155611038208008,-0.2007957100868225,-2.1453890800476074,0.28964561223983765,0
19,0.09000444412231445,-0.2998287081718445,-22.748254776000977,-0.04995415359735489,14.108003616333008,0.1834006905555725,2.1453890800476074,-0.28232139348983765,0.0,0.0,0.0,0.0,0.0,0.0,0.0,-0.29978652455373955,0.05858879160696756,-0.10566751134635012,0.2696278931731028,-0.05080012827563567,-0.042271284593498645,-0.2541112405156686,1.675495684318375,0.052246496790576934,0.02983280628771461,-2.7526258252127125,0.03424492054176761,2.7663679543071322,0.7691694072021378,1.6754973547542302,0.052104326824870026,0.029969505109285054,-2.752394845125968,0.0342448039870148,2.7663679543071322,0.7691630533470046,0.0003652407809654843,0.00018055326936513777,0.00026526729198309386,0.0008439511026722203,-0.0001756422156748281,7.731881864314813e-07,0.0015580597786735235,0.0,0.0,0.0,0.0,0.0,0.0,0.0,1.670435855194441e-06,-0.00014216996570690782,0.0001366988215704447,0.0002309800867443812,-1.1655475280758498e-07,0.0,-6.3538551331454585e-06,-0.0003652407809654843,-0.00018055326936513777,-0.00026526729198309386,-0.0008439511026722203,0.0001756422156748281,-7.731881864314813e-07,-0.0015580597786735235,0.2998287081718445,22.748254776000977,0.04995415359735489,-14.108003616333008,-0.1834006905555725,-2.1453890800476074,0.28232139348983765,0
20,0.09499955177307129,-0.2998287081718445,-22.748254776000977,-0.04995415359735489,14.108003616333008,0.1834006905555725,2.1453890800476074,-0.28232139348983765,0.0,0.0,0.0,0.0,0.0,0.0,0.0,-0.29978652455373955,0.05858879160696756,-0.10566751134635012,0.2696278931731028,-0.05080012827563567,-0.042271284593498645,-0.2541112405156686,1.675495684318375,0.052246496790576934,0.02983280628771461,-2.7526258252127125,0.03424492054176761,2.7663679543071322,0.7691694072021378,1.6754973547542302,0.052104326824870026,0.029969505109285054,-2.752394845125968,0.0342448039870148,2.7663679543071322,0.7691630533470046,0.0003652407809654843,0.00018055326936513777,0.00026526729198309386,0.0008439511026722203,-0.0001756422156748281,7.731881864314813e-07,0.0015580597786735235,0.0,0.0,0.0,0.0,0.0,0.0,0.0,1.670435855194441e-06,-0.00014216996570690782,0.0001366988215704447,0.0002309800867443812,-1.1655475280758498e-07,0.0,-6.3538551331454585e-06,-0.0003652407809654843,-0.00018055326936513777,-0.00026526729198309386,-0.0008439511026722203,0.0001756422156748281,-7.731881864314813e-07,-0.0015580597786735235,0.2998287081718445,22.748254776000977,0.04995415359735489,-14.108003616333008,-0.1834006905555725,-2.1453890800476074,0.28232139348983765,0
21,0.10001587867736816,-0.2998287081718445,-22.772058486938477,-0.02615044265985489,14.108003616333008,0.1769919991493225,2.1389803886413574,-0.24844686686992645,0.0,0.0,0.0,0.0,0.0,0.0,0.0,-0.3007671171815888,0.060027747334991395,-0.10901284145739334,0.26367735170832174,-0.05026837756539836,-0.04273496279306075,-0.2530525353387427,1.675495684318375,0.052248170149414394,0.029831132927524116,-2.7526258252127125,0.03424563261866569,2.7663683131712453,0.7691656433658466,1.6754973547542302,0.052104326824870026,0.029969505109285054,-2.752394845125968,0.0342448039870148,2.7663679543071322,0.7691630533470046,-0.00024897794062660585,0.0008416335211963899,6.541566771653697e-05,0.0005282479389075135,0.0002410523827924692,0.00017345875684183183,-9.277428313265818e-05,0.0,0.0,0.0,0.0,0.0,0.0,0.0,1.670435855194441e-06,-0.0001438433245443682,0.00013837218176093735,0.0002309800867443812,-8.286316508926417e-07,-3.588641130924941e-07,-2.590018841952535e-06,0.00024897794062660585,-0.0008416335211963899,-6.541566771653697e-05,-0.0005282479389075135,-0.0002410523827924692,-0.00017345875684183183,9.277428313265818e-05,0.2998287081718445,22.772058486938477,0.02615044265985489,-14.108003616333008,-0.1769919991493225,-2.1389803886413574,0.24844686686992645,0
22,0.10495972633361816,-0.2998287081718445,-22.772058486938477,-0.02615044265985489,14.108003616333008,0.1769919991493225,2.1389803886413574,-0.24844686686992645,0.0,0.0,0.0,0.0,0.0,0.0,0.0,-0.3007671171815888,0.060027747334991395,-0.10901284145739334,0.26367735170832174,-0.05026837756539836,-0.04273496279306075,-0.2530525353387427,1.675495684318375,0.052248170149414394,0.029831132927524116,-2.7526258252127125,0.03424563261866569,2.7663683131712453,0.7691656433658466,1.6754973547542302,0.052104326824870026,0.029969505109285054,-2.752394845125968,0.0342448039870148,2.7663679543071322,0.7691630533470046,-0.00024897794062660585,0.0008416335211963899,6.541566771653697e-05,0.0005282479389075135,0.0002410523827924692,0.00017345875684183183,-9.277428313265818e-05,0.0,0.0,0.0,0.0,0.0,0.0,0.0,1.670435855194441e-06,-0.0001438433245443682,0.00013837218176093735,0.0002309800867443812,-8.286316508926417e-07,-3.588641130924941e-07,-2.590018841952535e-06,0.00024897794062660585,-0.0008416335211963899,-6.541566771653697e-05,-0.0005282479389075135,-0.0002410523827924692,-0.00017345875684183183,9.277428313265818e-05,0.2998287081718445,22.772058486938477,0.02615044265985489,-14.108003616333008,-0.1769919991493225,-2.1389803886413574,0.24844686686992645,0
23,0.11000657081604004,-0.2720577120780945,-22.696680068969727,-0.02615044265985489,14.131807327270508,0.1769919991493225,2.1389803886413574,-0.20083944499492645,0.0,0.0,0.0,0.0,0.0,0.0,0.0,-0.30042580748733794,0.05947016525942842,-0.10860695736360364,0.2614865075674622,-0.05005103978768862,-0.042863506301147644,-0.2536805352926915,1.6754937354765438,0.052242880435889226,0.029831135850506306,-2.752627495648568,0.03424563261866569,2.766368666381961,0.769160353652305,1.6754973547542302,0.052104326824870026,0.029969505109285054,-2.752394845125968,0.0342448039870148,2.7663679543071322,0.7691630533470046,-0.00012846892787742118,-0.0007816885898887342,-0.00011011451894047879,-0.00012684123305755905,0.00014588276769264265,5.0374344155804606e-05,-0.002507317457272078,0.0,0.0,0.0,0.0,0.0,0.0,0.0,3.619277686439659e-06,-0.0001385536110192001,0.00013836925877874773,0.00023265052259979768,-8.286316508926417e-07,-7.12074828879139e-07,2.699694699681565e-06,0.00012846892787742118,0.0007816885898887342,0.00011011451894047879,0.00012684123305755905,-0.00014588276769264265,-5.0374344155804606e-05,0.002507317457272078,0.2720577120780945,22.696680068969727,0.02615044265985489,-14.131807327270508,-0.1769919991493225,-2.1389803886413574,0.20083944499492645,0
24,0.11500239372253418,-0.2720577120780945,-22.696680068969727,-0.02615044265985489,14.131807327270508,0.1769919991493225,2.1389803886413574,-0.20083944499492645,0.0,0.0,0.0,0.0,0.0,0.0,0.0,-0.30042580748733794,0.05947016525942842,-0.10860695736360364,0.2614865075674622,-0.05005103978768862,-0.042863506301147644,-0.2536805352926915,1.6754937354765438,0.052242880435889226,0.029831135850506306,-2.752627495648568,0.03424563261866569,2.766368666381961,0.769160353652305,1.6754973547542302,0.052104326824870026,0.029969505109285054,-2.752394845125968,0.0342448039870148,2.7663679543071322,0.7691630533470046,-0.00012846892787742118,-0.0007816885898887342,-0.00011011451894047879,-0.00012684123305755905,0.00014588276769264265,5.0374344155804606e-05,-0.002507317457272078,0.0,0.0,0.0,0.0,0.0,0.0,0.0,3.619277686439659e-06,-0.0001385536110192001,0.00013836925877874773,0.00023265052259979768,-8.286316508926417e-07,-7.12074828879139e-07,2.699694699681565e-06,0.00012846892787742118,0.0007816885898887342,0.00011011451894047879,0.00012684123305755905,-0.00014588276769264265,-5.0374344155804606e-05,0.002507317457272078,0.2720577120780945,22.696680068969727,0.02615044265985489,-14.131807327270508,-0.1769919991493225,-2.1389803886413574,0.20083944499492645,0
25,0.1200265884399414,-0.24825400114059448,-22.672876358032227,0.001620553433895111,14.131807327270508,0.1834006905555725,2.1325716972351074,-0.28964561223983765,0.0,0.0,0.0,0.0,0.0,0.0,0.0,-0.2959704023747703,0.06146149418453358,-0.10626716391381578,0.26187915520196453,-0.05066790647041149,-0.0428235027408398,-0.25475175824214863,1.6754920650406886,0.05224121000003396,0.02982942279725329,-2.752627495648568,0.03424492054184278,2.7663693784607783,0.769170221004221,1.6754973547542302,0.052104326824870026,0.029969505109285054,-2.752394845125968,0.0342448039870148,2.7663679543071322,0.7691630533470046,-0.001174919892649154,-0.0007894640096712722,-0.0003288641149133761,3.308387657259073e-05,-0.00022624792649163342,0.00041691821771524173,0.0011307656044064903,0.0,0.0,0.0,0.0,0.0,0.0,0.0,5.2897135416341e-06,-0.00013688317516393628,0.00014008231203176472,0.00023265052259979768,-1.1655482797662264e-07,-1.4241536461234716e-06,-7.1676572164225405e-06,0.001174919892649154,0.0007894640096712722,0.0003288641149133761,-3.308387657259073e-05,0.00022624792649163342,-0.00041691821771524173,-0.0011307656044064903,0.24825400114059448,22.672876358032227,-0.001620553433895111,-14.131807327270508,-0.1834006905555725,-2.1325716972351074,0.28964561223983765,0
26,0.12499737739562988,-0.24825400114059448,-22.672876358032227,0.001620553433895111,14.131807327270508,0.1834006905555725,2.1325716972351074,-0.28964561223983765,0.0,0.0,0.0,0.0,0.0,0.0,0.0,-0.2959704023747703,0.06146149418453358,-0.10626716391381578,0.26187915520196453,-0.05066790647041149,-0.0428235027408398,-0.25475175824214863,1.6754920650406886,0.05224121000003396,0.02982942279725329,-2.752627495648568,0.03424492054184278,2.7663693784607783,0.769170221004221,1.6754973547542302,0.052104326824870026,0.029969505109285054,-2.752394845125968,0.0342448039870148,2.7663679543071322,0.7691630533470046,-0.001174919892649154,-0.0007894640096712722,-0.0003288641149133761,3.308387657259073e-05,-0.00022624792649163342,0.00041691821771524173,0.0011307656044064903,0.0,0.0,0.0,0.0,0.0,0.0,0.0,5.2897135416341e-06,-0.00013688317516393628,0.00014008231203176472,0.00023265052259979768,-1.1655482797662264e-07,-1.4241536461234716e-06,-7.1676572164225405e-06,0.001174919892649154,0.0007894640096712722,0.0003288641149133761,-3.308387657259073e-05,0.00022624792649163342,-0.00041691821771524173,-0.0011307656044064903,0.24825400114059448,22.672876358032227,-0.001620553433895111,-14.131807327270508,-0.1834006905555725,-2.1325716972351074,0.28964561223983765,0
27,0.13001275062561035,-0.24825400114059448,-22.720483779907227,-0.02615044265985489,14.108003616333008,0.1834006905555725,2.1517977714538574,-0.28964561223983765,0.0,0.0,0.0,0.0,0.0,0.0,0.0,-0.29025142547779126,0.06643973239411274,-0.10015933748850468,0.25644946016980397,-0.0508322426160105,-0.04327152542206913,-0.2544126655147582,1.6754920650406886,0.05224455087174449,0.029831372614752036,-2.7526258252127125,0.03424456539750099,2.7663672422303094,0.769170221004221,1.6754973547542302,0.052104326824870026,0.029969505109285054,-2.752394845125968,0.0342448039870148,2.7663679543071322,0.7691630533470046,-0.00029107147865183893,0.0003776238800687875,0.00040909038946013675,-0.0002019960101352474,-5.475894781071132e-05,-0.000492110842667975,0.0010785527482631702,0.0,0.0,0.0,0.0,0.0,0.0,0.0,5.2897135416341e-06,-0.00014022404687446394,0.00013813249453301785,0.0002309800867443812,2.385895138123928e-07,7.120768228396912e-07,-7.1676572164225405e-06,0.00029107147865183893,-0.0003776238800687875,-0.00040909038946013675,0.0002019960101352474,5.475894781071132e-05,0.000492110842667975,-0.0010785527482631702,0.24825400114059448,22.720483779907227,0.02615044265985489,-14.108003616333008,-0.1834006905555725,-2.1517977714538574,0.28964561223983765,0
28,0.13505887985229492,-0.24825400114059448,-22.720483779907227,-0.02615044265985489,14.108003616333008,0.1834006905555725,2.1517977714538574,-0.28964561223983765,0.0,0.0,0.0,0.0,0.0,0.0,0.0,-0.29025142547779126,0.06643973239411274,-0.10015933748850468,0.25644946016980397,-0.0508322426160105,-0.04327152542206913,-0.2544126655147582,1.6754920650406886,0.05224455087174449,0.029831372614752036,-2.7526258252127125,0.03424456539750099,2.7663672422303094,0.769170221004221,1.6754973547542302,0.052104326824870026,0.029969505109285054,-2.752394845125968,0.0342448039870148,2.7663679543071322,0.7691630533470046,-0.00029107147865183893,0.0003776238800687875,0.00040909038946013675,-0.0002019960101352474,-5.475894781071132e-05,-0.000492110842667975,0.0010785527482631702,0.0,0.0,0.0,0.0,0.0,0.0,0.0,5.2897135416341e-06,-0.00014022404687446394,0.00013813249453301785,0.0002309800867443812,2.385895138123928e-07,7.120768228396912e-07,-7.1676572164225405e-06,0.00029107147865183893,-0.0003776238800687875,-0.00040909038946013675,0.0002019960101352474,5.475894781071132e-05,0.000492110842667975,-0.0010785527482631702,0.24825400114059448,22.720483779907227,0.02615044265985489,-14.108003616333008,-0.1834006905555725,-2.1517977714538574,0.28964561223983765,0
29,0.1400444507598877,-0.2998287081718445,-22.748254776000977,-0.02615044265985489,14.131807327270508,0.1888938546180725,2.1453890800476074,-0.28232139348983765,0.0,0.0,0.0,0.0,0.0,0.0,0.0,-0.2897754098131096,0.06449019517374127,-0.10332355646558705,0.25486348892943544,-0.050294734883302536,-0.04302714716743547,-0.2542257356564835,1.675495684318375,0.05224649971357563,0.02983136965566877,-2.752627495648568,0.034244310189612014,2.7663679543071322,0.7691694072021378,1.6754973547542302,0.052104326824870026,0.029969505109285054,-2.752394845125968,0.0342448039870148,2.7663679543071322,0.7691630533470046,0.00046529745455175614,0.0003315744425828407,-7.992855853301704e-06,-0.0006194478514807265,-0.0004453943801949428,-0.00020693081057632947,0.0008414980828946923,0.0,0.0,0.0,0.0,0.0,0.0,0.0,1.670435855194441e-06,-0.00014217288870560507,0.00013813545361628446,0.00023265052259979768,4.937974027868774e-07,0.0,-6.3538551331454585e-06,-0.00046529745455175614,-0.0003315744425828407,7.992855853301704e-06,0.0006194478514807265,0.0004453943801949428,0.00020693081057632947,-0.0008414980828946923,0.2998287081718445,22.748254776000977,0.02615044265985489,-14.131807327270508,-0.1888938546180725,-2.1453890800476074,0.28232139348983765,0
30,0.14507222175598145,-0.2998287081718445,-22.748254776000977,-0.02615044265985489,14.131807327270508,0.1888938546180725,2.1453890800476074,-0.28232139348983765,0.0,0.0,0.0,0.0,0.0,0.0,0.0,-0.2897754098131096,0.06449019517374127,-0.10332355646558705,0.25486348892943544,-0.050294734883302536,-0.04302714716743547,-0.2542257356564835,1.675495684318375,0.05224649971357563,0.02983136965566877,-2.752627495648568,0.034244310189612014,2.7663679543071322,0.7691694072021378,1.6754973547542302,0.052104326824870026,0.029969505109285054,-2.752394845125968,0.0342448039870148,2.7663679543071322,0.7691630533470046,0.00046529745455175614,0.0003315744425828407,-7.992855853301704e-06,-0.0006194478514807265,-0.0004453943801949428,-0.00020693081057632947,0.0008414980828946923,0.0,0.0,0.0,0.0,0.0,0.0,0.0,1.670435855194441e-06,-0.00014217288870560507,0.00013813545361628446,0.00023265052259979768,4.937974027868774e-07,0.0,-6.3538551331454585e-06,-0.00046529745455175614,-0.0003315744425828407,7.992855853301704e-06,0.0006194478514807265,0.0004453943801949428,0.00020693081057632947,-0.0008414980828946923,0.2998287081718445,22.748254776000977,0.02615044265985489,-14.131807327270508,-0.1888938546180725,-2.1453890800476074,0.28232139348983765,0
31,0.15004897117614746,-0.3236324191093445,-22.720483779907227,-0.04995415359735489,14.155611038208008,0.1769919991493225,2.1453890800476074,-0.27591270208358765,0.0,0.0,0.0,0.0,0.0,0.0,0.0,-0.29166165836009134,0.06763411217532418,-0.10474469470281401,0.2505576729435543,-0.050543746749727836,-0.04373487163781143,-0.25352969126697505,1.6754973547542302,0.05224455087174449,0.02983233276190886,-2.752629166084423,0.034245632618665686,2.7663679543071322,0.7691686951253148,1.6754973547542302,0.052104326824870026,0.029969505109285054,-2.752394845125968,0.0342448039870148,2.7663679543071322,0.7691630533470046,0.0005608852570938387,4.665342160555752e-05,0.0006569568245022157,-0.0008302481199119693,-4.013778278958573e-05,-9.743800785745684e-05,0.0009079898151715536,0.0,0.0,0.0,0.0,0.0,0.0,0.0,0.0,-0.00014022404687446394,0.00013717234737619516,0.00023432095845477008,-8.286316508857028e-07,0.0,-5.641778310194745e-06,-0.0005608852570938387,-4.665342160555752e-05,-0.0006569568245022157,0.0008302481199119693,4.013778278958573e-05,9.743800785745684e-05,-0.0009079898151715536,0.3236324191093445,22.720483779907227,0.04995415359735489,-14.155611038208008,-0.1769919991493225,-2.1453890800476074,0.27591270208358765,0
32,0.1550443172454834,-0.3236324191093445,-22.720483779907227,-0.04995415359735489,14.155611038208008,0.1769919991493225,2.1453890800476074,-0.27591270208358765,0.0,0.0,0.0,0.0,0.0,0.0,0.0,-0.29166165836009134,0.06763411217532418,-0.10474469470281401,0.2505576729435543,-0.050543746749727836,-0.04373487163781143,-0.25352969126697505,1.6754973547542302,0.05224455087174449,0.02983233276190886,-2.752629166084423,0.034245632618665686,2.7663679543071322,0.7691686951253148,1.6754973547542302,0.052104326824870026,0.029969505109285054,-2.752394845125968,0.0342448039870148,2.7663679543071322,0.7691630533470046,0.0005608852570938387,4.665342160555752e-05,0.0006569568245022157,-0.0008302481199119693,-4.013778278958573e-05,-9.743800785745684e-05,0.0009079898151715536,0.0,0.0,0.0,0.0,0.0,0.0,0.0,0.0,-0.00014022404687446394,0.00013717234737619516,0.00023432095845477008,-8.286316508857028e-07,0.0,-5.641778310194745e-06,-0.0005608852570938387,-4.665342160555752e-05,-0.0006569568245022157,0.0008302481199119693,4.013778278958573e-05,9.743800785745684e-05,-0.0009079898151715536,0.3236324191093445,22.720483779907227,0.04995415359735489,-14.155611038208008,-0.1769919991493225,-2.1453890800476074,0.27591270208358765,0
33,0.16004681587219238,-0.3236324191093445,-22.720483779907227,-0.04995415359735489,14.155611038208008,0.1769919991493225,2.1453890800476074,-0.27591270208358765,0.0,0.0,0.0,0.0,0.0,0.0,0.0,-0.29166165836009134,0.06763411217532418,-0.10474469470281401,0.2505576729435543,-0.050543746749727836,-0.04373487163781143,-0.25352969126697505,1.6754973547542302,0.05224455087174449,0.02983233276190886,-2.752629166084423,0.034245632618665686,2.7663679543071322,0.7691686951253148,1.6754973547542302,0.052104326824870026,0.029969505109285054,-2.752394845125968,0.0342448039870148,2.7663679543071322,0.7691630533470046,0.0005608852570938387,4.665342160555752e-05,0.0006569568245022157,-0.0008302481199119693,-4.013778278958573e-05,-9.743800785745684e-05,0.0009079898151715536,0.0,0.0,0.0,0.0,0.0,0.0,0.0,0.0,-0.00014022404687446394,0.00013717234737619516,0.00023432095845477008,-8.286316508857028e-07,0.0,-5.641778310194745e-06,-0.0005608852570938387,-4.665342160555752e-05,-0.0006569568245022157,0.0008302481199119693,4.013778278958573e-05,9.743800785745684e-05,-0.0009079898151715536,0.3236324191093445,22.720483779907227,0.04995415359735489,-14.155611038208008,-0.1769919991493225,-2.1453890800476074,0.27591270208358765,0
34,0.1650543212890625,-0.3236324191093445,-22.720483779907227,-0.04995415359735489,14.155611038208008,0.1769919991493225,2.1453890800476074,-0.27591270208358765,0.0,0.0,0.0,0.0,0.0,0.0,0.0,-0.29166165836009134,0.06763411217532418,-0.10474469470281401,0.2505576729435543,-0.050543746749727836,-0.04373487163781143,-0.25352969126697505,1.6754973547542302,0.05224455087174449,0.02983233276190886,-2.752629166084423,0.034245632618665686,2.7663679543071322,0.7691686951253148,1.6754973547542302,0.052104326824870026,0.029969505109285054,-2.752394845125968,0.0342448039870148,2.7663679543071322,0.7691630533470046,0.0005608852570938387,4.665342160555752e-05,0.0006569568245022157,-0.0008302481199119693,-4.013778278958573e-05,-9.743800785745684e-05,0.0009079898151715536,0.0,0.0,0.0,0.0,0.0,0.0,0.0,0.0,-0.00014022404687446394,0.00013717234737619516,0.00023432095845477008,-8.286316508857028e-07,0.0,-5.641778310194745e-06,-0.0005608852570938387,-4.665342160555752e-05,-0.0006569568245022157,0.0008302481199119693,4.013778278958573e-05,9.743800785745684e-05,-0.0009079898151715536,0.3236324191093445,22.720483779907227,0.04995415359735489,-14.155611038208008,-0.1769919991493225,-2.1453890800476074,0.27591270208358765,0
35,0.1700148582458496,-0.2998287081718445,-22.696680068969727,-0.02615044265985489,14.080232620239258,0.1769919991493225,2.1453890800476074,-0.24844686686992645,0.0,0.0,0.0,0.0,0.0,0.0,0.0,-0.297891071119108,0.06770921015516577,-0.10823872285122307,0.24769318975862112,-0.05105504920787209,-0.04411401103747692,-0.25419752679040336,1.675495684318375,0.052242880435889226,0.029831363841748178,-2.7526238763708815,0.03424563261866569,2.7663679543071322,0.7691656433658466,1.6754973547542302,0.052104326824870026,0.029969505109285054,-2.752394845125968,0.0342448039870148,2.7663679543071322,0.7691630533470046,-0.0003917112470971816,-0.0007335596150360359,-0.000653156852001263,0.000707814678977205,0.0001765437881716471,-0.0002605093299308413,-0.00013339483734308176,0.0,0.0,0.0,0.0,0.0,0.0,0.0,1.670435855194441e-06,-0.0001385536110192001,0.00013814126753687594,0.00022903124491335802,-8.286316508926417e-07,0.0,-2.590018841952535e-06,0.0003917112470971816,0.0007335596150360359,0.000653156852001263,-0.000707814678977205,-0.0001765437881716471,0.0002605093299308413,0.00013339483734308176,0.2998287081718445,22.696680068969727,0.02615044265985489,-14.080232620239258,-0.1769919991493225,-2.1453890800476074,0.24844686686992645,0
36,0.17502546310424805,-0.2998287081718445,-22.696680068969727,-0.02615044265985489,14.080232620239258,0.1769919991493225,2.1453890800476074,-0.24844686686992645,0.0,0.0,0.0,0.0,0.0,0.0,0.0,-0.297891071119108,0.06770921015516577,-0.10823872285122307,0.24769318975862112,-0.05105504920787209,-0.04411401103747692,-0.25419752679040336,1.675495684318375,0.052242880435889226,0.029831363841748178,-2.7526238763708815,0.03424563261866569,2.7663679543071322,0.7691656433658466,1.6754973547542302,0.052104326824870026,0.029969505109285054,-2.752394845125968,0.0342448039870148,2.7663679543071322,0.7691630533470046,-0.0003917112470971816,-0.0007335596150360359,-0.000653156852001263,0.000707814678977205,0.0001765437881716471,-0.0002605093299308413,-0.00013339483734308176,0.0,0.0,0.0,0.0,0.0,0.0,0.0,1.670435855194441e-06,-0.0001385536110192001,0.00013814126753687594,0.00022903124491335802,-8.286316508926417e-07,0.0,-2.590018841952535e-06,0.0003917112470971816,0.0007335596150360359,0.000653156852001263,-0.000707814678977205,-0.0001765437881716471,0.0002605093299308413,0.00013339483734308176,0.2998287081718445,22.696680068969727,0.02615044265985489,-14.080232620239258,-0.1769919991493225,-2.1453890800476074,0.24844686686992645,0
37,0.18001484870910645,-0.24825400114059448,-22.720483779907227,-0.02615044265985489,14.155611038208008,0.1714988350868225,2.1389803886413574,-0.22830526530742645,0.0,0.0,0.0,0.0,0.0,0.0,0.0,-0.2947948892427621,0.06867546060077873,-0.10598309996938013,0.2485400496097052,-0.05178611864435636,-0.043514093899886704,-0.25487157909454444,1.6754920650406886,0.05224455087174449,0.029831293693739505,-2.75262916325,0.03424624297022819,2.766368666383955,0.7691634054101174,1.6754973547542302,0.052104326824870026,0.029969505109285054,-2.752394845125968,0.0342448039870148,2.7663679543071322,0.7691630533470046,-0.001299979890418891,0.00011653772560351087,-2.9602417655571083e-05,-0.0012165190871726368,0.0004419954416156292,0.00018127918052556383,0.004134427670107605,0.0,0.0,0.0,0.0,0.0,0.0,0.0,5.2897135416341e-06,-0.00014022404687446394,0.00013821141554554855,0.00023431812403185148,-1.4389832133920866e-06,-7.120768228396912e-07,-3.520631127740259e-07,0.001299979890418891,-0.00011653772560351087,2.9602417655571083e-05,0.0012165190871726368,-0.0004419954416156292,-0.00018127918052556383,-0.004134427670107605,0.24825400114059448,22.720483779907227,0.02615044265985489,-14.155611038208008,-0.1714988350868225,-2.1389803886413574,0.22830526530742645,0
38,0.1850113868713379,-0.24825400114059448,-22.720483779907227,-0.02615044265985489,14.155611038208008,0.1714988350868225,2.1389803886413574,-0.22830526530742645,0.0,0.0,0.0,0.0,0.0,0.0,0.0,-0.2947948892427621,0.06867546060077873,-0.10598309996938013,0.2485400496097052,-0.05178611864435636,-0.043514093899886704,-0.25487157909454444,1.6754920650406886,0.05224455087174449,0.029831293693739505,-2.75262916325,0.03424624297022819,2.766368666383955,0.7691634054101174,1.6754973547542302,0.052104326824870026,0.029969505109285054,-2.752394845125968,0.0342448039870148,2.7663679543071322,0.7691630533470046,-0.001299979890418891,0.00011653772560351087,-2.9602417655571083e-05,-0.0012165190871726368,0.0004419954416156292,0.00018127918052556383,0.004134427670107605,0.0,0.0,0.0,0.0,0.0,0.0,0.0,5.2897135416341e-06,-0.00014022404687446394,0.00013821141554554855,0.00023431812403185148,-1.4389832133920866e-06,-7.120768228396912e-07,-3.520631127740259e-07,0.001299979890418891,-0.00011653772560351087,2.9602417655571083e-05,0.0012165190871726368,-0.0004419954416156292,-0.00018127918052556383,-0.004134427670107605,0.24825400114059448,22.720483779907227,0.02615044265985489,-14.155611038208008,-0.1714988350868225,-2.1389803886413574,0.22830526530742645,0
39,0.19002103805541992,-0.2998287081718445,-22.720483779907227,-0.02615044265985489,14.108003616333008,0.1834006905555725,2.1389803886413574,-0.24112264811992645,0.0,0.0,0.0,0.0,0.0,0.0,0.0,-0.2978394827029375,0.06456259352547838,-0.11084919935510411,0.25270546502066743,-0.05134834165780467,-0.04227781559047982,-0.2540693566294404,1.675495684318375,0.05224455087174449,0.02983105584815389,-2.752625825212707,0.03424492054184278,2.766368666383955,0.7691647898273335,1.6754973547542302,0.052104326824870026,0.029969505109285054,-2.752394845125968,0.0342448039870148,2.7663679543071322,0.7691630533470046,0.00029466389748814177,-0.0006007470702293889,-9.574431832029159e-05,0.00020170155034967093,-0.00024565078839605177,0.00017791402638797434,-0.0004262761889537869,0.0,0.0,0.0,0.0,0.0,0.0,0.0,1.670435855194441e-06,-0.00014022404687446394,0.00013844926113116413,0.00023098008673905213,-1.1655482797662264e-07,-7.120768228396912e-07,-1.7364803288622e-06,-0.00029466389748814177,0.0006007470702293889,9.574431832029159e-05,-0.00020170155034967093,0.00024565078839605177,-0.00017791402638797434,0.0004262761889537869,0.2998287081718445,22.720483779907227,0.02615044265985489,-14.108003616333008,-0.1834006905555725,-2.1389803886413574,0.24112264811992645,0
40,0.19501256942749023,-0.2998287081718445,-22.720483779907227,-0.02615044265985489,14.108003616333008,0.1834006905555725,2.1389803886413574,-0.24112264811992645,0.0,0.0,0.0,0.0,0.0,0.0,0.0,-0.2978394827029375,0.06456259352547838,-0.11084919935510411,0.25270546502066743,-0.05134834165780467,-0.04227781559047982,-0.2540693566294404,1.675495684318375,0.05224455087174449,0.02983105584815389,-2.752625825212707,0.03424492054184278,2.766368666383955,0.7691647898273335,1.6754973547542302,0.052104326824870026,0.029969505109285054,-2.752394845125968,0.0342448039870148,2.7663679543071322,0.7691630533470046,0.00029466389748814177,-0.0006007470702293889,-9.574431832029159e-05,0.00020170155034967093,-0.00024565078839605177,0.00017791402638797434,-0.0004262761889537869,0.0,0.0,0.0,0.0,0.0,0.0,0.0,1.670435855194441e-06,-0.00014022404687446394,0.00013844926113116413,0.00023098008673905213,-1.1655482797662264e-07,-7.120768228396912e-07,-1.7364803288622e-06,-0.00029466389748814177,0.0006007470702293889,9.574431832029159e-05,-0.00020170155034967093,0.00024565078839605177,-0.00017791402638797434,0.0004262761889537869,0.2998287081718445,22.720483779907227,0.02615044265985489,-14.108003616333008,-0.1834006905555725,-2.1389803886413574,0.24112264811992645,0
41,0.20004606246948242,-0.3236324191093445,-22.720483779907227,-0.04995415359735489,14.131807327270508,0.1834006905555725,2.1453890800476074,-0.21457235515117645,0.0,0.0,0.0,0.0,0.0,0.0,0.0,-0.2953456875108194,0.07363564372708048,-0.10905116835757782,0.24591325424214644,-0.051715499416331766,-0.04380090449899661,-0.25367929180918397,1.6754973547542302,0.05224455087174449,0.029833043050013084,-2.752627495648568,0.034243736727370154,2.766367954253297,0.7691618795311365,1.6754973547542302,0.052104326824870026,0.029969505109285054,-2.752394845125968,0.0342448039870148,2.7663679543071322,0.7691630533470046,0.0009061185886530339,-0.00013676798161802996,0.0009006122891033981,-0.0006543285117710335,-8.34471749119756e-05,-0.0001996375984694959,-0.00161855893054028,0.0,0.0,0.0,0.0,0.0,0.0,0.0,0.0,-0.00014022404687446394,0.00013646205927196967,0.00023265052259979768,1.06725964464649e-06,5.383515855328369e-11,1.1738158681717792e-06,-0.0009061185886530339,0.00013676798161802996,-0.0009006122891033981,0.0006543285117710335,8.34471749119756e-05,0.0001996375984694959,0.00161855893054028,0.3236324191093445,22.720483779907227,0.04995415359735489,-14.131807327270508,-0.1834006905555725,-2.1453890800476074,0.21457235515117645,0
42,0.20506763458251953,-0.3236324191093445,-22.720483779907227,-0.04995415359735489,14.131807327270508,0.1834006905555725,2.1453890800476074,-0.21457235515117645,0.0,0.0,0.0,0.0,0.0,0.0,0.0,-0.2953456875108194,0.07363564372708048,-0.10905116835757782,0.24591325424214644,-0.051715499416331766,-0.04380090449899661,-0.25367929180918397,1.6754973547542302,0.05224455087174449,0.029833043050013084,-2.752627495648568,0.034243736727370154,2.766367954253297,0.7691618795311365,1.6754973547542302,0.052104326824870026,0.029969505109285054,-2.752394845125968,0.0342448039870148,2.7663679543071322,0.7691630533470046,0.0009061185886530339,-0.00013676798161802996,0.0009006122891033981,-0.0006543285117710335,-8.34471749119756e-05,-0.0001996375984694959,-0.00161855893054028,0.0,0.0,0.0,0.0,0.0,0.0,0.0,0.0,-0.00014022404687446394,0.00013646205927196967,0.00023265052259979768,1.06725964464649e-06,5.383515855328369e-11,1.1738158681717792e-06,-0.0009061185886530339,0.00013676798161802996,-0.0009006122891033981,0.0006543285117710335,8.34471749119756e-05,0.0001996375984694959,0.00161855893054028,0.3236324191093445,22.720483779907227,0.04995415359735489,-14.131807327270508,-0.1834006905555725,-2.1453890800476074,0.21457235515117645,0
43,0.21001482009887695,-0.24825400114059448,-22.748254776000977,0.001620553433895111,14.108003616333008,0.1888938546180725,2.1453890800476074,-0.28964561223983765,0.0,0.0,0.0,0.0,0.0,0.0,0.0,-0.29189156766398294,0.07375429275962701,-0.10692995879883545,0.246429606458415,-0.051650475798046006,-0.04361840051939905,-0.25265870123427037,1.6754920650406886,0.05224649971357563,0.029829423448145095,-2.7526258252127125,0.03424431018359761,2.766367954307132,0.769170221004221,1.6754973547542302,0.052104326824870026,0.029969505109285054,-2.752394845125968,0.0342448039870148,2.7663679543071322,0.7691630533470046,-0.0005954711080497966,0.0007002227873324564,-0.00045634828045387825,-0.00013140442050544533,-0.00014712197522955827,-8.32003465259955e-05,0.0012233173144807659,0.0,0.0,0.0,0.0,0.0,0.0,0.0,5.2897135416341e-06,-0.00014217288870560507,0.00014008166113995899,0.0002309800867443812,4.938034171911299e-07,4.440892098500626e-16,-7.1676572164225405e-06,0.0005954711080497966,-0.0007002227873324564,0.00045634828045387825,0.00013140442050544533,0.00014712197522955827,8.32003465259955e-05,-0.0012233173144807659,0.24825400114059448,22.748254776000977,-0.001620553433895111,-14.108003616333008,-0.1888938546180725,-2.1453890800476074,0.28964561223983765,0
44,0.21501398086547852,-0.24825400114059448,-22.748254776000977,0.001620553433895111,14.108003616333008,0.1888938546180725,2.1453890800476074,-0.28964561223983765,0.0,0.0,0.0,0.0,0.0,0.0,0.0,-0.29189156766398294,0.07375429275962701,-0.10692995879883545,0.246429606458415,-0.051650475798046006,-0.04361840051939905,-0.25265870123427037,1.6754920650406886,0.05224649971357563,0.029829423448145095,-2.7526258252127125,0.03424431018359761,2.766367954307132,0.769170221004221,1.6754973547542302,0.052104326824870026,0.029969505109285054,-2.752394845125968,0.0342448039870148,2.7663679543071322,0.7691630533470046,-0.0005954711080497966,0.0007002227873324564,-0.00045634828045387825,-0.00013140442050544533,-0.00014712197522955827,-8.32003465259955e-05,0.0012233173144807659,0.0,0.0,0.0,0.0,0.0,0.0,0.0,5.2897135416341e-06,-0.00014217288870560507,0.00014008166113995899,0.0002309800867443812,4.938034171911299e-07,4.440892098500626e-16,-7.1676572164225405e-06,0.0005954711080497966,-0.0007002227873324564,0.00045634828045387825,0.00013140442050544533,0.00014712197522955827,8.32003465259955e-05,-0.0012233173144807659,0.24825400114059448,22.748254776000977,-0.001620553433895111,-14.108003616333008,-0.1888938546180725,-2.1453890800476074,0.28964561223983765,0
45,0.2199997901916504,-0.2720577120780945,-22.720483779907227,0.001620553433895111,14.131807327270508,0.1834006905555725,2.1453890800476074,-0.25485557317733765,0.0,0.0,0.0,0.0,0.0,0.0,0.0,-0.29434646334059483,0.06661553243733223,-0.10840446456953327,0.25158555329755794,-0.05047585023162935,-0.04239528950715446,-0.25316934939183255,1.6754937354765438,0.05224455087174449,0.029828713159456025,-2.752627495648568,0.034244920541842666,2.7663679499464813,0.7691663554443252,1.6754973547542302,0.052104326824870026,0.029969505109285054,-2.752394845125968,0.0342448039870148,2.7663679543071322,0.7691630533470046,-0.0005745358995061566,-0.0005566022511788765,-0.000568474018681974,-0.00027036396746726903,-9.200732443041065e-05,-1.8204947394482293e-05,-4.374940217785192e-05,0.0,0.0,0.0,0.0,0.0,0.0,0.0,3.619277686439659e-06,-0.00014022404687446394,0.00014079194982902915,0.00023265052259979768,-1.1655482786560034e-07,4.360650951440448e-09,-3.302097320578845e-06,0.0005745358995061566,0.0005566022511788765,0.000568474018681974,0.00027036396746726903,9.200732443041065e-05,1.8204947394482293e-05,4.374940217785192e-05,0.2720577120780945,22.720483779907227,-0.001620553433895111,-14.131807327270508,-0.1834006905555725,-2.1453890800476074,0.25485557317733765,0
46,0.22500348091125488,-0.2720577120780945,-22.720483779907227,0.001620553433895111,14.131807327270508,0.1834006905555725,2.1453890800476074,-0.25485557317733765,0.0,0.0,0.0,0.0,0.0,0.0,0.0,-0.29434646334059483,0.06661553243733223,-0.10840446456953327,0.25158555329755794,-0.05047585023162935,-0.04239528950715446,-0.25316934939183255,1.6754937354765438,0.05224455087174449,0.029828713159456025,-2.752627495648568,0.034244920541842666,2.7663679499464813,0.7691663554443252,1.6754973547542302,0.052104326824870026,0.029969505109285054,-2.752394845125968,0.0342448039870148,2.7663679543071322,0.7691630533470046,-0.0005745358995061566,-0.0005566022511788765,-0.000568474018681974,-0.00027036396746726903,-9.200732443041065e-05,-1.8204947394482293e-05,-4.374940217785192e-05,0.0,0.0,0.0,0.0,0.0,0.0,0.0,3.619277686439659e-06,-0.00014022404687446394,0.00014079194982902915,0.00023265052259979768,-1.1655482786560034e-07,4.360650951440448e-09,-3.302097320578845e-06,0.0005745358995061566,0.0005566022511788765,0.000568474018681974,0.00027036396746726903,9.200732443041065e-05,1.8204947394482293e-05,4.374940217785192e-05,0.2720577120780945,22.720483779907227,-0.001620553433895111,-14.131807327270508,-0.1834006905555725,-2.1453890800476074,0.25485557317733765,0
47,0.23000049591064453,-0.2998287081718445,-22.720483779907227,-0.04995415359735489,14.131807327270508,0.1953025460243225,2.1389803886413574,-0.28232139348983765,0.0,0.0,0.0,0.0,0.0,0.0,0.0,-0.2922151358259615,0.07177838563246869,-0.10677397417541738,0.2456525241883669,-0.05051763284780812,-0.043372308968485464,-0.2541905685663096,1.675495684318375,0.05224455087174449,0.029832806178118256,-2.752627495648568,0.03424355865297494,2.766368666383947,0.7691694072021378,1.6754973547542302,0.052104326824870026,0.029969505109285054,-2.752394845125968,0.0342448039870148,2.7663679543071322,0.7691630533470046,6.313012282594977e-05,-9.96635960814595e-05,0.0004790782535210055,-0.00040640872009624205,-0.0005416032449629135,0.00028968234194575327,0.001097261239620407,0.0,0.0,0.0,0.0,0.0,0.0,0.0,1.670435855194441e-06,-0.00014022404687446394,0.00013669893116679752,0.00023265052259979768,1.245334039862156e-06,-7.120768148460854e-07,-6.3538551331454585e-06,-6.313012282594977e-05,9.96635960814595e-05,-0.0004790782535210055,0.00040640872009624205,0.0005416032449629135,-0.00028968234194575327,-0.001097261239620407,0.2998287081718445,22.720483779907227,0.04995415359735489,-14.131807327270508,-0.1953025460243225,-2.1389803886413574,0.28232139348983765,0
48,0.2349991798400879,-0.2998287081718445,-22.720483779907227,-0.04995415359735489,14.131807327270508,0.1953025460243225,2.1389803886413574,-0.28232139348983765,0.0,0.0,0.0,0.0,0.0,0.0,0.0,-0.2922151358259615,0.07177838563246869,-0.10677397417541738,0.2456525241883669,-0.05051763284780812,-0.043372308968485464,-0.2541905685663096,1.675495684318375,0.05224455087174449,0.029832806178118256,-2.752627495648568,0.03424355865297494,2.766368666383947,0.7691694072021378,1.6754973547542302,0.052104326824870026,0.029969505109285054,-2.752394845125968,0.0342448039870148,2.7663679543071322,0.7691630533470046,6.313012282594977e-05,-9.96635960814595e-05,0.0004790782535210055,-0.00040640872009624205,-0.0005416032449629135,0.00028968234194575327,0.001097261239620407,0.0,0.0,0.0,0.0,0.0,0.0,0.0,1.670435855194441e-06,-0.00014022404687446394,0.00013669893116679752,0.00023265052259979768,1.245334039862156e-06,-7.120768148460854e-07,-6.3538551331454585e-06,-6.313012282594977e-05,9.96635960814595e-05,-0.0004790782535210055,0.00040640872009624205,0.0005416032449629135,-0.00028968234194575327,-0.001097261239620407,0.2998287081718445,22.720483779907227,0.04995415359735489,-14.131807327270508,-0.1953025460243225,-2.1389803886413574,0.28232139348983765,0
49,0.24002528190612793,-0.3236324191093445,-22.748254776000977,-0.02615044265985489,14.080232620239258,0.1769919991493225,2.1453890800476074,-0.25485557317733765,0.0,0.0,0.0,0.0,0.0,0.0,0.0,-0.28954074707562016,0.06906989079801955,-0.10353905691948997,0.24522465546081207,-0.05074141908774591,-0.04331182962383738,-0.2551156384532906,1.6754973547542302,0.05224649971357563,0.029831284815196573,-2.7526238763708815,0.03424563261844294,2.7663679543071322,0.7691663554443252,1.6754973547542302,0.052104326824870026,0.029969505109285054,-2.752394845125968,0.0342448039870148,2.7663679543071322,0.7691630533470046,0.0008226378121446872,0.00030856180352696816,-3.233087848806822e-05,0.000615872093764156,0.0002886652228233786,-0.00021055901988295322,-0.00011791990731085747,0.0,0.0,0.0,0.0,0.0,0.0,0.0,0.0,-0.00014217288870560507,0.00013822029408848066,0.00022903124491335802,-8.286314281402696e-07,0.0,-3.302097320578845e-06,-0.0008226378121446872,-0.00030856180352696816,3.233087848806822e-05,-0.000615872093764156,-0.0002886652228233786,0.00021055901988295322,0.00011791990731085747,0.3236324191093445,22.748254776000977,0.02615044265985489,-14.080232620239258,-0.1769919991493225,-2.1453890800476074,0.25485557317733765,0
50,0.24503302574157715,-0.3236324191093445,-22.748254776000977,-0.02615044265985489,14.080232620239258,0.1769919991493225,2.1453890800476074,-0.25485557317733765,0.0,0.0,0.0,0.0,0.0,0.0,0.0,-0.28954074707562016,0.06906989079801955,-0.10353905691948997,0.24522465546081207,-0.05074141908774591,-0.04331182962383738,-0.2551156384532906,1.6754973547542302,0.05224649971357563,0.029831284815196573,-2.7526238763708815,0.03424563261844294,2.7663679543071322,0.7691663554443252,1.6754973547542302,0.052104326824870026,0.029969505109285054,-2.752394845125968,0.0342448039870148,2.7663679543071322,0.7691630533470046,0.0008226378121446872,0.00030856180352696816,-3.233087848806822e-05,0.000615872093764156,0.0002886652228233786,-0.00021055901988295322,-0.00011791990731085747,0.0,0.0,0.0,0.0,0.0,0.0,0.0,0.0,-0.00014217288870560507,0.00013822029408848066,0.00022903124491335802,-8.286314281402696e-07,0.0,-3.302097320578845e-06,-0.0008226378121446872,-0.00030856180352696816,3.233087848806822e-05,-0.000615872093764156,-0.0002886652228233786,0.00021055901988295322,0.00011791990731085747,0.3236324191093445,22.748254776000977,0.02615044265985489,-14.080232620239258,-0.1769919991493225,-2.1453890800476074,0.25485557317733765,0
51,0.25002312660217285,-0.3236324191093445,-22.748254776000977,-0.02615044265985489,14.080232620239258,0.1769919991493225,2.1453890800476074,-0.25485557317733765,0.0,0.0,0.0,0.0,0.0,0.0,0.0,-0.28954074707562016,0.06906989079801955,-0.10353905691948997,0.24522465546081207,-0.05074141908774591,-0.04331182962383738,-0.2551156384532906,1.6754973547542302,0.05224649971357563,0.029831284815196573,-2.7526238763708815,0.03424563261844294,2.7663679543071322,0.7691663554443252,1.6754973547542302,0.052104326824870026,0.029969505109285054,-2.752394845125968,0.0342448039870148,2.7663679543071322,0.7691630533470046,0.0008226378121446872,0.00030856180352696816,-3.233087848806822e-05,0.000615872093764156,0.0002886652228233786,-0.00021055901988295322,-0.00011791990731085747,0.0,0.0,0.0,0.0,0.0,0.0,0.0,0.0,-0.00014217288870560507,0.00013822029408848066,0.00022903124491335802,-8.286314281402696e-07,0.0,-3.302097320578845e-06,-0.0008226378121446872,-0.00030856180352696816,3.233087848806822e-05,-0.000615872093764156,-0.0002886652228233786,0.00021055901988295322,0.00011791990731085747,0.3236324191093445,22.748254776000977,0.02615044265985489,-14.080232620239258,-0.1769919991493225,-2.1453890800476074,0.25485557317733765,0
52,0.25500059127807617,-0.3236324191093445,-22.748254776000977,-0.02615044265985489,14.080232620239258,0.1769919991493225,2.1453890800476074,-0.25485557317733765,0.0,0.0,0.0,0.0,0.0,0.0,0.0,-0.28954074707562016,0.06906989079801955,-0.10353905691948997,0.24522465546081207,-0.05074141908774591,-0.04331182962383738,-0.2551156384532906,1.6754973547542302,0.05224649971357563,0.029831284815196573,-2.7526238763708815,0.03424563261844294,2.7663679543071322,0.7691663554443252,1.6754973547542302,0.052104326824870026,0.029969505109285054,-2.752394845125968,0.0342448039870148,2.7663679543071322,0.7691630533470046,0.0008226378121446872,0.00030856180352696816,-3.233087848806822e-05,0.000615872093764156,0.0002886652228233786,-0.00021055901988295322,-0.00011791990731085747,0.0,0.0,0.0,0.0,0.0,0.0,0.0,0.0,-0.00014217288870560507,0.00013822029408848066,0.00022903124491335802,-8.286314281402696e-07,0.0,-3.302097320578845e-06,-0.0008226378121446872,-0.00030856180352696816,3.233087848806822e-05,-0.000615872093764156,-0.0002886652228233786,0.00021055901988295322,0.00011791990731085747,0.3236324191093445,22.748254776000977,0.02615044265985489,-14.080232620239258,-0.1769919991493225,-2.1453890800476074,0.25485557317733765,0
53,0.2599976062774658,-0.3236324191093445,-22.748254776000977,-0.04995415359735489,14.080232620239258,0.1714988350868225,2.1453890800476074,-0.26858848333358765,0.0,0.0,0.0,0.0,0.0,0.0,0.0,-0.2871773419840907,0.06600146201176556,-0.1039959503511594,0.2474211046488665,-0.05063111232776326,-0.04304524267935239,-0.2563526816955682,1.6754973547542302,0.05224649971357563,0.029833031250189924,-2.7526238763708815,0.03424624297022819,2.7663679543071322,0.7691678813232314,1.6754973547542302,0.052104326824870026,0.029969505109285054,-2.752394845125968,0.0342448039870148,2.7663679543071322,0.7691630533470046,0.0009632705620200067,0.0004666961881086475,0.0009276167165348101,0.0008421513005541975,0.0003251613572423788,4.547112384139116e-05,0.0005757108237330719,0.0,0.0,0.0,0.0,0.0,0.0,0.0,0.0,-0.00014217288870560507,0.0001364738590951299,0.00022903124491335802,-1.4389832133920866e-06,0.0,-4.827976226806641e-06,-0.0009632705620200067,-0.0004666961881086475,-0.0009276167165348101,-0.0008421513005541975,-0.0003251613572423788,-4.547112384139116e-05,-0.0005757108237330719,0.3236324191093445,22.748254776000977,0.04995415359735489,-14.080232620239258,-0.1714988350868225,-2.1453890800476074,0.26858848333358765,0
54,0.2649970054626465,-0.3236324191093445,-22.748254776000977,-0.04995415359735489,14.080232620239258,0.1714988350868225,2.1453890800476074,-0.26858848333358765,0.0,0.0,0.0,0.0,0.0,0.0,0.0,-0.2871773419840907,0.06600146201176556,-0.1039959503511594,0.2474211046488665,-0.05063111232776326,-0.04304524267935239,-0.2563526816955682,1.6754973547542302,0.05224649971357563,0.029833031250189924,-2.7526238763708815,0.03424624297022819,2.7663679543071322,0.7691678813232314,1.6754973547542302,0.052104326824870026,0.029969505109285054,-2.752394845125968,0.0342448039870148,2.7663679543071322,0.7691630533470046,0.0009632705620200067,0.0004666961881086475,0.0009276167165348101,0.0008421513005541975,0.0003251613572423788,4.547112384139116e-05,0.0005757108237330719,0.0,0.0,0.0,0.0,0.0,0.0,0.0,0.0,-0.00014217288870560507,0.0001364738590951299,0.00022903124491335802,-1.4389832133920866e-06,0.0,-4.827976226806641e-06,-0.0009632705620200067,-0.0004666961881086475,-0.0009276167165348101,-0.0008421513005541975,-0.0003251613572423788,-4.547112384139116e-05,-0.0005757108237330719,0.3236324191093445,22.748254776000977,0.04995415359735489,-14.080232620239258,-0.1714988350868225,-2.1453890800476074,0.26858848333358765,0
55,0.2649970054626465,-0.3236324191093445,-22.748254776000977,-0.04995415359735489,14.080232620239258,0.1714988350868225,2.1453890800476074,-0.26858848333358765,0.0,0.0,0.0,0.0,0.0,0.0,0.0,-0.2871773419840907,0.06600146201176556,-0.1039959503511594,0.2474211046488665,-0.05063111232776326,-0.04304524267935239,-0.2563526816955682,1.6754973547542302,0.05224649971357563,0.029833031250189924,-2.7526238763708815,0.03424624297022819,2.7663679543071322,0.7691678813232314,1.6754973547542302,0.052104326824870026,0.029969505109285054,-2.752394845125968,0.0342448039870148,2.7663679543071322,0.7691630533470046,0.0009632705620200067,0.0004666961881086475,0.0009276167165348101,0.0008421513005541975,0.0003251613572423788,4.547112384139116e-05,0.0005757108237330719,0.0,0.0,0.0,0.0,0.0,0.0,0.0,0.0,-0.00014217288870560507,0.0001364738590951299,0.00022903124491335802,-1.4389832133920866e-06,0.0,-4.827976226806641e-06,-0.0009632705620200067,-0.0004666961881086475,-0.0009276167165348101,-0.0008421513005541975,-0.0003251613572423788,-4.547112384139116e-05,-0.0005757108237330719,0.3236324191093445,22.748254776000977,0.04995415359735489,-14.080232620239258,-0.1714988350868225,-2.1453890800476074,0.26858848333358765,0
56,0.27504467964172363,-0.2720577120780945,-22.748254776000977,-0.04995415359735489,14.131807327270508,0.1769919991493225,2.1325716972351074,-0.22830526530742645,0.0,0.0,0.0,0.0,0.0,0.0,0.0,-0.2932150955859301,0.06534248036024462,-0.10805341454631943,0.24841371997927034,-0.049736733372573165,-0.04246867236157731,-0.25739813803876205,1.6754937354765438,0.05224649971357563,0.02983304305054252,-2.752627495648568,0.034245628234167644,2.7663693784607783,0.7691634054101174,1.6754973547542302,0.052104326824870026,0.029969505109285054,-2.752394845125968,0.0342448039870148,2.7663679543071322,0.7691630533470046,-0.0009268522508972531,0.0005585911613529288,0.0007596025908700076,-0.0003965784614128334,0.0002924772003882904,0.0004278352974928196,-0.0015744908554177965,0.0,0.0,0.0,0.0,0.0,0.0,0.0,3.619277686439659e-06,-0.00014217288870560507,0.00013646205874253206,0.00023265052259979768,-8.242471528432938e-07,-1.4241536461234716e-06,-3.520631127740259e-07,0.0009268522508972531,-0.0005585911613529288,-0.0007596025908700076,0.0003965784614128334,-0.0002924772003882904,-0.0004278352974928196,0.0015744908554177965,0.2720577120780945,22.748254776000977,0.04995415359735489,-14.131807327270508,-0.1769919991493225,-2.1325716972351074,0.22830526530742645,0
57,0.2800278663635254,-0.2720577120780945,-22.748254776000977,-0.04995415359735489,14.131807327270508,0.1769919991493225,2.1325716972351074,-0.22830526530742645,0.0,0.0,0.0,0.0,0.0,0.0,0.0,-0.2932150955859301,0.06534248036024462,-0.10805341454631943,0.24841371997927034,-0.049736733372573165,-0.04246867236157731,-0.25739813803876205,1.6754937354765438,0.05224649971357563,0.02983304305054252,-2.752627495648568,0.034245628234167644,2.7663693784607783,0.7691634054101174,1.6754973547542302,0.052104326824870026,0.029969505109285054,-2.752394845125968,0.0342448039870148,2.7663679543071322,0.7691630533470046,-0.0009268522508972531,0.0005585911613529288,0.0007596025908700076,-0.0003965784614128334,0.0002924772003882904,0.0004278352974928196,-0.0015744908554177965,0.0,0.0,0.0,0.0,0.0,0.0,0.0,3.619277686439659e-06,-0.00014217288870560507,0.00013646205874253206,0.00023265052259979768,-8.242471528432938e-07,-1.4241536461234716e-06,-3.520631127740259e-07,0.0009268522508972531,-0.0005585911613529288,-0.0007596025908700076,0.0003965784614128334,-0.0002924772003882904,-0.0004278352974928196,0.0015744908554177965,0.2720577120780945,22.748254776000977,0.04995415359735489,-14.131807327270508,-0.1769919991493225,-2.1325716972351074,0.22830526530742645,0
58,0.2850193977355957,-0.2998287081718445,-22.696680068969727,-0.02615044265985489,14.131807327270508,0.1769919991493225,2.1517977714538574,-0.26858848333358765,0.0,0.0,0.0,0.0,0.0,0.0,0.0,-0.2946937616360166,0.07138693877715237,-0.10790927046559365,0.2449438105434586,-0.049805573953556746,-0.043705004309987916,-0.25832993785168445,1.675495684318375,0.05224288032763001,0.029831293693789028,-2.752627495648568,0.03424563261864094,2.7663672422303094,0.7691678813232314,1.6754973547542302,0.052104326824870026,0.029969505109285054,-2.752394845125968,0.0342448039870148,2.7663679543071322,0.7691630533470046,-0.00025639884386873977,-0.0003025866269820668,-1.8777970199216918e-05,-0.0008144558549463294,0.0003389350958739976,-0.0004533713159469097,0.00029197035378665466,0.0,0.0,0.0,0.0,0.0,0.0,0.0,1.670435855194441e-06,-0.00013855350275998601,0.00013821141549602567,0.00023265052259979768,-8.286316261416071e-07,7.120768228396912e-07,-4.827976226806641e-06,0.00025639884386873977,0.0003025866269820668,1.8777970199216918e-05,0.0008144558549463294,-0.0003389350958739976,0.0004533713159469097,-0.00029197035378665466,0.2998287081718445,22.696680068969727,0.02615044265985489,-14.131807327270508,-0.1769919991493225,-2.1517977714538574,0.26858848333358765,0
59,0.2900230884552002,-0.2998287081718445,-22.696680068969727,-0.02615044265985489,14.131807327270508,0.1769919991493225,2.1517977714538574,-0.26858848333358765,0.0,0.0,0.0,0.0,0.0,0.0,0.0,-0.2946937616360166,0.07138693877715237,-0.10790927046559365,0.2449438105434586,-0.049805573953556746,-0.043705004309987916,-0.25832993785168445,1.675495684318375,0.05224288032763001,0.029831293693789028,-2.752627495648568,0.03424563261864094,2.7663672422303094,0.7691678813232314,1.6754973547542302,0.052104326824870026,0.029969505109285054,-2.752394845125968,0.0342448039870148,2.7663679543071322,0.7691630533470046,-0.00025639884386873977,-0.0003025866269820668,-1.8777970199216918e-05,-0.0008144558549463294,0.0003389350958739976,-0.0004533713159469097,0.00029197035378665466,0.0,0.0,0.0,0.0,0.0,0.0,0.0,1.670435855194441e-06,-0.00013855350275998601,0.00013821141549602567,0.00023265052259979768,-8.286316261416071e-07,7.120768228396912e-07,-4.827976226806641e-06,0.00025639884386873977,0.0003025866269820668,1.8777970199216918e-05,0.0008144558549463294,-0.0003389350958739976,0.0004533713159469097,-0.00029197035378665466,0.2998287081718445,22.696680068969727,0.02615044265985489,-14.131807327270508,-0.1769919991493225,-2.1517977714538574,0.26858848333358765,0
60,0.2950124740600586,-0.2998287081718445,-22.696680068969727,-0.02615044265985489,14.131807327270508,0.1834006905555725,2.1389803886413574,-0.29605430364608765,0.0,0.0,0.0,0.0,0.0,0.0,0.0,-0.2912296397651646,0.07113069233311901,-0.10503490132865934,0.24797213390734346,-0.050998817418834934,-0.04337157928132655,-0.25836655540411246,1.675495684318375,0.052242880435888615,0.02983137261430836,-2.7526274956135754,0.03424492054184278,2.766368666383955,0.769170933081044,1.6754973547542302,0.052104326824870026,0.029969505109285054,-2.752394845125968,0.0342448039870148,2.7663679543071322,0.7691630533470046,0.0004221908165196521,-0.00014945990626811446,-2.07737497527008e-05,-0.0004430513959762988,-0.00022582777841404343,1.1938739499322949e-05,0.0016540086061898828,0.0,0.0,0.0,0.0,0.0,0.0,0.0,1.670435855194441e-06,-0.00013855361101858948,0.0001381324949766942,0.0002326504876073443,-1.1655482797662264e-07,-7.120768228396912e-07,-7.879734039373254e-06,-0.0004221908165196521,0.00014945990626811446,2.07737497527008e-05,0.0004430513959762988,0.00022582777841404343,-1.1938739499322949e-05,-0.0016540086061898828,0.2998287081718445,22.696680068969727,0.02615044265985489,-14.131807327270508,-0.1834006905555725,-2.1389803886413574,0.29605430364608765,0
61,0.3000190258026123,-0.2998287081718445,-22.696680068969727,-0.02615044265985489,14.131807327270508,0.1834006905555725,2.1389803886413574,-0.29605430364608765,0.0,0.0,0.0,0.0,0.0,0.0,0.0,-0.2912296397651646,0.07113069233311901,-0.10503490132865934,0.24797213390734346,-0.050998817418834934,-0.04337157928132655,-0.25836655540411246,1.675495684318375,0.052242880435888615,0.02983137261430836,-2.7526274956135754,0.03424492054184278,2.766368666383955,0.769170933081044,1.6754973547542302,0.052104326824870026,0.029969505109285054,-2.752394845125968,0.0342448039870148,2.7663679543071322,0.7691630533470046,0.0004221908165196521,-0.00014945990626811446,-2.07737497527008e-05,-0.0004430513959762988,-0.00022582777841404343,1.1938739499322949e-05,0.0016540086061898828,0.0,0.0,0.0,0.0,0.0,0.0,0.0,1.670435855194441e-06,-0.00013855361101858948,0.0001381324949766942,0.0002326504876073443,-1.1655482797662264e-07,-7.120768228396912e-07,-7.879734039373254e-06,-0.0004221908165196521,0.00014945990626811446,2.07737497527008e-05,0.0004430513959762988,0.00022582777841404343,-1.1938739499322949e-05,-0.0016540086061898828,0.2998287081718445,22.696680068969727,0.02615044265985489,-14.131807327270508,-0.1834006905555725,-2.1389803886413574,0.29605430364608765,0
62,0.30499958992004395,-0.2998287081718445,-22.772058486938477,-0.04995415359735489,14.108003616333008,0.1888938546180725,2.1453890800476074,-0.26858848333358765,0.0,0.0,0.0,0.0,0.0,0.0,0.0,-0.28909434768029385,0.06876997785774885,-0.10466362045127736,0.24985984966313626,-0.0515772168395373,-0.043495892481353264,-0.2588158924855146,1.675495684318375,0.052248170149430895,0.02983304305060913,-2.7526258252127125,0.03424431019028028,2.7663679543071322,0.7691678813232314,1.6754973547542302,0.052104326824870026,0.029969505109285054,-2.752394845125968,0.0342448039870148,2.7663679543071322,0.7691630533470046,0.0006395001702732449,0.0007550116791855722,0.0009867198392834904,0.00010421005867945377,-0.00016081506466518792,-0.00019319320302633062,0.0002774174974256982,0.0,0.0,0.0,0.0,0.0,0.0,0.0,1.670435855194441e-06,-0.0001438433245608689,0.00013646205867592215,0.0002309800867443812,4.937967345228222e-07,0.0,-4.827976226806641e-06,-0.0006395001702732449,-0.0007550116791855722,-0.0009867198392834904,-0.00010421005867945377,0.00016081506466518792,0.00019319320302633062,-0.0002774174974256982,0.2998287081718445,22.772058486938477,0.04995415359735489,-14.108003616333008,-0.1888938546180725,-2.1453890800476074,0.26858848333358765,0
63,0.31000232696533203,-0.2998287081718445,-22.772058486938477,-0.04995415359735489,14.108003616333008,0.1888938546180725,2.1453890800476074,-0.26858848333358765,0.0,0.0,0.0,0.0,0.0,0.0,0.0,-0.28909434768029385,0.06876997785774885,-0.10466362045127736,0.24985984966313626,-0.0515772168395373,-0.043495892481353264,-0.2588158924855146,1.675495684318375,0.052248170149430895,0.02983304305060913,-2.7526258252127125,0.03424431019028028,2.7663679543071322,0.7691678813232314,1.6754973547542302,0.052104326824870026,0.029969505109285054,-2.752394845125968,0.0342448039870148,2.7663679543071322,0.7691630533470046,0.0006395001702732449,0.0007550116791855722,0.0009867198392834904,0.00010421005867945377,-0.00016081506466518792,-0.00019319320302633062,0.0002774174974256982,0.0,0.0,0.0,0.0,0.0,0.0,0.0,1.670435855194441e-06,-0.0001438433245608689,0.00013646205867592215,0.0002309800867443812,4.937967345228222e-07,0.0,-4.827976226806641e-06,-0.0006395001702732449,-0.0007550116791855722,-0.0009867198392834904,-0.00010421005867945377,0.00016081506466518792,0.00019319320302633062,-0.0002774174974256982,0.2998287081718445,22.772058486938477,0.04995415359735489,-14.108003616333008,-0.1888938546180725,-2.1453890800476074,0.26858848333358765,0
64,0.3149991035461426,-0.2998287081718445,-22.748254776000977,-0.04995415359735489,14.131807327270508,0.1834006905555725,2.1453890800476074,-0.23471395671367645,0.0,0.0,0.0,0.0,0.0,0.0,0.0,-0.29149760241615436,0.061398139402054165,-0.10849334103951279,0.2547396245756026,-0.05015674203297458,-0.04293423902661751,-0.2597626422912399,1.675495684318375,0.05224649971357563,0.029833043050609135,-2.7526274191191478,0.034244919080343425,2.7663679543071322,0.7691641174869404,1.6754973547542302,0.052104326824870026,0.029969505109285054,-2.752394845125968,0.0342448039870148,2.7663679543071322,0.7691630533470046,0.00031427996439275396,-0.00042640292312117264,0.0007637088495752063,6.977411374563186e-05,-7.054830015577303e-05,-2.7517388925264076e-05,-0.0011245207595009102,0.0,0.0,0.0,0.0,0.0,0.0,0.0,1.670435855194441e-06,-0.00014217288870560507,0.00013646205867591868,0.00023257399317966332,-1.1509332862452704e-07,0.0,-1.0641399357247394e-06,-0.00031427996439275396,0.00042640292312117264,-0.0007637088495752063,-6.977411374563186e-05,7.054830015577303e-05,2.7517388925264076e-05,0.0011245207595009102,0.2998287081718445,22.748254776000977,0.04995415359735489,-14.131807327270508,-0.1834006905555725,-2.1453890800476074,0.23471395671367645,0
65,0.32001543045043945,-0.2998287081718445,-22.748254776000977,-0.04995415359735489,14.131807327270508,0.1834006905555725,2.1453890800476074,-0.23471395671367645,0.0,0.0,0.0,0.0,0.0,0.0,0.0,-0.29149760241615436,0.061398139402054165,-0.10849334103951279,0.2547396245756026,-0.05015674203297458,-0.04293423902661751,-0.2597626422912399,1.675495684318375,0.05224649971357563,0.029833043050609135,-2.7526274191191478,0.034244919080343425,2.7663679543071322,0.7691641174869404,1.6754973547542302,0.052104326824870026,0.029969505109285054,-2.752394845125968,0.0342448039870148,2.7663679543071322,0.7691630533470046,0.00031427996439275396,-0.00042640292312117264,0.0007637088495752063,6.977411374563186e-05,-7.054830015577303e-05,-2.7517388925264076e-05,-0.0011245207595009102,0.0,0.0,0.0,0.0,0.0,0.0,0.0,1.670435855194441e-06,-0.00014217288870560507,0.00013646205867591868,0.00023257399317966332,-1.1509332862452704e-07,0.0,-1.0641399357247394e-06,-0.00031427996439275396,0.00042640292312117264,-0.0007637088495752063,-6.977411374563186e-05,7.054830015577303e-05,2.7517388925264076e-05,0.0011245207595009102,0.2998287081718445,22.748254776000977,0.04995415359735489,-14.131807327270508,-0.1834006905555725,-2.1453890800476074,0.23471395671367645,0
66,0.3250467777252197,-0.2998287081718445,-22.720483779907227,-0.02615044265985489,14.108003616333008,0.1834006905555725,2.1389803886413574,-0.28232139348983765,0.0,0.0,0.0,0.0,0.0,0.0,0.0,-0.2894852518188249,0.06566494168083663,-0.10724765212016907,0.24839849999200242,-0.05018849433609561,-0.04424526496635836,-0.2599090041718723,1.675495684318375,0.05224455087174449,0.02983134630776559,-2.752625825212281,0.03424492054183453,2.766368666383955,0.7691694072021378,1.6754973547542302,0.052104326824870026,0.029969505109285054,-2.752394845125968,0.0342448039870148,2.7663679543071322,0.7691630533470046,0.00045460213792561686,-0.000441268277290297,-0.0002552577849953427,9.316927434989202e-06,-0.0001711857680680938,8.569127429439379e-05,0.0005643763137572208,0.0,0.0,0.0,0.0,0.0,0.0,0.0,1.670435855194441e-06,-0.00014022404687446394,0.00013815880151946472,0.00023098008631272648,-1.1655481972627779e-07,-7.120768228396912e-07,-6.3538551331454585e-06,-0.00045460213792561686,0.000441268277290297,0.0002552577849953427,-9.316927434989202e-06,0.0001711857680680938,-8.569127429439379e-05,-0.0005643763137572208,0.2998287081718445,22.720483779907227,0.02615044265985489,-14.108003616333008,-0.1834006905555725,-2.1389803886413574,0.28232139348983765,0
67,0.33002305030822754,-0.2998287081718445,-22.720483779907227,-0.02615044265985489,14.108003616333008,0.1834006905555725,2.1389803886413574,-0.28232139348983765,0.0,0.0,0.0,0.0,0.0,0.0,0.0,-0.2894852518188249,0.06566494168083663,-0.10724765212016907,0.24839849999200242,-0.05018849433609561,-0.04424526496635836,-0.2599090041718723,1.675495684318375,0.05224455087174449,0.02983134630776559,-2.752625825212281,0.03424492054183453,2.766368666383955,0.7691694072021378,1.6754973547542302,0.052104326824870026,0.029969505109285054,-2.752394845125968,0.0342448039870148,2.7663679543071322,0.7691630533470046,0.00045460213792561686,-0.000441268277290297,-0.0002552577849953427,9.316927434989202e-06,-0.0001711857680680938,8.569127429439379e-05,0.0005643763137572208,0.0,0.0,0.0,0.0,0.0,0.0,0.0,1.670435855194441e-06,-0.00014022404687446394,0.00013815880151946472,0.00023098008631272648,-1.1655481972627779e-07,-7.120768228396912e-07,-6.3538551331454585e-06,-0.00045460213792561686,0.000441268277290297,0.0002552577849953427,-9.316927434989202e-06,0.0001711857680680938,-8.569127429439379e-05,-0.0005643763137572208,0.2998287081718445,22.720483779907227,0.02615044265985489,-14.108003616333008,-0.1834006905555725,-2.1389803886413574,0.28232139348983765,0
68,0.3350186347961426,-0.3236324191093445,-22.720483779907227,-0.02615044265985489,14.131807327270508,0.1834006905555725,2.1389803886413574,-0.26217979192733765,0.0,0.0,0.0,0.0,0.0,0.0,0.0,-0.29170695340421043,0.06242817930110885,-0.11062891944152116,0.24845650389415244,-0.050315101406848965,-0.04397459921901771,-0.26049396825817206,1.6754973547542302,0.05224455087174449,0.02983137261460537,-2.7526274191191478,0.03424492054184278,2.766368666383955,0.76916681161854,1.6754973547542302,0.052104326824870026,0.029969505109285054,-2.752394845125968,0.0342448039870148,2.7663679543071322,0.7691630533470046,0.0002177058883162041,-0.00019732511609809933,-9.23112066592817e-05,-0.0006929628153939946,-0.00015242993083094668,0.00012471285577688024,0.00042002863082869145,0.0,0.0,0.0,0.0,0.0,0.0,0.0,0.0,-0.00014022404687446394,0.00013813249467968525,0.00023257399317966332,-1.1655482797662264e-07,-7.120768228396912e-07,-3.7582715353146057e-06,-0.0002177058883162041,0.00019732511609809933,9.23112066592817e-05,0.0006929628153939946,0.00015242993083094668,-0.00012471285577688024,-0.00042002863082869145,0.3236324191093445,22.720483779907227,0.02615044265985489,-14.131807327270508,-0.1834006905555725,-2.1389803886413574,0.26217979192733765,0
69,0.34000349044799805,-0.3236324191093445,-22.720483779907227,-0.02615044265985489,14.131807327270508,0.1834006905555725,2.1389803886413574,-0.26217979192733765,0.0,0.0,0.0,0.0,0.0,0.0,0.0,-0.29170695340421043,0.06242817930110885,-0.11062891944152116,0.24845650389415244,-0.050315101406848965,-0.04397459921901771,-0.26049396825817206,1.6754973547542302,0.05224455087174449,0.02983137261460537,-2.7526274191191478,0.03424492054184278,2.766368666383955,0.76916681161854,1.6754973547542302,0.052104326824870026,0.029969505109285054,-2.752394845125968,0.0342448039870148,2.7663679543071322,0.7691630533470046,0.0002177058883162041,-0.00019732511609809933,-9.23112066592817e-05,-0.0006929628153939946,-0.00015242993083094668,0.00012471285577688024,0.00042002863082869145,0.0,0.0,0.0,0.0,0.0,0.0,0.0,0.0,-0.00014022404687446394,0.00013813249467968525,0.00023257399317966332,-1.1655482797662264e-07,-7.120768228396912e-07,-3.7582715353146057e-06,-0.0002177058883162041,0.00019732511609809933,9.23112066592817e-05,0.0006929628153939946,0.00015242993083094668,-0.00012471285577688024,-0.00042002863082869145,0.3236324191093445,22.720483779907227,0.02615044265985489,-14.131807327270508,-0.1834006905555725,-2.1389803886413574,0.26217979192733765,0
70,0.3450043201446533,-0.3514034152030945,-22.720483779907227,0.02542426437139511,14.155611038208008,0.1769919991493225,2.1453890800476074,-0.26858848333358765,0.0,0.0,0.0,0.0,0.0,0.0,0.0,-0.2949359194291348,0.06207746737034968,-0.11029193842474022,0.2530875884784074,-0.05063079601618266,-0.04355910789169246,-0.2589342384137664,1.6754993035960613,0.05224455087174449,0.02982774456807137,-2.752629166083991,0.03424243631958961,2.7663679543071322,0.7691678813212126,1.6754973547542302,0.052104326824870026,0.029969505109285054,-2.752394845125968,0.0342448039870148,2.7663679543071322,0.7691630533470046,0.0007272286524614807,1.9953857016724128e-05,-0.001560530121542427,-0.0005915281038090758,0.000311057846248701,-0.00025581864066586297,0.0007844116370258826,0.0,0.0,0.0,0.0,0.0,0.0,0.0,-1.9488418310231737e-06,-0.00014022404687446394,0.0001417605412136827,0.00023432095802311537,2.3676674251876806e-06,0.0,-4.827974207977093e-06,-0.0007272286524614807,-1.9953857016724128e-05,0.001560530121542427,0.0005915281038090758,-0.000311057846248701,0.00025581864066586297,-0.0007844116370258826,0.3514034152030945,22.720483779907227,-0.02542426437139511,-14.155611038208008,-0.1769919991493225,-2.1453890800476074,0.26858848333358765,0
71,0.35001468658447266,-0.3514034152030945,-22.720483779907227,0.02542426437139511,14.155611038208008,0.1769919991493225,2.1453890800476074,-0.26858848333358765,0.0,0.0,0.0,0.0,0.0,0.0,0.0,-0.2949359194291348,0.06207746737034968,-0.11029193842474022,0.2530875884784074,-0.05063079601618266,-0.04355910789169246,-0.2589342384137664,1.6754993035960613,0.05224455087174449,0.02982774456807137,-2.752629166083991,0.03424243631958961,2.7663679543071322,0.7691678813212126,1.6754973547542302,0.052104326824870026,0.029969505109285054,-2.752394845125968,0.0342448039870148,2.7663679543071322,0.7691630533470046,0.0007272286524614807,1.9953857016724128e-05,-0.001560530121542427,-0.0005915281038090758,0.000311057846248701,-0.00025581864066586297,0.0007844116370258826,0.0,0.0,0.0,0.0,0.0,0.0,0.0,-1.9488418310231737e-06,-0.00014022404687446394,0.0001417605412136827,0.00023432095802311537,2.3676674251876806e-06,0.0,-4.827974207977093e-06,-0.0007272286524614807,-1.9953857016724128e-05,0.001560530121542427,0.0005915281038090758,-0.000311057846248701,0.00025581864066586297,-0.0007844116370258826,0.3514034152030945,22.720483779907227,-0.02542426437139511,-14.155611038208008,-0.1769919991493225,-2.1453890800476074,0.26858848333358765,0
72,0.3549981117248535,-0.3236324191093445,-22.772058486938477,-0.04995415359735489,14.080232620239258,0.1888938546180725,2.1389803886413574,-0.24844686686992645,0.0,0.0,0.0,0.0,0.0,0.0,0.0,-0.30036050055641556,0.06803042568245923,-0.11050867277333226,0.251643151236004,-0.05061103641387588,-0.04431291766699019,-0.25892545006019874,1.6754973547542302,0.052248170149430895,0.029832727366700267,-2.7526238763708815,0.03424431011810747,2.766368666383955,0.7691656428752733,1.6754973547542302,0.052104326824870026,0.029969505109285054,-2.752394845125968,0.0342448039870148,2.7663679543071322,0.7691630533470046,7.957000044008884e-05,0.0015690289594829092,0.0005999754071651042,0.0009570752494943852,-0.00027763029541024635,0.00024028222962990992,-0.0007532112427244502,0.0,0.0,0.0,0.0,0.0,0.0,0.0,0.0,-0.0001438433245608689,0.00013677774258478645,0.00022903124491335802,4.938689073322178e-07,-7.120768228396912e-07,-2.5895282687038446e-06,-7.957000044008884e-05,-0.0015690289594829092,-0.0005999754071651042,-0.0009570752494943852,0.00027763029541024635,-0.00024028222962990992,0.0007532112427244502,0.3236324191093445,22.772058486938477,0.04995415359735489,-14.080232620239258,-0.1888938546180725,-2.1389803886413574,0.24844686686992645,0
73,0.36001133918762207,-0.3236324191093445,-22.772058486938477,-0.04995415359735489,14.080232620239258,0.1888938546180725,2.1389803886413574,-0.24844686686992645,0.0,0.0,0.0,0.0,0.0,0.0,0.0,-0.30036050055641556,0.06803042568245923,-0.11050867277333226,0.251643151236004,-0.05061103641387588,-0.04431291766699019,-0.25892545006019874,1.6754973547542302,0.052248170149430895,0.029832727366700267,-2.7526238763708815,0.03424431011810747,2.766368666383955,0.7691656428752733,1.6754973547542302,0.052104326824870026,0.029969505109285054,-2.752394845125968,0.0342448039870148,2.7663679543071322,0.7691630533470046,7.957000044008884e-05,0.0015690289594829092,0.0005999754071651042,0.0009570752494943852,-0.00027763029541024635,0.00024028222962990992,-0.0007532112427244502,0.0,0.0,0.0,0.0,0.0,0.0,0.0,0.0,-0.0001438433245608689,0.00013677774258478645,0.00022903124491335802,4.938689073322178e-07,-7.120768228396912e-07,-2.5895282687038446e-06,-7.957000044008884e-05,-0.0015690289594829092,-0.0005999754071651042,-0.0009570752494943852,0.00027763029541024635,-0.00024028222962990992,0.0007532112427244502,0.3236324191093445,22.772058486938477,0.04995415359735489,-14.080232620239258,-0.1888938546180725,-2.1389803886413574,0.24844686686992645,0
74,0.36499953269958496,-0.2720577120780945,-22.720483779907227,-0.02615044265985489,14.131807327270508,0.1888938546180725,2.1453890800476074,-0.24112264811992645,0.0,0.0,0.0,0.0,0.0,0.0,0.0,-0.29944748159378126,0.06589028585253016,-0.1075263533035688,0.2530963974109595,-0.05056951678583055,-0.04354538533178269,-0.2599390790477231,1.6754937354765438,0.05224455087174449,0.029829003973607278,-2.752627495648568,0.03424431019027987,2.7663679543071322,0.7691647898273307,1.6754973547542302,0.052104326824870026,0.029969505109285054,-2.752394845125968,0.0342448039870148,2.7663679543071322,0.7691630533470046,-0.00047023773117947247,-0.000397222772395458,0.00013301873048158849,-0.0004552098835889762,-0.0003461700247605107,-0.00023311384482807847,-0.0012261032402638013,0.0,0.0,0.0,0.0,0.0,0.0,0.0,3.619277686439659e-06,-0.00014022404687446394,0.00014050113567777578,0.00023265052259979768,4.93796734932217e-07,0.0,-1.7364803260866424e-06,0.00047023773117947247,0.000397222772395458,-0.00013301873048158849,0.0004552098835889762,0.0003461700247605107,0.00023311384482807847,0.0012261032402638013,0.2720577120780945,22.720483779907227,0.02615044265985489,-14.131807327270508,-0.1888938546180725,-2.1453890800476074,0.24112264811992645,0
75,0.3704354763031006,-0.2720577120780945,-22.720483779907227,-0.02615044265985489,14.131807327270508,0.1888938546180725,2.1453890800476074,-0.24112264811992645,0.0,0.0,0.0,0.0,0.0,0.0,0.0,-0.29944748159378126,0.06589028585253016,-0.1075263533035688,0.2530963974109595,-0.05056951678583055,-0.04354538533178269,-0.2599390790477231,1.6754937354765438,0.05224455087174449,0.029829003973607278,-2.752627495648568,0.03424431019027987,2.7663679543071322,0.7691647898273307,1.6754973547542302,0.052104326824870026,0.029969505109285054,-2.752394845125968,0.0342448039870148,2.7663679543071322,0.7691630533470046,-0.00047023773117947247,-0.000397222772395458,0.00013301873048158849,-0.0004552098835889762,-0.0003461700247605107,-0.00023311384482807847,-0.0012261032402638013,0.0,0.0,0.0,0.0,0.0,0.0,0.0,3.619277686439659e-06,-0.00014022404687446394,0.00014050113567777578,0.00023265052259979768,4.93796734932217e-07,0.0,-1.7364803260866424e-06,0.00047023773117947247,0.000397222772395458,-0.00013301873048158849,0.0004552098835889762,0.0003461700247605107,0.00023311384482807847,0.0012261032402638013,0.2720577120780945,22.720483779907227,0.02615044265985489,-14.131807327270508,-0.1888938546180725,-2.1453890800476074,0.24112264811992645,0
76,0.37505364418029785,-0.2998287081718445,-22.748254776000977,0.001620553433895111,14.155611038208008,0.1769919991493225,2.1453890800476074,-0.27591270208358765,0.0,0.0,0.0,0.0,0.0,0.0,0.0,-0.29327314122468945,0.06568774508102376,-0.10514763572138042,0.2552934159055409,-0.05065350640462951,-0.04347781009067402,-0.26036413524856483,1.675495684318375,0.05224649971357563,0.029829186996657157,-2.752629166084423,0.03424563261866569,2.7663679543071322,0.7691686951250906,1.6754973547542302,0.052104326824870026,0.029969505109285054,-2.752394845125968,0.0342448039870148,2.7663679543071322,0.7691630533470046,0.0006547685949239184,0.0005759462457585299,-0.0001696670619775192,-0.0005092591205817512,0.0001637191005223231,-0.00010629864004505903,0.0007147490940508257,0.0,0.0,0.0,0.0,0.0,0.0,0.0,1.670435855194441e-06,-0.00014217288870560507,0.00014031811262789698,0.00023432095845477008,-8.286316508926417e-07,0.0,-5.641778085929694e-06,-0.0006547685949239184,-0.0005759462457585299,0.0001696670619775192,0.0005092591205817512,-0.0001637191005223231,0.00010629864004505903,-0.0007147490940508257,0.2998287081718445,22.748254776000977,-0.001620553433895111,-14.155611038208008,-0.1769919991493225,-2.1453890800476074,0.27591270208358765,0
77,0.38001203536987305,-0.2998287081718445,-22.748254776000977,0.001620553433895111,14.155611038208008,0.1769919991493225,2.1453890800476074,-0.27591270208358765,0.0,0.0,0.0,0.0,0.0,0.0,0.0,-0.29327314122468945,0.06568774508102376,-0.10514763572138042,0.2552934159055409,-0.05065350640462951,-0.04347781009067402,-0.26036413524856483,1.675495684318375,0.05224649971357563,0.029829186996657157,-2.752629166084423,0.03424563261866569,2.7663679543071322,0.7691686951250906,1.6754973547542302,0.052104326824870026,0.029969505109285054,-2.752394845125968,0.0342448039870148,2.7663679543071322,0.7691630533470046,0.0006547685949239184,0.0005759462457585299,-0.0001696670619775192,-0.0005092591205817512,0.0001637191005223231,-0.00010629864004505903,0.0007147490940508257,0.0,0.0,0.0,0.0,0.0,0.0,0.0,1.670435855194441e-06,-0.00014217288870560507,0.00014031811262789698,0.00023432095845477008,-8.286316508926417e-07,0.0,-5.641778085929694e-06,-0.0006547685949239184,-0.0005759462457585299,0.0001696670619775192,0.0005092591205817512,-0.0001637191005223231,0.00010629864004505903,-0.0007147490940508257,0.2998287081718445,22.748254776000977,-0.001620553433895111,-14.155611038208008,-0.1769919991493225,-2.1453890800476074,0.27591270208358765,0
78,0.38501930236816406,-0.2998287081718445,-22.748254776000977,0.001620553433895111,14.155611038208008,0.1769919991493225,2.1453890800476074,-0.27591270208358765,0.0,0.0,0.0,0.0,0.0,0.0,0.0,-0.29327314122468945,0.06568774508102376,-0.10514763572138042,0.2552934159055409,-0.05065350640462951,-0.04347781009067402,-0.26036413524856483,1.675495684318375,0.05224649971357563,0.029829186996657157,-2.752629166084423,0.03424563261866569,2.7663679543071322,0.7691686951250906,1.6754973547542302,0.052104326824870026,0.029969505109285054,-2.752394845125968,0.0342448039870148,2.7663679543071322,0.7691630533470046,0.0006547685949239184,0.0005759462457585299,-0.0001696670619775192,-0.0005092591205817512,0.0001637191005223231,-0.00010629864004505903,0.0007147490940508257,0.0,0.0,0.0,0.0,0.0,0.0,0.0,1.670435855194441e-06,-0.00014217288870560507,0.00014031811262789698,0.00023432095845477008,-8.286316508926417e-07,0.0,-5.641778085929694e-06,-0.0006547685949239184,-0.0005759462457585299,0.0001696670619775192,0.0005092591205817512,-0.0001637191005223231,0.00010629864004505903,-0.0007147490940508257,0.2998287081718445,22.748254776000977,-0.001620553433895111,-14.155611038208008,-0.1769919991493225,-2.1453890800476074,0.27591270208358765,0
79,0.39002037048339844,-0.2998287081718445,-22.748254776000977,0.001620553433895111,14.155611038208008,0.1769919991493225,2.1453890800476074,-0.27591270208358765,0.0,0.0,0.0,0.0,0.0,0.0,0.0,-0.29327314122468945,0.06568774508102376,-0.10514763572138042,0.2552934159055409,-0.05065350640462951,-0.04347781009067402,-0.26036413524856483,1.675495684318375,0.05224649971357563,0.029829186996657157,-2.752629166084423,0.03424563261866569,2.7663679543071322,0.7691686951250906,1.6754973547542302,0.052104326824870026,0.029969505109285054,-2.752394845125968,0.0342448039870148,2.7663679543071322,0.7691630533470046,0.0006547685949239184,0.0005759462457585299,-0.0001696670619775192,-0.0005092591205817512,0.0001637191005223231,-0.00010629864004505903,0.0007147490940508257,0.0,0.0,0.0,0.0,0.0,0.0,0.0,1.670435855194441e-06,-0.00014217288870560507,0.00014031811262789698,0.00023432095845477008,-8.286316508926417e-07,0.0,-5.641778085929694e-06,-0.0006547685949239184,-0.0005759462457585299,0.0001696670619775192,0.0005092591205817512,-0.0001637191005223231,0.00010629864004505903,-0.0007147490940508257,0.2998287081718445,22.748254776000977,-0.001620553433895111,-14.155611038208008,-0.1769919991493225,-2.1453890800476074,0.27591270208358765,0
80,0.3950507640838623,-0.2720577120780945,-22.772058486938477,0.001620553433895111,14.080232620239258,0.1769919991493225,2.1453890800476074,-0.27591270208358765,0.0,0.0,0.0,0.0,0.0,0.0,0.0,-0.29307380162494195,0.06588379720208347,-0.10641975649481693,0.25511241167670684,-0.05047065084462412,-0.04347609293865112,-0.26022017548822546,1.6754937354765438,0.052248170149430895,0.029829423771586122,-2.7526238763708815,0.03424563261866569,2.7663679543071322,0.7691686951253148,1.6754973547542302,0.052104326824870026,0.029969505109285054,-2.752394845125968,0.0342448039870148,2.7663679543071322,0.7691630533470046,2.5781608104394174e-05,0.0010541003657754146,-0.00032784583471860695,0.0009865196500222129,0.00021105411803065235,-0.0001660002182537066,0.0009386596921413192,0.0,0.0,0.0,0.0,0.0,0.0,0.0,3.619277686439659e-06,-0.0001438433245608689,0.00014008133769893155,0.00022903124491335802,-8.286316508926417e-07,0.0,-5.641778310194745e-06,-2.5781608104394174e-05,-0.0010541003657754146,0.00032784583471860695,-0.0009865196500222129,-0.00021105411803065235,0.0001660002182537066,-0.0009386596921413192,0.2720577120780945,22.772058486938477,-0.001620553433895111,-14.080232620239258,-0.1769919991493225,-2.1453890800476074,0.27591270208358765,0
