rezayati/contactInterpretation/dataset/franka_main/labeled_data/link5/c2_1.csv
index,time,tau_J0,tau_J1,tau_J2,tau_J3,tau_J4,tau_J5,tau_J6,tau_J_d0,tau_J_d1,tau_J_d2,tau_J_d3,tau_J_d4,tau_J_d5,tau_J_d6,tau_ext0,tau_ext1,tau_ext2,tau_ext3,tau_ext4,tau_ext5,tau_ext6,q0,q1,q2,q3,q4,q5,q6,q_d0,q_d1,q_d2,q_d3,q_d4,q_d5,q_d6,dq0,dq1,dq2,dq3,dq4,dq5,dq6,dq_d0,dq_d1,dq_d2,dq_d3,dq_d4,dq_d5,dq_d6,e0,e1,e2,e3,e4,e5,e6,de0,de1,de2,de3,de4,de5,de6,etau_J0,etau_J1,etau_J2,etau_J3,etau_J4,etau_J5,etau_J6,label
1,0.0,-0.4029781222343445,-47.21847152709961,-1.0179717540740967,20.999177932739258,0.7730002999305725,2.3202548027038574,-0.30337852239608765,0.0,0.0,0.0,0.0,0.0,0.0,0.0,-0.4406742077459183,-0.45173481726552484,-0.19771126410953757,0.548593736838007,0.1943071943698597,0.11307852167347535,-0.2934723522247936,0.062352642904600665,0.6882562793654887,-0.07864735230751205,-1.6210571140322767,0.028139357894734207,2.287866278365522,0.8466329299004287,0.06226373270833701,0.6884179775783729,-0.07863937525950354,-1.6210372792796082,0.028167345702647853,2.2878312372101677,0.8466366937888992,-0.0006783101691358918,0.000421528349673987,-0.0011263242225480238,-0.0009134369499073455,-0.0001408541065651303,0.00019175607691153108,0.00023298604379422288,0.0,0.0,0.0,0.0,0.0,0.0,0.0,-8.89101962636557e-05,0.00016169821288414266,7.977048008506182e-06,1.983475266853496e-05,2.7987807913645857e-05,-3.50411553542429e-05,3.7638884704538356e-06,0.0006783101691358918,-0.000421528349673987,0.0011263242225480238,0.0009134369499073455,0.0001408541065651303,-0.00019175607691153108,-0.00023298604379422288,0.4029781222343445,47.21847152709961,1.0179717540740967,-20.999177932739258,-0.7730002999305725,-2.3202548027038574,0.30337852239608765,0
2,0.004995822906494141,-0.4783565402030945,-47.24624252319336,-1.0933501720428467,20.947603225708008,0.7610984444618225,2.3458895683288574,-0.29605430364608765,0.0,0.0,0.0,0.0,0.0,0.0,0.0,-0.4383701314848392,-0.461815166050793,-0.19559779537396696,0.5570883056216317,0.19384588954282767,0.11222116772889548,-0.294354115120015,0.06235580423578881,0.6882602562255303,-0.07864206259397039,-1.6210534947545903,0.028140680323044457,2.2878633908303185,0.8466319935694429,0.06226373270833701,0.6884179775783729,-0.07863937525950354,-1.6210372792796082,0.028167345702647853,2.2878312372101677,0.8466366937888992,0.0007802936813744068,6.398783178251428e-05,0.0009075034552602469,0.0005212740930944793,0.00045259993342049284,-0.0003037099940512904,0.00027991351073357003,0.0,0.0,0.0,0.0,0.0,0.0,0.0,-9.207152745180358e-05,0.00015772135284253253,2.6873344668443266e-06,1.62154749820953e-05,2.666537960339596e-05,-3.215362015085432e-05,4.700219456310606e-06,-0.0007802936813744068,-6.398783178251428e-05,-0.0009075034552602469,-0.0005212740930944793,-0.00045259993342049284,0.0003037099940512904,-0.00027991351073357003,0.4783565402030945,47.24624252319336,1.0933501720428467,-20.947603225708008,-0.7610984444618225,-2.3458895683288574,0.29605430364608765,0
3,0.00999307632446289,-0.4783565402030945,-47.24624252319336,-1.0933501720428467,20.947603225708008,0.7610984444618225,2.3458895683288574,-0.29605430364608765,0.0,0.0,0.0,0.0,0.0,0.0,0.0,-0.4383701314848392,-0.461815166050793,-0.19559779537396696,0.5570883056216317,0.19384588954282767,0.11222116772889548,-0.294354115120015,0.06235580423578881,0.6882602562255303,-0.07864206259397039,-1.6210534947545903,0.028140680323044457,2.2878633908303185,0.8466319935694429,0.06226373270833701,0.6884179775783729,-0.07863937525950354,-1.6210372792796082,0.028167345702647853,2.2878312372101677,0.8466366937888992,0.0007802936813744068,6.398783178251428e-05,0.0009075034552602469,0.0005212740930944793,0.00045259993342049284,-0.0003037099940512904,0.00027991351073357003,0.0,0.0,0.0,0.0,0.0,0.0,0.0,-9.207152745180358e-05,0.00015772135284253253,2.6873344668443266e-06,1.62154749820953e-05,2.666537960339596e-05,-3.215362015085432e-05,4.700219456310606e-06,-0.0007802936813744068,-6.398783178251428e-05,-0.0009075034552602469,-0.0005212740930944793,-0.00045259993342049284,0.0003037099940512904,-0.00027991351073357003,0.4783565402030945,47.24624252319336,1.0933501720428467,-20.947603225708008,-0.7610984444618225,-2.3458895683288574,0.29605430364608765,0
4,0.01499485969543457,-0.5021602511405945,-47.29384994506836,-1.0695464611053467,20.975374221801758,0.7730002999305725,2.3394808769226074,-0.33084434270858765,0.0,0.0,0.0,0.0,0.0,0.0,0.0,-0.4476957476904555,-0.4579429047531354,-0.20144877258008087,0.5513250207291157,0.19373884717477508,0.112778036369161,-0.2952884220596733,0.06235960304215314,0.6882633631409346,-0.07864381176682554,-1.6210554435964215,0.028139357894659038,2.287863788940067,0.8466358247279578,0.06226373270833701,0.6884179775783729,-0.07863937525950354,-1.6210372792796082,0.028167345702647853,2.2878312372101677,0.8466366937888992,0.0008851479236887409,0.00037956689714662215,-0.00036072573195014166,-0.00038472919136983686,0.00014302075366844208,-0.00018195634708482666,0.001398032234307274,0.0,0.0,0.0,0.0,0.0,0.0,0.0,-9.587033381613236e-05,0.00015461443743824965,4.436507322000405e-06,1.816431681334052e-05,2.7987807988814895e-05,-3.255172989913291e-05,8.690609413219974e-07,-0.0008851479236887409,-0.00037956689714662215,0.00036072573195014166,0.00038472919136983686,-0.00014302075366844208,0.00018195634708482666,-0.001398032234307274,0.5021602511405945,47.29384994506836,1.0695464611053467,-20.975374221801758,-0.7730002999305725,-2.3394808769226074,0.33084434270858765,0
5,0.019994020462036133,-0.5021602511405945,-47.29384994506836,-1.0695464611053467,20.975374221801758,0.7730002999305725,2.3394808769226074,-0.33084434270858765,0.0,0.0,0.0,0.0,0.0,0.0,0.0,-0.4476957476904555,-0.4579429047531354,-0.20144877258008087,0.5513250207291157,0.19373884717477508,0.112778036369161,-0.2952884220596733,0.06235960304215314,0.6882633631409346,-0.07864381176682554,-1.6210554435964215,0.028139357894659038,2.287863788940067,0.8466358247279578,0.06226373270833701,0.6884179775783729,-0.07863937525950354,-1.6210372792796082,0.028167345702647853,2.2878312372101677,0.8466366937888992,0.0008851479236887409,0.00037956689714662215,-0.00036072573195014166,-0.00038472919136983686,0.00014302075366844208,-0.00018195634708482666,0.001398032234307274,0.0,0.0,0.0,0.0,0.0,0.0,0.0,-9.587033381613236e-05,0.00015461443743824965,4.436507322000405e-06,1.816431681334052e-05,2.7987807988814895e-05,-3.255172989913291e-05,8.690609413219974e-07,-0.0008851479236887409,-0.00037956689714662215,0.00036072573195014166,0.00038472919136983686,-0.00014302075366844208,0.00018195634708482666,-0.001398032234307274,0.5021602511405945,47.29384994506836,1.0695464611053467,-20.975374221801758,-0.7730002999305725,-2.3394808769226074,0.33084434270858765,0
6,0.024993419647216797,-0.4505855441093445,-47.27004623413086,-1.0933501720428467,20.999177932739258,0.7730002999305725,2.3266634941101074,-0.30978721380233765,0.0,0.0,0.0,0.0,0.0,0.0,0.0,-0.43364731408594,-0.4525189856258941,-0.18973533145701843,0.5426592601087581,0.19427556866690132,0.11334307985039668,-0.295592803870223,0.06235598280328414,0.6882598119739377,-0.0786420713429704,-1.6210571140322767,0.028139358381825488,2.287865553061192,0.8466336420302006,0.06226373270833701,0.6884179775783729,-0.07863937525950354,-1.6210372792796082,0.028167345702647853,2.2878312372101677,0.8466366937888992,-0.0004259875410517072,-0.0002761630428990228,0.0008655066885366431,-0.0011938437926341452,8.163849557954488e-05,0.0002483314062474919,0.0006512135410652761,0.0,0.0,0.0,0.0,0.0,0.0,0.0,-9.22500949471286e-05,0.00015816560443515648,2.696083466854904e-06,1.983475266853496e-05,2.7987320822365352e-05,-3.431585102431356e-05,3.051758698524587e-06,0.0004259875410517072,0.0002761630428990228,-0.0008655066885366431,0.0011938437926341452,-8.163849557954488e-05,-0.0002483314062474919,-0.0006512135410652761,0.4505855441093445,47.27004623413086,1.0933501720428467,-20.999177932739258,-0.7730002999305725,-2.3266634941101074,0.30978721380233765,0
7,0.029995441436767578,-0.4505855441093445,-47.27004623413086,-1.0933501720428467,20.999177932739258,0.7730002999305725,2.3266634941101074,-0.30978721380233765,0.0,0.0,0.0,0.0,0.0,0.0,0.0,-0.43364731408594,-0.4525189856258941,-0.18973533145701843,0.5426592601087581,0.19427556866690132,0.11334307985039668,-0.295592803870223,0.06235598280328414,0.6882598119739377,-0.0786420713429704,-1.6210571140322767,0.028139358381825488,2.287865553061192,0.8466336420302006,0.06226373270833701,0.6884179775783729,-0.07863937525950354,-1.6210372792796082,0.028167345702647853,2.2878312372101677,0.8466366937888992,-0.0004259875410517072,-0.0002761630428990228,0.0008655066885366431,-0.0011938437926341452,8.163849557954488e-05,0.0002483314062474919,0.0006512135410652761,0.0,0.0,0.0,0.0,0.0,0.0,0.0,-9.22500949471286e-05,0.00015816560443515648,2.696083466854904e-06,1.983475266853496e-05,2.7987320822365352e-05,-3.431585102431356e-05,3.051758698524587e-06,0.0004259875410517072,0.0002761630428990228,-0.0008655066885366431,0.0011938437926341452,-8.163849557954488e-05,-0.0002483314062474919,-0.0006512135410652761,0.4505855441093445,47.27004623413086,1.0933501720428467,-20.999177932739258,-0.7730002999305725,-2.3266634941101074,0.30978721380233765,0
8,0.034995079040527344,-0.4505855441093445,-47.21847152709961,-1.0695464611053467,20.947603225708008,0.7784934639930725,2.3394808769226074,-0.32352012395858765,0.0,0.0,0.0,0.0,0.0,0.0,0.0,-0.43692071693685886,-0.4587812478287926,-0.19323092360739816,0.5436350899291994,0.19480263702516995,0.11454652336019361,-0.29502374592023595,0.06235595750014857,0.6882583854200158,-0.07864373302987504,-1.6210535212455435,0.02813874754309929,2.2878641419914176,0.846634103911213,0.06226373270833701,0.6884179775783729,-0.07863937525950354,-1.6210372792796082,0.028167345702647853,2.2878312372101677,0.8466366937888992,0.0002028419760249454,-0.001085373431033834,0.0005524048576085823,0.0005296339281468423,-0.0002457758367204154,2.0171729500517655e-05,0.0011302511898740738,0.0,0.0,0.0,0.0,0.0,0.0,0.0,-9.222479181156262e-05,0.00015959215835703588,4.357770371499203e-06,1.6241965935304137e-05,2.8598159548563068e-05,-3.2904781249953885e-05,2.5898776861987827e-06,-0.0002028419760249454,0.001085373431033834,-0.0005524048576085823,-0.0005296339281468423,0.0002457758367204154,-2.0171729500517655e-05,-0.0011302511898740738,0.4505855441093445,47.21847152709961,1.0695464611053467,-20.947603225708008,-0.7784934639930725,-2.3394808769226074,0.32352012395858765,0
9,0.03999519348144531,-0.4505855441093445,-47.21847152709961,-1.0695464611053467,20.947603225708008,0.7784934639930725,2.3394808769226074,-0.32352012395858765,0.0,0.0,0.0,0.0,0.0,0.0,0.0,-0.43692071693685886,-0.4587812478287926,-0.19323092360739816,0.5436350899291994,0.19480263702516995,0.11454652336019361,-0.29502374592023595,0.06235595750014857,0.6882583854200158,-0.07864373302987504,-1.6210535212455435,0.02813874754309929,2.2878641419914176,0.846634103911213,0.06226373270833701,0.6884179775783729,-0.07863937525950354,-1.6210372792796082,0.028167345702647853,2.2878312372101677,0.8466366937888992,0.0002028419760249454,-0.001085373431033834,0.0005524048576085823,0.0005296339281468423,-0.0002457758367204154,2.0171729500517655e-05,0.0011302511898740738,0.0,0.0,0.0,0.0,0.0,0.0,0.0,-9.222479181156262e-05,0.00015959215835703588,4.357770371499203e-06,1.6241965935304137e-05,2.8598159548563068e-05,-3.2904781249953885e-05,2.5898776861987827e-06,-0.0002028419760249454,0.001085373431033834,-0.0005524048576085823,-0.0005296339281468423,0.0002457758367204154,-2.0171729500517655e-05,-0.0011302511898740738,0.4505855441093445,47.21847152709961,1.0695464611053467,-20.947603225708008,-0.7784934639930725,-2.3394808769226074,0.32352012395858765,0
10,0.04503941535949707,-0.4505855441093445,-47.17086410522461,-1.0933501720428467,20.975374221801758,0.7784934639930725,2.3330721855163574,-0.31711143255233765,0.0,0.0,0.0,0.0,0.0,0.0,0.0,-0.4459962269714747,-0.4355655138375873,-0.19984937931609323,0.534035974009641,0.1946400859011347,0.11283740625504816,-0.29574331319454145,0.062355957500005735,0.6882548102362708,-0.07864206259397039,-1.6210554436329099,0.02813874754309654,2.2878648537453032,0.8466344543736135,0.06226373270833701,0.6884179775783729,-0.07863937525950354,-1.6210372792796082,0.028167345702647853,2.2878312372101677,0.8466366937888992,0.000493121107836573,-0.0005569788329818228,0.0008074123466011247,-0.00058804443864821,-9.496075837798359e-05,-0.00028397125499534303,0.0010126661109216947,0.0,0.0,0.0,0.0,0.0,0.0,0.0,-9.222479166872549e-05,0.0001631673421020885,2.6873344668443266e-06,1.8164353301708402e-05,2.859815955131434e-05,-3.3616535135561065e-05,2.2394152856541893e-06,-0.000493121107836573,0.0005569788329818228,-0.0008074123466011247,0.00058804443864821,9.496075837798359e-05,0.00028397125499534303,-0.0010126661109216947,0.4505855441093445,47.17086410522461,1.0933501720428467,-20.975374221801758,-0.7784934639930725,-2.3330721855163574,0.31711143255233765,0
11,0.0500035285949707,-0.4505855441093445,-47.17086410522461,-1.0933501720428467,20.975374221801758,0.7784934639930725,2.3330721855163574,-0.31711143255233765,0.0,0.0,0.0,0.0,0.0,0.0,0.0,-0.4459962269714747,-0.4355655138375873,-0.19984937931609323,0.534035974009641,0.1946400859011347,0.11283740625504816,-0.29574331319454145,0.062355957500005735,0.6882548102362708,-0.07864206259397039,-1.6210554436329099,0.02813874754309654,2.2878648537453032,0.8466344543736135,0.06226373270833701,0.6884179775783729,-0.07863937525950354,-1.6210372792796082,0.028167345702647853,2.2878312372101677,0.8466366937888992,0.000493121107836573,-0.0005569788329818228,0.0008074123466011247,-0.00058804443864821,-9.496075837798359e-05,-0.00028397125499534303,0.0010126661109216947,0.0,0.0,0.0,0.0,0.0,0.0,0.0,-9.222479166872549e-05,0.0001631673421020885,2.6873344668443266e-06,1.8164353301708402e-05,2.859815955131434e-05,-3.3616535135561065e-05,2.2394152856541893e-06,-0.000493121107836573,0.0005569788329818228,-0.0008074123466011247,0.00058804443864821,9.496075837798359e-05,0.00028397125499534303,-0.0010126661109216947,0.4505855441093445,47.17086410522461,1.0933501720428467,-20.975374221801758,-0.7784934639930725,-2.3330721855163574,0.31711143255233765,0
12,0.05500030517578125,-0.4029781222343445,-47.14706039428711,-1.0695464611053467,20.975374221801758,0.7849021553993225,2.3202548027038574,-0.33084434270858765,0.0,0.0,0.0,0.0,0.0,0.0,0.0,-0.4361957458817788,-0.4534855311200806,-0.19228235965607457,0.5483235025530137,0.1947992982916787,0.11246437394615137,-0.29651003664778103,0.06235193344378138,0.6882531400130877,-0.07864445041138018,-1.6210554435964217,0.028138035466273623,2.287866278329629,0.8466355107617884,0.06226373270833701,0.6884179775783729,-0.07863937525950354,-1.6210372792796082,0.028167345702647853,2.2878312372101677,0.8466366937888992,-0.0004800962046356871,-0.0011500023151691857,0.0005251541614279015,-0.0008871026654274005,-0.00035906369819616496,9.387079745086682e-06,0.0016459561747923979,0.0,0.0,0.0,0.0,0.0,0.0,0.0,-8.820073544436868e-05,0.0001648375652851808,5.0751518766434245e-06,1.8164316813562564e-05,2.931023637423036e-05,-3.5041119461176606e-05,1.183027110718271e-06,0.0004800962046356871,0.0011500023151691857,-0.0005251541614279015,0.0008871026654274005,0.00035906369819616496,-9.387079745086682e-06,-0.0016459561747923979,0.4029781222343445,47.14706039428711,1.0695464611053467,-20.975374221801758,-0.7849021553993225,-2.3202548027038574,0.33084434270858765,0
13,0.05994987487792969,-0.4029781222343445,-47.14706039428711,-1.0695464611053467,20.975374221801758,0.7849021553993225,2.3202548027038574,-0.33084434270858765,0.0,0.0,0.0,0.0,0.0,0.0,0.0,-0.4361957458817788,-0.4534855311200806,-0.19228235965607457,0.5483235025530137,0.1947992982916787,0.11246437394615137,-0.29651003664778103,0.06235193344378138,0.6882531400130877,-0.07864445041138018,-1.6210554435964217,0.028138035466273623,2.287866278329629,0.8466355107617884,0.06226373270833701,0.6884179775783729,-0.07863937525950354,-1.6210372792796082,0.028167345702647853,2.2878312372101677,0.8466366937888992,-0.0004800962046356871,-0.0011500023151691857,0.0005251541614279015,-0.0008871026654274005,-0.00035906369819616496,9.387079745086682e-06,0.0016459561747923979,0.0,0.0,0.0,0.0,0.0,0.0,0.0,-8.820073544436868e-05,0.0001648375652851808,5.0751518766434245e-06,1.8164316813562564e-05,2.931023637423036e-05,-3.5041119461176606e-05,1.183027110718271e-06,0.0004800962046356871,0.0011500023151691857,-0.0005251541614279015,0.0008871026654274005,0.00035906369819616496,-9.387079745086682e-06,-0.0016459561747923979,0.4029781222343445,47.14706039428711,1.0695464611053467,-20.975374221801758,-0.7849021553993225,-2.3202548027038574,0.33084434270858765,0
14,0.06499242782592773,-0.4783565402030945,-47.24624252319336,-1.0933501720428467,20.947603225708008,0.7730002999305725,2.3330721855163574,-0.32352012395858765,0.0,0.0,0.0,0.0,0.0,0.0,0.0,-0.43432034649135026,-0.45669490822236525,-0.19189989716971845,0.55383769921015,0.19552167714154878,0.11245442184563542,-0.29529406619862997,0.062357932614307734,0.6882579939177088,-0.07864206259802002,-1.6210534947545903,0.028139357894659038,2.2878616753154324,0.846634095187253,0.06226373270833701,0.6884179775783729,-0.07863937525950354,-1.6210372792796082,0.028167345702647853,2.2878312372101677,0.8466366937888992,0.0011769870234551731,0.001023057360708609,0.0009058116890965911,0.0003302790461498019,3.969798207991623e-05,4.896389126006711e-05,0.0009437803335020901,0.0,0.0,0.0,0.0,0.0,0.0,0.0,-9.41999059707252e-05,0.00015998366066405367,2.6873385164799535e-06,1.62154749820953e-05,2.7987807988814895e-05,-3.043810526470736e-05,2.598601646197629e-06,-0.0011769870234551731,-0.001023057360708609,-0.0009058116890965911,-0.0003302790461498019,-3.969798207991623e-05,-4.896389126006711e-05,-0.0009437803335020901,0.4783565402030945,47.24624252319336,1.0933501720428467,-20.947603225708008,-0.7730002999305725,-2.3330721855163574,0.32352012395858765,0
15,0.0699920654296875,-0.4783565402030945,-47.24624252319336,-1.0933501720428467,20.947603225708008,0.7730002999305725,2.3330721855163574,-0.32352012395858765,0.0,0.0,0.0,0.0,0.0,0.0,0.0,-0.43432034649135026,-0.45669490822236525,-0.19189989716971845,0.55383769921015,0.19552167714154878,0.11245442184563542,-0.29529406619862997,0.062357932614307734,0.6882579939177088,-0.07864206259802002,-1.6210534947545903,0.028139357894659038,2.2878616753154324,0.846634095187253,0.06226373270833701,0.6884179775783729,-0.07863937525950354,-1.6210372792796082,0.028167345702647853,2.2878312372101677,0.8466366937888992,0.0011769870234551731,0.001023057360708609,0.0009058116890965911,0.0003302790461498019,3.969798207991623e-05,4.896389126006711e-05,0.0009437803335020901,0.0,0.0,0.0,0.0,0.0,0.0,0.0,-9.41999059707252e-05,0.00015998366066405367,2.6873385164799535e-06,1.62154749820953e-05,2.7987807988814895e-05,-3.043810526470736e-05,2.598601646197629e-06,-0.0011769870234551731,-0.001023057360708609,-0.0009058116890965911,-0.0003302790461498019,-3.969798207991623e-05,-4.896389126006711e-05,-0.0009437803335020901,0.4783565402030945,47.24624252319336,1.0933501720428467,-20.947603225708008,-0.7730002999305725,-2.3330721855163574,0.32352012395858765,0
16,0.07501339912414551,-0.4267818331718445,-47.24624252319336,-1.0417754650115967,20.975374221801758,0.7730002999305725,2.3330721855163574,-0.30337852239608765,0.0,0.0,0.0,0.0,0.0,0.0,0.0,-0.4349715336867217,-0.4489408018810138,-0.19468041615906384,0.5479206710362469,0.19569336961594877,0.11234831479129063,-0.2954610373266241,0.06235407652928004,0.6882603332980366,-0.07864568187165681,-1.6210554435964215,0.028139358381825488,2.287864854211876,0.8466325767354985,0.06226373270833701,0.6884179775783729,-0.07863937525950354,-1.6210372792796082,0.028167345702647853,2.2878312372101677,0.8466366937888992,3.264879578973545e-05,0.00021699339867804366,-0.0007148431415366299,-0.0006468957079917007,0.00017270917547089948,-0.00010812244726438007,-0.0002539563699548622,0.0,0.0,0.0,0.0,0.0,0.0,0.0,-9.034382094302851e-05,0.00015764428033626654,6.306612153270108e-06,1.816431681334052e-05,2.7987320822365352e-05,-3.361700170811943e-05,4.117053400642945e-06,-3.264879578973545e-05,-0.00021699339867804366,0.0007148431415366299,0.0006468957079917007,-0.00017270917547089948,0.00010812244726438007,0.0002539563699548622,0.4267818331718445,47.24624252319336,1.0417754650115967,-20.975374221801758,-0.7730002999305725,-2.3330721855163574,0.30337852239608765,0
17,0.07999277114868164,-0.4267818331718445,-47.24624252319336,-1.0417754650115967,20.975374221801758,0.7730002999305725,2.3330721855163574,-0.30337852239608765,0.0,0.0,0.0,0.0,0.0,0.0,0.0,-0.4349715336867217,-0.4489408018810138,-0.19468041615906384,0.5479206710362469,0.19569336961594877,0.11234831479129063,-0.2954610373266241,0.06235407652928004,0.6882603332980366,-0.07864568187165681,-1.6210554435964215,0.028139358381825488,2.287864854211876,0.8466325767354985,0.06226373270833701,0.6884179775783729,-0.07863937525950354,-1.6210372792796082,0.028167345702647853,2.2878312372101677,0.8466366937888992,3.264879578973545e-05,0.00021699339867804366,-0.0007148431415366299,-0.0006468957079917007,0.00017270917547089948,-0.00010812244726438007,-0.0002539563699548622,0.0,0.0,0.0,0.0,0.0,0.0,0.0,-9.034382094302851e-05,0.00015764428033626654,6.306612153270108e-06,1.816431681334052e-05,2.7987320822365352e-05,-3.361700170811943e-05,4.117053400642945e-06,-3.264879578973545e-05,-0.00021699339867804366,0.0007148431415366299,0.0006468957079917007,-0.00017270917547089948,0.00010812244726438007,0.0002539563699548622,0.4267818331718445,47.24624252319336,1.0417754650115967,-20.975374221801758,-0.7730002999305725,-2.3330721855163574,0.30337852239608765,0
18,0.08499336242675781,-0.4505855441093445,-47.24624252319336,-1.0695464611053467,20.947603225708008,0.7784934639930725,2.3266634941101074,-0.28964561223983765,0.0,0.0,0.0,0.0,0.0,0.0,0.0,-0.4288299416960586,-0.4546083702205687,-0.19179759525127366,0.5470618932294004,0.19575240410605116,0.11285236652322925,-0.29725012293216285,0.062353855392620866,0.6882603339532272,-0.07864373302982565,-1.6210534947545903,0.02813874754309929,2.2878655663066434,0.8466314040733637,0.06226373270833701,0.6884179775783729,-0.07863937525950354,-1.6210372792796082,0.028167345702647853,2.2878312372101677,0.8466366937888992,0.0007685929368849391,-0.0007712514581617586,0.0003641836522175908,0.0002145472687662319,-4.92572819586286e-05,0.0002489156819038499,-9.226107176108704e-05,0.0,0.0,0.0,0.0,0.0,0.0,0.0,-9.012268428385678e-05,0.00015764362514569807,4.3577703221081565e-06,1.62154749820953e-05,2.8598159548563068e-05,-3.4329096475715914e-05,5.28971553548363e-06,-0.0007685929368849391,0.0007712514581617586,-0.0003641836522175908,-0.0002145472687662319,4.92572819586286e-05,-0.0002489156819038499,9.226107176108704e-05,0.4505855441093445,47.24624252319336,1.0695464611053467,-20.947603225708008,-0.7784934639930725,-2.3266634941101074,0.28964561223983765,0
19,0.0900259017944336,-0.4505855441093445,-47.24624252319336,-1.0695464611053467,20.947603225708008,0.7784934639930725,2.3266634941101074,-0.28964561223983765,0.0,0.0,0.0,0.0,0.0,0.0,0.0,-0.4288299416960586,-0.4546083702205687,-0.19179759525127366,0.5470618932294004,0.19575240410605116,0.11285236652322925,-0.29725012293216285,0.062353855392620866,0.6882603339532272,-0.07864373302982565,-1.6210534947545903,0.02813874754309929,2.2878655663066434,0.8466314040733637,0.06226373270833701,0.6884179775783729,-0.07863937525950354,-1.6210372792796082,0.028167345702647853,2.2878312372101677,0.8466366937888992,0.0007685929368849391,-0.0007712514581617586,0.0003641836522175908,0.0002145472687662319,-4.92572819586286e-05,0.0002489156819038499,-9.226107176108704e-05,0.0,0.0,0.0,0.0,0.0,0.0,0.0,-9.012268428385678e-05,0.00015764362514569807,4.3577703221081565e-06,1.62154749820953e-05,2.8598159548563068e-05,-3.4329096475715914e-05,5.28971553548363e-06,-0.0007685929368849391,0.0007712514581617586,-0.0003641836522175908,-0.0002145472687662319,4.92572819586286e-05,-0.0002489156819038499,9.226107176108704e-05,0.4505855441093445,47.24624252319336,1.0695464611053467,-20.947603225708008,-0.7784934639930725,-2.3266634941101074,0.28964561223983765,0
20,0.09500432014465332,-0.4267818331718445,-47.24624252319336,-1.0933501720428467,20.923799514770508,0.7784934639930725,2.3330721855163574,-0.28232139348983765,0.0,0.0,0.0,0.0,0.0,0.0,0.0,-0.44090609801202735,-0.4367521529908441,-0.20117453117218118,0.5330167249381725,0.19611895676156693,0.11214897615513922,-0.29666625945312125,0.06235428705228401,0.6882601002351372,-0.07864208883963701,-1.621051824318735,0.02813874754309654,2.287864501017111,0.8466305902732744,0.06226373270833701,0.6884179775783729,-0.07863937525950354,-1.6210372792796082,0.028167345702647853,2.2878312372101677,0.8466366937888992,-0.0001930787245241858,6.332416637513348e-05,0.0005896884504799732,0.0007685883399061843,-0.00016000777584796114,0.00013952723394464013,-0.00016316655552555472,0.0,0.0,0.0,0.0,0.0,0.0,0.0,-9.055434394700246e-05,0.00015787734323569058,2.71358013347045e-06,1.454503912690086e-05,2.859815955131434e-05,-3.3263806943129026e-05,6.10351562480016e-06,0.0001930787245241858,-6.332416637513348e-05,-0.0005896884504799732,-0.0007685883399061843,0.00016000777584796114,-0.00013952723394464013,0.00016316655552555472,0.4267818331718445,47.24624252319336,1.0933501720428467,-20.923799514770508,-0.7784934639930725,-2.3330721855163574,0.28232139348983765,0
21,0.09995555877685547,-0.4267818331718445,-47.24624252319336,-1.0933501720428467,20.923799514770508,0.7784934639930725,2.3330721855163574,-0.28232139348983765,0.0,0.0,0.0,0.0,0.0,0.0,0.0,-0.44090609801202735,-0.4367521529908441,-0.20117453117218118,0.5330167249381725,0.19611895676156693,0.11214897615513922,-0.29666625945312125,0.06235428705228401,0.6882601002351372,-0.07864208883963701,-1.621051824318735,0.02813874754309654,2.287864501017111,0.8466305902732744,0.06226373270833701,0.6884179775783729,-0.07863937525950354,-1.6210372792796082,0.028167345702647853,2.2878312372101677,0.8466366937888992,-0.0001930787245241858,6.332416637513348e-05,0.0005896884504799732,0.0007685883399061843,-0.00016000777584796114,0.00013952723394464013,-0.00016316655552555472,0.0,0.0,0.0,0.0,0.0,0.0,0.0,-9.055434394700246e-05,0.00015787734323569058,2.71358013347045e-06,1.454503912690086e-05,2.859815955131434e-05,-3.3263806943129026e-05,6.10351562480016e-06,0.0001930787245241858,-6.332416637513348e-05,-0.0005896884504799732,-0.0007685883399061843,0.00016000777584796114,-0.00013952723394464013,0.00016316655552555472,0.4267818331718445,47.24624252319336,1.0933501720428467,-20.923799514770508,-0.7784934639930725,-2.3330721855163574,0.28232139348983765,0
22,0.10625195503234863,-0.4505855441093445,-47.21847152709961,-1.1171538829803467,20.947603225708008,0.7784934639930725,2.3394808769226074,-0.25485557317733765,0.0,0.0,0.0,0.0,0.0,0.0,0.0,-0.4370723503554089,-0.44343117798347415,-0.19925249759778957,0.536234852922279,0.19623794308009307,0.11288963117869391,-0.29631614152191427,0.062355904911306416,0.6882583506212361,-0.07864039226627013,-1.6210534947545903,0.028138747597226146,2.287864142151004,0.8466275385154618,0.06226373270833701,0.6884179775783729,-0.07863937525950354,-1.6210372792796082,0.028167345702647853,2.2878312372101677,0.8466366937888992,0.0002877958439742328,-0.00029229928549449885,0.0010106800692429915,0.0003045699200530566,-0.0003007514654536508,-0.00035886910660200364,-0.0016161658254190477,0.0,0.0,0.0,0.0,0.0,0.0,0.0,-9.217220296940665e-05,0.00015962695713678254,1.0170067665932203e-06,1.62154749820953e-05,2.8598105421707293e-05,-3.290494083652007e-05,9.155273437366773e-06,-0.0002877958439742328,0.00029229928549449885,-0.0010106800692429915,-0.0003045699200530566,0.0003007514654536508,0.00035886910660200364,0.0016161658254190477,0.4505855441093445,47.21847152709961,1.1171538829803467,-20.947603225708008,-0.7784934639930725,-2.3394808769226074,0.25485557317733765,0
23,0.10999631881713867,-0.4505855441093445,-47.21847152709961,-1.1171538829803467,20.947603225708008,0.7784934639930725,2.3394808769226074,-0.25485557317733765,0.0,0.0,0.0,0.0,0.0,0.0,0.0,-0.4370723503554089,-0.44343117798347415,-0.19925249759778957,0.536234852922279,0.19623794308009307,0.11288963117869391,-0.29631614152191427,0.062355904911306416,0.6882583506212361,-0.07864039226627013,-1.6210534947545903,0.028138747597226146,2.287864142151004,0.8466275385154618,0.06226373270833701,0.6884179775783729,-0.07863937525950354,-1.6210372792796082,0.028167345702647853,2.2878312372101677,0.8466366937888992,0.0002877958439742328,-0.00029229928549449885,0.0010106800692429915,0.0003045699200530566,-0.0003007514654536508,-0.00035886910660200364,-0.0016161658254190477,0.0,0.0,0.0,0.0,0.0,0.0,0.0,-9.217220296940665e-05,0.00015962695713678254,1.0170067665932203e-06,1.62154749820953e-05,2.8598105421707293e-05,-3.290494083652007e-05,9.155273437366773e-06,-0.0002877958439742328,0.00029229928549449885,-0.0010106800692429915,-0.0003045699200530566,0.0003007514654536508,0.00035886910660200364,0.0016161658254190477,0.4505855441093445,47.21847152709961,1.1171538829803467,-20.947603225708008,-0.7784934639930725,-2.3394808769226074,0.25485557317733765,0
24,0.11499810218811035,-0.4267818331718445,-47.24624252319336,-1.0933501720428467,20.947603225708008,0.7730002999305725,2.3266634941101074,-0.26858848333358765,0.0,0.0,0.0,0.0,0.0,0.0,0.0,-0.4308928488842666,-0.44710382531641074,-0.19646155106219293,0.5428024197482297,0.19587470065357077,0.11237836282847843,-0.29522503268732303,0.062354287063853604,0.6882593972973706,-0.07864206262997328,-1.6210534947545903,0.028139371048153485,2.2878655663066434,0.8466290600337173,0.06226373270833701,0.6884179775783729,-0.07863937525950354,-1.6210372792796082,0.028167345702647853,2.2878312372101677,0.8466366937888992,-0.0004030942453743762,0.0010541051490223737,0.00028756803445299025,0.0003856769411986579,-5.692457458794295e-05,-0.00017455580215429648,-0.0007736578053145827,0.0,0.0,0.0,0.0,0.0,0.0,0.0,-9.055435551659496e-05,0.00015858028100224075,2.6873704697394363e-06,1.62154749820953e-05,2.7974654494368478e-05,-3.4329096475715914e-05,7.633755181868374e-06,0.0004030942453743762,-0.0010541051490223737,-0.00028756803445299025,-0.0003856769411986579,5.692457458794295e-05,0.00017455580215429648,0.0007736578053145827,0.4267818331718445,47.24624252319336,1.0933501720428467,-20.947603225708008,-0.7730002999305725,-2.3266634941101074,0.26858848333358765,0
25,0.11999726295471191,-0.4267818331718445,-47.24624252319336,-1.0933501720428467,20.947603225708008,0.7730002999305725,2.3266634941101074,-0.26858848333358765,0.0,0.0,0.0,0.0,0.0,0.0,0.0,-0.4308928488842666,-0.44710382531641074,-0.19646155106219293,0.5428024197482297,0.19587470065357077,0.11237836282847843,-0.29522503268732303,0.062354287063853604,0.6882593972973706,-0.07864206262997328,-1.6210534947545903,0.028139371048153485,2.2878655663066434,0.8466290600337173,0.06226373270833701,0.6884179775783729,-0.07863937525950354,-1.6210372792796082,0.028167345702647853,2.2878312372101677,0.8466366937888992,-0.0004030942453743762,0.0010541051490223737,0.00028756803445299025,0.0003856769411986579,-5.692457458794295e-05,-0.00017455580215429648,-0.0007736578053145827,0.0,0.0,0.0,0.0,0.0,0.0,0.0,-9.055435551659496e-05,0.00015858028100224075,2.6873704697394363e-06,1.62154749820953e-05,2.7974654494368478e-05,-3.4329096475715914e-05,7.633755181868374e-06,0.0004030942453743762,-0.0010541051490223737,-0.00028756803445299025,-0.0003856769411986579,5.692457458794295e-05,0.00017455580215429648,0.0007736578053145827,0.4267818331718445,47.24624252319336,1.0933501720428467,-20.947603225708008,-0.7730002999305725,-2.3266634941101074,0.26858848333358765,0
26,0.11999726295471191,-0.4267818331718445,-47.24624252319336,-1.0933501720428467,20.947603225708008,0.7730002999305725,2.3266634941101074,-0.26858848333358765,0.0,0.0,0.0,0.0,0.0,0.0,0.0,-0.4308928488842666,-0.44710382531641074,-0.19646155106219293,0.5428024197482297,0.19587470065357077,0.11237836282847843,-0.29522503268732303,0.062354287063853604,0.6882593972973706,-0.07864206262997328,-1.6210534947545903,0.028139371048153485,2.2878655663066434,0.8466290600337173,0.06226373270833701,0.6884179775783729,-0.07863937525950354,-1.6210372792796082,0.028167345702647853,2.2878312372101677,0.8466366937888992,-0.0004030942453743762,0.0010541051490223737,0.00028756803445299025,0.0003856769411986579,-5.692457458794295e-05,-0.00017455580215429648,-0.0007736578053145827,0.0,0.0,0.0,0.0,0.0,0.0,0.0,-9.055435551659496e-05,0.00015858028100224075,2.6873704697394363e-06,1.62154749820953e-05,2.7974654494368478e-05,-3.4329096475715914e-05,7.633755181868374e-06,0.0004030942453743762,-0.0010541051490223737,-0.00028756803445299025,-0.0003856769411986579,5.692457458794295e-05,0.00017455580215429648,0.0007736578053145827,0.4267818331718445,47.24624252319336,1.0933501720428467,-20.947603225708008,-0.7730002999305725,-2.3266634941101074,0.26858848333358765,0
27,0.12999367713928223,-0.4783565402030945,-47.21847152709961,-1.0695464611053467,20.947603225708008,0.7610984444618225,2.3266634941101074,-0.25485557317733765,0.0,0.0,0.0,0.0,0.0,0.0,0.0,-0.43823757596068846,-0.43801483568480537,-0.20225078655098072,0.5406318580790769,0.19560450982437852,0.11044452509410704,-0.2939366722162487,0.06235793261816433,0.6882580609038429,-0.07864373302982586,-1.6210534947545903,0.02814068032311871,2.2878655663066434,0.8466275341547864,0.06226373270833701,0.6884179775783729,-0.07863937525950354,-1.6210372792796082,0.028167345702647853,2.2878312372101677,0.8466366937888992,0.0005857355027261383,0.0003802167033043947,-1.0555878701799313e-05,-0.00042977384854014927,0.0003536412131996669,0.00011533291834136152,-0.0014781454870115105,0.0,0.0,0.0,0.0,0.0,0.0,0.0,-9.41999098273208e-05,0.0001599166745299696,4.357770322316323e-06,1.62154749820953e-05,2.6665379529142857e-05,-3.4329096475715914e-05,9.15963411274312e-06,-0.0005857355027261383,-0.0003802167033043947,1.0555878701799313e-05,0.00042977384854014927,-0.0003536412131996669,-0.00011533291834136152,0.0014781454870115105,0.4783565402030945,47.21847152709961,1.0695464611053467,-20.947603225708008,-0.7610984444618225,-2.3266634941101074,0.25485557317733765,0
28,0.1349949836730957,-0.4783565402030945,-47.21847152709961,-1.0695464611053467,20.947603225708008,0.7610984444618225,2.3266634941101074,-0.25485557317733765,0.0,0.0,0.0,0.0,0.0,0.0,0.0,-0.43823757596068846,-0.43801483568480537,-0.20225078655098072,0.5406318580790769,0.19560450982437852,0.11044452509410704,-0.2939366722162487,0.06235793261816433,0.6882580609038429,-0.07864373302982586,-1.6210534947545903,0.02814068032311871,2.2878655663066434,0.8466275341547864,0.06226373270833701,0.6884179775783729,-0.07863937525950354,-1.6210372792796082,0.028167345702647853,2.2878312372101677,0.8466366937888992,0.0005857355027261383,0.0003802167033043947,-1.0555878701799313e-05,-0.00042977384854014927,0.0003536412131996669,0.00011533291834136152,-0.0014781454870115105,0.0,0.0,0.0,0.0,0.0,0.0,0.0,-9.41999098273208e-05,0.0001599166745299696,4.357770322316323e-06,1.62154749820953e-05,2.6665379529142857e-05,-3.4329096475715914e-05,9.15963411274312e-06,-0.0005857355027261383,-0.0003802167033043947,1.0555878701799313e-05,0.00042977384854014927,-0.0003536412131996669,-0.00011533291834136152,0.0014781454870115105,0.4783565402030945,47.21847152709961,1.0695464611053467,-20.947603225708008,-0.7610984444618225,-2.3266634941101074,0.25485557317733765,0
29,0.13999629020690918,-0.4783565402030945,-47.21847152709961,-1.0695464611053467,20.947603225708008,0.7610984444618225,2.3266634941101074,-0.25485557317733765,0.0,0.0,0.0,0.0,0.0,0.0,0.0,-0.43823757596068846,-0.43801483568480537,-0.20225078655098072,0.5406318580790769,0.19560450982437852,0.11044452509410704,-0.2939366722162487,0.06235793261816433,0.6882580609038429,-0.07864373302982586,-1.6210534947545903,0.02814068032311871,2.2878655663066434,0.8466275341547864,0.06226373270833701,0.6884179775783729,-0.07863937525950354,-1.6210372792796082,0.028167345702647853,2.2878312372101677,0.8466366937888992,0.0005857355027261383,0.0003802167033043947,-1.0555878701799313e-05,-0.00042977384854014927,0.0003536412131996669,0.00011533291834136152,-0.0014781454870115105,0.0,0.0,0.0,0.0,0.0,0.0,0.0,-9.41999098273208e-05,0.0001599166745299696,4.357770322316323e-06,1.62154749820953e-05,2.6665379529142857e-05,-3.4329096475715914e-05,9.15963411274312e-06,-0.0005857355027261383,-0.0003802167033043947,1.0555878701799313e-05,0.00042977384854014927,-0.0003536412131996669,-0.00011533291834136152,0.0014781454870115105,0.4783565402030945,47.21847152709961,1.0695464611053467,-20.947603225708008,-0.7610984444618225,-2.3266634941101074,0.25485557317733765,0
30,0.14500713348388672,-0.4783565402030945,-47.21847152709961,-1.0695464611053467,20.947603225708008,0.7610984444618225,2.3266634941101074,-0.25485557317733765,0.0,0.0,0.0,0.0,0.0,0.0,0.0,-0.43823757596068846,-0.43801483568480537,-0.20225078655098072,0.5406318580790769,0.19560450982437852,0.11044452509410704,-0.2939366722162487,0.06235793261816433,0.6882580609038429,-0.07864373302982586,-1.6210534947545903,0.02814068032311871,2.2878655663066434,0.8466275341547864,0.06226373270833701,0.6884179775783729,-0.07863937525950354,-1.6210372792796082,0.028167345702647853,2.2878312372101677,0.8466366937888992,0.0005857355027261383,0.0003802167033043947,-1.0555878701799313e-05,-0.00042977384854014927,0.0003536412131996669,0.00011533291834136152,-0.0014781454870115105,0.0,0.0,0.0,0.0,0.0,0.0,0.0,-9.41999098273208e-05,0.0001599166745299696,4.357770322316323e-06,1.62154749820953e-05,2.6665379529142857e-05,-3.4329096475715914e-05,9.15963411274312e-06,-0.0005857355027261383,-0.0003802167033043947,1.0555878701799313e-05,0.00042977384854014927,-0.0003536412131996669,-0.00011533291834136152,0.0014781454870115105,0.4783565402030945,47.21847152709961,1.0695464611053467,-20.947603225708008,-0.7610984444618225,-2.3266634941101074,0.25485557317733765,0
31,0.15000081062316895,-0.4783565402030945,-47.24624252319336,-1.0417754650115967,20.947603225708008,0.7730002999305725,2.3330721855163574,-0.28232139348983765,0.0,0.0,0.0,0.0,0.0,0.0,0.0,-0.43729414565792274,-0.4528011468529334,-0.19993343404953376,0.5489064301685087,0.19556589067752053,0.11191888019795053,-0.29338228526377036,0.06235793261831266,0.6882603339514007,-0.07864576060865668,-1.6210534947545903,0.028139357894659038,2.2878648542298206,0.84663023706054,0.06226373270833701,0.6884179775783729,-0.07863937525950354,-1.6210372792796082,0.028167345702647853,2.2878312372101677,0.8466366937888992,0.0007563148863190748,0.00017941645585844008,-0.0006835884573093678,-0.0002180694944588525,-0.00010529030564012751,0.00010944304994782222,-0.0006024988017784642,0.0,0.0,0.0,0.0,0.0,0.0,0.0,-9.419990997565353e-05,0.00015764362697212597,6.385349153134601e-06,1.62154749820953e-05,2.7987807988814895e-05,-3.361701965287622e-05,6.456728359194308e-06,-0.0007563148863190748,-0.00017941645585844008,0.0006835884573093678,0.0002180694944588525,0.00010529030564012751,-0.00010944304994782222,0.0006024988017784642,0.4783565402030945,47.24624252319336,1.0417754650115967,-20.947603225708008,-0.7730002999305725,-2.3330721855163574,0.28232139348983765,0
32,0.15500259399414062,-0.4783565402030945,-47.24624252319336,-1.0417754650115967,20.947603225708008,0.7730002999305725,2.3330721855163574,-0.28232139348983765,0.0,0.0,0.0,0.0,0.0,0.0,0.0,-0.43729414565792274,-0.4528011468529334,-0.19993343404953376,0.5489064301685087,0.19556589067752053,0.11191888019795053,-0.29338228526377036,0.06235793261831266,0.6882603339514007,-0.07864576060865668,-1.6210534947545903,0.028139357894659038,2.2878648542298206,0.84663023706054,0.06226373270833701,0.6884179775783729,-0.07863937525950354,-1.6210372792796082,0.028167345702647853,2.2878312372101677,0.8466366937888992,0.0007563148863190748,0.00017941645585844008,-0.0006835884573093678,-0.0002180694944588525,-0.00010529030564012751,0.00010944304994782222,-0.0006024988017784642,0.0,0.0,0.0,0.0,0.0,0.0,0.0,-9.419990997565353e-05,0.00015764362697212597,6.385349153134601e-06,1.62154749820953e-05,2.7987807988814895e-05,-3.361701965287622e-05,6.456728359194308e-06,-0.0007563148863190748,-0.00017941645585844008,0.0006835884573093678,0.0002180694944588525,0.00010529030564012751,-0.00010944304994782222,0.0006024988017784642,0.4783565402030945,47.24624252319336,1.0417754650115967,-20.947603225708008,-0.7730002999305725,-2.3330721855163574,0.28232139348983765,0
33,0.16054844856262207,-0.4267818331718445,-47.24624252319336,-1.0933501720428467,20.947603225708008,0.7665916085243225,2.3394808769226074,-0.28964561223983765,0.0,0.0,0.0,0.0,0.0,0.0,0.0,-0.44161382909623387,-0.4435835271904842,-0.2019740528581064,0.5425744567471046,0.19498073794178852,0.11183323232234536,-0.2936864982060428,0.06235431334062626,0.6882582248908544,-0.07864206291843544,-1.6210534947545903,0.028140069971481954,2.287864024415428,0.8466313517455549,0.06226373270833701,0.6884179775783729,-0.07863937525950354,-1.6210372792796082,0.028167345702647853,2.2878312372101677,0.8466366937888992,-0.00016394157919836483,0.00035512539608674345,0.00014450546018897906,-1.6294694785909246e-05,0.00015035909989089254,-0.00031531782673699073,9.813113496076819e-05,0.0,0.0,0.0,0.0,0.0,0.0,0.0,-9.058063228924856e-05,0.00015975268751844407,2.687658931896375e-06,1.62154749820953e-05,2.7275731165898875e-05,-3.27872052601208e-05,5.34204334423638e-06,0.00016394157919836483,-0.00035512539608674345,-0.00014450546018897906,1.6294694785909246e-05,-0.00015035909989089254,0.00031531782673699073,-9.813113496076819e-05,0.4267818331718445,47.24624252319336,1.0933501720428467,-20.947603225708008,-0.7665916085243225,-2.3394808769226074,0.28964561223983765,0
34,0.16556811332702637,-0.4505855441093445,-47.24624252319336,-1.0933501720428467,20.899995803833008,0.7665916085243225,2.3394808769226074,-0.27591270208358765,0.0,0.0,0.0,0.0,0.0,0.0,0.0,-0.44154274635253027,-0.44712213278736346,-0.20420802363305168,0.5423987134107837,0.1943431994474595,0.11200733942134039,-0.2930708302395282,0.062355983740437174,0.6882602995951441,-0.07864206259397222,-1.6210501538828797,0.02814007002561156,2.2878641421523334,0.846629878196156,0.06226373270833701,0.6884179775783729,-0.07863937525950354,-1.6210372792796082,0.028167345702647853,2.2878312372101677,0.8466366937888992,0.0003334516416677981,5.87693467241679e-05,0.0007645803590491771,0.0012704016288543265,0.0003090192572403586,-9.216710812730777e-05,-0.0010695272148370913,0.0,0.0,0.0,0.0,0.0,0.0,0.0,-9.225103210016433e-05,0.00015767798322874338,2.6873344686761946e-06,1.2874603271484375e-05,2.727567703629183e-05,-3.2904942165679074e-05,6.81559274318122e-06,-0.0003334516416677981,-5.87693467241679e-05,-0.0007645803590491771,-0.0012704016288543265,-0.0003090192572403586,9.216710812730777e-05,0.0010695272148370913,0.4505855441093445,47.24624252319336,1.0933501720428467,-20.899995803833008,-0.7665916085243225,-2.3394808769226074,0.27591270208358765,0
35,0.17000150680541992,-0.4505855441093445,-47.24624252319336,-1.0933501720428467,20.899995803833008,0.7665916085243225,2.3394808769226074,-0.27591270208358765,0.0,0.0,0.0,0.0,0.0,0.0,0.0,-0.44154274635253027,-0.44712213278736346,-0.20420802363305168,0.5423987134107837,0.1943431994474595,0.11200733942134039,-0.2930708302395282,0.062355983740437174,0.6882602995951441,-0.07864206259397222,-1.6210501538828797,0.02814007002561156,2.2878641421523334,0.846629878196156,0.06226373270833701,0.6884179775783729,-0.07863937525950354,-1.6210372792796082,0.028167345702647853,2.2878312372101677,0.8466366937888992,0.0003334516416677981,5.87693467241679e-05,0.0007645803590491771,0.0012704016288543265,0.0003090192572403586,-9.216710812730777e-05,-0.0010695272148370913,0.0,0.0,0.0,0.0,0.0,0.0,0.0,-9.225103210016433e-05,0.00015767798322874338,2.6873344686761946e-06,1.2874603271484375e-05,2.727567703629183e-05,-3.2904942165679074e-05,6.81559274318122e-06,-0.0003334516416677981,-5.87693467241679e-05,-0.0007645803590491771,-0.0012704016288543265,-0.0003090192572403586,9.216710812730777e-05,0.0010695272148370913,0.4505855441093445,47.24624252319336,1.0933501720428467,-20.899995803833008,-0.7665916085243225,-2.3394808769226074,0.27591270208358765,0
36,0.17499566078186035,-0.4505855441093445,-47.24624252319336,-1.0933501720428467,20.899995803833008,0.7665916085243225,2.3394808769226074,-0.27591270208358765,0.0,0.0,0.0,0.0,0.0,0.0,0.0,-0.44154274635253027,-0.44712213278736346,-0.20420802363305168,0.5423987134107837,0.1943431994474595,0.11200733942134039,-0.2930708302395282,0.062355983740437174,0.6882602995951441,-0.07864206259397222,-1.6210501538828797,0.02814007002561156,2.2878641421523334,0.846629878196156,0.06226373270833701,0.6884179775783729,-0.07863937525950354,-1.6210372792796082,0.028167345702647853,2.2878312372101677,0.8466366937888992,0.0003334516416677981,5.87693467241679e-05,0.0007645803590491771,0.0012704016288543265,0.0003090192572403586,-9.216710812730777e-05,-0.0010695272148370913,0.0,0.0,0.0,0.0,0.0,0.0,0.0,-9.225103210016433e-05,0.00015767798322874338,2.6873344686761946e-06,1.2874603271484375e-05,2.727567703629183e-05,-3.2904942165679074e-05,6.81559274318122e-06,-0.0003334516416677981,-5.87693467241679e-05,-0.0007645803590491771,-0.0012704016288543265,-0.0003090192572403586,9.216710812730777e-05,0.0010695272148370913,0.4505855441093445,47.24624252319336,1.0933501720428467,-20.899995803833008,-0.7665916085243225,-2.3394808769226074,0.27591270208358765,0
37,0.17999529838562012,-0.4505855441093445,-47.21847152709961,-1.0417754650115967,20.923799514770508,0.7730002999305725,2.3266634941101074,-0.27591270208358765,0.0,0.0,0.0,0.0,0.0,0.0,0.0,-0.4451742715368492,-0.4354720149417275,-0.2060322967138671,0.5332486308460002,0.19443155524224284,0.11204452097843297,-0.29354902870311167,0.06235598374043697,0.6882580724646609,-0.07864568187165678,-1.621051824318735,0.028139357894659343,2.287865561945993,0.8466298781964514,0.06226373270833701,0.6884179775783729,-0.07863937525950354,-1.6210372792796082,0.028167345702647853,2.2878312372101677,0.8466366937888992,0.0006897071654666382,5.8935868718673776e-05,-0.0007574430745703695,0.0005229174856306462,0.00011150941471087056,0.00017286663556345542,-0.0009349140012737591,0.0,0.0,0.0,0.0,0.0,0.0,0.0,-9.22510320999631e-05,0.000159905113712,6.3066121532423525e-06,1.454503912690086e-05,2.7987807988509583e-05,-3.432473582520856e-05,6.815592447750873e-06,-0.0006897071654666382,-5.8935868718673776e-05,0.0007574430745703695,-0.0005229174856306462,-0.00011150941471087056,-0.00017286663556345542,0.0009349140012737591,0.4505855441093445,47.21847152709961,1.0417754650115967,-20.923799514770508,-0.7730002999305725,-2.3266634941101074,0.27591270208358765,0
38,0.18499541282653809,-0.4505855441093445,-47.21847152709961,-1.0417754650115967,20.923799514770508,0.7730002999305725,2.3266634941101074,-0.27591270208358765,0.0,0.0,0.0,0.0,0.0,0.0,0.0,-0.4451742715368492,-0.4354720149417275,-0.2060322967138671,0.5332486308460002,0.19443155524224284,0.11204452097843297,-0.29354902870311167,0.06235598374043697,0.6882580724646609,-0.07864568187165678,-1.621051824318735,0.028139357894659343,2.287865561945993,0.8466298781964514,0.06226373270833701,0.6884179775783729,-0.07863937525950354,-1.6210372792796082,0.028167345702647853,2.2878312372101677,0.8466366937888992,0.0006897071654666382,5.8935868718673776e-05,-0.0007574430745703695,0.0005229174856306462,0.00011150941471087056,0.00017286663556345542,-0.0009349140012737591,0.0,0.0,0.0,0.0,0.0,0.0,0.0,-9.22510320999631e-05,0.000159905113712,6.3066121532423525e-06,1.454503912690086e-05,2.7987807988509583e-05,-3.432473582520856e-05,6.815592447750873e-06,-0.0006897071654666382,-5.8935868718673776e-05,0.0007574430745703695,-0.0005229174856306462,-0.00011150941471087056,-0.00017286663556345542,0.0009349140012737591,0.4505855441093445,47.21847152709961,1.0417754650115967,-20.923799514770508,-0.7730002999305725,-2.3266634941101074,0.27591270208358765,0
39,0.19090628623962402,-0.4505855441093445,-47.19466781616211,-1.0695464611053467,20.947603225708008,0.7730002999305725,2.3138461112976074,-0.25485557317733765,0.0,0.0,0.0,0.0,0.0,0.0,0.0,-0.42944655692152145,-0.44803747017996887,-0.19669573504224708,0.5384480083290342,0.19501226282067158,0.11245931594546667,-0.29491468221625805,0.06235524771491361,0.6882543749617474,-0.07864396924082531,-1.6210534947545903,0.028139358381825488,2.2878669904602815,0.8466275249489928,0.06226373270833701,0.6884179775783729,-0.07863937525950354,-1.6210372792796082,0.028167345702647853,2.2878312372101677,0.8466366937888992,0.0009417438446596166,-0.0003977979915273396,0.00015256887470171403,-1.9529697430160338e-05,-0.00010506927067574392,0.00032719289802434404,-0.002033882272435343,0.0,0.0,0.0,0.0,0.0,0.0,0.0,-9.151500657660072e-05,0.00016360261662551334,4.5939813217710235e-06,1.62154749820953e-05,2.7987320822365352e-05,-3.575325011384578e-05,9.168839906315007e-06,-0.0009417438446596166,0.0003977979915273396,-0.00015256887470171403,1.9529697430160338e-05,0.00010506927067574392,-0.00032719289802434404,0.002033882272435343,0.4505855441093445,47.19466781616211,1.0695464611053467,-20.947603225708008,-0.7730002999305725,-2.3138461112976074,0.25485557317733765,0
40,0.19500064849853516,-0.4505855441093445,-47.19466781616211,-1.0695464611053467,20.947603225708008,0.7730002999305725,2.3138461112976074,-0.25485557317733765,0.0,0.0,0.0,0.0,0.0,0.0,0.0,-0.42944655692152145,-0.44803747017996887,-0.19669573504224708,0.5384480083290342,0.19501226282067158,0.11245931594546667,-0.29491468221625805,0.06235524771491361,0.6882543749617474,-0.07864396924082531,-1.6210534947545903,0.028139358381825488,2.2878669904602815,0.8466275249489928,0.06226373270833701,0.6884179775783729,-0.07863937525950354,-1.6210372792796082,0.028167345702647853,2.2878312372101677,0.8466366937888992,0.0009417438446596166,-0.0003977979915273396,0.00015256887470171403,-1.9529697430160338e-05,-0.00010506927067574392,0.00032719289802434404,-0.002033882272435343,0.0,0.0,0.0,0.0,0.0,0.0,0.0,-9.151500657660072e-05,0.00016360261662551334,4.5939813217710235e-06,1.62154749820953e-05,2.7987320822365352e-05,-3.575325011384578e-05,9.168839906315007e-06,-0.0009417438446596166,0.0003977979915273396,-0.00015256887470171403,1.9529697430160338e-05,0.00010506927067574392,-0.00032719289802434404,0.002033882272435343,0.4505855441093445,47.19466781616211,1.0695464611053467,-20.947603225708008,-0.7730002999305725,-2.3138461112976074,0.25485557317733765,0
41,0.20089411735534668,-0.4029781222343445,-47.19466781616211,-1.0417754650115967,20.947603225708008,0.7610984444618225,2.3394808769226074,-0.27591270208358765,0.0,0.0,0.0,0.0,0.0,0.0,0.0,-0.42792430562463324,-0.4480130042206461,-0.19499774387600566,0.5391623051549189,0.1952198058854642,0.11092394485865581,-0.29702387476269443,0.06235256407163354,0.6882564029787688,-0.0786456818729902,-1.6210534947545903,0.02814068032304721,2.2878641421529977,0.8466294852532916,0.06226373270833701,0.6884179775783729,-0.07863937525950354,-1.6210372792796082,0.028167345702647853,2.2878312372101677,0.8466366937888992,-0.00035496440198613073,-0.0007275567842294331,0.00015033127722745475,-0.00024271890167084024,0.00035767912223005373,-0.00027470577155320564,-8.352301461029846e-05,0.0,0.0,0.0,0.0,0.0,0.0,0.0,-8.88313632965293e-05,0.00016157459960408627,6.306613486661838e-06,1.62154749820953e-05,2.666537960064469e-05,-3.290494283003653e-05,7.2085356075390905e-06,0.00035496440198613073,0.0007275567842294331,-0.00015033127722745475,0.00024271890167084024,-0.00035767912223005373,0.00027470577155320564,8.352301461029846e-05,0.4029781222343445,47.19466781616211,1.0417754650115967,-20.947603225708008,-0.7610984444618225,-2.3394808769226074,0.27591270208358765,0
42,0.20499348640441895,-0.4029781222343445,-47.19466781616211,-1.0417754650115967,20.947603225708008,0.7610984444618225,2.3394808769226074,-0.27591270208358765,0.0,0.0,0.0,0.0,0.0,0.0,0.0,-0.42792430562463324,-0.4480130042206461,-0.19499774387600566,0.5391623051549189,0.1952198058854642,0.11092394485865581,-0.29702387476269443,0.06235256407163354,0.6882564029787688,-0.0786456818729902,-1.6210534947545903,0.02814068032304721,2.2878641421529977,0.8466294852532916,0.06226373270833701,0.6884179775783729,-0.07863937525950354,-1.6210372792796082,0.028167345702647853,2.2878312372101677,0.8466366937888992,-0.00035496440198613073,-0.0007275567842294331,0.00015033127722745475,-0.00024271890167084024,0.00035767912223005373,-0.00027470577155320564,-8.352301461029846e-05,0.0,0.0,0.0,0.0,0.0,0.0,0.0,-8.88313632965293e-05,0.00016157459960408627,6.306613486661838e-06,1.62154749820953e-05,2.666537960064469e-05,-3.290494283003653e-05,7.2085356075390905e-06,0.00035496440198613073,0.0007275567842294331,-0.00015033127722745475,0.00024271890167084024,-0.00035767912223005373,0.00027470577155320564,8.352301461029846e-05,0.4029781222343445,47.19466781616211,1.0417754650115967,-20.947603225708008,-0.7610984444618225,-2.3394808769226074,0.27591270208358765,0
43,0.2101600170135498,-0.4267818331718445,-47.31765365600586,-1.0933501720428467,20.947603225708008,0.7730002999305725,2.3266634941101074,-0.30337852239608765,0.0,0.0,0.0,0.0,0.0,0.0,0.0,-0.4430926392426156,-0.45793470920058454,-0.20352972847379908,0.544239384719928,0.19515188678903725,0.11204756557770068,-0.2961983260187348,0.062354287027809444,0.6882653455800295,-0.0786420625939704,-1.6210534947545903,0.028139357894659038,2.2878655663066434,0.8466329298982105,0.06226373270833701,0.6884179775783729,-0.07863937525950354,-1.6210372792796082,0.028167345702647853,2.2878312372101677,0.8466366937888992,-0.0003077104908758009,0.00199026628202557,0.0005933516638894286,0.00036282424629984953,0.00010024201144496799,0.00015142961124309118,0.0004255641729510837,0.0,0.0,0.0,0.0,0.0,0.0,0.0,-9.055431947243425e-05,0.0001526319983433666,2.6873344668582044e-06,1.62154749820953e-05,2.7987807988814895e-05,-3.4329096475715914e-05,3.7638906886794388e-06,0.0003077104908758009,-0.00199026628202557,-0.0005933516638894286,-0.00036282424629984953,-0.00010024201144496799,-0.00015142961124309118,-0.0004255641729510837,0.4267818331718445,47.31765365600586,1.0933501720428467,-20.947603225708008,-0.7730002999305725,-2.3266634941101074,0.30337852239608765,0
44,0.21500229835510254,-0.4267818331718445,-47.31765365600586,-1.0933501720428467,20.947603225708008,0.7730002999305725,2.3266634941101074,-0.30337852239608765,0.0,0.0,0.0,0.0,0.0,0.0,0.0,-0.4430926392426156,-0.45793470920058454,-0.20352972847379908,0.544239384719928,0.19515188678903725,0.11204756557770068,-0.2961983260187348,0.062354287027809444,0.6882653455800295,-0.0786420625939704,-1.6210534947545903,0.028139357894659038,2.2878655663066434,0.8466329298982105,0.06226373270833701,0.6884179775783729,-0.07863937525950354,-1.6210372792796082,0.028167345702647853,2.2878312372101677,0.8466366937888992,-0.0003077104908758009,0.00199026628202557,0.0005933516638894286,0.00036282424629984953,0.00010024201144496799,0.00015142961124309118,0.0004255641729510837,0.0,0.0,0.0,0.0,0.0,0.0,0.0,-9.055431947243425e-05,0.0001526319983433666,2.6873344668582044e-06,1.62154749820953e-05,2.7987807988814895e-05,-3.4329096475715914e-05,3.7638906886794388e-06,0.0003077104908758009,-0.00199026628202557,-0.0005933516638894286,-0.00036282424629984953,-0.00010024201144496799,-0.00015142961124309118,-0.0004255641729510837,0.4267818331718445,47.31765365600586,1.0933501720428467,-20.947603225708008,-0.7730002999305725,-2.3266634941101074,0.30337852239608765,0
45,0.21999335289001465,-0.4505855441093445,-47.24624252319336,-1.0417754650115967,20.975374221801758,0.7730002999305725,2.3596224784851074,-0.29605430364608765,0.0,0.0,0.0,0.0,0.0,0.0,0.0,-0.44188422738174404,-0.45280775290003394,-0.2007825812012557,0.5395726889468161,0.19474655508112856,0.11192182195588146,-0.29780822201514817,0.06235598377633299,0.6882599962692847,-0.07864568187165678,-1.6210554435964215,0.028139357894659038,2.2878619041972685,0.8466321117915295,0.06226373270833701,0.6884179775783729,-0.07863937525950354,-1.6210372792796082,0.028167345702647853,2.2878312372101677,0.8466366937888992,-4.387257139984132e-06,-0.0003614848496038143,-0.000789385395342304,-0.0005468416670881438,-0.00010131689491188978,-0.0009946012346983084,-4.809341623777854e-05,0.0,0.0,0.0,0.0,0.0,0.0,0.0,-9.225106799597843e-05,0.0001579813090881732,6.3066121532423525e-06,1.816431681334052e-05,2.7987807988814895e-05,-3.066698710085802e-05,4.581997369634827e-06,4.387257139984132e-06,0.0003614848496038143,0.000789385395342304,0.0005468416670881438,0.00010131689491188978,0.0009946012346983084,4.809341623777854e-05,0.4505855441093445,47.24624252319336,1.0417754650115967,-20.975374221801758,-0.7730002999305725,-2.3596224784851074,0.29605430364608765,0
46,0.2249925136566162,-0.4505855441093445,-47.24624252319336,-1.0417754650115967,20.975374221801758,0.7730002999305725,2.3596224784851074,-0.29605430364608765,0.0,0.0,0.0,0.0,0.0,0.0,0.0,-0.44188422738174404,-0.45280775290003394,-0.2007825812012557,0.5395726889468161,0.19474655508112856,0.11192182195588146,-0.29780822201514817,0.06235598377633299,0.6882599962692847,-0.07864568187165678,-1.6210554435964215,0.028139357894659038,2.2878619041972685,0.8466321117915295,0.06226373270833701,0.6884179775783729,-0.07863937525950354,-1.6210372792796082,0.028167345702647853,2.2878312372101677,0.8466366937888992,-4.387257139984132e-06,-0.0003614848496038143,-0.000789385395342304,-0.0005468416670881438,-0.00010131689491188978,-0.0009946012346983084,-4.809341623777854e-05,0.0,0.0,0.0,0.0,0.0,0.0,0.0,-9.225106799597843e-05,0.0001579813090881732,6.3066121532423525e-06,1.816431681334052e-05,2.7987807988814895e-05,-3.066698710085802e-05,4.581997369634827e-06,4.387257139984132e-06,0.0003614848496038143,0.000789385395342304,0.0005468416670881438,0.00010131689491188978,0.0009946012346983084,4.809341623777854e-05,0.4505855441093445,47.24624252319336,1.0417754650115967,-20.975374221801758,-0.7730002999305725,-2.3596224784851074,0.29605430364608765,0
47,0.22999358177185059,-0.4505855441093445,-47.24624252319336,-1.0933501720428467,20.899995803833008,0.7784934639930725,2.3330721855163574,-0.29605430364608765,0.0,0.0,0.0,0.0,0.0,0.0,0.0,-0.4450210387130055,-0.460154766234408,-0.20107554375532607,0.5426715526980045,0.19444851349286893,0.11383847455535182,-0.2980790831111914,0.06235574728953443,0.6882593982229702,-0.07864206259397039,-1.621050869138617,0.02813874754309654,2.287864854068315,0.846632116152156,0.06226373270833701,0.6884179775783729,-0.07863937525950354,-1.6210372792796082,0.028167345702647853,2.2878312372101677,0.8466366937888992,-0.00042982158805976954,-0.0007396894154039481,0.00013640811805178054,0.0014566282995299,-0.0001536394877956135,0.0002145380053182312,0.0001747227700543971,0.0,0.0,0.0,0.0,0.0,0.0,0.0,-9.201458119741796e-05,0.00015857935540264378,2.6873344668443266e-06,1.3589859008789062e-05,2.859815955131434e-05,-3.3616858147400563e-05,4.5776367432193155e-06,0.00042982158805976954,0.0007396894154039481,-0.00013640811805178054,-0.0014566282995299,0.0001536394877956135,-0.0002145380053182312,-0.0001747227700543971,0.4505855441093445,47.24624252319336,1.0933501720428467,-20.899995803833008,-0.7784934639930725,-2.3330721855163574,0.29605430364608765,0
48,0.2350022792816162,-0.4505855441093445,-47.24624252319336,-1.0933501720428467,20.899995803833008,0.7784934639930725,2.3330721855163574,-0.29605430364608765,0.0,0.0,0.0,0.0,0.0,0.0,0.0,-0.4450210387130055,-0.460154766234408,-0.20107554375532607,0.5426715526980045,0.19444851349286893,0.11383847455535182,-0.2980790831111914,0.06235574728953443,0.6882593982229702,-0.07864206259397039,-1.621050869138617,0.02813874754309654,2.287864854068315,0.846632116152156,0.06226373270833701,0.6884179775783729,-0.07863937525950354,-1.6210372792796082,0.028167345702647853,2.2878312372101677,0.8466366937888992,-0.00042982158805976954,-0.0007396894154039481,0.00013640811805178054,0.0014566282995299,-0.0001536394877956135,0.0002145380053182312,0.0001747227700543971,0.0,0.0,0.0,0.0,0.0,0.0,0.0,-9.201458119741796e-05,0.00015857935540264378,2.6873344668443266e-06,1.3589859008789062e-05,2.859815955131434e-05,-3.3616858147400563e-05,4.5776367432193155e-06,0.00042982158805976954,0.0007396894154039481,-0.00013640811805178054,-0.0014566282995299,0.0001536394877956135,-0.0002145380053182312,-0.0001747227700543971,0.4505855441093445,47.24624252319336,1.0933501720428467,-20.899995803833008,-0.7784934639930725,-2.3330721855163574,0.29605430364608765,0
49,0.24001002311706543,-0.4783565402030945,-47.24624252319336,-1.1171538829803467,20.899995803833008,0.7784934639930725,2.3330721855163574,-0.24844686686992645,0.0,0.0,0.0,0.0,0.0,0.0,0.0,-0.4481709692847224,-0.45040796177507997,-0.20215135813167784,0.5366512644314861,0.19438558943928289,0.11435638541990263,-0.2962112872223523,0.06235793258093334,0.6882582282024932,-0.07864039215811512,-1.6210501538869173,0.02813874754309654,2.2878648542298197,0.8466268262754776,0.06226373270833701,0.6884179775783729,-0.07863937525950354,-1.6210372792796082,0.028167345702647853,2.2878312372101677,0.8466366937888992,0.0002472003445447951,0.00010242923938760786,0.0005658949775271029,0.0013346868585280443,-0.00015088277724305943,7.629794809357993e-05,-0.0018631664920286265,0.0,0.0,0.0,0.0,0.0,0.0,0.0,-9.419987259633167e-05,0.00015974937587970306,1.0168986115804968e-06,1.2874607309143471e-05,2.859815955131434e-05,-3.3617019651988045e-05,9.867513421579766e-06,-0.0002472003445447951,-0.00010242923938760786,-0.0005658949775271029,-0.0013346868585280443,0.00015088277724305943,-7.629794809357993e-05,0.0018631664920286265,0.4783565402030945,47.24624252319336,1.1171538829803467,-20.899995803833008,-0.7784934639930725,-2.3330721855163574,0.24844686686992645,0
50,0.24500823020935059,-0.4783565402030945,-47.24624252319336,-1.1171538829803467,20.899995803833008,0.7784934639930725,2.3330721855163574,-0.24844686686992645,0.0,0.0,0.0,0.0,0.0,0.0,0.0,-0.4481709692847224,-0.45040796177507997,-0.20215135813167784,0.5366512644314861,0.19438558943928289,0.11435638541990263,-0.2962112872223523,0.06235793258093334,0.6882582282024932,-0.07864039215811512,-1.6210501538869173,0.02813874754309654,2.2878648542298197,0.8466268262754776,0.06226373270833701,0.6884179775783729,-0.07863937525950354,-1.6210372792796082,0.028167345702647853,2.2878312372101677,0.8466366937888992,0.0002472003445447951,0.00010242923938760786,0.0005658949775271029,0.0013346868585280443,-0.00015088277724305943,7.629794809357993e-05,-0.0018631664920286265,0.0,0.0,0.0,0.0,0.0,0.0,0.0,-9.419987259633167e-05,0.00015974937587970306,1.0168986115804968e-06,1.2874607309143471e-05,2.859815955131434e-05,-3.3617019651988045e-05,9.867513421579766e-06,-0.0002472003445447951,-0.00010242923938760786,-0.0005658949775271029,-0.0013346868585280443,0.00015088277724305943,-7.629794809357993e-05,0.0018631664920286265,0.4783565402030945,47.24624252319336,1.1171538829803467,-20.899995803833008,-0.7784934639930725,-2.3330721855163574,0.24844686686992645,0
51,0.2500112056732178,-0.4783565402030945,-47.24624252319336,-1.1171538829803467,20.899995803833008,0.7784934639930725,2.3330721855163574,-0.24844686686992645,0.0,0.0,0.0,0.0,0.0,0.0,0.0,-0.4481709692847224,-0.45040796177507997,-0.20215135813167784,0.5366512644314861,0.19438558943928289,0.11435638541990263,-0.2962112872223523,0.06235793258093334,0.6882582282024932,-0.07864039215811512,-1.6210501538869173,0.02813874754309654,2.2878648542298197,0.8466268262754776,0.06226373270833701,0.6884179775783729,-0.07863937525950354,-1.6210372792796082,0.028167345702647853,2.2878312372101677,0.8466366937888992,0.0002472003445447951,0.00010242923938760786,0.0005658949775271029,0.0013346868585280443,-0.00015088277724305943,7.629794809357993e-05,-0.0018631664920286265,0.0,0.0,0.0,0.0,0.0,0.0,0.0,-9.419987259633167e-05,0.00015974937587970306,1.0168986115804968e-06,1.2874607309143471e-05,2.859815955131434e-05,-3.3617019651988045e-05,9.867513421579766e-06,-0.0002472003445447951,-0.00010242923938760786,-0.0005658949775271029,-0.0013346868585280443,0.00015088277724305943,-7.629794809357993e-05,0.0018631664920286265,0.4783565402030945,47.24624252319336,1.1171538829803467,-20.899995803833008,-0.7784934639930725,-2.3330721855163574,0.24844686686992645,0
52,0.2549915313720703,-0.4783565402030945,-47.24624252319336,-1.1171538829803467,20.899995803833008,0.7784934639930725,2.3330721855163574,-0.24844686686992645,0.0,0.0,0.0,0.0,0.0,0.0,0.0,-0.4481709692847224,-0.45040796177507997,-0.20215135813167784,0.5366512644314861,0.19438558943928289,0.11435638541990263,-0.2962112872223523,0.06235793258093334,0.6882582282024932,-0.07864039215811512,-1.6210501538869173,0.02813874754309654,2.2878648542298197,0.8466268262754776,0.06226373270833701,0.6884179775783729,-0.07863937525950354,-1.6210372792796082,0.028167345702647853,2.2878312372101677,0.8466366937888992,0.0002472003445447951,0.00010242923938760786,0.0005658949775271029,0.0013346868585280443,-0.00015088277724305943,7.629794809357993e-05,-0.0018631664920286265,0.0,0.0,0.0,0.0,0.0,0.0,0.0,-9.419987259633167e-05,0.00015974937587970306,1.0168986115804968e-06,1.2874607309143471e-05,2.859815955131434e-05,-3.3617019651988045e-05,9.867513421579766e-06,-0.0002472003445447951,-0.00010242923938760786,-0.0005658949775271029,-0.0013346868585280443,0.00015088277724305943,-7.629794809357993e-05,0.0018631664920286265,0.4783565402030945,47.24624252319336,1.1171538829803467,-20.899995803833008,-0.7784934639930725,-2.3330721855163574,0.24844686686992645,0
53,0.2600107192993164,-0.4505855441093445,-47.19466781616211,-1.0695464611053467,20.923799514770508,0.7784934639930725,2.3266634941101074,-0.28964561223983765,0.0,0.0,0.0,0.0,0.0,0.0,0.0,-0.42437215618219815,-0.44470384390414813,-0.1872043462652496,0.5331568567741006,0.19487582225336825,0.1140719862984166,-0.2949174146943583,0.06235597501770549,0.6882557529705888,-0.07864375927549228,-1.621051824318735,0.02813874754309654,2.2878655663066434,0.8466282120790165,0.06226373270833701,0.6884179775783729,-0.07863937525950354,-1.6210372792796082,0.028167345702647853,2.2878312372101677,0.8466366937888992,0.0006373733756845,-0.0006823765306987311,-5.81828582846495e-05,0.0004513917796104196,-0.00013216851527075697,-5.485902163564589e-05,-0.0002553823415839195,0.0,0.0,0.0,0.0,0.0,0.0,0.0,-9.224230936848155e-05,0.00016222460778403391,4.38401598873428e-06,1.454503912690086e-05,2.859815955131434e-05,-3.4329096475715914e-05,8.481709882657285e-06,-0.0006373733756845,0.0006823765306987311,5.81828582846495e-05,-0.0004513917796104196,0.00013216851527075697,5.485902163564589e-05,0.0002553823415839195,0.4505855441093445,47.19466781616211,1.0695464611053467,-20.923799514770508,-0.7784934639930725,-2.3266634941101074,0.28964561223983765,0
54,0.26499462127685547,-0.4505855441093445,-47.19466781616211,-1.0695464611053467,20.923799514770508,0.7784934639930725,2.3266634941101074,-0.28964561223983765,0.0,0.0,0.0,0.0,0.0,0.0,0.0,-0.42437215618219815,-0.44470384390414813,-0.1872043462652496,0.5331568567741006,0.19487582225336825,0.1140719862984166,-0.2949174146943583,0.06235597501770549,0.6882557529705888,-0.07864375927549228,-1.621051824318735,0.02813874754309654,2.2878655663066434,0.8466282120790165,0.06226373270833701,0.6884179775783729,-0.07863937525950354,-1.6210372792796082,0.028167345702647853,2.2878312372101677,0.8466366937888992,0.0006373733756845,-0.0006823765306987311,-5.81828582846495e-05,0.0004513917796104196,-0.00013216851527075697,-5.485902163564589e-05,-0.0002553823415839195,0.0,0.0,0.0,0.0,0.0,0.0,0.0,-9.224230936848155e-05,0.00016222460778403391,4.38401598873428e-06,1.454503912690086e-05,2.859815955131434e-05,-3.4329096475715914e-05,8.481709882657285e-06,-0.0006373733756845,0.0006823765306987311,5.81828582846495e-05,-0.0004513917796104196,0.00013216851527075697,5.485902163564589e-05,0.0002553823415839195,0.4505855441093445,47.19466781616211,1.0695464611053467,-20.923799514770508,-0.7784934639930725,-2.3266634941101074,0.28964561223983765,0
55,0.26999759674072266,-0.4267818331718445,-47.24624252319336,-1.0417754650115967,20.923799514770508,0.7665916085243225,2.3330721855163574,-0.27591270208358765,0.0,0.0,0.0,0.0,0.0,0.0,0.0,-0.44459343792425654,-0.4444231482581245,-0.2059614947597504,0.5334607060896794,0.19573095375283478,0.11269335300950163,-0.2939890383602539,0.062354313340477925,0.6882596322476724,-0.0786456906206568,-1.621051824318735,0.028140069971481954,2.2878645003710885,0.8466298650604425,0.06226373270833701,0.6884179775783729,-0.07863937525950354,-1.6210372792796082,0.028167345702647853,2.2878312372101677,0.8466366937888992,-3.430927216274756e-06,0.0010994848987899881,-0.000951165024564934,0.00023428109203716657,0.000272314000259111,-0.0003279454481593801,-0.0007223352489532115,0.0,0.0,0.0,0.0,0.0,0.0,0.0,-9.058063214091583e-05,0.0001583453307004712,6.31536115325293e-06,1.454503912690086e-05,2.7275731165898875e-05,-3.32631609207823e-05,6.82872845669813e-06,3.430927216274756e-06,-0.0010994848987899881,0.000951165024564934,-0.00023428109203716657,-0.000272314000259111,0.0003279454481593801,0.0007223352489532115,0.4267818331718445,47.24624252319336,1.0417754650115967,-20.923799514770508,-0.7665916085243225,-2.3330721855163574,0.27591270208358765,0
56,0.2749931812286377,-0.4267818331718445,-47.24624252319336,-1.0417754650115967,20.923799514770508,0.7665916085243225,2.3330721855163574,-0.27591270208358765,0.0,0.0,0.0,0.0,0.0,0.0,0.0,-0.44459343792425654,-0.4444231482581245,-0.2059614947597504,0.5334607060896794,0.19573095375283478,0.11269335300950163,-0.2939890383602539,0.062354313340477925,0.6882596322476724,-0.0786456906206568,-1.621051824318735,0.028140069971481954,2.2878645003710885,0.8466298650604425,0.06226373270833701,0.6884179775783729,-0.07863937525950354,-1.6210372792796082,0.028167345702647853,2.2878312372101677,0.8466366937888992,-3.430927216274756e-06,0.0010994848987899881,-0.000951165024564934,0.00023428109203716657,0.000272314000259111,-0.0003279454481593801,-0.0007223352489532115,0.0,0.0,0.0,0.0,0.0,0.0,0.0,-9.058063214091583e-05,0.0001583453307004712,6.31536115325293e-06,1.454503912690086e-05,2.7275731165898875e-05,-3.32631609207823e-05,6.82872845669813e-06,3.430927216274756e-06,-0.0010994848987899881,0.000951165024564934,-0.00023428109203716657,-0.000272314000259111,0.0003279454481593801,0.0007223352489532115,0.4267818331718445,47.24624252319336,1.0417754650115967,-20.923799514770508,-0.7665916085243225,-2.3330721855163574,0.27591270208358765,0
57,0.28000497817993164,-0.4029781222343445,-47.21847152709961,-1.0695464611053467,20.975374221801758,0.7784934639930725,2.3202548027038574,-0.30337852239608765,0.0,0.0,0.0,0.0,0.0,0.0,0.0,-0.4340058567364368,-0.44714043068373704,-0.20118304315484822,0.5375380376949497,0.1962414365357432,0.11258405891478188,-0.2933168574247438,0.06235193242267327,0.6882576573847664,-0.07864373302984211,-1.6210555230692811,0.02813874754309654,2.287866265300849,0.8466329297927335,0.06226373270833701,0.6884179775783729,-0.07863937525950354,-1.6210372792796082,0.028167345702647853,2.2878312372101677,0.8466366937888992,-0.0005438380381506358,0.00036733446408705153,0.0006840888557852206,-0.0005861194270156813,-0.0002754113197032556,0.0003521555152157758,0.0002292665190192132,0.0,0.0,0.0,0.0,0.0,0.0,0.0,-8.819971433626089e-05,0.00016032019360645577,4.357770338567213e-06,1.8243789672967026e-05,2.859815955131434e-05,-3.5028090681343826e-05,3.763996165639938e-06,0.0005438380381506358,-0.00036733446408705153,-0.0006840888557852206,0.0005861194270156813,0.0002754113197032556,-0.0003521555152157758,-0.0002292665190192132,0.4029781222343445,47.21847152709961,1.0695464611053467,-20.975374221801758,-0.7784934639930725,-2.3202548027038574,0.30337852239608765,0
58,0.2850043773651123,-0.4029781222343445,-47.21847152709961,-1.0695464611053467,20.975374221801758,0.7784934639930725,2.3202548027038574,-0.30337852239608765,0.0,0.0,0.0,0.0,0.0,0.0,0.0,-0.4340058567364368,-0.44714043068373704,-0.20118304315484822,0.5375380376949497,0.1962414365357432,0.11258405891478188,-0.2933168574247438,0.06235193242267327,0.6882576573847664,-0.07864373302984211,-1.6210555230692811,0.02813874754309654,2.287866265300849,0.8466329297927335,0.06226373270833701,0.6884179775783729,-0.07863937525950354,-1.6210372792796082,0.028167345702647853,2.2878312372101677,0.8466366937888992,-0.0005438380381506358,0.00036733446408705153,0.0006840888557852206,-0.0005861194270156813,-0.0002754113197032556,0.0003521555152157758,0.0002292665190192132,0.0,0.0,0.0,0.0,0.0,0.0,0.0,-8.819971433626089e-05,0.00016032019360645577,4.357770338567213e-06,1.8243789672967026e-05,2.859815955131434e-05,-3.5028090681343826e-05,3.763996165639938e-06,0.0005438380381506358,-0.00036733446408705153,-0.0006840888557852206,0.0005861194270156813,0.0002754113197032556,-0.0003521555152157758,-0.0002292665190192132,0.4029781222343445,47.21847152709961,1.0695464611053467,-20.975374221801758,-0.7784934639930725,-2.3202548027038574,0.30337852239608765,0
59,0.29001712799072266,-0.4267818331718445,-47.24624252319336,-1.0695464611053467,20.899995803833008,0.7665916085243225,2.3266634941101074,-0.26858848333358765,0.0,0.0,0.0,0.0,0.0,0.0,0.0,-0.4422265348954647,-0.4416301053247049,-0.2083705507149543,0.5361546050674535,0.19622354273298231,0.11178998502219348,-0.29398556929470393,0.06235431236609205,0.6882603082724751,-0.07864444166282464,-1.621050153883029,0.028140069971481954,2.2878655661451135,0.8466290643943677,0.06226373270833701,0.6884179775783729,-0.07863937525950354,-1.6210372792796082,0.028167345702647853,2.2878312372101677,0.8466366937888992,0.00024215096665165594,0.00033115724236249254,0.0003351832848872964,0.0010467994802520302,0.0003151198308268338,4.43247222664433e-05,-0.0011200500722712192,0.0,0.0,0.0,0.0,0.0,0.0,0.0,-9.057965775503829e-05,0.0001576693058977785,5.066403321096757e-06,1.2874603420920394e-05,2.7275731165898875e-05,-3.432893494581535e-05,7.629394531472045e-06,-0.00024215096665165594,-0.00033115724236249254,-0.0003351832848872964,-0.0010467994802520302,-0.0003151198308268338,-4.43247222664433e-05,0.0011200500722712192,0.4267818331718445,47.24624252319336,1.0695464611053467,-20.899995803833008,-0.7665916085243225,-2.3266634941101074,0.26858848333358765,0
60,0.29503822326660156,-0.4267818331718445,-47.24624252319336,-1.0695464611053467,20.899995803833008,0.7665916085243225,2.3266634941101074,-0.26858848333358765,0.0,0.0,0.0,0.0,0.0,0.0,0.0,-0.4422265348954647,-0.4416301053247049,-0.2083705507149543,0.5361546050674535,0.19622354273298231,0.11178998502219348,-0.29398556929470393,0.06235431236609205,0.6882603082724751,-0.07864444166282464,-1.621050153883029,0.028140069971481954,2.2878655661451135,0.8466290643943677,0.06226373270833701,0.6884179775783729,-0.07863937525950354,-1.6210372792796082,0.028167345702647853,2.2878312372101677,0.8466366937888992,0.00024215096665165594,0.00033115724236249254,0.0003351832848872964,0.0010467994802520302,0.0003151198308268338,4.43247222664433e-05,-0.0011200500722712192,0.0,0.0,0.0,0.0,0.0,0.0,0.0,-9.057965775503829e-05,0.0001576693058977785,5.066403321096757e-06,1.2874603420920394e-05,2.7275731165898875e-05,-3.432893494581535e-05,7.629394531472045e-06,-0.00024215096665165594,-0.00033115724236249254,-0.0003351832848872964,-0.0010467994802520302,-0.0003151198308268338,-4.43247222664433e-05,0.0011200500722712192,0.4267818331718445,47.24624252319336,1.0695464611053467,-20.899995803833008,-0.7665916085243225,-2.3266634941101074,0.26858848333358765,0
61,0.29999876022338867,-0.4029781222343445,-47.31765365600586,-1.0695464611053467,20.947603225708008,0.7730002999305725,2.3330721855163574,-0.33084434270858765,0.0,0.0,0.0,0.0,0.0,0.0,0.0,-0.428875567851016,-0.4598347219513267,-0.20024154697032276,0.5464044689646416,0.19595365778805435,0.11361798529909463,-0.2929219317148409,0.06235193344392421,0.6882646175710033,-0.07864373303382591,-1.6210534947545903,0.028139357894659038,2.2878644573567675,0.8466349220201119,0.06226373270833701,0.6884179775783729,-0.07863937525950354,-1.6210372792796082,0.028167345702647853,2.2878312372101677,0.8466366937888992,-0.0003351500473452766,0.001137936782202409,0.0002100639908021778,0.0002452488241458328,-0.0001402171658372471,0.00013208909931149233,0.0014550309065002379,0.0,0.0,0.0,0.0,0.0,0.0,0.0,-8.820073558719888e-05,0.0001533600073695407,4.357774322366614e-06,1.62154749820953e-05,2.7987807988814895e-05,-3.3220146599788336e-05,1.7717687872398358e-06,0.0003351500473452766,-0.001137936782202409,-0.0002100639908021778,-0.0002452488241458328,0.0001402171658372471,-0.00013208909931149233,-0.0014550309065002379,0.4029781222343445,47.31765365600586,1.0695464611053467,-20.947603225708008,-0.7730002999305725,-2.3330721855163574,0.33084434270858765,0
62,0.3050367832183838,-0.4029781222343445,-47.31765365600586,-1.0695464611053467,20.947603225708008,0.7730002999305725,2.3330721855163574,-0.33084434270858765,0.0,0.0,0.0,0.0,0.0,0.0,0.0,-0.428875567851016,-0.4598347219513267,-0.20024154697032276,0.5464044689646416,0.19595365778805435,0.11361798529909463,-0.2929219317148409,0.06235193344392421,0.6882646175710033,-0.07864373303382591,-1.6210534947545903,0.028139357894659038,2.2878644573567675,0.8466349220201119,0.06226373270833701,0.6884179775783729,-0.07863937525950354,-1.6210372792796082,0.028167345702647853,2.2878312372101677,0.8466366937888992,-0.0003351500473452766,0.001137936782202409,0.0002100639908021778,0.0002452488241458328,-0.0001402171658372471,0.00013208909931149233,0.0014550309065002379,0.0,0.0,0.0,0.0,0.0,0.0,0.0,-8.820073558719888e-05,0.0001533600073695407,4.357774322366614e-06,1.62154749820953e-05,2.7987807988814895e-05,-3.3220146599788336e-05,1.7717687872398358e-06,0.0003351500473452766,-0.001137936782202409,-0.0002100639908021778,-0.0002452488241458328,0.0001402171658372471,-0.00013208909931149233,-0.0014550309065002379,0.4029781222343445,47.31765365600586,1.0695464611053467,-20.947603225708008,-0.7730002999305725,-2.3330721855163574,0.33084434270858765,0
63,0.31001901626586914,-0.4505855441093445,-47.21847152709961,-1.0933501720428467,20.947603225708008,0.7665916085243225,2.3394808769226074,-0.30337852239608765,0.0,0.0,0.0,0.0,0.0,0.0,0.0,-0.42910522006635354,-0.43805494295433123,-0.2010462135213198,0.5348419518726003,0.19535656756346625,0.1127455674375469,-0.29300685215758693,0.06235595749614914,0.6882576833110261,-0.07864418849296739,-1.6210534947545903,0.028141135404507314,2.2878641421507577,0.8466329294637651,0.06226373270833701,0.6884179775783729,-0.07863937525950354,-1.6210372792796082,0.028167345702647853,2.2878312372101677,0.8466366937888992,0.0006928545600030811,-0.0006762891147447464,0.0006237393753244315,0.00024028357727329415,0.0002179490165996831,-0.00016040630852234576,-9.195588597998196e-05,0.0,0.0,0.0,0.0,0.0,0.0,0.0,-9.22247878121299e-05,0.0001602942673467611,4.813233463851763e-06,1.62154749820953e-05,2.6210298140538768e-05,-3.290494059005056e-05,3.7643251340480077e-06,-0.0006928545600030811,0.0006762891147447464,-0.0006237393753244315,-0.00024028357727329415,-0.0002179490165996831,0.00016040630852234576,9.195588597998196e-05,0.4505855441093445,47.21847152709961,1.0933501720428467,-20.947603225708008,-0.7665916085243225,-2.3394808769226074,0.30337852239608765,0
64,0.31502771377563477,-0.4505855441093445,-47.21847152709961,-1.0933501720428467,20.947603225708008,0.7665916085243225,2.3394808769226074,-0.30337852239608765,0.0,0.0,0.0,0.0,0.0,0.0,0.0,-0.42910522006635354,-0.43805494295433123,-0.2010462135213198,0.5348419518726003,0.19535656756346625,0.1127455674375469,-0.29300685215758693,0.06235595749614914,0.6882576833110261,-0.07864418849296739,-1.6210534947545903,0.028141135404507314,2.2878641421507577,0.8466329294637651,0.06226373270833701,0.6884179775783729,-0.07863937525950354,-1.6210372792796082,0.028167345702647853,2.2878312372101677,0.8466366937888992,0.0006928545600030811,-0.0006762891147447464,0.0006237393753244315,0.00024028357727329415,0.0002179490165996831,-0.00016040630852234576,-9.195588597998196e-05,0.0,0.0,0.0,0.0,0.0,0.0,0.0,-9.22247878121299e-05,0.0001602942673467611,4.813233463851763e-06,1.62154749820953e-05,2.6210298140538768e-05,-3.290494059005056e-05,3.7643251340480077e-06,-0.0006928545600030811,0.0006762891147447464,-0.0006237393753244315,-0.00024028357727329415,-0.0002179490165996831,0.00016040630852234576,9.195588597998196e-05,0.4505855441093445,47.21847152709961,1.0933501720428467,-20.947603225708008,-0.7665916085243225,-2.3394808769226074,0.30337852239608765,0
65,0.32001304626464844,-0.4267818331718445,-47.27004623413086,-1.0695464611053467,20.947603225708008,0.7610984444618225,2.3266634941101074,-0.25485557317733765,0.0,0.0,0.0,0.0,0.0,0.0,0.0,-0.42742698216073716,-0.4491541620906306,-0.19912082927690355,0.5402290531930111,0.19534328742694246,0.11362255208346181,-0.2939781103114899,0.062354304257302984,0.6882619783490787,-0.0786437330778287,-1.6210534947545903,0.028140680329058858,2.2878655663066434,0.8466275380309423,0.06226373270833701,0.6884179775783729,-0.07863937525950354,-1.6210372792796082,0.028167345702647853,2.2878312372101677,0.8466366937888992,-0.00020508133537881272,0.0006226028518834472,0.0005997504225739914,0.000241615477091414,0.0004916206360619424,0.0004047898949283081,-0.0016959925487951206,0.0,0.0,0.0,0.0,0.0,0.0,0.0,-9.057154896597447e-05,0.0001559992292942125,4.357818325154139e-06,1.62154749820953e-05,2.6665373588995178e-05,-3.4329096475715914e-05,9.155757956902377e-06,0.00020508133537881272,-0.0006226028518834472,-0.0005997504225739914,-0.000241615477091414,-0.0004916206360619424,-0.0004047898949283081,0.0016959925487951206,0.4267818331718445,47.27004623413086,1.0695464611053467,-20.947603225708008,-0.7610984444618225,-2.3266634941101074,0.25485557317733765,0
66,0.3249940872192383,-0.4267818331718445,-47.27004623413086,-1.0695464611053467,20.947603225708008,0.7610984444618225,2.3266634941101074,-0.25485557317733765,0.0,0.0,0.0,0.0,0.0,0.0,0.0,-0.42742698216073716,-0.4491541620906306,-0.19912082927690355,0.5402290531930111,0.19534328742694246,0.11362255208346181,-0.2939781103114899,0.062354304257302984,0.6882619783490787,-0.0786437330778287,-1.6210534947545903,0.028140680329058858,2.2878655663066434,0.8466275380309423,0.06226373270833701,0.6884179775783729,-0.07863937525950354,-1.6210372792796082,0.028167345702647853,2.2878312372101677,0.8466366937888992,-0.00020508133537881272,0.0006226028518834472,0.0005997504225739914,0.000241615477091414,0.0004916206360619424,0.0004047898949283081,-0.0016959925487951206,0.0,0.0,0.0,0.0,0.0,0.0,0.0,-9.057154896597447e-05,0.0001559992292942125,4.357818325154139e-06,1.62154749820953e-05,2.6665373588995178e-05,-3.4329096475715914e-05,9.155757956902377e-06,0.00020508133537881272,-0.0006226028518834472,-0.0005997504225739914,-0.000241615477091414,-0.0004916206360619424,-0.0004047898949283081,0.0016959925487951206,0.4267818331718445,47.27004623413086,1.0695464611053467,-20.947603225708008,-0.7610984444618225,-2.3266634941101074,0.25485557317733765,0
67,0.33000612258911133,-0.4505855441093445,-47.21847152709961,-1.0933501720428467,20.899995803833008,0.7849021553993225,2.3202548027038574,-0.30337852239608765,0.0,0.0,0.0,0.0,0.0,0.0,0.0,-0.43268567142270425,-0.44290031035352273,-0.19936042999901352,0.5372796075440501,0.19496724064389997,0.11288516518656906,-0.2933868907080446,0.06235598377643024,0.6882583593961993,-0.07864277122696965,-1.621050156826319,0.028138035466273657,2.2878662783834667,0.8466325636595992,0.06226373270833701,0.6884179775783729,-0.07863937525950354,-1.6210372792796082,0.028167345702647853,2.2878312372101677,0.8466366937888992,0.00010848884010198023,0.00016983440108120793,0.0002747171912772708,0.0013947949117574833,-0.00059551335940191,0.0004705342396038004,0.0005584327058834194,0.0,0.0,0.0,0.0,0.0,0.0,0.0,-9.225106809323397e-05,0.00015961818217358203,3.3959674661104833e-06,1.2877546710754473e-05,2.9310236374195664e-05,-3.5041173298999695e-05,4.1301293000062245e-06,-0.00010848884010198023,-0.00016983440108120793,-0.0002747171912772708,-0.0013947949117574833,0.00059551335940191,-0.0004705342396038004,-0.0005584327058834194,0.4505855441093445,47.21847152709961,1.0933501720428467,-20.899995803833008,-0.7849021553993225,-2.3202548027038574,0.30337852239608765,0
68,0.33499908447265625,-0.4505855441093445,-47.21847152709961,-1.0933501720428467,20.899995803833008,0.7849021553993225,2.3202548027038574,-0.30337852239608765,0.0,0.0,0.0,0.0,0.0,0.0,0.0,-0.43268567142270425,-0.44290031035352273,-0.19936042999901352,0.5372796075440501,0.19496724064389997,0.11288516518656906,-0.2933868907080446,0.06235598377643024,0.6882583593961993,-0.07864277122696965,-1.621050156826319,0.028138035466273657,2.2878662783834667,0.8466325636595992,0.06226373270833701,0.6884179775783729,-0.07863937525950354,-1.6210372792796082,0.028167345702647853,2.2878312372101677,0.8466366937888992,0.00010848884010198023,0.00016983440108120793,0.0002747171912772708,0.0013947949117574833,-0.00059551335940191,0.0004705342396038004,0.0005584327058834194,0.0,0.0,0.0,0.0,0.0,0.0,0.0,-9.225106809323397e-05,0.00015961818217358203,3.3959674661104833e-06,1.2877546710754473e-05,2.9310236374195664e-05,-3.5041173298999695e-05,4.1301293000062245e-06,-0.00010848884010198023,-0.00016983440108120793,-0.0002747171912772708,-0.0013947949117574833,0.00059551335940191,-0.0004705342396038004,-0.0005584327058834194,0.4505855441093445,47.21847152709961,1.0933501720428467,-20.899995803833008,-0.7849021553993225,-2.3202548027038574,0.30337852239608765,0
69,0.34000349044799805,-0.4783565402030945,-47.21847152709961,-1.0695464611053467,20.947603225708008,0.7665916085243225,2.3458895683288574,-0.28232139348983765,0.0,0.0,0.0,0.0,0.0,0.0,0.0,-0.440094883559428,-0.4418783440251516,-0.20271689555588038,0.5381791802844035,0.19502387095693402,0.11131390740309899,-0.2931512828808507,0.06235793261831266,0.6882583853253474,-0.07864373306716135,-1.6210534947545958,0.028140065588687285,2.2878634299146694,0.8466305896265628,0.06226373270833701,0.6884179775783729,-0.07863937525950354,-1.6210372792796082,0.028167345702647853,2.2878312372101677,0.8466366937888992,0.0002388989112863072,0.0006425289479290609,-0.000274728026645557,-0.00018933148629521947,0.0001420241267545342,-0.0006871766891993489,-0.0007420010614565782,0.0,0.0,0.0,0.0,0.0,0.0,0.0,-9.419990997565353e-05,0.00015959225302542013,4.357807657812129e-06,1.6215474987646417e-05,2.728011396056773e-05,-3.219270450172118e-05,6.104162336373342e-06,-0.0002388989112863072,-0.0006425289479290609,0.000274728026645557,0.00018933148629521947,-0.0001420241267545342,0.0006871766891993489,0.0007420010614565782,0.4783565402030945,47.21847152709961,1.0695464611053467,-20.947603225708008,-0.7665916085243225,-2.3458895683288574,0.28232139348983765,0
70,0.3450052738189697,-0.4783565402030945,-47.21847152709961,-1.0695464611053467,20.947603225708008,0.7665916085243225,2.3458895683288574,-0.28232139348983765,0.0,0.0,0.0,0.0,0.0,0.0,0.0,-0.440094883559428,-0.4418783440251516,-0.20271689555588038,0.5381791802844035,0.19502387095693402,0.11131390740309899,-0.2931512828808507,0.06235793261831266,0.6882583853253474,-0.07864373306716135,-1.6210534947545958,0.028140065588687285,2.2878634299146694,0.8466305896265628,0.06226373270833701,0.6884179775783729,-0.07863937525950354,-1.6210372792796082,0.028167345702647853,2.2878312372101677,0.8466366937888992,0.0002388989112863072,0.0006425289479290609,-0.000274728026645557,-0.00018933148629521947,0.0001420241267545342,-0.0006871766891993489,-0.0007420010614565782,0.0,0.0,0.0,0.0,0.0,0.0,0.0,-9.419990997565353e-05,0.00015959225302542013,4.357807657812129e-06,1.6215474987646417e-05,2.728011396056773e-05,-3.219270450172118e-05,6.104162336373342e-06,-0.0002388989112863072,-0.0006425289479290609,0.000274728026645557,0.00018933148629521947,-0.0001420241267545342,0.0006871766891993489,0.0007420010614565782,0.4783565402030945,47.21847152709961,1.0695464611053467,-20.947603225708008,-0.7665916085243225,-2.3458895683288574,0.28232139348983765,0
71,0.3500187397003174,-0.4783565402030945,-47.21847152709961,-1.0695464611053467,20.947603225708008,0.7665916085243225,2.3458895683288574,-0.28232139348983765,0.0,0.0,0.0,0.0,0.0,0.0,0.0,-0.440094883559428,-0.4418783440251516,-0.20271689555588038,0.5381791802844035,0.19502387095693402,0.11131390740309899,-0.2931512828808507,0.06235793261831266,0.6882583853253474,-0.07864373306716135,-1.6210534947545958,0.028140065588687285,2.2878634299146694,0.8466305896265628,0.06226373270833701,0.6884179775783729,-0.07863937525950354,-1.6210372792796082,0.028167345702647853,2.2878312372101677,0.8466366937888992,0.0002388989112863072,0.0006425289479290609,-0.000274728026645557,-0.00018933148629521947,0.0001420241267545342,-0.0006871766891993489,-0.0007420010614565782,0.0,0.0,0.0,0.0,0.0,0.0,0.0,-9.419990997565353e-05,0.00015959225302542013,4.357807657812129e-06,1.6215474987646417e-05,2.728011396056773e-05,-3.219270450172118e-05,6.104162336373342e-06,-0.0002388989112863072,-0.0006425289479290609,0.000274728026645557,0.00018933148629521947,-0.0001420241267545342,0.0006871766891993489,0.0007420010614565782,0.4783565402030945,47.21847152709961,1.0695464611053467,-20.947603225708008,-0.7665916085243225,-2.3458895683288574,0.28232139348983765,0
72,0.35500049591064453,-0.4783565402030945,-47.21847152709961,-1.0695464611053467,20.947603225708008,0.7665916085243225,2.3458895683288574,-0.28232139348983765,0.0,0.0,0.0,0.0,0.0,0.0,0.0,-0.440094883559428,-0.4418783440251516,-0.20271689555588038,0.5381791802844035,0.19502387095693402,0.11131390740309899,-0.2931512828808507,0.06235793261831266,0.6882583853253474,-0.07864373306716135,-1.6210534947545958,0.028140065588687285,2.2878634299146694,0.8466305896265628,0.06226373270833701,0.6884179775783729,-0.07863937525950354,-1.6210372792796082,0.028167345702647853,2.2878312372101677,0.8466366937888992,0.0002388989112863072,0.0006425289479290609,-0.000274728026645557,-0.00018933148629521947,0.0001420241267545342,-0.0006871766891993489,-0.0007420010614565782,0.0,0.0,0.0,0.0,0.0,0.0,0.0,-9.419990997565353e-05,0.00015959225302542013,4.357807657812129e-06,1.6215474987646417e-05,2.728011396056773e-05,-3.219270450172118e-05,6.104162336373342e-06,-0.0002388989112863072,-0.0006425289479290609,0.000274728026645557,0.00018933148629521947,-0.0001420241267545342,0.0006871766891993489,0.0007420010614565782,0.4783565402030945,47.21847152709961,1.0695464611053467,-20.947603225708008,-0.7665916085243225,-2.3458895683288574,0.28232139348983765,0
73,0.36002326011657715,-0.4505855441093445,-47.17086410522461,-1.0695464611053467,20.899995803833008,0.7730002999305725,2.3330721855163574,-0.29605430364608765,0.0,0.0,0.0,0.0,0.0,0.0,0.0,-0.42698314599282083,-0.4440133851341036,-0.1894461274434171,0.5410946588044411,0.19453161913981593,0.1111870938363657,-0.29408385860563974,0.06235595652695675,0.6882548063843621,-0.07864373594601104,-1.6210501538828797,0.028139357894634297,2.2878648537453032,0.8466289372377889,0.06226373270833701,0.6884179775783729,-0.07863937525950354,-1.6210372792796082,0.028167345702647853,2.2878312372101677,0.8466366937888992,0.00015457942973943223,-0.0011280818527526601,1.583405694502542e-05,0.0010187037689053605,-5.566626658915598e-05,-0.000389144152636717,-6.198336528716187e-05,0.0,0.0,0.0,0.0,0.0,0.0,0.0,-9.222381861974382e-05,0.0001631711940107694,4.360686507498546e-06,1.2874603271484375e-05,2.798780801355552e-05,-3.3616535135561065e-05,7.756551110293941e-06,-0.00015457942973943223,0.0011280818527526601,-1.583405694502542e-05,-0.0010187037689053605,5.566626658915598e-05,0.000389144152636717,6.198336528716187e-05,0.4505855441093445,47.17086410522461,1.0695464611053467,-20.899995803833008,-0.7730002999305725,-2.3330721855163574,0.29605430364608765,0
74,0.3649938106536865,-0.4505855441093445,-47.17086410522461,-1.0695464611053467,20.899995803833008,0.7730002999305725,2.3330721855163574,-0.29605430364608765,0.0,0.0,0.0,0.0,0.0,0.0,0.0,-0.42698314599282083,-0.4440133851341036,-0.1894461274434171,0.5410946588044411,0.19453161913981593,0.1111870938363657,-0.29408385860563974,0.06235595652695675,0.6882548063843621,-0.07864373594601104,-1.6210501538828797,0.028139357894634297,2.2878648537453032,0.8466289372377889,0.06226373270833701,0.6884179775783729,-0.07863937525950354,-1.6210372792796082,0.028167345702647853,2.2878312372101677,0.8466366937888992,0.00015457942973943223,-0.0011280818527526601,1.583405694502542e-05,0.0010187037689053605,-5.566626658915598e-05,-0.000389144152636717,-6.198336528716187e-05,0.0,0.0,0.0,0.0,0.0,0.0,0.0,-9.222381861974382e-05,0.0001631711940107694,4.360686507498546e-06,1.2874603271484375e-05,2.798780801355552e-05,-3.3616535135561065e-05,7.756551110293941e-06,-0.00015457942973943223,0.0011280818527526601,-1.583405694502542e-05,-0.0010187037689053605,5.566626658915598e-05,0.000389144152636717,6.198336528716187e-05,0.4505855441093445,47.17086410522461,1.0695464611053467,-20.899995803833008,-0.7730002999305725,-2.3330721855163574,0.29605430364608765,0
75,0.3700082302093506,-0.4267818331718445,-47.24624252319336,-1.0417754650115967,20.947603225708008,0.7730002999305725,2.3394808769226074,-0.26217979192733765,0.0,0.0,0.0,0.0,0.0,0.0,0.0,-0.43639912787733354,-0.4504341202111167,-0.19788209977953475,0.5463959559764762,0.19405521328492964,0.11183155644791336,-0.294167849940714,0.062354313340472436,0.6882575166020674,-0.07864780777067024,-1.6210534947545903,0.028139357894659038,2.287864142152995,0.8466283522457649,0.06226373270833701,0.6884179775783729,-0.07863937525950354,-1.6210372792796082,0.028167345702647853,2.2878312372101677,0.8466366937888992,-2.4408497653444235e-05,0.00045535297456983045,-0.0010297950528777406,0.000346761186240886,-7.402250781022497e-05,-0.00010467371013060478,-0.0014394979050683296,0.0,0.0,0.0,0.0,0.0,0.0,0.0,-9.058063213542716e-05,0.00016046097630550982,8.432511166694967e-06,1.62154749820953e-05,2.7987807988814895e-05,-3.2904942827372e-05,8.34154313422708e-06,2.4408497653444235e-05,-0.00045535297456983045,0.0010297950528777406,-0.000346761186240886,7.402250781022497e-05,0.00010467371013060478,0.0014394979050683296,0.4267818331718445,47.24624252319336,1.0417754650115967,-20.947603225708008,-0.7730002999305725,-2.3394808769226074,0.26217979192733765,0
76,0.3750007152557373,-0.4267818331718445,-47.24624252319336,-1.0417754650115967,20.947603225708008,0.7730002999305725,2.3394808769226074,-0.26217979192733765,0.0,0.0,0.0,0.0,0.0,0.0,0.0,-0.43639912787733354,-0.4504341202111167,-0.19788209977953475,0.5463959559764762,0.19405521328492964,0.11183155644791336,-0.294167849940714,0.062354313340472436,0.6882575166020674,-0.07864780777067024,-1.6210534947545903,0.028139357894659038,2.287864142152995,0.8466283522457649,0.06226373270833701,0.6884179775783729,-0.07863937525950354,-1.6210372792796082,0.028167345702647853,2.2878312372101677,0.8466366937888992,-2.4408497653444235e-05,0.00045535297456983045,-0.0010297950528777406,0.000346761186240886,-7.402250781022497e-05,-0.00010467371013060478,-0.0014394979050683296,0.0,0.0,0.0,0.0,0.0,0.0,0.0,-9.058063213542716e-05,0.00016046097630550982,8.432511166694967e-06,1.62154749820953e-05,2.7987807988814895e-05,-3.2904942827372e-05,8.34154313422708e-06,2.4408497653444235e-05,-0.00045535297456983045,0.0010297950528777406,-0.000346761186240886,7.402250781022497e-05,0.00010467371013060478,0.0014394979050683296,0.4267818331718445,47.24624252319336,1.0417754650115967,-20.947603225708008,-0.7730002999305725,-2.3394808769226074,0.26217979192733765,0
77,0.37999844551086426,-0.4505855441093445,-47.24624252319336,-1.0695464611053467,20.947603225708008,0.7730002999305725,2.3330721855163574,-0.27591270208358765,0.0,0.0,0.0,0.0,0.0,0.0,0.0,-0.4434881590931955,-0.4481971739909479,-0.20522072986526815,0.5459779056970295,0.19392516963920975,0.11327687736896971,-0.2938497459021423,0.06235594841697914,0.6882582281918713,-0.07864373304182641,-1.6210534947545903,0.028139357894659038,2.2878648542298206,0.8466298651144988,0.06226373270833701,0.6884179775783729,-0.07863937525950354,-1.6210372792796082,0.028167345702647853,2.2878312372101677,0.8466366937888992,0.0003112266077067304,0.00016285595419074914,5.4837647350838716e-05,0.00019776326575931383,-1.0884913485254752e-05,2.1364469503590354e-05,-0.0007557168779448044,0.0,0.0,0.0,0.0,0.0,0.0,0.0,-9.221570864213074e-05,0.0001597493865015398,4.357782322869652e-06,1.62154749820953e-05,2.7987807988814895e-05,-3.361701965287622e-05,6.82867440038315e-06,-0.0003112266077067304,-0.00016285595419074914,-5.4837647350838716e-05,-0.00019776326575931383,1.0884913485254752e-05,-2.1364469503590354e-05,0.0007557168779448044,0.4505855441093445,47.24624252319336,1.0695464611053467,-20.947603225708008,-0.7730002999305725,-2.3330721855163574,0.27591270208358765,0
78,0.3849966526031494,-0.4505855441093445,-47.24624252319336,-1.0695464611053467,20.947603225708008,0.7730002999305725,2.3330721855163574,-0.27591270208358765,0.0,0.0,0.0,0.0,0.0,0.0,0.0,-0.4434881590931955,-0.4481971739909479,-0.20522072986526815,0.5459779056970295,0.19392516963920975,0.11327687736896971,-0.2938497459021423,0.06235594841697914,0.6882582281918713,-0.07864373304182641,-1.6210534947545903,0.028139357894659038,2.2878648542298206,0.8466298651144988,0.06226373270833701,0.6884179775783729,-0.07863937525950354,-1.6210372792796082,0.028167345702647853,2.2878312372101677,0.8466366937888992,0.0003112266077067304,0.00016285595419074914,5.4837647350838716e-05,0.00019776326575931383,-1.0884913485254752e-05,2.1364469503590354e-05,-0.0007557168779448044,0.0,0.0,0.0,0.0,0.0,0.0,0.0,-9.221570864213074e-05,0.0001597493865015398,4.357782322869652e-06,1.62154749820953e-05,2.7987807988814895e-05,-3.361701965287622e-05,6.82867440038315e-06,-0.0003112266077067304,-0.00016285595419074914,-5.4837647350838716e-05,-0.00019776326575931383,1.0884913485254752e-05,-2.1364469503590354e-05,0.0007557168779448044,0.4505855441093445,47.24624252319336,1.0695464611053467,-20.947603225708008,-0.7730002999305725,-2.3330721855163574,0.27591270208358765,0
79,0.39003586769104004,-0.4267818331718445,-47.21847152709961,-1.0695464611053467,20.975374221801758,0.7730002999305725,2.3202548027038574,-0.30978721380233765,0.0,0.0,0.0,0.0,0.0,0.0,0.0,-0.433625727181916,-0.4427407519573139,-0.1963632830318466,0.5428658346151124,0.19447765688114052,0.113181495469655,-0.294433942113294,0.06235217619912698,0.6882582987525716,-0.07864373302982572,-1.6210554435964215,0.02814255419373512,2.2878662653015147,0.8466336376703623,0.06226373270833701,0.6884179775783729,-0.07863937525950354,-1.6210372792796082,0.028167345702647853,2.2878312372101677,0.8466366937888992,-3.840160548447746e-05,-0.00015226071635338122,0.0005410006050773073,-0.0006880920157893395,0.00015190532223382345,0.0003427531049569215,0.0005130510724871168,0.0,0.0,0.0,0.0,0.0,0.0,0.0,-8.844349078997171e-05,0.00015967882580125714,4.3577703221775455e-06,1.816431681334052e-05,2.4791508912734572e-05,-3.502809134703355e-05,3.0561185369037958e-06,3.840160548447746e-05,0.00015226071635338122,-0.0005410006050773073,0.0006880920157893395,-0.00015190532223382345,-0.0003427531049569215,-0.0005130510724871168,0.4267818331718445,47.21847152709961,1.0695464611053467,-20.975374221801758,-0.7730002999305725,-2.3202548027038574,0.30978721380233765,0
