rezayati/contactInterpretation/dataset/franka_main/labeled_data/link5/c2_4.csv
index,time,tau_J0,tau_J1,tau_J2,tau_J3,tau_J4,tau_J5,tau_J6,tau_J_d0,tau_J_d1,tau_J_d2,tau_J_d3,tau_J_d4,tau_J_d5,tau_J_d6,tau_ext0,tau_ext1,tau_ext2,tau_ext3,tau_ext4,tau_ext5,tau_ext6,q0,q1,q2,q3,q4,q5,q6,q_d0,q_d1,q_d2,q_d3,q_d4,q_d5,q_d6,dq0,dq1,dq2,dq3,dq4,dq5,dq6,dq_d0,dq_d1,dq_d2,dq_d3,dq_d4,dq_d5,dq_d6,e0,e1,e2,e3,e4,e5,e6,de0,de1,de2,de3,de4,de5,de6,etau_J0,etau_J1,etau_J2,etau_J3,etau_J4,etau_J5,etau_J6,label
1,0.0,-0.24825400114059448,-19.792627334594727,-0.2998931109905243,19.955781936645508,0.5047507882118225,2.4758944511413574,-0.28232139348983765,0.0,0.0,0.0,0.0,0.0,0.0,0.0,-0.2241135111197666,-0.07651883827616432,-0.0921585791765512,0.16277757496821793,-0.06997242603325445,0.09537193971359971,-0.243505056047111,1.2133866716308157,-0.22037355184973328,-0.0076456640956590344,-2.6037895029636853,-0.10886326722303291,2.4681828379109767,0.8264784182752064,1.2134413937687574,-0.2202432315892585,-0.0075118285948192216,-2.6038483821997875,-0.10888392708698907,2.4681821257803174,0.826474908251239,0.0008657593481999398,-0.0006887963054851836,0.000652822136658111,-0.000502893973454284,0.0003379206737453732,-0.00020524917383123425,0.0015671655489412266,0.0,0.0,0.0,0.0,0.0,0.0,0.0,5.472213794166514e-05,0.00013032026047479772,0.00013383550083981288,-5.8879236102260535e-05,-2.0659863956162816e-05,-7.121306593305121e-07,-3.5100239673679923e-06,-0.0008657593481999398,0.0006887963054851836,-0.000652822136658111,0.000502893973454284,-0.0003379206737453732,0.00020524917383123425,-0.0015671655489412266,0.24825400114059448,19.792627334594727,0.2998931109905243,-19.955781936645508,-0.5047507882118225,-2.4758944511413574,0.28232139348983765,0
2,0.004998683929443359,-0.24825400114059448,-19.792627334594727,-0.2998931109905243,19.955781936645508,0.5047507882118225,2.4758944511413574,-0.28232139348983765,0.0,0.0,0.0,0.0,0.0,0.0,0.0,-0.2241135111197666,-0.07651883827616432,-0.0921585791765512,0.16277757496821793,-0.06997242603325445,0.09537193971359971,-0.243505056047111,1.2133866716308157,-0.22037355184973328,-0.0076456640956590344,-2.6037895029636853,-0.10886326722303291,2.4681828379109767,0.8264784182752064,1.2134413937687574,-0.2202432315892585,-0.0075118285948192216,-2.6038483821997875,-0.10888392708698907,2.4681821257803174,0.826474908251239,0.0008657593481999398,-0.0006887963054851836,0.000652822136658111,-0.000502893973454284,0.0003379206737453732,-0.00020524917383123425,0.0015671655489412266,0.0,0.0,0.0,0.0,0.0,0.0,0.0,5.472213794166514e-05,0.00013032026047479772,0.00013383550083981288,-5.8879236102260535e-05,-2.0659863956162816e-05,-7.121306593305121e-07,-3.5100239673679923e-06,-0.0008657593481999398,0.0006887963054851836,-0.000652822136658111,0.000502893973454284,-0.0003379206737453732,0.00020524917383123425,-0.0015671655489412266,0.24825400114059448,19.792627334594727,0.2998931109905243,-19.955781936645508,-0.5047507882118225,-2.4758944511413574,0.28232139348983765,0
3,0.00999307632446289,-0.17287558317184448,-19.844202041625977,-0.2721221148967743,19.955781936645508,0.5102439522743225,2.4630770683288574,-0.26858848333358765,0.0,0.0,0.0,0.0,0.0,0.0,0.0,-0.22600219963942972,-0.08215501060036434,-0.09347751530844536,0.16838151071496996,-0.06955682773009682,0.09644160178661965,-0.2432426894061893,1.213381381602482,-0.2203699325720469,-0.00764761261276169,-2.6037895029636853,-0.10886387757460277,2.4681846283054485,0.8264768872130115,1.2134413937687574,-0.2202432315892585,-0.0075118285948192216,-2.6038483821997875,-0.10888392708698907,2.4681821257803174,0.826474908251239,-0.0014600983972635775,0.00023324749696013996,-0.0005623294549669229,-7.27519753774875e-05,0.000338707256384992,0.00036894237064188386,0.0010045646807839092,0.0,0.0,0.0,0.0,0.0,0.0,0.0,6.001216627526951e-05,0.00012670098278841357,0.0001357840179424686,-5.8879236102260535e-05,-2.0049512386308144e-05,-2.502525131120592e-06,-1.9789617724530473e-06,0.0014600983972635775,-0.00023324749696013996,0.0005623294549669229,7.27519753774875e-05,-0.000338707256384992,-0.00036894237064188386,-0.0010045646807839092,0.17287558317184448,19.844202041625977,0.2721221148967743,-19.955781936645508,-0.5102439522743225,-2.4630770683288574,0.26858848333358765,0
4,0.014991998672485352,-0.17287558317184448,-19.844202041625977,-0.2721221148967743,19.955781936645508,0.5102439522743225,2.4630770683288574,-0.26858848333358765,0.0,0.0,0.0,0.0,0.0,0.0,0.0,-0.22600219963942972,-0.08215501060036434,-0.09347751530844536,0.16838151071496996,-0.06955682773009682,0.09644160178661965,-0.2432426894061893,1.213381381602482,-0.2203699325720469,-0.00764761261276169,-2.6037895029636853,-0.10886387757460277,2.4681846283054485,0.8264768872130115,1.2134413937687574,-0.2202432315892585,-0.0075118285948192216,-2.6038483821997875,-0.10888392708698907,2.4681821257803174,0.826474908251239,-0.0014600983972635775,0.00023324749696013996,-0.0005623294549669229,-7.27519753774875e-05,0.000338707256384992,0.00036894237064188386,0.0010045646807839092,0.0,0.0,0.0,0.0,0.0,0.0,0.0,6.001216627526951e-05,0.00012670098278841357,0.0001357840179424686,-5.8879236102260535e-05,-2.0049512386308144e-05,-2.502525131120592e-06,-1.9789617724530473e-06,0.0014600983972635775,-0.00023324749696013996,0.0005623294549669229,7.27519753774875e-05,-0.000338707256384992,-0.00036894237064188386,-0.0010045646807839092,0.17287558317184448,19.844202041625977,0.2721221148967743,-19.955781936645508,-0.5102439522743225,-2.4630770683288574,0.26858848333358765,0
5,0.019991159439086914,-0.19667929410934448,-19.792627334594727,-0.3236968219280243,19.955781936645508,0.5047507882118225,2.4694857597351074,-0.22098104655742645,0.0,0.0,0.0,0.0,0.0,0.0,0.0,-0.22695275499428877,-0.07661612069097426,-0.0944927192713071,0.1639488439637675,-0.06859010370111703,0.09616273526422356,-0.2430227156829335,1.2133830523532714,-0.22037355184973328,-0.007646123890683316,-2.6037895029636853,-0.10886326722304027,2.468183549936031,0.8264725389676627,1.2134413937687574,-0.2202432315892585,-0.0075118285948192216,-2.6038483821997875,-0.10888392708698907,2.4681821257803174,0.826474908251239,-0.0007057718445907928,-0.0007205504309699314,0.0001624186713602837,-0.0003936335450025117,0.000641125596929695,2.4178916695195217e-05,-0.0007435939102518473,0.0,0.0,0.0,0.0,0.0,0.0,0.0,5.834141548599625e-05,0.00013032026047479772,0.00013429529586409406,-5.8879236102260535e-05,-2.065986394880759e-05,-1.4241557138028327e-06,2.3692835763311493e-06,0.0007057718445907928,0.0007205504309699314,-0.0001624186713602837,0.0003936335450025117,-0.000641125596929695,-2.4178916695195217e-05,0.0007435939102518473,0.19667929410934448,19.792627334594727,0.3236968219280243,-19.955781936645508,-0.5047507882118225,-2.4694857597351074,0.22098104655742645,0
6,0.025019168853759766,-0.19667929410934448,-19.792627334594727,-0.3236968219280243,19.955781936645508,0.5047507882118225,2.4694857597351074,-0.22098104655742645,0.0,0.0,0.0,0.0,0.0,0.0,0.0,-0.22695275499428877,-0.07661612069097426,-0.0944927192713071,0.1639488439637675,-0.06859010370111703,0.09616273526422356,-0.2430227156829335,1.2133830523532714,-0.22037355184973328,-0.007646123890683316,-2.6037895029636853,-0.10886326722304027,2.468183549936031,0.8264725389676627,1.2134413937687574,-0.2202432315892585,-0.0075118285948192216,-2.6038483821997875,-0.10888392708698907,2.4681821257803174,0.826474908251239,-0.0007057718445907928,-0.0007205504309699314,0.0001624186713602837,-0.0003936335450025117,0.000641125596929695,2.4178916695195217e-05,-0.0007435939102518473,0.0,0.0,0.0,0.0,0.0,0.0,0.0,5.834141548599625e-05,0.00013032026047479772,0.00013429529586409406,-5.8879236102260535e-05,-2.065986394880759e-05,-1.4241557138028327e-06,2.3692835763311493e-06,0.0007057718445907928,0.0007205504309699314,-0.0001624186713602837,0.0003936335450025117,-0.000641125596929695,-2.4178916695195217e-05,0.0007435939102518473,0.19667929410934448,19.792627334594727,0.3236968219280243,-19.955781936645508,-0.5047507882118225,-2.4694857597351074,0.22098104655742645,0
7,0.0299990177154541,-0.19667929410934448,-19.844202041625977,-0.2998931109905243,19.983552932739258,0.5166526436805725,2.4630770683288574,-0.22098104655742645,0.0,0.0,0.0,0.0,0.0,0.0,0.0,-0.22115136306648417,-0.0763573918068299,-0.09303886484196609,0.16354431895382082,-0.06812827180973614,0.09645206039241352,-0.24320308821807565,1.2133828227650119,-0.2203699325720469,-0.0076456638791721565,-2.6037914518055163,-0.10886458965142568,2.468184615223496,0.826471444784405,1.2134413937687574,-0.2202432315892585,-0.0075118285948192216,-2.6038483821997875,-0.10888392708698907,2.4681821257803174,0.826474908251239,-0.0005018456664057661,0.0007602504137989086,9.82574448695851e-05,-0.0012876988307874797,0.000131852485641978,0.0003337852495853033,-0.0007257087446980932,0.0,0.0,0.0,0.0,0.0,0.0,0.0,5.857100374551116e-05,0.00012670098278841357,0.00013383528435293498,-5.693039427123736e-05,-1.9337435563399064e-05,-2.48944317871036e-06,3.4634668339972308e-06,0.0005018456664057661,-0.0007602504137989086,-9.82574448695851e-05,0.0012876988307874797,-0.000131852485641978,-0.0003337852495853033,0.0007257087446980932,0.19667929410934448,19.844202041625977,0.2998931109905243,-19.983552932739258,-0.5166526436805725,-2.4630770683288574,0.22098104655742645,0
8,0.035005807876586914,-0.19667929410934448,-19.844202041625977,-0.2998931109905243,19.983552932739258,0.5166526436805725,2.4630770683288574,-0.22098104655742645,0.0,0.0,0.0,0.0,0.0,0.0,0.0,-0.22115136306648417,-0.0763573918068299,-0.09303886484196609,0.16354431895382082,-0.06812827180973614,0.09645206039241352,-0.24320308821807565,1.2133828227650119,-0.2203699325720469,-0.0076456638791721565,-2.6037914518055163,-0.10886458965142568,2.468184615223496,0.826471444784405,1.2134413937687574,-0.2202432315892585,-0.0075118285948192216,-2.6038483821997875,-0.10888392708698907,2.4681821257803174,0.826474908251239,-0.0005018456664057661,0.0007602504137989086,9.82574448695851e-05,-0.0012876988307874797,0.000131852485641978,0.0003337852495853033,-0.0007257087446980932,0.0,0.0,0.0,0.0,0.0,0.0,0.0,5.857100374551116e-05,0.00012670098278841357,0.00013383528435293498,-5.693039427123736e-05,-1.9337435563399064e-05,-2.48944317871036e-06,3.4634668339972308e-06,0.0005018456664057661,-0.0007602504137989086,-9.82574448695851e-05,0.0012876988307874797,-0.000131852485641978,-0.0003337852495853033,0.0007257087446980932,0.19667929410934448,19.844202041625977,0.2998931109905243,-19.983552932739258,-0.5166526436805725,-2.4630770683288574,0.22098104655742645,0
9,0.039991140365600586,-0.22445029020309448,-19.816431045532227,-0.2998931109905243,19.908174514770508,0.5102439522743225,2.4630770683288574,-0.21457235515117645,0.0,0.0,0.0,0.0,0.0,0.0,0.0,-0.22270381415586418,-0.07661703143717709,-0.09755587413002657,0.16458186524902124,-0.06830889929417949,0.09696623682134227,-0.24220157104694334,1.2133850008447435,-0.22037188141387803,-0.007645663770928921,-2.603786187601781,-0.10886387806139068,2.4681846195848114,0.8264735541908389,1.2134413937687574,-0.2202432315892585,-0.0075118285948192216,-2.6038483821997875,-0.10888392708698907,2.4681821257803174,0.826474908251239,7.476288714206303e-05,8.931409371136349e-05,-0.00011682111757211646,0.0007604323226627553,0.00013797267696379067,5.6432485324020234e-05,-0.0009778382994949032,0.0,0.0,0.0,0.0,0.0,0.0,0.0,5.639292401382612e-05,0.00012864982461954777,0.00013383517610969942,-6.219459800638205e-05,-2.004902559839261e-05,-2.4938044940192583e-06,1.3540604001383016e-06,-7.476288714206303e-05,-8.931409371136349e-05,0.00011682111757211646,-0.0007604323226627553,-0.00013797267696379067,-5.6432485324020234e-05,0.0009778382994949032,0.22445029020309448,19.816431045532227,0.2998931109905243,-19.908174514770508,-0.5102439522743225,-2.4630770683288574,0.21457235515117645,0
10,0.044992685317993164,-0.22445029020309448,-19.816431045532227,-0.2998931109905243,19.908174514770508,0.5102439522743225,2.4630770683288574,-0.21457235515117645,0.0,0.0,0.0,0.0,0.0,0.0,0.0,-0.22270381415586418,-0.07661703143717709,-0.09755587413002657,0.16458186524902124,-0.06830889929417949,0.09696623682134227,-0.24220157104694334,1.2133850008447435,-0.22037188141387803,-0.007645663770928921,-2.603786187601781,-0.10886387806139068,2.4681846195848114,0.8264735541908389,1.2134413937687574,-0.2202432315892585,-0.0075118285948192216,-2.6038483821997875,-0.10888392708698907,2.4681821257803174,0.826474908251239,7.476288714206303e-05,8.931409371136349e-05,-0.00011682111757211646,0.0007604323226627553,0.00013797267696379067,5.6432485324020234e-05,-0.0009778382994949032,0.0,0.0,0.0,0.0,0.0,0.0,0.0,5.639292401382612e-05,0.00012864982461954777,0.00013383517610969942,-6.219459800638205e-05,-2.004902559839261e-05,-2.4938044940192583e-06,1.3540604001383016e-06,-7.476288714206303e-05,-8.931409371136349e-05,0.00011682111757211646,-0.0007604323226627553,-0.00013797267696379067,-5.6432485324020234e-05,0.0009778382994949032,0.22445029020309448,19.816431045532227,0.2998931109905243,-19.908174514770508,-0.5102439522743225,-2.4630770683288574,0.21457235515117645,0
11,0.050034284591674805,-0.24825400114059448,-19.844202041625977,-0.2998931109905243,19.931978225708008,0.5221458077430725,2.4694857597351074,-0.24844686686992645,0.0,0.0,0.0,0.0,0.0,0.0,0.0,-0.2222234549803064,-0.07603985659972105,-0.09842960694229191,0.16182225706696396,-0.06915046584321824,0.09632346987746748,-0.24196283995525533,1.2133866716309578,-0.2203699325720469,-0.007645663770928717,-2.6037878325279737,-0.10886520000299092,2.468183590635389,0.8264753702854198,1.2134413937687574,-0.2202432315892585,-0.0075118285948192216,-2.6038483821997875,-0.10888392708698907,2.4681821257803174,0.826474908251239,0.0007444919821213297,0.0005878072561852798,-0.0001788827668310904,-0.00024004790590710626,-0.00033787843664596,2.7644665706046465e-05,3.9052564144325714e-05,0.0,0.0,0.0,0.0,0.0,0.0,0.0,5.472213779955659e-05,0.00012670098278841357,0.0001338351761094956,-6.0549671813792116e-05,-1.8727083998151817e-05,-1.4648550714646547e-06,-4.620341808037054e-07,-0.0007444919821213297,-0.0005878072561852798,0.0001788827668310904,0.00024004790590710626,0.00033787843664596,-2.7644665706046465e-05,-3.9052564144325714e-05,0.24825400114059448,19.844202041625977,0.2998931109905243,-19.931978225708008,-0.5221458077430725,-2.4694857597351074,0.24844686686992645,0
12,0.054991722106933594,-0.24825400114059448,-19.844202041625977,-0.2998931109905243,19.931978225708008,0.5221458077430725,2.4694857597351074,-0.24844686686992645,0.0,0.0,0.0,0.0,0.0,0.0,0.0,-0.2222234549803064,-0.07603985659972105,-0.09842960694229191,0.16182225706696396,-0.06915046584321824,0.09632346987746748,-0.24196283995525533,1.2133866716309578,-0.2203699325720469,-0.007645663770928717,-2.6037878325279737,-0.10886520000299092,2.468183590635389,0.8264753702854198,1.2134413937687574,-0.2202432315892585,-0.0075118285948192216,-2.6038483821997875,-0.10888392708698907,2.4681821257803174,0.826474908251239,0.0007444919821213297,0.0005878072561852798,-0.0001788827668310904,-0.00024004790590710626,-0.00033787843664596,2.7644665706046465e-05,3.9052564144325714e-05,0.0,0.0,0.0,0.0,0.0,0.0,0.0,5.472213779955659e-05,0.00012670098278841357,0.0001338351761094956,-6.0549671813792116e-05,-1.8727083998151817e-05,-1.4648550714646547e-06,-4.620341808037054e-07,-0.0007444919821213297,-0.0005878072561852798,0.0001788827668310904,0.00024004790590710626,0.00033787843664596,-2.7644665706046465e-05,-3.9052564144325714e-05,0.24825400114059448,19.844202041625977,0.2998931109905243,-19.931978225708008,-0.5221458077430725,-2.4694857597351074,0.24844686686992645,0
13,0.060004472732543945,-0.22445029020309448,-19.844202041625977,-0.2998931109905243,19.955781936645508,0.5166526436805725,2.4694857597351074,-0.23471395671367645,0.0,0.0,0.0,0.0,0.0,0.0,0.0,-0.22407364227684412,-0.08007811119525303,-0.10088945282920832,0.16357090428898696,-0.06890809917285695,0.09670096339097643,-0.24207726524944226,1.2133849926918354,-0.2203699325720469,-0.007645663770928717,-2.6037895029636853,-0.10886458965142568,2.468183549934193,0.8264738428881331,1.2134413937687574,-0.2202432315892585,-0.0075118285948192216,-2.6038483821997875,-0.10888392708698907,2.4681821257803174,0.826474908251239,4.583765353852275e-06,0.00026911305692069144,0.00021080020492693748,-0.0004195567098402686,-0.003344153862056767,2.961915379659588e-05,-0.0006689842548738424,0.0,0.0,0.0,0.0,0.0,0.0,0.0,5.640107692195251e-05,0.00012670098278841357,0.0001338351761094956,-5.8879236102260535e-05,-1.9337435563399064e-05,-1.4241538757175931e-06,1.0653631059565072e-06,-4.583765353852275e-06,-0.00026911305692069144,-0.00021080020492693748,0.0004195567098402686,0.003344153862056767,-2.961915379659588e-05,0.0006689842548738424,0.22445029020309448,19.844202041625977,0.2998931109905243,-19.955781936645508,-0.5166526436805725,-2.4694857597351074,0.23471395671367645,0
14,0.06503009796142578,-0.22445029020309448,-19.844202041625977,-0.2998931109905243,19.955781936645508,0.5166526436805725,2.4694857597351074,-0.23471395671367645,0.0,0.0,0.0,0.0,0.0,0.0,0.0,-0.22407364227684412,-0.08007811119525303,-0.10088945282920832,0.16357090428898696,-0.06890809917285695,0.09670096339097643,-0.24207726524944226,1.2133849926918354,-0.2203699325720469,-0.007645663770928717,-2.6037895029636853,-0.10886458965142568,2.468183549934193,0.8264738428881331,1.2134413937687574,-0.2202432315892585,-0.0075118285948192216,-2.6038483821997875,-0.10888392708698907,2.4681821257803174,0.826474908251239,4.583765353852275e-06,0.00026911305692069144,0.00021080020492693748,-0.0004195567098402686,-0.003344153862056767,2.961915379659588e-05,-0.0006689842548738424,0.0,0.0,0.0,0.0,0.0,0.0,0.0,5.640107692195251e-05,0.00012670098278841357,0.0001338351761094956,-5.8879236102260535e-05,-1.9337435563399064e-05,-1.4241538757175931e-06,1.0653631059565072e-06,-4.583765353852275e-06,-0.00026911305692069144,-0.00021080020492693748,0.0004195567098402686,0.003344153862056767,-2.961915379659588e-05,0.0006689842548738424,0.22445029020309448,19.844202041625977,0.2998931109905243,-19.955781936645508,-0.5166526436805725,-2.4694857597351074,0.23471395671367645,0
15,0.06994104385375977,-0.22445029020309448,-19.844202041625977,-0.2998931109905243,19.955781936645508,0.5166526436805725,2.4694857597351074,-0.23471395671367645,0.0,0.0,0.0,0.0,0.0,0.0,0.0,-0.22407364227684412,-0.08007811119525303,-0.10088945282920832,0.16357090428898696,-0.06890809917285695,0.09670096339097643,-0.24207726524944226,1.2133849926918354,-0.2203699325720469,-0.007645663770928717,-2.6037895029636853,-0.10886458965142568,2.468183549934193,0.8264738428881331,1.2134413937687574,-0.2202432315892585,-0.0075118285948192216,-2.6038483821997875,-0.10888392708698907,2.4681821257803174,0.826474908251239,4.583765353852275e-06,0.00026911305692069144,0.00021080020492693748,-0.0004195567098402686,-0.003344153862056767,2.961915379659588e-05,-0.0006689842548738424,0.0,0.0,0.0,0.0,0.0,0.0,0.0,5.640107692195251e-05,0.00012670098278841357,0.0001338351761094956,-5.8879236102260535e-05,-1.9337435563399064e-05,-1.4241538757175931e-06,1.0653631059565072e-06,-4.583765353852275e-06,-0.00026911305692069144,-0.00021080020492693748,0.0004195567098402686,0.003344153862056767,-2.961915379659588e-05,0.0006689842548738424,0.22445029020309448,19.844202041625977,0.2998931109905243,-19.955781936645508,-0.5166526436805725,-2.4694857597351074,0.23471395671367645,0
16,0.07499051094055176,-0.22445029020309448,-19.844202041625977,-0.2998931109905243,19.955781936645508,0.5166526436805725,2.4694857597351074,-0.23471395671367645,0.0,0.0,0.0,0.0,0.0,0.0,0.0,-0.22407364227684412,-0.08007811119525303,-0.10088945282920832,0.16357090428898696,-0.06890809917285695,0.09670096339097643,-0.24207726524944226,1.2133849926918354,-0.2203699325720469,-0.007645663770928717,-2.6037895029636853,-0.10886458965142568,2.468183549934193,0.8264738428881331,1.2134413937687574,-0.2202432315892585,-0.0075118285948192216,-2.6038483821997875,-0.10888392708698907,2.4681821257803174,0.826474908251239,4.583765353852275e-06,0.00026911305692069144,0.00021080020492693748,-0.0004195567098402686,-0.003344153862056767,2.961915379659588e-05,-0.0006689842548738424,0.0,0.0,0.0,0.0,0.0,0.0,0.0,5.640107692195251e-05,0.00012670098278841357,0.0001338351761094956,-5.8879236102260535e-05,-1.9337435563399064e-05,-1.4241538757175931e-06,1.0653631059565072e-06,-4.583765353852275e-06,-0.00026911305692069144,-0.00021080020492693748,0.0004195567098402686,0.003344153862056767,-2.961915379659588e-05,0.0006689842548738424,0.22445029020309448,19.844202041625977,0.2998931109905243,-19.955781936645508,-0.5166526436805725,-2.4694857597351074,0.23471395671367645,0
17,0.08002328872680664,-0.22445029020309448,-19.868005752563477,-0.2998931109905243,19.931978225708008,0.5102439522743225,2.4694857597351074,-0.24112264811992645,0.0,0.0,0.0,0.0,0.0,0.0,0.0,-0.22079541697103908,-0.07819595557619968,-0.09729544502508786,0.16163536293004632,-0.07008539418820128,0.09711671290535566,-0.2434093315564889,1.2133843124302721,-0.22036826213619162,-0.007646373956132004,-2.603789898822182,-0.10886387757460277,2.4681836676715334,0.8264747507635491,1.2134413937687574,-0.2202432315892585,-0.0075118285948192216,-2.6038483821997875,-0.10888392708698907,2.4681821257803174,0.826474908251239,4.633690404595065e-05,0.001122009447693079,0.0003466479186458784,0.0006445182690817053,0.000244006275484604,4.0241915309016036e-05,8.54945055312575e-05,0.0,0.0,0.0,0.0,0.0,0.0,0.0,5.708133848525421e-05,0.00012503054693313587,0.00013454536131278245,-5.848337760561151e-05,-2.0049512386308144e-05,-1.541891216039204e-06,1.57487689889102e-07,-4.633690404595065e-05,-0.001122009447693079,-0.0003466479186458784,-0.0006445182690817053,-0.000244006275484604,-4.0241915309016036e-05,-8.54945055312575e-05,0.22445029020309448,19.868005752563477,0.2998931109905243,-19.931978225708008,-0.5102439522743225,-2.4694857597351074,0.24112264811992645,0
18,0.08502364158630371,-0.22445029020309448,-19.868005752563477,-0.2998931109905243,19.931978225708008,0.5102439522743225,2.4694857597351074,-0.24112264811992645,0.0,0.0,0.0,0.0,0.0,0.0,0.0,-0.22079541697103908,-0.07819595557619968,-0.09729544502508786,0.16163536293004632,-0.07008539418820128,0.09711671290535566,-0.2434093315564889,1.2133843124302721,-0.22036826213619162,-0.007646373956132004,-2.603789898822182,-0.10886387757460277,2.4681836676715334,0.8264747507635491,1.2134413937687574,-0.2202432315892585,-0.0075118285948192216,-2.6038483821997875,-0.10888392708698907,2.4681821257803174,0.826474908251239,4.633690404595065e-05,0.001122009447693079,0.0003466479186458784,0.0006445182690817053,0.000244006275484604,4.0241915309016036e-05,8.54945055312575e-05,0.0,0.0,0.0,0.0,0.0,0.0,0.0,5.708133848525421e-05,0.00012503054693313587,0.00013454536131278245,-5.848337760561151e-05,-2.0049512386308144e-05,-1.541891216039204e-06,1.57487689889102e-07,-4.633690404595065e-05,-0.001122009447693079,-0.0003466479186458784,-0.0006445182690817053,-0.000244006275484604,-4.0241915309016036e-05,-8.54945055312575e-05,0.22445029020309448,19.868005752563477,0.2998931109905243,-19.931978225708008,-0.5102439522743225,-2.4694857597351074,0.24112264811992645,0
19,0.09000444412231445,-0.24825400114059448,-19.745019912719727,-0.2721221148967743,19.955781936645508,0.5166526436805725,2.4758944511413574,-0.25485557317733765,0.0,0.0,0.0,0.0,0.0,0.0,0.0,-0.22419700033666587,-0.07486510717618236,-0.09955652515733013,0.1596895507592712,-0.07022611656048376,0.09665531065888087,-0.24405590211467704,1.2133866716192954,-0.2203768927214438,-0.007647612624786906,-2.6037895029986777,-0.1088642336792416,2.4681838979817803,0.8264763811015946,1.2134413937687574,-0.2202432315892585,-0.0075118285948192216,-2.6038483821997875,-0.10888392708698907,2.4681821257803174,0.826474908251239,0.0007741534857999225,-0.0015452720141548514,-0.0009034745189933997,-0.0003615303508196996,-0.00010090424008551728,-0.00024042351865302236,0.0004444992545832082,0.0,0.0,0.0,0.0,0.0,0.0,0.0,5.4722149462005376e-05,0.00013366113218532538,0.0001357840299676845,-5.8879201109807155e-05,-1.9693407747475855e-05,-1.7722014629129035e-06,-1.4728503555661021e-06,-0.0007741534857999225,0.0015452720141548514,0.0009034745189933997,0.0003615303508196996,0.00010090424008551728,0.00024042351865302236,-0.0004444992545832082,0.24825400114059448,19.745019912719727,0.2721221148967743,-19.955781936645508,-0.5166526436805725,-2.4758944511413574,0.25485557317733765,0
20,0.09502315521240234,-0.24825400114059448,-19.745019912719727,-0.2721221148967743,19.955781936645508,0.5166526436805725,2.4758944511413574,-0.25485557317733765,0.0,0.0,0.0,0.0,0.0,0.0,0.0,-0.22419700033666587,-0.07486510717618236,-0.09955652515733013,0.1596895507592712,-0.07022611656048376,0.09665531065888087,-0.24405590211467704,1.2133866716192954,-0.2203768927214438,-0.007647612624786906,-2.6037895029986777,-0.1088642336792416,2.4681838979817803,0.8264763811015946,1.2134413937687574,-0.2202432315892585,-0.0075118285948192216,-2.6038483821997875,-0.10888392708698907,2.4681821257803174,0.826474908251239,0.0007741534857999225,-0.0015452720141548514,-0.0009034745189933997,-0.0003615303508196996,-0.00010090424008551728,-0.00024042351865302236,0.0004444992545832082,0.0,0.0,0.0,0.0,0.0,0.0,0.0,5.4722149462005376e-05,0.00013366113218532538,0.0001357840299676845,-5.8879201109807155e-05,-1.9693407747475855e-05,-1.7722014629129035e-06,-1.4728503555661021e-06,-0.0007741534857999225,0.0015452720141548514,0.0009034745189933997,0.0003615303508196996,0.00010090424008551728,0.00024042351865302236,-0.0004444992545832082,0.24825400114059448,19.745019912719727,0.2721221148967743,-19.955781936645508,-0.5166526436805725,-2.4758944511413574,0.25485557317733765,0
21,0.10001778602600098,-0.24825400114059448,-19.792627334594727,-0.3236968219280243,19.955781936645508,0.5102439522743225,2.4694857597351074,-0.21457235515117645,0.0,0.0,0.0,0.0,0.0,0.0,0.0,-0.2201682295945372,-0.07845900241050746,-0.09604035044192069,0.16335345584185365,-0.0702411158873988,0.09719885055868047,-0.2449031164805993,1.2133866716309596,-0.22037355184973328,-0.007643993347100525,-2.6037895029636853,-0.10886387757393294,2.4681835891818147,0.8264716086429585,1.2134413937687574,-0.2202432315892585,-0.0075118285948192216,-2.6038483821997875,-0.10888392708698907,2.4681821257803174,0.826474908251239,0.00034904910663612727,-0.000634684461057543,0.0011081310152003618,-0.00022122764053643943,0.00022228491342448237,5.9646958670199165e-05,-0.0014852302337932906,0.0,0.0,0.0,0.0,0.0,0.0,0.0,5.4722137797780235e-05,0.00013032026047479772,0.0001321647522813038,-5.8879236102260535e-05,-2.004951305613345e-05,-1.4634014973147202e-06,3.2996082804936933e-06,-0.00034904910663612727,0.000634684461057543,-0.0011081310152003618,0.00022122764053643943,-0.00022228491342448237,-5.9646958670199165e-05,0.0014852302337932906,0.24825400114059448,19.792627334594727,0.3236968219280243,-19.955781936645508,-0.5102439522743225,-2.4694857597351074,0.21457235515117645,0
22,0.10502934455871582,-0.24825400114059448,-19.792627334594727,-0.3236968219280243,19.955781936645508,0.5102439522743225,2.4694857597351074,-0.21457235515117645,0.0,0.0,0.0,0.0,0.0,0.0,0.0,-0.2201682295945372,-0.07845900241050746,-0.09604035044192069,0.16335345584185365,-0.0702411158873988,0.09719885055868047,-0.2449031164805993,1.2133866716309596,-0.22037355184973328,-0.007643993347100525,-2.6037895029636853,-0.10886387757393294,2.4681835891818147,0.8264716086429585,1.2134413937687574,-0.2202432315892585,-0.0075118285948192216,-2.6038483821997875,-0.10888392708698907,2.4681821257803174,0.826474908251239,0.00034904910663612727,-0.000634684461057543,0.0011081310152003618,-0.00022122764053643943,0.00022228491342448237,5.9646958670199165e-05,-0.0014852302337932906,0.0,0.0,0.0,0.0,0.0,0.0,0.0,5.4722137797780235e-05,0.00013032026047479772,0.0001321647522813038,-5.8879236102260535e-05,-2.004951305613345e-05,-1.4634014973147202e-06,3.2996082804936933e-06,-0.00034904910663612727,0.000634684461057543,-0.0011081310152003618,0.00022122764053643943,-0.00022228491342448237,-5.9646958670199165e-05,0.0014852302337932906,0.24825400114059448,19.792627334594727,0.3236968219280243,-19.955781936645508,-0.5102439522743225,-2.4694857597351074,0.21457235515117645,0
23,0.10998654365539551,-0.22445029020309448,-19.844202041625977,-0.2998931109905243,19.908174514770508,0.5047507882118225,2.4758944511413574,-0.21457235515117645,0.0,0.0,0.0,0.0,0.0,0.0,0.0,-0.2185339204518412,-0.07537445101222867,-0.09438943595610348,0.1637951235281359,-0.06995319681234778,0.09721722669110112,-0.24548948039108884,1.213384899155877,-0.2203699325720469,-0.007645666693501638,-2.6037861620919744,-0.10886326722304027,2.468183936741348,0.826473555489176,1.2134413937687574,-0.2202432315892585,-0.0075118285948192216,-2.6038483821997875,-0.10888392708698907,2.4681821257803174,0.826474908251239,0.00043109991835781335,0.0010018638283652232,-5.696153210607514e-06,0.0009701683171473842,0.00022051289714804332,-0.00015520623240484184,-0.0012845663942587248,0.0,0.0,0.0,0.0,0.0,0.0,0.0,5.649461288026458e-05,0.00012670098278841357,0.00013383809868241624,-6.22201078130935e-05,-2.065986394880759e-05,-1.8109610304684054e-06,1.3527620630338077e-06,-0.00043109991835781335,-0.0010018638283652232,5.696153210607514e-06,-0.0009701683171473842,-0.00022051289714804332,0.00015520623240484184,0.0012845663942587248,0.22445029020309448,19.844202041625977,0.2998931109905243,-19.908174514770508,-0.5047507882118225,-2.4758944511413574,0.21457235515117645,0
24,0.11500763893127441,-0.22445029020309448,-19.844202041625977,-0.2998931109905243,19.908174514770508,0.5047507882118225,2.4758944511413574,-0.21457235515117645,0.0,0.0,0.0,0.0,0.0,0.0,0.0,-0.2185339204518412,-0.07537445101222867,-0.09438943595610348,0.1637951235281359,-0.06995319681234778,0.09721722669110112,-0.24548948039108884,1.213384899155877,-0.2203699325720469,-0.007645666693501638,-2.6037861620919744,-0.10886326722304027,2.468183936741348,0.826473555489176,1.2134413937687574,-0.2202432315892585,-0.0075118285948192216,-2.6038483821997875,-0.10888392708698907,2.4681821257803174,0.826474908251239,0.00043109991835781335,0.0010018638283652232,-5.696153210607514e-06,0.0009701683171473842,0.00022051289714804332,-0.00015520623240484184,-0.0012845663942587248,0.0,0.0,0.0,0.0,0.0,0.0,0.0,5.649461288026458e-05,0.00012670098278841357,0.00013383809868241624,-6.22201078130935e-05,-2.065986394880759e-05,-1.8109610304684054e-06,1.3527620630338077e-06,-0.00043109991835781335,-0.0010018638283652232,5.696153210607514e-06,-0.0009701683171473842,-0.00022051289714804332,0.00015520623240484184,0.0012845663942587248,0.22445029020309448,19.844202041625977,0.2998931109905243,-19.908174514770508,-0.5047507882118225,-2.4758944511413574,0.21457235515117645,0
25,0.12001800537109375,-0.22445029020309448,-19.868005752563477,-0.2721221148967743,19.955781936645508,0.5047507882118225,2.4758944511413574,-0.20724813640117645,0.0,0.0,0.0,0.0,0.0,0.0,0.0,-0.22140188227618796,-0.07659840958162498,-0.09970512906785409,0.16353079015906827,-0.07014106711502834,0.09777911324426869,-0.2453502585913006,1.2133850011945282,-0.22036826213619162,-0.007647691522243387,-2.6037895029636853,-0.10886326722304027,2.468183914944076,0.8264695627298596,1.2134413937687574,-0.2202432315892585,-0.0075118285948192216,-2.6038483821997875,-0.10888392708698907,2.4681821257803174,0.826474908251239,-0.00037142918501356463,0.0012893155467630427,-0.0005814373527310223,-0.00027191881475053896,0.00019434361037770363,-0.00027188163600037744,-0.001005559341986723,0.0,0.0,0.0,0.0,0.0,0.0,0.0,5.6392574229180426e-05,0.00012503054693313587,0.00013586292742416572,-5.8879236102260535e-05,-2.065986394880759e-05,-1.7891637584810383e-06,5.345521379429563e-06,0.00037142918501356463,-0.0012893155467630427,0.0005814373527310223,0.00027191881475053896,-0.00019434361037770363,0.00027188163600037744,0.001005559341986723,0.22445029020309448,19.868005752563477,0.2721221148967743,-19.955781936645508,-0.5047507882118225,-2.4758944511413574,0.20724813640117645,0
26,0.1250319480895996,-0.22445029020309448,-19.868005752563477,-0.2721221148967743,19.955781936645508,0.5047507882118225,2.4758944511413574,-0.20724813640117645,0.0,0.0,0.0,0.0,0.0,0.0,0.0,-0.22140188227618796,-0.07659840958162498,-0.09970512906785409,0.16353079015906827,-0.07014106711502834,0.09777911324426869,-0.2453502585913006,1.2133850011945282,-0.22036826213619162,-0.007647691522243387,-2.6037895029636853,-0.10886326722304027,2.468183914944076,0.8264695627298596,1.2134413937687574,-0.2202432315892585,-0.0075118285948192216,-2.6038483821997875,-0.10888392708698907,2.4681821257803174,0.826474908251239,-0.00037142918501356463,0.0012893155467630427,-0.0005814373527310223,-0.00027191881475053896,0.00019434361037770363,-0.00027188163600037744,-0.001005559341986723,0.0,0.0,0.0,0.0,0.0,0.0,0.0,5.6392574229180426e-05,0.00012503054693313587,0.00013586292742416572,-5.8879236102260535e-05,-2.065986394880759e-05,-1.7891637584810383e-06,5.345521379429563e-06,0.00037142918501356463,-0.0012893155467630427,0.0005814373527310223,0.00027191881475053896,-0.00019434361037770363,0.00027188163600037744,0.001005559341986723,0.22445029020309448,19.868005752563477,0.2721221148967743,-19.955781936645508,-0.5047507882118225,-2.4758944511413574,0.20724813640117645,0
27,0.13000726699829102,-0.24825400114059448,-19.816431045532227,-0.2721221148967743,19.955781936645508,0.5221458077430725,2.4694857597351074,-0.26858848333358765,0.0,0.0,0.0,0.0,0.0,0.0,0.0,-0.22465778961624036,-0.07570116020986878,-0.098688754457112,0.16071245376547003,-0.07074975355864878,0.09768079627215116,-0.2449094761806798,1.2133839165718234,-0.22037188141387803,-0.007647612613205304,-2.6037895029636853,-0.10886520000298817,2.4681846095781728,0.8264777950329909,1.2134413937687574,-0.2202432315892585,-0.0075118285948192216,-2.6038483821997875,-0.10888392708698907,2.4681821257803174,0.826474908251239,0.00020023520990900275,-0.00020408074668485204,-0.000398934542748572,-0.0006996748723798738,-0.0003457025527713679,3.528505047533721e-05,0.001022431648541372,0.0,0.0,0.0,0.0,0.0,0.0,0.0,5.74771969339416e-05,0.00012864982461954777,0.0001357840183860825,-5.8879236102260535e-05,-1.872708400089962e-05,-2.483797855390435e-06,-2.886781751865186e-06,-0.00020023520990900275,0.00020408074668485204,0.000398934542748572,0.0006996748723798738,0.0003457025527713679,-3.528505047533721e-05,-0.001022431648541372,0.24825400114059448,19.816431045532227,0.2721221148967743,-19.955781936645508,-0.5221458077430725,-2.4694857597351074,0.26858848333358765,0
28,0.13503193855285645,-0.24825400114059448,-19.816431045532227,-0.2721221148967743,19.955781936645508,0.5221458077430725,2.4694857597351074,-0.26858848333358765,0.0,0.0,0.0,0.0,0.0,0.0,0.0,-0.22465778961624036,-0.07570116020986878,-0.098688754457112,0.16071245376547003,-0.07074975355864878,0.09768079627215116,-0.2449094761806798,1.2133839165718234,-0.22037188141387803,-0.007647612613205304,-2.6037895029636853,-0.10886520000298817,2.4681846095781728,0.8264777950329909,1.2134413937687574,-0.2202432315892585,-0.0075118285948192216,-2.6038483821997875,-0.10888392708698907,2.4681821257803174,0.826474908251239,0.00020023520990900275,-0.00020408074668485204,-0.000398934542748572,-0.0006996748723798738,-0.0003457025527713679,3.528505047533721e-05,0.001022431648541372,0.0,0.0,0.0,0.0,0.0,0.0,0.0,5.74771969339416e-05,0.00012864982461954777,0.0001357840183860825,-5.8879236102260535e-05,-1.872708400089962e-05,-2.483797855390435e-06,-2.886781751865186e-06,-0.00020023520990900275,0.00020408074668485204,0.000398934542748572,0.0006996748723798738,0.0003457025527713679,-3.528505047533721e-05,-0.001022431648541372,0.24825400114059448,19.816431045532227,0.2721221148967743,-19.955781936645508,-0.5221458077430725,-2.4694857597351074,0.26858848333358765,0
29,0.14000630378723145,-0.24825400114059448,-19.792627334594727,-0.2998931109905243,19.908174514770508,0.5102439522743225,2.4630770683288574,-0.26858848333358765,0.0,0.0,0.0,0.0,0.0,0.0,0.0,-0.2279702270588398,-0.07752427649701696,-0.0978318683297977,0.16200892881139636,-0.0706401332252031,0.09836472531942142,-0.24447968849374413,1.2133865950859868,-0.22037355184973328,-0.007645690074084397,-2.6037861620919744,-0.10886387806139068,2.4681843797543377,0.8264796790574478,1.2134413937687574,-0.2202432315892585,-0.0075118285948192216,-2.6038483821997875,-0.10888392708698907,2.4681821257803174,0.826474908251239,0.0005778164597337772,-0.0005980215296354384,-0.0001941230962913541,0.0008852769665249628,0.0002444152777432798,0.0002030326919053488,0.0011796815977216995,0.0,0.0,0.0,0.0,0.0,0.0,0.0,5.479868277058486e-05,0.00013032026047479772,0.00013386147926517517,-6.22201078130935e-05,-2.004902559839261e-05,-2.2539740203164627e-06,-4.770806208753697e-06,-0.0005778164597337772,0.0005980215296354384,0.0001941230962913541,-0.0008852769665249628,-0.0002444152777432798,-0.0002030326919053488,-0.0011796815977216995,0.24825400114059448,19.792627334594727,0.2998931109905243,-19.908174514770508,-0.5102439522743225,-2.4630770683288574,0.26858848333358765,0
30,0.1450197696685791,-0.24825400114059448,-19.792627334594727,-0.2998931109905243,19.908174514770508,0.5102439522743225,2.4630770683288574,-0.26858848333358765,0.0,0.0,0.0,0.0,0.0,0.0,0.0,-0.2279702270588398,-0.07752427649701696,-0.0978318683297977,0.16200892881139636,-0.0706401332252031,0.09836472531942142,-0.24447968849374413,1.2133865950859868,-0.22037355184973328,-0.007645690074084397,-2.6037861620919744,-0.10886387806139068,2.4681843797543377,0.8264796790574478,1.2134413937687574,-0.2202432315892585,-0.0075118285948192216,-2.6038483821997875,-0.10888392708698907,2.4681821257803174,0.826474908251239,0.0005778164597337772,-0.0005980215296354384,-0.0001941230962913541,0.0008852769665249628,0.0002444152777432798,0.0002030326919053488,0.0011796815977216995,0.0,0.0,0.0,0.0,0.0,0.0,0.0,5.479868277058486e-05,0.00013032026047479772,0.00013386147926517517,-6.22201078130935e-05,-2.004902559839261e-05,-2.2539740203164627e-06,-4.770806208753697e-06,-0.0005778164597337772,0.0005980215296354384,0.0001941230962913541,-0.0008852769665249628,-0.0002444152777432798,-0.0002030326919053488,-0.0011796815977216995,0.24825400114059448,19.792627334594727,0.2998931109905243,-19.908174514770508,-0.5102439522743225,-2.4630770683288574,0.26858848333358765,0
31,0.15000343322753906,-0.19667929410934448,-19.816431045532227,-0.3236968219280243,19.983552932739258,0.5102439522743225,2.4630770683288574,-0.26217979192733765,0.0,0.0,0.0,0.0,0.0,0.0,0.0,-0.22506788743887002,-0.07530294121041407,-0.09599912196742529,0.1593101959194153,-0.07021543031230322,0.09785884666547395,-0.2440660074336838,1.2133830523528413,-0.22037188141387803,-0.007643993371303083,-2.6037921405703,-0.10886387757460551,2.4681843012573075,0.8264771183445234,1.2134413937687574,-0.2202432315892585,-0.0075118285948192216,-2.6038483821997875,-0.10888392708698907,2.4681821257803174,0.826474908251239,-0.0007616343473133861,4.667187172695784e-05,0.0006685251233556582,-0.0010664767975297217,0.00032145366591838454,0.00035292492147030003,0.0009448662804130138,0.0,0.0,0.0,0.0,0.0,0.0,0.0,5.834141591609665e-05,0.00012864982461954777,0.0001321647764838613,-5.6241629487363554e-05,-2.0049512383560342e-05,-2.175476990107228e-06,-2.210093284382708e-06,0.0007616343473133861,-4.667187172695784e-05,-0.0006685251233556582,0.0010664767975297217,-0.00032145366591838454,-0.00035292492147030003,-0.0009448662804130138,0.19667929410934448,19.816431045532227,0.3236968219280243,-19.983552932739258,-0.5102439522743225,-2.4630770683288574,0.26217979192733765,0
32,0.15500330924987793,-0.19667929410934448,-19.816431045532227,-0.3236968219280243,19.983552932739258,0.5102439522743225,2.4630770683288574,-0.26217979192733765,0.0,0.0,0.0,0.0,0.0,0.0,0.0,-0.22506788743887002,-0.07530294121041407,-0.09599912196742529,0.1593101959194153,-0.07021543031230322,0.09785884666547395,-0.2440660074336838,1.2133830523528413,-0.22037188141387803,-0.007643993371303083,-2.6037921405703,-0.10886387757460551,2.4681843012573075,0.8264771183445234,1.2134413937687574,-0.2202432315892585,-0.0075118285948192216,-2.6038483821997875,-0.10888392708698907,2.4681821257803174,0.826474908251239,-0.0007616343473133861,4.667187172695784e-05,0.0006685251233556582,-0.0010664767975297217,0.00032145366591838454,0.00035292492147030003,0.0009448662804130138,0.0,0.0,0.0,0.0,0.0,0.0,0.0,5.834141591609665e-05,0.00012864982461954777,0.0001321647764838613,-5.6241629487363554e-05,-2.0049512383560342e-05,-2.175476990107228e-06,-2.210093284382708e-06,0.0007616343473133861,-4.667187172695784e-05,-0.0006685251233556582,0.0010664767975297217,-0.00032145366591838454,-0.00035292492147030003,-0.0009448662804130138,0.19667929410934448,19.816431045532227,0.3236968219280243,-19.983552932739258,-0.5102439522743225,-2.4630770683288574,0.26217979192733765,0
33,0.1600055694580078,-0.24825400114059448,-19.816431045532227,-0.2998931109905243,19.955781936645508,0.5166526436805725,2.4694857597351074,-0.23471395671367645,0.0,0.0,0.0,0.0,0.0,0.0,0.0,-0.22524730321332176,-0.07659486286181155,-0.09773361086776734,0.16059220038911146,-0.06968863797399942,0.09779883629077091,-0.24376333678839912,1.2133866716309596,-0.22037188141387803,-0.007645663770928922,-2.6037895029675733,-0.10886458965142568,2.4681835504187015,0.826477336739662,1.2134413937687574,-0.2202432315892585,-0.0075118285948192216,-2.6038483821997875,-0.10888392708698907,2.4681821257803174,0.826474908251239,0.0006826575017887214,-0.0002058992416922211,0.0003429767943960429,-0.00034112606306970145,-5.692049874027112e-06,-0.00016698998679354622,-0.00043652485039369685,0.0,0.0,0.0,0.0,0.0,0.0,0.0,5.4722137797780235e-05,0.00012864982461954777,0.0001338351761097003,-5.88792322142595e-05,-1.9337435563399064e-05,-1.4246383841509669e-06,-2.4284884229119896e-06,-0.0006826575017887214,0.0002058992416922211,-0.0003429767943960429,0.00034112606306970145,5.692049874027112e-06,0.00016698998679354622,0.00043652485039369685,0.24825400114059448,19.816431045532227,0.2998931109905243,-19.955781936645508,-0.5166526436805725,-2.4694857597351074,0.23471395671367645,0
34,0.16503024101257324,-0.24825400114059448,-19.816431045532227,-0.2998931109905243,19.955781936645508,0.5166526436805725,2.4694857597351074,-0.23471395671367645,0.0,0.0,0.0,0.0,0.0,0.0,0.0,-0.22524730321332176,-0.07659486286181155,-0.09773361086776734,0.16059220038911146,-0.06968863797399942,0.09779883629077091,-0.24376333678839912,1.2133866716309596,-0.22037188141387803,-0.007645663770928922,-2.6037895029675733,-0.10886458965142568,2.4681835504187015,0.826477336739662,1.2134413937687574,-0.2202432315892585,-0.0075118285948192216,-2.6038483821997875,-0.10888392708698907,2.4681821257803174,0.826474908251239,0.0006826575017887214,-0.0002058992416922211,0.0003429767943960429,-0.00034112606306970145,-5.692049874027112e-06,-0.00016698998679354622,-0.00043652485039369685,0.0,0.0,0.0,0.0,0.0,0.0,0.0,5.4722137797780235e-05,0.00012864982461954777,0.0001338351761097003,-5.88792322142595e-05,-1.9337435563399064e-05,-1.4246383841509669e-06,-2.4284884229119896e-06,-0.0006826575017887214,0.0002058992416922211,-0.0003429767943960429,0.00034112606306970145,5.692049874027112e-06,0.00016698998679354622,0.00043652485039369685,0.24825400114059448,19.816431045532227,0.2998931109905243,-19.955781936645508,-0.5166526436805725,-2.4694857597351074,0.23471395671367645,0
35,0.17000412940979004,-0.22445029020309448,-19.816431045532227,-0.2483184039592743,19.955781936645508,0.4983420968055725,2.4694857597351074,-0.24112264811992645,0.0,0.0,0.0,0.0,0.0,0.0,0.0,-0.22685414785345093,-0.07240721012009174,-0.09878259516914904,0.15980106808316089,-0.06939407530159013,0.09710414826216977,-0.24380919034274617,1.2133849926918354,-0.22037188141387803,-0.007649283048615121,-2.6037895029636853,-0.10886256974985498,2.4681846100566123,0.8264775827298327,1.2134413937687574,-0.2202432315892585,-0.0075118285948192216,-2.6038483821997875,-0.10888392708698907,2.4681821257803174,0.826474908251239,-0.0002561916780238161,0.00022217750122921172,-0.001015806914587811,-0.00043245577259502235,0.0005834181185098443,1.2451892380015751e-05,0.0002079597157758255,0.0,0.0,0.0,0.0,0.0,0.0,0.0,5.640107692195251e-05,0.00012864982461954777,0.0001374544537958997,-5.8879236102260535e-05,-2.1357337134098042e-05,-2.484276294900667e-06,-2.6744785937005133e-06,0.0002561916780238161,-0.00022217750122921172,0.001015806914587811,0.00043245577259502235,-0.0005834181185098443,-1.2451892380015751e-05,-0.0002079597157758255,0.22445029020309448,19.816431045532227,0.2483184039592743,-19.955781936645508,-0.4983420968055725,-2.4694857597351074,0.24112264811992645,0
36,0.17502903938293457,-0.22445029020309448,-19.816431045532227,-0.2483184039592743,19.955781936645508,0.4983420968055725,2.4694857597351074,-0.24112264811992645,0.0,0.0,0.0,0.0,0.0,0.0,0.0,-0.22685414785345093,-0.07240721012009174,-0.09878259516914904,0.15980106808316089,-0.06939407530159013,0.09710414826216977,-0.24380919034274617,1.2133849926918354,-0.22037188141387803,-0.007649283048615121,-2.6037895029636853,-0.10886256974985498,2.4681846100566123,0.8264775827298327,1.2134413937687574,-0.2202432315892585,-0.0075118285948192216,-2.6038483821997875,-0.10888392708698907,2.4681821257803174,0.826474908251239,-0.0002561916780238161,0.00022217750122921172,-0.001015806914587811,-0.00043245577259502235,0.0005834181185098443,1.2451892380015751e-05,0.0002079597157758255,0.0,0.0,0.0,0.0,0.0,0.0,0.0,5.640107692195251e-05,0.00012864982461954777,0.0001374544537958997,-5.8879236102260535e-05,-2.1357337134098042e-05,-2.484276294900667e-06,-2.6744785937005133e-06,0.0002561916780238161,-0.00022217750122921172,0.001015806914587811,0.00043245577259502235,-0.0005834181185098443,-1.2451892380015751e-05,-0.0002079597157758255,0.22445029020309448,19.816431045532227,0.2483184039592743,-19.955781936645508,-0.4983420968055725,-2.4694857597351074,0.24112264811992645,0
37,0.18001365661621094,-0.19667929410934448,-19.792627334594727,-0.2721221148967743,19.955781936645508,0.5102439522743225,2.4758944511413574,-0.28964561223983765,0.0,0.0,0.0,0.0,0.0,0.0,0.0,-0.23077036847809895,-0.07354162223178978,-0.09923872570745726,0.16281488095703714,-0.07008373873631586,0.09699768343072009,-0.24443431006131777,1.2133830523532252,-0.22037355184973328,-0.007647612612759857,-2.6037895029636853,-0.10886389071795907,2.4681828383476416,0.8264802923674556,1.2134413937687574,-0.2202432315892585,-0.0075118285948192216,-2.6038483821997875,-0.10888392708698907,2.4681821257803174,0.826474908251239,-0.0007268814960630043,-0.0006230877241399358,-0.0008644159909866904,-0.000395865294059939,0.0002483187862880684,-0.0002464361635962382,0.0016860346821013217,0.0,0.0,0.0,0.0,0.0,0.0,0.0,5.834141553218153e-05,0.00013032026047479772,0.00013578401794063586,-5.8879236102260535e-05,-2.0036369030002055e-05,-7.125673242569519e-07,-5.384116216533563e-06,0.0007268814960630043,0.0006230877241399358,0.0008644159909866904,0.000395865294059939,-0.0002483187862880684,0.0002464361635962382,-0.0016860346821013217,0.19667929410934448,19.792627334594727,0.2721221148967743,-19.955781936645508,-0.5102439522743225,-2.4758944511413574,0.28964561223983765,0
38,0.18503189086914062,-0.19667929410934448,-19.792627334594727,-0.2721221148967743,19.955781936645508,0.5102439522743225,2.4758944511413574,-0.28964561223983765,0.0,0.0,0.0,0.0,0.0,0.0,0.0,-0.23077036847809895,-0.07354162223178978,-0.09923872570745726,0.16281488095703714,-0.07008373873631586,0.09699768343072009,-0.24443431006131777,1.2133830523532252,-0.22037355184973328,-0.007647612612759857,-2.6037895029636853,-0.10886389071795907,2.4681828383476416,0.8264802923674556,1.2134413937687574,-0.2202432315892585,-0.0075118285948192216,-2.6038483821997875,-0.10888392708698907,2.4681821257803174,0.826474908251239,-0.0007268814960630043,-0.0006230877241399358,-0.0008644159909866904,-0.000395865294059939,0.0002483187862880684,-0.0002464361635962382,0.0016860346821013217,0.0,0.0,0.0,0.0,0.0,0.0,0.0,5.834141553218153e-05,0.00013032026047479772,0.00013578401794063586,-5.8879236102260535e-05,-2.0036369030002055e-05,-7.125673242569519e-07,-5.384116216533563e-06,0.0007268814960630043,0.0006230877241399358,0.0008644159909866904,0.000395865294059939,-0.0002483187862880684,0.0002464361635962382,-0.0016860346821013217,0.19667929410934448,19.792627334594727,0.2721221148967743,-19.955781936645508,-0.5102439522743225,-2.4758944511413574,0.28964561223983765,0
39,0.19001245498657227,-0.19667929410934448,-19.792627334594727,-0.2721221148967743,19.955781936645508,0.4983420968055725,2.4630770683288574,-0.23471395671367645,0.0,0.0,0.0,0.0,0.0,0.0,0.0,-0.23004935038576993,-0.07577116414940699,-0.09914357405539223,0.1670928564739417,-0.0704548974280669,0.09735853930390301,-0.24569794970387115,1.213382950314046,-0.22037355184973328,-0.007647639890106485,-2.6037895794931054,-0.10886255514629153,2.468184275092741,0.82647312871239,1.2134413937687574,-0.2202432315892585,-0.0075118285948192216,-2.6038483821997875,-0.10888392708698907,2.4681821257803174,0.826474908251239,-0.000895299095264849,-0.0006356950364965574,-0.0006571746221267614,0.00010963071200068293,0.0006312983728987863,0.00011377032364879582,-0.00015708039212794593,0.0,0.0,0.0,0.0,0.0,0.0,0.0,5.844345471128776e-05,0.00013032026047479772,0.00013581129528726383,-5.880270668212617e-05,-2.1371940697539893e-05,-2.149312423593841e-06,1.7795388490560171e-06,0.000895299095264849,0.0006356950364965574,0.0006571746221267614,-0.00010963071200068293,-0.0006312983728987863,-0.00011377032364879582,0.00015708039212794593,0.19667929410934448,19.792627334594727,0.2721221148967743,-19.955781936645508,-0.4983420968055725,-2.4630770683288574,0.23471395671367645,0
40,0.1950089931488037,-0.19667929410934448,-19.792627334594727,-0.2721221148967743,19.955781936645508,0.4983420968055725,2.4630770683288574,-0.23471395671367645,0.0,0.0,0.0,0.0,0.0,0.0,0.0,-0.23004935038576993,-0.07577116414940699,-0.09914357405539223,0.1670928564739417,-0.0704548974280669,0.09735853930390301,-0.24569794970387115,1.213382950314046,-0.22037355184973328,-0.007647639890106485,-2.6037895794931054,-0.10886255514629153,2.468184275092741,0.82647312871239,1.2134413937687574,-0.2202432315892585,-0.0075118285948192216,-2.6038483821997875,-0.10888392708698907,2.4681821257803174,0.826474908251239,-0.000895299095264849,-0.0006356950364965574,-0.0006571746221267614,0.00010963071200068293,0.0006312983728987863,0.00011377032364879582,-0.00015708039212794593,0.0,0.0,0.0,0.0,0.0,0.0,0.0,5.844345471128776e-05,0.00013032026047479772,0.00013581129528726383,-5.880270668212617e-05,-2.1371940697539893e-05,-2.149312423593841e-06,1.7795388490560171e-06,0.000895299095264849,0.0006356950364965574,0.0006571746221267614,-0.00010963071200068293,-0.0006312983728987863,-0.00011377032364879582,0.00015708039212794593,0.19667929410934448,19.792627334594727,0.2721221148967743,-19.955781936645508,-0.4983420968055725,-2.4630770683288574,0.23471395671367645,0
41,0.200028657913208,-0.19667929410934448,-19.792627334594727,-0.2721221148967743,19.955781936645508,0.4983420968055725,2.4630770683288574,-0.23471395671367645,0.0,0.0,0.0,0.0,0.0,0.0,0.0,-0.23004935038576993,-0.07577116414940699,-0.09914357405539223,0.1670928564739417,-0.0704548974280669,0.09735853930390301,-0.24569794970387115,1.213382950314046,-0.22037355184973328,-0.007647639890106485,-2.6037895794931054,-0.10886255514629153,2.468184275092741,0.82647312871239,1.2134413937687574,-0.2202432315892585,-0.0075118285948192216,-2.6038483821997875,-0.10888392708698907,2.4681821257803174,0.826474908251239,-0.000895299095264849,-0.0006356950364965574,-0.0006571746221267614,0.00010963071200068293,0.0006312983728987863,0.00011377032364879582,-0.00015708039212794593,0.0,0.0,0.0,0.0,0.0,0.0,0.0,5.844345471128776e-05,0.00013032026047479772,0.00013581129528726383,-5.880270668212617e-05,-2.1371940697539893e-05,-2.149312423593841e-06,1.7795388490560171e-06,0.000895299095264849,0.0006356950364965574,0.0006571746221267614,-0.00010963071200068293,-0.0006312983728987863,-0.00011377032364879582,0.00015708039212794593,0.19667929410934448,19.792627334594727,0.2721221148967743,-19.955781936645508,-0.4983420968055725,-2.4630770683288574,0.23471395671367645,0
42,0.2050328254699707,-0.19667929410934448,-19.792627334594727,-0.2721221148967743,19.955781936645508,0.4983420968055725,2.4630770683288574,-0.23471395671367645,0.0,0.0,0.0,0.0,0.0,0.0,0.0,-0.23004935038576993,-0.07577116414940699,-0.09914357405539223,0.1670928564739417,-0.0704548974280669,0.09735853930390301,-0.24569794970387115,1.213382950314046,-0.22037355184973328,-0.007647639890106485,-2.6037895794931054,-0.10886255514629153,2.468184275092741,0.82647312871239,1.2134413937687574,-0.2202432315892585,-0.0075118285948192216,-2.6038483821997875,-0.10888392708698907,2.4681821257803174,0.826474908251239,-0.000895299095264849,-0.0006356950364965574,-0.0006571746221267614,0.00010963071200068293,0.0006312983728987863,0.00011377032364879582,-0.00015708039212794593,0.0,0.0,0.0,0.0,0.0,0.0,0.0,5.844345471128776e-05,0.00013032026047479772,0.00013581129528726383,-5.880270668212617e-05,-2.1371940697539893e-05,-2.149312423593841e-06,1.7795388490560171e-06,0.000895299095264849,0.0006356950364965574,0.0006571746221267614,-0.00010963071200068293,-0.0006312983728987863,-0.00011377032364879582,0.00015708039212794593,0.19667929410934448,19.792627334594727,0.2721221148967743,-19.955781936645508,-0.4983420968055725,-2.4630770683288574,0.23471395671367645,0
43,0.21001601219177246,-0.24825400114059448,-19.792627334594727,-0.3236968219280243,19.931978225708008,0.5102439522743225,2.4694857597351074,-0.20083944499492645,0.0,0.0,0.0,0.0,0.0,0.0,0.0,-0.22868003764049624,-0.07605447160666892,-0.09858439691090931,0.16692954912454216,-0.0711944391031327,0.09663241108186035,-0.2445611135048846,1.2133866716303836,-0.22037355184973328,-0.0076439936599577525,-2.6037878325282615,-0.10886387757460277,2.468183549934037,0.8264720413422897,1.2134413937687574,-0.2202432315892585,-0.0075118285948192216,-2.6038483821997875,-0.10888392708698907,2.4681821257803174,0.826474908251239,2.564243883575252e-05,-0.0005485457189558015,0.0006243561545493794,0.00018405195863660366,-6.612873224644854e-05,-5.084597767455943e-05,-0.002116978541439693,0.0,0.0,0.0,0.0,0.0,0.0,0.0,5.472213837376394e-05,0.00013032026047479772,0.00013216506513853091,-6.054967152602231e-05,-2.0049512386308144e-05,-1.4241537198422805e-06,2.8669089493504885e-06,-2.564243883575252e-05,0.0005485457189558015,-0.0006243561545493794,-0.00018405195863660366,6.612873224644854e-05,5.084597767455943e-05,0.002116978541439693,0.24825400114059448,19.792627334594727,0.3236968219280243,-19.931978225708008,-0.5102439522743225,-2.4694857597351074,0.20083944499492645,0
44,0.2150402069091797,-0.24825400114059448,-19.792627334594727,-0.3236968219280243,19.931978225708008,0.5102439522743225,2.4694857597351074,-0.20083944499492645,0.0,0.0,0.0,0.0,0.0,0.0,0.0,-0.22868003764049624,-0.07605447160666892,-0.09858439691090931,0.16692954912454216,-0.0711944391031327,0.09663241108186035,-0.2445611135048846,1.2133866716303836,-0.22037355184973328,-0.0076439936599577525,-2.6037878325282615,-0.10886387757460277,2.468183549934037,0.8264720413422897,1.2134413937687574,-0.2202432315892585,-0.0075118285948192216,-2.6038483821997875,-0.10888392708698907,2.4681821257803174,0.826474908251239,2.564243883575252e-05,-0.0005485457189558015,0.0006243561545493794,0.00018405195863660366,-6.612873224644854e-05,-5.084597767455943e-05,-0.002116978541439693,0.0,0.0,0.0,0.0,0.0,0.0,0.0,5.472213837376394e-05,0.00013032026047479772,0.00013216506513853091,-6.054967152602231e-05,-2.0049512386308144e-05,-1.4241537198422805e-06,2.8669089493504885e-06,-2.564243883575252e-05,0.0005485457189558015,-0.0006243561545493794,-0.00018405195863660366,6.612873224644854e-05,5.084597767455943e-05,0.002116978541439693,0.24825400114059448,19.792627334594727,0.3236968219280243,-19.931978225708008,-0.5102439522743225,-2.4694857597351074,0.20083944499492645,0
45,0.22000551223754883,-0.22445029020309448,-19.792627334594727,-0.2721221148967743,19.955781936645508,0.5102439522743225,2.4823031425476074,-0.24112264811992645,0.0,0.0,0.0,0.0,0.0,0.0,0.0,-0.22785024341295826,-0.04583169971599334,-0.09359322960166536,0.15024848952541492,-0.07265684497260207,0.09367799153964282,-0.24448818294905136,1.2133850002502966,-0.22037355184973328,-0.0076497431683715525,-2.6037915695729734,-0.10886387757460277,2.4681821257803174,0.826476673606261,1.2134413937687574,-0.2202432315892585,-0.0075118285948192216,-2.6038483821997875,-0.10888392708698907,2.4681821257803174,0.826474908251239,-8.063359815893249e-05,-0.004418447339935535,-0.00019019800984109572,-0.0005182479198711218,-1.5271090646415627e-06,-0.0006631018210013929,0.00019574315926395414,0.0,0.0,0.0,0.0,0.0,0.0,0.0,5.639351846076224e-05,0.00013032026047479772,0.0001379145735523309,-5.6812626814117806e-05,-2.0049512386308144e-05,0.0,-1.7653550219431935e-06,8.063359815893249e-05,0.004418447339935535,0.00019019800984109572,0.0005182479198711218,1.5271090646415627e-06,0.0006631018210013929,-0.00019574315926395414,0.22445029020309448,19.792627334594727,0.2721221148967743,-19.955781936645508,-0.5102439522743225,-2.4823031425476074,0.24112264811992645,0
46,0.22502779960632324,-0.22445029020309448,-19.792627334594727,-0.2721221148967743,19.955781936645508,0.5102439522743225,2.4823031425476074,-0.24112264811992645,0.0,0.0,0.0,0.0,0.0,0.0,0.0,-0.22785024341295826,-0.04583169971599334,-0.09359322960166536,0.15024848952541492,-0.07265684497260207,0.09367799153964282,-0.24448818294905136,1.2133850002502966,-0.22037355184973328,-0.0076497431683715525,-2.6037915695729734,-0.10886387757460277,2.4681821257803174,0.826476673606261,1.2134413937687574,-0.2202432315892585,-0.0075118285948192216,-2.6038483821997875,-0.10888392708698907,2.4681821257803174,0.826474908251239,-8.063359815893249e-05,-0.004418447339935535,-0.00019019800984109572,-0.0005182479198711218,-1.5271090646415627e-06,-0.0006631018210013929,0.00019574315926395414,0.0,0.0,0.0,0.0,0.0,0.0,0.0,5.639351846076224e-05,0.00013032026047479772,0.0001379145735523309,-5.6812626814117806e-05,-2.0049512386308144e-05,0.0,-1.7653550219431935e-06,8.063359815893249e-05,0.004418447339935535,0.00019019800984109572,0.0005182479198711218,1.5271090646415627e-06,0.0006631018210013929,-0.00019574315926395414,0.22445029020309448,19.792627334594727,0.2721221148967743,-19.955781936645508,-0.5102439522743225,-2.4823031425476074,0.24112264811992645,0
47,0.23001646995544434,-0.2720577120780945,-19.868005752563477,-0.2998931109905243,19.931978225708008,0.5047507882118225,2.4630770683288574,-0.26858848333358765,0.0,0.0,0.0,0.0,0.0,0.0,0.0,-0.2315875361808706,-0.04781291646132916,-0.09600349880403848,0.14927198597209826,-0.07294362316621947,0.09366312166817234,-0.2446840984151717,1.2133883420318168,-0.22036826213619162,-0.007645663782955766,-2.6037878325394956,-0.10886326722304027,2.4681842620107863,0.8264795960544751,1.2134413937687574,-0.2202432315892585,-0.0075118285948192216,-2.6038483821997875,-0.10888392708698907,2.4681821257803174,0.826474908251239,0.00088494027912197,0.001026697746360437,0.00025344075213244103,0.0003363334468758848,0.0002107510068668852,0.00021564799498565918,0.0014102073696087218,0.0,0.0,0.0,0.0,0.0,0.0,0.0,5.305173694059029e-05,0.00012503054693313587,0.00013383518813654422,-6.054966029189757e-05,-2.065986394880759e-05,-2.136230468963163e-06,-4.6878032360364585e-06,-0.00088494027912197,-0.001026697746360437,-0.00025344075213244103,-0.0003363334468758848,-0.0002107510068668852,-0.00021564799498565918,-0.0014102073696087218,0.2720577120780945,19.868005752563477,0.2998931109905243,-19.931978225708008,-0.5047507882118225,-2.4630770683288574,0.26858848333358765,0
48,0.23500752449035645,-0.2720577120780945,-19.868005752563477,-0.2998931109905243,19.931978225708008,0.5047507882118225,2.4630770683288574,-0.26858848333358765,0.0,0.0,0.0,0.0,0.0,0.0,0.0,-0.2315875361808706,-0.04781291646132916,-0.09600349880403848,0.14927198597209826,-0.07294362316621947,0.09366312166817234,-0.2446840984151717,1.2133883420318168,-0.22036826213619162,-0.007645663782955766,-2.6037878325394956,-0.10886326722304027,2.4681842620107863,0.8264795960544751,1.2134413937687574,-0.2202432315892585,-0.0075118285948192216,-2.6038483821997875,-0.10888392708698907,2.4681821257803174,0.826474908251239,0.00088494027912197,0.001026697746360437,0.00025344075213244103,0.0003363334468758848,0.0002107510068668852,0.00021564799498565918,0.0014102073696087218,0.0,0.0,0.0,0.0,0.0,0.0,0.0,5.305173694059029e-05,0.00012503054693313587,0.00013383518813654422,-6.054966029189757e-05,-2.065986394880759e-05,-2.136230468963163e-06,-4.6878032360364585e-06,-0.00088494027912197,-0.001026697746360437,-0.00025344075213244103,-0.0003363334468758848,-0.0002107510068668852,-0.00021564799498565918,-0.0014102073696087218,0.2720577120780945,19.868005752563477,0.2998931109905243,-19.931978225708008,-0.5047507882118225,-2.4630770683288574,0.26858848333358765,0
49,0.2400376796722412,-0.24825400114059448,-19.768823623657227,-0.2721221148967743,19.931978225708008,0.5102439522743225,2.4566683769226074,-0.26858848333358765,0.0,0.0,0.0,0.0,0.0,0.0,0.0,-0.2310932506947794,-0.08330244248363164,-0.09453263446669316,0.16646227572571592,-0.07321104654891826,0.0965208744380479,-0.24433802453808023,1.2133866716309596,-0.22037522228558856,-0.007647612612759925,-2.60378783252783,-0.10886387757460277,2.4681849755411593,0.826477908912591,1.2134413937687574,-0.2202432315892585,-0.0075118285948192216,-2.6038483821997875,-0.10888392708698907,2.4681821257803174,0.826474908251239,0.00018407601099241515,-0.0004296391956375186,-0.0004261116063169405,0.000303204603052634,5.880237570369314e-05,0.00040322851530515266,0.0014637648895894412,0.0,0.0,0.0,0.0,0.0,0.0,0.0,5.4722137797780235e-05,0.00013199069633007543,0.00013578401794070351,-6.054967195767702e-05,-2.0049512386308144e-05,-2.849760841971971e-06,-3.0006613519484304e-06,-0.00018407601099241515,0.0004296391956375186,0.0004261116063169405,-0.000303204603052634,-5.880237570369314e-05,-0.00040322851530515266,-0.0014637648895894412,0.24825400114059448,19.768823623657227,0.2721221148967743,-19.931978225708008,-0.5102439522743225,-2.4566683769226074,0.26858848333358765,0
50,0.24502015113830566,-0.24825400114059448,-19.768823623657227,-0.2721221148967743,19.931978225708008,0.5102439522743225,2.4566683769226074,-0.26858848333358765,0.0,0.0,0.0,0.0,0.0,0.0,0.0,-0.2310932506947794,-0.08330244248363164,-0.09453263446669316,0.16646227572571592,-0.07321104654891826,0.0965208744380479,-0.24433802453808023,1.2133866716309596,-0.22037522228558856,-0.007647612612759925,-2.60378783252783,-0.10886387757460277,2.4681849755411593,0.826477908912591,1.2134413937687574,-0.2202432315892585,-0.0075118285948192216,-2.6038483821997875,-0.10888392708698907,2.4681821257803174,0.826474908251239,0.00018407601099241515,-0.0004296391956375186,-0.0004261116063169405,0.000303204603052634,5.880237570369314e-05,0.00040322851530515266,0.0014637648895894412,0.0,0.0,0.0,0.0,0.0,0.0,0.0,5.4722137797780235e-05,0.00013199069633007543,0.00013578401794070351,-6.054967195767702e-05,-2.0049512386308144e-05,-2.849760841971971e-06,-3.0006613519484304e-06,-0.00018407601099241515,0.0004296391956375186,0.0004261116063169405,-0.000303204603052634,-5.880237570369314e-05,-0.00040322851530515266,-0.0014637648895894412,0.24825400114059448,19.768823623657227,0.2721221148967743,-19.931978225708008,-0.5102439522743225,-2.4566683769226074,0.26858848333358765,0
51,0.2500269412994385,-0.22445029020309448,-19.868005752563477,-0.3236968219280243,19.983552932739258,0.5221458077430725,2.4630770683288574,-0.22830526530742645,0.0,0.0,0.0,0.0,0.0,0.0,0.0,-0.23000932697782575,-0.08766639729842192,-0.09199463072569616,0.17064885024314044,-0.07293846217509017,0.09658330848377944,-0.24270400102786133,1.213384924350748,-0.22036826213619162,-0.007643993335073454,-2.6037914518055163,-0.10886520000298817,2.4681842620107943,0.8264733197745394,1.2134413937687574,-0.2202432315892585,-0.0075118285948192216,-2.6038483821997875,-0.10888392708698907,2.4681821257803174,0.826474908251239,-0.0001362144250935851,0.0017410187198292001,0.0008483887306510417,-0.0008566540220058514,-0.000190937873249197,5.3798478566830284e-05,-0.00015762177238509605,0.0,0.0,0.0,0.0,0.0,0.0,0.0,5.64694180094083e-05,0.00012503054693313587,0.00013216474025423263,-5.693039427123736e-05,-1.872708400089962e-05,-2.1362304769567686e-06,1.588476699621033e-06,0.0001362144250935851,-0.0017410187198292001,-0.0008483887306510417,0.0008566540220058514,0.000190937873249197,-5.3798478566830284e-05,0.00015762177238509605,0.22445029020309448,19.868005752563477,0.3236968219280243,-19.983552932739258,-0.5221458077430725,-2.4630770683288574,0.22830526530742645,0
52,0.2550179958343506,-0.22445029020309448,-19.868005752563477,-0.3236968219280243,19.983552932739258,0.5221458077430725,2.4630770683288574,-0.22830526530742645,0.0,0.0,0.0,0.0,0.0,0.0,0.0,-0.23000932697782575,-0.08766639729842192,-0.09199463072569616,0.17064885024314044,-0.07293846217509017,0.09658330848377944,-0.24270400102786133,1.213384924350748,-0.22036826213619162,-0.007643993335073454,-2.6037914518055163,-0.10886520000298817,2.4681842620107943,0.8264733197745394,1.2134413937687574,-0.2202432315892585,-0.0075118285948192216,-2.6038483821997875,-0.10888392708698907,2.4681821257803174,0.826474908251239,-0.0001362144250935851,0.0017410187198292001,0.0008483887306510417,-0.0008566540220058514,-0.000190937873249197,5.3798478566830284e-05,-0.00015762177238509605,0.0,0.0,0.0,0.0,0.0,0.0,0.0,5.64694180094083e-05,0.00012503054693313587,0.00013216474025423263,-5.693039427123736e-05,-1.872708400089962e-05,-2.1362304769567686e-06,1.588476699621033e-06,0.0001362144250935851,-0.0017410187198292001,-0.0008483887306510417,0.0008566540220058514,0.000190937873249197,-5.3798478566830284e-05,0.00015762177238509605,0.22445029020309448,19.868005752563477,0.3236968219280243,-19.983552932739258,-0.5221458077430725,-2.4630770683288574,0.22830526530742645,0
53,0.26002931594848633,-0.22445029020309448,-19.868005752563477,-0.3236968219280243,19.931978225708008,0.5102439522743225,2.4630770683288574,-0.25485557317733765,0.0,0.0,0.0,0.0,0.0,0.0,0.0,-0.23093390328856678,-0.08079033383821607,-0.09322217467262416,0.16714287262593666,-0.07193554269886204,0.09567327569786009,-0.24140508259675128,1.2133850008797347,-0.22036826213619162,-0.007643996257646307,-2.60378783252783,-0.10886423244299712,2.4681842620107863,0.8264764252303141,1.2134413937687574,-0.2202432315892585,-0.0075118285948192216,-2.6038483821997875,-0.10888392708698907,2.4681821257803174,0.826474908251239,-0.00013738073086245697,0.0016227516567993287,0.0009237449624676763,0.00014946373430418177,0.00010563350192808455,0.00014777494181351196,0.00042618312038111963,0.0,0.0,0.0,0.0,0.0,0.0,0.0,5.6392889022705006e-05,0.00012503054693313587,0.00013216766282708563,-6.054967195767702e-05,-1.969464399195764e-05,-2.136230468963163e-06,-1.516979075022462e-06,0.00013738073086245697,-0.0016227516567993287,-0.0009237449624676763,-0.00014946373430418177,-0.00010563350192808455,-0.00014777494181351196,-0.00042618312038111963,0.22445029020309448,19.868005752563477,0.3236968219280243,-19.931978225708008,-0.5102439522743225,-2.4630770683288574,0.25485557317733765,0
54,0.2650320529937744,-0.22445029020309448,-19.868005752563477,-0.3236968219280243,19.931978225708008,0.5102439522743225,2.4630770683288574,-0.25485557317733765,0.0,0.0,0.0,0.0,0.0,0.0,0.0,-0.23093390328856678,-0.08079033383821607,-0.09322217467262416,0.16714287262593666,-0.07193554269886204,0.09567327569786009,-0.24140508259675128,1.2133850008797347,-0.22036826213619162,-0.007643996257646307,-2.60378783252783,-0.10886423244299712,2.4681842620107863,0.8264764252303141,1.2134413937687574,-0.2202432315892585,-0.0075118285948192216,-2.6038483821997875,-0.10888392708698907,2.4681821257803174,0.826474908251239,-0.00013738073086245697,0.0016227516567993287,0.0009237449624676763,0.00014946373430418177,0.00010563350192808455,0.00014777494181351196,0.00042618312038111963,0.0,0.0,0.0,0.0,0.0,0.0,0.0,5.6392889022705006e-05,0.00012503054693313587,0.00013216766282708563,-6.054967195767702e-05,-1.969464399195764e-05,-2.136230468963163e-06,-1.516979075022462e-06,0.00013738073086245697,-0.0016227516567993287,-0.0009237449624676763,-0.00014946373430418177,-0.00010563350192808455,-0.00014777494181351196,-0.00042618312038111963,0.22445029020309448,19.868005752563477,0.3236968219280243,-19.931978225708008,-0.5102439522743225,-2.4630770683288574,0.25485557317733765,0
55,0.2700307369232178,-0.22445029020309448,-19.792627334594727,-0.2998931109905243,19.931978225708008,0.5221458077430725,2.4694857597351074,-0.21457235515117645,0.0,0.0,0.0,0.0,0.0,0.0,0.0,-0.23216647014106356,-0.08495380889263038,-0.09474450855345808,0.17096987834049246,-0.07121502729524877,0.09644001914564218,-0.24271109093840137,1.2133843123836625,-0.22037355184973328,-0.007645663770934216,-2.6037878328427655,-0.10886520000365592,2.4681836676715334,0.8264747831967787,1.2134413937687574,-0.2202432315892585,-0.0075118285948192216,-2.6038483821997875,-0.10888392708698907,2.4681821257803174,0.826474908251239,-0.00034128409152314575,-0.0008141688646805159,0.00010733175517840663,0.0007570130270271486,-0.0003682579254697928,-0.00016225626943673461,-0.001028416480013914,0.0,0.0,0.0,0.0,0.0,0.0,0.0,5.708138509485927e-05,0.00013032026047479772,0.00013383517611499467,-6.054935702204389e-05,-1.872708333315598e-05,-1.541891216039204e-06,1.250544603426107e-07,0.00034128409152314575,0.0008141688646805159,-0.00010733175517840663,-0.0007570130270271486,0.0003682579254697928,0.00016225626943673461,0.001028416480013914,0.22445029020309448,19.792627334594727,0.2998931109905243,-19.931978225708008,-0.5221458077430725,-2.4694857597351074,0.21457235515117645,0
56,0.2750365734100342,-0.22445029020309448,-19.792627334594727,-0.2998931109905243,19.931978225708008,0.5221458077430725,2.4694857597351074,-0.21457235515117645,0.0,0.0,0.0,0.0,0.0,0.0,0.0,-0.23216647014106356,-0.08495380889263038,-0.09474450855345808,0.17096987834049246,-0.07121502729524877,0.09644001914564218,-0.24271109093840137,1.2133843123836625,-0.22037355184973328,-0.007645663770934216,-2.6037878328427655,-0.10886520000365592,2.4681836676715334,0.8264747831967787,1.2134413937687574,-0.2202432315892585,-0.0075118285948192216,-2.6038483821997875,-0.10888392708698907,2.4681821257803174,0.826474908251239,-0.00034128409152314575,-0.0008141688646805159,0.00010733175517840663,0.0007570130270271486,-0.0003682579254697928,-0.00016225626943673461,-0.001028416480013914,0.0,0.0,0.0,0.0,0.0,0.0,0.0,5.708138509485927e-05,0.00013032026047479772,0.00013383517611499467,-6.054935702204389e-05,-1.872708333315598e-05,-1.541891216039204e-06,1.250544603426107e-07,0.00034128409152314575,0.0008141688646805159,-0.00010733175517840663,-0.0007570130270271486,0.0003682579254697928,0.00016225626943673461,0.001028416480013914,0.22445029020309448,19.792627334594727,0.2998931109905243,-19.931978225708008,-0.5221458077430725,-2.4694857597351074,0.21457235515117645,0
57,0.28002429008483887,-0.22445029020309448,-19.792627334594727,-0.3236968219280243,19.931978225708008,0.5166526436805725,2.4630770683288574,-0.24844686686992645,0.0,0.0,0.0,0.0,0.0,0.0,0.0,-0.23022656939176897,-0.08129338337985412,-0.09170555849110508,0.16707781846708514,-0.0712869565220399,0.09591860511059773,-0.24299986739726714,1.213385001191216,-0.22037355184973328,-0.007644002211035453,-2.6037878325278316,-0.10886458965142568,2.468184267825652,0.8264745052684557,1.2134413937687574,-0.2202432315892585,-0.0075118285948192216,-2.6038483821997875,-0.10888392708698907,2.4681821257803174,0.826474908251239,0.00015020104831889582,-0.000549873555968763,0.0007706303406502202,0.00022278624939804092,-2.0740481669811714e-05,0.00010270052433963637,0.00028398442482988734,0.0,0.0,0.0,0.0,0.0,0.0,0.0,5.63925775414198e-05,0.00013032026047479772,0.000132173616216231,-6.0549671955900664e-05,-1.9337435563399064e-05,-2.1420453344411783e-06,4.029827833651467e-07,-0.00015020104831889582,0.000549873555968763,-0.0007706303406502202,-0.00022278624939804092,2.0740481669811714e-05,-0.00010270052433963637,-0.00028398442482988734,0.22445029020309448,19.792627334594727,0.3236968219280243,-19.931978225708008,-0.5166526436805725,-2.4630770683288574,0.24844686686992645,0
58,0.28502941131591797,-0.22445029020309448,-19.792627334594727,-0.3236968219280243,19.931978225708008,0.5166526436805725,2.4630770683288574,-0.24844686686992645,0.0,0.0,0.0,0.0,0.0,0.0,0.0,-0.23022656939176897,-0.08129338337985412,-0.09170555849110508,0.16707781846708514,-0.0712869565220399,0.09591860511059773,-0.24299986739726714,1.213385001191216,-0.22037355184973328,-0.007644002211035453,-2.6037878325278316,-0.10886458965142568,2.468184267825652,0.8264745052684557,1.2134413937687574,-0.2202432315892585,-0.0075118285948192216,-2.6038483821997875,-0.10888392708698907,2.4681821257803174,0.826474908251239,0.00015020104831889582,-0.000549873555968763,0.0007706303406502202,0.00022278624939804092,-2.0740481669811714e-05,0.00010270052433963637,0.00028398442482988734,0.0,0.0,0.0,0.0,0.0,0.0,0.0,5.63925775414198e-05,0.00013032026047479772,0.000132173616216231,-6.0549671955900664e-05,-1.9337435563399064e-05,-2.1420453344411783e-06,4.029827833651467e-07,-0.00015020104831889582,0.000549873555968763,-0.0007706303406502202,-0.00022278624939804092,2.0740481669811714e-05,-0.00010270052433963637,-0.00028398442482988734,0.22445029020309448,19.792627334594727,0.3236968219280243,-19.931978225708008,-0.5166526436805725,-2.4630770683288574,0.24844686686992645,0
59,0.2900235652923584,-0.19667929410934448,-19.868005752563477,-0.2483184039592743,19.908174514770508,0.5166526436805725,2.4758944511413574,-0.26217979192733765,0.0,0.0,0.0,0.0,0.0,0.0,0.0,-0.22509280658613665,-0.08474990299334607,-0.08874964775378151,0.1680890194976194,-0.07077588112778477,0.096152359900381,-0.24245626334738804,1.2133830268434664,-0.22036826213619162,-0.007649283048665226,-2.6037861620919744,-0.10886458965142568,2.468182837857173,0.8264772341274536,1.2134413937687574,-0.2202432315892585,-0.0075118285948192216,-2.6038483821997875,-0.10888392708698907,2.4681821257803174,0.826474908251239,-8.6298821869858e-05,0.0009113892061782443,-0.0006418032262837817,0.0005764081230557185,4.67355173763328e-05,-0.0002700013671370406,0.0007310956493846577,0.0,0.0,0.0,0.0,0.0,0.0,0.0,5.836692529093135e-05,0.00012503054693313587,0.00013745445384600458,-6.22201078130935e-05,-1.9337435563399064e-05,-7.120768557022927e-07,-2.325876214515077e-06,8.6298821869858e-05,-0.0009113892061782443,0.0006418032262837817,-0.0005764081230557185,-4.67355173763328e-05,0.0002700013671370406,-0.0007310956493846577,0.19667929410934448,19.868005752563477,0.2483184039592743,-19.908174514770508,-0.5166526436805725,-2.4758944511413574,0.26217979192733765,0
60,0.2950320243835449,-0.19667929410934448,-19.868005752563477,-0.2483184039592743,19.908174514770508,0.5166526436805725,2.4758944511413574,-0.26217979192733765,0.0,0.0,0.0,0.0,0.0,0.0,0.0,-0.22509280658613665,-0.08474990299334607,-0.08874964775378151,0.1680890194976194,-0.07077588112778477,0.096152359900381,-0.24245626334738804,1.2133830268434664,-0.22036826213619162,-0.007649283048665226,-2.6037861620919744,-0.10886458965142568,2.468182837857173,0.8264772341274536,1.2134413937687574,-0.2202432315892585,-0.0075118285948192216,-2.6038483821997875,-0.10888392708698907,2.4681821257803174,0.826474908251239,-8.6298821869858e-05,0.0009113892061782443,-0.0006418032262837817,0.0005764081230557185,4.67355173763328e-05,-0.0002700013671370406,0.0007310956493846577,0.0,0.0,0.0,0.0,0.0,0.0,0.0,5.836692529093135e-05,0.00012503054693313587,0.00013745445384600458,-6.22201078130935e-05,-1.9337435563399064e-05,-7.120768557022927e-07,-2.325876214515077e-06,8.6298821869858e-05,-0.0009113892061782443,0.0006418032262837817,-0.0005764081230557185,-4.67355173763328e-05,0.0002700013671370406,-0.0007310956493846577,0.19667929410934448,19.868005752563477,0.2483184039592743,-19.908174514770508,-0.5166526436805725,-2.4758944511413574,0.26217979192733765,0
61,0.30002284049987793,-0.22445029020309448,-19.816431045532227,-0.2998931109905243,19.955781936645508,0.5102439522743225,2.4694857597351074,-0.26858848333358765,0.0,0.0,0.0,0.0,0.0,0.0,0.0,-0.22842015448367975,-0.08385396311134848,-0.09477402706454142,0.1687940736277794,-0.0697948393601441,0.09643223088092555,-0.2428092924354135,1.2133843124301762,-0.22037188141387803,-0.007646373956132005,-2.603790191728469,-0.10886387757460277,2.4681835630159155,0.8264768653080362,1.2134413937687574,-0.2202432315892585,-0.0075118285948192216,-2.6038483821997875,-0.10888392708698907,2.4681821257803174,0.826474908251239,-7.55234430348014e-05,-0.0003240670132903249,0.0005996379914126389,-0.00011513590009689323,-3.299198133292752e-05,0.00011363455547393318,0.0005493867625537257,0.0,0.0,0.0,0.0,0.0,0.0,0.0,5.7081338581177476e-05,0.00012864982461954777,0.00013454536131278332,-5.819047131838673e-05,-2.0049512386308144e-05,-1.4372355980896145e-06,-1.9570567971749497e-06,7.55234430348014e-05,0.0003240670132903249,-0.0005996379914126389,0.00011513590009689323,3.299198133292752e-05,-0.00011363455547393318,-0.0005493867625537257,0.22445029020309448,19.816431045532227,0.2998931109905243,-19.955781936645508,-0.5102439522743225,-2.4694857597351074,0.26858848333358765,0
62,0.3050272464752197,-0.22445029020309448,-19.816431045532227,-0.2998931109905243,19.955781936645508,0.5102439522743225,2.4694857597351074,-0.26858848333358765,0.0,0.0,0.0,0.0,0.0,0.0,0.0,-0.22842015448367975,-0.08385396311134848,-0.09477402706454142,0.1687940736277794,-0.0697948393601441,0.09643223088092555,-0.2428092924354135,1.2133843124301762,-0.22037188141387803,-0.007646373956132005,-2.603790191728469,-0.10886387757460277,2.4681835630159155,0.8264768653080362,1.2134413937687574,-0.2202432315892585,-0.0075118285948192216,-2.6038483821997875,-0.10888392708698907,2.4681821257803174,0.826474908251239,-7.55234430348014e-05,-0.0003240670132903249,0.0005996379914126389,-0.00011513590009689323,-3.299198133292752e-05,0.00011363455547393318,0.0005493867625537257,0.0,0.0,0.0,0.0,0.0,0.0,0.0,5.7081338581177476e-05,0.00012864982461954777,0.00013454536131278332,-5.819047131838673e-05,-2.0049512386308144e-05,-1.4372355980896145e-06,-1.9570567971749497e-06,7.55234430348014e-05,0.0003240670132903249,-0.0005996379914126389,0.00011513590009689323,3.299198133292752e-05,-0.00011363455547393318,-0.0005493867625537257,0.22445029020309448,19.816431045532227,0.2998931109905243,-19.955781936645508,-0.5102439522743225,-2.4694857597351074,0.26858848333358765,0
63,0.31001758575439453,-0.22445029020309448,-19.816431045532227,-0.2998931109905243,19.955781936645508,0.5102439522743225,2.4694857597351074,-0.26858848333358765,0.0,0.0,0.0,0.0,0.0,0.0,0.0,-0.22842015448367975,-0.08385396311134848,-0.09477402706454142,0.1687940736277794,-0.0697948393601441,0.09643223088092555,-0.2428092924354135,1.2133843124301762,-0.22037188141387803,-0.007646373956132005,-2.603790191728469,-0.10886387757460277,2.4681835630159155,0.8264768653080362,1.2134413937687574,-0.2202432315892585,-0.0075118285948192216,-2.6038483821997875,-0.10888392708698907,2.4681821257803174,0.826474908251239,-7.55234430348014e-05,-0.0003240670132903249,0.0005996379914126389,-0.00011513590009689323,-3.299198133292752e-05,0.00011363455547393318,0.0005493867625537257,0.0,0.0,0.0,0.0,0.0,0.0,0.0,5.7081338581177476e-05,0.00012864982461954777,0.00013454536131278332,-5.819047131838673e-05,-2.0049512386308144e-05,-1.4372355980896145e-06,-1.9570567971749497e-06,7.55234430348014e-05,0.0003240670132903249,-0.0005996379914126389,0.00011513590009689323,3.299198133292752e-05,-0.00011363455547393318,-0.0005493867625537257,0.22445029020309448,19.816431045532227,0.2998931109905243,-19.955781936645508,-0.5102439522743225,-2.4694857597351074,0.26858848333358765,0
64,0.31502795219421387,-0.22445029020309448,-19.816431045532227,-0.2998931109905243,19.955781936645508,0.5102439522743225,2.4694857597351074,-0.26858848333358765,0.0,0.0,0.0,0.0,0.0,0.0,0.0,-0.22842015448367975,-0.08385396311134848,-0.09477402706454142,0.1687940736277794,-0.0697948393601441,0.09643223088092555,-0.2428092924354135,1.2133843124301762,-0.22037188141387803,-0.007646373956132005,-2.603790191728469,-0.10886387757460277,2.4681835630159155,0.8264768653080362,1.2134413937687574,-0.2202432315892585,-0.0075118285948192216,-2.6038483821997875,-0.10888392708698907,2.4681821257803174,0.826474908251239,-7.55234430348014e-05,-0.0003240670132903249,0.0005996379914126389,-0.00011513590009689323,-3.299198133292752e-05,0.00011363455547393318,0.0005493867625537257,0.0,0.0,0.0,0.0,0.0,0.0,0.0,5.7081338581177476e-05,0.00012864982461954777,0.00013454536131278332,-5.819047131838673e-05,-2.0049512386308144e-05,-1.4372355980896145e-06,-1.9570567971749497e-06,7.55234430348014e-05,0.0003240670132903249,-0.0005996379914126389,0.00011513590009689323,3.299198133292752e-05,-0.00011363455547393318,-0.0005493867625537257,0.22445029020309448,19.816431045532227,0.2998931109905243,-19.955781936645508,-0.5102439522743225,-2.4694857597351074,0.26858848333358765,0
65,0.3200111389160156,-0.22445029020309448,-19.816431045532227,-0.3236968219280243,19.908174514770508,0.5102439522743225,2.4694857597351074,-0.21457235515117645,0.0,0.0,0.0,0.0,0.0,0.0,0.0,-0.23113817977353424,-0.07498066571390934,-0.09756316176710136,0.16223555144524335,-0.0706535452271082,0.09552527101157231,-0.24287646984652012,1.2133850011912162,-0.22037188141387803,-0.00764399333908247,-2.603786187605669,-0.10886387757460277,2.468183667671607,0.826471453651314,1.2134413937687574,-0.2202432315892585,-0.0075118285948192216,-2.6038483821997875,-0.10888392708698907,2.4681821257803174,0.826474908251239,-0.0003822336957091648,0.0004771000712632417,0.0006611040391508944,0.0005971222387671136,-3.2858255606331656e-05,-0.00020047895260788483,-0.0010722643145166446,0.0,0.0,0.0,0.0,0.0,0.0,0.0,5.639257754119775e-05,0.00012864982461954777,0.00013216474426324884,-6.219459411838102e-05,-2.0049512386308144e-05,-1.5418912897580128e-06,3.4545999250124027e-06,0.0003822336957091648,-0.0004771000712632417,-0.0006611040391508944,-0.0005971222387671136,3.2858255606331656e-05,0.00020047895260788483,0.0010722643145166446,0.22445029020309448,19.816431045532227,0.3236968219280243,-19.908174514770508,-0.5102439522743225,-2.4694857597351074,0.21457235515117645,0
66,0.32503604888916016,-0.22445029020309448,-19.816431045532227,-0.3236968219280243,19.908174514770508,0.5102439522743225,2.4694857597351074,-0.21457235515117645,0.0,0.0,0.0,0.0,0.0,0.0,0.0,-0.23113817977353424,-0.07498066571390934,-0.09756316176710136,0.16223555144524335,-0.0706535452271082,0.09552527101157231,-0.24287646984652012,1.2133850011912162,-0.22037188141387803,-0.00764399333908247,-2.603786187605669,-0.10886387757460277,2.468183667671607,0.826471453651314,1.2134413937687574,-0.2202432315892585,-0.0075118285948192216,-2.6038483821997875,-0.10888392708698907,2.4681821257803174,0.826474908251239,-0.0003822336957091648,0.0004771000712632417,0.0006611040391508944,0.0005971222387671136,-3.2858255606331656e-05,-0.00020047895260788483,-0.0010722643145166446,0.0,0.0,0.0,0.0,0.0,0.0,0.0,5.639257754119775e-05,0.00012864982461954777,0.00013216474426324884,-6.219459411838102e-05,-2.0049512386308144e-05,-1.5418912897580128e-06,3.4545999250124027e-06,0.0003822336957091648,-0.0004771000712632417,-0.0006611040391508944,-0.0005971222387671136,3.2858255606331656e-05,0.00020047895260788483,0.0010722643145166446,0.22445029020309448,19.816431045532227,0.3236968219280243,-19.908174514770508,-0.5102439522743225,-2.4694857597351074,0.21457235515117645,0
67,0.3300435543060303,-0.22445029020309448,-19.816431045532227,-0.3236968219280243,19.908174514770508,0.5047507882118225,2.4694857597351074,-0.24112264811992645,0.0,0.0,0.0,0.0,0.0,0.0,0.0,-0.231454965030306,-0.07804714340453031,-0.09652963612497698,0.16480043912964534,-0.07088115093114218,0.09620101125597313,-0.24222083262477737,1.2133829345858163,-0.22037188141387803,-0.007643993443316916,-2.6037861620921183,-0.10886326722304027,2.468183549934628,0.8264777004468258,1.2134413937687574,-0.2202432315892585,-0.0075118285948192216,-2.6038483821997875,-0.10888392708698907,2.4681821257803174,0.826474908251239,-0.0008194244643104715,0.00017157206363712152,0.0012236777552718078,0.0005101736883844775,-0.0015579522934825753,-3.6191706783968686e-05,-8.135619650101133e-05,0.0,0.0,0.0,0.0,0.0,0.0,0.0,5.8459182941117405e-05,0.00012864982461954777,0.00013216484849769457,-6.22201076692086e-05,-2.065986394880759e-05,-1.4241543104809296e-06,-2.7921955867427073e-06,0.0008194244643104715,-0.00017157206363712152,-0.0012236777552718078,-0.0005101736883844775,0.0015579522934825753,3.6191706783968686e-05,8.135619650101133e-05,0.22445029020309448,19.816431045532227,0.3236968219280243,-19.908174514770508,-0.5047507882118225,-2.4694857597351074,0.24112264811992645,0
68,0.3350191116333008,-0.22445029020309448,-19.816431045532227,-0.3236968219280243,19.908174514770508,0.5047507882118225,2.4694857597351074,-0.24112264811992645,0.0,0.0,0.0,0.0,0.0,0.0,0.0,-0.231454965030306,-0.07804714340453031,-0.09652963612497698,0.16480043912964534,-0.07088115093114218,0.09620101125597313,-0.24222083262477737,1.2133829345858163,-0.22037188141387803,-0.007643993443316916,-2.6037861620921183,-0.10886326722304027,2.468183549934628,0.8264777004468258,1.2134413937687574,-0.2202432315892585,-0.0075118285948192216,-2.6038483821997875,-0.10888392708698907,2.4681821257803174,0.826474908251239,-0.0008194244643104715,0.00017157206363712152,0.0012236777552718078,0.0005101736883844775,-0.0015579522934825753,-3.6191706783968686e-05,-8.135619650101133e-05,0.0,0.0,0.0,0.0,0.0,0.0,0.0,5.8459182941117405e-05,0.00012864982461954777,0.00013216484849769457,-6.22201076692086e-05,-2.065986394880759e-05,-1.4241543104809296e-06,-2.7921955867427073e-06,0.0008194244643104715,-0.00017157206363712152,-0.0012236777552718078,-0.0005101736883844775,0.0015579522934825753,3.6191706783968686e-05,8.135619650101133e-05,0.22445029020309448,19.816431045532227,0.3236968219280243,-19.908174514770508,-0.5047507882118225,-2.4694857597351074,0.24112264811992645,0
69,0.3400299549102783,-0.19667929410934448,-19.792627334594727,-0.2998931109905243,19.931978225708008,0.5166526436805725,2.4823031425476074,-0.26217979192733765,0.0,0.0,0.0,0.0,0.0,0.0,0.0,-0.23047114696775997,-0.07754615964696449,-0.09360668545446756,0.16617249107571358,-0.07201908102070545,0.09704469470106965,-0.2422233927612573,1.2133830523416071,-0.22037355184973328,-0.007645900499330424,-2.60378783252783,-0.10886458965142568,2.4681831854184466,0.8264760616733878,1.2134413937687574,-0.2202432315892585,-0.0075118285948192216,-2.6038483821997875,-0.10888392708698907,2.4681821257803174,0.826474908251239,-0.0005084673783569352,-0.0002428386962458794,-0.00018148074881591455,0.0006311961237957519,-2.5777851736152284e-05,-0.0004993227968398881,0.0011477443587690657,0.0,0.0,0.0,0.0,0.0,0.0,0.0,5.834142715022139e-05,0.00013032026047479772,0.0001340719045112024,-6.054967195767702e-05,-1.9337435563399064e-05,-1.0596381292415913e-06,-1.1534221487918828e-06,0.0005084673783569352,0.0002428386962458794,0.00018148074881591455,-0.0006311961237957519,2.5777851736152284e-05,0.0004993227968398881,-0.0011477443587690657,0.19667929410934448,19.792627334594727,0.2998931109905243,-19.931978225708008,-0.5166526436805725,-2.4823031425476074,0.26217979192733765,0
70,0.3450307846069336,-0.19667929410934448,-19.792627334594727,-0.2998931109905243,19.931978225708008,0.5166526436805725,2.4823031425476074,-0.26217979192733765,0.0,0.0,0.0,0.0,0.0,0.0,0.0,-0.23047114696775997,-0.07754615964696449,-0.09360668545446756,0.16617249107571358,-0.07201908102070545,0.09704469470106965,-0.2422233927612573,1.2133830523416071,-0.22037355184973328,-0.007645900499330424,-2.60378783252783,-0.10886458965142568,2.4681831854184466,0.8264760616733878,1.2134413937687574,-0.2202432315892585,-0.0075118285948192216,-2.6038483821997875,-0.10888392708698907,2.4681821257803174,0.826474908251239,-0.0005084673783569352,-0.0002428386962458794,-0.00018148074881591455,0.0006311961237957519,-2.5777851736152284e-05,-0.0004993227968398881,0.0011477443587690657,0.0,0.0,0.0,0.0,0.0,0.0,0.0,5.834142715022139e-05,0.00013032026047479772,0.0001340719045112024,-6.054967195767702e-05,-1.9337435563399064e-05,-1.0596381292415913e-06,-1.1534221487918828e-06,0.0005084673783569352,0.0002428386962458794,0.00018148074881591455,-0.0006311961237957519,2.5777851736152284e-05,0.0004993227968398881,-0.0011477443587690657,0.19667929410934448,19.792627334594727,0.2998931109905243,-19.931978225708008,-0.5166526436805725,-2.4823031425476074,0.26217979192733765,0
71,0.3500087261199951,-0.19667929410934448,-19.792627334594727,-0.3236968219280243,19.931978225708008,0.5221458077430725,2.4694857597351074,-0.21457235515117645,0.0,0.0,0.0,0.0,0.0,0.0,0.0,-0.22978901068402566,-0.0759493516395907,-0.09530701690174992,0.16228557279552522,-0.07140018798219197,0.09670923114721003,-0.242431735272965,1.2133830520383373,-0.22037568768283775,-0.007646123891128762,-2.6037878580376366,-0.10886520000298817,2.4681835513895076,0.8264714479427712,1.2134413937687574,-0.2202432315892585,-0.0075118285948192216,-2.6038483821997875,-0.10888392708698907,2.4681821257803174,0.826474908251239,-0.0007437872903874483,-0.0006626508261965364,0.0006765612883887557,0.00010197147874470996,-0.00024624627984703523,-0.0003078721141136825,-0.0011047973281362424,0.0,0.0,0.0,0.0,0.0,0.0,0.0,5.8341730420075066e-05,0.00013245609357925847,0.0001342952963095407,-6.0524162150965566e-05,-1.872708400089962e-05,-1.425609190253141e-06,3.460308467873041e-06,0.0007437872903874483,0.0006626508261965364,-0.0006765612883887557,-0.00010197147874470996,0.00024624627984703523,0.0003078721141136825,0.0011047973281362424,0.19667929410934448,19.792627334594727,0.3236968219280243,-19.931978225708008,-0.5221458077430725,-2.4694857597351074,0.21457235515117645,0
72,0.35502076148986816,-0.19667929410934448,-19.792627334594727,-0.3236968219280243,19.931978225708008,0.5221458077430725,2.4694857597351074,-0.21457235515117645,0.0,0.0,0.0,0.0,0.0,0.0,0.0,-0.22978901068402566,-0.0759493516395907,-0.09530701690174992,0.16228557279552522,-0.07140018798219197,0.09670923114721003,-0.242431735272965,1.2133830520383373,-0.22037568768283775,-0.007646123891128762,-2.6037878580376366,-0.10886520000298817,2.4681835513895076,0.8264714479427712,1.2134413937687574,-0.2202432315892585,-0.0075118285948192216,-2.6038483821997875,-0.10888392708698907,2.4681821257803174,0.826474908251239,-0.0007437872903874483,-0.0006626508261965364,0.0006765612883887557,0.00010197147874470996,-0.00024624627984703523,-0.0003078721141136825,-0.0011047973281362424,0.0,0.0,0.0,0.0,0.0,0.0,0.0,5.8341730420075066e-05,0.00013245609357925847,0.0001342952963095407,-6.0524162150965566e-05,-1.872708400089962e-05,-1.425609190253141e-06,3.460308467873041e-06,0.0007437872903874483,0.0006626508261965364,-0.0006765612883887557,-0.00010197147874470996,0.00024624627984703523,0.0003078721141136825,0.0011047973281362424,0.19667929410934448,19.792627334594727,0.3236968219280243,-19.931978225708008,-0.5221458077430725,-2.4694857597351074,0.21457235515117645,0
73,0.3600168228149414,-0.22445029020309448,-19.768823623657227,-0.2721221148967743,19.983552932739258,0.5102439522743225,2.4630770683288574,-0.26858848333358765,0.0,0.0,0.0,0.0,0.0,0.0,0.0,-0.23323686956043393,-0.07188043574860081,-0.1012861703847956,0.15854762589262397,-0.07034287059106611,0.0961660604739831,-0.24193665084855132,1.2133843114855107,-0.22037522229764542,-0.007647612733030348,-2.60379145180566,-0.10886387757460277,2.4681842664252804,0.8264799104391637,1.2134413937687574,-0.2202432315892585,-0.0075118285948192216,-2.6038483821997875,-0.10888392708698907,2.4681821257803174,0.826474908251239,-0.00033682966368420153,-0.0009536443399665276,-0.0011041818351714612,-0.0013578943258478642,0.00018142226025077355,0.00016267515070542504,0.0012690395740808332,0.0,0.0,0.0,0.0,0.0,0.0,0.0,5.7082283246634447e-05,0.00013199070838693094,0.00013578413821112648,-5.693039412735246e-05,-2.0049512386308144e-05,-2.1406449630667623e-06,-5.002187924652013e-06,0.00033682966368420153,0.0009536443399665276,0.0011041818351714612,0.0013578943258478642,-0.00018142226025077355,-0.00016267515070542504,-0.0012690395740808332,0.22445029020309448,19.768823623657227,0.2721221148967743,-19.983552932739258,-0.5102439522743225,-2.4630770683288574,0.26858848333358765,0
74,0.3650221824645996,-0.22445029020309448,-19.768823623657227,-0.2721221148967743,19.983552932739258,0.5102439522743225,2.4630770683288574,-0.26858848333358765,0.0,0.0,0.0,0.0,0.0,0.0,0.0,-0.23323686956043393,-0.07188043574860081,-0.1012861703847956,0.15854762589262397,-0.07034287059106611,0.0961660604739831,-0.24193665084855132,1.2133843114855107,-0.22037522229764542,-0.007647612733030348,-2.60379145180566,-0.10886387757460277,2.4681842664252804,0.8264799104391637,1.2134413937687574,-0.2202432315892585,-0.0075118285948192216,-2.6038483821997875,-0.10888392708698907,2.4681821257803174,0.826474908251239,-0.00033682966368420153,-0.0009536443399665276,-0.0011041818351714612,-0.0013578943258478642,0.00018142226025077355,0.00016267515070542504,0.0012690395740808332,0.0,0.0,0.0,0.0,0.0,0.0,0.0,5.7082283246634447e-05,0.00013199070838693094,0.00013578413821112648,-5.693039412735246e-05,-2.0049512386308144e-05,-2.1406449630667623e-06,-5.002187924652013e-06,0.00033682966368420153,0.0009536443399665276,0.0011041818351714612,0.0013578943258478642,-0.00018142226025077355,-0.00016267515070542504,-0.0012690395740808332,0.22445029020309448,19.768823623657227,0.2721221148967743,-19.983552932739258,-0.5102439522743225,-2.4630770683288574,0.26858848333358765,0
75,0.37003540992736816,-0.24825400114059448,-19.816431045532227,-0.2998931109905243,19.955781936645508,0.5102439522743225,2.4694857597351074,-0.23471395671367645,0.0,0.0,0.0,0.0,0.0,0.0,0.0,-0.22743071182338828,-0.07808353559662223,-0.09734502425071075,0.16270656944610318,-0.07008817852500727,0.09699399497501615,-0.2415171429157506,1.2133866716270663,-0.22037188141387812,-0.007645663770929396,-2.6037895029636853,-0.10886387757460277,2.4681835499339884,0.8264759673455664,1.2134413937687574,-0.2202432315892585,-0.0075118285948192216,-2.6038483821997875,-0.10888392708698907,2.4681821257803174,0.826474908251239,0.00065102403260776,-0.00022685900124413047,-0.0002181340180201046,-2.684141944810655e-06,0.0002586560150827719,8.614554662199641e-05,-0.0007599584985993738,0.0,0.0,0.0,0.0,0.0,0.0,0.0,5.472214169111034e-05,0.00012864982461963104,0.00013383517611017474,-5.8879236102260535e-05,-2.0049512386308144e-05,-1.4241536709924674e-06,-1.059094327349186e-06,-0.00065102403260776,0.00022685900124413047,0.0002181340180201046,2.684141944810655e-06,-0.0002586560150827719,-8.614554662199641e-05,0.0007599584985993738,0.24825400114059448,19.816431045532227,0.2998931109905243,-19.955781936645508,-0.5102439522743225,-2.4694857597351074,0.23471395671367645,0
76,0.3750154972076416,-0.24825400114059448,-19.816431045532227,-0.2998931109905243,19.955781936645508,0.5102439522743225,2.4694857597351074,-0.23471395671367645,0.0,0.0,0.0,0.0,0.0,0.0,0.0,-0.22743071182338828,-0.07808353559662223,-0.09734502425071075,0.16270656944610318,-0.07008817852500727,0.09699399497501615,-0.2415171429157506,1.2133866716270663,-0.22037188141387812,-0.007645663770929396,-2.6037895029636853,-0.10886387757460277,2.4681835499339884,0.8264759673455664,1.2134413937687574,-0.2202432315892585,-0.0075118285948192216,-2.6038483821997875,-0.10888392708698907,2.4681821257803174,0.826474908251239,0.00065102403260776,-0.00022685900124413047,-0.0002181340180201046,-2.684141944810655e-06,0.0002586560150827719,8.614554662199641e-05,-0.0007599584985993738,0.0,0.0,0.0,0.0,0.0,0.0,0.0,5.472214169111034e-05,0.00012864982461963104,0.00013383517611017474,-5.8879236102260535e-05,-2.0049512386308144e-05,-1.4241536709924674e-06,-1.059094327349186e-06,-0.00065102403260776,0.00022685900124413047,0.0002181340180201046,2.684141944810655e-06,-0.0002586560150827719,-8.614554662199641e-05,0.0007599584985993738,0.24825400114059448,19.816431045532227,0.2998931109905243,-19.955781936645508,-0.5102439522743225,-2.4694857597351074,0.23471395671367645,0
77,0.38001418113708496,-0.22445029020309448,-19.792627334594727,-0.3236968219280243,19.931978225708008,0.5102439522743225,2.4630770683288574,-0.20724813640117645,0.0,0.0,0.0,0.0,0.0,0.0,0.0,-0.22240980220737372,-0.07547160666031198,-0.09704012093151732,0.16096861308549434,-0.06945252385608783,0.09637108380524258,-0.2420874893535126,1.2133848991558769,-0.2203735518497333,-0.007644230207799136,-2.60378783252783,-0.10886387757460277,2.4681842624953028,0.8264700711504162,1.2134413937687574,-0.2202432315892585,-0.0075118285948192216,-2.6038483821997875,-0.10888392708698907,2.4681821257803174,0.826474908251239,0.00038303282269016285,-0.0006647262488884972,0.0009578559437312176,0.00033510848961148035,0.00033047988004414683,7.168627799112798e-05,-0.0016079326205439366,0.0,0.0,0.0,0.0,0.0,0.0,0.0,5.649461288048663e-05,0.00013032026047482548,0.0001324016129799141,-6.054967195767702e-05,-2.0049512386308144e-05,-2.1367149853901424e-06,4.837100822885354e-06,-0.00038303282269016285,0.0006647262488884972,-0.0009578559437312176,-0.00033510848961148035,-0.00033047988004414683,-7.168627799112798e-05,0.0016079326205439366,0.22445029020309448,19.792627334594727,0.3236968219280243,-19.931978225708008,-0.5102439522743225,-2.4630770683288574,0.20724813640117645,0
78,0.38503193855285645,-0.22445029020309448,-19.792627334594727,-0.3236968219280243,19.931978225708008,0.5102439522743225,2.4630770683288574,-0.20724813640117645,0.0,0.0,0.0,0.0,0.0,0.0,0.0,-0.22240980220737372,-0.07547160666031198,-0.09704012093151732,0.16096861308549434,-0.06945252385608783,0.09637108380524258,-0.2420874893535126,1.2133848991558769,-0.2203735518497333,-0.007644230207799136,-2.60378783252783,-0.10886387757460277,2.4681842624953028,0.8264700711504162,1.2134413937687574,-0.2202432315892585,-0.0075118285948192216,-2.6038483821997875,-0.10888392708698907,2.4681821257803174,0.826474908251239,0.00038303282269016285,-0.0006647262488884972,0.0009578559437312176,0.00033510848961148035,0.00033047988004414683,7.168627799112798e-05,-0.0016079326205439366,0.0,0.0,0.0,0.0,0.0,0.0,0.0,5.649461288048663e-05,0.00013032026047482548,0.0001324016129799141,-6.054967195767702e-05,-2.0049512386308144e-05,-2.1367149853901424e-06,4.837100822885354e-06,-0.00038303282269016285,0.0006647262488884972,-0.0009578559437312176,-0.00033510848961148035,-0.00033047988004414683,-7.168627799112798e-05,0.0016079326205439366,0.22445029020309448,19.792627334594727,0.3236968219280243,-19.931978225708008,-0.5102439522743225,-2.4630770683288574,0.20724813640117645,0
79,0.39002251625061035,-0.19667929410934448,-19.792627334594727,-0.2721221148967743,19.931978225708008,0.5047507882118225,2.4694857597351074,-0.22098104655742645,0.0,0.0,0.0,0.0,0.0,0.0,0.0,-0.22750034641274053,-0.07618797533986174,-0.10393627838172968,0.16195300609204383,-0.06858278990988177,0.09572345258507226,-0.24234860061980418,1.213380297293561,-0.2203735518497333,-0.007647612614097011,-2.60378783252783,-0.10886326722304027,2.4681846139327464,0.8264711307466477,1.2134413937687574,-0.2202432315892585,-0.0075118285948192216,-2.6038483821997875,-0.10888392708698907,2.4681821257803174,0.826474908251239,-0.000694796702775957,-0.000614194312883348,-0.0007387177091828202,0.00014239589098624363,0.00030519038391353545,-8.682067224605602e-05,-0.000996860301677173,0.0,0.0,0.0,0.0,0.0,0.0,0.0,6.109647519636496e-05,0.00013032026047482548,0.00013578401927778934,-6.054967195767702e-05,-2.065986394880759e-05,-2.4881524289810386e-06,3.7775045913512884e-06,0.000694796702775957,0.000614194312883348,0.0007387177091828202,-0.00014239589098624363,-0.00030519038391353545,8.682067224605602e-05,0.000996860301677173,0.19667929410934448,19.792627334594727,0.2721221148967743,-19.931978225708008,-0.5047507882118225,-2.4694857597351074,0.22098104655742645,0
