rezayati/contactInterpretation/dataset/franka_main/labeled_data/link5/c2_5.csv
index,time,tau_J0,tau_J1,tau_J2,tau_J3,tau_J4,tau_J5,tau_J6,tau_J_d0,tau_J_d1,tau_J_d2,tau_J_d3,tau_J_d4,tau_J_d5,tau_J_d6,tau_ext0,tau_ext1,tau_ext2,tau_ext3,tau_ext4,tau_ext5,tau_ext6,q0,q1,q2,q3,q4,q5,q6,q_d0,q_d1,q_d2,q_d3,q_d4,q_d5,q_d6,dq0,dq1,dq2,dq3,dq4,dq5,dq6,dq_d0,dq_d1,dq_d2,dq_d3,dq_d4,dq_d5,dq_d6,e0,e1,e2,e3,e4,e5,e6,de0,de1,de2,de3,de4,de5,de6,etau_J0,etau_J1,etau_J2,etau_J3,etau_J4,etau_J5,etau_J6,label
1,0.0,-0.8592159152030945,-46.37740707397461,-5.735073566436768,19.686006546020508,0.9094138741493225,2.4237093925476074,-0.08365194499492645,0.0,0.0,0.0,0.0,0.0,0.0,0.0,-0.8251489158305298,-0.07202722562293117,-0.5520498985482595,0.4139847076942084,0.3222780248330809,0.16245654205200014,-0.07049314710088773,0.8781205771304014,0.7555603009608752,-0.28249557732280933,-1.6691830927196303,0.14136074356798167,2.403401963604821,1.0273114406185018,0.878092876070424,0.7554597494309409,-0.2825552651693207,-1.6690993614607135,0.1414185955172306,2.4034451173676383,1.0273381002308042,0.0007529807380013295,-0.00045918475267815376,0.0003909241512897323,-0.0019315579633293772,-0.0002688952128317186,0.00034525755693171366,0.0002518027702848924,0.0,0.0,0.0,0.0,0.0,0.0,0.0,-2.770105997740302e-05,-0.00010055152993437844,-5.9687846511391474e-05,8.373125891680822e-05,5.7851949248927115e-05,4.315376281738281e-05,2.6659612302415425e-05,-0.0007529807380013295,0.00045918475267815376,-0.0003909241512897323,0.0019315579633293772,0.0002688952128317186,-0.00034525755693171366,-0.0002518027702848924,0.8592159152030945,46.37740707397461,5.735073566436768,-19.686006546020508,-0.9094138741493225,-2.4237093925476074,0.08365194499492645,0
2,0.005183219909667969,-0.8592159152030945,-46.40121078491211,-5.711269855499268,19.586824417114258,0.9039207100868225,2.4301180839538574,-0.07724325358867645,0.0,0.0,0.0,0.0,0.0,0.0,0.0,-0.8397312423934072,-0.07199701477851178,-0.5615149325519816,0.41363540458982145,0.32199938574738046,0.1625111573880613,-0.07144900943633634,0.8781205771304014,0.7555619713967305,-0.2824972477586646,-1.6691761325702332,0.14136135397354732,2.403401251527998,1.027310728541679,0.878092876070424,0.7554597494309409,-0.2825552651693207,-1.6690993614607135,0.1414185955172306,2.4034451173676383,1.0273381002308042,0.0006580881423901017,-0.0003299718136361068,-0.0001091644905598811,0.00044799862299652526,6.131565513670802e-05,6.95567666129819e-05,-0.00016268944140672534,0.0,0.0,0.0,0.0,0.0,0.0,0.0,-2.770105997740302e-05,-0.0001022219657896839,-5.801741065614152e-05,7.677110951975763e-05,5.7241543683278495e-05,4.3865839640222504e-05,2.7371689125255116e-05,-0.0006580881423901017,0.0003299718136361068,0.0001091644905598811,-0.00044799862299652526,-6.131565513670802e-05,-6.95567666129819e-05,0.00016268944140672534,0.8592159152030945,46.40121078491211,5.711269855499268,-19.586824417114258,-0.9039207100868225,-2.4301180839538574,0.07724325358867645,0
3,0.009945869445800781,-0.8592159152030945,-46.40121078491211,-5.711269855499268,19.586824417114258,0.9039207100868225,2.4301180839538574,-0.07724325358867645,0.0,0.0,0.0,0.0,0.0,0.0,0.0,-0.8397312423934072,-0.07199701477851178,-0.5615149325519816,0.41363540458982145,0.32199938574738046,0.1625111573880613,-0.07144900943633634,0.8781205771304014,0.7555619713967305,-0.2824972477586646,-1.6691761325702332,0.14136135397354732,2.403401251527998,1.027310728541679,0.878092876070424,0.7554597494309409,-0.2825552651693207,-1.6690993614607135,0.1414185955172306,2.4034451173676383,1.0273381002308042,0.0006580881423901017,-0.0003299718136361068,-0.0001091644905598811,0.00044799862299652526,6.131565513670802e-05,6.95567666129819e-05,-0.00016268944140672534,0.0,0.0,0.0,0.0,0.0,0.0,0.0,-2.770105997740302e-05,-0.0001022219657896839,-5.801741065614152e-05,7.677110951975763e-05,5.7241543683278495e-05,4.3865839640222504e-05,2.7371689125255116e-05,-0.0006580881423901017,0.0003299718136361068,0.0001091644905598811,-0.00044799862299652526,-6.131565513670802e-05,-6.95567666129819e-05,0.00016268944140672534,0.8592159152030945,46.40121078491211,5.711269855499268,-19.586824417114258,-0.9039207100868225,-2.4301180839538574,0.07724325358867645,0
4,0.014946222305297852,-0.8592159152030945,-46.37740707397461,-5.735073566436768,19.634431838989258,0.9094138741493225,2.4237093925476074,-0.11111776530742645,0.0,0.0,0.0,0.0,0.0,0.0,0.0,-0.8517847765373554,-0.06097460717621081,-0.5672190560415442,0.40929220555901785,0.32217236299836627,0.1621491374200917,-0.07230658009751306,0.8781205771304014,0.7555603009608752,-0.28249557732280933,-1.6691816192091558,0.14136074313595423,2.403401963604821,1.0273144923763142,0.878092876070424,0.7554597494309409,-0.2825552651693207,-1.6690993614607135,0.1414185955172306,2.4034451173676383,1.0273381002308042,0.00027011495798724857,0.00016111203101239812,-0.00010088092773586331,-0.0004005824142792467,-0.0002225051154294717,0.00021363903608040264,0.0018740802740736871,0.0,0.0,0.0,0.0,0.0,0.0,0.0,-2.770105997740302e-05,-0.00010055152993437844,-5.9687846511391474e-05,8.225774844228262e-05,5.7852381276368714e-05,4.315376281738281e-05,2.3607854489959834e-05,-0.00027011495798724857,-0.00016111203101239812,0.00010088092773586331,0.0004005824142792467,0.0002225051154294717,-0.00021363903608040264,-0.0018740802740736871,0.8592159152030945,46.37740707397461,5.735073566436768,-19.634431838989258,-0.9094138741493225,-2.4237093925476074,0.11111776530742645,0
5,0.019991636276245117,-0.8592159152030945,-46.37740707397461,-5.735073566436768,19.634431838989258,0.9094138741493225,2.4237093925476074,-0.11111776530742645,0.0,0.0,0.0,0.0,0.0,0.0,0.0,-0.8517847765373554,-0.06097460717621081,-0.5672190560415442,0.40929220555901785,0.32217236299836627,0.1621491374200917,-0.07230658009751306,0.8781205771304014,0.7555603009608752,-0.28249557732280933,-1.6691816192091558,0.14136074313595423,2.403401963604821,1.0273144923763142,0.878092876070424,0.7554597494309409,-0.2825552651693207,-1.6690993614607135,0.1414185955172306,2.4034451173676383,1.0273381002308042,0.00027011495798724857,0.00016111203101239812,-0.00010088092773586331,-0.0004005824142792467,-0.0002225051154294717,0.00021363903608040264,0.0018740802740736871,0.0,0.0,0.0,0.0,0.0,0.0,0.0,-2.770105997740302e-05,-0.00010055152993437844,-5.9687846511391474e-05,8.225774844228262e-05,5.7852381276368714e-05,4.315376281738281e-05,2.3607854489959834e-05,-0.00027011495798724857,-0.00016111203101239812,0.00010088092773586331,0.0004005824142792467,0.0002225051154294717,-0.00021363903608040264,-0.0018740802740736871,0.8592159152030945,46.37740707397461,5.735073566436768,-19.634431838989258,-0.9094138741493225,-2.4237093925476074,0.11111776530742645,0
6,0.024994373321533203,-0.8592159152030945,-46.40121078491211,-5.735073566436768,19.658235549926758,0.9039207100868225,2.4301180839538574,-0.02963583543896675,0.0,0.0,0.0,0.0,0.0,0.0,0.0,-0.8556422732643206,-0.07316546533501148,-0.573003712663545,0.41630056785024677,0.32202295267886505,0.1628768742446992,-0.07135158349323314,0.8781205771304014,0.7555619713967305,-0.28249557732280933,-1.6691811438818365,0.14136135395554555,2.403401251527998,1.0273054388285512,0.878092876070424,0.7554597494309409,-0.2825552651693207,-1.6690993614607135,0.1414185955172306,2.4034451173676383,1.0273381002308042,0.00023830321688871604,-0.00024072645447939915,-0.0009645688564073894,-0.0009436896558313665,4.407031949714606e-05,-9.726201294645535e-05,-0.0015465355623288204,0.0,0.0,0.0,0.0,0.0,0.0,0.0,-2.770105997740302e-05,-0.0001022219657896839,-5.9687846511391474e-05,8.178242112300005e-05,5.724156168504524e-05,4.3865839640222504e-05,3.266140225299807e-05,-0.00023830321688871604,0.00024072645447939915,0.0009645688564073894,0.0009436896558313665,-4.407031949714606e-05,9.726201294645535e-05,0.0015465355623288204,0.8592159152030945,46.40121078491211,5.735073566436768,-19.658235549926758,-0.9039207100868225,-2.4301180839538574,0.02963583543896675,0
7,0.02999567985534668,-0.8592159152030945,-46.40121078491211,-5.735073566436768,19.658235549926758,0.9039207100868225,2.4301180839538574,-0.02963583543896675,0.0,0.0,0.0,0.0,0.0,0.0,0.0,-0.8556422732643206,-0.07316546533501148,-0.573003712663545,0.41630056785024677,0.32202295267886505,0.1628768742446992,-0.07135158349323314,0.8781205771304014,0.7555619713967305,-0.28249557732280933,-1.6691811438818365,0.14136135395554555,2.403401251527998,1.0273054388285512,0.878092876070424,0.7554597494309409,-0.2825552651693207,-1.6690993614607135,0.1414185955172306,2.4034451173676383,1.0273381002308042,0.00023830321688871604,-0.00024072645447939915,-0.0009645688564073894,-0.0009436896558313665,4.407031949714606e-05,-9.726201294645535e-05,-0.0015465355623288204,0.0,0.0,0.0,0.0,0.0,0.0,0.0,-2.770105997740302e-05,-0.0001022219657896839,-5.9687846511391474e-05,8.178242112300005e-05,5.724156168504524e-05,4.3865839640222504e-05,3.266140225299807e-05,-0.00023830321688871604,0.00024072645447939915,0.0009645688564073894,0.0009436896558313665,-4.407031949714606e-05,9.726201294645535e-05,0.0015465355623288204,0.8592159152030945,46.40121078491211,5.735073566436768,-19.658235549926758,-0.9039207100868225,-2.4301180839538574,0.02963583543896675,0
8,0.03512883186340332,-0.8592159152030945,-46.40121078491211,-5.786648273468018,19.610628128051758,0.9094138741493225,2.4237093925476074,-0.09097616374492645,0.0,0.0,0.0,0.0,0.0,0.0,0.0,-0.854622968087962,-0.06321539996289478,-0.5740433810894222,0.4122809551509734,0.3216766351517912,0.1615980023002104,-0.0703656040750205,0.8781205771304014,0.7555619713967305,-0.2824919580451229,-1.6691778030060884,0.1413603893054855,2.403401963604821,1.027312254420585,0.878092876070424,0.7554597494309409,-0.2825552651693207,-1.6690993614607135,0.1414185955172306,2.4034451173676383,1.0273381002308042,-0.00032531224831508547,0.00012887385974591947,0.000831173347734625,0.0002063870538792165,-0.00012808510148661992,-0.00010855480347838336,0.0014297036994129302,0.0,0.0,0.0,0.0,0.0,0.0,0.0,-2.770105997740302e-05,-0.0001022219657896839,-6.330712419783113e-05,7.844154537495207e-05,5.820621174509877e-05,4.315376281738281e-05,2.5845810219138343e-05,0.00032531224831508547,-0.00012887385974591947,-0.000831173347734625,-0.0002063870538792165,0.00012808510148661992,0.00010855480347838336,-0.0014297036994129302,0.8592159152030945,46.40121078491211,5.786648273468018,-19.610628128051758,-0.9094138741493225,-2.4237093925476074,0.09097616374492645,0
9,0.03994441032409668,-0.8592159152030945,-46.40121078491211,-5.786648273468018,19.610628128051758,0.9094138741493225,2.4237093925476074,-0.09097616374492645,0.0,0.0,0.0,0.0,0.0,0.0,0.0,-0.854622968087962,-0.06321539996289478,-0.5740433810894222,0.4122809551509734,0.3216766351517912,0.1615980023002104,-0.0703656040750205,0.8781205771304014,0.7555619713967305,-0.2824919580451229,-1.6691778030060884,0.1413603893054855,2.403401963604821,1.027312254420585,0.878092876070424,0.7554597494309409,-0.2825552651693207,-1.6690993614607135,0.1414185955172306,2.4034451173676383,1.0273381002308042,-0.00032531224831508547,0.00012887385974591947,0.000831173347734625,0.0002063870538792165,-0.00012808510148661992,-0.00010855480347838336,0.0014297036994129302,0.0,0.0,0.0,0.0,0.0,0.0,0.0,-2.770105997740302e-05,-0.0001022219657896839,-6.330712419783113e-05,7.844154537495207e-05,5.820621174509877e-05,4.315376281738281e-05,2.5845810219138343e-05,0.00032531224831508547,-0.00012887385974591947,-0.000831173347734625,-0.0002063870538792165,0.00012808510148661992,0.00010855480347838336,-0.0014297036994129302,0.8592159152030945,46.40121078491211,5.786648273468018,-19.610628128051758,-0.9094138741493225,-2.4237093925476074,0.09097616374492645,0
10,0.045042991638183594,-0.8076412081718445,-46.37740707397461,-5.711269855499268,19.658235549926758,0.9039207100868225,2.4301180839538574,-0.10470907390117645,0.0,0.0,0.0,0.0,0.0,0.0,0.0,-0.8221427119482697,-0.07176475639289337,-0.5517657265879685,0.41874725251908057,0.3212569059663818,0.16161553061479186,-0.06855534030935907,0.8781169578527149,0.7555603009608752,-0.28249724808268517,-1.669181143877799,0.14136135837307934,2.403401251527998,1.0273137802994914,0.878092876070424,0.7554597494309409,-0.2825552651693207,-1.6690993614607135,0.1414185955172306,2.4034451173676383,1.0273381002308042,-0.00045809607074865017,-0.0006861082697038212,-0.0006437687377323462,-0.001114029037814254,7.062046689289588e-05,-8.272617252563539e-05,0.0014642860620371302,0.0,0.0,0.0,0.0,0.0,0.0,0.0,-2.408178229096336e-05,-0.00010055152993437844,-5.801708663555338e-05,8.1782417085563e-05,5.723714415126202e-05,4.3865839640222504e-05,2.4319931312799525e-05,0.00045809607074865017,0.0006861082697038212,0.0006437687377323462,0.001114029037814254,-7.062046689289588e-05,8.272617252563539e-05,-0.0014642860620371302,0.8076412081718445,46.37740707397461,5.711269855499268,-19.658235549926758,-0.9039207100868225,-2.4301180839538574,0.10470907390117645,0
11,0.04999208450317383,-0.8076412081718445,-46.37740707397461,-5.711269855499268,19.658235549926758,0.9039207100868225,2.4301180839538574,-0.10470907390117645,0.0,0.0,0.0,0.0,0.0,0.0,0.0,-0.8221427119482697,-0.07176475639289337,-0.5517657265879685,0.41874725251908057,0.3212569059663818,0.16161553061479186,-0.06855534030935907,0.8781169578527149,0.7555603009608752,-0.28249724808268517,-1.669181143877799,0.14136135837307934,2.403401251527998,1.0273137802994914,0.878092876070424,0.7554597494309409,-0.2825552651693207,-1.6690993614607135,0.1414185955172306,2.4034451173676383,1.0273381002308042,-0.00045809607074865017,-0.0006861082697038212,-0.0006437687377323462,-0.001114029037814254,7.062046689289588e-05,-8.272617252563539e-05,0.0014642860620371302,0.0,0.0,0.0,0.0,0.0,0.0,0.0,-2.408178229096336e-05,-0.00010055152993437844,-5.801708663555338e-05,8.1782417085563e-05,5.723714415126202e-05,4.3865839640222504e-05,2.4319931312799525e-05,0.00045809607074865017,0.0006861082697038212,0.0006437687377323462,0.001114029037814254,-7.062046689289588e-05,8.272617252563539e-05,-0.0014642860620371302,0.8076412081718445,46.37740707397461,5.711269855499268,-19.658235549926758,-0.9039207100868225,-2.4301180839538574,0.10470907390117645,0
12,0.05498957633972168,-0.8354122042655945,-46.40121078491211,-5.762844562530518,19.610628128051758,0.9094138741493225,2.4301180839538574,-0.04336874559521675,0.0,0.0,0.0,0.0,0.0,0.0,0.0,-0.8377180589329425,-0.07197533086062019,-0.5637753676359608,0.4160130632548337,0.32226394417043064,0.1617812439530604,-0.06749765958674403,0.8781189066945461,0.7555619713967305,-0.28249362848098003,-1.6691778030060884,0.14136074362200993,2.403401251527998,1.0273069647074573,0.878092876070424,0.7554597494309409,-0.2825552651693207,-1.6690993614607135,0.1414185955172306,2.4034451173676383,1.0273381002308042,3.587383467507603e-05,-0.00025792180897918116,0.001105158162259008,-1.2124939180581896e-05,0.00015400068568255214,-6.51669989929456e-05,-0.000803914748183852,0.0,0.0,0.0,0.0,0.0,0.0,0.0,-2.6030624122097556e-05,-0.0001022219657896839,-6.16366883406938e-05,7.844154537495207e-05,5.785189522067302e-05,4.3865839640222504e-05,3.11355233468813e-05,-3.587383467507603e-05,0.00025792180897918116,-0.001105158162259008,1.2124939180581896e-05,-0.00015400068568255214,6.51669989929456e-05,0.000803914748183852,0.8354122042655945,46.40121078491211,5.762844562530518,-19.610628128051758,-0.9094138741493225,-2.4301180839538574,0.04336874559521675,0
13,0.059987545013427734,-0.8354122042655945,-46.40121078491211,-5.762844562530518,19.610628128051758,0.9094138741493225,2.4301180839538574,-0.04336874559521675,0.0,0.0,0.0,0.0,0.0,0.0,0.0,-0.8377180589329425,-0.07197533086062019,-0.5637753676359608,0.4160130632548337,0.32226394417043064,0.1617812439530604,-0.06749765958674403,0.8781189066945461,0.7555619713967305,-0.28249362848098003,-1.6691778030060884,0.14136074362200993,2.403401251527998,1.0273069647074573,0.878092876070424,0.7554597494309409,-0.2825552651693207,-1.6690993614607135,0.1414185955172306,2.4034451173676383,1.0273381002308042,3.587383467507603e-05,-0.00025792180897918116,0.001105158162259008,-1.2124939180581896e-05,0.00015400068568255214,-6.51669989929456e-05,-0.000803914748183852,0.0,0.0,0.0,0.0,0.0,0.0,0.0,-2.6030624122097556e-05,-0.0001022219657896839,-6.16366883406938e-05,7.844154537495207e-05,5.785189522067302e-05,4.3865839640222504e-05,3.11355233468813e-05,-3.587383467507603e-05,0.00025792180897918116,-0.001105158162259008,1.2124939180581896e-05,-0.00015400068568255214,6.51669989929456e-05,0.000803914748183852,0.8354122042655945,46.40121078491211,5.762844562530518,-19.610628128051758,-0.9094138741493225,-2.4301180839538574,0.04336874559521675,0
14,0.06499981880187988,-0.8076412081718445,-46.40121078491211,-5.711269855499268,19.586824417114258,0.9039207100868225,2.4237093925476074,-0.04977743700146675,0.0,0.0,0.0,0.0,0.0,0.0,0.0,-0.83929469014295,-0.06126572228579817,-0.5624745062982207,0.4082819985204157,0.32296755112910785,0.1607812313347257,-0.06643325131337072,0.8781169578527149,0.7555619685077994,-0.2824972477586646,-1.6691761325702332,0.14136135397354763,2.403401963604821,1.0273076767842804,0.878092876070424,0.7554597494309409,-0.2825552651693207,-1.6690993614607135,0.1414185955172306,2.4034451173676383,1.0273381002308042,-0.00016946057409468528,0.00035348757117943734,-0.0003195024354886335,0.00029349941380578225,0.0001416003102642589,0.0001583782691871014,-0.000926757078306816,0.0,0.0,0.0,0.0,0.0,0.0,0.0,-2.408178229096336e-05,-0.00010221907685858955,-5.801741065614152e-05,7.677110951975763e-05,5.7241543682973184e-05,4.315376281738281e-05,3.0423446523819564e-05,0.00016946057409468528,-0.00035348757117943734,0.0003195024354886335,-0.00029349941380578225,-0.0001416003102642589,-0.0001583782691871014,0.000926757078306816,0.8076412081718445,46.40121078491211,5.711269855499268,-19.586824417114258,-0.9039207100868225,-2.4237093925476074,0.04977743700146675,0
15,0.07028746604919434,-0.8076412081718445,-46.40121078491211,-5.711269855499268,19.586824417114258,0.9039207100868225,2.4237093925476074,-0.04977743700146675,0.0,0.0,0.0,0.0,0.0,0.0,0.0,-0.83929469014295,-0.06126572228579817,-0.5624745062982207,0.4082819985204157,0.32296755112910785,0.1607812313347257,-0.06643325131337072,0.8781169578527149,0.7555619685077994,-0.2824972477586646,-1.6691761325702332,0.14136135397354763,2.403401963604821,1.0273076767842804,0.878092876070424,0.7554597494309409,-0.2825552651693207,-1.6690993614607135,0.1414185955172306,2.4034451173676383,1.0273381002308042,-0.00016946057409468528,0.00035348757117943734,-0.0003195024354886335,0.00029349941380578225,0.0001416003102642589,0.0001583782691871014,-0.000926757078306816,0.0,0.0,0.0,0.0,0.0,0.0,0.0,-2.408178229096336e-05,-0.00010221907685858955,-5.801741065614152e-05,7.677110951975763e-05,5.7241543682973184e-05,4.315376281738281e-05,3.0423446523819564e-05,0.00016946057409468528,-0.00035348757117943734,0.0003195024354886335,-0.00029349941380578225,-0.0001416003102642589,-0.0001583782691871014,0.000926757078306816,0.8076412081718445,46.40121078491211,5.711269855499268,-19.586824417114258,-0.9039207100868225,-2.4237093925476074,0.04977743700146675,0
16,0.074951171875,-0.8592159152030945,-46.34963607788086,-5.786648273468018,19.586824417114258,0.9277244210243225,2.4173007011413574,-0.04977743700146675,0.0,0.0,0.0,0.0,0.0,0.0,0.0,-0.8481223376776239,-0.0791332274749125,-0.5714206811042949,0.41710779807634646,0.32316601367692066,0.16210597058042112,-0.06719299600667154,0.8781205771304014,0.7555583521190278,-0.2824919580451229,-1.6691761325702332,0.14135870911677678,2.4034026756816442,1.0273076767842804,0.878092876070424,0.7554597494309409,-0.2825552651693207,-1.6690993614607135,0.1414185955172306,2.4034451173676383,1.0273381002308042,0.0006278635233847548,-0.0008875158985301578,0.001168445880239706,0.0010212022879812455,-0.0007589741446309645,0.0005276030362127063,-0.0007827447056448184,0.0,0.0,0.0,0.0,0.0,0.0,0.0,-2.770105997740302e-05,-9.860268808692396e-05,-6.330712419783113e-05,7.677110951975763e-05,5.988640045381799e-05,4.244168599409903e-05,3.0423446523819564e-05,-0.0006278635233847548,0.0008875158985301578,-0.001168445880239706,-0.0010212022879812455,0.0007589741446309645,-0.0005276030362127063,0.0007827447056448184,0.8592159152030945,46.34963607788086,5.786648273468018,-19.586824417114258,-0.9277244210243225,-2.4173007011413574,0.04977743700146675,0
17,0.07999849319458008,-0.8592159152030945,-46.34963607788086,-5.786648273468018,19.586824417114258,0.9277244210243225,2.4173007011413574,-0.04977743700146675,0.0,0.0,0.0,0.0,0.0,0.0,0.0,-0.8481223376776239,-0.0791332274749125,-0.5714206811042949,0.41710779807634646,0.32316601367692066,0.16210597058042112,-0.06719299600667154,0.8781205771304014,0.7555583521190278,-0.2824919580451229,-1.6691761325702332,0.14135870911677678,2.4034026756816442,1.0273076767842804,0.878092876070424,0.7554597494309409,-0.2825552651693207,-1.6690993614607135,0.1414185955172306,2.4034451173676383,1.0273381002308042,0.0006278635233847548,-0.0008875158985301578,0.001168445880239706,0.0010212022879812455,-0.0007589741446309645,0.0005276030362127063,-0.0007827447056448184,0.0,0.0,0.0,0.0,0.0,0.0,0.0,-2.770105997740302e-05,-9.860268808692396e-05,-6.330712419783113e-05,7.677110951975763e-05,5.988640045381799e-05,4.244168599409903e-05,3.0423446523819564e-05,-0.0006278635233847548,0.0008875158985301578,-0.001168445880239706,-0.0010212022879812455,0.0007589741446309645,-0.0005276030362127063,0.0007827447056448184,0.8592159152030945,46.34963607788086,5.786648273468018,-19.586824417114258,-0.9277244210243225,-2.4173007011413574,0.04977743700146675,0
18,0.08499574661254883,-0.8354122042655945,-46.37740707397461,-5.735073566436768,19.586824417114258,0.9158225655555725,2.4173007011413574,-0.06991903483867645,0.0,0.0,0.0,0.0,0.0,0.0,0.0,-0.8401624601604541,-0.06193628393937588,-0.5652497090457327,0.4066964655804589,0.3228807725296901,0.15949696138715502,-0.0672926046017024,0.8781189066945461,0.7555603009608752,-0.28249557732280933,-1.6691761325702332,0.14135991343966234,2.4034026756816442,1.0273099147395954,0.878092876070424,0.7554597494309409,-0.2825552651693207,-1.6690993614607135,0.1414185955172306,2.4034451173676383,1.0273381002308042,-0.0003907593181080489,-0.00033389906891241936,0.00016551767719196365,0.0007697621542099963,-0.0004869022465939043,0.0015791115948551695,-0.00029027405997027,0.0,0.0,0.0,0.0,0.0,0.0,0.0,-2.6030624122097556e-05,-0.00010055152993437844,-5.9687846511391474e-05,7.677110951975763e-05,5.8682077568261715e-05,4.244168599409903e-05,2.8185491208754243e-05,0.0003907593181080489,0.00033389906891241936,-0.00016551767719196365,-0.0007697621542099963,0.0004869022465939043,-0.0015791115948551695,0.00029027405997027,0.8354122042655945,46.37740707397461,5.735073566436768,-19.586824417114258,-0.9158225655555725,-2.4173007011413574,0.06991903483867645,0
19,0.09000873565673828,-0.8354122042655945,-46.37740707397461,-5.735073566436768,19.586824417114258,0.9158225655555725,2.4173007011413574,-0.06991903483867645,0.0,0.0,0.0,0.0,0.0,0.0,0.0,-0.8401624601604541,-0.06193628393937588,-0.5652497090457327,0.4066964655804589,0.3228807725296901,0.15949696138715502,-0.0672926046017024,0.8781189066945461,0.7555603009608752,-0.28249557732280933,-1.6691761325702332,0.14135991343966234,2.4034026756816442,1.0273099147395954,0.878092876070424,0.7554597494309409,-0.2825552651693207,-1.6690993614607135,0.1414185955172306,2.4034451173676383,1.0273381002308042,-0.0003907593181080489,-0.00033389906891241936,0.00016551767719196365,0.0007697621542099963,-0.0004869022465939043,0.0015791115948551695,-0.00029027405997027,0.0,0.0,0.0,0.0,0.0,0.0,0.0,-2.6030624122097556e-05,-0.00010055152993437844,-5.9687846511391474e-05,7.677110951975763e-05,5.8682077568261715e-05,4.244168599409903e-05,2.8185491208754243e-05,0.0003907593181080489,0.00033389906891241936,-0.00016551767719196365,-0.0007697621542099963,0.0004869022465939043,-0.0015791115948551695,0.00029027405997027,0.8354122042655945,46.37740707397461,5.735073566436768,-19.586824417114258,-0.9158225655555725,-2.4173007011413574,0.06991903483867645,0
20,0.09499120712280273,-0.8354122042655945,-46.37740707397461,-5.735073566436768,19.586824417114258,0.9158225655555725,2.4173007011413574,-0.06991903483867645,0.0,0.0,0.0,0.0,0.0,0.0,0.0,-0.8401624601604541,-0.06193628393937588,-0.5652497090457327,0.4066964655804589,0.3228807725296901,0.15949696138715502,-0.0672926046017024,0.8781189066945461,0.7555603009608752,-0.28249557732280933,-1.6691761325702332,0.14135991343966234,2.4034026756816442,1.0273099147395954,0.878092876070424,0.7554597494309409,-0.2825552651693207,-1.6690993614607135,0.1414185955172306,2.4034451173676383,1.0273381002308042,-0.0003907593181080489,-0.00033389906891241936,0.00016551767719196365,0.0007697621542099963,-0.0004869022465939043,0.0015791115948551695,-0.00029027405997027,0.0,0.0,0.0,0.0,0.0,0.0,0.0,-2.6030624122097556e-05,-0.00010055152993437844,-5.9687846511391474e-05,7.677110951975763e-05,5.8682077568261715e-05,4.244168599409903e-05,2.8185491208754243e-05,0.0003907593181080489,0.00033389906891241936,-0.00016551767719196365,-0.0007697621542099963,0.0004869022465939043,-0.0015791115948551695,0.00029027405997027,0.8354122042655945,46.37740707397461,5.735073566436768,-19.586824417114258,-0.9158225655555725,-2.4173007011413574,0.06991903483867645,0
21,0.09999990463256836,-0.8354122042655945,-46.37740707397461,-5.735073566436768,19.586824417114258,0.9158225655555725,2.4173007011413574,-0.06991903483867645,0.0,0.0,0.0,0.0,0.0,0.0,0.0,-0.8401624601604541,-0.06193628393937588,-0.5652497090457327,0.4066964655804589,0.3228807725296901,0.15949696138715502,-0.0672926046017024,0.8781189066945461,0.7555603009608752,-0.28249557732280933,-1.6691761325702332,0.14135991343966234,2.4034026756816442,1.0273099147395954,0.878092876070424,0.7554597494309409,-0.2825552651693207,-1.6690993614607135,0.1414185955172306,2.4034451173676383,1.0273381002308042,-0.0003907593181080489,-0.00033389906891241936,0.00016551767719196365,0.0007697621542099963,-0.0004869022465939043,0.0015791115948551695,-0.00029027405997027,0.0,0.0,0.0,0.0,0.0,0.0,0.0,-2.6030624122097556e-05,-0.00010055152993437844,-5.9687846511391474e-05,7.677110951975763e-05,5.8682077568261715e-05,4.244168599409903e-05,2.8185491208754243e-05,0.0003907593181080489,0.00033389906891241936,-0.00016551767719196365,-0.0007697621542099963,0.0004869022465939043,-0.0015791115948551695,0.00029027405997027,0.8354122042655945,46.37740707397461,5.735073566436768,-19.586824417114258,-0.9158225655555725,-2.4173007011413574,0.06991903483867645,0
22,0.10494160652160645,-0.8076412081718445,-46.40121078491211,-5.735073566436768,19.586824417114258,0.9094138741493225,2.4237093925476074,-0.08365194499492645,0.0,0.0,0.0,0.0,0.0,0.0,0.0,-0.8407946171933964,-0.06945574510732767,-0.566613673585774,0.412515423384689,0.32252162591887445,0.16091070994473425,-0.06962806063857345,0.8781169578527149,0.7555619713967305,-0.28249557732280933,-1.6691761325702332,0.14136074216367028,2.403401963604821,1.0273114406185018,0.878092876070424,0.7554597494309409,-0.2825552651693207,-1.6690993614607135,0.1414185955172306,2.4034451173676383,1.0273381002308042,-0.0007575117615732821,-0.00025854786388579556,-0.00020502952718066364,0.0006733452493787486,-8.321021713245732e-05,0.00010587497647863361,0.0005309156313698656,0.0,0.0,0.0,0.0,0.0,0.0,0.0,-2.408178229096336e-05,-0.0001022219657896839,-5.9687846511391474e-05,7.677110951975763e-05,5.785335356031651e-05,4.315376281738281e-05,2.6659612302415425e-05,0.0007575117615732821,0.00025854786388579556,0.00020502952718066364,-0.0006733452493787486,8.321021713245732e-05,-0.00010587497647863361,-0.0005309156313698656,0.8076412081718445,46.40121078491211,5.735073566436768,-19.586824417114258,-0.9094138741493225,-2.4237093925476074,0.08365194499492645,0
23,0.10994935035705566,-0.8076412081718445,-46.40121078491211,-5.735073566436768,19.586824417114258,0.9094138741493225,2.4237093925476074,-0.08365194499492645,0.0,0.0,0.0,0.0,0.0,0.0,0.0,-0.8407946171933964,-0.06945574510732767,-0.566613673585774,0.412515423384689,0.32252162591887445,0.16091070994473425,-0.06962806063857345,0.8781169578527149,0.7555619713967305,-0.28249557732280933,-1.6691761325702332,0.14136074216367028,2.403401963604821,1.0273114406185018,0.878092876070424,0.7554597494309409,-0.2825552651693207,-1.6690993614607135,0.1414185955172306,2.4034451173676383,1.0273381002308042,-0.0007575117615732821,-0.00025854786388579556,-0.00020502952718066364,0.0006733452493787486,-8.321021713245732e-05,0.00010587497647863361,0.0005309156313698656,0.0,0.0,0.0,0.0,0.0,0.0,0.0,-2.408178229096336e-05,-0.0001022219657896839,-5.9687846511391474e-05,7.677110951975763e-05,5.785335356031651e-05,4.315376281738281e-05,2.6659612302415425e-05,0.0007575117615732821,0.00025854786388579556,0.00020502952718066364,-0.0006733452493787486,8.321021713245732e-05,-0.00010587497647863361,-0.0005309156313698656,0.8076412081718445,46.40121078491211,5.735073566436768,-19.586824417114258,-0.9094138741493225,-2.4237093925476074,0.08365194499492645,0
24,0.11499285697937012,-0.8354122042655945,-46.37740707397461,-5.762844562530518,19.634431838989258,0.8975120186805725,2.4301180839538574,-0.08365194499492645,0.0,0.0,0.0,0.0,0.0,0.0,0.0,-0.8388093364890243,-0.05999723930350562,-0.56480073399006,0.409406407293857,0.3221277877882095,0.16042310030602777,-0.06988988442471784,0.8781189066945461,0.7555603009608752,-0.2824936284809782,-1.6691794734419438,0.14136206605036228,2.403401251527998,1.0273114406185018,0.878092876070424,0.7554597494309409,-0.2825552651693207,-1.6690993614607135,0.1414185955172306,2.4034451173676383,1.0273381002308042,-0.00020288443289487716,-8.23113710066318e-05,0.00041923914631918714,-0.0006082739432523552,0.00014594865139545252,-0.00019320521329310074,0.000559547579941715,0.0,0.0,0.0,0.0,0.0,0.0,0.0,-2.6030624122097556e-05,-0.00010055152993437844,-6.163668834252567e-05,8.011198123036856e-05,5.652946686832139e-05,4.3865839640222504e-05,2.6659612302415425e-05,0.00020288443289487716,8.23113710066318e-05,-0.00041923914631918714,0.0006082739432523552,-0.00014594865139545252,0.00019320521329310074,-0.000559547579941715,0.8354122042655945,46.37740707397461,5.762844562530518,-19.634431838989258,-0.8975120186805725,-2.4301180839538574,0.08365194499492645,0
25,0.12029838562011719,-0.8354122042655945,-46.37740707397461,-5.762844562530518,19.634431838989258,0.8975120186805725,2.4301180839538574,-0.08365194499492645,0.0,0.0,0.0,0.0,0.0,0.0,0.0,-0.8388093364890243,-0.05999723930350562,-0.56480073399006,0.409406407293857,0.3221277877882095,0.16042310030602777,-0.06988988442471784,0.8781189066945461,0.7555603009608752,-0.2824936284809782,-1.6691794734419438,0.14136206605036228,2.403401251527998,1.0273114406185018,0.878092876070424,0.7554597494309409,-0.2825552651693207,-1.6690993614607135,0.1414185955172306,2.4034451173676383,1.0273381002308042,-0.00020288443289487716,-8.23113710066318e-05,0.00041923914631918714,-0.0006082739432523552,0.00014594865139545252,-0.00019320521329310074,0.000559547579941715,0.0,0.0,0.0,0.0,0.0,0.0,0.0,-2.6030624122097556e-05,-0.00010055152993437844,-6.163668834252567e-05,8.011198123036856e-05,5.652946686832139e-05,4.3865839640222504e-05,2.6659612302415425e-05,0.00020288443289487716,8.23113710066318e-05,-0.00041923914631918714,0.0006082739432523552,-0.00014594865139545252,0.00019320521329310074,-0.000559547579941715,0.8354122042655945,46.37740707397461,5.762844562530518,-19.634431838989258,-0.8975120186805725,-2.4301180839538574,0.08365194499492645,0
26,0.12499141693115234,-0.8869869112968445,-46.40121078491211,-5.711269855499268,19.610628128051758,0.9094138741493225,2.4237093925476074,-0.10470907390117645,0.0,0.0,0.0,0.0,0.0,0.0,0.0,-0.8414481542594382,-0.07885749069392,-0.5692456956620481,0.41848398294835243,0.32152644840067196,0.16127080311051253,-0.07069371180264107,0.8781225259722325,0.7555619713967305,-0.2824972477586646,-1.6691780424058138,0.14136074362198509,2.40340195924417,1.0273137802994914,0.878092876070424,0.7554597494309409,-0.2825552651693207,-1.6690993614607135,0.1414185955172306,2.4034451173676383,1.0273381002308042,0.0008769811796223018,-0.0003306124923810258,-0.0007916010513052726,-0.0001570581465845747,-7.541329077536528e-06,-4.3277494299791825e-05,0.001941576201488661,0.0,0.0,0.0,0.0,0.0,0.0,0.0,-2.9649901808537216e-05,-0.0001022219657896839,-5.801741065614152e-05,7.868094510032897e-05,5.785189524551426e-05,4.315812346833425e-05,2.4319931312799525e-05,-0.0008769811796223018,0.0003306124923810258,0.0007916010513052726,0.0001570581465845747,7.541329077536528e-06,4.3277494299791825e-05,-0.001941576201488661,0.8869869112968445,46.40121078491211,5.711269855499268,-19.610628128051758,-0.9094138741493225,-2.4237093925476074,0.10470907390117645,0
27,0.1300039291381836,-0.8869869112968445,-46.40121078491211,-5.711269855499268,19.610628128051758,0.9094138741493225,2.4237093925476074,-0.10470907390117645,0.0,0.0,0.0,0.0,0.0,0.0,0.0,-0.8414481542594382,-0.07885749069392,-0.5692456956620481,0.41848398294835243,0.32152644840067196,0.16127080311051253,-0.07069371180264107,0.8781225259722325,0.7555619713967305,-0.2824972477586646,-1.6691780424058138,0.14136074362198509,2.40340195924417,1.0273137802994914,0.878092876070424,0.7554597494309409,-0.2825552651693207,-1.6690993614607135,0.1414185955172306,2.4034451173676383,1.0273381002308042,0.0008769811796223018,-0.0003306124923810258,-0.0007916010513052726,-0.0001570581465845747,-7.541329077536528e-06,-4.3277494299791825e-05,0.001941576201488661,0.0,0.0,0.0,0.0,0.0,0.0,0.0,-2.9649901808537216e-05,-0.0001022219657896839,-5.801741065614152e-05,7.868094510032897e-05,5.785189524551426e-05,4.315812346833425e-05,2.4319931312799525e-05,-0.0008769811796223018,0.0003306124923810258,0.0007916010513052726,0.0001570581465845747,7.541329077536528e-06,4.3277494299791825e-05,-0.001941576201488661,0.8869869112968445,46.40121078491211,5.711269855499268,-19.610628128051758,-0.9094138741493225,-2.4237093925476074,0.10470907390117645,0
28,0.1300039291381836,-0.8869869112968445,-46.40121078491211,-5.711269855499268,19.610628128051758,0.9094138741493225,2.4237093925476074,-0.10470907390117645,0.0,0.0,0.0,0.0,0.0,0.0,0.0,-0.8414481542594382,-0.07885749069392,-0.5692456956620481,0.41848398294835243,0.32152644840067196,0.16127080311051253,-0.07069371180264107,0.8781225259722325,0.7555619713967305,-0.2824972477586646,-1.6691780424058138,0.14136074362198509,2.40340195924417,1.0273137802994914,0.878092876070424,0.7554597494309409,-0.2825552651693207,-1.6690993614607135,0.1414185955172306,2.4034451173676383,1.0273381002308042,0.0008769811796223018,-0.0003306124923810258,-0.0007916010513052726,-0.0001570581465845747,-7.541329077536528e-06,-4.3277494299791825e-05,0.001941576201488661,0.0,0.0,0.0,0.0,0.0,0.0,0.0,-2.9649901808537216e-05,-0.0001022219657896839,-5.801741065614152e-05,7.868094510032897e-05,5.785189524551426e-05,4.315812346833425e-05,2.4319931312799525e-05,-0.0008769811796223018,0.0003306124923810258,0.0007916010513052726,0.0001570581465845747,7.541329077536528e-06,4.3277494299791825e-05,-0.001941576201488661,0.8869869112968445,46.40121078491211,5.711269855499268,-19.610628128051758,-0.9094138741493225,-2.4237093925476074,0.10470907390117645,0
29,0.13998723030090332,-0.8354122042655945,-46.37740707397461,-5.735073566436768,19.634431838989258,0.9094138741493225,2.4237093925476074,-0.04336874559521675,0.0,0.0,0.0,0.0,0.0,0.0,0.0,-0.8430798869839664,-0.06344472422847146,-0.5671233837140464,0.4097414374474152,0.32165924524034,0.15964811423392195,-0.06909892944322546,0.8781189066945461,0.7555603009608752,-0.28249557732280933,-1.6691794734423941,0.14136074362198509,2.403401963604813,1.0273069647074573,0.878092876070424,0.7554597494309409,-0.2825552651693207,-1.6690993614607135,0.1414185955172306,2.4034451173676383,1.0273381002308042,-0.00032551475440536663,-0.0003143304000332225,-0.0003970789161142409,-0.00045522659412839186,-8.212535518611493e-05,8.00832745867446e-05,-0.0012015005168161442,0.0,0.0,0.0,0.0,0.0,0.0,0.0,-2.6030624122097556e-05,-0.00010055152993437844,-5.9687846511391474e-05,8.011198168067502e-05,5.785189524551426e-05,4.315376282537642e-05,3.11355233468813e-05,0.00032551475440536663,0.0003143304000332225,0.0003970789161142409,0.00045522659412839186,8.212535518611493e-05,-8.00832745867446e-05,0.0012015005168161442,0.8354122042655945,46.37740707397461,5.735073566436768,-19.634431838989258,-0.9094138741493225,-2.4237093925476074,0.04336874559521675,0
30,0.14500856399536133,-0.8354122042655945,-46.37740707397461,-5.735073566436768,19.634431838989258,0.9094138741493225,2.4237093925476074,-0.04336874559521675,0.0,0.0,0.0,0.0,0.0,0.0,0.0,-0.8430798869839664,-0.06344472422847146,-0.5671233837140464,0.4097414374474152,0.32165924524034,0.15964811423392195,-0.06909892944322546,0.8781189066945461,0.7555603009608752,-0.28249557732280933,-1.6691794734423941,0.14136074362198509,2.403401963604813,1.0273069647074573,0.878092876070424,0.7554597494309409,-0.2825552651693207,-1.6690993614607135,0.1414185955172306,2.4034451173676383,1.0273381002308042,-0.00032551475440536663,-0.0003143304000332225,-0.0003970789161142409,-0.00045522659412839186,-8.212535518611493e-05,8.00832745867446e-05,-0.0012015005168161442,0.0,0.0,0.0,0.0,0.0,0.0,0.0,-2.6030624122097556e-05,-0.00010055152993437844,-5.9687846511391474e-05,8.011198168067502e-05,5.785189524551426e-05,4.315376282537642e-05,3.11355233468813e-05,0.00032551475440536663,0.0003143304000332225,0.0003970789161142409,0.00045522659412839186,8.212535518611493e-05,-8.00832745867446e-05,0.0012015005168161442,0.8354122042655945,46.37740707397461,5.735073566436768,-19.634431838989258,-0.9094138741493225,-2.4237093925476074,0.04336874559521675,0
31,0.14999723434448242,-0.8592159152030945,-46.40121078491211,-5.786648273468018,19.610628128051758,0.9039207100868225,2.4301180839538574,-0.05710165575146675,0.0,0.0,0.0,0.0,0.0,0.0,0.0,-0.8400235197701402,-0.06504605403959084,-0.5654117207663178,0.40932711854597187,0.3218860198008688,0.15964408443016492,-0.06956788354382153,0.8781205771304014,0.7555619713967305,-0.2824919580451229,-1.669177803333137,0.14136135251545504,2.403401251527998,1.0273084905863636,0.878092876070424,0.7554597494309409,-0.2825552651693207,-1.6690993614607135,0.1414185955172306,2.4034451173676383,1.0273381002308042,0.00017348088413038696,0.00021107286671324138,0.0011137536141220636,-0.0002663329979190152,0.00010216679360640178,-0.0001851290010472995,-0.0005980524059216036,0.0,0.0,0.0,0.0,0.0,0.0,0.0,-2.770105997740302e-05,-0.0001022219657896839,-6.330712419783113e-05,7.844187242356249e-05,5.7243001775564295e-05,4.3865839640222504e-05,2.9609644440542482e-05,-0.00017348088413038696,-0.00021107286671324138,-0.0011137536141220636,0.0002663329979190152,-0.00010216679360640178,0.0001851290010472995,0.0005980524059216036,0.8592159152030945,46.40121078491211,5.786648273468018,-19.610628128051758,-0.9039207100868225,-2.4301180839538574,0.05710165575146675,0
32,0.1549971103668213,-0.8592159152030945,-46.40121078491211,-5.786648273468018,19.610628128051758,0.9039207100868225,2.4301180839538574,-0.05710165575146675,0.0,0.0,0.0,0.0,0.0,0.0,0.0,-0.8400235197701402,-0.06504605403959084,-0.5654117207663178,0.40932711854597187,0.3218860198008688,0.15964408443016492,-0.06956788354382153,0.8781205771304014,0.7555619713967305,-0.2824919580451229,-1.669177803333137,0.14136135251545504,2.403401251527998,1.0273084905863636,0.878092876070424,0.7554597494309409,-0.2825552651693207,-1.6690993614607135,0.1414185955172306,2.4034451173676383,1.0273381002308042,0.00017348088413038696,0.00021107286671324138,0.0011137536141220636,-0.0002663329979190152,0.00010216679360640178,-0.0001851290010472995,-0.0005980524059216036,0.0,0.0,0.0,0.0,0.0,0.0,0.0,-2.770105997740302e-05,-0.0001022219657896839,-6.330712419783113e-05,7.844187242356249e-05,5.7243001775564295e-05,4.3865839640222504e-05,2.9609644440542482e-05,-0.00017348088413038696,-0.00021107286671324138,-0.0011137536141220636,0.0002663329979190152,-0.00010216679360640178,0.0001851290010472995,0.0005980524059216036,0.8592159152030945,46.40121078491211,5.786648273468018,-19.610628128051758,-0.9039207100868225,-2.4301180839538574,0.05710165575146675,0
33,0.16000032424926758,-0.8354122042655945,-46.42501449584961,-5.762844562530518,19.610628128051758,0.9039207100868225,2.4301180839538574,-0.08365194499492645,0.0,0.0,0.0,0.0,0.0,0.0,0.0,-0.8428168778368448,-0.06716922635239458,-0.565328444636788,0.4111611392551008,0.32195748114083617,0.16023660092737108,-0.06900691183262293,0.8781189066945461,0.7555636418325858,-0.2824936284809782,-1.6691778030060889,0.14136135397354488,2.403401251527998,1.0273114406185018,0.878092876070424,0.7554597494309409,-0.2825552651693207,-1.6690993614607135,0.1414185955172306,2.4034451173676383,1.0273381002308042,-0.00038089416224543877,0.0008508996465596756,0.0006370913081534385,0.00028504268618444943,0.0001807231256849446,-0.00017130851987852674,0.0008164228924913434,0.0,0.0,0.0,0.0,0.0,0.0,0.0,-2.6030624122097556e-05,-0.00010389240164498936,-6.163668834252567e-05,7.844154537539616e-05,5.7241543685720986e-05,4.3865839640222504e-05,2.6659612302415425e-05,0.00038089416224543877,-0.0008508996465596756,-0.0006370913081534385,-0.00028504268618444943,-0.0001807231256849446,0.00017130851987852674,-0.0008164228924913434,0.8354122042655945,46.42501449584961,5.762844562530518,-19.610628128051758,-0.9039207100868225,-2.4301180839538574,0.08365194499492645,0
34,0.1650094985961914,-0.8354122042655945,-46.42501449584961,-5.762844562530518,19.610628128051758,0.9039207100868225,2.4301180839538574,-0.08365194499492645,0.0,0.0,0.0,0.0,0.0,0.0,0.0,-0.8428168778368448,-0.06716922635239458,-0.565328444636788,0.4111611392551008,0.32195748114083617,0.16023660092737108,-0.06900691183262293,0.8781189066945461,0.7555636418325858,-0.2824936284809782,-1.6691778030060889,0.14136135397354488,2.403401251527998,1.0273114406185018,0.878092876070424,0.7554597494309409,-0.2825552651693207,-1.6690993614607135,0.1414185955172306,2.4034451173676383,1.0273381002308042,-0.00038089416224543877,0.0008508996465596756,0.0006370913081534385,0.00028504268618444943,0.0001807231256849446,-0.00017130851987852674,0.0008164228924913434,0.0,0.0,0.0,0.0,0.0,0.0,0.0,-2.6030624122097556e-05,-0.00010389240164498936,-6.163668834252567e-05,7.844154537539616e-05,5.7241543685720986e-05,4.3865839640222504e-05,2.6659612302415425e-05,0.00038089416224543877,-0.0008508996465596756,-0.0006370913081534385,-0.00028504268618444943,-0.0001807231256849446,0.00017130851987852674,-0.0008164228924913434,0.8354122042655945,46.42501449584961,5.762844562530518,-19.610628128051758,-0.9039207100868225,-2.4301180839538574,0.08365194499492645,0
35,0.16996288299560547,-0.8354122042655945,-46.34963607788086,-5.711269855499268,19.586824417114258,0.9158225655555725,2.4429354667663574,-0.09738485515117645,0.0,0.0,0.0,0.0,0.0,0.0,0.0,-0.845265883785552,-0.07233197349121163,-0.5681456964673435,0.4144041234696923,0.3223876035107302,0.1610204877148366,-0.06895026805435817,0.8781189066945461,0.7555583521190441,-0.2824972477586646,-1.6691761325702332,0.1413596772286627,2.4033998273743524,1.027312966497408,0.878092876070424,0.7554597494309409,-0.2825552651693207,-1.6690993614607135,0.1414185955172306,2.4034451173676383,1.0273381002308042,0.0004478822250647163,-0.0010890527930750478,-0.001302076354734434,0.0005342983584417726,-0.0002827243879409552,-0.0005476459911078323,0.0015110833402817677,0.0,0.0,0.0,0.0,0.0,0.0,0.0,-2.6030624122097556e-05,-9.860268810324424e-05,-5.801741065614152e-05,7.677110951975763e-05,5.8918288567910704e-05,4.5289993285901886e-05,2.5133733396076607e-05,-0.0004478822250647163,0.0010890527930750478,0.001302076354734434,-0.0005342983584417726,0.0002827243879409552,0.0005476459911078323,-0.0015110833402817677,0.8354122042655945,46.34963607788086,5.711269855499268,-19.586824417114258,-0.9158225655555725,-2.4429354667663574,0.09738485515117645,0
36,0.1749858856201172,-0.8354122042655945,-46.34963607788086,-5.711269855499268,19.586824417114258,0.9158225655555725,2.4429354667663574,-0.09738485515117645,0.0,0.0,0.0,0.0,0.0,0.0,0.0,-0.845265883785552,-0.07233197349121163,-0.5681456964673435,0.4144041234696923,0.3223876035107302,0.1610204877148366,-0.06895026805435817,0.8781189066945461,0.7555583521190441,-0.2824972477586646,-1.6691761325702332,0.1413596772286627,2.4033998273743524,1.027312966497408,0.878092876070424,0.7554597494309409,-0.2825552651693207,-1.6690993614607135,0.1414185955172306,2.4034451173676383,1.0273381002308042,0.0004478822250647163,-0.0010890527930750478,-0.001302076354734434,0.0005342983584417726,-0.0002827243879409552,-0.0005476459911078323,0.0015110833402817677,0.0,0.0,0.0,0.0,0.0,0.0,0.0,-2.6030624122097556e-05,-9.860268810324424e-05,-5.801741065614152e-05,7.677110951975763e-05,5.8918288567910704e-05,4.5289993285901886e-05,2.5133733396076607e-05,-0.0004478822250647163,0.0010890527930750478,0.001302076354734434,-0.0005342983584417726,0.0002827243879409552,0.0005476459911078323,-0.0015110833402817677,0.8354122042655945,46.34963607788086,5.711269855499268,-19.586824417114258,-0.9158225655555725,-2.4429354667663574,0.09738485515117645,0
37,0.18000078201293945,-0.8592159152030945,-46.37740707397461,-5.711269855499268,19.610628128051758,0.9039207100868225,2.4365267753601074,-0.10470907390117645,0.0,0.0,0.0,0.0,0.0,0.0,0.0,-0.8447129985544019,-0.07501129599653222,-0.5683769863230138,0.4163181913723971,0.3229031602371778,0.16200558030819429,-0.06816025225096434,0.8781205771304014,0.7555603009608752,-0.2824972477586646,-1.6691778030060884,0.14136135397154748,2.4034005394511753,1.0273137802994914,0.878092876070424,0.7554597494309409,-0.2825552651693207,-1.6690993614607135,0.1414185955172306,2.4034451173676383,1.0273381002308042,0.00013736765417387309,-0.00038353449843666444,-0.0001263233103953292,0.0001629545494289715,7.334679502497128e-05,-0.0006065239922162565,-0.0006159604919700197,0.0,0.0,0.0,0.0,0.0,0.0,0.0,-2.770105997740302e-05,-0.00010055152993437844,-5.801741065614152e-05,7.844154537495207e-05,5.724154568312323e-05,4.4577916463062195e-05,2.4319931312799525e-05,-0.00013736765417387309,0.00038353449843666444,0.0001263233103953292,-0.0001629545494289715,-7.334679502497128e-05,0.0006065239922162565,0.0006159604919700197,0.8592159152030945,46.37740707397461,5.711269855499268,-19.610628128051758,-0.9039207100868225,-2.4365267753601074,0.10470907390117645,0
38,0.1850416660308838,-0.8592159152030945,-46.37740707397461,-5.711269855499268,19.610628128051758,0.9039207100868225,2.4365267753601074,-0.10470907390117645,0.0,0.0,0.0,0.0,0.0,0.0,0.0,-0.8447129985544019,-0.07501129599653222,-0.5683769863230138,0.4163181913723971,0.3229031602371778,0.16200558030819429,-0.06816025225096434,0.8781205771304014,0.7555603009608752,-0.2824972477586646,-1.6691778030060884,0.14136135397154748,2.4034005394511753,1.0273137802994914,0.878092876070424,0.7554597494309409,-0.2825552651693207,-1.6690993614607135,0.1414185955172306,2.4034451173676383,1.0273381002308042,0.00013736765417387309,-0.00038353449843666444,-0.0001263233103953292,0.0001629545494289715,7.334679502497128e-05,-0.0006065239922162565,-0.0006159604919700197,0.0,0.0,0.0,0.0,0.0,0.0,0.0,-2.770105997740302e-05,-0.00010055152993437844,-5.801741065614152e-05,7.844154537495207e-05,5.724154568312323e-05,4.4577916463062195e-05,2.4319931312799525e-05,-0.00013736765417387309,0.00038353449843666444,0.0001263233103953292,-0.0001629545494289715,-7.334679502497128e-05,0.0006065239922162565,0.0006159604919700197,0.8592159152030945,46.37740707397461,5.711269855499268,-19.610628128051758,-0.9039207100868225,-2.4365267753601074,0.10470907390117645,0
39,0.19001364707946777,-0.8354122042655945,-46.34963607788086,-5.735073566436768,19.586824417114258,0.9039207100868225,2.4429354667663574,-0.06991903483867645,0.0,0.0,0.0,0.0,0.0,0.0,0.0,-0.8481472840925993,-0.07375420648494568,-0.5644861907487245,0.4150954744510252,0.3222352328966021,0.1619342928357105,-0.06956082685590068,0.8781189066945461,0.7555583521190441,-0.28249557732280933,-1.6691761325702332,0.14136134085071428,2.4033998273743524,1.0273099147395954,0.878092876070424,0.7554597494309409,-0.2825552651693207,-1.6690993614607135,0.1414185955172306,2.4034451173676383,1.0273381002308042,-0.00018677247746270182,-0.0014346823384972106,0.00013363830241926546,0.0005372245383338726,0.00019349928817805444,-0.00027742090518299313,-0.0006236328342767747,0.0,0.0,0.0,0.0,0.0,0.0,0.0,-2.6030624122097556e-05,-9.860268810324424e-05,-5.9687846511391474e-05,7.677110951975763e-05,5.725466651632094e-05,4.5289993285901886e-05,2.8185491208754243e-05,0.00018677247746270182,0.0014346823384972106,-0.00013363830241926546,-0.0005372245383338726,-0.00019349928817805444,0.00027742090518299313,0.0006236328342767747,0.8354122042655945,46.34963607788086,5.735073566436768,-19.586824417114258,-0.9039207100868225,-2.4429354667663574,0.06991903483867645,0
40,0.1950092315673828,-0.8354122042655945,-46.34963607788086,-5.735073566436768,19.586824417114258,0.9039207100868225,2.4429354667663574,-0.06991903483867645,0.0,0.0,0.0,0.0,0.0,0.0,0.0,-0.8481472840925993,-0.07375420648494568,-0.5644861907487245,0.4150954744510252,0.3222352328966021,0.1619342928357105,-0.06956082685590068,0.8781189066945461,0.7555583521190441,-0.28249557732280933,-1.6691761325702332,0.14136134085071428,2.4033998273743524,1.0273099147395954,0.878092876070424,0.7554597494309409,-0.2825552651693207,-1.6690993614607135,0.1414185955172306,2.4034451173676383,1.0273381002308042,-0.00018677247746270182,-0.0014346823384972106,0.00013363830241926546,0.0005372245383338726,0.00019349928817805444,-0.00027742090518299313,-0.0006236328342767747,0.0,0.0,0.0,0.0,0.0,0.0,0.0,-2.6030624122097556e-05,-9.860268810324424e-05,-5.9687846511391474e-05,7.677110951975763e-05,5.725466651632094e-05,4.5289993285901886e-05,2.8185491208754243e-05,0.00018677247746270182,0.0014346823384972106,-0.00013363830241926546,-0.0005372245383338726,-0.00019349928817805444,0.00027742090518299313,0.0006236328342767747,0.8354122042655945,46.34963607788086,5.735073566436768,-19.586824417114258,-0.9039207100868225,-2.4429354667663574,0.06991903483867645,0
41,0.1999504566192627,-0.8592159152030945,-46.37740707397461,-5.735073566436768,19.559053421020508,0.9039207100868225,2.4429354667663574,-0.04977743700146675,0.0,0.0,0.0,0.0,0.0,0.0,0.0,-0.8590985940029301,-0.07626361260598137,-0.5704246306728045,0.4136132589734659,0.3226619470336626,0.1635951054406271,-0.07096015492741536,0.8781205771304014,0.7555603009608752,-0.2824956560598092,-1.6691741837284022,0.14136135397347355,2.4033998273743524,1.0273076767842804,0.878092876070424,0.7554597494309409,-0.2825552651693207,-1.6690993614607135,0.1414185955172306,2.4034451173676383,1.0273381002308042,-0.00027168723198716575,-0.0006474903191893222,6.100528337873295e-05,0.0012308171421920545,8.474185313786661e-05,-0.00033240417000229556,-0.0004652892675373872,0.0,0.0,0.0,0.0,0.0,0.0,0.0,-2.770105997740302e-05,-0.00010055152993437844,-5.960910951152698e-05,7.482226768873446e-05,5.7241543757052815e-05,4.5289993285901886e-05,3.0423446523819564e-05,0.00027168723198716575,0.0006474903191893222,-6.100528337873295e-05,-0.0012308171421920545,-8.474185313786661e-05,0.00033240417000229556,0.0004652892675373872,0.8592159152030945,46.37740707397461,5.735073566436768,-19.559053421020508,-0.9039207100868225,-2.4429354667663574,0.04977743700146675,0
42,0.20499181747436523,-0.8592159152030945,-46.37740707397461,-5.735073566436768,19.559053421020508,0.9039207100868225,2.4429354667663574,-0.04977743700146675,0.0,0.0,0.0,0.0,0.0,0.0,0.0,-0.8590985940029301,-0.07626361260598137,-0.5704246306728045,0.4136132589734659,0.3226619470336626,0.1635951054406271,-0.07096015492741536,0.8781205771304014,0.7555603009608752,-0.2824956560598092,-1.6691741837284022,0.14136135397347355,2.4033998273743524,1.0273076767842804,0.878092876070424,0.7554597494309409,-0.2825552651693207,-1.6690993614607135,0.1414185955172306,2.4034451173676383,1.0273381002308042,-0.00027168723198716575,-0.0006474903191893222,6.100528337873295e-05,0.0012308171421920545,8.474185313786661e-05,-0.00033240417000229556,-0.0004652892675373872,0.0,0.0,0.0,0.0,0.0,0.0,0.0,-2.770105997740302e-05,-0.00010055152993437844,-5.960910951152698e-05,7.482226768873446e-05,5.7241543757052815e-05,4.5289993285901886e-05,3.0423446523819564e-05,0.00027168723198716575,0.0006474903191893222,-6.100528337873295e-05,-0.0012308171421920545,-8.474185313786661e-05,0.00033240417000229556,0.0004652892675373872,0.8592159152030945,46.37740707397461,5.735073566436768,-19.559053421020508,-0.9039207100868225,-2.4429354667663574,0.04977743700146675,0
43,0.20993542671203613,-0.8592159152030945,-46.37740707397461,-5.735073566436768,19.559053421020508,0.9039207100868225,2.4429354667663574,-0.04977743700146675,0.0,0.0,0.0,0.0,0.0,0.0,0.0,-0.8590985940029301,-0.07626361260598137,-0.5704246306728045,0.4136132589734659,0.3226619470336626,0.1635951054406271,-0.07096015492741536,0.8781205771304014,0.7555603009608752,-0.2824956560598092,-1.6691741837284022,0.14136135397347355,2.4033998273743524,1.0273076767842804,0.878092876070424,0.7554597494309409,-0.2825552651693207,-1.6690993614607135,0.1414185955172306,2.4034451173676383,1.0273381002308042,-0.00027168723198716575,-0.0006474903191893222,6.100528337873295e-05,0.0012308171421920545,8.474185313786661e-05,-0.00033240417000229556,-0.0004652892675373872,0.0,0.0,0.0,0.0,0.0,0.0,0.0,-2.770105997740302e-05,-0.00010055152993437844,-5.960910951152698e-05,7.482226768873446e-05,5.7241543757052815e-05,4.5289993285901886e-05,3.0423446523819564e-05,0.00027168723198716575,0.0006474903191893222,-6.100528337873295e-05,-0.0012308171421920545,-8.474185313786661e-05,0.00033240417000229556,0.0004652892675373872,0.8592159152030945,46.37740707397461,5.735073566436768,-19.559053421020508,-0.9039207100868225,-2.4429354667663574,0.04977743700146675,0
44,0.2149968147277832,-0.8592159152030945,-46.37740707397461,-5.735073566436768,19.559053421020508,0.9039207100868225,2.4429354667663574,-0.04977743700146675,0.0,0.0,0.0,0.0,0.0,0.0,0.0,-0.8590985940029301,-0.07626361260598137,-0.5704246306728045,0.4136132589734659,0.3226619470336626,0.1635951054406271,-0.07096015492741536,0.8781205771304014,0.7555603009608752,-0.2824956560598092,-1.6691741837284022,0.14136135397347355,2.4033998273743524,1.0273076767842804,0.878092876070424,0.7554597494309409,-0.2825552651693207,-1.6690993614607135,0.1414185955172306,2.4034451173676383,1.0273381002308042,-0.00027168723198716575,-0.0006474903191893222,6.100528337873295e-05,0.0012308171421920545,8.474185313786661e-05,-0.00033240417000229556,-0.0004652892675373872,0.0,0.0,0.0,0.0,0.0,0.0,0.0,-2.770105997740302e-05,-0.00010055152993437844,-5.960910951152698e-05,7.482226768873446e-05,5.7241543757052815e-05,4.5289993285901886e-05,3.0423446523819564e-05,0.00027168723198716575,0.0006474903191893222,-6.100528337873295e-05,-0.0012308171421920545,-8.474185313786661e-05,0.00033240417000229556,0.0004652892675373872,0.8592159152030945,46.37740707397461,5.735073566436768,-19.559053421020508,-0.9039207100868225,-2.4429354667663574,0.04977743700146675,0
45,0.22052717208862305,-0.8354122042655945,-46.44881820678711,-5.735073566436768,19.610628128051758,0.9094138741493225,2.4365267753601074,-0.07724325358867645,0.0,0.0,0.0,0.0,0.0,0.0,0.0,-0.8404726493299992,-0.07375842098590693,-0.5580192174152927,0.4103303684627333,0.3216832179981069,0.16457472563531905,-0.07049483562816657,0.8781189095834772,0.755565312268441,-0.2824955773232538,-1.6691778030060884,0.14136074362198509,2.4034005394511753,1.027310728541679,0.878092876070424,0.7554597494309409,-0.2825552651693207,-1.6690993614607135,0.1414185955172306,2.4034451173676383,1.0273381002308042,-0.00019973051850517395,0.0011215934666008738,-0.00015504754250974425,-0.00018392221569283655,-0.00021112579509580264,-0.0002458888360067725,0.0003141265810641822,0.0,0.0,0.0,0.0,0.0,0.0,0.0,-2.6033513053191903e-05,-0.0001055628375001838,-5.9687846066913686e-05,7.844154537495207e-05,5.785189524551426e-05,4.4577916463062195e-05,2.7371689125255116e-05,0.00019973051850517395,-0.0011215934666008738,0.00015504754250974425,0.00018392221569283655,0.00021112579509580264,0.0002458888360067725,-0.0003141265810641822,0.8354122042655945,46.44881820678711,5.735073566436768,-19.610628128051758,-0.9094138741493225,-2.4365267753601074,0.07724325358867645,0
46,0.22499585151672363,-0.8354122042655945,-46.44881820678711,-5.735073566436768,19.610628128051758,0.9094138741493225,2.4365267753601074,-0.07724325358867645,0.0,0.0,0.0,0.0,0.0,0.0,0.0,-0.8404726493299992,-0.07375842098590693,-0.5580192174152927,0.4103303684627333,0.3216832179981069,0.16457472563531905,-0.07049483562816657,0.8781189095834772,0.755565312268441,-0.2824955773232538,-1.6691778030060884,0.14136074362198509,2.4034005394511753,1.027310728541679,0.878092876070424,0.7554597494309409,-0.2825552651693207,-1.6690993614607135,0.1414185955172306,2.4034451173676383,1.0273381002308042,-0.00019973051850517395,0.0011215934666008738,-0.00015504754250974425,-0.00018392221569283655,-0.00021112579509580264,-0.0002458888360067725,0.0003141265810641822,0.0,0.0,0.0,0.0,0.0,0.0,0.0,-2.6033513053191903e-05,-0.0001055628375001838,-5.9687846066913686e-05,7.844154537495207e-05,5.785189524551426e-05,4.4577916463062195e-05,2.7371689125255116e-05,0.00019973051850517395,-0.0011215934666008738,0.00015504754250974425,0.00018392221569283655,0.00021112579509580264,0.0002458888360067725,-0.0003141265810641822,0.8354122042655945,46.44881820678711,5.735073566436768,-19.610628128051758,-0.9094138741493225,-2.4365267753601074,0.07724325358867645,0
47,0.2300400733947754,-0.8869869112968445,-46.40121078491211,-5.762844562530518,19.634431838989258,0.9158225655555725,2.4429354667663574,-0.08365194499492645,0.0,0.0,0.0,0.0,0.0,0.0,0.0,-0.8397440633466924,-0.06923969063062159,-0.5578877814978439,0.40607009728388893,0.32135774429503283,0.16368580676180436,-0.07065454997944412,0.8781225259722488,0.7555619713967305,-0.2824936284809782,-1.6691794734419438,0.14136003154516216,2.4033998273743524,1.0273114406185018,0.878092876070424,0.7554597494309409,-0.2825552651693207,-1.6690993614607135,0.1414185955172306,2.4034451173676383,1.0273381002308042,0.001001404277859621,-0.00021906886185406438,0.0009583181140527364,-0.0004178611474345093,-0.00021461236471612062,0.006569333347982273,0.0009561040729918374,0.0,0.0,0.0,0.0,0.0,0.0,0.0,-2.9649901824857494e-05,-0.0001022219657896839,-6.163668834252567e-05,8.011198123036856e-05,5.856397206843722e-05,4.5289993285901886e-05,2.6659612302415425e-05,-0.001001404277859621,0.00021906886185406438,-0.0009583181140527364,0.0004178611474345093,0.00021461236471612062,-0.006569333347982273,-0.0009561040729918374,0.8869869112968445,46.40121078491211,5.762844562530518,-19.634431838989258,-0.9158225655555725,-2.4429354667663574,0.08365194499492645,0
48,0.2349400520324707,-0.8869869112968445,-46.40121078491211,-5.762844562530518,19.634431838989258,0.9158225655555725,2.4429354667663574,-0.08365194499492645,0.0,0.0,0.0,0.0,0.0,0.0,0.0,-0.8397440633466924,-0.06923969063062159,-0.5578877814978439,0.40607009728388893,0.32135774429503283,0.16368580676180436,-0.07065454997944412,0.8781225259722488,0.7555619713967305,-0.2824936284809782,-1.6691794734419438,0.14136003154516216,2.4033998273743524,1.0273114406185018,0.878092876070424,0.7554597494309409,-0.2825552651693207,-1.6690993614607135,0.1414185955172306,2.4034451173676383,1.0273381002308042,0.001001404277859621,-0.00021906886185406438,0.0009583181140527364,-0.0004178611474345093,-0.00021461236471612062,0.006569333347982273,0.0009561040729918374,0.0,0.0,0.0,0.0,0.0,0.0,0.0,-2.9649901824857494e-05,-0.0001022219657896839,-6.163668834252567e-05,8.011198123036856e-05,5.856397206843722e-05,4.5289993285901886e-05,2.6659612302415425e-05,-0.001001404277859621,0.00021906886185406438,-0.0009583181140527364,0.0004178611474345093,0.00021461236471612062,-0.006569333347982273,-0.0009561040729918374,0.8869869112968445,46.40121078491211,5.762844562530518,-19.634431838989258,-0.9158225655555725,-2.4429354667663574,0.08365194499492645,0
49,0.2399911880493164,-0.8592159152030945,-46.40121078491211,-5.711269855499268,19.586824417114258,0.8975120186805725,2.4237093925476074,-0.06991903483867645,0.0,0.0,0.0,0.0,0.0,0.0,0.0,-0.845348846513614,-0.0560424663716129,-0.5587563932394651,0.3985842023363316,0.32219027077051937,0.16248241492579865,-0.06991251029553476,0.8781205771304014,0.7555619713967305,-0.2824972477586646,-1.6691761325702332,0.1413620660503705,2.403401963604821,1.0273099147395954,0.878092876070424,0.7554597494309409,-0.2825552651693207,-1.6690993614607135,0.1414185955172306,2.4034451173676383,1.0273381002308042,0.0003523900287235988,0.0004685435236666435,-0.00021272520835484068,0.0003519192276901319,0.00015523611605336923,0.00041689923434457834,-0.0003680556663588378,0.0,0.0,0.0,0.0,0.0,0.0,0.0,-2.770105997740302e-05,-0.0001022219657896839,-5.801741065614152e-05,7.677110951975763e-05,5.652946686010574e-05,4.315376281738281e-05,2.8185491208754243e-05,-0.0003523900287235988,-0.0004685435236666435,0.00021272520835484068,-0.0003519192276901319,-0.00015523611605336923,-0.00041689923434457834,0.0003680556663588378,0.8592159152030945,46.40121078491211,5.711269855499268,-19.586824417114258,-0.8975120186805725,-2.4237093925476074,0.06991903483867645,0
50,0.24576067924499512,-0.8592159152030945,-46.40121078491211,-5.711269855499268,19.586824417114258,0.8975120186805725,2.4237093925476074,-0.06991903483867645,0.0,0.0,0.0,0.0,0.0,0.0,0.0,-0.845348846513614,-0.0560424663716129,-0.5587563932394651,0.3985842023363316,0.32219027077051937,0.16248241492579865,-0.06991251029553476,0.8781205771304014,0.7555619713967305,-0.2824972477586646,-1.6691761325702332,0.1413620660503705,2.403401963604821,1.0273099147395954,0.878092876070424,0.7554597494309409,-0.2825552651693207,-1.6690993614607135,0.1414185955172306,2.4034451173676383,1.0273381002308042,0.0003523900287235988,0.0004685435236666435,-0.00021272520835484068,0.0003519192276901319,0.00015523611605336923,0.00041689923434457834,-0.0003680556663588378,0.0,0.0,0.0,0.0,0.0,0.0,0.0,-2.770105997740302e-05,-0.0001022219657896839,-5.801741065614152e-05,7.677110951975763e-05,5.652946686010574e-05,4.315376281738281e-05,2.8185491208754243e-05,-0.0003523900287235988,-0.0004685435236666435,0.00021272520835484068,-0.0003519192276901319,-0.00015523611605336923,-0.00041689923434457834,0.0003680556663588378,0.8592159152030945,46.40121078491211,5.711269855499268,-19.586824417114258,-0.8975120186805725,-2.4237093925476074,0.06991903483867645,0
51,0.24999308586120605,-0.9107906222343445,-46.34963607788086,-5.762844562530518,19.586824417114258,0.9039207100868225,2.4301180839538574,-0.04336874559521675,0.0,0.0,0.0,0.0,0.0,0.0,0.0,-0.8559812783346431,-0.07059412917143161,-0.5691465381929849,0.4089543692047497,0.32237061125719874,0.16442147553431868,-0.07076518845495966,0.8781241964080877,0.7555583521190441,-0.2824936284809782,-1.6691768478259705,0.14136135391954419,2.403401251527998,1.0273069647074573,0.878092876070424,0.7554597494309409,-0.2825552651693207,-1.6690993614607135,0.1414185955172306,2.4034451173676383,1.0273381002308042,0.0012199106835950894,-0.0008925837582009523,0.00035263964616300317,0.0005598055158046346,0.00027728387666181554,-0.00015677856110545338,-0.0014319138139027752,0.0,0.0,0.0,0.0,0.0,0.0,0.0,-3.132033766373166e-05,-9.860268810324424e-05,-6.163668834252567e-05,7.748636525706232e-05,5.724159768641379e-05,4.3865839640222504e-05,3.11355233468813e-05,-0.0012199106835950894,0.0008925837582009523,-0.00035263964616300317,-0.0005598055158046346,-0.00027728387666181554,0.00015677856110545338,0.0014319138139027752,0.9107906222343445,46.34963607788086,5.762844562530518,-19.586824417114258,-0.9039207100868225,-2.4301180839538574,0.04336874559521675,0
52,0.25499415397644043,-0.9107906222343445,-46.34963607788086,-5.762844562530518,19.586824417114258,0.9039207100868225,2.4301180839538574,-0.04336874559521675,0.0,0.0,0.0,0.0,0.0,0.0,0.0,-0.8559812783346431,-0.07059412917143161,-0.5691465381929849,0.4089543692047497,0.32237061125719874,0.16442147553431868,-0.07076518845495966,0.8781241964080877,0.7555583521190441,-0.2824936284809782,-1.6691768478259705,0.14136135391954419,2.403401251527998,1.0273069647074573,0.878092876070424,0.7554597494309409,-0.2825552651693207,-1.6690993614607135,0.1414185955172306,2.4034451173676383,1.0273381002308042,0.0012199106835950894,-0.0008925837582009523,0.00035263964616300317,0.0005598055158046346,0.00027728387666181554,-0.00015677856110545338,-0.0014319138139027752,0.0,0.0,0.0,0.0,0.0,0.0,0.0,-3.132033766373166e-05,-9.860268810324424e-05,-6.163668834252567e-05,7.748636525706232e-05,5.724159768641379e-05,4.3865839640222504e-05,3.11355233468813e-05,-0.0012199106835950894,0.0008925837582009523,-0.00035263964616300317,-0.0005598055158046346,-0.00027728387666181554,0.00015677856110545338,0.0014319138139027752,0.9107906222343445,46.34963607788086,5.762844562530518,-19.586824417114258,-0.9039207100868225,-2.4301180839538574,0.04336874559521675,0
53,0.25999021530151367,-0.8592159152030945,-46.40121078491211,-5.762844562530518,19.634431838989258,0.9039207100868225,2.4173007011413574,-0.04336874559521675,0.0,0.0,0.0,0.0,0.0,0.0,0.0,-0.8463465150293807,-0.07476163046780933,-0.5644713419426011,0.41502318306370733,0.3218792782438926,0.16475047288866607,-0.07034851645364174,0.8781205771304014,0.7555619713967305,-0.2824936284809782,-1.6691794734459813,0.141361340850714,2.4034026755201388,1.0273069647074573,0.878092876070424,0.7554597494309409,-0.2825552651693207,-1.6690993614607135,0.1414185955172306,2.4034451173676383,1.0273381002308042,-4.294759860632835e-05,0.0004768515960053993,0.0006367928682377733,-0.0004094797784616463,-1.1285888513334121e-05,0.00035228496453052285,-0.0008465821581247894,0.0,0.0,0.0,0.0,0.0,0.0,0.0,-2.770105997740302e-05,-0.0001022219657896839,-6.163668834252567e-05,8.011198526780561e-05,5.7254666516598496e-05,4.244184749957469e-05,3.11355233468813e-05,4.294759860632835e-05,-0.0004768515960053993,-0.0006367928682377733,0.0004094797784616463,1.1285888513334121e-05,-0.00035228496453052285,0.0008465821581247894,0.8592159152030945,46.40121078491211,5.762844562530518,-19.634431838989258,-0.9039207100868225,-2.4173007011413574,0.04336874559521675,0
54,0.26500391960144043,-0.8592159152030945,-46.40121078491211,-5.762844562530518,19.634431838989258,0.9039207100868225,2.4173007011413574,-0.04336874559521675,0.0,0.0,0.0,0.0,0.0,0.0,0.0,-0.8463465150293807,-0.07476163046780933,-0.5644713419426011,0.41502318306370733,0.3218792782438926,0.16475047288866607,-0.07034851645364174,0.8781205771304014,0.7555619713967305,-0.2824936284809782,-1.6691794734459813,0.141361340850714,2.4034026755201388,1.0273069647074573,0.878092876070424,0.7554597494309409,-0.2825552651693207,-1.6690993614607135,0.1414185955172306,2.4034451173676383,1.0273381002308042,-4.294759860632835e-05,0.0004768515960053993,0.0006367928682377733,-0.0004094797784616463,-1.1285888513334121e-05,0.00035228496453052285,-0.0008465821581247894,0.0,0.0,0.0,0.0,0.0,0.0,0.0,-2.770105997740302e-05,-0.0001022219657896839,-6.163668834252567e-05,8.011198526780561e-05,5.7254666516598496e-05,4.244184749957469e-05,3.11355233468813e-05,4.294759860632835e-05,-0.0004768515960053993,-0.0006367928682377733,0.0004094797784616463,1.1285888513334121e-05,-0.00035228496453052285,0.0008465821581247894,0.8592159152030945,46.40121078491211,5.762844562530518,-19.634431838989258,-0.9039207100868225,-2.4173007011413574,0.04336874559521675,0
55,0.27001261711120605,-0.8354122042655945,-46.42501449584961,-5.735073566436768,19.586824417114258,0.9039207100868225,2.4365267753601074,-0.09738485515117645,0.0,0.0,0.0,0.0,0.0,0.0,0.0,-0.8489764265866759,-0.06916362407307655,-0.5642579482094893,0.4129710013448814,0.3213533996084784,0.1634356351427319,-0.06951688085371431,0.8781189066945461,0.7555636418325858,-0.28249557732280933,-1.6691761355136725,0.1413613539733254,2.4033973605367844,1.027312966497408,0.878092876070424,0.7554597494309409,-0.2825552651693207,-1.6690993614607135,0.1414185955172306,2.4034451173676383,1.0273381002308042,-0.000511728584643115,0.0007879701447454263,0.00010532069621358245,0.0004802897941909976,9.389614597368026e-05,-0.00043916910402231203,0.0005607095191825295,0.0,0.0,0.0,0.0,0.0,0.0,0.0,-2.6030624122097556e-05,-0.00010389240164498936,-5.9687846511391474e-05,7.677405295902773e-05,5.724154390521208e-05,4.775683085389559e-05,2.5133733396076607e-05,0.000511728584643115,-0.0007879701447454263,-0.00010532069621358245,-0.0004802897941909976,-9.389614597368026e-05,0.00043916910402231203,-0.0005607095191825295,0.8354122042655945,46.42501449584961,5.735073566436768,-19.586824417114258,-0.9039207100868225,-2.4365267753601074,0.09738485515117645,0
56,0.2750120162963867,-0.8354122042655945,-46.42501449584961,-5.735073566436768,19.586824417114258,0.9039207100868225,2.4365267753601074,-0.09738485515117645,0.0,0.0,0.0,0.0,0.0,0.0,0.0,-0.8489764265866759,-0.06916362407307655,-0.5642579482094893,0.4129710013448814,0.3213533996084784,0.1634356351427319,-0.06951688085371431,0.8781189066945461,0.7555636418325858,-0.28249557732280933,-1.6691761355136725,0.1413613539733254,2.4033973605367844,1.027312966497408,0.878092876070424,0.7554597494309409,-0.2825552651693207,-1.6690993614607135,0.1414185955172306,2.4034451173676383,1.0273381002308042,-0.000511728584643115,0.0007879701447454263,0.00010532069621358245,0.0004802897941909976,9.389614597368026e-05,-0.00043916910402231203,0.0005607095191825295,0.0,0.0,0.0,0.0,0.0,0.0,0.0,-2.6030624122097556e-05,-0.00010389240164498936,-5.9687846511391474e-05,7.677405295902773e-05,5.724154390521208e-05,4.775683085389559e-05,2.5133733396076607e-05,0.000511728584643115,-0.0007879701447454263,-0.00010532069621358245,-0.0004802897941909976,-9.389614597368026e-05,0.00043916910402231203,-0.0005607095191825295,0.8354122042655945,46.42501449584961,5.735073566436768,-19.586824417114258,-0.9039207100868225,-2.4365267753601074,0.09738485515117645,0
57,0.2800323963165283,-0.8076412081718445,-46.42501449584961,-5.735073566436768,19.610628128051758,0.9039207100868225,2.4301180839538574,-0.08365194499492645,0.0,0.0,0.0,0.0,0.0,0.0,0.0,-0.8463435840586636,-0.06987907793415245,-0.5624902417646169,0.41250502791226595,0.3220635578967624,0.16280765480256537,-0.07275472603650072,0.8781169578527149,0.7555636418325858,-0.28249557732280933,-1.66917780311511,0.14136123586804777,2.4034012515220162,1.0273103809803723,0.878092876070424,0.7554597494309409,-0.2825552651693207,-1.6690993614607135,0.1414185955172306,2.4034451173676383,1.0273381002308042,-0.0006192571037371652,0.0008639395566891337,-7.486357067301714e-06,4.7472096733753915e-07,3.382319461693509e-05,-0.00017633432925550233,-0.006357031101398176,0.0,0.0,0.0,0.0,0.0,0.0,0.0,-2.408178229096336e-05,-0.00010389240164498936,-5.9687846511391474e-05,7.844165439663264e-05,5.7359649182825434e-05,4.386584562210416e-05,2.771925043187906e-05,0.0006192571037371652,-0.0008639395566891337,7.486357067301714e-06,-4.7472096733753915e-07,-3.382319461693509e-05,0.00017633432925550233,0.006357031101398176,0.8076412081718445,46.42501449584961,5.735073566436768,-19.610628128051758,-0.9039207100868225,-2.4301180839538574,0.08365194499492645,0
58,0.28499507904052734,-0.8076412081718445,-46.42501449584961,-5.735073566436768,19.610628128051758,0.9039207100868225,2.4301180839538574,-0.08365194499492645,0.0,0.0,0.0,0.0,0.0,0.0,0.0,-0.8463435840586636,-0.06987907793415245,-0.5624902417646169,0.41250502791226595,0.3220635578967624,0.16280765480256537,-0.07275472603650072,0.8781169578527149,0.7555636418325858,-0.28249557732280933,-1.66917780311511,0.14136123586804777,2.4034012515220162,1.0273103809803723,0.878092876070424,0.7554597494309409,-0.2825552651693207,-1.6690993614607135,0.1414185955172306,2.4034451173676383,1.0273381002308042,-0.0006192571037371652,0.0008639395566891337,-7.486357067301714e-06,4.7472096733753915e-07,3.382319461693509e-05,-0.00017633432925550233,-0.006357031101398176,0.0,0.0,0.0,0.0,0.0,0.0,0.0,-2.408178229096336e-05,-0.00010389240164498936,-5.9687846511391474e-05,7.844165439663264e-05,5.7359649182825434e-05,4.386584562210416e-05,2.771925043187906e-05,0.0006192571037371652,-0.0008639395566891337,7.486357067301714e-06,-4.7472096733753915e-07,-3.382319461693509e-05,0.00017633432925550233,0.006357031101398176,0.8076412081718445,46.42501449584961,5.735073566436768,-19.610628128051758,-0.9039207100868225,-2.4301180839538574,0.08365194499492645,0
59,0.2899918556213379,-0.8869869112968445,-46.47658920288086,-5.687466144561768,19.634431838989258,0.9039207100868225,2.4237093925476074,-0.07724325358867645,0.0,0.0,0.0,0.0,0.0,0.0,0.0,-0.8390265697984343,-0.07420021795443262,-0.5602594974555735,0.4145589132894593,0.3220711687907424,0.16268176305643342,-0.07137615187925618,0.8781225259722325,0.7555672611102722,-0.28249891819451983,-1.6691792261930476,0.1413613539728809,2.403401963604821,1.0273107285356973,0.878092876070424,0.7554597494309409,-0.2825552651693207,-1.6690993614607135,0.1414185955172306,2.4034451173676383,1.0273381002308042,0.0016711943821251173,0.001732829209244452,-0.001027014165867064,-6.644532079853658e-05,0.00018346342303415662,0.0001572940678874541,0.00014003928086015328,0.0,0.0,0.0,0.0,0.0,0.0,0.0,-2.9649901808537216e-05,-0.000107511679331318,-5.634697480089157e-05,7.986473233412283e-05,5.7241544349689866e-05,4.315376281738281e-05,2.737169510691473e-05,-0.0016711943821251173,-0.001732829209244452,0.001027014165867064,6.644532079853658e-05,-0.00018346342303415662,-0.0001572940678874541,-0.00014003928086015328,0.8869869112968445,46.47658920288086,5.687466144561768,-19.634431838989258,-0.9039207100868225,-2.4237093925476074,0.07724325358867645,0
60,0.29499387741088867,-0.8869869112968445,-46.47658920288086,-5.687466144561768,19.634431838989258,0.9039207100868225,2.4237093925476074,-0.07724325358867645,0.0,0.0,0.0,0.0,0.0,0.0,0.0,-0.8390265697984343,-0.07420021795443262,-0.5602594974555735,0.4145589132894593,0.3220711687907424,0.16268176305643342,-0.07137615187925618,0.8781225259722325,0.7555672611102722,-0.28249891819451983,-1.6691792261930476,0.1413613539728809,2.403401963604821,1.0273107285356973,0.878092876070424,0.7554597494309409,-0.2825552651693207,-1.6690993614607135,0.1414185955172306,2.4034451173676383,1.0273381002308042,0.0016711943821251173,0.001732829209244452,-0.001027014165867064,-6.644532079853658e-05,0.00018346342303415662,0.0001572940678874541,0.00014003928086015328,0.0,0.0,0.0,0.0,0.0,0.0,0.0,-2.9649901808537216e-05,-0.000107511679331318,-5.634697480089157e-05,7.986473233412283e-05,5.7241544349689866e-05,4.315376281738281e-05,2.737169510691473e-05,-0.0016711943821251173,-0.001732829209244452,0.001027014165867064,6.644532079853658e-05,-0.00018346342303415662,-0.0001572940678874541,-0.00014003928086015328,0.8869869112968445,46.47658920288086,5.687466144561768,-19.634431838989258,-0.9039207100868225,-2.4237093925476074,0.07724325358867645,0
61,0.2999911308288574,-0.8592159152030945,-46.42501449584961,-5.735073566436768,19.610628128051758,0.9094138741493225,2.4365267753601074,-0.11111776530742645,0.0,0.0,0.0,0.0,0.0,0.0,0.0,-0.850869481948338,-0.0685772158683622,-0.5682510429605228,0.40798862663038804,0.32175611584880415,0.16104715027176575,-0.07069738562432253,0.8781205771304014,0.7555636418325858,-0.28249557732280933,-1.6691778030046927,0.14136074362198509,2.4034005394511753,1.0273144923763142,0.878092876070424,0.7554597494309409,-0.2825552651693207,-1.6690993614607135,0.1414185955172306,2.4034451173676383,1.0273381002308042,0.00018520570630270797,0.0001456489077457983,-1.4796525635925716e-05,-0.00012534340463500363,-9.827256875787368e-05,-0.00048787276321252116,0.0014290598843092054,0.0,0.0,0.0,0.0,0.0,0.0,0.0,-2.770105997740302e-05,-0.00010389240164498936,-5.9687846511391474e-05,7.844154397917968e-05,5.785189524551426e-05,4.4577916463062195e-05,2.3607854489959834e-05,-0.00018520570630270797,-0.0001456489077457983,1.4796525635925716e-05,0.00012534340463500363,9.827256875787368e-05,0.00048787276321252116,-0.0014290598843092054,0.8592159152030945,46.42501449584961,5.735073566436768,-19.610628128051758,-0.9094138741493225,-2.4365267753601074,0.11111776530742645,0
62,0.30500173568725586,-0.8592159152030945,-46.42501449584961,-5.735073566436768,19.610628128051758,0.9094138741493225,2.4365267753601074,-0.11111776530742645,0.0,0.0,0.0,0.0,0.0,0.0,0.0,-0.850869481948338,-0.0685772158683622,-0.5682510429605228,0.40798862663038804,0.32175611584880415,0.16104715027176575,-0.07069738562432253,0.8781205771304014,0.7555636418325858,-0.28249557732280933,-1.6691778030046927,0.14136074362198509,2.4034005394511753,1.0273144923763142,0.878092876070424,0.7554597494309409,-0.2825552651693207,-1.6690993614607135,0.1414185955172306,2.4034451173676383,1.0273381002308042,0.00018520570630270797,0.0001456489077457983,-1.4796525635925716e-05,-0.00012534340463500363,-9.827256875787368e-05,-0.00048787276321252116,0.0014290598843092054,0.0,0.0,0.0,0.0,0.0,0.0,0.0,-2.770105997740302e-05,-0.00010389240164498936,-5.9687846511391474e-05,7.844154397917968e-05,5.785189524551426e-05,4.4577916463062195e-05,2.3607854489959834e-05,-0.00018520570630270797,-0.0001456489077457983,1.4796525635925716e-05,0.00012534340463500363,9.827256875787368e-05,0.00048787276321252116,-0.0014290598843092054,0.8592159152030945,46.42501449584961,5.735073566436768,-19.610628128051758,-0.9094138741493225,-2.4365267753601074,0.11111776530742645,0
63,0.3100602626800537,-0.8354122042655945,-46.40121078491211,-5.762844562530518,19.610628128051758,0.9039207100868225,2.4301180839538574,-0.07724325358867645,0.0,0.0,0.0,0.0,0.0,0.0,0.0,-0.8378591875986544,-0.06308441504332364,-0.5596571015287704,0.40462221755719663,0.32191745971973035,0.16035160606996057,-0.07106201979390131,0.8781189066945461,0.7555619713967305,-0.2824936284809782,-1.6691778030060882,0.1413613539735476,2.403401251527998,1.027310728541679,0.878092876070424,0.7554597494309409,-0.2825552651693207,-1.6690993614607135,0.1414185955172306,2.4034451173676383,1.0273381002308042,-0.0002888486893430758,0.00014917315097198624,0.0006987285667045616,-0.0002097219824659173,0.00014406671932430247,-0.0003232645076044712,0.00047591778007813557,0.0,0.0,0.0,0.0,0.0,0.0,0.0,-2.6030624122097556e-05,-0.0001022219657896839,-6.163668834252567e-05,7.844154537473003e-05,5.724154368300094e-05,4.3865839640222504e-05,2.7371689125255116e-05,0.0002888486893430758,-0.00014917315097198624,-0.0006987285667045616,0.0002097219824659173,-0.00014406671932430247,0.0003232645076044712,-0.00047591778007813557,0.8354122042655945,46.40121078491211,5.762844562530518,-19.610628128051758,-0.9039207100868225,-2.4301180839538574,0.07724325358867645,0
64,0.31501007080078125,-0.8354122042655945,-46.40121078491211,-5.762844562530518,19.610628128051758,0.9039207100868225,2.4301180839538574,-0.07724325358867645,0.0,0.0,0.0,0.0,0.0,0.0,0.0,-0.8378591875986544,-0.06308441504332364,-0.5596571015287704,0.40462221755719663,0.32191745971973035,0.16035160606996057,-0.07106201979390131,0.8781189066945461,0.7555619713967305,-0.2824936284809782,-1.6691778030060882,0.1413613539735476,2.403401251527998,1.027310728541679,0.878092876070424,0.7554597494309409,-0.2825552651693207,-1.6690993614607135,0.1414185955172306,2.4034451173676383,1.0273381002308042,-0.0002888486893430758,0.00014917315097198624,0.0006987285667045616,-0.0002097219824659173,0.00014406671932430247,-0.0003232645076044712,0.00047591778007813557,0.0,0.0,0.0,0.0,0.0,0.0,0.0,-2.6030624122097556e-05,-0.0001022219657896839,-6.163668834252567e-05,7.844154537473003e-05,5.724154368300094e-05,4.3865839640222504e-05,2.7371689125255116e-05,0.0002888486893430758,-0.00014917315097198624,-0.0006987285667045616,0.0002097219824659173,-0.00014406671932430247,0.0003232645076044712,-0.00047591778007813557,0.8354122042655945,46.40121078491211,5.762844562530518,-19.610628128051758,-0.9039207100868225,-2.4301180839538574,0.07724325358867645,0
65,0.31995224952697754,-0.8354122042655945,-46.40121078491211,-5.762844562530518,19.610628128051758,0.9039207100868225,2.4301180839538574,-0.07724325358867645,0.0,0.0,0.0,0.0,0.0,0.0,0.0,-0.8378591875986544,-0.06308441504332364,-0.5596571015287704,0.40462221755719663,0.32191745971973035,0.16035160606996057,-0.07106201979390131,0.8781189066945461,0.7555619713967305,-0.2824936284809782,-1.6691778030060882,0.1413613539735476,2.403401251527998,1.027310728541679,0.878092876070424,0.7554597494309409,-0.2825552651693207,-1.6690993614607135,0.1414185955172306,2.4034451173676383,1.0273381002308042,-0.0002888486893430758,0.00014917315097198624,0.0006987285667045616,-0.0002097219824659173,0.00014406671932430247,-0.0003232645076044712,0.00047591778007813557,0.0,0.0,0.0,0.0,0.0,0.0,0.0,-2.6030624122097556e-05,-0.0001022219657896839,-6.163668834252567e-05,7.844154537473003e-05,5.724154368300094e-05,4.3865839640222504e-05,2.7371689125255116e-05,0.0002888486893430758,-0.00014917315097198624,-0.0006987285667045616,0.0002097219824659173,-0.00014406671932430247,0.0003232645076044712,-0.00047591778007813557,0.8354122042655945,46.40121078491211,5.762844562530518,-19.610628128051758,-0.9039207100868225,-2.4301180839538574,0.07724325358867645,0
66,0.32494425773620605,-0.8354122042655945,-46.40121078491211,-5.762844562530518,19.610628128051758,0.9039207100868225,2.4301180839538574,-0.07724325358867645,0.0,0.0,0.0,0.0,0.0,0.0,0.0,-0.8378591875986544,-0.06308441504332364,-0.5596571015287704,0.40462221755719663,0.32191745971973035,0.16035160606996057,-0.07106201979390131,0.8781189066945461,0.7555619713967305,-0.2824936284809782,-1.6691778030060882,0.1413613539735476,2.403401251527998,1.027310728541679,0.878092876070424,0.7554597494309409,-0.2825552651693207,-1.6690993614607135,0.1414185955172306,2.4034451173676383,1.0273381002308042,-0.0002888486893430758,0.00014917315097198624,0.0006987285667045616,-0.0002097219824659173,0.00014406671932430247,-0.0003232645076044712,0.00047591778007813557,0.0,0.0,0.0,0.0,0.0,0.0,0.0,-2.6030624122097556e-05,-0.0001022219657896839,-6.163668834252567e-05,7.844154537473003e-05,5.724154368300094e-05,4.3865839640222504e-05,2.7371689125255116e-05,0.0002888486893430758,-0.00014917315097198624,-0.0006987285667045616,0.0002097219824659173,-0.00014406671932430247,0.0003232645076044712,-0.00047591778007813557,0.8354122042655945,46.40121078491211,5.762844562530518,-19.610628128051758,-0.9039207100868225,-2.4301180839538574,0.07724325358867645,0
67,0.32999539375305176,-0.8592159152030945,-46.42501449584961,-5.786648273468018,19.610628128051758,0.8975120186805725,2.4237093925476074,-0.09097616374492645,0.0,0.0,0.0,0.0,0.0,0.0,0.0,-0.8548828724682539,-0.07194546227838786,-0.5731868101029189,0.40966215673346257,0.3228281303647266,0.16072406015476817,-0.06967483174754349,0.8781205771304014,0.7555636418325858,-0.2824919580451229,-1.6691778030060882,0.1413620660503705,2.403401963604821,1.027312254420585,0.878092876070424,0.7554597494309409,-0.2825552651693207,-1.6690993614607135,0.1414185955172306,2.4034451173676383,1.0273381002308042,-8.545600182536513e-05,0.0007705907237705561,0.00073229785134653,8.016035609016544e-05,0.0003314315334938352,-0.0001061872213300901,0.000625968918565267,0.0,0.0,0.0,0.0,0.0,0.0,0.0,-2.770105997740302e-05,-0.00010389240164498936,-6.330712419783113e-05,7.844154537473003e-05,5.652946686010574e-05,4.315376281738281e-05,2.5845810219138343e-05,8.545600182536513e-05,-0.0007705907237705561,-0.00073229785134653,-8.016035609016544e-05,-0.0003314315334938352,0.0001061872213300901,-0.000625968918565267,0.8592159152030945,46.42501449584961,5.786648273468018,-19.610628128051758,-0.8975120186805725,-2.4237093925476074,0.09097616374492645,0
68,0.3350191116333008,-0.8592159152030945,-46.42501449584961,-5.786648273468018,19.610628128051758,0.8975120186805725,2.4237093925476074,-0.09097616374492645,0.0,0.0,0.0,0.0,0.0,0.0,0.0,-0.8548828724682539,-0.07194546227838786,-0.5731868101029189,0.40966215673346257,0.3228281303647266,0.16072406015476817,-0.06967483174754349,0.8781205771304014,0.7555636418325858,-0.2824919580451229,-1.6691778030060882,0.1413620660503705,2.403401963604821,1.027312254420585,0.878092876070424,0.7554597494309409,-0.2825552651693207,-1.6690993614607135,0.1414185955172306,2.4034451173676383,1.0273381002308042,-8.545600182536513e-05,0.0007705907237705561,0.00073229785134653,8.016035609016544e-05,0.0003314315334938352,-0.0001061872213300901,0.000625968918565267,0.0,0.0,0.0,0.0,0.0,0.0,0.0,-2.770105997740302e-05,-0.00010389240164498936,-6.330712419783113e-05,7.844154537473003e-05,5.652946686010574e-05,4.315376281738281e-05,2.5845810219138343e-05,8.545600182536513e-05,-0.0007705907237705561,-0.00073229785134653,-8.016035609016544e-05,-0.0003314315334938352,0.0001061872213300901,-0.000625968918565267,0.8592159152030945,46.42501449584961,5.786648273468018,-19.610628128051758,-0.8975120186805725,-2.4237093925476074,0.09097616374492645,0
69,0.3402590751647949,-0.8592159152030945,-46.40121078491211,-5.786648273468018,19.610628128051758,0.9039207100868225,2.4301180839538574,-0.08365194499492645,0.0,0.0,0.0,0.0,0.0,0.0,0.0,-0.8376234823859103,-0.08239947529719947,-0.5632989524217168,0.42223316091268187,0.32217856557129987,0.16339736688797477,-0.069881052926896,0.8781205771304014,0.7555619713967305,-0.2824919580451229,-1.6691778030060882,0.1413613539735476,2.403401251527998,1.0273114406185018,0.878092876070424,0.7554597494309409,-0.2825552651693207,-1.6690993614607135,0.1414185955172306,2.4034451173676383,1.0273381002308042,9.289480724931153e-05,0.00041815020667753175,0.0008376811975624746,6.987771867818988e-05,3.8220919052851926e-05,-0.0017883836899344804,0.0004092296395838824,0.0,0.0,0.0,0.0,0.0,0.0,0.0,-2.770105997740302e-05,-0.0001022219657896839,-6.330712419783113e-05,7.844154537473003e-05,5.724154368300094e-05,4.3865839640222504e-05,2.6659612302415425e-05,-9.289480724931153e-05,-0.00041815020667753175,-0.0008376811975624746,-6.987771867818988e-05,-3.8220919052851926e-05,0.0017883836899344804,-0.0004092296395838824,0.8592159152030945,46.40121078491211,5.786648273468018,-19.610628128051758,-0.9039207100868225,-2.4301180839538574,0.08365194499492645,0
70,0.34508466720581055,-0.8592159152030945,-46.40121078491211,-5.786648273468018,19.610628128051758,0.9039207100868225,2.4301180839538574,-0.08365194499492645,0.0,0.0,0.0,0.0,0.0,0.0,0.0,-0.8376234823859103,-0.08239947529719947,-0.5632989524217168,0.42223316091268187,0.32217856557129987,0.16339736688797477,-0.069881052926896,0.8781205771304014,0.7555619713967305,-0.2824919580451229,-1.6691778030060882,0.1413613539735476,2.403401251527998,1.0273114406185018,0.878092876070424,0.7554597494309409,-0.2825552651693207,-1.6690993614607135,0.1414185955172306,2.4034451173676383,1.0273381002308042,9.289480724931153e-05,0.00041815020667753175,0.0008376811975624746,6.987771867818988e-05,3.8220919052851926e-05,-0.0017883836899344804,0.0004092296395838824,0.0,0.0,0.0,0.0,0.0,0.0,0.0,-2.770105997740302e-05,-0.0001022219657896839,-6.330712419783113e-05,7.844154537473003e-05,5.724154368300094e-05,4.3865839640222504e-05,2.6659612302415425e-05,-9.289480724931153e-05,-0.00041815020667753175,-0.0008376811975624746,-6.987771867818988e-05,-3.8220919052851926e-05,0.0017883836899344804,-0.0004092296395838824,0.8592159152030945,46.40121078491211,5.786648273468018,-19.610628128051758,-0.9039207100868225,-2.4301180839538574,0.08365194499492645,0
71,0.3499462604522705,-0.8354122042655945,-46.40121078491211,-5.711269855499268,19.610628128051758,0.9039207100868225,2.4301180839538574,-0.08365194499492645,0.0,0.0,0.0,0.0,0.0,0.0,0.0,-0.8341187110467044,-0.0805346937633801,-0.5614743641628485,0.4163938184259481,0.32216018415989867,0.16176295089370693,-0.06905533868547122,0.8781189066945461,0.7555619713967305,-0.2824972477586646,-1.6691778030060882,0.1413613539735476,2.403401251527998,1.0273114406185018,0.878092876070424,0.7554597494309409,-0.2825552651693207,-1.6690993614607135,0.1414185955172306,2.4034451173676383,1.0273381002308042,3.849433083804429e-05,-0.00032462442258870126,-0.0004997010942731051,6.85798500578379e-05,0.0002116210241432862,-2.5519989776956237e-05,0.00047095267606851255,0.0,0.0,0.0,0.0,0.0,0.0,0.0,-2.6030624122097556e-05,-0.0001022219657896839,-5.801741065614152e-05,7.844154537473003e-05,5.724154368300094e-05,4.3865839640222504e-05,2.6659612302415425e-05,-3.849433083804429e-05,0.00032462442258870126,0.0004997010942731051,-6.85798500578379e-05,-0.0002116210241432862,2.5519989776956237e-05,-0.00047095267606851255,0.8354122042655945,46.40121078491211,5.711269855499268,-19.610628128051758,-0.9039207100868225,-2.4301180839538574,0.08365194499492645,0
72,0.35496044158935547,-0.8354122042655945,-46.40121078491211,-5.711269855499268,19.610628128051758,0.9039207100868225,2.4301180839538574,-0.08365194499492645,0.0,0.0,0.0,0.0,0.0,0.0,0.0,-0.8341187110467044,-0.0805346937633801,-0.5614743641628485,0.4163938184259481,0.32216018415989867,0.16176295089370693,-0.06905533868547122,0.8781189066945461,0.7555619713967305,-0.2824972477586646,-1.6691778030060882,0.1413613539735476,2.403401251527998,1.0273114406185018,0.878092876070424,0.7554597494309409,-0.2825552651693207,-1.6690993614607135,0.1414185955172306,2.4034451173676383,1.0273381002308042,3.849433083804429e-05,-0.00032462442258870126,-0.0004997010942731051,6.85798500578379e-05,0.0002116210241432862,-2.5519989776956237e-05,0.00047095267606851255,0.0,0.0,0.0,0.0,0.0,0.0,0.0,-2.6030624122097556e-05,-0.0001022219657896839,-5.801741065614152e-05,7.844154537473003e-05,5.724154368300094e-05,4.3865839640222504e-05,2.6659612302415425e-05,-3.849433083804429e-05,0.00032462442258870126,0.0004997010942731051,-6.85798500578379e-05,-0.0002116210241432862,2.5519989776956237e-05,-0.00047095267606851255,0.8354122042655945,46.40121078491211,5.711269855499268,-19.610628128051758,-0.9039207100868225,-2.4301180839538574,0.08365194499492645,0
73,0.35999274253845215,-0.8354122042655945,-46.37740707397461,-5.735073566436768,19.634431838989258,0.9039207100868225,2.4237093925476074,-0.05710165575146675,0.0,0.0,0.0,0.0,0.0,0.0,0.0,-0.8462598882986714,-0.0652562737011564,-0.5671722943635585,0.40468416310006716,0.322306583232004,0.16055222708810468,-0.07000355503359319,0.8781189066945461,0.7555603009608752,-0.28249557732280933,-1.6691794734419436,0.1413613408507143,2.403401963604821,1.0273084905863636,0.878092876070424,0.7554597494309409,-0.2825552651693207,-1.6690993614607135,0.1414185955172306,2.4034451173676383,1.0273381002308042,-4.541519438848285e-05,-0.0004328920616555391,6.895937384725308e-05,-0.0005529729379708805,2.2988484123951703e-05,0.00011406467424958462,-0.0005541445064951495,0.0,0.0,0.0,0.0,0.0,0.0,0.0,-2.6030624122097556e-05,-0.00010055152993437844,-5.9687846511391474e-05,8.011198123014651e-05,5.7254666516293184e-05,4.315376281738281e-05,2.9609644440542482e-05,4.541519438848285e-05,0.0004328920616555391,-6.895937384725308e-05,0.0005529729379708805,-2.2988484123951703e-05,-0.00011406467424958462,0.0005541445064951495,0.8354122042655945,46.37740707397461,5.735073566436768,-19.634431838989258,-0.9039207100868225,-2.4237093925476074,0.05710165575146675,0
74,0.3649930953979492,-0.8354122042655945,-46.37740707397461,-5.735073566436768,19.634431838989258,0.9039207100868225,2.4237093925476074,-0.05710165575146675,0.0,0.0,0.0,0.0,0.0,0.0,0.0,-0.8462598882986714,-0.0652562737011564,-0.5671722943635585,0.40468416310006716,0.322306583232004,0.16055222708810468,-0.07000355503359319,0.8781189066945461,0.7555603009608752,-0.28249557732280933,-1.6691794734419436,0.1413613408507143,2.403401963604821,1.0273084905863636,0.878092876070424,0.7554597494309409,-0.2825552651693207,-1.6690993614607135,0.1414185955172306,2.4034451173676383,1.0273381002308042,-4.541519438848285e-05,-0.0004328920616555391,6.895937384725308e-05,-0.0005529729379708805,2.2988484123951703e-05,0.00011406467424958462,-0.0005541445064951495,0.0,0.0,0.0,0.0,0.0,0.0,0.0,-2.6030624122097556e-05,-0.00010055152993437844,-5.9687846511391474e-05,8.011198123014651e-05,5.7254666516293184e-05,4.315376281738281e-05,2.9609644440542482e-05,4.541519438848285e-05,0.0004328920616555391,-6.895937384725308e-05,0.0005529729379708805,-2.2988484123951703e-05,-0.00011406467424958462,0.0005541445064951495,0.8354122042655945,46.37740707397461,5.735073566436768,-19.634431838989258,-0.9039207100868225,-2.4237093925476074,0.05710165575146675,0
75,0.36998891830444336,-0.8354122042655945,-46.42501449584961,-5.735073566436768,19.634431838989258,0.9094138741493225,2.4237093925476074,-0.09097616374492645,0.0,0.0,0.0,0.0,0.0,0.0,0.0,-0.8520147203841658,-0.0654547781298486,-0.5687679323083406,0.40460270584735736,0.32175481401337774,0.1610329682905394,-0.07025147193912078,0.8781189066945461,0.7555636418325858,-0.28249557732280933,-1.6691794734419436,0.1413607436219604,2.403401963604821,1.027312254420585,0.878092876070424,0.7554597494309409,-0.2825552651693207,-1.6690993614607135,0.1414185955172306,2.4034451173676383,1.0273381002308042,-0.0003633395265354427,0.0007311931481092735,-7.35955942307778e-06,-0.0007533037970471986,-0.00015555037894075406,0.00025255067952553197,0.0012429099958518241,0.0,0.0,0.0,0.0,0.0,0.0,0.0,-2.6030624122097556e-05,-0.00010389240164498936,-5.9687846511391474e-05,8.011198123014651e-05,5.785189527018897e-05,4.315376281738281e-05,2.5845810219138343e-05,0.0003633395265354427,-0.0007311931481092735,7.35955942307778e-06,0.0007533037970471986,0.00015555037894075406,-0.00025255067952553197,-0.0012429099958518241,0.8354122042655945,46.42501449584961,5.735073566436768,-19.634431838989258,-0.9094138741493225,-2.4237093925476074,0.09097616374492645,0
76,0.3750433921813965,-0.8354122042655945,-46.42501449584961,-5.735073566436768,19.634431838989258,0.9094138741493225,2.4237093925476074,-0.09097616374492645,0.0,0.0,0.0,0.0,0.0,0.0,0.0,-0.8520147203841658,-0.0654547781298486,-0.5687679323083406,0.40460270584735736,0.32175481401337774,0.1610329682905394,-0.07025147193912078,0.8781189066945461,0.7555636418325858,-0.28249557732280933,-1.6691794734419436,0.1413607436219604,2.403401963604821,1.027312254420585,0.878092876070424,0.7554597494309409,-0.2825552651693207,-1.6690993614607135,0.1414185955172306,2.4034451173676383,1.0273381002308042,-0.0003633395265354427,0.0007311931481092735,-7.35955942307778e-06,-0.0007533037970471986,-0.00015555037894075406,0.00025255067952553197,0.0012429099958518241,0.0,0.0,0.0,0.0,0.0,0.0,0.0,-2.6030624122097556e-05,-0.00010389240164498936,-5.9687846511391474e-05,8.011198123014651e-05,5.785189527018897e-05,4.315376281738281e-05,2.5845810219138343e-05,0.0003633395265354427,-0.0007311931481092735,7.35955942307778e-06,0.0007533037970471986,0.00015555037894075406,-0.00025255067952553197,-0.0012429099958518241,0.8354122042655945,46.42501449584961,5.735073566436768,-19.634431838989258,-0.9094138741493225,-2.4237093925476074,0.09097616374492645,0
77,0.3800070285797119,-0.8592159152030945,-46.37740707397461,-5.735073566436768,19.658235549926758,0.9039207100868225,2.4301180839538574,-0.07724325358867645,0.0,0.0,0.0,0.0,0.0,0.0,0.0,-0.8403013974082791,-0.07315295079173871,-0.5589963636941635,0.41123375338846324,0.32139648997337666,0.1624702855683391,-0.06920995326905188,0.8781205771304014,0.7555603009608752,-0.28249557732280933,-1.6691811438777988,0.1413613539735476,2.403401251527998,1.027310728541679,0.878092876070424,0.7554597494309409,-0.2825552651693207,-1.6690993614607135,0.1414185955172306,2.4034451173676383,1.0273381002308042,0.0003187841146851434,-0.000805439414566128,0.0002556944243837869,-0.0008664779180588201,9.0844726764837e-05,3.6203035367264023e-06,-1.6715575910510482e-05,0.0,0.0,0.0,0.0,0.0,0.0,0.0,-2.770105997740302e-05,-0.00010055152993437844,-5.9687846511391474e-05,8.178241708534095e-05,5.724154368300094e-05,4.3865839640222504e-05,2.7371689125255116e-05,-0.0003187841146851434,0.000805439414566128,-0.0002556944243837869,0.0008664779180588201,-9.0844726764837e-05,-3.6203035367264023e-06,1.6715575910510482e-05,0.8592159152030945,46.37740707397461,5.735073566436768,-19.658235549926758,-0.9039207100868225,-2.4301180839538574,0.07724325358867645,0
78,0.38500046730041504,-0.8592159152030945,-46.37740707397461,-5.735073566436768,19.658235549926758,0.9039207100868225,2.4301180839538574,-0.07724325358867645,0.0,0.0,0.0,0.0,0.0,0.0,0.0,-0.8403013974082791,-0.07315295079173871,-0.5589963636941635,0.41123375338846324,0.32139648997337666,0.1624702855683391,-0.06920995326905188,0.8781205771304014,0.7555603009608752,-0.28249557732280933,-1.6691811438777988,0.1413613539735476,2.403401251527998,1.027310728541679,0.878092876070424,0.7554597494309409,-0.2825552651693207,-1.6690993614607135,0.1414185955172306,2.4034451173676383,1.0273381002308042,0.0003187841146851434,-0.000805439414566128,0.0002556944243837869,-0.0008664779180588201,9.0844726764837e-05,3.6203035367264023e-06,-1.6715575910510482e-05,0.0,0.0,0.0,0.0,0.0,0.0,0.0,-2.770105997740302e-05,-0.00010055152993437844,-5.9687846511391474e-05,8.178241708534095e-05,5.724154368300094e-05,4.3865839640222504e-05,2.7371689125255116e-05,-0.0003187841146851434,0.000805439414566128,-0.0002556944243837869,0.0008664779180588201,-9.0844726764837e-05,-3.6203035367264023e-06,1.6715575910510482e-05,0.8592159152030945,46.37740707397461,5.735073566436768,-19.658235549926758,-0.9039207100868225,-2.4301180839538574,0.07724325358867645,0
79,0.38999032974243164,-0.8354122042655945,-46.37740707397461,-5.762844562530518,19.586824417114258,0.9039207100868225,2.4301180839538574,-0.03604452684521675,0.0,0.0,0.0,0.0,0.0,0.0,0.0,-0.8481024770965578,-0.06211568489389659,-0.5630280366324738,0.4066369717139076,0.32160887641273606,0.16271340436869575,-0.06906241360011693,0.8781189066945461,0.7555603009608752,-0.2824936284809782,-1.669176132570233,0.14136029102404912,2.403401251527998,1.027306150905374,0.878092876070424,0.7554597494309409,-0.2825552651693207,-1.6690993614607135,0.1414185955172306,2.4034451173676383,1.0273381002308042,-0.0004832841390629057,-0.000390175640090492,0.0007660465520182752,0.0007822626055367919,0.00010528553021347744,-8.620709171623507e-06,-0.0011491211827003263,0.0,0.0,0.0,0.0,0.0,0.0,0.0,-2.6030624122097556e-05,-0.00010055152993437844,-6.163668834252567e-05,7.677110951953559e-05,5.83044931814769e-05,4.3865839640222504e-05,3.194932543015838e-05,0.0004832841390629057,0.000390175640090492,-0.0007660465520182752,-0.0007822626055367919,-0.00010528553021347744,8.620709171623507e-06,0.0011491211827003263,0.8354122042655945,46.37740707397461,5.762844562530518,-19.586824417114258,-0.9039207100868225,-2.4301180839538574,0.03604452684521675,0
80,0.39499378204345703,-0.8354122042655945,-46.37740707397461,-5.762844562530518,19.586824417114258,0.9039207100868225,2.4301180839538574,-0.03604452684521675,0.0,0.0,0.0,0.0,0.0,0.0,0.0,-0.8481024770965578,-0.06211568489389659,-0.5630280366324738,0.4066369717139076,0.32160887641273606,0.16271340436869575,-0.06906241360011693,0.8781189066945461,0.7555603009608752,-0.2824936284809782,-1.669176132570233,0.14136029102404912,2.403401251527998,1.027306150905374,0.878092876070424,0.7554597494309409,-0.2825552651693207,-1.6690993614607135,0.1414185955172306,2.4034451173676383,1.0273381002308042,-0.0004832841390629057,-0.000390175640090492,0.0007660465520182752,0.0007822626055367919,0.00010528553021347744,-8.620709171623507e-06,-0.0011491211827003263,0.0,0.0,0.0,0.0,0.0,0.0,0.0,-2.6030624122097556e-05,-0.00010055152993437844,-6.163668834252567e-05,7.677110951953559e-05,5.83044931814769e-05,4.3865839640222504e-05,3.194932543015838e-05,0.0004832841390629057,0.000390175640090492,-0.0007660465520182752,-0.0007822626055367919,-0.00010528553021347744,8.620709171623507e-06,0.0011491211827003263,0.8354122042655945,46.37740707397461,5.762844562530518,-19.586824417114258,-0.9039207100868225,-2.4301180839538574,0.03604452684521675,0
