rezayati/contactInterpretation/dataset/franka_main/labeled_data/link5/c2_6.csv
index,time,tau_J0,tau_J1,tau_J2,tau_J3,tau_J4,tau_J5,tau_J6,tau_J_d0,tau_J_d1,tau_J_d2,tau_J_d3,tau_J_d4,tau_J_d5,tau_J_d6,tau_ext0,tau_ext1,tau_ext2,tau_ext3,tau_ext4,tau_ext5,tau_ext6,q0,q1,q2,q3,q4,q5,q6,q_d0,q_d1,q_d2,q_d3,q_d4,q_d5,q_d6,dq0,dq1,dq2,dq3,dq4,dq5,dq6,dq_d0,dq_d1,dq_d2,dq_d3,dq_d4,dq_d5,dq_d6,e0,e1,e2,e3,e4,e5,e6,de0,de1,de2,de3,de4,de5,de6,etau_J0,etau_J1,etau_J2,etau_J3,etau_J4,etau_J5,etau_J6,label
1,0.0,0.10880166292190552,-18.078760147094727,1.1164276599884033,18.099092483520508,0.5340476632118225,2.2488436698913574,-0.20724813640117645,0.0,0.0,0.0,0.0,0.0,0.0,0.0,0.12410233773872503,0.5525155560562144,0.30412707850966114,0.44021027800066054,0.10537856676361342,0.06495594343684472,-0.19820162388526383,-0.6092345176635214,-0.057741645665022365,-0.6665739074004323,-2.5944614970223947,-0.05565064379482677,2.5079574496481154,0.8763191901759968,-0.6090851748156966,-0.05753196718556838,-0.666603097082616,-2.5945565370258534,-0.05562143941554,2.507976027223799,0.8763108487046415,0.00014918234722722628,0.0004382338488502759,-2.665677341394905e-05,-0.0006273977297717384,-0.00015638334311134796,0.00011031909366739108,0.0008520438077998933,0.0,0.0,0.0,0.0,0.0,0.0,0.0,0.00014934284782486262,0.00020967847945398133,-2.9189682183683452e-05,-9.504000345872399e-05,2.9204379286766613e-05,1.8577575683575986e-05,-8.341471355310937e-06,-0.00014918234722722628,-0.0004382338488502759,2.665677341394905e-05,0.0006273977297717384,0.00015638334311134796,-0.00011031909366739108,-0.0008520438077998933,-0.10880166292190552,18.078760147094727,-1.1164276599884033,-18.099092483520508,-0.5340476632118225,-2.2488436698913574,0.20724813640117645,0
2,0.00500178337097168,0.10880166292190552,-18.078760147094727,1.1164276599884033,18.099092483520508,0.5340476632118225,2.2488436698913574,-0.20724813640117645,0.0,0.0,0.0,0.0,0.0,0.0,0.0,0.12410233773872503,0.5525155560562144,0.30412707850966114,0.44021027800066054,0.10537856676361342,0.06495594343684472,-0.19820162388526383,-0.6092345176635214,-0.057741645665022365,-0.6665739074004323,-2.5944614970223947,-0.05565064379482677,2.5079574496481154,0.8763191901759968,-0.6090851748156966,-0.05753196718556838,-0.666603097082616,-2.5945565370258534,-0.05562143941554,2.507976027223799,0.8763108487046415,0.00014918234722722628,0.0004382338488502759,-2.665677341394905e-05,-0.0006273977297717384,-0.00015638334311134796,0.00011031909366739108,0.0008520438077998933,0.0,0.0,0.0,0.0,0.0,0.0,0.0,0.00014934284782486262,0.00020967847945398133,-2.9189682183683452e-05,-9.504000345872399e-05,2.9204379286766613e-05,1.8577575683575986e-05,-8.341471355310937e-06,-0.00014918234722722628,-0.0004382338488502759,2.665677341394905e-05,0.0006273977297717384,0.00015638334311134796,-0.00011031909366739108,-0.0008520438077998933,-0.10880166292190552,18.078760147094727,-1.1164276599884033,-18.099092483520508,-0.5340476632118225,-2.2488436698913574,0.20724813640117645,0
3,0.010002374649047852,0.10880166292190552,-18.130334854125977,1.1441986560821533,18.071321487426758,0.5340476632118225,2.2552523612976074,-0.16604940593242645,0.0,0.0,0.0,0.0,0.0,0.0,0.0,0.13017427935723755,0.5759404571824212,0.3078214866964054,0.3997216983782887,0.1038580990319953,0.058757367891200424,-0.19680725149114062,-0.6092345176621488,-0.05773802638733596,-0.6665758562422635,-2.5944595481805632,-0.05564819773207254,2.5079567375712926,0.8763144948017081,-0.6090851748156966,-0.05753196718556838,-0.666603097082616,-2.5945565370258534,-0.05562143941554,2.507976027223799,0.8763108487046415,0.000905034197497716,0.00063601436340417,-0.00012195078440417556,0.001793103075730406,-0.00017092913220390625,-6.816654410086454e-05,-0.001256506597034706,0.0,0.0,0.0,0.0,0.0,0.0,0.0,0.00014934284645218288,0.00020605920176757636,-2.7240840352549256e-05,-9.698884529019125e-05,2.6758316532538018e-05,1.9289652506415678e-05,-3.6460970666007952e-06,-0.000905034197497716,-0.00063601436340417,0.00012195078440417556,-0.001793103075730406,0.00017092913220390625,6.816654410086454e-05,0.001256506597034706,-0.10880166292190552,18.130334854125977,-1.1441986560821533,-18.071321487426758,-0.5340476632118225,-2.2552523612976074,0.16604940593242645,0
4,0.015004873275756836,0.10880166292190552,-18.130334854125977,1.1441986560821533,18.071321487426758,0.5340476632118225,2.2552523612976074,-0.16604940593242645,0.0,0.0,0.0,0.0,0.0,0.0,0.0,0.13017427935723755,0.5759404571824212,0.3078214866964054,0.3997216983782887,0.1038580990319953,0.058757367891200424,-0.19680725149114062,-0.6092345176621488,-0.05773802638733596,-0.6665758562422635,-2.5944595481805632,-0.05564819773207254,2.5079567375712926,0.8763144948017081,-0.6090851748156966,-0.05753196718556838,-0.666603097082616,-2.5945565370258534,-0.05562143941554,2.507976027223799,0.8763108487046415,0.000905034197497716,0.00063601436340417,-0.00012195078440417556,0.001793103075730406,-0.00017092913220390625,-6.816654410086454e-05,-0.001256506597034706,0.0,0.0,0.0,0.0,0.0,0.0,0.0,0.00014934284645218288,0.00020605920176757636,-2.7240840352549256e-05,-9.698884529019125e-05,2.6758316532538018e-05,1.9289652506415678e-05,-3.6460970666007952e-06,-0.000905034197497716,-0.00063601436340417,0.00012195078440417556,-0.001793103075730406,0.00017092913220390625,6.816654410086454e-05,0.001256506597034706,-0.10880166292190552,18.130334854125977,-1.1441986560821533,-18.071321487426758,-0.5340476632118225,-2.2552523612976074,0.16604940593242645,0
5,0.020008325576782227,0.13260537385940552,-18.130334854125977,1.1680023670196533,18.071321487426758,0.5221458077430725,2.2552523612976074,-0.21457235515117645,0.0,0.0,0.0,0.0,0.0,0.0,0.0,0.12524865031873272,0.5610260243230512,0.3017847314967266,0.4336477857555021,0.1050670914409561,0.06369894743517189,-0.19664402729302566,-0.6092362780364253,-0.05773873584817724,-0.6665775266781186,-2.5944595481805632,-0.05564920053534315,2.5079567375712926,0.8763200039774155,-0.6090851748156966,-0.05753196718556838,-0.666603097082616,-2.5945565370258534,-0.05562143941554,2.507976027223799,0.8763108487046415,0.0003330659074035171,2.977670454519422e-05,-0.000650362171403535,0.00015846815272374314,0.00030121853099348363,-0.00019903538819029197,0.0009760422257139199,0.0,0.0,0.0,0.0,0.0,0.0,0.0,0.00015110322072875437,0.00020676866260885968,-2.5570404497354815e-05,-9.698884529019125e-05,2.7761119803147716e-05,1.9289652506415678e-05,-9.155272774008516e-06,-0.0003330659074035171,-2.977670454519422e-05,0.000650362171403535,-0.00015846815272374314,-0.00030121853099348363,0.00019903538819029197,-0.0009760422257139199,-0.13260537385940552,18.130334854125977,-1.1680023670196533,-18.071321487426758,-0.5221458077430725,-2.2552523612976074,0.21457235515117645,0
6,0.025044918060302734,0.13260537385940552,-18.130334854125977,1.1680023670196533,18.071321487426758,0.5221458077430725,2.2552523612976074,-0.21457235515117645,0.0,0.0,0.0,0.0,0.0,0.0,0.0,0.12524865031873272,0.5610260243230512,0.3017847314967266,0.4336477857555021,0.1050670914409561,0.06369894743517189,-0.19664402729302566,-0.6092362780364253,-0.05773873584817724,-0.6665775266781186,-2.5944595481805632,-0.05564920053534315,2.5079567375712926,0.8763200039774155,-0.6090851748156966,-0.05753196718556838,-0.666603097082616,-2.5945565370258534,-0.05562143941554,2.507976027223799,0.8763108487046415,0.0003330659074035171,2.977670454519422e-05,-0.000650362171403535,0.00015846815272374314,0.00030121853099348363,-0.00019903538819029197,0.0009760422257139199,0.0,0.0,0.0,0.0,0.0,0.0,0.0,0.00015110322072875437,0.00020676866260885968,-2.5570404497354815e-05,-9.698884529019125e-05,2.7761119803147716e-05,1.9289652506415678e-05,-9.155272774008516e-06,-0.0003330659074035171,-2.977670454519422e-05,0.000650362171403535,-0.00015846815272374314,-0.00030121853099348363,0.00019903538819029197,-0.0009760422257139199,-0.13260537385940552,18.130334854125977,-1.1680023670196533,-18.071321487426758,-0.5221458077430725,-2.2552523612976074,0.21457235515117645,0
7,0.025044918060302734,0.13260537385940552,-18.130334854125977,1.1680023670196533,18.071321487426758,0.5221458077430725,2.2552523612976074,-0.21457235515117645,0.0,0.0,0.0,0.0,0.0,0.0,0.0,0.12524865031873272,0.5610260243230512,0.3017847314967266,0.4336477857555021,0.1050670914409561,0.06369894743517189,-0.19664402729302566,-0.6092362780364253,-0.05773873584817724,-0.6665775266781186,-2.5944595481805632,-0.05564920053534315,2.5079567375712926,0.8763200039774155,-0.6090851748156966,-0.05753196718556838,-0.666603097082616,-2.5945565370258534,-0.05562143941554,2.507976027223799,0.8763108487046415,0.0003330659074035171,2.977670454519422e-05,-0.000650362171403535,0.00015846815272374314,0.00030121853099348363,-0.00019903538819029197,0.0009760422257139199,0.0,0.0,0.0,0.0,0.0,0.0,0.0,0.00015110322072875437,0.00020676866260885968,-2.5570404497354815e-05,-9.698884529019125e-05,2.7761119803147716e-05,1.9289652506415678e-05,-9.155272774008516e-06,-0.0003330659074035171,-2.977670454519422e-05,0.000650362171403535,-0.00015846815272374314,-0.00030121853099348363,0.00019903538819029197,-0.0009760422257139199,-0.13260537385940552,18.130334854125977,-1.1680023670196533,-18.071321487426758,-0.5221458077430725,-2.2552523612976074,0.21457235515117645,0
8,0.03500652313232422,0.10880166292190552,-18.205713272094727,1.0926239490509033,18.071321487426758,0.5340476632118225,2.2625765800476074,-0.16604940593242645,0.0,0.0,0.0,0.0,0.0,0.0,0.0,0.1270807747398306,0.5441040048177807,0.30321049992966337,0.4545012919956814,0.1055995479188678,0.06726013000801451,-0.1962471766960113,-0.6092345176626565,-0.057732736677799226,-0.6665719941308391,-2.5944595481805632,-0.05565158678599176,2.507955923769209,0.876314612539278,-0.6090851748156966,-0.05753196718556838,-0.666603097082616,-2.5945565370258534,-0.05562143941554,2.507976027223799,0.8763108487046415,0.0010812253031641707,0.0013022925932088326,0.0010881085487084976,0.00015334248691535246,-0.00010724296297463131,-0.00034184636986551173,-0.001387674157022889,0.0,0.0,0.0,0.0,0.0,0.0,0.0,0.00014934284695988786,0.00020076949223084284,-3.11029517768846e-05,-9.698884529019125e-05,3.0147370451760747e-05,2.0103454589914804e-05,-3.7638346365165276e-06,-0.0010812253031641707,-0.0013022925932088326,-0.0010881085487084976,-0.00015334248691535246,0.00010724296297463131,0.00034184636986551173,0.001387674157022889,-0.10880166292190552,18.205713272094727,-1.0926239490509033,-18.071321487426758,-0.5340476632118225,-2.2625765800476074,0.16604940593242645,0
9,0.040007591247558594,0.10880166292190552,-18.205713272094727,1.0926239490509033,18.071321487426758,0.5340476632118225,2.2625765800476074,-0.16604940593242645,0.0,0.0,0.0,0.0,0.0,0.0,0.0,0.1270807747398306,0.5441040048177807,0.30321049992966337,0.4545012919956814,0.1055995479188678,0.06726013000801451,-0.1962471766960113,-0.6092345176626565,-0.057732736677799226,-0.6665719941308391,-2.5944595481805632,-0.05565158678599176,2.507955923769209,0.876314612539278,-0.6090851748156966,-0.05753196718556838,-0.666603097082616,-2.5945565370258534,-0.05562143941554,2.507976027223799,0.8763108487046415,0.0010812253031641707,0.0013022925932088326,0.0010881085487084976,0.00015334248691535246,-0.00010724296297463131,-0.00034184636986551173,-0.001387674157022889,0.0,0.0,0.0,0.0,0.0,0.0,0.0,0.00014934284695988786,0.00020076949223084284,-3.11029517768846e-05,-9.698884529019125e-05,3.0147370451760747e-05,2.0103454589914804e-05,-3.7638346365165276e-06,-0.0010812253031641707,-0.0013022925932088326,-0.0010881085487084976,-0.00015334248691535246,0.00010724296297463131,0.00034184636986551173,0.001387674157022889,-0.10880166292190552,18.205713272094727,-1.0926239490509033,-18.071321487426758,-0.5340476632118225,-2.2625765800476074,0.16604940593242645,0
10,0.04500627517700195,0.13260537385940552,-18.130334854125977,1.1441986560821533,18.071321487426758,0.5285544991493225,2.2360262870788574,-0.22098104655742645,0.0,0.0,0.0,0.0,0.0,0.0,0.0,0.1755266234885293,0.5507578155620307,0.3502649322340174,0.445632235030311,0.10321431214993435,0.0673102808943597,-0.19664297397954494,-0.6092383749340667,-0.05773802638733598,-0.666575864907686,-2.5944595481805632,-0.055646411799060665,2.507958873801761,0.8763207024884341,-0.6090851748156966,-0.05753196718556838,-0.666603097082616,-2.5945565370258534,-0.05562143941554,2.507976027223799,0.8763108487046415,0.00035678635784062594,0.00023605246911768653,-0.001453689452813817,4.012905626805984e-05,-9.816717628610018e-06,0.0003978732232881026,0.0004799931160388715,0.0,0.0,0.0,0.0,0.0,0.0,0.0,0.000153200118370167,0.00020605920176759718,-2.723217492994756e-05,-9.698884529019125e-05,2.497238352066472e-05,1.7153422037896604e-05,-9.853783792590498e-06,-0.00035678635784062594,-0.00023605246911768653,0.001453689452813817,-4.012905626805984e-05,9.816717628610018e-06,-0.0003978732232881026,-0.0004799931160388715,-0.13260537385940552,18.130334854125977,-1.1441986560821533,-18.071321487426758,-0.5285544991493225,-2.2360262870788574,0.22098104655742645,0
11,0.05000114440917969,0.13260537385940552,-18.130334854125977,1.1441986560821533,18.071321487426758,0.5285544991493225,2.2360262870788574,-0.22098104655742645,0.0,0.0,0.0,0.0,0.0,0.0,0.0,0.1755266234885293,0.5507578155620307,0.3502649322340174,0.445632235030311,0.10321431214993435,0.0673102808943597,-0.19664297397954494,-0.6092383749340667,-0.05773802638733598,-0.666575864907686,-2.5944595481805632,-0.055646411799060665,2.507958873801761,0.8763207024884341,-0.6090851748156966,-0.05753196718556838,-0.666603097082616,-2.5945565370258534,-0.05562143941554,2.507976027223799,0.8763108487046415,0.00035678635784062594,0.00023605246911768653,-0.001453689452813817,4.012905626805984e-05,-9.816717628610018e-06,0.0003978732232881026,0.0004799931160388715,0.0,0.0,0.0,0.0,0.0,0.0,0.0,0.000153200118370167,0.00020605920176759718,-2.723217492994756e-05,-9.698884529019125e-05,2.497238352066472e-05,1.7153422037896604e-05,-9.853783792590498e-06,-0.00035678635784062594,-0.00023605246911768653,0.001453689452813817,-4.012905626805984e-05,9.816717628610018e-06,-0.0003978732232881026,-0.0004799931160388715,-0.13260537385940552,18.130334854125977,-1.1441986560821533,-18.071321487426758,-0.5285544991493225,-2.2360262870788574,0.22098104655742645,0
12,0.054999589920043945,0.16037636995315552,-18.130334854125977,1.0926239490509033,18.047517776489258,0.5221458077430725,2.2360262870788574,-0.22098104655742645,0.0,0.0,0.0,0.0,0.0,0.0,0.0,0.1399870567511286,0.5451313351284188,0.31459807178694116,0.44497445405918007,0.10482977972009874,0.06579999844608549,-0.19768326657327664,-0.6092403314496637,-0.05773802638733596,-0.666572236964626,-2.5944578777447083,-0.05564889794421213,2.507958873801761,0.8763207160548265,-0.6090851748156966,-0.05753196718556838,-0.666603097082616,-2.5945565370258534,-0.05562143941554,2.507976027223799,0.8763108487046415,-0.0007947889251442617,0.0009091974405734939,0.0012702530314778588,0.0007643982635675494,0.00014910044005975466,0.00031115780218807373,0.0006784954553579425,0.0,0.0,0.0,0.0,0.0,0.0,0.0,0.00015515663396714618,0.00020605920176757636,-3.086011799002808e-05,-9.865928114516365e-05,2.7458528672127946e-05,1.7153422037896604e-05,-9.867350185044366e-06,0.0007947889251442617,-0.0009091974405734939,-0.0012702530314778588,-0.0007643982635675494,-0.00014910044005975466,-0.00031115780218807373,-0.0006784954553579425,-0.16037636995315552,18.130334854125977,-1.0926239490509033,-18.047517776489258,-0.5221458077430725,-2.2360262870788574,0.22098104655742645,0
13,0.06000113487243652,0.16037636995315552,-18.130334854125977,1.0926239490509033,18.047517776489258,0.5221458077430725,2.2360262870788574,-0.22098104655742645,0.0,0.0,0.0,0.0,0.0,0.0,0.0,0.1399870567511286,0.5451313351284188,0.31459807178694116,0.44497445405918007,0.10482977972009874,0.06579999844608549,-0.19768326657327664,-0.6092403314496637,-0.05773802638733596,-0.666572236964626,-2.5944578777447083,-0.05564889794421213,2.507958873801761,0.8763207160548265,-0.6090851748156966,-0.05753196718556838,-0.666603097082616,-2.5945565370258534,-0.05562143941554,2.507976027223799,0.8763108487046415,-0.0007947889251442617,0.0009091974405734939,0.0012702530314778588,0.0007643982635675494,0.00014910044005975466,0.00031115780218807373,0.0006784954553579425,0.0,0.0,0.0,0.0,0.0,0.0,0.0,0.00015515663396714618,0.00020605920176757636,-3.086011799002808e-05,-9.865928114516365e-05,2.7458528672127946e-05,1.7153422037896604e-05,-9.867350185044366e-06,0.0007947889251442617,-0.0009091974405734939,-0.0012702530314778588,-0.0007643982635675494,-0.00014910044005975466,-0.00031115780218807373,-0.0006784954553579425,-0.16037636995315552,18.130334854125977,-1.0926239490509033,-18.047517776489258,-0.5221458077430725,-2.2360262870788574,0.22098104655742645,0
14,0.06500077247619629,0.16037636995315552,-18.130334854125977,1.0926239490509033,18.047517776489258,0.5221458077430725,2.2360262870788574,-0.22098104655742645,0.0,0.0,0.0,0.0,0.0,0.0,0.0,0.1399870567511286,0.5451313351284188,0.31459807178694116,0.44497445405918007,0.10482977972009874,0.06579999844608549,-0.19768326657327664,-0.6092403314496637,-0.05773802638733596,-0.666572236964626,-2.5944578777447083,-0.05564889794421213,2.507958873801761,0.8763207160548265,-0.6090851748156966,-0.05753196718556838,-0.666603097082616,-2.5945565370258534,-0.05562143941554,2.507976027223799,0.8763108487046415,-0.0007947889251442617,0.0009091974405734939,0.0012702530314778588,0.0007643982635675494,0.00014910044005975466,0.00031115780218807373,0.0006784954553579425,0.0,0.0,0.0,0.0,0.0,0.0,0.0,0.00015515663396714618,0.00020605920176757636,-3.086011799002808e-05,-9.865928114516365e-05,2.7458528672127946e-05,1.7153422037896604e-05,-9.867350185044366e-06,0.0007947889251442617,-0.0009091974405734939,-0.0012702530314778588,-0.0007643982635675494,-0.00014910044005975466,-0.00031115780218807373,-0.0006784954553579425,-0.16037636995315552,18.130334854125977,-1.0926239490509033,-18.047517776489258,-0.5221458077430725,-2.2360262870788574,0.22098104655742645,0
15,0.0700984001159668,0.16037636995315552,-18.130334854125977,1.0926239490509033,18.047517776489258,0.5221458077430725,2.2360262870788574,-0.22098104655742645,0.0,0.0,0.0,0.0,0.0,0.0,0.0,0.1399870567511286,0.5451313351284188,0.31459807178694116,0.44497445405918007,0.10482977972009874,0.06579999844608549,-0.19768326657327664,-0.6092403314496637,-0.05773802638733596,-0.666572236964626,-2.5944578777447083,-0.05564889794421213,2.507958873801761,0.8763207160548265,-0.6090851748156966,-0.05753196718556838,-0.666603097082616,-2.5945565370258534,-0.05562143941554,2.507976027223799,0.8763108487046415,-0.0007947889251442617,0.0009091974405734939,0.0012702530314778588,0.0007643982635675494,0.00014910044005975466,0.00031115780218807373,0.0006784954553579425,0.0,0.0,0.0,0.0,0.0,0.0,0.0,0.00015515663396714618,0.00020605920176757636,-3.086011799002808e-05,-9.865928114516365e-05,2.7458528672127946e-05,1.7153422037896604e-05,-9.867350185044366e-06,0.0007947889251442617,-0.0009091974405734939,-0.0012702530314778588,-0.0007643982635675494,-0.00014910044005975466,-0.00031115780218807373,-0.0006784954553579425,-0.16037636995315552,18.130334854125977,-1.0926239490509033,-18.047517776489258,-0.5221458077430725,-2.2360262870788574,0.22098104655742645,0
16,0.07501482963562012,0.13260537385940552,-18.078760147094727,1.0926239490509033,18.047517776489258,0.5340476632118225,2.2625765800476074,-0.16604940593242645,0.0,0.0,0.0,0.0,0.0,0.0,0.0,0.11900643416722935,0.5468821951778249,0.293809261369863,0.4438276577214653,0.10516404114519447,0.06483893457087324,-0.19758387283555273,-0.6092361881103919,-0.057741645665022365,-0.6665722369645771,-2.5944578777447083,-0.055647365595256716,2.507955923769209,0.876314612539278,-0.6090851748156966,-0.05753196718556838,-0.666603097082616,-2.5945565370258534,-0.05562143941554,2.507976027223799,0.8763108487046415,-0.0008068293059528135,0.00015139350284158274,0.00029549739852401536,0.0005055635817306119,-0.00020194785087007143,-0.00038602709311672223,-0.0006224038023366531,0.0,0.0,0.0,0.0,0.0,0.0,0.0,0.00015101329469535685,0.00020967847945398133,-3.086011803887789e-05,-9.865928114516365e-05,2.5926179716716236e-05,2.0103454589914804e-05,-3.7638346365165276e-06,0.0008068293059528135,-0.00015139350284158274,-0.00029549739852401536,-0.0005055635817306119,0.00020194785087007143,0.00038602709311672223,0.0006224038023366531,-0.13260537385940552,18.078760147094727,-1.0926239490509033,-18.047517776489258,-0.5340476632118225,-2.2625765800476074,0.16604940593242645,0
17,0.08000349998474121,0.13260537385940552,-18.078760147094727,1.0926239490509033,18.047517776489258,0.5340476632118225,2.2625765800476074,-0.16604940593242645,0.0,0.0,0.0,0.0,0.0,0.0,0.0,0.11900643416722935,0.5468821951778249,0.293809261369863,0.4438276577214653,0.10516404114519447,0.06483893457087324,-0.19758387283555273,-0.6092361881103919,-0.057741645665022365,-0.6665722369645771,-2.5944578777447083,-0.055647365595256716,2.507955923769209,0.876314612539278,-0.6090851748156966,-0.05753196718556838,-0.666603097082616,-2.5945565370258534,-0.05562143941554,2.507976027223799,0.8763108487046415,-0.0008068293059528135,0.00015139350284158274,0.00029549739852401536,0.0005055635817306119,-0.00020194785087007143,-0.00038602709311672223,-0.0006224038023366531,0.0,0.0,0.0,0.0,0.0,0.0,0.0,0.00015101329469535685,0.00020967847945398133,-3.086011803887789e-05,-9.865928114516365e-05,2.5926179716716236e-05,2.0103454589914804e-05,-3.7638346365165276e-06,0.0008068293059528135,-0.00015139350284158274,-0.00029549739852401536,-0.0005055635817306119,0.00020194785087007143,0.00038602709311672223,0.0006224038023366531,-0.13260537385940552,18.078760147094727,-1.0926239490509033,-18.047517776489258,-0.5340476632118225,-2.2625765800476074,0.16604940593242645,0
18,0.08500170707702637,0.08103066682815552,-18.078760147094727,1.0926239490509033,18.071321487426758,0.5285544991493225,2.2488436698913574,-0.22098104655742645,0.0,0.0,0.0,0.0,0.0,0.0,0.0,0.11637287458708001,0.554287859943104,0.2903907894906013,0.4426549478344899,0.10470136119639961,0.06530030098930648,-0.19703408317099996,-0.6092326527628443,-0.057741645665022365,-0.6665722369645771,-2.5944595481805632,-0.05565079340440958,2.5079574496481154,0.876320716054903,-0.6090851748156966,-0.05753196718556838,-0.666603097082616,-2.5945565370258534,-0.05562143941554,2.507976027223799,0.8763108487046415,8.089521044424412e-05,0.00010250774449063369,-0.0001914528082285003,1.3580302747939391e-05,-5.626753858047405e-05,-7.153434099008008e-05,0.0005920294253313277,0.0,0.0,0.0,0.0,0.0,0.0,0.0,0.00014747794714775608,0.00020967847945398133,-3.086011803887789e-05,-9.698884529019125e-05,2.9353988869579295e-05,1.8577575683575986e-05,-9.867350261538732e-06,-8.089521044424412e-05,-0.00010250774449063369,0.0001914528082285003,-1.3580302747939391e-05,5.626753858047405e-05,7.153434099008008e-05,-0.0005920294253313277,-0.08103066682815552,18.078760147094727,-1.0926239490509033,-18.071321487426758,-0.5285544991493225,-2.2488436698913574,0.22098104655742645,0
19,0.09001779556274414,0.08103066682815552,-18.078760147094727,1.0926239490509033,18.071321487426758,0.5285544991493225,2.2488436698913574,-0.22098104655742645,0.0,0.0,0.0,0.0,0.0,0.0,0.0,0.11637287458708001,0.554287859943104,0.2903907894906013,0.4426549478344899,0.10470136119639961,0.06530030098930648,-0.19703408317099996,-0.6092326527628443,-0.057741645665022365,-0.6665722369645771,-2.5944595481805632,-0.05565079340440958,2.5079574496481154,0.876320716054903,-0.6090851748156966,-0.05753196718556838,-0.666603097082616,-2.5945565370258534,-0.05562143941554,2.507976027223799,0.8763108487046415,8.089521044424412e-05,0.00010250774449063369,-0.0001914528082285003,1.3580302747939391e-05,-5.626753858047405e-05,-7.153434099008008e-05,0.0005920294253313277,0.0,0.0,0.0,0.0,0.0,0.0,0.0,0.00014747794714775608,0.00020967847945398133,-3.086011803887789e-05,-9.698884529019125e-05,2.9353988869579295e-05,1.8577575683575986e-05,-9.867350261538732e-06,-8.089521044424412e-05,-0.00010250774449063369,0.0001914528082285003,-1.3580302747939391e-05,5.626753858047405e-05,7.153434099008008e-05,-0.0005920294253313277,-0.08103066682815552,18.078760147094727,-1.0926239490509033,-18.071321487426758,-0.5285544991493225,-2.2488436698913574,0.22098104655742645,0
20,0.0950014591217041,0.13260537385940552,-18.154138565063477,1.1164276599884033,18.071321487426758,0.5285544991493225,2.2424349784851074,-0.17978231608867645,0.0,0.0,0.0,0.0,0.0,0.0,0.0,0.12075980226468715,0.5536637155724641,0.29735406545768717,0.4462727144570279,0.1038923444399729,0.06530550187124652,-0.19680562744642133,-0.6092364313763561,-0.057736355951480696,-0.6665739074004324,-2.5944595481805632,-0.05565102997358121,2.5079581617249382,0.8763161340575335,-0.6090851748156966,-0.05753196718556838,-0.666603097082616,-2.5945565370258534,-0.05562143941554,2.507976027223799,0.8763108487046415,-0.0003496752175732762,0.0011238991891483283,-0.00022198443290377993,0.00018995089836474176,-9.32470443259006e-05,0.00013730175241769682,-0.0006401167533542916,0.0,0.0,0.0,0.0,0.0,0.0,0.0,0.00015125656065950732,0.00020438876591231253,-2.918968218357243e-05,-9.698884529019125e-05,2.959055804121341e-05,1.7865498860736295e-05,-5.285352892014927e-06,0.0003496752175732762,-0.0011238991891483283,0.00022198443290377993,-0.00018995089836474176,9.32470443259006e-05,-0.00013730175241769682,0.0006401167533542916,-0.13260537385940552,18.154138565063477,-1.1164276599884033,-18.071321487426758,-0.5285544991493225,-2.2424349784851074,0.17978231608867645,0
21,0.09999895095825195,0.13260537385940552,-18.154138565063477,1.1164276599884033,18.071321487426758,0.5285544991493225,2.2424349784851074,-0.17978231608867645,0.0,0.0,0.0,0.0,0.0,0.0,0.0,0.12075980226468715,0.5536637155724641,0.29735406545768717,0.4462727144570279,0.1038923444399729,0.06530550187124652,-0.19680562744642133,-0.6092364313763561,-0.057736355951480696,-0.6665739074004324,-2.5944595481805632,-0.05565102997358121,2.5079581617249382,0.8763161340575335,-0.6090851748156966,-0.05753196718556838,-0.666603097082616,-2.5945565370258534,-0.05562143941554,2.507976027223799,0.8763108487046415,-0.0003496752175732762,0.0011238991891483283,-0.00022198443290377993,0.00018995089836474176,-9.32470443259006e-05,0.00013730175241769682,-0.0006401167533542916,0.0,0.0,0.0,0.0,0.0,0.0,0.0,0.00015125656065950732,0.00020438876591231253,-2.918968218357243e-05,-9.698884529019125e-05,2.959055804121341e-05,1.7865498860736295e-05,-5.285352892014927e-06,0.0003496752175732762,-0.0011238991891483283,0.00022198443290377993,-0.00018995089836474176,9.32470443259006e-05,-0.00013730175241769682,0.0006401167533542916,-0.13260537385940552,18.154138565063477,-1.1164276599884033,-18.071321487426758,-0.5285544991493225,-2.2424349784851074,0.17978231608867645,0
22,0.10500240325927734,0.16037636995315552,-18.130334854125977,1.1164276599884033,18.099092483520508,0.5404563546180725,2.2488436698913574,-0.22098104655742645,0.0,0.0,0.0,0.0,0.0,0.0,0.0,0.12040779946158608,0.5590743101989646,0.29727363311638,0.4451757715751285,0.10369198173292615,0.06433331644832051,-0.19625685829452713,-0.6092388654424222,-0.05773802638733596,-0.6665739074004324,-2.5944614970223947,-0.05565105020738219,2.5079574496481154,0.8763207160548785,-0.6090851748156966,-0.05753196718556838,-0.666603097082616,-2.5945565370258534,-0.05562143941554,2.507976027223799,0.8763108487046415,-0.0006410082295423404,0.0007131833422868368,0.000308074755971183,-0.0005845943841263602,-0.0004284915736775006,6.311221818745743e-05,0.0009500253655336693,0.0,0.0,0.0,0.0,0.0,0.0,0.0,0.00015369062672565548,0.00020605920176757636,-2.918968218357243e-05,-9.504000345872399e-05,2.96107918421884e-05,1.8577575683575986e-05,-9.867350237002803e-06,0.0006410082295423404,-0.0007131833422868368,-0.000308074755971183,0.0005845943841263602,0.0004284915736775006,-6.311221818745743e-05,-0.0009500253655336693,-0.16037636995315552,18.130334854125977,-1.1164276599884033,-18.099092483520508,-0.5404563546180725,-2.2488436698913574,0.22098104655742645,0
23,0.11000204086303711,0.16037636995315552,-18.130334854125977,1.1164276599884033,18.099092483520508,0.5404563546180725,2.2488436698913574,-0.22098104655742645,0.0,0.0,0.0,0.0,0.0,0.0,0.0,0.12040779946158608,0.5590743101989646,0.29727363311638,0.4451757715751285,0.10369198173292615,0.06433331644832051,-0.19625685829452713,-0.6092388654424222,-0.05773802638733596,-0.6665739074004324,-2.5944614970223947,-0.05565105020738219,2.5079574496481154,0.8763207160548785,-0.6090851748156966,-0.05753196718556838,-0.666603097082616,-2.5945565370258534,-0.05562143941554,2.507976027223799,0.8763108487046415,-0.0006410082295423404,0.0007131833422868368,0.000308074755971183,-0.0005845943841263602,-0.0004284915736775006,6.311221818745743e-05,0.0009500253655336693,0.0,0.0,0.0,0.0,0.0,0.0,0.0,0.00015369062672565548,0.00020605920176757636,-2.918968218357243e-05,-9.504000345872399e-05,2.96107918421884e-05,1.8577575683575986e-05,-9.867350237002803e-06,0.0006410082295423404,-0.0007131833422868368,-0.000308074755971183,0.0005845943841263602,0.0004284915736775006,-6.311221818745743e-05,-0.0009500253655336693,-0.16037636995315552,18.130334854125977,-1.1164276599884033,-18.099092483520508,-0.5404563546180725,-2.2488436698913574,0.22098104655742645,0
24,0.11500120162963867,0.16037636995315552,-18.106531143188477,1.1441986560821533,18.047517776489258,0.5285544991493225,2.2360262870788574,-0.16604940593242645,0.0,0.0,0.0,0.0,0.0,0.0,0.0,0.12235427748064662,0.5532564606015045,0.2965573160672863,0.44520140317514495,0.1040898016084811,0.06498510636983514,-0.19767417660201497,-0.6092381369439475,-0.057739696823191224,-0.6665758562422636,-2.5944578777447083,-0.0556496802458522,2.507958873801761,0.8763142593265683,-0.6090851748156966,-0.05753196718556838,-0.666603097082616,-2.5945565370258534,-0.05562143941554,2.507976027223799,0.8763108487046415,-0.00015598442078967761,-0.0006200813610094811,-0.00013486574613493546,0.0004575170545321369,0.0001343607726111891,0.0006929330948848508,-0.0014029310732405007,0.0,0.0,0.0,0.0,0.0,0.0,0.0,0.00015296212825088862,0.0002077296376228402,-2.7240840352438234e-05,-9.865928114516365e-05,2.824083031219976e-05,1.7153422037896604e-05,-3.4106219267693305e-06,0.00015598442078967761,0.0006200813610094811,0.00013486574613493546,-0.0004575170545321369,-0.0001343607726111891,-0.0006929330948848508,0.0014029310732405007,-0.16037636995315552,18.106531143188477,-1.1441986560821533,-18.047517776489258,-0.5285544991493225,-2.2360262870788574,0.16604940593242645,0
25,0.11999988555908203,0.16037636995315552,-18.106531143188477,1.1441986560821533,18.047517776489258,0.5285544991493225,2.2360262870788574,-0.16604940593242645,0.0,0.0,0.0,0.0,0.0,0.0,0.0,0.12235427748064662,0.5532564606015045,0.2965573160672863,0.44520140317514495,0.1040898016084811,0.06498510636983514,-0.19767417660201497,-0.6092381369439475,-0.057739696823191224,-0.6665758562422636,-2.5944578777447083,-0.0556496802458522,2.507958873801761,0.8763142593265683,-0.6090851748156966,-0.05753196718556838,-0.666603097082616,-2.5945565370258534,-0.05562143941554,2.507976027223799,0.8763108487046415,-0.00015598442078967761,-0.0006200813610094811,-0.00013486574613493546,0.0004575170545321369,0.0001343607726111891,0.0006929330948848508,-0.0014029310732405007,0.0,0.0,0.0,0.0,0.0,0.0,0.0,0.00015296212825088862,0.0002077296376228402,-2.7240840352438234e-05,-9.865928114516365e-05,2.824083031219976e-05,1.7153422037896604e-05,-3.4106219267693305e-06,0.00015598442078967761,0.0006200813610094811,0.00013486574613493546,-0.0004575170545321369,-0.0001343607726111891,-0.0006929330948848508,0.0014029310732405007,-0.16037636995315552,18.106531143188477,-1.1441986560821533,-18.047517776489258,-0.5285544991493225,-2.2360262870788574,0.16604940593242645,0
26,0.1250014305114746,0.13260537385940552,-18.106531143188477,1.1441986560821533,18.122896194458008,0.5166526436805725,2.2552523612976074,-0.22830526530742645,0.0,0.0,0.0,0.0,0.0,0.0,0.0,0.12883743703636624,0.5491821361761268,0.29829136435926723,0.44841884062439125,0.10430127381839775,0.06558221434363529,-0.19678524935439723,-0.6092383739717627,-0.057739696823191224,-0.6665758562779294,-2.5944631674582497,-0.0556462795109947,2.5079567375712926,0.8763215298549925,-0.6090851748156966,-0.05753196718556838,-0.666603097082616,-2.5945565370258534,-0.05562143941554,2.507976027223799,0.8763108487046415,0.0004060199958819457,-0.0004676190363926424,-0.0004028430519972727,-0.0010719879179611853,0.00034481688276435794,-0.0002137474932589459,0.0017960507667068367,0.0,0.0,0.0,0.0,0.0,0.0,0.0,0.00015319915606615275,0.0002077296376228402,-2.724080468663459e-05,-9.336956760375159e-05,2.4840095454697897e-05,1.9289652506415678e-05,-1.0681150350966284e-05,-0.0004060199958819457,0.0004676190363926424,0.0004028430519972727,0.0010719879179611853,-0.00034481688276435794,0.0002137474932589459,-0.0017960507667068367,-0.13260537385940552,18.106531143188477,-1.1441986560821533,-18.122896194458008,-0.5166526436805725,-2.2552523612976074,0.22830526530742645,0
27,0.13000035285949707,0.13260537385940552,-18.106531143188477,1.1441986560821533,18.122896194458008,0.5166526436805725,2.2552523612976074,-0.22830526530742645,0.0,0.0,0.0,0.0,0.0,0.0,0.0,0.12883743703636624,0.5491821361761268,0.29829136435926723,0.44841884062439125,0.10430127381839775,0.06558221434363529,-0.19678524935439723,-0.6092383739717627,-0.057739696823191224,-0.6665758562779294,-2.5944631674582497,-0.0556462795109947,2.5079567375712926,0.8763215298549925,-0.6090851748156966,-0.05753196718556838,-0.666603097082616,-2.5945565370258534,-0.05562143941554,2.507976027223799,0.8763108487046415,0.0004060199958819457,-0.0004676190363926424,-0.0004028430519972727,-0.0010719879179611853,0.00034481688276435794,-0.0002137474932589459,0.0017960507667068367,0.0,0.0,0.0,0.0,0.0,0.0,0.0,0.00015319915606615275,0.0002077296376228402,-2.724080468663459e-05,-9.336956760375159e-05,2.4840095454697897e-05,1.9289652506415678e-05,-1.0681150350966284e-05,-0.0004060199958819457,0.0004676190363926424,0.0004028430519972727,0.0010719879179611853,-0.00034481688276435794,0.0002137474932589459,-0.0017960507667068367,-0.13260537385940552,18.106531143188477,-1.1441986560821533,-18.122896194458008,-0.5166526436805725,-2.2552523612976074,0.22830526530742645,0
28,0.13499951362609863,0.16037636995315552,-18.054956436157227,1.0926239490509033,18.071321487426758,0.5221458077430725,2.2625765800476074,-0.19351522624492645,0.0,0.0,0.0,0.0,0.0,0.0,0.0,0.13050172253554243,0.550826847831131,0.296105367701508,0.4480074842612365,0.10401930508354278,0.06461328821118684,-0.19691937089684183,-0.6092384727222812,-0.05774331610087763,-0.6665722369645772,-2.5944595481805632,-0.05564617945388231,2.507955923769209,0.8763176642970906,-0.6090851748156966,-0.05753196718556838,-0.666603097082616,-2.5945565370258534,-0.05562143941554,2.507976027223799,0.8763108487046415,-0.0007529241127971277,-0.000995204485472587,0.0006104818327589826,0.00046814687884160524,0.00035852636162878,-0.0005741262509931522,-0.0007319707056415543,0.0,0.0,0.0,0.0,0.0,0.0,0.0,0.00015329790658458187,0.00021134891530924516,-3.086011803876687e-05,-9.698884529019125e-05,2.4740038342310755e-05,2.0103454589914804e-05,-6.815592449083141e-06,0.0007529241127971277,0.000995204485472587,-0.0006104818327589826,-0.00046814687884160524,-0.00035852636162878,0.0005741262509931522,0.0007319707056415543,-0.16037636995315552,18.054956436157227,-1.0926239490509033,-18.071321487426758,-0.5221458077430725,-2.2625765800476074,0.19351522624492645,0
29,0.14000320434570312,0.16037636995315552,-18.054956436157227,1.0926239490509033,18.071321487426758,0.5221458077430725,2.2625765800476074,-0.19351522624492645,0.0,0.0,0.0,0.0,0.0,0.0,0.0,0.13050172253554243,0.550826847831131,0.296105367701508,0.4480074842612365,0.10401930508354278,0.06461328821118684,-0.19691937089684183,-0.6092384727222812,-0.05774331610087763,-0.6665722369645772,-2.5944595481805632,-0.05564617945388231,2.507955923769209,0.8763176642970906,-0.6090851748156966,-0.05753196718556838,-0.666603097082616,-2.5945565370258534,-0.05562143941554,2.507976027223799,0.8763108487046415,-0.0007529241127971277,-0.000995204485472587,0.0006104818327589826,0.00046814687884160524,0.00035852636162878,-0.0005741262509931522,-0.0007319707056415543,0.0,0.0,0.0,0.0,0.0,0.0,0.0,0.00015329790658458187,0.00021134891530924516,-3.086011803876687e-05,-9.698884529019125e-05,2.4740038342310755e-05,2.0103454589914804e-05,-6.815592449083141e-06,0.0007529241127971277,0.000995204485472587,-0.0006104818327589826,-0.00046814687884160524,-0.00035852636162878,0.0005741262509931522,0.0007319707056415543,-0.16037636995315552,18.054956436157227,-1.0926239490509033,-18.071321487426758,-0.5221458077430725,-2.2625765800476074,0.19351522624492645,0
30,0.1450042724609375,0.13260537385940552,-18.106531143188477,1.1164276599884033,18.071321487426758,0.5285544991493225,2.2552523612976074,-0.20724813640117645,0.0,0.0,0.0,0.0,0.0,0.0,0.0,0.13247821315329783,0.5493145901140473,0.2959983993805223,0.45039506505589727,0.1040426987780163,0.06485503264700579,-0.19718769972122205,-0.6092362690444787,-0.057739696823191224,-0.6665739074004324,-2.5944595481805632,-0.055651147358669384,2.5079567375712926,0.8763191901759968,-0.6090851748156966,-0.05753196718556838,-0.666603097082616,-2.5945565370258534,-0.05562143941554,2.507976027223799,0.8763108487046415,-0.0003664831320735173,0.00010816151238784318,-0.00025159776183880645,3.763654443627938e-05,-6.659939594616858e-05,-0.00028667524532240303,0.0009721203259748745,0.0,0.0,0.0,0.0,0.0,0.0,0.0,0.00015109422878212264,0.0002077296376228402,-2.918968218357243e-05,-9.698884529019125e-05,2.9707943129383962e-05,1.9289652506415678e-05,-8.341471355310937e-06,0.0003664831320735173,-0.00010816151238784318,0.00025159776183880645,-3.763654443627938e-05,6.659939594616858e-05,0.00028667524532240303,-0.0009721203259748745,-0.13260537385940552,18.106531143188477,-1.1164276599884033,-18.071321487426758,-0.5285544991493225,-2.2552523612976074,0.20724813640117645,0
31,0.15000581741333008,0.13260537385940552,-18.106531143188477,1.1164276599884033,18.071321487426758,0.5285544991493225,2.2552523612976074,-0.20724813640117645,0.0,0.0,0.0,0.0,0.0,0.0,0.0,0.13247821315329783,0.5493145901140473,0.2959983993805223,0.45039506505589727,0.1040426987780163,0.06485503264700579,-0.19718769972122205,-0.6092362690444787,-0.057739696823191224,-0.6665739074004324,-2.5944595481805632,-0.055651147358669384,2.5079567375712926,0.8763191901759968,-0.6090851748156966,-0.05753196718556838,-0.666603097082616,-2.5945565370258534,-0.05562143941554,2.507976027223799,0.8763108487046415,-0.0003664831320735173,0.00010816151238784318,-0.00025159776183880645,3.763654443627938e-05,-6.659939594616858e-05,-0.00028667524532240303,0.0009721203259748745,0.0,0.0,0.0,0.0,0.0,0.0,0.0,0.00015109422878212264,0.0002077296376228402,-2.918968218357243e-05,-9.698884529019125e-05,2.9707943129383962e-05,1.9289652506415678e-05,-8.341471355310937e-06,0.0003664831320735173,-0.00010816151238784318,0.00025159776183880645,-3.763654443627938e-05,6.659939594616858e-05,0.00028667524532240303,-0.0009721203259748745,-0.13260537385940552,18.106531143188477,-1.1164276599884033,-18.071321487426758,-0.5285544991493225,-2.2552523612976074,0.20724813640117645,0
32,0.15500926971435547,0.16037636995315552,-18.106531143188477,1.1680023670196533,18.099092483520508,0.5285544991493225,2.2424349784851074,-0.18710653483867645,0.0,0.0,0.0,0.0,0.0,0.0,0.0,0.13127661356064615,0.5519795836241531,0.29634387324143097,0.4490385765861797,0.10348489186477543,0.0643351635793838,-0.1973605406086952,-0.6092403228880742,-0.057739696823191224,-0.6665775266781188,-2.5944614970223947,-0.055646483900660085,2.5079581617249382,0.8763169522202676,-0.6090851748156966,-0.05753196718556838,-0.666603097082616,-2.5945565370258534,-0.05562143941554,2.507976027223799,0.8763108487046415,-0.0011440705603202926,-0.00015454637348240498,-0.0015229368014088689,-0.000680038958527808,-4.2030398337855494e-05,0.00014047021430398985,-0.0011937020518755688,0.0,0.0,0.0,0.0,0.0,0.0,0.0,0.00015514807237759776,0.0002077296376228402,-2.5570404497243793e-05,-9.504000345872399e-05,2.5044485120084836e-05,1.7865498860736295e-05,-6.1035156261324275e-06,0.0011440705603202926,0.00015454637348240498,0.0015229368014088689,0.000680038958527808,4.2030398337855494e-05,-0.00014047021430398985,0.0011937020518755688,-0.16037636995315552,18.106531143188477,-1.1680023670196533,-18.099092483520508,-0.5285544991493225,-2.2424349784851074,0.18710653483867645,0
33,0.16000771522521973,0.16037636995315552,-18.106531143188477,1.1680023670196533,18.099092483520508,0.5285544991493225,2.2424349784851074,-0.18710653483867645,0.0,0.0,0.0,0.0,0.0,0.0,0.0,0.13127661356064615,0.5519795836241531,0.29634387324143097,0.4490385765861797,0.10348489186477543,0.0643351635793838,-0.1973605406086952,-0.6092403228880742,-0.057739696823191224,-0.6665775266781188,-2.5944614970223947,-0.055646483900660085,2.5079581617249382,0.8763169522202676,-0.6090851748156966,-0.05753196718556838,-0.666603097082616,-2.5945565370258534,-0.05562143941554,2.507976027223799,0.8763108487046415,-0.0011440705603202926,-0.00015454637348240498,-0.0015229368014088689,-0.000680038958527808,-4.2030398337855494e-05,0.00014047021430398985,-0.0011937020518755688,0.0,0.0,0.0,0.0,0.0,0.0,0.0,0.00015514807237759776,0.0002077296376228402,-2.5570404497243793e-05,-9.504000345872399e-05,2.5044485120084836e-05,1.7865498860736295e-05,-6.1035156261324275e-06,0.0011440705603202926,0.00015454637348240498,0.0015229368014088689,0.000680038958527808,4.2030398337855494e-05,-0.00014047021430398985,0.0011937020518755688,-0.16037636995315552,18.106531143188477,-1.1680023670196533,-18.099092483520508,-0.5285544991493225,-2.2424349784851074,0.18710653483867645,0
34,0.16500258445739746,0.16037636995315552,-18.054956436157227,1.1441986560821533,18.122896194458008,0.5221458077430725,2.2424349784851074,-0.21457235515117645,0.0,0.0,0.0,0.0,0.0,0.0,0.0,0.12757431816975104,0.5545012404372589,0.2969208741036969,0.44869187723128734,0.10377693705205773,0.06364068309749349,-0.19972407044260967,-0.6092381399501221,-0.05774331610087763,-0.6665758562422636,-2.5944631674582497,-0.05564707334387643,2.5079581617249382,0.8763200034935634,-0.6090851748156966,-0.05753196718556838,-0.666603097082616,-2.5945565370258534,-0.05562143941554,2.507976027223799,0.8763108487046415,-0.0012104460273405031,-0.001196073494440534,-0.0006910336793893395,-0.0010885087573038335,0.00033098211450792464,0.00020096866896406886,0.0012214430952889085,0.0,0.0,0.0,0.0,0.0,0.0,0.0,0.00015296513442553117,0.00021134891530924516,-2.7240840352438234e-05,-9.336956760375159e-05,2.5633928336432632e-05,1.7865498860736295e-05,-9.154788921938994e-06,0.0012104460273405031,0.001196073494440534,0.0006910336793893395,0.0010885087573038335,-0.00033098211450792464,-0.00020096866896406886,-0.0012214430952889085,-0.16037636995315552,18.054956436157227,-1.1441986560821533,-18.122896194458008,-0.5221458077430725,-2.2424349784851074,0.21457235515117645,0
35,0.17000317573547363,0.16037636995315552,-18.054956436157227,1.1441986560821533,18.122896194458008,0.5221458077430725,2.2424349784851074,-0.21457235515117645,0.0,0.0,0.0,0.0,0.0,0.0,0.0,0.12757431816975104,0.5545012404372589,0.2969208741036969,0.44869187723128734,0.10377693705205773,0.06364068309749349,-0.19972407044260967,-0.6092381399501221,-0.05774331610087763,-0.6665758562422636,-2.5944631674582497,-0.05564707334387643,2.5079581617249382,0.8763200034935634,-0.6090851748156966,-0.05753196718556838,-0.666603097082616,-2.5945565370258534,-0.05562143941554,2.507976027223799,0.8763108487046415,-0.0012104460273405031,-0.001196073494440534,-0.0006910336793893395,-0.0010885087573038335,0.00033098211450792464,0.00020096866896406886,0.0012214430952889085,0.0,0.0,0.0,0.0,0.0,0.0,0.0,0.00015296513442553117,0.00021134891530924516,-2.7240840352438234e-05,-9.336956760375159e-05,2.5633928336432632e-05,1.7865498860736295e-05,-9.154788921938994e-06,0.0012104460273405031,0.001196073494440534,0.0006910336793893395,0.0010885087573038335,-0.00033098211450792464,-0.00020096866896406886,-0.0012214430952889085,-0.16037636995315552,18.054956436157227,-1.1441986560821533,-18.122896194458008,-0.5221458077430725,-2.2424349784851074,0.21457235515117645,0
36,0.1750040054321289,0.18418008089065552,-18.078760147094727,1.1164276599884033,18.099092483520508,0.5221458077430725,2.2488436698913574,-0.17978231608867645,0.0,0.0,0.0,0.0,0.0,0.0,0.0,0.12788994675693593,0.5485449665774501,0.300993034472559,0.4531513687136471,0.10422707331394712,0.06415837545655875,-0.19800938261849887,-0.6092398073757074,-0.057741645665022365,-0.6665739074004324,-2.5944614970223947,-0.05564708260738609,2.5079574496481154,0.8763161384181816,-0.6090851748156966,-0.05753196718556838,-0.666603097082616,-2.5945565370258534,-0.05562143941554,2.507976027223799,0.8763108487046415,-0.0016063601250068946,-0.0012401157306880213,0.00034719949415335205,-0.00020360402302593757,0.00014343392652413285,0.00010618828916878167,-0.000954424263592492,0.0,0.0,0.0,0.0,0.0,0.0,0.0,0.0001546325600108034,0.00020967847945398133,-2.918968218357243e-05,-9.504000345872399e-05,2.564319184609337e-05,1.8577575683575986e-05,-5.289713540079788e-06,0.0016063601250068946,0.0012401157306880213,-0.00034719949415335205,0.00020360402302593757,-0.00014343392652413285,-0.00010618828916878167,0.000954424263592492,-0.18418008089065552,18.078760147094727,-1.1164276599884033,-18.099092483520508,-0.5221458077430725,-2.2488436698913574,0.17978231608867645,0
37,0.18000435829162598,0.18418008089065552,-18.078760147094727,1.1164276599884033,18.099092483520508,0.5221458077430725,2.2488436698913574,-0.17978231608867645,0.0,0.0,0.0,0.0,0.0,0.0,0.0,0.12788994675693593,0.5485449665774501,0.300993034472559,0.4531513687136471,0.10422707331394712,0.06415837545655875,-0.19800938261849887,-0.6092398073757074,-0.057741645665022365,-0.6665739074004324,-2.5944614970223947,-0.05564708260738609,2.5079574496481154,0.8763161384181816,-0.6090851748156966,-0.05753196718556838,-0.666603097082616,-2.5945565370258534,-0.05562143941554,2.507976027223799,0.8763108487046415,-0.0016063601250068946,-0.0012401157306880213,0.00034719949415335205,-0.00020360402302593757,0.00014343392652413285,0.00010618828916878167,-0.000954424263592492,0.0,0.0,0.0,0.0,0.0,0.0,0.0,0.0001546325600108034,0.00020967847945398133,-2.918968218357243e-05,-9.504000345872399e-05,2.564319184609337e-05,1.8577575683575986e-05,-5.289713540079788e-06,0.0016063601250068946,0.0012401157306880213,-0.00034719949415335205,0.00020360402302593757,-0.00014343392652413285,-0.00010618828916878167,0.000954424263592492,-0.18418008089065552,18.078760147094727,-1.1164276599884033,-18.099092483520508,-0.5221458077430725,-2.2488436698913574,0.17978231608867645,0
38,0.18502569198608398,0.18418008089065552,-18.130334854125977,1.1441986560821533,18.099092483520508,0.5340476632118225,2.2488436698913574,-0.22098104655742645,0.0,0.0,0.0,0.0,0.0,0.0,0.0,0.1299709060592074,0.5502978829709477,0.3037720372032078,0.4528749920530874,0.1046141845103594,0.06449891915585815,-0.19785696371429082,-0.609241993878648,-0.05773802638733596,-0.6665758562422636,-2.5944614970223947,-0.05564744872808316,2.5079574496481154,0.876320716054903,-0.6090851748156966,-0.05753196718556838,-0.666603097082616,-2.5945565370258534,-0.05562143941554,2.507976027223799,0.8763108487046415,-0.0009883817594217696,0.00019702566719912197,-0.0006446664271667566,-0.00029376648943664783,-0.00018396435896540864,-1.0662611424239962e-05,0.0012258988107486655,0.0,0.0,0.0,0.0,0.0,0.0,0.0,0.00015681906295139658,0.00020605920176757636,-2.7240840352438234e-05,-9.504000345872399e-05,2.600931254315847e-05,1.8577575683575986e-05,-9.867350261538732e-06,0.0009883817594217696,-0.00019702566719912197,0.0006446664271667566,0.00029376648943664783,0.00018396435896540864,1.0662611424239962e-05,-0.0012258988107486655,-0.18418008089065552,18.130334854125977,-1.1441986560821533,-18.099092483520508,-0.5340476632118225,-2.2488436698913574,0.22098104655742645,0
39,0.1900014877319336,0.18418008089065552,-18.130334854125977,1.1441986560821533,18.099092483520508,0.5340476632118225,2.2488436698913574,-0.22098104655742645,0.0,0.0,0.0,0.0,0.0,0.0,0.0,0.1299709060592074,0.5502978829709477,0.3037720372032078,0.4528749920530874,0.1046141845103594,0.06449891915585815,-0.19785696371429082,-0.609241993878648,-0.05773802638733596,-0.6665758562422636,-2.5944614970223947,-0.05564744872808316,2.5079574496481154,0.876320716054903,-0.6090851748156966,-0.05753196718556838,-0.666603097082616,-2.5945565370258534,-0.05562143941554,2.507976027223799,0.8763108487046415,-0.0009883817594217696,0.00019702566719912197,-0.0006446664271667566,-0.00029376648943664783,-0.00018396435896540864,-1.0662611424239962e-05,0.0012258988107486655,0.0,0.0,0.0,0.0,0.0,0.0,0.0,0.00015681906295139658,0.00020605920176757636,-2.7240840352438234e-05,-9.504000345872399e-05,2.600931254315847e-05,1.8577575683575986e-05,-9.867350261538732e-06,0.0009883817594217696,-0.00019702566719912197,0.0006446664271667566,0.00029376648943664783,0.00018396435896540864,1.0662611424239962e-05,-0.0012258988107486655,-0.18418008089065552,18.130334854125977,-1.1441986560821533,-18.099092483520508,-0.5340476632118225,-2.2488436698913574,0.22098104655742645,0
40,0.19500207901000977,0.18418008089065552,-18.130334854125977,1.1441986560821533,18.099092483520508,0.5340476632118225,2.2488436698913574,-0.22098104655742645,0.0,0.0,0.0,0.0,0.0,0.0,0.0,0.1299709060592074,0.5502978829709477,0.3037720372032078,0.4528749920530874,0.1046141845103594,0.06449891915585815,-0.19785696371429082,-0.609241993878648,-0.05773802638733596,-0.6665758562422636,-2.5944614970223947,-0.05564744872808316,2.5079574496481154,0.876320716054903,-0.6090851748156966,-0.05753196718556838,-0.666603097082616,-2.5945565370258534,-0.05562143941554,2.507976027223799,0.8763108487046415,-0.0009883817594217696,0.00019702566719912197,-0.0006446664271667566,-0.00029376648943664783,-0.00018396435896540864,-1.0662611424239962e-05,0.0012258988107486655,0.0,0.0,0.0,0.0,0.0,0.0,0.0,0.00015681906295139658,0.00020605920176757636,-2.7240840352438234e-05,-9.504000345872399e-05,2.600931254315847e-05,1.8577575683575986e-05,-9.867350261538732e-06,0.0009883817594217696,-0.00019702566719912197,0.0006446664271667566,0.00029376648943664783,0.00018396435896540864,1.0662611424239962e-05,-0.0012258988107486655,-0.18418008089065552,18.130334854125977,-1.1441986560821533,-18.099092483520508,-0.5340476632118225,-2.2488436698913574,0.22098104655742645,0
41,0.20000004768371582,0.18418008089065552,-18.130334854125977,1.1441986560821533,18.099092483520508,0.5340476632118225,2.2488436698913574,-0.22098104655742645,0.0,0.0,0.0,0.0,0.0,0.0,0.0,0.1299709060592074,0.5502978829709477,0.3037720372032078,0.4528749920530874,0.1046141845103594,0.06449891915585815,-0.19785696371429082,-0.609241993878648,-0.05773802638733596,-0.6665758562422636,-2.5944614970223947,-0.05564744872808316,2.5079574496481154,0.876320716054903,-0.6090851748156966,-0.05753196718556838,-0.666603097082616,-2.5945565370258534,-0.05562143941554,2.507976027223799,0.8763108487046415,-0.0009883817594217696,0.00019702566719912197,-0.0006446664271667566,-0.00029376648943664783,-0.00018396435896540864,-1.0662611424239962e-05,0.0012258988107486655,0.0,0.0,0.0,0.0,0.0,0.0,0.0,0.00015681906295139658,0.00020605920176757636,-2.7240840352438234e-05,-9.504000345872399e-05,2.600931254315847e-05,1.8577575683575986e-05,-9.867350261538732e-06,0.0009883817594217696,-0.00019702566719912197,0.0006446664271667566,0.00029376648943664783,0.00018396435896540864,1.0662611424239962e-05,-0.0012258988107486655,-0.18418008089065552,18.130334854125977,-1.1441986560821533,-18.099092483520508,-0.5340476632118225,-2.2488436698913574,0.22098104655742645,0
42,0.2049999237060547,0.13260537385940552,-18.106531143188477,1.1441986560821533,18.122896194458008,0.5340476632118225,2.2552523612976074,-0.16604940593242645,0.0,0.0,0.0,0.0,0.0,0.0,0.0,0.13192717151782302,0.5754464591679396,0.30405755555789776,0.39817799755002925,0.10393776558864792,0.0564973317215891,-0.1970775970808596,-0.6092361911082942,-0.057739696823191224,-0.6665758562422636,-2.5944631674582497,-0.055646975684062176,2.5079567375712926,0.876314612539278,-0.6090851748156966,-0.05753196718556838,-0.666603097082616,-2.5945565370258534,-0.05562143941554,2.507976027223799,0.8763108487046415,4.440272142121226e-06,-0.0003912312944027447,-0.0003881707806576453,-0.0001607688592322738,-0.00027741846517813547,-5.0637048812620846e-05,-0.0010288456311172904,0.0,0.0,0.0,0.0,0.0,0.0,0.0,0.00015101629259761662,0.0002077296376228402,-2.7240840352438234e-05,-9.336956760375159e-05,2.553626852217633e-05,1.9289652506415678e-05,-3.7638346365165276e-06,-4.440272142121226e-06,0.0003912312944027447,0.0003881707806576453,0.0001607688592322738,0.00027741846517813547,5.0637048812620846e-05,0.0010288456311172904,-0.13260537385940552,18.106531143188477,-1.1441986560821533,-18.122896194458008,-0.5340476632118225,-2.2552523612976074,0.16604940593242645,0
43,0.20999884605407715,0.13260537385940552,-18.106531143188477,1.1441986560821533,18.122896194458008,0.5340476632118225,2.2552523612976074,-0.16604940593242645,0.0,0.0,0.0,0.0,0.0,0.0,0.0,0.13192717151782302,0.5754464591679396,0.30405755555789776,0.39817799755002925,0.10393776558864792,0.0564973317215891,-0.1970775970808596,-0.6092361911082942,-0.057739696823191224,-0.6665758562422636,-2.5944631674582497,-0.055646975684062176,2.5079567375712926,0.876314612539278,-0.6090851748156966,-0.05753196718556838,-0.666603097082616,-2.5945565370258534,-0.05562143941554,2.507976027223799,0.8763108487046415,4.440272142121226e-06,-0.0003912312944027447,-0.0003881707806576453,-0.0001607688592322738,-0.00027741846517813547,-5.0637048812620846e-05,-0.0010288456311172904,0.0,0.0,0.0,0.0,0.0,0.0,0.0,0.00015101629259761662,0.0002077296376228402,-2.7240840352438234e-05,-9.336956760375159e-05,2.553626852217633e-05,1.9289652506415678e-05,-3.7638346365165276e-06,-4.440272142121226e-06,0.0003912312944027447,0.0003881707806576453,0.0001607688592322738,0.00027741846517813547,5.0637048812620846e-05,0.0010288456311172904,-0.13260537385940552,18.106531143188477,-1.1441986560821533,-18.122896194458008,-0.5340476632118225,-2.2552523612976074,0.16604940593242645,0
44,0.21502327919006348,0.13260537385940552,-18.154138565063477,1.1441986560821533,18.047517776489258,0.5221458077430725,2.2488436698913574,-0.20724813640117645,0.0,0.0,0.0,0.0,0.0,0.0,0.0,0.12974521567982653,0.5487446746357977,0.3040859304660068,0.4416972189589471,0.10461734872042838,0.06440395913379669,-0.19730171414343647,-0.6092362691536353,-0.057736355951480696,-0.6665758562422636,-2.5944578777447083,-0.05564683095083361,2.5079574496481154,0.8763181305378674,-0.6090851748156966,-0.05753196718556838,-0.666603097082616,-2.5945565370258534,-0.05562143941554,2.507976027223799,0.8763108487046415,-7.709270862369008e-05,0.000931483808216875,-0.0007849884080949595,0.0002658096946949001,0.0004085317907187285,0.00012400731229642899,0.00034953804950580667,0.0,0.0,0.0,0.0,0.0,0.0,0.0,0.0001510943379386953,0.00020438876591231253,-2.7240840352438234e-05,-9.865928114516365e-05,2.539153529360766e-05,1.8577575683575986e-05,-7.281833225958323e-06,7.709270862369008e-05,-0.000931483808216875,0.0007849884080949595,-0.0002658096946949001,-0.0004085317907187285,-0.00012400731229642899,-0.00034953804950580667,-0.13260537385940552,18.154138565063477,-1.1441986560821533,-18.047517776489258,-0.5221458077430725,-2.2488436698913574,0.20724813640117645,0
45,0.22000598907470703,0.13260537385940552,-18.154138565063477,1.1441986560821533,18.047517776489258,0.5221458077430725,2.2488436698913574,-0.20724813640117645,0.0,0.0,0.0,0.0,0.0,0.0,0.0,0.12974521567982653,0.5487446746357977,0.3040859304660068,0.4416972189589471,0.10461734872042838,0.06440395913379669,-0.19730171414343647,-0.6092362691536353,-0.057736355951480696,-0.6665758562422636,-2.5944578777447083,-0.05564683095083361,2.5079574496481154,0.8763181305378674,-0.6090851748156966,-0.05753196718556838,-0.666603097082616,-2.5945565370258534,-0.05562143941554,2.507976027223799,0.8763108487046415,-7.709270862369008e-05,0.000931483808216875,-0.0007849884080949595,0.0002658096946949001,0.0004085317907187285,0.00012400731229642899,0.00034953804950580667,0.0,0.0,0.0,0.0,0.0,0.0,0.0,0.0001510943379386953,0.00020438876591231253,-2.7240840352438234e-05,-9.865928114516365e-05,2.539153529360766e-05,1.8577575683575986e-05,-7.281833225958323e-06,7.709270862369008e-05,-0.000931483808216875,0.0007849884080949595,-0.0002658096946949001,-0.0004085317907187285,-0.00012400731229642899,-0.00034953804950580667,-0.13260537385940552,18.154138565063477,-1.1441986560821533,-18.047517776489258,-0.5221458077430725,-2.2488436698913574,0.20724813640117645,0
46,0.2250075340270996,0.10880166292190552,-18.054956436157227,1.1164276599884033,18.071321487426758,0.5285544991493225,2.2552523612976074,-0.16604940593242645,0.0,0.0,0.0,0.0,0.0,0.0,0.0,0.13434854359473672,0.5431887033402278,0.3070035138148046,0.4564443702989119,0.10495790001885831,0.06686123773408245,-0.19931470853004413,-0.6092345179957115,-0.05774331707407494,-0.6665739074004324,-2.5944595481805632,-0.05564972797583128,2.5079567375712926,0.8763146125332963,-0.6090851748156966,-0.05753196718556838,-0.666603097082616,-2.5945565370258534,-0.05562143941554,2.507976027223799,0.8763108487046415,0.0008503602213121819,-0.0011981558522970038,0.0002852149703191666,6.746347305261184e-05,1.2252506234795344e-05,-0.00043604578101649717,-0.001157421573713484,0.0,0.0,0.0,0.0,0.0,0.0,0.0,0.00014934318001491587,0.00021134988850655956,-2.918968218357243e-05,-9.698884529019125e-05,2.8288560291279963e-05,1.9289652506415678e-05,-3.7638286548569155e-06,-0.0008503602213121819,0.0011981558522970038,-0.0002852149703191666,-6.746347305261184e-05,-1.2252506234795344e-05,0.00043604578101649717,0.001157421573713484,-0.10880166292190552,18.054956436157227,-1.1164276599884033,-18.071321487426758,-0.5285544991493225,-2.2552523612976074,0.16604940593242645,0
47,0.23063278198242188,0.10880166292190552,-18.054956436157227,1.1164276599884033,18.071321487426758,0.5285544991493225,2.2552523612976074,-0.16604940593242645,0.0,0.0,0.0,0.0,0.0,0.0,0.0,0.13434854359473672,0.5431887033402278,0.3070035138148046,0.4564443702989119,0.10495790001885831,0.06686123773408245,-0.19931470853004413,-0.6092345179957115,-0.05774331707407494,-0.6665739074004324,-2.5944595481805632,-0.05564972797583128,2.5079567375712926,0.8763146125332963,-0.6090851748156966,-0.05753196718556838,-0.666603097082616,-2.5945565370258534,-0.05562143941554,2.507976027223799,0.8763108487046415,0.0008503602213121819,-0.0011981558522970038,0.0002852149703191666,6.746347305261184e-05,1.2252506234795344e-05,-0.00043604578101649717,-0.001157421573713484,0.0,0.0,0.0,0.0,0.0,0.0,0.0,0.00014934318001491587,0.00021134988850655956,-2.918968218357243e-05,-9.698884529019125e-05,2.8288560291279963e-05,1.9289652506415678e-05,-3.7638286548569155e-06,-0.0008503602213121819,0.0011981558522970038,-0.0002852149703191666,-6.746347305261184e-05,-1.2252506234795344e-05,0.00043604578101649717,0.001157421573713484,-0.10880166292190552,18.054956436157227,-1.1164276599884033,-18.071321487426758,-0.5285544991493225,-2.2552523612976074,0.16604940593242645,0
48,0.234999418258667,0.10880166292190552,-18.054956436157227,1.1441986560821533,18.047517776489258,0.5285544991493225,2.2552523612976074,-0.22830526530742645,0.0,0.0,0.0,0.0,0.0,0.0,0.0,0.13462943768780503,0.5500277201737646,0.3085983564287922,0.4553657001222562,0.10479668539587719,0.06604043467150873,-0.19832784415694732,-0.6092367061637398,-0.057743316100883124,-0.6665758562422636,-2.5944578777447083,-0.05564791329314047,2.5079567375712926,0.8763214121194164,-0.6090851748156966,-0.05753196718556838,-0.666603097082616,-2.5945565370258534,-0.05562143941554,2.507976027223799,0.8763108487046415,0.000381029569655041,-0.0004046767060954622,-0.00011166431534390723,0.0010271545952264315,-0.0001186627166679362,-0.00025031887312273917,0.001109579833700986,0.0,0.0,0.0,0.0,0.0,0.0,0.0,0.00015153134804324342,0.00021134891531474076,-2.7240840352438234e-05,-9.865928114516365e-05,2.647387760047054e-05,1.9289652506415678e-05,-1.0563414774900082e-05,-0.000381029569655041,0.0004046767060954622,0.00011166431534390723,-0.0010271545952264315,0.0001186627166679362,0.00025031887312273917,-0.001109579833700986,-0.10880166292190552,18.054956436157227,-1.1441986560821533,-18.047517776489258,-0.5285544991493225,-2.2552523612976074,0.22830526530742645,0
49,0.24000334739685059,0.10880166292190552,-18.054956436157227,1.1441986560821533,18.047517776489258,0.5285544991493225,2.2552523612976074,-0.22830526530742645,0.0,0.0,0.0,0.0,0.0,0.0,0.0,0.13462943768780503,0.5500277201737646,0.3085983564287922,0.4553657001222562,0.10479668539587719,0.06604043467150873,-0.19832784415694732,-0.6092367061637398,-0.057743316100883124,-0.6665758562422636,-2.5944578777447083,-0.05564791329314047,2.5079567375712926,0.8763214121194164,-0.6090851748156966,-0.05753196718556838,-0.666603097082616,-2.5945565370258534,-0.05562143941554,2.507976027223799,0.8763108487046415,0.000381029569655041,-0.0004046767060954622,-0.00011166431534390723,0.0010271545952264315,-0.0001186627166679362,-0.00025031887312273917,0.001109579833700986,0.0,0.0,0.0,0.0,0.0,0.0,0.0,0.00015153134804324342,0.00021134891531474076,-2.7240840352438234e-05,-9.865928114516365e-05,2.647387760047054e-05,1.9289652506415678e-05,-1.0563414774900082e-05,-0.000381029569655041,0.0004046767060954622,0.00011166431534390723,-0.0010271545952264315,0.0001186627166679362,0.00025031887312273917,-0.001109579833700986,-0.10880166292190552,18.054956436157227,-1.1441986560821533,-18.047517776489258,-0.5285544991493225,-2.2552523612976074,0.22830526530742645,0
50,0.24500346183776855,0.13260537385940552,-18.106531143188477,1.1164276599884033,18.099092483520508,0.5221458077430725,2.2552523612976074,-0.17337362468242645,0.0,0.0,0.0,0.0,0.0,0.0,0.0,0.13103673305665137,0.5485982064857955,0.30841503269888937,0.459023056601596,0.10455444217343343,0.06665042111133936,-0.20013234902490926,-0.6092362150918845,-0.057739696823191224,-0.6665739074004324,-2.5944614970223947,-0.05565008620578838,2.5079567375712926,0.8763154263406968,-0.6090851748156966,-0.05753196718556838,-0.666603097082616,-2.5945565370258534,-0.05562143941554,2.507976027223799,0.8763108487046415,0.00012884830417992637,-2.5804055512228497e-05,-0.00021500789487521828,-0.00025174743134985555,0.0003489221188521133,-0.0003531178648377663,-0.0013846384451693438,0.0,0.0,0.0,0.0,0.0,0.0,0.0,0.00015104027618795257,0.0002077296376228402,-2.918968218357243e-05,-9.504000345872399e-05,2.864679024838085e-05,1.9289652506415678e-05,-4.577636055325129e-06,-0.00012884830417992637,2.5804055512228497e-05,0.00021500789487521828,0.00025174743134985555,-0.0003489221188521133,0.0003531178648377663,0.0013846384451693438,-0.13260537385940552,18.106531143188477,-1.1164276599884033,-18.099092483520508,-0.5221458077430725,-2.2552523612976074,0.17337362468242645,0
51,0.250089168548584,0.13260537385940552,-18.106531143188477,1.1164276599884033,18.099092483520508,0.5221458077430725,2.2552523612976074,-0.17337362468242645,0.0,0.0,0.0,0.0,0.0,0.0,0.0,0.13103673305665137,0.5485982064857955,0.30841503269888937,0.459023056601596,0.10455444217343343,0.06665042111133936,-0.20013234902490926,-0.6092362150918845,-0.057739696823191224,-0.6665739074004324,-2.5944614970223947,-0.05565008620578838,2.5079567375712926,0.8763154263406968,-0.6090851748156966,-0.05753196718556838,-0.666603097082616,-2.5945565370258534,-0.05562143941554,2.507976027223799,0.8763108487046415,0.00012884830417992637,-2.5804055512228497e-05,-0.00021500789487521828,-0.00025174743134985555,0.0003489221188521133,-0.0003531178648377663,-0.0013846384451693438,0.0,0.0,0.0,0.0,0.0,0.0,0.0,0.00015104027618795257,0.0002077296376228402,-2.918968218357243e-05,-9.504000345872399e-05,2.864679024838085e-05,1.9289652506415678e-05,-4.577636055325129e-06,-0.00012884830417992637,2.5804055512228497e-05,0.00021500789487521828,0.00025174743134985555,-0.0003489221188521133,0.0003531178648377663,0.0013846384451693438,-0.13260537385940552,18.106531143188477,-1.1164276599884033,-18.099092483520508,-0.5221458077430725,-2.2552523612976074,0.17337362468242645,0
52,0.25609493255615234,0.10880166292190552,-18.154138565063477,1.1164276599884033,18.071321487426758,0.5285544991493225,2.2552523612976074,-0.19351522624492645,0.0,0.0,0.0,0.0,0.0,0.0,0.0,0.1347925738358993,0.5490147355179196,0.30886678953188507,0.4565924562307155,0.10468572919060211,0.0666081257273284,-0.20050540582972598,-0.6092352471628308,-0.057736355951480696,-0.6665739074004324,-2.5944595481805632,-0.05565074552253177,2.5079567375712926,0.8763176642970906,-0.6090851748156966,-0.05753196718556838,-0.666603097082616,-2.5945565370258534,-0.05562143941554,2.507976027223799,0.8763108487046415,0.0005346236950771331,0.0004479782520599627,0.0003212816413586234,0.0001247923853093697,-3.502260474391348e-05,-0.00038439833335626765,0.00025750424069282546,0.0,0.0,0.0,0.0,0.0,0.0,0.0,0.00015007234713426687,0.00020438876591231253,-2.918968218357243e-05,-9.698884529019125e-05,2.9306106991769387e-05,1.9289652506415678e-05,-6.815592449083141e-06,-0.0005346236950771331,-0.0004479782520599627,-0.0003212816413586234,-0.0001247923853093697,3.502260474391348e-05,0.00038439833335626765,-0.00025750424069282546,-0.10880166292190552,18.154138565063477,-1.1164276599884033,-18.071321487426758,-0.5285544991493225,-2.2552523612976074,0.19351522624492645,0
53,0.26000285148620605,0.10880166292190552,-18.154138565063477,1.1164276599884033,18.071321487426758,0.5285544991493225,2.2552523612976074,-0.19351522624492645,0.0,0.0,0.0,0.0,0.0,0.0,0.0,0.1347925738358993,0.5490147355179196,0.30886678953188507,0.4565924562307155,0.10468572919060211,0.0666081257273284,-0.20050540582972598,-0.6092352471628308,-0.057736355951480696,-0.6665739074004324,-2.5944595481805632,-0.05565074552253177,2.5079567375712926,0.8763176642970906,-0.6090851748156966,-0.05753196718556838,-0.666603097082616,-2.5945565370258534,-0.05562143941554,2.507976027223799,0.8763108487046415,0.0005346236950771331,0.0004479782520599627,0.0003212816413586234,0.0001247923853093697,-3.502260474391348e-05,-0.00038439833335626765,0.00025750424069282546,0.0,0.0,0.0,0.0,0.0,0.0,0.0,0.00015007234713426687,0.00020438876591231253,-2.918968218357243e-05,-9.698884529019125e-05,2.9306106991769387e-05,1.9289652506415678e-05,-6.815592449083141e-06,-0.0005346236950771331,-0.0004479782520599627,-0.0003212816413586234,-0.0001247923853093697,3.502260474391348e-05,0.00038439833335626765,-0.00025750424069282546,-0.10880166292190552,18.154138565063477,-1.1164276599884033,-18.071321487426758,-0.5285544991493225,-2.2552523612976074,0.19351522624492645,0
54,0.2650001049041748,0.13260537385940552,-18.154138565063477,1.1441986560821533,18.099092483520508,0.5340476632118225,2.2424349784851074,-0.20724813640117645,0.0,0.0,0.0,0.0,0.0,0.0,0.0,0.12887918493845646,0.5496537032506371,0.3039782962020965,0.45201511372641334,0.1052608592345923,0.06542410370733844,-0.19938803008638306,-0.6092361882131571,-0.057736355951480696,-0.6665758562422636,-2.5944614970223947,-0.05564712938006819,2.5079581617249382,0.8763191900144913,-0.6090851748156966,-0.05753196718556838,-0.666603097082616,-2.5945565370258534,-0.05562143941554,2.507976027223799,0.8763108487046415,-0.0002753951178091835,0.0005688841182060683,-0.0006128077825615671,-0.0005951953858987602,-0.0003360505368907068,0.00034002770371472865,-1.3895368911828047e-05,0.0,0.0,0.0,0.0,0.0,0.0,0.0,0.0001510133974604866,0.00020438876591231253,-2.7240840352438234e-05,-9.504000345872399e-05,2.5689964528188836e-05,1.7865498860736295e-05,-8.341309849835277e-06,0.0002753951178091835,-0.0005688841182060683,0.0006128077825615671,0.0005951953858987602,0.0003360505368907068,-0.00034002770371472865,1.3895368911828047e-05,-0.13260537385940552,18.154138565063477,-1.1441986560821533,-18.099092483520508,-0.5340476632118225,-2.2424349784851074,0.20724813640117645,0
55,0.270003080368042,0.13260537385940552,-18.154138565063477,1.1441986560821533,18.099092483520508,0.5340476632118225,2.2424349784851074,-0.20724813640117645,0.0,0.0,0.0,0.0,0.0,0.0,0.0,0.12887918493845646,0.5496537032506371,0.3039782962020965,0.45201511372641334,0.1052608592345923,0.06542410370733844,-0.19938803008638306,-0.6092361882131571,-0.057736355951480696,-0.6665758562422636,-2.5944614970223947,-0.05564712938006819,2.5079581617249382,0.8763191900144913,-0.6090851748156966,-0.05753196718556838,-0.666603097082616,-2.5945565370258534,-0.05562143941554,2.507976027223799,0.8763108487046415,-0.0002753951178091835,0.0005688841182060683,-0.0006128077825615671,-0.0005951953858987602,-0.0003360505368907068,0.00034002770371472865,-1.3895368911828047e-05,0.0,0.0,0.0,0.0,0.0,0.0,0.0,0.0001510133974604866,0.00020438876591231253,-2.7240840352438234e-05,-9.504000345872399e-05,2.5689964528188836e-05,1.7865498860736295e-05,-8.341309849835277e-06,0.0002753951178091835,-0.0005688841182060683,0.0006128077825615671,0.0005951953858987602,0.0003360505368907068,-0.00034002770371472865,1.3895368911828047e-05,-0.13260537385940552,18.154138565063477,-1.1441986560821533,-18.099092483520508,-0.5340476632118225,-2.2424349784851074,0.20724813640117645,0
56,0.27500200271606445,0.13260537385940552,-18.130334854125977,1.1164276599884033,18.071321487426758,0.5285544991493225,2.2424349784851074,-0.20724813640117645,0.0,0.0,0.0,0.0,0.0,0.0,0.0,0.09118613374681335,0.5378313194559906,0.26493576541680813,0.4532322406779301,0.1068956556689599,0.06572172934225085,-0.20063103589682438,-0.6092361880980045,-0.057738052663663414,-0.6665739074004324,-2.5944595481805632,-0.05565006833701026,2.5079581617249382,0.8763191901759959,-0.6090851748156966,-0.05753196718556838,-0.666603097082616,-2.5945565370258534,-0.05562143941554,2.507976027223799,0.8763108487046415,2.2477397714043056e-05,-0.0002706739619771226,0.0011933387866315532,0.0004561450664777064,-0.00010330304272852067,0.00024048664337691917,4.8017116761255244e-05,0.0,0.0,0.0,0.0,0.0,0.0,0.0,0.00015101328230793243,0.00020608547809503053,-2.918968218357243e-05,-9.698884529019125e-05,2.862892147025703e-05,1.7865498860736295e-05,-8.341471354422758e-06,-2.2477397714043056e-05,0.0002706739619771226,-0.0011933387866315532,-0.0004561450664777064,0.00010330304272852067,-0.00024048664337691917,-4.8017116761255244e-05,-0.13260537385940552,18.130334854125977,-1.1164276599884033,-18.071321487426758,-0.5285544991493225,-2.2424349784851074,0.20724813640117645,0
57,0.28010106086730957,0.13260537385940552,-18.130334854125977,1.1164276599884033,18.071321487426758,0.5285544991493225,2.2424349784851074,-0.20724813640117645,0.0,0.0,0.0,0.0,0.0,0.0,0.0,0.09118613374681335,0.5378313194559906,0.26493576541680813,0.4532322406779301,0.1068956556689599,0.06572172934225085,-0.20063103589682438,-0.6092361880980045,-0.057738052663663414,-0.6665739074004324,-2.5944595481805632,-0.05565006833701026,2.5079581617249382,0.8763191901759959,-0.6090851748156966,-0.05753196718556838,-0.666603097082616,-2.5945565370258534,-0.05562143941554,2.507976027223799,0.8763108487046415,2.2477397714043056e-05,-0.0002706739619771226,0.0011933387866315532,0.0004561450664777064,-0.00010330304272852067,0.00024048664337691917,4.8017116761255244e-05,0.0,0.0,0.0,0.0,0.0,0.0,0.0,0.00015101328230793243,0.00020608547809503053,-2.918968218357243e-05,-9.698884529019125e-05,2.862892147025703e-05,1.7865498860736295e-05,-8.341471354422758e-06,-2.2477397714043056e-05,0.0002706739619771226,-0.0011933387866315532,-0.0004561450664777064,0.00010330304272852067,-0.00024048664337691917,-4.8017116761255244e-05,-0.13260537385940552,18.130334854125977,-1.1164276599884033,-18.071321487426758,-0.5285544991493225,-2.2424349784851074,0.20724813640117645,0
58,0.2850067615509033,0.10880166292190552,-18.078760147094727,1.1441986560821533,18.023714065551758,0.5285544991493225,2.2488436698913574,-0.16604940593242645,0.0,0.0,0.0,0.0,0.0,0.0,0.0,0.1340301487481401,0.5465336884982069,0.30718777955822435,0.44394240767549126,0.10434874247249469,0.06449216797280563,-0.20203139818768187,-0.6092345177731838,-0.0577416456651707,-0.6665758562422636,-2.594456207308853,-0.05564652194768165,2.5079574496481154,0.8763145994573258,-0.6090851748156966,-0.05753196718556838,-0.666603097082616,-2.5945565370258534,-0.05562143941554,2.507976027223799,0.8763108487046415,0.0006713467111830007,-0.0005772870771016157,-0.0003637941729824209,0.0011035082017572422,-4.213143164350377e-05,-0.00012010580990787024,-0.001272069243624457,0.0,0.0,0.0,0.0,0.0,0.0,0.0,0.0001493429574872529,0.00020967847960231406,-2.7240840352438234e-05,-0.00010032971700058013,2.5082532141652847e-05,1.8577575683575986e-05,-3.75075268432834e-06,-0.0006713467111830007,0.0005772870771016157,0.0003637941729824209,-0.0011035082017572422,4.213143164350377e-05,0.00012010580990787024,0.001272069243624457,-0.10880166292190552,18.078760147094727,-1.1441986560821533,-18.023714065551758,-0.5285544991493225,-2.2488436698913574,0.16604940593242645,0
59,0.2900047302246094,0.10880166292190552,-18.078760147094727,1.1441986560821533,18.023714065551758,0.5285544991493225,2.2488436698913574,-0.16604940593242645,0.0,0.0,0.0,0.0,0.0,0.0,0.0,0.1340301487481401,0.5465336884982069,0.30718777955822435,0.44394240767549126,0.10434874247249469,0.06449216797280563,-0.20203139818768187,-0.6092345177731838,-0.0577416456651707,-0.6665758562422636,-2.594456207308853,-0.05564652194768165,2.5079574496481154,0.8763145994573258,-0.6090851748156966,-0.05753196718556838,-0.666603097082616,-2.5945565370258534,-0.05562143941554,2.507976027223799,0.8763108487046415,0.0006713467111830007,-0.0005772870771016157,-0.0003637941729824209,0.0011035082017572422,-4.213143164350377e-05,-0.00012010580990787024,-0.001272069243624457,0.0,0.0,0.0,0.0,0.0,0.0,0.0,0.0001493429574872529,0.00020967847960231406,-2.7240840352438234e-05,-0.00010032971700058013,2.5082532141652847e-05,1.8577575683575986e-05,-3.75075268432834e-06,-0.0006713467111830007,0.0005772870771016157,0.0003637941729824209,-0.0011035082017572422,4.213143164350377e-05,0.00012010580990787024,0.001272069243624457,-0.10880166292190552,18.078760147094727,-1.1441986560821533,-18.023714065551758,-0.5285544991493225,-2.2488436698913574,0.16604940593242645,0
60,0.2950019836425781,0.13260537385940552,-18.106531143188477,1.0926239490509033,18.099092483520508,0.5340476632118225,2.2488436698913574,-0.22830526530742645,0.0,0.0,0.0,0.0,0.0,0.0,0.0,0.1385436795045978,0.5400228423990379,0.3137701826951228,0.44965418916953814,0.10402256165783871,0.06533946834730608,-0.2005809777076632,-0.6092361880980045,-0.057739696823191224,-0.6665722369645771,-2.5944614970223947,-0.05565138941030965,2.5079574496481154,0.8763215298569125,-0.6090851748156966,-0.05753196718556838,-0.666603097082616,-2.5945565370258534,-0.05562143941554,2.507976027223799,0.8763108487046415,8.705545773516168e-05,-0.00014418046248202476,0.0003836064655173464,-0.00041345349017922267,-0.0001544344910531323,2.379082073113675e-05,0.001570690956442571,0.0,0.0,0.0,0.0,0.0,0.0,0.0,0.00015101328230793243,0.0002077296376228402,-3.086011803887789e-05,-9.504000345872399e-05,2.9949994769649935e-05,1.8577575683575986e-05,-1.0681152270985983e-05,-8.705545773516168e-05,0.00014418046248202476,-0.0003836064655173464,0.00041345349017922267,0.0001544344910531323,-2.379082073113675e-05,-0.001570690956442571,-0.13260537385940552,18.106531143188477,-1.0926239490509033,-18.099092483520508,-0.5340476632118225,-2.2488436698913574,0.22830526530742645,0
61,0.2999556064605713,0.13260537385940552,-18.106531143188477,1.0926239490509033,18.099092483520508,0.5340476632118225,2.2488436698913574,-0.22830526530742645,0.0,0.0,0.0,0.0,0.0,0.0,0.0,0.1385436795045978,0.5400228423990379,0.3137701826951228,0.44965418916953814,0.10402256165783871,0.06533946834730608,-0.2005809777076632,-0.6092361880980045,-0.057739696823191224,-0.6665722369645771,-2.5944614970223947,-0.05565138941030965,2.5079574496481154,0.8763215298569125,-0.6090851748156966,-0.05753196718556838,-0.666603097082616,-2.5945565370258534,-0.05562143941554,2.507976027223799,0.8763108487046415,8.705545773516168e-05,-0.00014418046248202476,0.0003836064655173464,-0.00041345349017922267,-0.0001544344910531323,2.379082073113675e-05,0.001570690956442571,0.0,0.0,0.0,0.0,0.0,0.0,0.0,0.00015101328230793243,0.0002077296376228402,-3.086011803887789e-05,-9.504000345872399e-05,2.9949994769649935e-05,1.8577575683575986e-05,-1.0681152270985983e-05,-8.705545773516168e-05,0.00014418046248202476,-0.0003836064655173464,0.00041345349017922267,0.0001544344910531323,-2.379082073113675e-05,-0.001570690956442571,-0.13260537385940552,18.106531143188477,-1.0926239490509033,-18.099092483520508,-0.5340476632118225,-2.2488436698913574,0.22830526530742645,0
62,0.30500054359436035,0.10880166292190552,-18.078760147094727,1.0688202381134033,18.047517776489258,0.5221458077430725,2.2360262870788574,-0.20724813640117645,0.0,0.0,0.0,0.0,0.0,0.0,0.0,0.13827716161416703,0.5491642599662894,0.3138672097660595,0.44472119835472335,0.10401930639847864,0.0645580877619709,-0.19997663325908127,-0.6092345266559909,-0.057741645665022365,-0.6665705665287218,-2.5944578777447083,-0.0556488622433258,2.507958873801761,0.8763160112616087,-0.6090851748156966,-0.05753196718556838,-0.666603097082616,-2.5945565370258534,-0.05562143941554,2.507976027223799,0.8763108487046415,0.0004391555690598443,-0.0003872047799482965,0.0014892077318039525,0.00048467280813930386,0.00018992299870382046,0.0003074641201091294,0.0005275212698933927,0.0,0.0,0.0,0.0,0.0,0.0,0.0,0.00014935184029429838,0.00020967847945398133,-3.2530553894183356e-05,-9.865928114516365e-05,2.742282778579741e-05,1.7153422037896604e-05,-5.162556967253096e-06,-0.0004391555690598443,0.0003872047799482965,-0.0014892077318039525,-0.00048467280813930386,-0.00018992299870382046,-0.0003074641201091294,-0.0005275212698933927,-0.10880166292190552,18.078760147094727,-1.0688202381134033,-18.047517776489258,-0.5221458077430725,-2.2360262870788574,0.20724813640117645,0
63,0.3099997043609619,0.10880166292190552,-18.078760147094727,1.0688202381134033,18.047517776489258,0.5221458077430725,2.2360262870788574,-0.20724813640117645,0.0,0.0,0.0,0.0,0.0,0.0,0.0,0.13827716161416703,0.5491642599662894,0.3138672097660595,0.44472119835472335,0.10401930639847864,0.0645580877619709,-0.19997663325908127,-0.6092345266559909,-0.057741645665022365,-0.6665705665287218,-2.5944578777447083,-0.0556488622433258,2.507958873801761,0.8763160112616087,-0.6090851748156966,-0.05753196718556838,-0.666603097082616,-2.5945565370258534,-0.05562143941554,2.507976027223799,0.8763108487046415,0.0004391555690598443,-0.0003872047799482965,0.0014892077318039525,0.00048467280813930386,0.00018992299870382046,0.0003074641201091294,0.0005275212698933927,0.0,0.0,0.0,0.0,0.0,0.0,0.0,0.00014935184029429838,0.00020967847945398133,-3.2530553894183356e-05,-9.865928114516365e-05,2.742282778579741e-05,1.7153422037896604e-05,-5.162556967253096e-06,-0.0004391555690598443,0.0003872047799482965,-0.0014892077318039525,-0.00048467280813930386,-0.00018992299870382046,-0.0003074641201091294,-0.0005275212698933927,-0.10880166292190552,18.078760147094727,-1.0688202381134033,-18.047517776489258,-0.5221458077430725,-2.2360262870788574,0.20724813640117645,0
64,0.3150150775909424,0.10880166292190552,-18.078760147094727,1.0688202381134033,18.047517776489258,0.5221458077430725,2.2360262870788574,-0.20724813640117645,0.0,0.0,0.0,0.0,0.0,0.0,0.0,0.13827716161416703,0.5491642599662894,0.3138672097660595,0.44472119835472335,0.10401930639847864,0.0645580877619709,-0.19997663325908127,-0.6092345266559909,-0.057741645665022365,-0.6665705665287218,-2.5944578777447083,-0.0556488622433258,2.507958873801761,0.8763160112616087,-0.6090851748156966,-0.05753196718556838,-0.666603097082616,-2.5945565370258534,-0.05562143941554,2.507976027223799,0.8763108487046415,0.0004391555690598443,-0.0003872047799482965,0.0014892077318039525,0.00048467280813930386,0.00018992299870382046,0.0003074641201091294,0.0005275212698933927,0.0,0.0,0.0,0.0,0.0,0.0,0.0,0.00014935184029429838,0.00020967847945398133,-3.2530553894183356e-05,-9.865928114516365e-05,2.742282778579741e-05,1.7153422037896604e-05,-5.162556967253096e-06,-0.0004391555690598443,0.0003872047799482965,-0.0014892077318039525,-0.00048467280813930386,-0.00018992299870382046,-0.0003074641201091294,-0.0005275212698933927,-0.10880166292190552,18.078760147094727,-1.0688202381134033,-18.047517776489258,-0.5221458077430725,-2.2360262870788574,0.20724813640117645,0
65,0.31999945640563965,0.10880166292190552,-18.078760147094727,1.0688202381134033,18.047517776489258,0.5221458077430725,2.2360262870788574,-0.20724813640117645,0.0,0.0,0.0,0.0,0.0,0.0,0.0,0.13827716161416703,0.5491642599662894,0.3138672097660595,0.44472119835472335,0.10401930639847864,0.0645580877619709,-0.19997663325908127,-0.6092345266559909,-0.057741645665022365,-0.6665705665287218,-2.5944578777447083,-0.0556488622433258,2.507958873801761,0.8763160112616087,-0.6090851748156966,-0.05753196718556838,-0.666603097082616,-2.5945565370258534,-0.05562143941554,2.507976027223799,0.8763108487046415,0.0004391555690598443,-0.0003872047799482965,0.0014892077318039525,0.00048467280813930386,0.00018992299870382046,0.0003074641201091294,0.0005275212698933927,0.0,0.0,0.0,0.0,0.0,0.0,0.0,0.00014935184029429838,0.00020967847945398133,-3.2530553894183356e-05,-9.865928114516365e-05,2.742282778579741e-05,1.7153422037896604e-05,-5.162556967253096e-06,-0.0004391555690598443,0.0003872047799482965,-0.0014892077318039525,-0.00048467280813930386,-0.00018992299870382046,-0.0003074641201091294,-0.0005275212698933927,-0.10880166292190552,18.078760147094727,-1.0688202381134033,-18.047517776489258,-0.5221458077430725,-2.2360262870788574,0.20724813640117645,0
66,0.32500648498535156,0.13260537385940552,-18.154138565063477,1.1441986560821533,18.071321487426758,0.5340476632118225,2.2552523612976074,-0.22098104655742645,0.0,0.0,0.0,0.0,0.0,0.0,0.0,0.13289479215573813,0.5490890914582752,0.3063552912840753,0.44664214011508097,0.1043763168546524,0.06401410178486312,-0.19881582363456196,-0.6092369195972159,-0.057736355951480696,-0.6665758562422636,-2.5944595481805632,-0.055648552224267296,2.507956737732798,0.876320716036958,-0.6090851748156966,-0.05753196718556838,-0.666603097082616,-2.5945565370258534,-0.05562143941554,2.507976027223799,0.8763108487046415,4.5238796136868375e-06,0.000980174827917765,-0.0009512780173428653,-8.331837515770624e-05,-0.00019572716306765707,-0.0004504452033862052,0.0010836277557125463,0.0,0.0,0.0,0.0,0.0,0.0,0.0,0.00015174478151935844,0.00020438876591231253,-2.7240840352438234e-05,-9.698884529019125e-05,2.711280872729621e-05,1.9289491000940018e-05,-9.867332316559896e-06,-4.5238796136868375e-06,-0.000980174827917765,0.0009512780173428653,8.331837515770624e-05,0.00019572716306765707,0.0004504452033862052,-0.0010836277557125463,-0.13260537385940552,18.154138565063477,-1.1441986560821533,-18.071321487426758,-0.5340476632118225,-2.2552523612976074,0.22098104655742645,0
67,0.3300013542175293,0.13260537385940552,-18.154138565063477,1.1441986560821533,18.071321487426758,0.5340476632118225,2.2552523612976074,-0.22098104655742645,0.0,0.0,0.0,0.0,0.0,0.0,0.0,0.13289479215573813,0.5490890914582752,0.3063552912840753,0.44664214011508097,0.1043763168546524,0.06401410178486312,-0.19881582363456196,-0.6092369195972159,-0.057736355951480696,-0.6665758562422636,-2.5944595481805632,-0.055648552224267296,2.507956737732798,0.876320716036958,-0.6090851748156966,-0.05753196718556838,-0.666603097082616,-2.5945565370258534,-0.05562143941554,2.507976027223799,0.8763108487046415,4.5238796136868375e-06,0.000980174827917765,-0.0009512780173428653,-8.331837515770624e-05,-0.00019572716306765707,-0.0004504452033862052,0.0010836277557125463,0.0,0.0,0.0,0.0,0.0,0.0,0.0,0.00015174478151935844,0.00020438876591231253,-2.7240840352438234e-05,-9.698884529019125e-05,2.711280872729621e-05,1.9289491000940018e-05,-9.867332316559896e-06,-4.5238796136868375e-06,-0.000980174827917765,0.0009512780173428653,8.331837515770624e-05,0.00019572716306765707,0.0004504452033862052,-0.0010836277557125463,-0.13260537385940552,18.154138565063477,-1.1441986560821533,-18.071321487426758,-0.5340476632118225,-2.2552523612976074,0.22098104655742645,0
68,0.33504199981689453,0.16037636995315552,-18.154138565063477,1.1164276599884033,18.071321487426758,0.5285544991493225,2.2488436698913574,-0.16604940593242645,0.0,0.0,0.0,0.0,0.0,0.0,0.0,0.17585588763210744,0.574122184626453,0.3482851573504039,0.408285010926236,0.10200966940106203,0.058576589330400025,-0.19993024689193298,-0.6092381370549994,-0.057736355951480696,-0.6665739074004324,-2.5944595481805632,-0.05565074415316711,2.5079574496481163,0.876314612539278,-0.6090851748156966,-0.05753196718556838,-0.666603097082616,-2.5945565370258534,-0.05562143941554,2.507976027223799,0.8763108487046415,-0.00024538287148718655,0.0008025085246248614,-0.0008668286066593564,0.0006195188680244291,-1.593263817158244e-05,5.712407402130747e-05,-0.0016745637835873285,0.0,0.0,0.0,0.0,0.0,0.0,0.0,0.00015296223930283404,0.00020438876591231253,-2.918968218357243e-05,-9.698884529019125e-05,2.9304737627112998e-05,1.8577575682687808e-05,-3.7638346365165276e-06,0.00024538287148718655,-0.0008025085246248614,0.0008668286066593564,-0.0006195188680244291,1.593263817158244e-05,-5.712407402130747e-05,0.0016745637835873285,-0.16037636995315552,18.154138565063477,-1.1164276599884033,-18.071321487426758,-0.5285544991493225,-2.2488436698913574,0.16604940593242645,0
69,0.3400089740753174,0.16037636995315552,-18.154138565063477,1.1164276599884033,18.071321487426758,0.5285544991493225,2.2488436698913574,-0.16604940593242645,0.0,0.0,0.0,0.0,0.0,0.0,0.0,0.17585588763210744,0.574122184626453,0.3482851573504039,0.408285010926236,0.10200966940106203,0.058576589330400025,-0.19993024689193298,-0.6092381370549994,-0.057736355951480696,-0.6665739074004324,-2.5944595481805632,-0.05565074415316711,2.5079574496481163,0.876314612539278,-0.6090851748156966,-0.05753196718556838,-0.666603097082616,-2.5945565370258534,-0.05562143941554,2.507976027223799,0.8763108487046415,-0.00024538287148718655,0.0008025085246248614,-0.0008668286066593564,0.0006195188680244291,-1.593263817158244e-05,5.712407402130747e-05,-0.0016745637835873285,0.0,0.0,0.0,0.0,0.0,0.0,0.0,0.00015296223930283404,0.00020438876591231253,-2.918968218357243e-05,-9.698884529019125e-05,2.9304737627112998e-05,1.8577575682687808e-05,-3.7638346365165276e-06,0.00024538287148718655,-0.0008025085246248614,0.0008668286066593564,-0.0006195188680244291,1.593263817158244e-05,-5.712407402130747e-05,0.0016745637835873285,-0.16037636995315552,18.154138565063477,-1.1164276599884033,-18.071321487426758,-0.5285544991493225,-2.2488436698913574,0.16604940593242645,0
70,0.34499263763427734,0.13260537385940552,-18.154138565063477,1.1164276599884033,18.099092483520508,0.5285544991493225,2.2424349784851074,-0.21457235515117645,0.0,0.0,0.0,0.0,0.0,0.0,0.0,0.1349606182588772,0.545249303878367,0.30491398264578184,0.4476037681944173,0.10545781685704242,0.06430278925795581,-0.1982838234333887,-0.6092394259181892,-0.057736355951480696,-0.6665739102893635,-2.5944614970223947,-0.055646400647050696,2.5079581617249382,0.8763196507653703,-0.6090851748156966,-0.05753196718556838,-0.666603097082616,-2.5945565370258534,-0.05562143941554,2.507976027223799,0.8763108487046415,-7.884307341461368e-05,0.00037364928190517134,0.00043677103935791935,-0.0005945862934259235,0.00010539135596510016,0.00019762544342558615,0.0014465522898038932,0.0,0.0,0.0,0.0,0.0,0.0,0.0,0.00015425110249267515,0.00020438876591231253,-2.9186793252478083e-05,-9.504000345872399e-05,2.4961231510696458e-05,1.7865498860736295e-05,-8.802060728840821e-06,7.884307341461368e-05,-0.00037364928190517134,-0.00043677103935791935,0.0005945862934259235,-0.00010539135596510016,-0.00019762544342558615,-0.0014465522898038932,-0.13260537385940552,18.154138565063477,-1.1164276599884033,-18.099092483520508,-0.5285544991493225,-2.2424349784851074,0.21457235515117645,0
71,0.34999871253967285,0.13260537385940552,-18.154138565063477,1.1164276599884033,18.099092483520508,0.5285544991493225,2.2424349784851074,-0.21457235515117645,0.0,0.0,0.0,0.0,0.0,0.0,0.0,0.1349606182588772,0.545249303878367,0.30491398264578184,0.4476037681944173,0.10545781685704242,0.06430278925795581,-0.1982838234333887,-0.6092394259181892,-0.057736355951480696,-0.6665739102893635,-2.5944614970223947,-0.055646400647050696,2.5079581617249382,0.8763196507653703,-0.6090851748156966,-0.05753196718556838,-0.666603097082616,-2.5945565370258534,-0.05562143941554,2.507976027223799,0.8763108487046415,-7.884307341461368e-05,0.00037364928190517134,0.00043677103935791935,-0.0005945862934259235,0.00010539135596510016,0.00019762544342558615,0.0014465522898038932,0.0,0.0,0.0,0.0,0.0,0.0,0.0,0.00015425110249267515,0.00020438876591231253,-2.9186793252478083e-05,-9.504000345872399e-05,2.4961231510696458e-05,1.7865498860736295e-05,-8.802060728840821e-06,7.884307341461368e-05,-0.00037364928190517134,-0.00043677103935791935,0.0005945862934259235,-0.00010539135596510016,-0.00019762544342558615,-0.0014465522898038932,-0.13260537385940552,18.154138565063477,-1.1164276599884033,-18.099092483520508,-0.5285544991493225,-2.2424349784851074,0.21457235515117645,0
72,0.354999303817749,0.18418008089065552,-18.130334854125977,1.1441986560821533,18.099092483520508,0.5285544991493225,2.2552523612976074,-0.22830526530742645,0.0,0.0,0.0,0.0,0.0,0.0,0.0,0.12729258140223354,0.5381421302126632,0.2994687753625534,0.4518862038845092,0.10631694156360674,0.06456811225037222,-0.19615658850788442,-0.6092400775423376,-0.05773802638733596,-0.6665758562422798,-2.5944614970223947,-0.05565098973048707,2.5079567375712926,0.8763215298549925,-0.6090851748156966,-0.05753196718556838,-0.666603097082616,-2.5945565370258534,-0.05562143941554,2.507976027223799,0.8763108487046415,-0.0013755405211097356,-0.00011704937799539541,4.996418418698787e-05,-0.0007009502553523406,0.00014177221820093778,-0.0003169835042582915,0.0009315452201152012,0.0,0.0,0.0,0.0,0.0,0.0,0.0,0.00015490272664098192,0.00020605920176757636,-2.7240840336228977e-05,-9.504000345872399e-05,2.955031494707161e-05,1.9289652506415678e-05,-1.0681150350966284e-05,0.0013755405211097356,0.00011704937799539541,-4.996418418698787e-05,0.0007009502553523406,-0.00014177221820093778,0.0003169835042582915,-0.0009315452201152012,-0.18418008089065552,18.130334854125977,-1.1441986560821533,-18.099092483520508,-0.5285544991493225,-2.2552523612976074,0.22830526530742645,0
73,0.36010146141052246,0.18418008089065552,-18.130334854125977,1.1441986560821533,18.099092483520508,0.5285544991493225,2.2552523612976074,-0.22830526530742645,0.0,0.0,0.0,0.0,0.0,0.0,0.0,0.12729258140223354,0.5381421302126632,0.2994687753625534,0.4518862038845092,0.10631694156360674,0.06456811225037222,-0.19615658850788442,-0.6092400775423376,-0.05773802638733596,-0.6665758562422798,-2.5944614970223947,-0.05565098973048707,2.5079567375712926,0.8763215298549925,-0.6090851748156966,-0.05753196718556838,-0.666603097082616,-2.5945565370258534,-0.05562143941554,2.507976027223799,0.8763108487046415,-0.0013755405211097356,-0.00011704937799539541,4.996418418698787e-05,-0.0007009502553523406,0.00014177221820093778,-0.0003169835042582915,0.0009315452201152012,0.0,0.0,0.0,0.0,0.0,0.0,0.0,0.00015490272664098192,0.00020605920176757636,-2.7240840336228977e-05,-9.504000345872399e-05,2.955031494707161e-05,1.9289652506415678e-05,-1.0681150350966284e-05,0.0013755405211097356,0.00011704937799539541,-4.996418418698787e-05,0.0007009502553523406,-0.00014177221820093778,0.0003169835042582915,-0.0009315452201152012,-0.18418008089065552,18.130334854125977,-1.1441986560821533,-18.099092483520508,-0.5285544991493225,-2.2552523612976074,0.22830526530742645,0
74,0.36500000953674316,0.13260537385940552,-18.154138565063477,1.0926239490509033,18.071321487426758,0.5285544991493225,2.2552523612976074,-0.20724813640117645,0.0,0.0,0.0,0.0,0.0,0.0,0.0,0.12191457336753675,0.5381721112974635,0.2972783507011326,0.45060793865233506,0.1068737019182837,0.06456738837319632,-0.1975610685050121,-0.6092369435822693,-0.057736355951480696,-0.6665722369645771,-2.5944595481805632,-0.05565004833429346,2.5079567375712926,0.8763191901759968,-0.6090851748156966,-0.05753196718556838,-0.666603097082616,-2.5945565370258534,-0.05562143941554,2.507976027223799,0.8763108487046415,-0.0005573945500167434,0.000764816037245069,0.0009586734319945143,-0.0001479103772448362,5.7593178986240355e-05,-9.802296148321344e-05,0.000875809019362357,0.0,0.0,0.0,0.0,0.0,0.0,0.0,0.0001517687665727463,0.00020438876591231253,-3.086011803887789e-05,-9.698884529019125e-05,2.860891875346161e-05,1.9289652506415678e-05,-8.341471355310937e-06,0.0005573945500167434,-0.000764816037245069,-0.0009586734319945143,0.0001479103772448362,-5.7593178986240355e-05,9.802296148321344e-05,-0.000875809019362357,-0.13260537385940552,18.154138565063477,-1.0926239490509033,-18.071321487426758,-0.5285544991493225,-2.2552523612976074,0.20724813640117645,0
75,0.3700089454650879,0.13260537385940552,-18.154138565063477,1.0926239490509033,18.071321487426758,0.5285544991493225,2.2552523612976074,-0.20724813640117645,0.0,0.0,0.0,0.0,0.0,0.0,0.0,0.12191457336753675,0.5381721112974635,0.2972783507011326,0.45060793865233506,0.1068737019182837,0.06456738837319632,-0.1975610685050121,-0.6092369435822693,-0.057736355951480696,-0.6665722369645771,-2.5944595481805632,-0.05565004833429346,2.5079567375712926,0.8763191901759968,-0.6090851748156966,-0.05753196718556838,-0.666603097082616,-2.5945565370258534,-0.05562143941554,2.507976027223799,0.8763108487046415,-0.0005573945500167434,0.000764816037245069,0.0009586734319945143,-0.0001479103772448362,5.7593178986240355e-05,-9.802296148321344e-05,0.000875809019362357,0.0,0.0,0.0,0.0,0.0,0.0,0.0,0.0001517687665727463,0.00020438876591231253,-3.086011803887789e-05,-9.698884529019125e-05,2.860891875346161e-05,1.9289652506415678e-05,-8.341471355310937e-06,0.0005573945500167434,-0.000764816037245069,-0.0009586734319945143,0.0001479103772448362,-5.7593178986240355e-05,9.802296148321344e-05,-0.000875809019362357,-0.13260537385940552,18.154138565063477,-1.0926239490509033,-18.071321487426758,-0.5285544991493225,-2.2552523612976074,0.20724813640117645,0
76,0.3750033378601074,0.10880166292190552,-18.130334854125977,1.1164276599884033,18.071321487426758,0.5285544991493225,2.2488436698913574,-0.17337362468242645,0.0,0.0,0.0,0.0,0.0,0.0,0.0,0.12530721473701706,0.5379464086507747,0.3035599589589945,0.4531511746830826,0.10663233402390009,0.0652088996163981,-0.19636929674355746,-0.6092353580909963,-0.05773802638733596,-0.6665739074004324,-2.5944595481805632,-0.055647562318586745,2.5079574496481154,0.8763154248878112,-0.6090851748156966,-0.05753196718556838,-0.666603097082616,-2.5945565370258534,-0.05562143941554,2.507976027223799,0.8763108487046415,-1.0487801737349842e-05,0.00036102411205720715,0.00015912271751797582,0.0005251290348896058,-6.2836416704696264e-06,-0.0002677498199786225,-0.0013972628287448187,0.0,0.0,0.0,0.0,0.0,0.0,0.0,0.00015018327529969788,0.00020605920176757636,-2.918968218357243e-05,-9.698884529019125e-05,2.6122903046744972e-05,1.8577575683575986e-05,-4.576183169735515e-06,1.0487801737349842e-05,-0.00036102411205720715,-0.00015912271751797582,-0.0005251290348896058,6.2836416704696264e-06,0.0002677498199786225,0.0013972628287448187,-0.10880166292190552,18.130334854125977,-1.1164276599884033,-18.071321487426758,-0.5285544991493225,-2.2488436698913574,0.17337362468242645,0
77,0.37999820709228516,0.10880166292190552,-18.130334854125977,1.1164276599884033,18.071321487426758,0.5285544991493225,2.2488436698913574,-0.17337362468242645,0.0,0.0,0.0,0.0,0.0,0.0,0.0,0.12530721473701706,0.5379464086507747,0.3035599589589945,0.4531511746830826,0.10663233402390009,0.0652088996163981,-0.19636929674355746,-0.6092353580909963,-0.05773802638733596,-0.6665739074004324,-2.5944595481805632,-0.055647562318586745,2.5079574496481154,0.8763154248878112,-0.6090851748156966,-0.05753196718556838,-0.666603097082616,-2.5945565370258534,-0.05562143941554,2.507976027223799,0.8763108487046415,-1.0487801737349842e-05,0.00036102411205720715,0.00015912271751797582,0.0005251290348896058,-6.2836416704696264e-06,-0.0002677498199786225,-0.0013972628287448187,0.0,0.0,0.0,0.0,0.0,0.0,0.0,0.00015018327529969788,0.00020605920176757636,-2.918968218357243e-05,-9.698884529019125e-05,2.6122903046744972e-05,1.8577575683575986e-05,-4.576183169735515e-06,1.0487801737349842e-05,-0.00036102411205720715,-0.00015912271751797582,-0.0005251290348896058,6.2836416704696264e-06,0.0002677498199786225,0.0013972628287448187,-0.10880166292190552,18.130334854125977,-1.1164276599884033,-18.071321487426758,-0.5285544991493225,-2.2488436698913574,0.17337362468242645,0
78,0.385026216506958,0.08103066682815552,-18.106531143188477,1.1441986560821533,18.099092483520508,0.5285544991493225,2.2424349784851074,-0.22830526530742645,0.0,0.0,0.0,0.0,0.0,0.0,0.0,0.11992748242090784,0.5431410282032366,0.29917248550904274,0.44905839711004103,0.10620850296454006,0.06400621268480054,-0.19702974469134898,-0.6092332973262757,-0.057739696823191224,-0.6665758562422636,-2.5944614970223947,-0.05565004831494562,2.5079581617249382,0.8763215298569782,-0.6090851748156966,-0.05753196718556838,-0.666603097082616,-2.5945565370258534,-0.05562143941554,2.507976027223799,0.8763108487046415,0.0006907380237879813,-0.00010332430901176331,-0.001007629042563502,-0.0002976362614300962,-1.3937145905045647e-05,0.0002847870202280006,0.0015256810130464353,0.0,0.0,0.0,0.0,0.0,0.0,0.0,0.00014812251057916281,0.0002077296376228402,-2.7240840352438234e-05,-9.504000345872399e-05,2.8608899405618837e-05,1.7865498860736295e-05,-1.0681152336711186e-05,-0.0006907380237879813,0.00010332430901176331,0.001007629042563502,0.0002976362614300962,1.3937145905045647e-05,-0.0002847870202280006,-0.0015256810130464353,-0.08103066682815552,18.106531143188477,-1.1441986560821533,-18.099092483520508,-0.5285544991493225,-2.2424349784851074,0.22830526530742645,0
79,0.3900022506713867,0.08103066682815552,-18.106531143188477,1.1441986560821533,18.099092483520508,0.5285544991493225,2.2424349784851074,-0.22830526530742645,0.0,0.0,0.0,0.0,0.0,0.0,0.0,0.11992748242090784,0.5431410282032366,0.29917248550904274,0.44905839711004103,0.10620850296454006,0.06400621268480054,-0.19702974469134898,-0.6092332973262757,-0.057739696823191224,-0.6665758562422636,-2.5944614970223947,-0.05565004831494562,2.5079581617249382,0.8763215298569782,-0.6090851748156966,-0.05753196718556838,-0.666603097082616,-2.5945565370258534,-0.05562143941554,2.507976027223799,0.8763108487046415,0.0006907380237879813,-0.00010332430901176331,-0.001007629042563502,-0.0002976362614300962,-1.3937145905045647e-05,0.0002847870202280006,0.0015256810130464353,0.0,0.0,0.0,0.0,0.0,0.0,0.0,0.00014812251057916281,0.0002077296376228402,-2.7240840352438234e-05,-9.504000345872399e-05,2.8608899405618837e-05,1.7865498860736295e-05,-1.0681152336711186e-05,-0.0006907380237879813,0.00010332430901176331,0.001007629042563502,0.0002976362614300962,1.3937145905045647e-05,-0.0002847870202280006,-0.0015256810130464353,-0.08103066682815552,18.106531143188477,-1.1441986560821533,-18.099092483520508,-0.5285544991493225,-2.2424349784851074,0.22830526530742645,0
