rezayati/contactInterpretation/dataset/franka_main/labeled_data/link5/c2_7.csv
index,time,tau_J0,tau_J1,tau_J2,tau_J3,tau_J4,tau_J5,tau_J6,tau_J_d0,tau_J_d1,tau_J_d2,tau_J_d3,tau_J_d4,tau_J_d5,tau_J_d6,tau_ext0,tau_ext1,tau_ext2,tau_ext3,tau_ext4,tau_ext5,tau_ext6,q0,q1,q2,q3,q4,q5,q6,q_d0,q_d1,q_d2,q_d3,q_d4,q_d5,q_d6,dq0,dq1,dq2,dq3,dq4,dq5,dq6,dq_d0,dq_d1,dq_d2,dq_d3,dq_d4,dq_d5,dq_d6,e0,e1,e2,e3,e4,e5,e6,de0,de1,de2,de3,de4,de5,de6,etau_J0,etau_J1,etau_J2,etau_J3,etau_J4,etau_J5,etau_J6,label
1,0.0,-0.19667929410934448,-11.699365615844727,1.1918060779571533,21.840242385864258,0.3555198311805725,2.5271639823913574,-0.22830526530742645,0.0,0.0,0.0,0.0,0.0,0.0,0.0,-0.16007206325229623,0.6757777212564722,-0.003591299809501476,0.5619304247777275,-0.1738890089121149,0.12729175474038365,-0.2303887183581456,0.17284871995867343,-0.48754817124727584,-0.1114218942781929,-1.946256135488811,0.13360414358654596,2.5955455914073515,0.9452499504006571,0.1728802376190821,-0.48752024683155326,-0.11147110072896137,-1.9463801863486305,0.1336059019074957,2.595550359778934,0.9452445589611904,0.00045490960746854344,0.001474289883674519,-0.00010078147982898664,0.00028714996117094345,0.00017274464251104874,-0.00010847983048397757,0.0007684870238256666,0.0,0.0,0.0,0.0,0.0,0.0,0.0,3.151766040868087e-05,2.7924415722579976e-05,-4.920645076846031e-05,-0.00012405085981948005,1.7583209497296082e-06,4.768371582475339e-06,-5.3914394666509935e-06,-0.00045490960746854344,-0.001474289883674519,0.00010078147982898664,-0.00028714996117094345,-0.00017274464251104874,0.00010847983048397757,-0.0007684870238256666,0.19667929410934448,11.699365615844727,-1.1918060779571533,-21.840242385864258,-0.3555198311805725,-2.5271639823913574,0.22830526530742645,0
2,0.0,-0.19667929410934448,-11.699365615844727,1.1918060779571533,21.840242385864258,0.3555198311805725,2.5271639823913574,-0.22830526530742645,0.0,0.0,0.0,0.0,0.0,0.0,0.0,-0.16007206325229623,0.6757777212564722,-0.003591299809501476,0.5619304247777275,-0.1738890089121149,0.12729175474038365,-0.2303887183581456,0.17284871995867343,-0.48754817124727584,-0.1114218942781929,-1.946256135488811,0.13360414358654596,2.5955455914073515,0.9452499504006571,0.1728802376190821,-0.48752024683155326,-0.11147110072896137,-1.9463801863486305,0.1336059019074957,2.595550359778934,0.9452445589611904,0.00045490960746854344,0.001474289883674519,-0.00010078147982898664,0.00028714996117094345,0.00017274464251104874,-0.00010847983048397757,0.0007684870238256666,0.0,0.0,0.0,0.0,0.0,0.0,0.0,3.151766040868087e-05,2.7924415722579976e-05,-4.920645076846031e-05,-0.00012405085981948005,1.7583209497296082e-06,4.768371582475339e-06,-5.3914394666509935e-06,-0.00045490960746854344,-0.001474289883674519,0.00010078147982898664,-0.00028714996117094345,-0.00017274464251104874,0.00010847983048397757,-0.0007684870238256666,0.19667929410934448,11.699365615844727,-1.1918060779571533,-21.840242385864258,-0.3555198311805725,-2.5271639823913574,0.22830526530742645,0
3,0.01016855239868164,-0.14510458707809448,-11.600183486938477,1.1680023670196533,21.868013381958008,0.3500266671180725,2.5271639823913574,-0.21457235515117645,0.0,0.0,0.0,0.0,0.0,0.0,0.0,-0.16165218839478512,0.6729307894130242,-0.0013037693453958198,0.5636948290408665,-0.17406987670126264,0.12958328136746272,-0.22843668127095057,0.17284510068098705,-0.4875571819113192,-0.11142046854424088,-1.9462580843306425,0.1336058149755669,2.5955455914073515,0.9452484245217508,0.1728802376190821,-0.48752024683155326,-0.11147110072896137,-1.9463801863486305,0.1336059019074957,2.595550359778934,0.9452445589611904,-0.00041883027812217907,-0.0007080116381608158,0.0003310134713128955,-0.0008693150692890852,0.0004859160669293377,-0.0005772507767088459,0.00021478891169261075,0.0,0.0,0.0,0.0,0.0,0.0,0.0,3.513693809506502e-05,3.69350797659318e-05,-5.063218472048381e-05,-0.0001221020179880128,8.693192879438705e-08,4.768371582475339e-06,-3.865560560423198e-06,0.00041883027812217907,0.0007080116381608158,-0.0003310134713128955,0.0008693150692890852,-0.0004859160669293377,0.0005772507767088459,-0.00021478891169261075,0.14510458707809448,11.600183486938477,-1.1680023670196533,-21.868013381958008,-0.3500266671180725,-2.5271639823913574,0.21457235515117645,0
4,0.014995098114013672,-0.14510458707809448,-11.600183486938477,1.1680023670196533,21.868013381958008,0.3500266671180725,2.5271639823913574,-0.21457235515117645,0.0,0.0,0.0,0.0,0.0,0.0,0.0,-0.16165218839478512,0.6729307894130242,-0.0013037693453958198,0.5636948290408665,-0.17406987670126264,0.12958328136746272,-0.22843668127095057,0.17284510068098705,-0.4875571819113192,-0.11142046854424088,-1.9462580843306425,0.1336058149755669,2.5955455914073515,0.9452484245217508,0.1728802376190821,-0.48752024683155326,-0.11147110072896137,-1.9463801863486305,0.1336059019074957,2.595550359778934,0.9452445589611904,-0.00041883027812217907,-0.0007080116381608158,0.0003310134713128955,-0.0008693150692890852,0.0004859160669293377,-0.0005772507767088459,0.00021478891169261075,0.0,0.0,0.0,0.0,0.0,0.0,0.0,3.513693809506502e-05,3.69350797659318e-05,-5.063218472048381e-05,-0.0001221020179880128,8.693192879438705e-08,4.768371582475339e-06,-3.865560560423198e-06,0.00041883027812217907,0.0007080116381608158,-0.0003310134713128955,0.0008693150692890852,-0.0004859160669293377,0.0005772507767088459,-0.00021478891169261075,0.14510458707809448,11.600183486938477,-1.1680023670196533,-21.868013381958008,-0.3500266671180725,-2.5271639823913574,0.21457235515117645,0
5,0.019997596740722656,-0.17287558317184448,-11.675561904907227,1.2156097888946533,21.816438674926758,0.3674216866493225,2.5271639823913574,-0.24112264811992645,0.0,0.0,0.0,0.0,0.0,0.0,0.0,-0.15764219705544963,0.6737745941299567,0.00448222665748873,0.5599552100042309,-0.17405299680161015,0.12830062993967445,-0.22741834956948775,0.17284704952281818,-0.4875493197019957,-0.11142431206484958,-1.946254465052956,0.1336058182427176,2.595545591245846,0.945251374554303,0.1728802376190821,-0.48752024683155326,-0.11147110072896137,-1.9463801863486305,0.1336059019074957,2.595550359778934,0.9452445589611904,0.00037702766408150354,0.0007198472253574574,-9.243110874741034e-05,0.0009324929976623985,-0.0002698634640982699,7.909550971438658e-05,0.0013807200559995633,0.0,0.0,0.0,0.0,0.0,0.0,0.0,3.318809626393082e-05,2.907287044245921e-05,-4.6788664111785394e-05,-0.00012572129567445245,8.366477807775219e-08,4.768533087950999e-06,-6.8155931125524205e-06,-0.00037702766408150354,-0.0007198472253574574,9.243110874741034e-05,-0.0009324929976623985,0.0002698634640982699,-7.909550971438658e-05,-0.0013807200559995633,0.17287558317184448,11.675561904907227,-1.2156097888946533,-21.816438674926758,-0.3674216866493225,-2.5271639823913574,0.24112264811992645,0
6,0.0249936580657959,-0.17287558317184448,-11.675561904907227,1.2156097888946533,21.816438674926758,0.3674216866493225,2.5271639823913574,-0.24112264811992645,0.0,0.0,0.0,0.0,0.0,0.0,0.0,-0.15764219705544963,0.6737745941299567,0.00448222665748873,0.5599552100042309,-0.17405299680161015,0.12830062993967445,-0.22741834956948775,0.17284704952281818,-0.4875493197019957,-0.11142431206484958,-1.946254465052956,0.1336058182427176,2.595545591245846,0.945251374554303,0.1728802376190821,-0.48752024683155326,-0.11147110072896137,-1.9463801863486305,0.1336059019074957,2.595550359778934,0.9452445589611904,0.00037702766408150354,0.0007198472253574574,-9.243110874741034e-05,0.0009324929976623985,-0.0002698634640982699,7.909550971438658e-05,0.0013807200559995633,0.0,0.0,0.0,0.0,0.0,0.0,0.0,3.318809626393082e-05,2.907287044245921e-05,-4.6788664111785394e-05,-0.00012572129567445245,8.366477807775219e-08,4.768533087950999e-06,-6.8155931125524205e-06,-0.00037702766408150354,-0.0007198472253574574,9.243110874741034e-05,-0.0009324929976623985,0.0002698634640982699,-7.909550971438658e-05,-0.0013807200559995633,0.17287558317184448,11.675561904907227,-1.2156097888946533,-21.816438674926758,-0.3674216866493225,-2.5271639823913574,0.24112264811992645,0
7,0.029994964599609375,-0.17287558317184448,-11.651758193969727,1.2156097888946533,21.868013381958008,0.3619285225868225,2.5271639823913574,-0.21457235515117645,0.0,0.0,0.0,0.0,0.0,0.0,0.0,-0.16241264198586733,0.6676231348807933,-0.0016828219243020682,0.5611710692028986,-0.17377149167155886,0.12896980145038753,-0.22774853077296744,0.17284704952281818,-0.48755080449554156,-0.1114242772803939,-1.9462580843306425,0.13360320333266237,2.5955455914073506,0.9452484245217508,0.1728802376190821,-0.48752024683155326,-0.11147110072896137,-1.9463801863486305,0.1336059019074957,2.595550359778934,0.9452445589611904,0.0005034282574007416,-0.0004596246744223844,-0.0003376932902607807,-0.000555814653130209,-0.00019759673685698607,-0.00013732944350300098,0.0003289744919337674,0.0,0.0,0.0,0.0,0.0,0.0,0.0,3.318809626393082e-05,3.05576639882954e-05,-4.6823448567462345e-05,-0.0001221020179880128,2.6985748333152593e-06,4.768371583363518e-06,-3.865560560423198e-06,-0.0005034282574007416,0.0004596246744223844,0.0003376932902607807,0.000555814653130209,0.00019759673685698607,0.00013732944350300098,-0.0003289744919337674,0.17287558317184448,11.651758193969727,-1.2156097888946533,-21.868013381958008,-0.3619285225868225,-2.5271639823913574,0.21457235515117645,0
8,0.03499555587768555,-0.17287558317184448,-11.651758193969727,1.2156097888946533,21.868013381958008,0.3619285225868225,2.5271639823913574,-0.21457235515117645,0.0,0.0,0.0,0.0,0.0,0.0,0.0,-0.16241264198586733,0.6676231348807933,-0.0016828219243020682,0.5611710692028986,-0.17377149167155886,0.12896980145038753,-0.22774853077296744,0.17284704952281818,-0.48755080449554156,-0.1114242772803939,-1.9462580843306425,0.13360320333266237,2.5955455914073506,0.9452484245217508,0.1728802376190821,-0.48752024683155326,-0.11147110072896137,-1.9463801863486305,0.1336059019074957,2.595550359778934,0.9452445589611904,0.0005034282574007416,-0.0004596246744223844,-0.0003376932902607807,-0.000555814653130209,-0.00019759673685698607,-0.00013732944350300098,0.0003289744919337674,0.0,0.0,0.0,0.0,0.0,0.0,0.0,3.318809626393082e-05,3.05576639882954e-05,-4.6823448567462345e-05,-0.0001221020179880128,2.6985748333152593e-06,4.768371583363518e-06,-3.865560560423198e-06,-0.0005034282574007416,0.0004596246744223844,0.0003376932902607807,0.000555814653130209,0.00019759673685698607,0.00013732944350300098,-0.0003289744919337674,0.17287558317184448,11.651758193969727,-1.2156097888946533,-21.868013381958008,-0.3619285225868225,-2.5271639823913574,0.21457235515117645,0
9,0.04001450538635254,-0.14510458707809448,-11.651758193969727,1.1918060779571533,21.868013381958008,0.3619285225868225,2.5271639823913574,-0.20083944499492645,0.0,0.0,0.0,0.0,0.0,0.0,0.0,-0.1575485025232464,0.6723732951962382,0.0010383673827394349,0.5588023766188933,-0.17425661106400586,0.12796548416652945,-0.2268489197051058,0.17284510068098705,-0.4875508414328392,-0.11142213151423304,-1.9462580843306425,0.13360342558079413,2.5955455914073515,0.9452468986428446,0.1728802376190821,-0.48752024683155326,-0.11147110072896137,-1.9463801863486305,0.1336059019074957,2.595550359778934,0.9452445589611904,-0.00041689419439536646,-0.0002478351374549397,0.00011093031203994793,-0.00027991419284440616,0.00012202922676476682,-0.00012933405166327974,-0.0008298959081795471,0.0,0.0,0.0,0.0,0.0,0.0,0.0,3.513693809506502e-05,3.0594601285960366e-05,-4.896921472832827e-05,-0.0001221020179880128,2.476326701555953e-06,4.768371582475339e-06,-2.3396816541954024e-06,0.00041689419439536646,0.0002478351374549397,-0.00011093031203994793,0.00027991419284440616,-0.00012202922676476682,0.00012933405166327974,0.0008298959081795471,0.14510458707809448,11.651758193969727,-1.1918060779571533,-21.868013381958008,-0.3619285225868225,-2.5271639823913574,0.20083944499492645,0
10,0.045003652572631836,-0.14510458707809448,-11.651758193969727,1.1918060779571533,21.868013381958008,0.3619285225868225,2.5271639823913574,-0.20083944499492645,0.0,0.0,0.0,0.0,0.0,0.0,0.0,-0.1575485025232464,0.6723732951962382,0.0010383673827394349,0.5588023766188933,-0.17425661106400586,0.12796548416652945,-0.2268489197051058,0.17284510068098705,-0.4875508414328392,-0.11142213151423304,-1.9462580843306425,0.13360342558079413,2.5955455914073515,0.9452468986428446,0.1728802376190821,-0.48752024683155326,-0.11147110072896137,-1.9463801863486305,0.1336059019074957,2.595550359778934,0.9452445589611904,-0.00041689419439536646,-0.0002478351374549397,0.00011093031203994793,-0.00027991419284440616,0.00012202922676476682,-0.00012933405166327974,-0.0008298959081795471,0.0,0.0,0.0,0.0,0.0,0.0,0.0,3.513693809506502e-05,3.0594601285960366e-05,-4.896921472832827e-05,-0.0001221020179880128,2.476326701555953e-06,4.768371582475339e-06,-2.3396816541954024e-06,0.00041689419439536646,0.0002478351374549397,-0.00011093031203994793,0.00027991419284440616,-0.00012202922676476682,0.00012933405166327974,0.0008298959081795471,0.14510458707809448,11.651758193969727,-1.1918060779571533,-21.868013381958008,-0.3619285225868225,-2.5271639823913574,0.20083944499492645,0
11,0.05009174346923828,-0.19667929410934448,-11.675561904907227,1.1918060779571533,21.868013381958008,0.3619285225868225,2.5335726737976074,-0.18710653483867645,0.0,0.0,0.0,0.0,0.0,0.0,0.0,-0.1575677000927671,0.6700448406826421,-0.0015889043284411926,0.5578256702656565,-0.1735901221659581,0.1279116257764498,-0.22672964003623816,0.17284871995867343,-0.48754929066879177,-0.11142189731078993,-1.9462580843306425,0.13360785005272727,2.5955448793305287,0.9452453727639384,0.1728802376190821,-0.48752024683155326,-0.11147110072896137,-1.9463801863486305,0.1336059019074957,2.595550359778934,0.9452445589611904,0.0010613745667651662,0.00013471978859752219,-0.00010866735983849913,-0.0004886780973307166,-0.00011036141739271345,-4.2018983057434274e-05,-0.001517287680128594,0.0,0.0,0.0,0.0,0.0,0.0,0.0,3.151766040868087e-05,2.904383723850712e-05,-4.9203418171439584e-05,-0.0001221020179880128,-1.94814523157838e-06,5.48044840531503e-06,-8.138027479676069e-07,-0.0010613745667651662,-0.00013471978859752219,0.00010866735983849913,0.0004886780973307166,0.00011036141739271345,4.2018983057434274e-05,0.001517287680128594,0.19667929410934448,11.675561904907227,-1.1918060779571533,-21.868013381958008,-0.3619285225868225,-2.5335726737976074,0.18710653483867645,0
12,0.05499911308288574,-0.19667929410934448,-11.675561904907227,1.1918060779571533,21.868013381958008,0.3619285225868225,2.5335726737976074,-0.18710653483867645,0.0,0.0,0.0,0.0,0.0,0.0,0.0,-0.1575677000927671,0.6700448406826421,-0.0015889043284411926,0.5578256702656565,-0.1735901221659581,0.1279116257764498,-0.22672964003623816,0.17284871995867343,-0.48754929066879177,-0.11142189731078993,-1.9462580843306425,0.13360785005272727,2.5955448793305287,0.9452453727639384,0.1728802376190821,-0.48752024683155326,-0.11147110072896137,-1.9463801863486305,0.1336059019074957,2.595550359778934,0.9452445589611904,0.0010613745667651662,0.00013471978859752219,-0.00010866735983849913,-0.0004886780973307166,-0.00011036141739271345,-4.2018983057434274e-05,-0.001517287680128594,0.0,0.0,0.0,0.0,0.0,0.0,0.0,3.151766040868087e-05,2.904383723850712e-05,-4.9203418171439584e-05,-0.0001221020179880128,-1.94814523157838e-06,5.48044840531503e-06,-8.138027479676069e-07,-0.0010613745667651662,-0.00013471978859752219,0.00010866735983849913,0.0004886780973307166,0.00011036141739271345,4.2018983057434274e-05,0.001517287680128594,0.19667929410934448,11.675561904907227,-1.1918060779571533,-21.868013381958008,-0.3619285225868225,-2.5335726737976074,0.18710653483867645,0
13,0.06052708625793457,-0.19667929410934448,-11.675561904907227,1.2156097888946533,21.840242385864258,0.3674216866493225,2.5399813652038574,-0.20083944499492645,0.0,0.0,0.0,0.0,0.0,0.0,0.0,-0.15519885401864839,0.6706624956740421,0.0024397441199285217,0.5581606187904933,-0.1734117188027211,0.1285503635722516,-0.22766263903765646,0.17284871995867343,-0.48754929088548105,-0.11142428283349837,-1.9462561354888113,0.13360690256170266,2.595544167253706,0.9452468986428446,0.1728802376190821,-0.48752024683155326,-0.11147110072896137,-1.9463801863486305,0.1336059019074957,2.595550359778934,0.9452445589611904,0.0006385539675402049,0.0005550502098450965,-0.00021257497033196505,0.00041589858675720467,-0.00024889366614489817,-0.0004610584103435166,-0.001046933139064465,0.0,0.0,0.0,0.0,0.0,0.0,0.0,3.151766040868087e-05,2.9044053927784752e-05,-4.681789546299997e-05,-0.000124050859819258,-1.0006542069673774e-06,6.192525228154722e-06,-2.3396816541954024e-06,-0.0006385539675402049,-0.0005550502098450965,0.00021257497033196505,-0.00041589858675720467,0.00024889366614489817,0.0004610584103435166,0.001046933139064465,0.19667929410934448,11.675561904907227,-1.2156097888946533,-21.840242385864258,-0.3674216866493225,-2.5399813652038574,0.20083944499492645,0
14,0.06499505043029785,-0.19667929410934448,-11.675561904907227,1.2156097888946533,21.840242385864258,0.3674216866493225,2.5399813652038574,-0.20083944499492645,0.0,0.0,0.0,0.0,0.0,0.0,0.0,-0.15519885401864839,0.6706624956740421,0.0024397441199285217,0.5581606187904933,-0.1734117188027211,0.1285503635722516,-0.22766263903765646,0.17284871995867343,-0.48754929088548105,-0.11142428283349837,-1.9462561354888113,0.13360690256170266,2.595544167253706,0.9452468986428446,0.1728802376190821,-0.48752024683155326,-0.11147110072896137,-1.9463801863486305,0.1336059019074957,2.595550359778934,0.9452445589611904,0.0006385539675402049,0.0005550502098450965,-0.00021257497033196505,0.00041589858675720467,-0.00024889366614489817,-0.0004610584103435166,-0.001046933139064465,0.0,0.0,0.0,0.0,0.0,0.0,0.0,3.151766040868087e-05,2.9044053927784752e-05,-4.681789546299997e-05,-0.000124050859819258,-1.0006542069673774e-06,6.192525228154722e-06,-2.3396816541954024e-06,-0.0006385539675402049,-0.0005550502098450965,0.00021257497033196505,-0.00041589858675720467,0.00024889366614489817,0.0004610584103435166,0.001046933139064465,0.19667929410934448,11.675561904907227,-1.2156097888946533,-21.840242385864258,-0.3674216866493225,-2.5399813652038574,0.20083944499492645,0
15,0.06999492645263672,-0.14510458707809448,-11.627954483032227,1.1918060779571533,21.891817092895508,0.3619285225868225,2.5335726737976074,-0.22830526530742645,0.0,0.0,0.0,0.0,0.0,0.0,0.0,-0.1582910162841579,0.6805893571121979,0.0010162947402452076,0.552986782955703,-0.1731338163095789,0.12765772311441292,-0.22784099537904498,0.17284510068098705,-0.48755242143183686,-0.11142284144208393,-1.9462597547664977,0.13360450697988382,2.5955448793305287,0.9452499504006571,0.1728802376190821,-0.48752024683155326,-0.11147110072896137,-1.9463801863486305,0.1336059019074957,2.595550359778934,0.9452445589611904,-0.00024317785682287965,-0.00014819174726713957,0.0001429980543850367,-0.0013381214315768908,-0.00010727295069198745,-0.00021763047304680473,0.00014749203885085728,0.0,0.0,0.0,0.0,0.0,0.0,0.0,3.513693809506502e-05,3.217460028359653e-05,-4.8259286877433416e-05,-0.00012043158213281835,1.3949276118641052e-06,5.48044840531503e-06,-5.3914394666509935e-06,0.00024317785682287965,0.00014819174726713957,-0.0001429980543850367,0.0013381214315768908,0.00010727295069198745,0.00021763047304680473,-0.00014749203885085728,0.14510458707809448,11.627954483032227,-1.1918060779571533,-21.891817092895508,-0.3619285225868225,-2.5335726737976074,0.22830526530742645,0
16,0.07499241828918457,-0.14510458707809448,-11.627954483032227,1.1918060779571533,21.891817092895508,0.3619285225868225,2.5335726737976074,-0.22830526530742645,0.0,0.0,0.0,0.0,0.0,0.0,0.0,-0.1582910162841579,0.6805893571121979,0.0010162947402452076,0.552986782955703,-0.1731338163095789,0.12765772311441292,-0.22784099537904498,0.17284510068098705,-0.48755242143183686,-0.11142284144208393,-1.9462597547664977,0.13360450697988382,2.5955448793305287,0.9452499504006571,0.1728802376190821,-0.48752024683155326,-0.11147110072896137,-1.9463801863486305,0.1336059019074957,2.595550359778934,0.9452445589611904,-0.00024317785682287965,-0.00014819174726713957,0.0001429980543850367,-0.0013381214315768908,-0.00010727295069198745,-0.00021763047304680473,0.00014749203885085728,0.0,0.0,0.0,0.0,0.0,0.0,0.0,3.513693809506502e-05,3.217460028359653e-05,-4.8259286877433416e-05,-0.00012043158213281835,1.3949276118641052e-06,5.48044840531503e-06,-5.3914394666509935e-06,0.00024317785682287965,0.00014819174726713957,-0.0001429980543850367,0.0013381214315768908,0.00010727295069198745,0.00021763047304680473,-0.00014749203885085728,0.14510458707809448,11.627954483032227,-1.1918060779571533,-21.891817092895508,-0.3619285225868225,-2.5335726737976074,0.22830526530742645,0
17,0.07999348640441895,-0.12130087614059448,-11.651758193969727,1.1680023670196533,21.840242385864258,0.3619285225868225,2.5207552909851074,-0.23471395671367645,0.0,0.0,0.0,0.0,0.0,0.0,0.0,-0.1593756673335739,0.6818028582538193,0.000617411870121065,0.5532765867301849,-0.17318810754067906,0.12817245366617458,-0.22762191973968796,0.17284343024513177,-0.48755072478513,-0.11142236543139693,-1.9462561354888113,0.13360465636836527,2.5955463034841744,0.94525066247748,0.1728802376190821,-0.48752024683155326,-0.11147110072896137,-1.9463801863486305,0.1336059019074957,2.595550359778934,0.9452445589611904,-0.0012085206254140008,0.0008704878036438116,0.0008245418514610763,-0.00016504330430689587,3.764519145883255e-05,0.00038336660299873255,0.0009295224309880847,0.0,0.0,0.0,0.0,0.0,0.0,0.0,3.6807373950342726e-05,3.047795357674632e-05,-4.8735297564439506e-05,-0.000124050859819258,1.2455391304178054e-06,4.056294759635648e-06,-6.103516289601707e-06,0.0012085206254140008,-0.0008704878036438116,-0.0008245418514610763,0.00016504330430689587,-3.764519145883255e-05,-0.00038336660299873255,-0.0009295224309880847,0.12130087614059448,11.651758193969727,-1.1680023670196533,-21.840242385864258,-0.3619285225868225,-2.5207552909851074,0.23471395671367645,0
18,0.08499550819396973,-0.12130087614059448,-11.651758193969727,1.1680023670196533,21.840242385864258,0.3619285225868225,2.5207552909851074,-0.23471395671367645,0.0,0.0,0.0,0.0,0.0,0.0,0.0,-0.1593756673335739,0.6818028582538193,0.000617411870121065,0.5532765867301849,-0.17318810754067906,0.12817245366617458,-0.22762191973968796,0.17284343024513177,-0.48755072478513,-0.11142236543139693,-1.9462561354888113,0.13360465636836527,2.5955463034841744,0.94525066247748,0.1728802376190821,-0.48752024683155326,-0.11147110072896137,-1.9463801863486305,0.1336059019074957,2.595550359778934,0.9452445589611904,-0.0012085206254140008,0.0008704878036438116,0.0008245418514610763,-0.00016504330430689587,3.764519145883255e-05,0.00038336660299873255,0.0009295224309880847,0.0,0.0,0.0,0.0,0.0,0.0,0.0,3.6807373950342726e-05,3.047795357674632e-05,-4.8735297564439506e-05,-0.000124050859819258,1.2455391304178054e-06,4.056294759635648e-06,-6.103516289601707e-06,0.0012085206254140008,-0.0008704878036438116,-0.0008245418514610763,0.00016504330430689587,-3.764519145883255e-05,-0.00038336660299873255,-0.0009295224309880847,0.12130087614059448,11.651758193969727,-1.1680023670196533,-21.840242385864258,-0.3619285225868225,-2.5207552909851074,0.23471395671367645,0
19,0.0902702808380127,-0.12130087614059448,-11.651758193969727,1.1680023670196533,21.840242385864258,0.3619285225868225,2.5207552909851074,-0.23471395671367645,0.0,0.0,0.0,0.0,0.0,0.0,0.0,-0.1593756673335739,0.6818028582538193,0.000617411870121065,0.5532765867301849,-0.17318810754067906,0.12817245366617458,-0.22762191973968796,0.17284343024513177,-0.48755072478513,-0.11142236543139693,-1.9462561354888113,0.13360465636836527,2.5955463034841744,0.94525066247748,0.1728802376190821,-0.48752024683155326,-0.11147110072896137,-1.9463801863486305,0.1336059019074957,2.595550359778934,0.9452445589611904,-0.0012085206254140008,0.0008704878036438116,0.0008245418514610763,-0.00016504330430689587,3.764519145883255e-05,0.00038336660299873255,0.0009295224309880847,0.0,0.0,0.0,0.0,0.0,0.0,0.0,3.6807373950342726e-05,3.047795357674632e-05,-4.8735297564439506e-05,-0.000124050859819258,1.2455391304178054e-06,4.056294759635648e-06,-6.103516289601707e-06,0.0012085206254140008,-0.0008704878036438116,-0.0008245418514610763,0.00016504330430689587,-3.764519145883255e-05,-0.00038336660299873255,-0.0009295224309880847,0.12130087614059448,11.651758193969727,-1.1680023670196533,-21.840242385864258,-0.3619285225868225,-2.5207552909851074,0.23471395671367645,0
20,0.09499406814575195,-0.12130087614059448,-11.651758193969727,1.1680023670196533,21.840242385864258,0.3619285225868225,2.5207552909851074,-0.23471395671367645,0.0,0.0,0.0,0.0,0.0,0.0,0.0,-0.1593756673335739,0.6818028582538193,0.000617411870121065,0.5532765867301849,-0.17318810754067906,0.12817245366617458,-0.22762191973968796,0.17284343024513177,-0.48755072478513,-0.11142236543139693,-1.9462561354888113,0.13360465636836527,2.5955463034841744,0.94525066247748,0.1728802376190821,-0.48752024683155326,-0.11147110072896137,-1.9463801863486305,0.1336059019074957,2.595550359778934,0.9452445589611904,-0.0012085206254140008,0.0008704878036438116,0.0008245418514610763,-0.00016504330430689587,3.764519145883255e-05,0.00038336660299873255,0.0009295224309880847,0.0,0.0,0.0,0.0,0.0,0.0,0.0,3.6807373950342726e-05,3.047795357674632e-05,-4.8735297564439506e-05,-0.000124050859819258,1.2455391304178054e-06,4.056294759635648e-06,-6.103516289601707e-06,0.0012085206254140008,-0.0008704878036438116,-0.0008245418514610763,0.00016504330430689587,-3.764519145883255e-05,-0.00038336660299873255,-0.0009295224309880847,0.12130087614059448,11.651758193969727,-1.1680023670196533,-21.840242385864258,-0.3619285225868225,-2.5207552909851074,0.23471395671367645,0
21,0.09999418258666992,-0.12130087614059448,-11.699365615844727,1.1918060779571533,21.840242385864258,0.3674216866493225,2.5271639823913574,-0.22830526530742645,0.0,0.0,0.0,0.0,0.0,0.0,0.0,-0.15596592345164206,0.6626630391537224,0.007247481664103388,0.5659601332597777,-0.17338756269298744,0.13008062415320967,-0.22742908935020853,0.17284343024513177,-0.48754746304629654,-0.11142189623894795,-1.9462561354888113,0.13360567685559865,2.5955455914073515,0.9452499504006571,0.1728802376190821,-0.48752024683155326,-0.11147110072896137,-1.9463801863486305,0.1336059019074957,2.595550359778934,0.9452445589611904,-0.0009061290847320578,0.0009288551532187129,0.00019912527458954053,0.0003673275285008669,-0.00029734145533662616,-0.00011915339869324968,0.0005748919649744798,0.0,0.0,0.0,0.0,0.0,0.0,0.0,3.6807373950342726e-05,2.721621474327529e-05,-4.920449001341587e-05,-0.000124050859819258,2.2505189703481143e-07,4.768371582475339e-06,-5.3914394666509935e-06,0.0009061290847320578,-0.0009288551532187129,-0.00019912527458954053,-0.0003673275285008669,0.00029734145533662616,0.00011915339869324968,-0.0005748919649744798,0.12130087614059448,11.699365615844727,-1.1918060779571533,-21.840242385864258,-0.3674216866493225,-2.5271639823913574,0.22830526530742645,0
22,0.10502743721008301,-0.12130087614059448,-11.699365615844727,1.1918060779571533,21.840242385864258,0.3674216866493225,2.5271639823913574,-0.22830526530742645,0.0,0.0,0.0,0.0,0.0,0.0,0.0,-0.15596592345164206,0.6626630391537224,0.007247481664103388,0.5659601332597777,-0.17338756269298744,0.13008062415320967,-0.22742908935020853,0.17284343024513177,-0.48754746304629654,-0.11142189623894795,-1.9462561354888113,0.13360567685559865,2.5955455914073515,0.9452499504006571,0.1728802376190821,-0.48752024683155326,-0.11147110072896137,-1.9463801863486305,0.1336059019074957,2.595550359778934,0.9452445589611904,-0.0009061290847320578,0.0009288551532187129,0.00019912527458954053,0.0003673275285008669,-0.00029734145533662616,-0.00011915339869324968,0.0005748919649744798,0.0,0.0,0.0,0.0,0.0,0.0,0.0,3.6807373950342726e-05,2.721621474327529e-05,-4.920449001341587e-05,-0.000124050859819258,2.2505189703481143e-07,4.768371582475339e-06,-5.3914394666509935e-06,0.0009061290847320578,-0.0009288551532187129,-0.00019912527458954053,-0.0003673275285008669,0.00029734145533662616,0.00011915339869324968,-0.0005748919649744798,0.12130087614059448,11.699365615844727,-1.1918060779571533,-21.840242385864258,-0.3674216866493225,-2.5271639823913574,0.22830526530742645,0
23,0.10999846458435059,-0.22445029020309448,-11.675561904907227,1.1680023670196533,21.868013381958008,0.3674216866493225,2.5399813652038574,-0.24112264811992645,0.0,0.0,0.0,0.0,0.0,0.0,0.0,-0.16006548218498182,0.6744560428900783,-0.0012296607877427806,0.5600685952748553,-0.17326703418677306,0.12925683118907477,-0.22789379741762558,0.1728506688005046,-0.48754908055923785,-0.11142022579101442,-1.9462580843306425,0.13360570313806194,2.595544167253706,0.945251374554303,0.1728802376190821,-0.48752024683155326,-0.11147110072896137,-1.9463801863486305,0.1336059019074957,2.595550359778934,0.9452445589611904,0.0011527685659125343,0.00032069141400244947,0.0003473427545614297,-0.0003630715524938251,-0.0002511139187840715,-0.0004281364415945306,0.0009713023632672414,0.0,0.0,0.0,0.0,0.0,0.0,0.0,2.9568818577518918e-05,2.8833727684585142e-05,-5.087493794694864e-05,-0.0001221020179880128,1.9876943374574907e-07,6.192525228154722e-06,-6.8155931125524205e-06,-0.0011527685659125343,-0.00032069141400244947,-0.0003473427545614297,0.0003630715524938251,0.0002511139187840715,0.0004281364415945306,-0.0009713023632672414,0.22445029020309448,11.675561904907227,-1.1680023670196533,-21.868013381958008,-0.3674216866493225,-2.5399813652038574,0.24112264811992645,0
24,0.11507964134216309,-0.22445029020309448,-11.675561904907227,1.1680023670196533,21.868013381958008,0.3674216866493225,2.5399813652038574,-0.24112264811992645,0.0,0.0,0.0,0.0,0.0,0.0,0.0,-0.16006548218498182,0.6744560428900783,-0.0012296607877427806,0.5600685952748553,-0.17326703418677306,0.12925683118907477,-0.22789379741762558,0.1728506688005046,-0.48754908055923785,-0.11142022579101442,-1.9462580843306425,0.13360570313806194,2.595544167253706,0.945251374554303,0.1728802376190821,-0.48752024683155326,-0.11147110072896137,-1.9463801863486305,0.1336059019074957,2.595550359778934,0.9452445589611904,0.0011527685659125343,0.00032069141400244947,0.0003473427545614297,-0.0003630715524938251,-0.0002511139187840715,-0.0004281364415945306,0.0009713023632672414,0.0,0.0,0.0,0.0,0.0,0.0,0.0,2.9568818577518918e-05,2.8833727684585142e-05,-5.087493794694864e-05,-0.0001221020179880128,1.9876943374574907e-07,6.192525228154722e-06,-6.8155931125524205e-06,-0.0011527685659125343,-0.00032069141400244947,-0.0003473427545614297,0.0003630715524938251,0.0002511139187840715,0.0004281364415945306,-0.0009713023632672414,0.22445029020309448,11.675561904907227,-1.1680023670196533,-21.868013381958008,-0.3674216866493225,-2.5399813652038574,0.24112264811992645,0
25,0.11999750137329102,-0.14510458707809448,-11.627954483032227,1.1918060779571533,21.868013381958008,0.3555198311805725,2.5335726737976074,-0.22098104655742645,0.0,0.0,0.0,0.0,0.0,0.0,0.0,-0.15514317957805376,0.6831025555386843,0.00596652282651283,0.554216144861288,-0.17433755502532206,0.12808088064074216,-0.22862082156316363,0.17284510068098705,-0.4875555488772459,-0.11142405480727836,-1.9462580843306425,0.13360538140241374,2.5955448793305287,0.9452491365985738,0.1728802376190821,-0.48752024683155326,-0.11147110072896137,-1.9463801863486305,0.1336059019074957,2.595550359778934,0.9452445589611904,7.772861015136872e-05,-0.0006754919799207309,-2.2708017931288585e-05,-0.0007236851965543527,0.00014831490313780725,-0.0002913609669869947,0.0006626023651841907,0.0,0.0,0.0,0.0,0.0,0.0,0.0,3.513693809506502e-05,3.530204569263118e-05,-4.7045921683003256e-05,-0.0001221020179880128,5.205050819523382e-07,5.48044840531503e-06,-4.5776373833739115e-06,-7.772861015136872e-05,0.0006754919799207309,2.2708017931288585e-05,0.0007236851965543527,-0.00014831490313780725,0.0002913609669869947,-0.0006626023651841907,0.14510458707809448,11.627954483032227,-1.1918060779571533,-21.868013381958008,-0.3555198311805725,-2.5335726737976074,0.22098104655742645,0
26,0.12499618530273438,-0.14510458707809448,-11.627954483032227,1.1918060779571533,21.868013381958008,0.3555198311805725,2.5335726737976074,-0.22098104655742645,0.0,0.0,0.0,0.0,0.0,0.0,0.0,-0.15514317957805376,0.6831025555386843,0.00596652282651283,0.554216144861288,-0.17433755502532206,0.12808088064074216,-0.22862082156316363,0.17284510068098705,-0.4875555488772459,-0.11142405480727836,-1.9462580843306425,0.13360538140241374,2.5955448793305287,0.9452491365985738,0.1728802376190821,-0.48752024683155326,-0.11147110072896137,-1.9463801863486305,0.1336059019074957,2.595550359778934,0.9452445589611904,7.772861015136872e-05,-0.0006754919799207309,-2.2708017931288585e-05,-0.0007236851965543527,0.00014831490313780725,-0.0002913609669869947,0.0006626023651841907,0.0,0.0,0.0,0.0,0.0,0.0,0.0,3.513693809506502e-05,3.530204569263118e-05,-4.7045921683003256e-05,-0.0001221020179880128,5.205050819523382e-07,5.48044840531503e-06,-4.5776373833739115e-06,-7.772861015136872e-05,0.0006754919799207309,2.2708017931288585e-05,0.0007236851965543527,-0.00014831490313780725,0.0002913609669869947,-0.0006626023651841907,0.14510458707809448,11.627954483032227,-1.1918060779571533,-21.868013381958008,-0.3555198311805725,-2.5335726737976074,0.22098104655742645,0
27,0.12999653816223145,-0.14510458707809448,-11.627954483032227,1.1680023670196533,21.868013381958008,0.3619285225868225,2.5335726737976074,-0.18710653483867645,0.0,0.0,0.0,0.0,0.0,0.0,0.0,-0.15393229681814413,0.6684696770481572,0.0039918069959350945,0.5627446172543207,-0.17442124878752727,0.12913997036543515,-0.22633228220305346,0.17284510068098705,-0.4875532179268814,-0.11142030212594338,-1.9462580843306425,0.13360323322548992,2.5955448793305287,0.9452453742538274,0.1728802376190821,-0.48752024683155326,-0.11147110072896137,-1.9463801863486305,0.1336059019074957,2.595550359778934,0.9452445589611904,0.0004237591202507483,-0.0004779344701004118,0.0010747044873776798,-0.0005038747040533334,-1.7630395385134585e-05,-0.00022374818132283168,-0.001329041387211896,0.0,0.0,0.0,0.0,0.0,0.0,0.0,3.513693809506502e-05,3.297109532812703e-05,-5.079860301798744e-05,-0.0001221020179880128,2.668682005768641e-06,5.48044840531503e-06,-8.152926369575653e-07,-0.0004237591202507483,0.0004779344701004118,-0.0010747044873776798,0.0005038747040533334,1.7630395385134585e-05,0.00022374818132283168,0.001329041387211896,0.14510458707809448,11.627954483032227,-1.1680023670196533,-21.868013381958008,-0.3619285225868225,-2.5335726737976074,0.18710653483867645,0
28,0.13499832153320312,-0.14510458707809448,-11.627954483032227,1.1680023670196533,21.868013381958008,0.3619285225868225,2.5335726737976074,-0.18710653483867645,0.0,0.0,0.0,0.0,0.0,0.0,0.0,-0.15393229681814413,0.6684696770481572,0.0039918069959350945,0.5627446172543207,-0.17442124878752727,0.12913997036543515,-0.22633228220305346,0.17284510068098705,-0.4875532179268814,-0.11142030212594338,-1.9462580843306425,0.13360323322548992,2.5955448793305287,0.9452453742538274,0.1728802376190821,-0.48752024683155326,-0.11147110072896137,-1.9463801863486305,0.1336059019074957,2.595550359778934,0.9452445589611904,0.0004237591202507483,-0.0004779344701004118,0.0010747044873776798,-0.0005038747040533334,-1.7630395385134585e-05,-0.00022374818132283168,-0.001329041387211896,0.0,0.0,0.0,0.0,0.0,0.0,0.0,3.513693809506502e-05,3.297109532812703e-05,-5.079860301798744e-05,-0.0001221020179880128,2.668682005768641e-06,5.48044840531503e-06,-8.152926369575653e-07,-0.0004237591202507483,0.0004779344701004118,-0.0010747044873776798,0.0005038747040533334,1.7630395385134585e-05,0.00022374818132283168,0.001329041387211896,0.14510458707809448,11.627954483032227,-1.1680023670196533,-21.868013381958008,-0.3619285225868225,-2.5335726737976074,0.18710653483867645,0
29,0.14003705978393555,-0.17287558317184448,-11.651758193969727,1.1918060779571533,21.868013381958008,0.3674216866493225,2.5335726737976074,-0.18710653483867645,0.0,0.0,0.0,0.0,0.0,0.0,0.0,-0.15577810557316724,0.6701980890293725,-0.0022010170447307157,0.5605423278323121,-0.17422491647815327,0.12870360021993435,-0.22555652438894888,0.17284704952281818,-0.487550727777816,-0.11142197222526667,-1.9462580843306425,0.13360400483914756,2.5955448793305287,0.9452453727639468,0.1728802376190821,-0.48752024683155326,-0.11147110072896137,-1.9463801863486305,0.1336059019074957,2.595550359778934,0.9452445589611904,0.00035510720422525895,2.3084176362584595e-05,0.0004144770634049955,-0.0006395911351598513,-0.00023736924674645681,-0.0002597547526917687,-0.0011359083224567706,0.0,0.0,0.0,0.0,0.0,0.0,0.0,3.318809626393082e-05,3.0480946262734232e-05,-4.912850369469257e-05,-0.0001221020179880128,1.8970683481334127e-06,5.48044840531503e-06,-8.138027564053019e-07,-0.00035510720422525895,-2.3084176362584595e-05,-0.0004144770634049955,0.0006395911351598513,0.00023736924674645681,0.0002597547526917687,0.0011359083224567706,0.17287558317184448,11.651758193969727,-1.1918060779571533,-21.868013381958008,-0.3674216866493225,-2.5335726737976074,0.18710653483867645,0
30,0.14499688148498535,-0.17287558317184448,-11.651758193969727,1.1918060779571533,21.868013381958008,0.3674216866493225,2.5335726737976074,-0.18710653483867645,0.0,0.0,0.0,0.0,0.0,0.0,0.0,-0.15577810557316724,0.6701980890293725,-0.0022010170447307157,0.5605423278323121,-0.17422491647815327,0.12870360021993435,-0.22555652438894888,0.17284704952281818,-0.487550727777816,-0.11142197222526667,-1.9462580843306425,0.13360400483914756,2.5955448793305287,0.9452453727639468,0.1728802376190821,-0.48752024683155326,-0.11147110072896137,-1.9463801863486305,0.1336059019074957,2.595550359778934,0.9452445589611904,0.00035510720422525895,2.3084176362584595e-05,0.0004144770634049955,-0.0006395911351598513,-0.00023736924674645681,-0.0002597547526917687,-0.0011359083224567706,0.0,0.0,0.0,0.0,0.0,0.0,0.0,3.318809626393082e-05,3.0480946262734232e-05,-4.912850369469257e-05,-0.0001221020179880128,1.8970683481334127e-06,5.48044840531503e-06,-8.138027564053019e-07,-0.00035510720422525895,-2.3084176362584595e-05,-0.0004144770634049955,0.0006395911351598513,0.00023736924674645681,0.0002597547526917687,0.0011359083224567706,0.17287558317184448,11.651758193969727,-1.1918060779571533,-21.868013381958008,-0.3674216866493225,-2.5335726737976074,0.18710653483867645,0
31,0.15041255950927734,-0.12130087614059448,-11.675561904907227,1.1918060779571533,21.840242385864258,0.3619285225868225,2.5335726737976074,-0.19351522624492645,0.0,0.0,0.0,0.0,0.0,0.0,0.0,-0.156650615979924,0.662630743241994,0.000623088677959883,0.5676364038600743,-0.17423540807118934,0.1293259822162904,-0.2248099371017248,0.17284343024513177,-0.48755191897905087,-0.11142199853225306,-1.9462561354888113,0.13360465436462457,2.5955448793305287,0.9452460848407613,0.1728802376190821,-0.48752024683155326,-0.11147110072896137,-1.9463801863486305,0.1336059019074957,2.595550359778934,0.9452445589611904,-0.0008177365544502994,0.0002966033496513661,4.8752849233067843e-05,0.0006548223574926947,-9.983535748731558e-05,-0.00021887670370612772,-0.0006901648107287299,0.0,0.0,0.0,0.0,0.0,0.0,0.0,3.6807373950342726e-05,3.167214749760783e-05,-4.910219670831162e-05,-0.000124050859819258,1.2475428711189451e-06,5.48044840531503e-06,-1.5258795709183204e-06,0.0008177365544502994,-0.0002966033496513661,-4.8752849233067843e-05,-0.0006548223574926947,9.983535748731558e-05,0.00021887670370612772,0.0006901648107287299,0.12130087614059448,11.675561904907227,-1.1918060779571533,-21.840242385864258,-0.3619285225868225,-2.5335726737976074,0.19351522624492645,0
32,0.15499401092529297,-0.12130087614059448,-11.675561904907227,1.1918060779571533,21.840242385864258,0.3619285225868225,2.5335726737976074,-0.19351522624492645,0.0,0.0,0.0,0.0,0.0,0.0,0.0,-0.156650615979924,0.662630743241994,0.000623088677959883,0.5676364038600743,-0.17423540807118934,0.1293259822162904,-0.2248099371017248,0.17284343024513177,-0.48755191897905087,-0.11142199853225306,-1.9462561354888113,0.13360465436462457,2.5955448793305287,0.9452460848407613,0.1728802376190821,-0.48752024683155326,-0.11147110072896137,-1.9463801863486305,0.1336059019074957,2.595550359778934,0.9452445589611904,-0.0008177365544502994,0.0002966033496513661,4.8752849233067843e-05,0.0006548223574926947,-9.983535748731558e-05,-0.00021887670370612772,-0.0006901648107287299,0.0,0.0,0.0,0.0,0.0,0.0,0.0,3.6807373950342726e-05,3.167214749760783e-05,-4.910219670831162e-05,-0.000124050859819258,1.2475428711189451e-06,5.48044840531503e-06,-1.5258795709183204e-06,0.0008177365544502994,-0.0002966033496513661,-4.8752849233067843e-05,-0.0006548223574926947,9.983535748731558e-05,0.00021887670370612772,0.0006901648107287299,0.12130087614059448,11.675561904907227,-1.1918060779571533,-21.840242385864258,-0.3619285225868225,-2.5335726737976074,0.19351522624492645,0
33,0.16042304039001465,-0.14510458707809448,-11.675561904907227,1.1918060779571533,21.816438674926758,0.3619285225868225,2.5207552909851074,-0.24112264811992645,0.0,0.0,0.0,0.0,0.0,0.0,0.0,-0.15534254485823432,0.6787076009535499,0.00038517125991054563,0.5602623245837832,-0.174051325288076,0.12816927569605288,-0.22327839113637213,0.17284510068098705,-0.48754929054029505,-0.11142189330444843,-1.946254465052956,0.13360640113015979,2.5955463034841744,0.945251374554303,0.1728802376190821,-0.48752024683155326,-0.11147110072896137,-1.9463801863486305,0.1336059019074957,2.595550359778934,0.9452445589611904,6.285904530444878e-05,0.0010326810642008462,-0.000295857707299407,0.0009705020758579297,-0.0002111683062809928,0.00012430700255224389,0.0012046680738235316,0.0,0.0,0.0,0.0,0.0,0.0,0.0,3.513693809506502e-05,2.904370874179385e-05,-4.920742451293425e-05,-0.00012572129567445245,-4.992226640965214e-07,4.056294759635648e-06,-6.8155931125524205e-06,-6.285904530444878e-05,-0.0010326810642008462,0.000295857707299407,-0.0009705020758579297,0.0002111683062809928,-0.00012430700255224389,-0.0012046680738235316,0.14510458707809448,11.675561904907227,-1.1918060779571533,-21.816438674926758,-0.3619285225868225,-2.5207552909851074,0.24112264811992645,0
34,0.16541552543640137,-0.14510458707809448,-11.675561904907227,1.1918060779571533,21.816438674926758,0.3619285225868225,2.5207552909851074,-0.24112264811992645,0.0,0.0,0.0,0.0,0.0,0.0,0.0,-0.15534254485823432,0.6787076009535499,0.00038517125991054563,0.5602623245837832,-0.174051325288076,0.12816927569605288,-0.22327839113637213,0.17284510068098705,-0.48754929054029505,-0.11142189330444843,-1.946254465052956,0.13360640113015979,2.5955463034841744,0.945251374554303,0.1728802376190821,-0.48752024683155326,-0.11147110072896137,-1.9463801863486305,0.1336059019074957,2.595550359778934,0.9452445589611904,6.285904530444878e-05,0.0010326810642008462,-0.000295857707299407,0.0009705020758579297,-0.0002111683062809928,0.00012430700255224389,0.0012046680738235316,0.0,0.0,0.0,0.0,0.0,0.0,0.0,3.513693809506502e-05,2.904370874179385e-05,-4.920742451293425e-05,-0.00012572129567445245,-4.992226640965214e-07,4.056294759635648e-06,-6.8155931125524205e-06,-6.285904530444878e-05,-0.0010326810642008462,0.000295857707299407,-0.0009705020758579297,0.0002111683062809928,-0.00012430700255224389,-0.0012046680738235316,0.14510458707809448,11.675561904907227,-1.1918060779571533,-21.816438674926758,-0.3619285225868225,-2.5207552909851074,0.24112264811992645,0
35,0.17002034187316895,-0.17287558317184448,-11.675561904907227,1.2156097888946533,21.840242385864258,0.3555198311805725,2.5207552909851074,-0.23471395671367645,0.0,0.0,0.0,0.0,0.0,0.0,0.0,-0.1556686831574588,0.6681143507612594,-0.0020234862344859755,0.565950547904282,-0.1741881157799495,0.12852119422217664,-0.22290597099480564,0.17284704952281818,-0.4875521250574534,-0.11142380050260421,-1.9462561345076648,0.1336052611418138,2.5955463034841744,0.94525066247748,0.1728802376190821,-0.48752024683155326,-0.11147110072896137,-1.9463801863486305,0.1336059019074957,2.595550359778934,0.9452445589611904,0.00014348861319421707,0.0005494294262363084,-0.00048122125336998866,0.0004887740876183538,-5.4434585554472226e-06,0.0002171218639235583,0.0012474428057487978,0.0,0.0,0.0,0.0,0.0,0.0,0.0,3.318809626393082e-05,3.187822590011713e-05,-4.730022635715536e-05,-0.0001240518409657554,6.407656818752105e-07,4.056294759635648e-06,-6.103516289601707e-06,-0.00014348861319421707,-0.0005494294262363084,0.00048122125336998866,-0.0004887740876183538,5.4434585554472226e-06,-0.0002171218639235583,-0.0012474428057487978,0.17287558317184448,11.675561904907227,-1.2156097888946533,-21.840242385864258,-0.3555198311805725,-2.5207552909851074,0.23471395671367645,0
36,0.1750202178955078,-0.17287558317184448,-11.675561904907227,1.2156097888946533,21.840242385864258,0.3555198311805725,2.5207552909851074,-0.23471395671367645,0.0,0.0,0.0,0.0,0.0,0.0,0.0,-0.1556686831574588,0.6681143507612594,-0.0020234862344859755,0.565950547904282,-0.1741881157799495,0.12852119422217664,-0.22290597099480564,0.17284704952281818,-0.4875521250574534,-0.11142380050260421,-1.9462561345076648,0.1336052611418138,2.5955463034841744,0.94525066247748,0.1728802376190821,-0.48752024683155326,-0.11147110072896137,-1.9463801863486305,0.1336059019074957,2.595550359778934,0.9452445589611904,0.00014348861319421707,0.0005494294262363084,-0.00048122125336998866,0.0004887740876183538,-5.4434585554472226e-06,0.0002171218639235583,0.0012474428057487978,0.0,0.0,0.0,0.0,0.0,0.0,0.0,3.318809626393082e-05,3.187822590011713e-05,-4.730022635715536e-05,-0.0001240518409657554,6.407656818752105e-07,4.056294759635648e-06,-6.103516289601707e-06,-0.00014348861319421707,-0.0005494294262363084,0.00048122125336998866,-0.0004887740876183538,5.4434585554472226e-06,-0.0002171218639235583,-0.0012474428057487978,0.17287558317184448,11.675561904907227,-1.2156097888946533,-21.840242385864258,-0.3555198311805725,-2.5207552909851074,0.23471395671367645,0
37,0.1800088882446289,-0.17287558317184448,-11.627954483032227,1.1680023670196533,21.840242385864258,0.3619285225868225,2.5271639823913574,-0.20083944499492645,0.0,0.0,0.0,0.0,0.0,0.0,0.0,-0.15815423995388414,0.6817905303181339,-0.0012916513123824558,0.5564445699737006,-0.1747266460621582,0.12650813841808256,-0.22229376316962887,0.17284704952281818,-0.4875552307062269,-0.11142103939639168,-1.9462561354888057,0.1336074933386602,2.5955455914073515,0.9452468986428446,0.1728802376190821,-0.48752024683155326,-0.11147110072896137,-1.9463801863486305,0.1336059019074957,2.595550359778934,0.9452445589611904,0.0003325126155989803,-0.00021677263370141673,0.0007094499372514492,-0.00015245637043672755,1.6161703583413454e-05,-9.068646695686335e-05,0.0001184571474304451,0.0,0.0,0.0,0.0,0.0,0.0,0.0,3.318809626393082e-05,3.498387467365527e-05,-5.006133256968415e-05,-0.00012405085982480912,-1.5914311645159884e-06,4.768371582475339e-06,-2.3396816541954024e-06,-0.0003325126155989803,0.00021677263370141673,-0.0007094499372514492,0.00015245637043672755,-1.6161703583413454e-05,9.068646695686335e-05,-0.0001184571474304451,0.17287558317184448,11.627954483032227,-1.1680023670196533,-21.840242385864258,-0.3619285225868225,-2.5271639823913574,0.20083944499492645,0
38,0.18500041961669922,-0.17287558317184448,-11.627954483032227,1.1680023670196533,21.840242385864258,0.3619285225868225,2.5271639823913574,-0.20083944499492645,0.0,0.0,0.0,0.0,0.0,0.0,0.0,-0.15815423995388414,0.6817905303181339,-0.0012916513123824558,0.5564445699737006,-0.1747266460621582,0.12650813841808256,-0.22229376316962887,0.17284704952281818,-0.4875552307062269,-0.11142103939639168,-1.9462561354888057,0.1336074933386602,2.5955455914073515,0.9452468986428446,0.1728802376190821,-0.48752024683155326,-0.11147110072896137,-1.9463801863486305,0.1336059019074957,2.595550359778934,0.9452445589611904,0.0003325126155989803,-0.00021677263370141673,0.0007094499372514492,-0.00015245637043672755,1.6161703583413454e-05,-9.068646695686335e-05,0.0001184571474304451,0.0,0.0,0.0,0.0,0.0,0.0,0.0,3.318809626393082e-05,3.498387467365527e-05,-5.006133256968415e-05,-0.00012405085982480912,-1.5914311645159884e-06,4.768371582475339e-06,-2.3396816541954024e-06,-0.0003325126155989803,0.00021677263370141673,-0.0007094499372514492,0.00015245637043672755,-1.6161703583413454e-05,9.068646695686335e-05,-0.0001184571474304451,0.17287558317184448,11.627954483032227,-1.1680023670196533,-21.840242385864258,-0.3619285225868225,-2.5271639823913574,0.20083944499492645,0
39,0.18999695777893066,-0.17287558317184448,-11.651758193969727,1.1918060779571533,21.840242385864258,0.3436179757118225,2.5207552909851074,-0.21457235515117645,0.0,0.0,0.0,0.0,0.0,0.0,0.0,-0.15805767799445453,0.6728322072297882,0.0012598186434928768,0.5619978830353776,-0.17486765447590905,0.12698378606347743,-0.22159440999756613,0.17284704952281818,-0.4875517046392092,-0.11142189623146244,-1.9462561354888113,0.133606211146173,2.5955463034841744,0.9452484245217508,0.1728802376190821,-0.48752024683155326,-0.11147110072896137,-1.9463801863486305,0.1336059019074957,2.595550359778934,0.9452445589611904,0.0004472927726814861,0.0001878127008244893,0.0003043215557380024,0.00038087730698327236,0.00048235551861255114,2.070213892684848e-05,0.0005826741611908123,0.0,0.0,0.0,0.0,0.0,0.0,0.0,3.318809626393082e-05,3.145780765595463e-05,-4.920449749892808e-05,-0.000124050859819258,-3.0923867730403565e-07,4.056294759635648e-06,-3.865560560423198e-06,-0.0004472927726814861,-0.0001878127008244893,-0.0003043215557380024,-0.00038087730698327236,-0.00048235551861255114,-2.070213892684848e-05,-0.0005826741611908123,0.17287558317184448,11.651758193969727,-1.1918060779571533,-21.840242385864258,-0.3436179757118225,-2.5207552909851074,0.21457235515117645,0
40,0.19499611854553223,-0.17287558317184448,-11.651758193969727,1.1918060779571533,21.840242385864258,0.3436179757118225,2.5207552909851074,-0.21457235515117645,0.0,0.0,0.0,0.0,0.0,0.0,0.0,-0.15805767799445453,0.6728322072297882,0.0012598186434928768,0.5619978830353776,-0.17486765447590905,0.12698378606347743,-0.22159440999756613,0.17284704952281818,-0.4875517046392092,-0.11142189623146244,-1.9462561354888113,0.133606211146173,2.5955463034841744,0.9452484245217508,0.1728802376190821,-0.48752024683155326,-0.11147110072896137,-1.9463801863486305,0.1336059019074957,2.595550359778934,0.9452445589611904,0.0004472927726814861,0.0001878127008244893,0.0003043215557380024,0.00038087730698327236,0.00048235551861255114,2.070213892684848e-05,0.0005826741611908123,0.0,0.0,0.0,0.0,0.0,0.0,0.0,3.318809626393082e-05,3.145780765595463e-05,-4.920449749892808e-05,-0.000124050859819258,-3.0923867730403565e-07,4.056294759635648e-06,-3.865560560423198e-06,-0.0004472927726814861,-0.0001878127008244893,-0.0003043215557380024,-0.00038087730698327236,-0.00048235551861255114,-2.070213892684848e-05,-0.0005826741611908123,0.17287558317184448,11.651758193969727,-1.1918060779571533,-21.840242385864258,-0.3436179757118225,-2.5207552909851074,0.21457235515117645,0
41,0.1999969482421875,-0.17287558317184448,-11.627954483032227,1.1918060779571533,21.868013381958008,0.3619285225868225,2.5207552909851074,-0.18710653483867645,0.0,0.0,0.0,0.0,0.0,0.0,0.0,-0.16228287762504778,0.6657213858028996,-0.0064391107323854835,0.566156617467592,-0.1749722866826218,0.12719299460142214,-0.22068507751443509,0.17284704952281818,-0.4875533501870096,-0.11142190221721265,-1.9462580843306425,0.13360462418853195,2.5955463034841744,0.9452453727639384,0.1728802376190821,-0.48752024683155326,-0.11147110072896137,-1.9463801863486305,0.1336059019074957,2.595550359778934,0.9452445589611904,4.2072560709739205e-05,-0.0004075851086573112,-0.00018506548868034157,-0.00028468173488741487,-0.0002389288617937259,0.00021965034283733578,-0.000931108380057217,0.0,0.0,0.0,0.0,0.0,0.0,0.0,3.318809626393082e-05,3.3103355456365335e-05,-4.919851174871315e-05,-0.0001221020179880128,1.2777189637436237e-06,4.056294759635648e-06,-8.138027479676069e-07,-4.2072560709739205e-05,0.0004075851086573112,0.00018506548868034157,0.00028468173488741487,0.0002389288617937259,-0.00021965034283733578,0.000931108380057217,0.17287558317184448,11.627954483032227,-1.1918060779571533,-21.868013381958008,-0.3619285225868225,-2.5207552909851074,0.18710653483867645,0
42,0.20499587059020996,-0.17287558317184448,-11.627954483032227,1.1918060779571533,21.868013381958008,0.3619285225868225,2.5207552909851074,-0.18710653483867645,0.0,0.0,0.0,0.0,0.0,0.0,0.0,-0.16228287762504778,0.6657213858028996,-0.0064391107323854835,0.566156617467592,-0.1749722866826218,0.12719299460142214,-0.22068507751443509,0.17284704952281818,-0.4875533501870096,-0.11142190221721265,-1.9462580843306425,0.13360462418853195,2.5955463034841744,0.9452453727639384,0.1728802376190821,-0.48752024683155326,-0.11147110072896137,-1.9463801863486305,0.1336059019074957,2.595550359778934,0.9452445589611904,4.2072560709739205e-05,-0.0004075851086573112,-0.00018506548868034157,-0.00028468173488741487,-0.0002389288617937259,0.00021965034283733578,-0.000931108380057217,0.0,0.0,0.0,0.0,0.0,0.0,0.0,3.318809626393082e-05,3.3103355456365335e-05,-4.919851174871315e-05,-0.0001221020179880128,1.2777189637436237e-06,4.056294759635648e-06,-8.138027479676069e-07,-4.2072560709739205e-05,0.0004075851086573112,0.00018506548868034157,0.00028468173488741487,0.0002389288617937259,-0.00021965034283733578,0.000931108380057217,0.17287558317184448,11.627954483032227,-1.1918060779571533,-21.868013381958008,-0.3619285225868225,-2.5207552909851074,0.18710653483867645,0
43,0.20999956130981445,-0.17287558317184448,-11.627954483032227,1.1918060779571533,21.868013381958008,0.3619285225868225,2.5207552909851074,-0.18710653483867645,0.0,0.0,0.0,0.0,0.0,0.0,0.0,-0.16228287762504778,0.6657213858028996,-0.0064391107323854835,0.566156617467592,-0.1749722866826218,0.12719299460142214,-0.22068507751443509,0.17284704952281818,-0.4875533501870096,-0.11142190221721265,-1.9462580843306425,0.13360462418853195,2.5955463034841744,0.9452453727639384,0.1728802376190821,-0.48752024683155326,-0.11147110072896137,-1.9463801863486305,0.1336059019074957,2.595550359778934,0.9452445589611904,4.2072560709739205e-05,-0.0004075851086573112,-0.00018506548868034157,-0.00028468173488741487,-0.0002389288617937259,0.00021965034283733578,-0.000931108380057217,0.0,0.0,0.0,0.0,0.0,0.0,0.0,3.318809626393082e-05,3.3103355456365335e-05,-4.919851174871315e-05,-0.0001221020179880128,1.2777189637436237e-06,4.056294759635648e-06,-8.138027479676069e-07,-4.2072560709739205e-05,0.0004075851086573112,0.00018506548868034157,0.00028468173488741487,0.0002389288617937259,-0.00021965034283733578,0.000931108380057217,0.17287558317184448,11.627954483032227,-1.1918060779571533,-21.868013381958008,-0.3619285225868225,-2.5207552909851074,0.18710653483867645,0
44,0.21533751487731934,-0.17287558317184448,-11.627954483032227,1.1918060779571533,21.868013381958008,0.3619285225868225,2.5207552909851074,-0.18710653483867645,0.0,0.0,0.0,0.0,0.0,0.0,0.0,-0.16228287762504778,0.6657213858028996,-0.0064391107323854835,0.566156617467592,-0.1749722866826218,0.12719299460142214,-0.22068507751443509,0.17284704952281818,-0.4875533501870096,-0.11142190221721265,-1.9462580843306425,0.13360462418853195,2.5955463034841744,0.9452453727639384,0.1728802376190821,-0.48752024683155326,-0.11147110072896137,-1.9463801863486305,0.1336059019074957,2.595550359778934,0.9452445589611904,4.2072560709739205e-05,-0.0004075851086573112,-0.00018506548868034157,-0.00028468173488741487,-0.0002389288617937259,0.00021965034283733578,-0.000931108380057217,0.0,0.0,0.0,0.0,0.0,0.0,0.0,3.318809626393082e-05,3.3103355456365335e-05,-4.919851174871315e-05,-0.0001221020179880128,1.2777189637436237e-06,4.056294759635648e-06,-8.138027479676069e-07,-4.2072560709739205e-05,0.0004075851086573112,0.00018506548868034157,0.00028468173488741487,0.0002389288617937259,-0.00021965034283733578,0.000931108380057217,0.17287558317184448,11.627954483032227,-1.1918060779571533,-21.868013381958008,-0.3619285225868225,-2.5207552909851074,0.18710653483867645,0
45,0.21999502182006836,-0.19667929410934448,-11.651758193969727,1.1680023670196533,21.868013381958008,0.3738303780555725,2.5335726737976074,-0.24112264811992645,0.0,0.0,0.0,0.0,0.0,0.0,0.0,-0.16027459945267503,0.6720384598445117,-0.0016205730197697396,0.5659229670125967,-0.1753692773511645,0.12666502095583695,-0.22078975861617323,0.17284871995867343,-0.4875529596682901,-0.11142235405887782,-1.9462580843306425,0.1336053609359748,2.5955448793305287,0.945251374554303,0.1728802376190821,-0.48752024683155326,-0.11147110072896137,-1.9463801863486305,0.1336059019074957,2.595550359778934,0.9452445589611904,0.0008166941362048148,6.782083973284356e-05,0.0003503788373065338,6.604193036714605e-05,-0.0006344032744321301,-0.00010422370412446047,0.0011617608010498644,0.0,0.0,0.0,0.0,0.0,0.0,0.0,3.151766040868087e-05,3.271283673683678e-05,-4.8746670083546495e-05,-0.0001221020179880128,5.409715208848365e-07,5.48044840531503e-06,-6.8155931125524205e-06,-0.0008166941362048148,-6.782083973284356e-05,-0.0003503788373065338,-6.604193036714605e-05,0.0006344032744321301,0.00010422370412446047,-0.0011617608010498644,0.19667929410934448,11.651758193969727,-1.1680023670196533,-21.868013381958008,-0.3738303780555725,-2.5335726737976074,0.24112264811992645,0
46,0.2249927520751953,-0.19667929410934448,-11.651758193969727,1.1680023670196533,21.868013381958008,0.3738303780555725,2.5335726737976074,-0.24112264811992645,0.0,0.0,0.0,0.0,0.0,0.0,0.0,-0.16027459945267503,0.6720384598445117,-0.0016205730197697396,0.5659229670125967,-0.1753692773511645,0.12666502095583695,-0.22078975861617323,0.17284871995867343,-0.4875529596682901,-0.11142235405887782,-1.9462580843306425,0.1336053609359748,2.5955448793305287,0.945251374554303,0.1728802376190821,-0.48752024683155326,-0.11147110072896137,-1.9463801863486305,0.1336059019074957,2.595550359778934,0.9452445589611904,0.0008166941362048148,6.782083973284356e-05,0.0003503788373065338,6.604193036714605e-05,-0.0006344032744321301,-0.00010422370412446047,0.0011617608010498644,0.0,0.0,0.0,0.0,0.0,0.0,0.0,3.151766040868087e-05,3.271283673683678e-05,-4.8746670083546495e-05,-0.0001221020179880128,5.409715208848365e-07,5.48044840531503e-06,-6.8155931125524205e-06,-0.0008166941362048148,-6.782083973284356e-05,-0.0003503788373065338,-6.604193036714605e-05,0.0006344032744321301,0.00010422370412446047,-0.0011617608010498644,0.19667929410934448,11.651758193969727,-1.1680023670196533,-21.868013381958008,-0.3738303780555725,-2.5335726737976074,0.24112264811992645,0
47,0.22999119758605957,-0.19667929410934448,-11.627954483032227,1.1918060779571533,21.868013381958008,0.3619285225868225,2.5335726737976074,-0.17978231608867645,0.0,0.0,0.0,0.0,0.0,0.0,0.0,-0.15967419458299864,0.6813210459947814,0.0017072751368064462,0.5606825289168821,-0.17560463335547735,0.12590240407765588,-0.2221466663798009,0.17284871995867343,-0.48755247393445084,-0.11142189342414426,-1.9462580843306425,0.1336035447781004,2.5955448793305287,0.945244560451744,0.1728802376190821,-0.48752024683155326,-0.11147110072896137,-1.9463801863486305,0.1336059019074957,2.595550359778934,0.9452445589611904,0.0007314409688840668,-0.0005264187434849872,0.0001963214897662369,-0.0006496362365806548,-0.0001222482270038885,-0.0003904319514813558,-0.001727010445637262,0.0,0.0,0.0,0.0,0.0,0.0,0.0,3.151766040868087e-05,3.222710289757513e-05,-4.920730481711155e-05,-0.0001221020179880128,2.357129395280655e-06,5.48044840531503e-06,-1.4905535694609284e-09,-0.0007314409688840668,0.0005264187434849872,-0.0001963214897662369,0.0006496362365806548,0.0001222482270038885,0.0003904319514813558,0.001727010445637262,0.19667929410934448,11.627954483032227,-1.1918060779571533,-21.868013381958008,-0.3619285225868225,-2.5335726737976074,0.17978231608867645,0
48,0.23499846458435059,-0.19667929410934448,-11.627954483032227,1.1918060779571533,21.868013381958008,0.3619285225868225,2.5335726737976074,-0.17978231608867645,0.0,0.0,0.0,0.0,0.0,0.0,0.0,-0.15967419458299864,0.6813210459947814,0.0017072751368064462,0.5606825289168821,-0.17560463335547735,0.12590240407765588,-0.2221466663798009,0.17284871995867343,-0.48755247393445084,-0.11142189342414426,-1.9462580843306425,0.1336035447781004,2.5955448793305287,0.945244560451744,0.1728802376190821,-0.48752024683155326,-0.11147110072896137,-1.9463801863486305,0.1336059019074957,2.595550359778934,0.9452445589611904,0.0007314409688840668,-0.0005264187434849872,0.0001963214897662369,-0.0006496362365806548,-0.0001222482270038885,-0.0003904319514813558,-0.001727010445637262,0.0,0.0,0.0,0.0,0.0,0.0,0.0,3.151766040868087e-05,3.222710289757513e-05,-4.920730481711155e-05,-0.0001221020179880128,2.357129395280655e-06,5.48044840531503e-06,-1.4905535694609284e-09,-0.0007314409688840668,0.0005264187434849872,-0.0001963214897662369,0.0006496362365806548,0.0001222482270038885,0.0003904319514813558,0.001727010445637262,0.19667929410934448,11.627954483032227,-1.1918060779571533,-21.868013381958008,-0.3619285225868225,-2.5335726737976074,0.17978231608867645,0
49,0.23999714851379395,-0.17287558317184448,-11.651758193969727,1.1918060779571533,21.840242385864258,0.3555198311805725,2.5271639823913574,-0.18710653483867645,0.0,0.0,0.0,0.0,0.0,0.0,0.0,-0.1603624764446369,0.6803211947061499,0.0030915939659536106,0.5605957062507072,-0.17609211171419867,0.12636043952904902,-0.22208248426844385,0.17284704952281818,-0.4875507260815087,-0.11142197323523924,-1.9462561354888113,0.13360735448131167,2.5955455914073515,0.9452453727639468,0.1728802376190821,-0.48752024683155326,-0.11147110072896137,-1.9463801863486305,0.1336059019074957,2.595550359778934,0.9452445589611904,0.000838761278767542,0.000278114563922161,0.00034521066914598345,-4.207015880628322e-05,3.9983431007169376e-06,-0.0001388037456837193,-0.0011973879279591274,0.0,0.0,0.0,0.0,0.0,0.0,0.0,3.318809626393082e-05,3.0479249955417398e-05,-4.912749372212866e-05,-0.000124050859819258,-1.4525738159798518e-06,4.768371582475339e-06,-8.138027564053019e-07,-0.000838761278767542,-0.000278114563922161,-0.00034521066914598345,4.207015880628322e-05,-3.9983431007169376e-06,0.0001388037456837193,0.0011973879279591274,0.17287558317184448,11.651758193969727,-1.1918060779571533,-21.840242385864258,-0.3555198311805725,-2.5271639823913574,0.18710653483867645,0
50,0.24541831016540527,-0.17287558317184448,-11.651758193969727,1.1918060779571533,21.840242385864258,0.3555198311805725,2.5271639823913574,-0.18710653483867645,0.0,0.0,0.0,0.0,0.0,0.0,0.0,-0.1603624764446369,0.6803211947061499,0.0030915939659536106,0.5605957062507072,-0.17609211171419867,0.12636043952904902,-0.22208248426844385,0.17284704952281818,-0.4875507260815087,-0.11142197323523924,-1.9462561354888113,0.13360735448131167,2.5955455914073515,0.9452453727639468,0.1728802376190821,-0.48752024683155326,-0.11147110072896137,-1.9463801863486305,0.1336059019074957,2.595550359778934,0.9452445589611904,0.000838761278767542,0.000278114563922161,0.00034521066914598345,-4.207015880628322e-05,3.9983431007169376e-06,-0.0001388037456837193,-0.0011973879279591274,0.0,0.0,0.0,0.0,0.0,0.0,0.0,3.318809626393082e-05,3.0479249955417398e-05,-4.912749372212866e-05,-0.000124050859819258,-1.4525738159798518e-06,4.768371582475339e-06,-8.138027564053019e-07,-0.000838761278767542,-0.000278114563922161,-0.00034521066914598345,4.207015880628322e-05,-3.9983431007169376e-06,0.0001388037456837193,0.0011973879279591274,0.17287558317184448,11.651758193969727,-1.1918060779571533,-21.840242385864258,-0.3555198311805725,-2.5271639823913574,0.18710653483867645,0
51,0.24999642372131348,-0.14510458707809448,-11.627954483032227,1.1680023670196533,21.816438674926758,0.3674216866493225,2.5143465995788574,-0.18710653483867645,0.0,0.0,0.0,0.0,0.0,0.0,0.0,-0.1642350346451642,0.6772656720975515,-0.004783343460767881,0.557994242723065,-0.1758671373154904,0.12685216764986584,-0.2226202220470282,0.17284510068098705,-0.4875534191258637,-0.11142023275612498,-1.946254465052956,0.13360570297755206,2.595547015560997,0.9452453727639384,0.1728802376190821,-0.48752024683155326,-0.11147110072896137,-1.9463801863486305,0.1336059019074957,2.595550359778934,0.9452445589611904,-0.0004652530003162744,-0.00047012531964827037,0.0004128232958571155,0.00046353773033926327,-0.0002935235497984286,0.0005402581461252646,-0.001181954190506048,0.0,0.0,0.0,0.0,0.0,0.0,0.0,3.513693809506502e-05,3.317229431043511e-05,-5.0867972836390885e-05,-0.00012572129567445245,1.989299436289116e-07,3.344217936795957e-06,-8.138027479676069e-07,0.0004652530003162744,0.00047012531964827037,-0.0004128232958571155,-0.00046353773033926327,0.0002935235497984286,-0.0005402581461252646,0.001181954190506048,0.14510458707809448,11.627954483032227,-1.1680023670196533,-21.816438674926758,-0.3674216866493225,-2.5143465995788574,0.18710653483867645,0
52,0.2549936771392822,-0.14510458707809448,-11.627954483032227,1.1680023670196533,21.816438674926758,0.3674216866493225,2.5143465995788574,-0.18710653483867645,0.0,0.0,0.0,0.0,0.0,0.0,0.0,-0.1642350346451642,0.6772656720975515,-0.004783343460767881,0.557994242723065,-0.1758671373154904,0.12685216764986584,-0.2226202220470282,0.17284510068098705,-0.4875534191258637,-0.11142023275612498,-1.946254465052956,0.13360570297755206,2.595547015560997,0.9452453727639384,0.1728802376190821,-0.48752024683155326,-0.11147110072896137,-1.9463801863486305,0.1336059019074957,2.595550359778934,0.9452445589611904,-0.0004652530003162744,-0.00047012531964827037,0.0004128232958571155,0.00046353773033926327,-0.0002935235497984286,0.0005402581461252646,-0.001181954190506048,0.0,0.0,0.0,0.0,0.0,0.0,0.0,3.513693809506502e-05,3.317229431043511e-05,-5.0867972836390885e-05,-0.00012572129567445245,1.989299436289116e-07,3.344217936795957e-06,-8.138027479676069e-07,0.0004652530003162744,0.00047012531964827037,-0.0004128232958571155,-0.00046353773033926327,0.0002935235497984286,-0.0005402581461252646,0.001181954190506048,0.14510458707809448,11.627954483032227,-1.1680023670196533,-21.816438674926758,-0.3674216866493225,-2.5143465995788574,0.18710653483867645,0
53,0.2599921226501465,-0.14510458707809448,-11.675561904907227,1.1680023670196533,21.868013381958008,0.3619285225868225,2.5207552909851074,-0.20724813640117645,0.0,0.0,0.0,0.0,0.0,0.0,0.0,-0.16056565138867065,0.6747007727629406,-0.0012718015870907186,0.5576807603693845,-0.17552799642420677,0.12700308156415716,-0.22263549542798602,0.17284510068098705,-0.48754984503711596,-0.1114203398962621,-1.9462581108215957,0.133606762518697,2.5955463034841744,0.9452476107196676,0.1728802376190821,-0.48752024683155326,-0.11147110072896137,-1.9463801863486305,0.1336059019074957,2.595550359778934,0.9452445589611904,-0.0004265733909786064,0.00108576976033656,0.0005463839993263525,-0.0004182920490643404,-9.461350755562292e-05,9.084442580663916e-05,-0.00017110913892234823,0.0,0.0,0.0,0.0,0.0,0.0,0.0,3.513693809506502e-05,2.9598205562697544e-05,-5.0760832699267566e-05,-0.00012207552703480395,-8.606112013032075e-07,4.056294759635648e-06,-3.051758477146116e-06,0.0004265733909786064,-0.00108576976033656,-0.0005463839993263525,0.0004182920490643404,9.461350755562292e-05,-9.084442580663916e-05,0.00017110913892234823,0.14510458707809448,11.675561904907227,-1.1680023670196533,-21.868013381958008,-0.3619285225868225,-2.5207552909851074,0.20724813640117645,0
54,0.2649998664855957,-0.14510458707809448,-11.675561904907227,1.1680023670196533,21.868013381958008,0.3619285225868225,2.5207552909851074,-0.20724813640117645,0.0,0.0,0.0,0.0,0.0,0.0,0.0,-0.16056565138867065,0.6747007727629406,-0.0012718015870907186,0.5576807603693845,-0.17552799642420677,0.12700308156415716,-0.22263549542798602,0.17284510068098705,-0.48754984503711596,-0.1114203398962621,-1.9462581108215957,0.133606762518697,2.5955463034841744,0.9452476107196676,0.1728802376190821,-0.48752024683155326,-0.11147110072896137,-1.9463801863486305,0.1336059019074957,2.595550359778934,0.9452445589611904,-0.0004265733909786064,0.00108576976033656,0.0005463839993263525,-0.0004182920490643404,-9.461350755562292e-05,9.084442580663916e-05,-0.00017110913892234823,0.0,0.0,0.0,0.0,0.0,0.0,0.0,3.513693809506502e-05,2.9598205562697544e-05,-5.0760832699267566e-05,-0.00012207552703480395,-8.606112013032075e-07,4.056294759635648e-06,-3.051758477146116e-06,0.0004265733909786064,-0.00108576976033656,-0.0005463839993263525,0.0004182920490643404,9.461350755562292e-05,-9.084442580663916e-05,0.00017110913892234823,0.14510458707809448,11.675561904907227,-1.1680023670196533,-21.868013381958008,-0.3619285225868225,-2.5207552909851074,0.20724813640117645,0
55,0.26999688148498535,-0.12130087614059448,-11.627954483032227,1.2156097888946533,21.816438674926758,0.3738303780555725,2.5271639823913574,-0.24112264811992645,0.0,0.0,0.0,0.0,0.0,0.0,0.0,-0.1581615751876243,0.6776322730145529,-0.0010330102287702395,0.5553815780974055,-0.17548048870876196,0.1263843443593878,-0.2223366925452836,0.17284343024513177,-0.4875531038582997,-0.11142569460642103,-1.9462544650531055,0.133606188799419,2.5955455914073515,0.945251374554303,0.1728802376190821,-0.48752024683155326,-0.11147110072896137,-1.9463801863486305,0.1336059019074957,2.595550359778934,0.9452445589611904,-0.0006320825471417413,-0.000400362745047611,-0.0006618028937681143,0.0004155634744407855,-0.000573487990155745,8.59904188561143e-05,0.0014482041200857526,0.0,0.0,0.0,0.0,0.0,0.0,0.0,3.6807373950342726e-05,3.285702674643565e-05,-4.5406122540336824e-05,-0.00012572129552501643,-2.868919233012246e-07,4.768371582475339e-06,-6.8155931125524205e-06,0.0006320825471417413,0.000400362745047611,0.0006618028937681143,-0.0004155634744407855,0.000573487990155745,-8.59904188561143e-05,-0.0014482041200857526,0.12130087614059448,11.627954483032227,-1.2156097888946533,-21.816438674926758,-0.3738303780555725,-2.5271639823913574,0.24112264811992645,0
56,0.27501940727233887,-0.12130087614059448,-11.627954483032227,1.2156097888946533,21.816438674926758,0.3738303780555725,2.5271639823913574,-0.24112264811992645,0.0,0.0,0.0,0.0,0.0,0.0,0.0,-0.1581615751876243,0.6776322730145529,-0.0010330102287702395,0.5553815780974055,-0.17548048870876196,0.1263843443593878,-0.2223366925452836,0.17284343024513177,-0.4875531038582997,-0.11142569460642103,-1.9462544650531055,0.133606188799419,2.5955455914073515,0.945251374554303,0.1728802376190821,-0.48752024683155326,-0.11147110072896137,-1.9463801863486305,0.1336059019074957,2.595550359778934,0.9452445589611904,-0.0006320825471417413,-0.000400362745047611,-0.0006618028937681143,0.0004155634744407855,-0.000573487990155745,8.59904188561143e-05,0.0014482041200857526,0.0,0.0,0.0,0.0,0.0,0.0,0.0,3.6807373950342726e-05,3.285702674643565e-05,-4.5406122540336824e-05,-0.00012572129552501643,-2.868919233012246e-07,4.768371582475339e-06,-6.8155931125524205e-06,0.0006320825471417413,0.000400362745047611,0.0006618028937681143,-0.0004155634744407855,0.000573487990155745,-8.59904188561143e-05,-0.0014482041200857526,0.12130087614059448,11.627954483032227,-1.2156097888946533,-21.816438674926758,-0.3738303780555725,-2.5271639823913574,0.24112264811992645,0
57,0.28001952171325684,-0.12130087614059448,-11.627954483032227,1.2156097888946533,21.840242385864258,0.3555198311805725,2.5271639823913574,-0.24112264811992645,0.0,0.0,0.0,0.0,0.0,0.0,0.0,-0.1547595350440705,0.6784162087687641,0.003021779159158865,0.5553669373036553,-0.1753809162053356,0.126943682470191,-0.22220245333932892,0.17284343024513177,-0.48755250416775553,-0.1114238279402998,-1.9462561354888113,0.13360430220127958,2.5955455914073515,0.945251374554303,0.1728802376190821,-0.48752024683155326,-0.11147110072896137,-1.9463801863486305,0.1336059019074957,2.595550359778934,0.9452445589611904,-0.00032715527580579447,-0.0004663895877335721,-0.000615373798745884,-0.0003229674762843339,0.000251902288577569,0.00015541472114675376,0.0014158628536400219,0.0,0.0,0.0,0.0,0.0,0.0,0.0,3.6807373950342726e-05,3.225733620226823e-05,-4.727278866156759e-05,-0.000124050859819258,1.5997062161043907e-06,4.768371582475339e-06,-6.8155931125524205e-06,0.00032715527580579447,0.0004663895877335721,0.000615373798745884,0.0003229674762843339,-0.000251902288577569,-0.00015541472114675376,-0.0014158628536400219,0.12130087614059448,11.627954483032227,-1.2156097888946533,-21.840242385864258,-0.3555198311805725,-2.5271639823913574,0.24112264811992645,0
58,0.2849924564361572,-0.12130087614059448,-11.627954483032227,1.2156097888946533,21.840242385864258,0.3555198311805725,2.5271639823913574,-0.24112264811992645,0.0,0.0,0.0,0.0,0.0,0.0,0.0,-0.1547595350440705,0.6784162087687641,0.003021779159158865,0.5553669373036553,-0.1753809162053356,0.126943682470191,-0.22220245333932892,0.17284343024513177,-0.48755250416775553,-0.1114238279402998,-1.9462561354888113,0.13360430220127958,2.5955455914073515,0.945251374554303,0.1728802376190821,-0.48752024683155326,-0.11147110072896137,-1.9463801863486305,0.1336059019074957,2.595550359778934,0.9452445589611904,-0.00032715527580579447,-0.0004663895877335721,-0.000615373798745884,-0.0003229674762843339,0.000251902288577569,0.00015541472114675376,0.0014158628536400219,0.0,0.0,0.0,0.0,0.0,0.0,0.0,3.6807373950342726e-05,3.225733620226823e-05,-4.727278866156759e-05,-0.000124050859819258,1.5997062161043907e-06,4.768371582475339e-06,-6.8155931125524205e-06,0.00032715527580579447,0.0004663895877335721,0.000615373798745884,0.0003229674762843339,-0.000251902288577569,-0.00015541472114675376,-0.0014158628536400219,0.12130087614059448,11.627954483032227,-1.2156097888946533,-21.840242385864258,-0.3555198311805725,-2.5271639823913574,0.24112264811992645,0
59,0.2899937629699707,-0.17287558317184448,-11.675561904907227,1.1918060779571533,21.868013381958008,0.3500266671180725,2.5207552909851074,-0.22098104655742645,0.0,0.0,0.0,0.0,0.0,0.0,0.0,-0.15653887067938116,0.6694658672291894,-0.003795477277068655,0.5599115576960898,-0.1744358034321932,0.12872634507736222,-0.2219433086021025,0.17284704952281818,-0.4875511805727593,-0.11142189330534584,-1.9462580843306425,0.13360445174653116,2.5955463034841744,0.9452491365985738,0.1728802376190821,-0.48752024683155326,-0.11147110072896137,-1.9463801863486305,0.1336059019074957,2.595550359778934,0.9452445589611904,0.0005131941073911764,0.000557222396115624,-5.5111314575584394e-05,-0.00029846726438232404,0.0004714208497966883,0.00023354821982503825,0.000735126948118915,0.0,0.0,0.0,0.0,0.0,0.0,0.0,3.318809626393082e-05,3.0933741206051746e-05,-4.92074236155271e-05,-0.0001221020179880128,1.4501609645334312e-06,4.056294759635648e-06,-4.5776373833739115e-06,-0.0005131941073911764,-0.000557222396115624,5.5111314575584394e-05,0.00029846726438232404,-0.0004714208497966883,-0.00023354821982503825,-0.000735126948118915,0.17287558317184448,11.675561904907227,-1.1918060779571533,-21.868013381958008,-0.3500266671180725,-2.5207552909851074,0.22098104655742645,0
60,0.29499292373657227,-0.17287558317184448,-11.675561904907227,1.1918060779571533,21.868013381958008,0.3500266671180725,2.5207552909851074,-0.22098104655742645,0.0,0.0,0.0,0.0,0.0,0.0,0.0,-0.15653887067938116,0.6694658672291894,-0.003795477277068655,0.5599115576960898,-0.1744358034321932,0.12872634507736222,-0.2219433086021025,0.17284704952281818,-0.4875511805727593,-0.11142189330534584,-1.9462580843306425,0.13360445174653116,2.5955463034841744,0.9452491365985738,0.1728802376190821,-0.48752024683155326,-0.11147110072896137,-1.9463801863486305,0.1336059019074957,2.595550359778934,0.9452445589611904,0.0005131941073911764,0.000557222396115624,-5.5111314575584394e-05,-0.00029846726438232404,0.0004714208497966883,0.00023354821982503825,0.000735126948118915,0.0,0.0,0.0,0.0,0.0,0.0,0.0,3.318809626393082e-05,3.0933741206051746e-05,-4.92074236155271e-05,-0.0001221020179880128,1.4501609645334312e-06,4.056294759635648e-06,-4.5776373833739115e-06,-0.0005131941073911764,-0.000557222396115624,5.5111314575584394e-05,0.00029846726438232404,-0.0004714208497966883,-0.00023354821982503825,-0.000735126948118915,0.17287558317184448,11.675561904907227,-1.1918060779571533,-21.868013381958008,-0.3500266671180725,-2.5207552909851074,0.22098104655742645,0
61,0.2999918460845947,-0.19667929410934448,-11.675561904907227,1.1680023670196533,21.816438674926758,0.3674216866493225,2.5399813652038574,-0.22830526530742645,0.0,0.0,0.0,0.0,0.0,0.0,0.0,-0.15232287230551073,0.6704473815190205,0.0029121571200444616,0.5585172741095075,-0.17466639769327022,0.12785790866164562,-0.22153311352249555,0.17284871995867343,-0.4875500876267429,-0.11142053866011774,-1.946254465052956,0.1336072036753356,2.595544167253706,0.9452499504006571,0.1728802376190821,-0.48752024683155326,-0.11147110072896137,-1.9463801863486305,0.1336059019074957,2.595550359778934,0.9452445589611904,0.0009567821720562747,0.00022594566832100226,0.0008930116684507142,0.0005770266673708162,-0.00025278655415553967,-0.0005794682801966516,0.00039294929090880754,0.0,0.0,0.0,0.0,0.0,0.0,0.0,3.151766040868087e-05,2.9840795189639557e-05,-5.056206884362924e-05,-0.00012572129567445245,-1.3017678399118715e-06,6.192525228154722e-06,-5.3914394666509935e-06,-0.0009567821720562747,-0.00022594566832100226,-0.0008930116684507142,-0.0005770266673708162,0.00025278655415553967,0.0005794682801966516,-0.00039294929090880754,0.19667929410934448,11.675561904907227,-1.1680023670196533,-21.816438674926758,-0.3674216866493225,-2.5399813652038574,0.22830526530742645,0
62,0.3050370216369629,-0.19667929410934448,-11.675561904907227,1.1680023670196533,21.816438674926758,0.3674216866493225,2.5399813652038574,-0.22830526530742645,0.0,0.0,0.0,0.0,0.0,0.0,0.0,-0.15232287230551073,0.6704473815190205,0.0029121571200444616,0.5585172741095075,-0.17466639769327022,0.12785790866164562,-0.22153311352249555,0.17284871995867343,-0.4875500876267429,-0.11142053866011774,-1.946254465052956,0.1336072036753356,2.595544167253706,0.9452499504006571,0.1728802376190821,-0.48752024683155326,-0.11147110072896137,-1.9463801863486305,0.1336059019074957,2.595550359778934,0.9452445589611904,0.0009567821720562747,0.00022594566832100226,0.0008930116684507142,0.0005770266673708162,-0.00025278655415553967,-0.0005794682801966516,0.00039294929090880754,0.0,0.0,0.0,0.0,0.0,0.0,0.0,3.151766040868087e-05,2.9840795189639557e-05,-5.056206884362924e-05,-0.00012572129567445245,-1.3017678399118715e-06,6.192525228154722e-06,-5.3914394666509935e-06,-0.0009567821720562747,-0.00022594566832100226,-0.0008930116684507142,-0.0005770266673708162,0.00025278655415553967,0.0005794682801966516,-0.00039294929090880754,0.19667929410934448,11.675561904907227,-1.1680023670196533,-21.816438674926758,-0.3674216866493225,-2.5399813652038574,0.22830526530742645,0
63,0.31000423431396484,-0.14510458707809448,-11.651758193969727,1.1918060779571533,21.868013381958008,0.3619285225868225,2.5271639823913574,-0.17337362468242645,0.0,0.0,0.0,0.0,0.0,0.0,0.0,-0.15407369487206507,0.6865327216412623,0.0015162938576871112,0.548503394503086,-0.17454432812698414,0.12688420715121052,-0.22217893994868781,0.17284510068098705,-0.48755081515655324,-0.11142260359432064,-1.9462580843306425,0.13360663078168097,2.5955455914073515,0.9452438468850322,0.1728802376190821,-0.48752024683155326,-0.11147110072896137,-1.9463801863486305,0.1336059019074957,2.595550359778934,0.9452445589611904,-0.00018000866531679542,0.00022507668448288614,-8.489657385933892e-05,-0.0011593110699387606,5.218639281927508e-05,0.0001739538662109891,-0.001815890611537958,0.0,0.0,0.0,0.0,0.0,0.0,0.0,3.513693809506502e-05,3.056832499997997e-05,-4.8497134640723694e-05,-0.0001221020179880128,-7.288741852851111e-07,4.768371582475339e-06,7.120761582601887e-07,0.00018000866531679542,-0.00022507668448288614,8.489657385933892e-05,0.0011593110699387606,-5.218639281927508e-05,-0.0001739538662109891,0.001815890611537958,0.14510458707809448,11.651758193969727,-1.1918060779571533,-21.868013381958008,-0.3619285225868225,-2.5271639823913574,0.17337362468242645,0
64,0.31499338150024414,-0.14510458707809448,-11.651758193969727,1.1918060779571533,21.868013381958008,0.3619285225868225,2.5271639823913574,-0.17337362468242645,0.0,0.0,0.0,0.0,0.0,0.0,0.0,-0.15407369487206507,0.6865327216412623,0.0015162938576871112,0.548503394503086,-0.17454432812698414,0.12688420715121052,-0.22217893994868781,0.17284510068098705,-0.48755081515655324,-0.11142260359432064,-1.9462580843306425,0.13360663078168097,2.5955455914073515,0.9452438468850322,0.1728802376190821,-0.48752024683155326,-0.11147110072896137,-1.9463801863486305,0.1336059019074957,2.595550359778934,0.9452445589611904,-0.00018000866531679542,0.00022507668448288614,-8.489657385933892e-05,-0.0011593110699387606,5.218639281927508e-05,0.0001739538662109891,-0.001815890611537958,0.0,0.0,0.0,0.0,0.0,0.0,0.0,3.513693809506502e-05,3.056832499997997e-05,-4.8497134640723694e-05,-0.0001221020179880128,-7.288741852851111e-07,4.768371582475339e-06,7.120761582601887e-07,0.00018000866531679542,-0.00022507668448288614,8.489657385933892e-05,0.0011593110699387606,-5.218639281927508e-05,-0.0001739538662109891,0.001815890611537958,0.14510458707809448,11.651758193969727,-1.1918060779571533,-21.868013381958008,-0.3619285225868225,-2.5271639823913574,0.17337362468242645,0
65,0.320009708404541,-0.17287558317184448,-11.675561904907227,1.1918060779571533,21.840242385864258,0.3619285225868225,2.5335726737976074,-0.18710653483867645,0.0,0.0,0.0,0.0,0.0,0.0,0.0,-0.15658096385945075,0.6666488137609637,-7.172336353701831e-05,0.5575431258067638,-0.17427911720087702,0.12933945643781014,-0.22219317226223992,0.17284704952281818,-0.48754905560971695,-0.11142197334750738,-1.9462561354888113,0.1336073924827727,2.5955448793305287,0.9452453727639384,0.1728802376190821,-0.48752024683155326,-0.11147110072896137,-1.9463801863486305,0.1336059019074957,2.595550359778934,0.9452445589611904,-3.545264801743825e-05,0.00017583438696032341,0.0002265090395262678,7.255952734915212e-05,-8.712937590794343e-05,-0.00019380431412082845,-0.0010661279013306072,0.0,0.0,0.0,0.0,0.0,0.0,0.0,3.318809626393082e-05,2.880877816369143e-05,-4.912738145398943e-05,-0.000124050859819258,-1.4905752770133507e-06,5.48044840531503e-06,-8.138027479676069e-07,3.545264801743825e-05,-0.00017583438696032341,-0.0002265090395262678,-7.255952734915212e-05,8.712937590794343e-05,0.00019380431412082845,0.0010661279013306072,0.17287558317184448,11.675561904907227,-1.1918060779571533,-21.840242385864258,-0.3619285225868225,-2.5335726737976074,0.18710653483867645,0
66,0.32499027252197266,-0.17287558317184448,-11.675561904907227,1.1918060779571533,21.840242385864258,0.3619285225868225,2.5335726737976074,-0.18710653483867645,0.0,0.0,0.0,0.0,0.0,0.0,0.0,-0.15658096385945075,0.6666488137609637,-7.172336353701831e-05,0.5575431258067638,-0.17427911720087702,0.12933945643781014,-0.22219317226223992,0.17284704952281818,-0.48754905560971695,-0.11142197334750738,-1.9462561354888113,0.1336073924827727,2.5955448793305287,0.9452453727639384,0.1728802376190821,-0.48752024683155326,-0.11147110072896137,-1.9463801863486305,0.1336059019074957,2.595550359778934,0.9452445589611904,-3.545264801743825e-05,0.00017583438696032341,0.0002265090395262678,7.255952734915212e-05,-8.712937590794343e-05,-0.00019380431412082845,-0.0010661279013306072,0.0,0.0,0.0,0.0,0.0,0.0,0.0,3.318809626393082e-05,2.880877816369143e-05,-4.912738145398943e-05,-0.000124050859819258,-1.4905752770133507e-06,5.48044840531503e-06,-8.138027479676069e-07,3.545264801743825e-05,-0.00017583438696032341,-0.0002265090395262678,-7.255952734915212e-05,8.712937590794343e-05,0.00019380431412082845,0.0010661279013306072,0.17287558317184448,11.675561904907227,-1.1918060779571533,-21.840242385864258,-0.3619285225868225,-2.5335726737976074,0.18710653483867645,0
67,0.32999134063720703,-0.14510458707809448,-11.675561904907227,1.2156097888946533,21.868013381958008,0.3555198311805725,2.5335726737976074,-0.21457235515117645,0.0,0.0,0.0,0.0,0.0,0.0,0.0,-0.16390267587783977,0.6639801927141344,-0.007488246345176334,0.5587843547976941,-0.17454486395411534,0.12973267686964338,-0.2219900645658444,0.17284510068098705,-0.4875518891691481,-0.11142593234343967,-1.9462580843306425,0.13360734150183265,2.5955448793305287,0.9452484260116398,0.1728802376190821,-0.48752024683155326,-0.11147110072896137,-1.9463801863486305,0.1336059019074957,2.595550359778934,0.9452445589611904,-0.0009216797239155664,0.0001266646317663178,-0.0009819509108637855,-0.0001635200993820148,-2.0406350145671684e-05,-0.00013612052080691153,-2.6739576191772113e-05,0.0,0.0,0.0,0.0,0.0,0.0,0.0,3.513693809506502e-05,3.1642337594839365e-05,-4.516838552169611e-05,-0.0001221020179880128,-1.4395943369605035e-06,5.48044840531503e-06,-3.867050449413156e-06,0.0009216797239155664,-0.0001266646317663178,0.0009819509108637855,0.0001635200993820148,2.0406350145671684e-05,0.00013612052080691153,2.6739576191772113e-05,0.14510458707809448,11.675561904907227,-1.2156097888946533,-21.868013381958008,-0.3555198311805725,-2.5335726737976074,0.21457235515117645,0
68,0.3349943161010742,-0.14510458707809448,-11.675561904907227,1.2156097888946533,21.868013381958008,0.3555198311805725,2.5335726737976074,-0.21457235515117645,0.0,0.0,0.0,0.0,0.0,0.0,0.0,-0.16390267587783977,0.6639801927141344,-0.007488246345176334,0.5587843547976941,-0.17454486395411534,0.12973267686964338,-0.2219900645658444,0.17284510068098705,-0.4875518891691481,-0.11142593234343967,-1.9462580843306425,0.13360734150183265,2.5955448793305287,0.9452484260116398,0.1728802376190821,-0.48752024683155326,-0.11147110072896137,-1.9463801863486305,0.1336059019074957,2.595550359778934,0.9452445589611904,-0.0009216797239155664,0.0001266646317663178,-0.0009819509108637855,-0.0001635200993820148,-2.0406350145671684e-05,-0.00013612052080691153,-2.6739576191772113e-05,0.0,0.0,0.0,0.0,0.0,0.0,0.0,3.513693809506502e-05,3.1642337594839365e-05,-4.516838552169611e-05,-0.0001221020179880128,-1.4395943369605035e-06,5.48044840531503e-06,-3.867050449413156e-06,0.0009216797239155664,-0.0001266646317663178,0.0009819509108637855,0.0001635200993820148,2.0406350145671684e-05,0.00013612052080691153,2.6739576191772113e-05,0.14510458707809448,11.675561904907227,-1.2156097888946533,-21.868013381958008,-0.3555198311805725,-2.5335726737976074,0.21457235515117645,0
69,0.3399996757507324,-0.14510458707809448,-11.675561904907227,1.2156097888946533,21.868013381958008,0.3555198311805725,2.5335726737976074,-0.21457235515117645,0.0,0.0,0.0,0.0,0.0,0.0,0.0,-0.16390267587783977,0.6639801927141344,-0.007488246345176334,0.5587843547976941,-0.17454486395411534,0.12973267686964338,-0.2219900645658444,0.17284510068098705,-0.4875518891691481,-0.11142593234343967,-1.9462580843306425,0.13360734150183265,2.5955448793305287,0.9452484260116398,0.1728802376190821,-0.48752024683155326,-0.11147110072896137,-1.9463801863486305,0.1336059019074957,2.595550359778934,0.9452445589611904,-0.0009216797239155664,0.0001266646317663178,-0.0009819509108637855,-0.0001635200993820148,-2.0406350145671684e-05,-0.00013612052080691153,-2.6739576191772113e-05,0.0,0.0,0.0,0.0,0.0,0.0,0.0,3.513693809506502e-05,3.1642337594839365e-05,-4.516838552169611e-05,-0.0001221020179880128,-1.4395943369605035e-06,5.48044840531503e-06,-3.867050449413156e-06,0.0009216797239155664,-0.0001266646317663178,0.0009819509108637855,0.0001635200993820148,2.0406350145671684e-05,0.00013612052080691153,2.6739576191772113e-05,0.14510458707809448,11.675561904907227,-1.2156097888946533,-21.868013381958008,-0.3555198311805725,-2.5335726737976074,0.21457235515117645,0
70,0.34499287605285645,-0.14510458707809448,-11.675561904907227,1.2156097888946533,21.868013381958008,0.3555198311805725,2.5335726737976074,-0.21457235515117645,0.0,0.0,0.0,0.0,0.0,0.0,0.0,-0.16390267587783977,0.6639801927141344,-0.007488246345176334,0.5587843547976941,-0.17454486395411534,0.12973267686964338,-0.2219900645658444,0.17284510068098705,-0.4875518891691481,-0.11142593234343967,-1.9462580843306425,0.13360734150183265,2.5955448793305287,0.9452484260116398,0.1728802376190821,-0.48752024683155326,-0.11147110072896137,-1.9463801863486305,0.1336059019074957,2.595550359778934,0.9452445589611904,-0.0009216797239155664,0.0001266646317663178,-0.0009819509108637855,-0.0001635200993820148,-2.0406350145671684e-05,-0.00013612052080691153,-2.6739576191772113e-05,0.0,0.0,0.0,0.0,0.0,0.0,0.0,3.513693809506502e-05,3.1642337594839365e-05,-4.516838552169611e-05,-0.0001221020179880128,-1.4395943369605035e-06,5.48044840531503e-06,-3.867050449413156e-06,0.0009216797239155664,-0.0001266646317663178,0.0009819509108637855,0.0001635200993820148,2.0406350145671684e-05,0.00013612052080691153,2.6739576191772113e-05,0.14510458707809448,11.675561904907227,-1.2156097888946533,-21.868013381958008,-0.3555198311805725,-2.5335726737976074,0.21457235515117645,0
71,0.3499917984008789,-0.14510458707809448,-11.675561904907227,1.2156097888946533,21.840242385864258,0.3619285225868225,2.5335726737976074,-0.24112264811992645,0.0,0.0,0.0,0.0,0.0,0.0,0.0,-0.15777634050376724,0.6739281047763148,0.0033513128953001786,0.5505161603718204,-0.1757645114158593,0.12783089645910098,-0.22243910512808046,0.17284510068098705,-0.4875514465730373,-0.11142356765041211,-1.9462561354888113,0.13360358356470753,2.595544526117819,0.9452513745543114,0.1728802376190821,-0.48752024683155326,-0.11147110072896137,-1.9463801863486305,0.1336059019074957,2.595550359778934,0.9452445589611904,-0.00022836753149020215,2.907441475197403e-05,-0.00027249733860074934,-0.00021767249601445675,-0.0001238162576748548,-0.0003626266724122366,0.0011226413344672251,0.0,0.0,0.0,0.0,0.0,0.0,0.0,3.513693809506502e-05,3.11997414840226e-05,-4.7533078549252816e-05,-0.000124050859819258,2.3183427881601215e-06,5.8336611150622275e-06,-6.8155931209901155e-06,0.00022836753149020215,-2.907441475197403e-05,0.00027249733860074934,0.00021767249601445675,0.0001238162576748548,0.0003626266724122366,-0.0011226413344672251,0.14510458707809448,11.675561904907227,-1.2156097888946533,-21.840242385864258,-0.3619285225868225,-2.5335726737976074,0.24112264811992645,0
72,0.35501837730407715,-0.14510458707809448,-11.675561904907227,1.2156097888946533,21.840242385864258,0.3619285225868225,2.5335726737976074,-0.24112264811992645,0.0,0.0,0.0,0.0,0.0,0.0,0.0,-0.15777634050376724,0.6739281047763148,0.0033513128953001786,0.5505161603718204,-0.1757645114158593,0.12783089645910098,-0.22243910512808046,0.17284510068098705,-0.4875514465730373,-0.11142356765041211,-1.9462561354888113,0.13360358356470753,2.595544526117819,0.9452513745543114,0.1728802376190821,-0.48752024683155326,-0.11147110072896137,-1.9463801863486305,0.1336059019074957,2.595550359778934,0.9452445589611904,-0.00022836753149020215,2.907441475197403e-05,-0.00027249733860074934,-0.00021767249601445675,-0.0001238162576748548,-0.0003626266724122366,0.0011226413344672251,0.0,0.0,0.0,0.0,0.0,0.0,0.0,3.513693809506502e-05,3.11997414840226e-05,-4.7533078549252816e-05,-0.000124050859819258,2.3183427881601215e-06,5.8336611150622275e-06,-6.8155931209901155e-06,0.00022836753149020215,-2.907441475197403e-05,0.00027249733860074934,0.00021767249601445675,0.0001238162576748548,0.0003626266724122366,-0.0011226413344672251,0.14510458707809448,11.675561904907227,-1.2156097888946533,-21.840242385864258,-0.3619285225868225,-2.5335726737976074,0.24112264811992645,0
73,0.35999250411987305,-0.14510458707809448,-11.627954483032227,1.1918060779571533,21.840242385864258,0.3674216866493225,2.5207552909851074,-0.20724813640117645,0.0,0.0,0.0,0.0,0.0,0.0,0.0,-0.1604496729837148,0.679076134112971,-0.003603795808308692,0.5466814073041647,-0.17536914344509671,0.1273821560364211,-0.22354187760863956,0.17284510068098705,-0.48755239825853347,-0.1114218942782094,-1.946256214961671,0.1336026221635666,2.595546303482181,0.9452476107196676,0.1728802376190821,-0.48752024683155326,-0.11147110072896137,-1.9463801863486305,0.1336059019074957,2.595550359778934,0.9452445589611904,0.00012753628499165065,-0.0005230571093214649,-7.855933255428438e-05,-0.00025492020643683806,-0.0002389414088616456,0.00033453928256443183,-0.00012448146573056012,0.0,0.0,0.0,0.0,0.0,0.0,0.0,3.513693809506502e-05,3.215142698020923e-05,-4.9206450751973496e-05,-0.0001239713869596315,3.2797439290799257e-06,4.056296753152111e-06,-3.051758477146116e-06,-0.00012753628499165065,0.0005230571093214649,7.855933255428438e-05,0.00025492020643683806,0.0002389414088616456,-0.00033453928256443183,0.00012448146573056012,0.14510458707809448,11.627954483032227,-1.1918060779571533,-21.840242385864258,-0.3674216866493225,-2.5207552909851074,0.20724813640117645,0
74,0.364992618560791,-0.14510458707809448,-11.627954483032227,1.1918060779571533,21.840242385864258,0.3674216866493225,2.5207552909851074,-0.20724813640117645,0.0,0.0,0.0,0.0,0.0,0.0,0.0,-0.1604496729837148,0.679076134112971,-0.003603795808308692,0.5466814073041647,-0.17536914344509671,0.1273821560364211,-0.22354187760863956,0.17284510068098705,-0.48755239825853347,-0.1114218942782094,-1.946256214961671,0.1336026221635666,2.595546303482181,0.9452476107196676,0.1728802376190821,-0.48752024683155326,-0.11147110072896137,-1.9463801863486305,0.1336059019074957,2.595550359778934,0.9452445589611904,0.00012753628499165065,-0.0005230571093214649,-7.855933255428438e-05,-0.00025492020643683806,-0.0002389414088616456,0.00033453928256443183,-0.00012448146573056012,0.0,0.0,0.0,0.0,0.0,0.0,0.0,3.513693809506502e-05,3.215142698020923e-05,-4.9206450751973496e-05,-0.0001239713869596315,3.2797439290799257e-06,4.056296753152111e-06,-3.051758477146116e-06,-0.00012753628499165065,0.0005230571093214649,7.855933255428438e-05,0.00025492020643683806,0.0002389414088616456,-0.00033453928256443183,0.00012448146573056012,0.14510458707809448,11.627954483032227,-1.1918060779571533,-21.840242385864258,-0.3674216866493225,-2.5207552909851074,0.20724813640117645,0
75,0.3700063228607178,-0.14510458707809448,-11.651758193969727,1.1918060779571533,21.816438674926758,0.3619285225868225,2.5143465995788574,-0.17337362468242645,0.0,0.0,0.0,0.0,0.0,0.0,0.0,-0.16200967460417726,0.6624514136681815,-0.011072484610414355,0.5567248757217845,-0.17442376169252238,0.12862372979316586,-0.2247679860594201,0.17284510068098705,-0.4875508297316634,-0.11142189330385992,-1.9462544650534046,0.1336032022853588,2.595547015560997,0.9452438469402132,0.1728802376190821,-0.48752024683155326,-0.11147110072896137,-1.9463801863486305,0.1336059019074957,2.595550359778934,0.9452445589611904,-0.00016511934124355094,-0.00012281454473185577,-0.000343940371871013,0.0009613753986786585,-0.00011032081778236381,0.00020911723656420864,-0.0020078938006227003,0.0,0.0,0.0,0.0,0.0,0.0,0.0,3.513693809506502e-05,3.05829001101543e-05,-4.92074251014496e-05,-0.00012572129522592235,2.6996221368924544e-06,3.344217936795957e-06,7.120209771782626e-07,0.00016511934124355094,0.00012281454473185577,0.000343940371871013,-0.0009613753986786585,0.00011032081778236381,-0.00020911723656420864,0.0020078938006227003,0.14510458707809448,11.651758193969727,-1.1918060779571533,-21.816438674926758,-0.3619285225868225,-2.5143465995788574,0.17337362468242645,0
76,0.37499308586120605,-0.14510458707809448,-11.651758193969727,1.1918060779571533,21.816438674926758,0.3619285225868225,2.5143465995788574,-0.17337362468242645,0.0,0.0,0.0,0.0,0.0,0.0,0.0,-0.16200967460417726,0.6624514136681815,-0.011072484610414355,0.5567248757217845,-0.17442376169252238,0.12862372979316586,-0.2247679860594201,0.17284510068098705,-0.4875508297316634,-0.11142189330385992,-1.9462544650534046,0.1336032022853588,2.595547015560997,0.9452438469402132,0.1728802376190821,-0.48752024683155326,-0.11147110072896137,-1.9463801863486305,0.1336059019074957,2.595550359778934,0.9452445589611904,-0.00016511934124355094,-0.00012281454473185577,-0.000343940371871013,0.0009613753986786585,-0.00011032081778236381,0.00020911723656420864,-0.0020078938006227003,0.0,0.0,0.0,0.0,0.0,0.0,0.0,3.513693809506502e-05,3.05829001101543e-05,-4.92074251014496e-05,-0.00012572129522592235,2.6996221368924544e-06,3.344217936795957e-06,7.120209771782626e-07,0.00016511934124355094,0.00012281454473185577,0.000343940371871013,-0.0009613753986786585,0.00011032081778236381,-0.00020911723656420864,0.0020078938006227003,0.14510458707809448,11.651758193969727,-1.1918060779571533,-21.816438674926758,-0.3619285225868225,-2.5143465995788574,0.17337362468242645,0
77,0.38000917434692383,-0.14510458707809448,-11.627954483032227,1.1918060779571533,21.840242385864258,0.3619285225868225,2.5271639823913574,-0.18710653483867645,0.0,0.0,0.0,0.0,0.0,0.0,0.0,-0.15749959256162543,0.6765925795697137,-0.008128656668260232,0.5510773875428088,-0.17445348487793486,0.1268524687317322,-0.22593699627078365,0.17284510068098705,-0.48755453289317424,-0.11142284068021015,-1.9462561354888113,0.13360312449467826,2.5955455914073515,0.9452453727639387,0.1728802376190821,-0.48752024683155326,-0.11147110072896137,-1.9463801863486305,0.1336059019074957,2.595550359778934,0.9452445589611904,-0.0006888077645660604,-5.995918630902315e-05,-0.0001406875019684053,-7.268375878382384e-05,-6.969031323418018e-06,6.051412377292114e-06,-0.0012011078272536853,0.0,0.0,0.0,0.0,0.0,0.0,0.0,3.513693809506502e-05,3.428606162098058e-05,-4.82600487512197e-05,-0.000124050859819258,2.777412817428493e-06,4.768371582475339e-06,-8.138027483006738e-07,0.0006888077645660604,5.995918630902315e-05,0.0001406875019684053,7.268375878382384e-05,6.969031323418018e-06,-6.051412377292114e-06,0.0012011078272536853,0.14510458707809448,11.627954483032227,-1.1918060779571533,-21.840242385864258,-0.3619285225868225,-2.5271639823913574,0.18710653483867645,0
78,0.384993314743042,-0.14510458707809448,-11.627954483032227,1.1918060779571533,21.840242385864258,0.3619285225868225,2.5271639823913574,-0.18710653483867645,0.0,0.0,0.0,0.0,0.0,0.0,0.0,-0.15749959256162543,0.6765925795697137,-0.008128656668260232,0.5510773875428088,-0.17445348487793486,0.1268524687317322,-0.22593699627078365,0.17284510068098705,-0.48755453289317424,-0.11142284068021015,-1.9462561354888113,0.13360312449467826,2.5955455914073515,0.9452453727639387,0.1728802376190821,-0.48752024683155326,-0.11147110072896137,-1.9463801863486305,0.1336059019074957,2.595550359778934,0.9452445589611904,-0.0006888077645660604,-5.995918630902315e-05,-0.0001406875019684053,-7.268375878382384e-05,-6.969031323418018e-06,6.051412377292114e-06,-0.0012011078272536853,0.0,0.0,0.0,0.0,0.0,0.0,0.0,3.513693809506502e-05,3.428606162098058e-05,-4.82600487512197e-05,-0.000124050859819258,2.777412817428493e-06,4.768371582475339e-06,-8.138027483006738e-07,0.0006888077645660604,5.995918630902315e-05,0.0001406875019684053,7.268375878382384e-05,6.969031323418018e-06,-6.051412377292114e-06,0.0012011078272536853,0.14510458707809448,11.627954483032227,-1.1918060779571533,-21.840242385864258,-0.3619285225868225,-2.5271639823913574,0.18710653483867645,0
79,0.39000773429870605,-0.12130087614059448,-11.699365615844727,1.1918060779571533,21.891817092895508,0.3674216866493225,2.5207552909851074,-0.21457235515117645,0.0,0.0,0.0,0.0,0.0,0.0,0.0,-0.15418903302067402,0.6641946014377006,0.0011024966019630058,0.5591707822337695,-0.1746417710724806,0.12793287654352387,-0.2261072916724988,0.17284343024513177,-0.4875481800320257,-0.11142403327972276,-1.9462597547664977,0.13360246143426074,2.5955463034841744,0.9452484245217508,0.1728802376190821,-0.48752024683155326,-0.11147110072896137,-1.9463801863486305,0.1336059019074957,2.595550359778934,0.9452445589611904,-0.0005854662884819243,0.0008213490921366122,0.0002446833446393934,-0.0011477372840724884,-0.00026162035712311266,0.0003198756585133634,0.000336037028099339,0.0,0.0,0.0,0.0,0.0,0.0,0.0,3.6807373950342726e-05,2.7933200472451958e-05,-4.706744923860251e-05,-0.00012043158213281835,3.4404732349446743e-06,4.056294759635648e-06,-3.865560560423198e-06,0.0005854662884819243,-0.0008213490921366122,-0.0002446833446393934,0.0011477372840724884,0.00026162035712311266,-0.0003198756585133634,-0.000336037028099339,0.12130087614059448,11.699365615844727,-1.1918060779571533,-21.891817092895508,-0.3674216866493225,-2.5207552909851074,0.21457235515117645,0
