rezayati/contactInterpretation/dataset/franka_main/labeled_data/link5/c2_8.csv
index,time,tau_J0,tau_J1,tau_J2,tau_J3,tau_J4,tau_J5,tau_J6,tau_J_d0,tau_J_d1,tau_J_d2,tau_J_d3,tau_J_d4,tau_J_d5,tau_J_d6,tau_ext0,tau_ext1,tau_ext2,tau_ext3,tau_ext4,tau_ext5,tau_ext6,q0,q1,q2,q3,q4,q5,q6,q_d0,q_d1,q_d2,q_d3,q_d4,q_d5,q_d6,dq0,dq1,dq2,dq3,dq4,dq5,dq6,dq_d0,dq_d1,dq_d2,dq_d3,dq_d4,dq_d5,dq_d6,e0,e1,e2,e3,e4,e5,e6,de0,de1,de2,de3,de4,de5,de6,etau_J0,etau_J1,etau_J2,etau_J3,etau_J4,etau_J5,etau_J6,label
1,0.0,-0.2720577120780945,-22.720483779907227,0.001620553433895111,14.155611038208008,0.1888938546180725,2.1389803886413574,-0.27591270208358765,0.0,0.0,0.0,0.0,0.0,0.0,0.0,-0.2809887385265264,0.0927677030280605,-0.07700096453689749,0.28363908139477373,-0.03869086567772566,-0.04877960166049112,-0.2580572534422837,1.6755086763741676,0.05207198064410818,0.02994447191321013,-2.7523990921555903,0.03424430970244522,2.766368666383955,0.769165472059338,1.6754973547542302,0.052104326824870026,0.029969505109285054,-2.752394845125968,0.0342448039870148,2.7663679543071322,0.7691630533470046,-0.0005666785395122562,0.0007371461720496811,0.0003996244433315218,-0.00024882921925313523,7.726615529286388e-05,-7.026003085841208e-05,0.0006474739946819656,0.0,0.0,0.0,0.0,0.0,0.0,0.0,-1.1321619937332272e-05,3.234618076184553e-05,2.5033196074924352e-05,4.247029622206355e-06,4.942845695798948e-07,-7.120768228396912e-07,-2.4187123334185046e-06,0.0005666785395122562,-0.0007371461720496811,-0.0003996244433315218,0.00024882921925313523,-7.726615529286388e-05,7.026003085841208e-05,-0.0006474739946819656,0.2720577120780945,22.720483779907227,-0.001620553433895111,-14.155611038208008,-0.1888938546180725,-2.1389803886413574,0.27591270208358765,0
2,0.004995822906494141,-0.2720577120780945,-22.696680068969727,-0.04995415359735489,14.179414749145508,0.1888938546180725,2.1453890800476074,-0.25485557317733765,0.0,0.0,0.0,0.0,0.0,0.0,0.0,-0.2812261759248867,0.09012856894920365,-0.0785862402225588,0.2881526648564441,-0.03861972207912025,-0.04793458384285686,-0.25741301299632563,1.6755066100914795,0.052072438470627806,0.029948091190896534,-2.7524007625914457,0.03424111389120144,2.7663679543071322,0.7691663554261309,1.6754973547542302,0.052104326824870026,0.029969505109285054,-2.752394845125968,0.0342448039870148,2.7663679543071322,0.7691630533470046,-3.710347801528511e-05,2.1610528699120014e-05,0.000999128513444355,-0.0001730632105359949,6.63229915447352e-05,-0.0003631957768564038,-0.00012588602477339852,0.0,0.0,0.0,0.0,0.0,0.0,0.0,-9.255337249269857e-06,3.188835424221964e-05,2.1413918388519387e-05,5.917465477622841e-06,3.6900958133578854e-06,0.0,-3.3020791262439175e-06,3.710347801528511e-05,-2.1610528699120014e-05,-0.000999128513444355,0.0001730632105359949,-6.63229915447352e-05,0.0003631957768564038,0.00012588602477339852,0.2720577120780945,22.696680068969727,0.04995415359735489,-14.179414749145508,-0.1888938546180725,-2.1453890800476074,0.25485557317733765,0
3,0.010009288787841797,-0.2720577120780945,-22.696680068969727,-0.04995415359735489,14.179414749145508,0.1888938546180725,2.1453890800476074,-0.25485557317733765,0.0,0.0,0.0,0.0,0.0,0.0,0.0,-0.2812261759248867,0.09012856894920365,-0.0785862402225588,0.2881526648564441,-0.03861972207912025,-0.04793458384285686,-0.25741301299632563,1.6755066100914795,0.052072438470627806,0.029948091190896534,-2.7524007625914457,0.03424111389120144,2.7663679543071322,0.7691663554261309,1.6754973547542302,0.052104326824870026,0.029969505109285054,-2.752394845125968,0.0342448039870148,2.7663679543071322,0.7691630533470046,-3.710347801528511e-05,2.1610528699120014e-05,0.000999128513444355,-0.0001730632105359949,6.63229915447352e-05,-0.0003631957768564038,-0.00012588602477339852,0.0,0.0,0.0,0.0,0.0,0.0,0.0,-9.255337249269857e-06,3.188835424221964e-05,2.1413918388519387e-05,5.917465477622841e-06,3.6900958133578854e-06,0.0,-3.3020791262439175e-06,3.710347801528511e-05,-2.1610528699120014e-05,-0.000999128513444355,0.0001730632105359949,-6.63229915447352e-05,0.0003631957768564038,0.00012588602477339852,0.2720577120780945,22.696680068969727,0.04995415359735489,-14.179414749145508,-0.1888938546180725,-2.1453890800476074,0.25485557317733765,0
4,0.014997720718383789,-0.2998287081718445,-22.696680068969727,0.001620553433895111,14.155611038208008,0.1834006905555725,2.1325716972351074,-0.26217979192733765,0.0,0.0,0.0,0.0,0.0,0.0,0.0,-0.2798119570269633,0.08563671681997041,-0.07982578967631875,0.287506804737779,-0.03927017007629069,-0.047881620524769276,-0.2582157371192837,1.6755085589216465,0.05207038896514476,0.02994447191321013,-2.7523990918164287,0.03424492052379958,2.7663693784607783,0.7691671692464085,1.6754973547542302,0.052104326824870026,0.029969505109285054,-2.752394845125968,0.0342448039870148,2.7663679543071322,0.7691630533470046,0.0006759463627454493,-0.0006736941965530639,-0.0004736065977054723,0.00012809550724517173,0.0004852346995213619,0.00025166670086489,-0.000405617212548744,0.0,0.0,0.0,0.0,0.0,0.0,0.0,-1.1204167416289934e-05,3.3937859725267916e-05,2.5033196074924352e-05,4.246690460618652e-06,-1.1653678477774321e-07,-1.4241536461234716e-06,-4.115899403855927e-06,-0.0006759463627454493,0.0006736941965530639,0.0004736065977054723,-0.00012809550724517173,-0.0004852346995213619,-0.00025166670086489,0.000405617212548744,0.2998287081718445,22.696680068969727,-0.001620553433895111,-14.155611038208008,-0.1834006905555725,-2.1325716972351074,0.26217979192733765,0
5,0.019997835159301758,-0.2998287081718445,-22.696680068969727,0.001620553433895111,14.155611038208008,0.1834006905555725,2.1325716972351074,-0.26217979192733765,0.0,0.0,0.0,0.0,0.0,0.0,0.0,-0.2798119570269633,0.08563671681997041,-0.07982578967631875,0.287506804737779,-0.03927017007629069,-0.047881620524769276,-0.2582157371192837,1.6755085589216465,0.05207038896514476,0.02994447191321013,-2.7523990918164287,0.03424492052379958,2.7663693784607783,0.7691671692464085,1.6754973547542302,0.052104326824870026,0.029969505109285054,-2.752394845125968,0.0342448039870148,2.7663679543071322,0.7691630533470046,0.0006759463627454493,-0.0006736941965530639,-0.0004736065977054723,0.00012809550724517173,0.0004852346995213619,0.00025166670086489,-0.000405617212548744,0.0,0.0,0.0,0.0,0.0,0.0,0.0,-1.1204167416289934e-05,3.3937859725267916e-05,2.5033196074924352e-05,4.246690460618652e-06,-1.1653678477774321e-07,-1.4241536461234716e-06,-4.115899403855927e-06,-0.0006759463627454493,0.0006736941965530639,0.0004736065977054723,-0.00012809550724517173,-0.0004852346995213619,-0.00025166670086489,0.000405617212548744,0.2998287081718445,22.696680068969727,-0.001620553433895111,-14.155611038208008,-0.1834006905555725,-2.1325716972351074,0.26217979192733765,0
6,0.024997711181640625,-0.2720577120780945,-22.720483779907227,0.02542426437139511,14.155611038208008,0.1888938546180725,2.1389803886413574,-0.28964561223983765,0.0,0.0,0.0,0.0,0.0,0.0,0.0,-0.24529137741165016,0.0864803013066033,-0.04852877441431898,0.28627669624276786,-0.04250373300602027,-0.04869708028096871,-0.2597548735167429,1.6755066100798153,0.05207221704739524,0.029942801477354865,-2.7523990921555885,0.034244310190280174,2.766368666383955,0.769170221004221,1.6754973547542302,0.052104326824870026,0.029969505109285054,-2.752394845125968,0.0342448039870148,2.7663679543071322,0.7691630533470046,-0.0003974265504637809,-1.2145094637065469e-05,-0.001800045377158884,-4.6412324849099737e-05,0.00019626678973880076,-0.00020508956854167233,0.0011837077970648993,0.0,0.0,0.0,0.0,0.0,0.0,0.0,-9.255325585044716e-06,3.2109777474788326e-05,2.6703631930188182e-05,4.2470296204299984e-06,4.937967346269057e-07,-7.120768228396912e-07,-7.1676572164225405e-06,0.0003974265504637809,1.2145094637065469e-05,0.001800045377158884,4.6412324849099737e-05,-0.00019626678973880076,0.00020508956854167233,-0.0011837077970648993,0.2720577120780945,22.720483779907227,-0.02542426437139511,-14.155611038208008,-0.1888938546180725,-2.1389803886413574,0.28964561223983765,0
7,0.029999971389770508,-0.2720577120780945,-22.720483779907227,0.02542426437139511,14.155611038208008,0.1888938546180725,2.1389803886413574,-0.28964561223983765,0.0,0.0,0.0,0.0,0.0,0.0,0.0,-0.24529137741165016,0.0864803013066033,-0.04852877441431898,0.28627669624276786,-0.04250373300602027,-0.04869708028096871,-0.2597548735167429,1.6755066100798153,0.05207221704739524,0.029942801477354865,-2.7523990921555885,0.034244310190280174,2.766368666383955,0.769170221004221,1.6754973547542302,0.052104326824870026,0.029969505109285054,-2.752394845125968,0.0342448039870148,2.7663679543071322,0.7691630533470046,-0.0003974265504637809,-1.2145094637065469e-05,-0.001800045377158884,-4.6412324849099737e-05,0.00019626678973880076,-0.00020508956854167233,0.0011837077970648993,0.0,0.0,0.0,0.0,0.0,0.0,0.0,-9.255325585044716e-06,3.2109777474788326e-05,2.6703631930188182e-05,4.2470296204299984e-06,4.937967346269057e-07,-7.120768228396912e-07,-7.1676572164225405e-06,0.0003974265504637809,1.2145094637065469e-05,0.001800045377158884,4.6412324849099737e-05,-0.00019626678973880076,0.00020508956854167233,-0.0011837077970648993,0.2720577120780945,22.720483779907227,-0.02542426437139511,-14.155611038208008,-0.1888938546180725,-2.1389803886413574,0.28964561223983765,0
8,0.03499770164489746,-0.2720577120780945,-22.720483779907227,-0.02615044265985489,14.155611038208008,0.1953025460243225,2.1389803886413574,-0.26858848333358765,0.0,0.0,0.0,0.0,0.0,0.0,0.0,-0.2790995069987194,0.08744576411500911,-0.08139594764368319,0.2946986181422617,-0.03963846088512572,-0.046496296517054815,-0.2609787402152929,1.6755066100798153,0.05207200680073105,0.02994642075504127,-2.752399009739291,0.03424359811345736,2.766368666383955,0.7691678813232314,1.6754973547542302,0.052104326824870026,0.029969505109285054,-2.752394845125968,0.0342448039870148,2.7663679543071322,0.7691630533470046,-0.0002115486802533073,0.0006600831272803531,0.0005295448414307353,0.00020844637312994232,-0.00020709279573781218,-0.000942777628517609,0.0007724192425983405,0.0,0.0,0.0,0.0,0.0,0.0,0.0,-9.255325585044716e-06,3.232002413897789e-05,2.3084354243783217e-05,4.164613323087707e-06,1.2058735574388413e-06,-7.120768228396912e-07,-4.827976226806641e-06,0.0002115486802533073,-0.0006600831272803531,-0.0005295448414307353,-0.00020844637312994232,0.00020709279573781218,0.000942777628517609,-0.0007724192425983405,0.2720577120780945,22.720483779907227,0.02615044265985489,-14.155611038208008,-0.1953025460243225,-2.1389803886413574,0.26858848333358765,0
9,0.039999961853027344,-0.2720577120780945,-22.720483779907227,-0.02615044265985489,14.155611038208008,0.1953025460243225,2.1389803886413574,-0.26858848333358765,0.0,0.0,0.0,0.0,0.0,0.0,0.0,-0.2790995069987194,0.08744576411500911,-0.08139594764368319,0.2946986181422617,-0.03963846088512572,-0.046496296517054815,-0.2609787402152929,1.6755066100798153,0.05207200680073105,0.02994642075504127,-2.752399009739291,0.03424359811345736,2.766368666383955,0.7691678813232314,1.6754973547542302,0.052104326824870026,0.029969505109285054,-2.752394845125968,0.0342448039870148,2.7663679543071322,0.7691630533470046,-0.0002115486802533073,0.0006600831272803531,0.0005295448414307353,0.00020844637312994232,-0.00020709279573781218,-0.000942777628517609,0.0007724192425983405,0.0,0.0,0.0,0.0,0.0,0.0,0.0,-9.255325585044716e-06,3.232002413897789e-05,2.3084354243783217e-05,4.164613323087707e-06,1.2058735574388413e-06,-7.120768228396912e-07,-4.827976226806641e-06,0.0002115486802533073,-0.0006600831272803531,-0.0005295448414307353,-0.00020844637312994232,0.00020709279573781218,0.000942777628517609,-0.0007724192425983405,0.2720577120780945,22.720483779907227,0.02615044265985489,-14.155611038208008,-0.1953025460243225,-2.1389803886413574,0.26858848333358765,0
10,0.0457911491394043,-0.2720577120780945,-22.720483779907227,0.02542426437139511,14.179414749145508,0.1888938546180725,2.1389803886413574,-0.24844686686992645,0.0,0.0,0.0,0.0,0.0,0.0,0.0,-0.28518280669552015,0.0911754745144772,-0.08938993877461093,0.287299486460807,-0.039241684655309104,-0.04859765396042296,-0.26065665595305126,1.6755066100798153,0.05207198928288268,0.029942801477354865,-2.7524007625909803,0.034244257035007664,2.766368666383955,0.7691656433658466,1.6754973547542302,0.052104326824870026,0.029969505109285054,-2.752394845125968,0.0342448039870148,2.7663679543071322,0.7691630533470046,-0.0003182214341777381,0.0008409538003122468,-0.00048294804645104735,-0.0006509900992437051,0.0001423389164945862,-3.129588488524829e-05,-0.0002631324277757143,0.0,0.0,0.0,0.0,0.0,0.0,0.0,-9.255325585044716e-06,3.233754198734423e-05,2.6703631930188182e-05,5.917465012217349e-06,5.469520071368916e-07,-7.120768228396912e-07,-2.590018841952535e-06,0.0003182214341777381,-0.0008409538003122468,0.00048294804645104735,0.0006509900992437051,-0.0001423389164945862,3.129588488524829e-05,0.0002631324277757143,0.2720577120780945,22.720483779907227,-0.02542426437139511,-14.179414749145508,-0.1888938546180725,-2.1389803886413574,0.24844686686992645,0
11,0.05001974105834961,-0.2720577120780945,-22.720483779907227,0.02542426437139511,14.179414749145508,0.1888938546180725,2.1389803886413574,-0.24844686686992645,0.0,0.0,0.0,0.0,0.0,0.0,0.0,-0.28518280669552015,0.0911754745144772,-0.08938993877461093,0.287299486460807,-0.039241684655309104,-0.04859765396042296,-0.26065665595305126,1.6755066100798153,0.05207198928288268,0.029942801477354865,-2.7524007625909803,0.034244257035007664,2.766368666383955,0.7691656433658466,1.6754973547542302,0.052104326824870026,0.029969505109285054,-2.752394845125968,0.0342448039870148,2.7663679543071322,0.7691630533470046,-0.0003182214341777381,0.0008409538003122468,-0.00048294804645104735,-0.0006509900992437051,0.0001423389164945862,-3.129588488524829e-05,-0.0002631324277757143,0.0,0.0,0.0,0.0,0.0,0.0,0.0,-9.255325585044716e-06,3.233754198734423e-05,2.6703631930188182e-05,5.917465012217349e-06,5.469520071368916e-07,-7.120768228396912e-07,-2.590018841952535e-06,0.0003182214341777381,-0.0008409538003122468,0.00048294804645104735,0.0006509900992437051,-0.0001423389164945862,3.129588488524829e-05,0.0002631324277757143,0.2720577120780945,22.720483779907227,-0.02542426437139511,-14.179414749145508,-0.1888938546180725,-2.1389803886413574,0.24844686686992645,0
12,0.05502772331237793,-0.2720577120780945,-22.720483779907227,0.02542426437139511,14.179414749145508,0.1888938546180725,2.1389803886413574,-0.24844686686992645,0.0,0.0,0.0,0.0,0.0,0.0,0.0,-0.28518280669552015,0.0911754745144772,-0.08938993877461093,0.287299486460807,-0.039241684655309104,-0.04859765396042296,-0.26065665595305126,1.6755066100798153,0.05207198928288268,0.029942801477354865,-2.7524007625909803,0.034244257035007664,2.766368666383955,0.7691656433658466,1.6754973547542302,0.052104326824870026,0.029969505109285054,-2.752394845125968,0.0342448039870148,2.7663679543071322,0.7691630533470046,-0.0003182214341777381,0.0008409538003122468,-0.00048294804645104735,-0.0006509900992437051,0.0001423389164945862,-3.129588488524829e-05,-0.0002631324277757143,0.0,0.0,0.0,0.0,0.0,0.0,0.0,-9.255325585044716e-06,3.233754198734423e-05,2.6703631930188182e-05,5.917465012217349e-06,5.469520071368916e-07,-7.120768228396912e-07,-2.590018841952535e-06,0.0003182214341777381,-0.0008409538003122468,0.00048294804645104735,0.0006509900992437051,-0.0001423389164945862,3.129588488524829e-05,0.0002631324277757143,0.2720577120780945,22.720483779907227,-0.02542426437139511,-14.179414749145508,-0.1888938546180725,-2.1389803886413574,0.24844686686992645,0
13,0.06002616882324219,-0.2720577120780945,-22.720483779907227,0.02542426437139511,14.179414749145508,0.1888938546180725,2.1389803886413574,-0.24844686686992645,0.0,0.0,0.0,0.0,0.0,0.0,0.0,-0.28518280669552015,0.0911754745144772,-0.08938993877461093,0.287299486460807,-0.039241684655309104,-0.04859765396042296,-0.26065665595305126,1.6755066100798153,0.05207198928288268,0.029942801477354865,-2.7524007625909803,0.034244257035007664,2.766368666383955,0.7691656433658466,1.6754973547542302,0.052104326824870026,0.029969505109285054,-2.752394845125968,0.0342448039870148,2.7663679543071322,0.7691630533470046,-0.0003182214341777381,0.0008409538003122468,-0.00048294804645104735,-0.0006509900992437051,0.0001423389164945862,-3.129588488524829e-05,-0.0002631324277757143,0.0,0.0,0.0,0.0,0.0,0.0,0.0,-9.255325585044716e-06,3.233754198734423e-05,2.6703631930188182e-05,5.917465012217349e-06,5.469520071368916e-07,-7.120768228396912e-07,-2.590018841952535e-06,0.0003182214341777381,-0.0008409538003122468,0.00048294804645104735,0.0006509900992437051,-0.0001423389164945862,3.129588488524829e-05,0.0002631324277757143,0.2720577120780945,22.720483779907227,-0.02542426437139511,-14.179414749145508,-0.1888938546180725,-2.1389803886413574,0.24844686686992645,0
14,0.06495285034179688,-0.2720577120780945,-22.696680068969727,0.02542426437139511,14.155611038208008,0.2007957100868225,2.1325716972351074,-0.25485557317733765,0.0,0.0,0.0,0.0,0.0,0.0,0.0,-0.28245040793823933,0.09234933809116166,-0.08551642900131307,0.2873910742551314,-0.04000897743051617,-0.04839523475699613,-0.2594594458873562,1.6755066185830843,0.05207031300771169,0.029942801477354865,-2.7523990891031347,0.03424298630029549,2.7663693784607783,0.7691663554443252,1.6754973547542302,0.052104326824870026,0.029969505109285054,-2.752394845125968,0.0342448039870148,2.7663679543071322,0.7691630533470046,0.0001854060773316655,-0.00026619174445714246,-0.000616091020390007,0.00010060106420477604,-0.00017832143473106736,0.00025993342206575567,-0.00013717927506069907,0.0,0.0,0.0,0.0,0.0,0.0,0.0,-9.263828854022549e-06,3.401381715833346e-05,2.6703631930188182e-05,4.243977166584756e-06,1.8176867193075985e-06,-1.4241536461234716e-06,-3.302097320578845e-06,-0.0001854060773316655,0.00026619174445714246,0.000616091020390007,-0.00010060106420477604,0.00017832143473106736,-0.00025993342206575567,0.00013717927506069907,0.2720577120780945,22.696680068969727,-0.02542426437139511,-14.155611038208008,-0.2007957100868225,-2.1325716972351074,0.25485557317733765,0
15,0.07000088691711426,-0.2720577120780945,-22.696680068969727,0.02542426437139511,14.155611038208008,0.2007957100868225,2.1325716972351074,-0.25485557317733765,0.0,0.0,0.0,0.0,0.0,0.0,0.0,-0.28245040793823933,0.09234933809116166,-0.08551642900131307,0.2873910742551314,-0.04000897743051617,-0.04839523475699613,-0.2594594458873562,1.6755066185830843,0.05207031300771169,0.029942801477354865,-2.7523990891031347,0.03424298630029549,2.7663693784607783,0.7691663554443252,1.6754973547542302,0.052104326824870026,0.029969505109285054,-2.752394845125968,0.0342448039870148,2.7663679543071322,0.7691630533470046,0.0001854060773316655,-0.00026619174445714246,-0.000616091020390007,0.00010060106420477604,-0.00017832143473106736,0.00025993342206575567,-0.00013717927506069907,0.0,0.0,0.0,0.0,0.0,0.0,0.0,-9.263828854022549e-06,3.401381715833346e-05,2.6703631930188182e-05,4.243977166584756e-06,1.8176867193075985e-06,-1.4241536461234716e-06,-3.302097320578845e-06,-0.0001854060773316655,0.00026619174445714246,0.000616091020390007,-0.00010060106420477604,0.00017832143473106736,-0.00025993342206575567,0.00013717927506069907,0.2720577120780945,22.696680068969727,-0.02542426437139511,-14.155611038208008,-0.2007957100868225,-2.1325716972351074,0.25485557317733765,0
16,0.07510638236999512,-0.2998287081718445,-22.748254776000977,0.02542426437139511,14.155611038208008,0.2007957100868225,2.1389803886413574,-0.27591270208358765,0.0,0.0,0.0,0.0,0.0,0.0,0.0,-0.28411161865735984,0.09645716296717435,-0.0898028552479438,0.28684978906715314,-0.03920955251069812,-0.04873831949252399,-0.25837306315070785,1.6755085589216945,0.052073929365806154,0.029942801477354865,-2.752399092155573,0.03424298776188661,2.766368666383955,0.7691686951253148,1.6754973547542302,0.052104326824870026,0.029969505109285054,-2.752394845125968,0.0342448039870148,2.7663679543071322,0.7691630533470046,0.0004444133636467333,0.0016345667669956407,-0.0007055789228840562,0.00017304688055246896,-0.00032867151851138026,1.7614130925291907e-05,0.0009397251454403578,0.0,0.0,0.0,0.0,0.0,0.0,0.0,-1.1204167464251569e-05,3.03974590638717e-05,2.6703631930188182e-05,4.247029604886876e-06,1.816225128188631e-06,-7.120768228396912e-07,-5.641778310194745e-06,-0.0004444133636467333,-0.0016345667669956407,0.0007055789228840562,-0.00017304688055246896,0.00032867151851138026,-1.7614130925291907e-05,-0.0009397251454403578,0.2998287081718445,22.748254776000977,-0.02542426437139511,-14.155611038208008,-0.2007957100868225,-2.1389803886413574,0.27591270208358765,0
17,0.07997941970825195,-0.2998287081718445,-22.748254776000977,0.02542426437139511,14.155611038208008,0.2007957100868225,2.1389803886413574,-0.27591270208358765,0.0,0.0,0.0,0.0,0.0,0.0,0.0,-0.28411161865735984,0.09645716296717435,-0.0898028552479438,0.28684978906715314,-0.03920955251069812,-0.04873831949252399,-0.25837306315070785,1.6755085589216945,0.052073929365806154,0.029942801477354865,-2.752399092155573,0.03424298776188661,2.766368666383955,0.7691686951253148,1.6754973547542302,0.052104326824870026,0.029969505109285054,-2.752394845125968,0.0342448039870148,2.7663679543071322,0.7691630533470046,0.0004444133636467333,0.0016345667669956407,-0.0007055789228840562,0.00017304688055246896,-0.00032867151851138026,1.7614130925291907e-05,0.0009397251454403578,0.0,0.0,0.0,0.0,0.0,0.0,0.0,-1.1204167464251569e-05,3.03974590638717e-05,2.6703631930188182e-05,4.247029604886876e-06,1.816225128188631e-06,-7.120768228396912e-07,-5.641778310194745e-06,-0.0004444133636467333,-0.0016345667669956407,0.0007055789228840562,-0.00017304688055246896,0.00032867151851138026,-1.7614130925291907e-05,-0.0009397251454403578,0.2998287081718445,22.748254776000977,-0.02542426437139511,-14.155611038208008,-0.2007957100868225,-2.1389803886413574,0.27591270208358765,0
18,0.08499884605407715,-0.2720577120780945,-22.696680068969727,0.04922797530889511,14.155611038208008,0.1953025460243225,2.1453890800476074,-0.23471395671367645,0.0,0.0,0.0,0.0,0.0,0.0,0.0,-0.2773925604745699,0.09050529032596033,-0.08395694321947626,0.28957033937659876,-0.03952479351096437,-0.04811068174790231,-0.25840164544152877,1.6755066100798153,0.05207031008810327,0.0299411310414996,-2.7523990921555903,0.03424359762629091,2.7663679543071322,0.7691641174869404,1.6754973547542302,0.052104326824870026,0.029969505109285054,-2.752394845125968,0.0342448039870148,2.7663679543071322,0.7691630533470046,-0.0002445422186821412,-0.00033370284783313525,-0.0005355958349486023,0.00016799089102027598,3.191922741297451e-05,-0.0002990119985576802,-0.0009135917374829284,0.0,0.0,0.0,0.0,0.0,0.0,0.0,-9.255325585044716e-06,3.401673676675654e-05,2.8374067785452012e-05,4.247029622206355e-06,1.2063607238918528e-06,0.0,-1.0641399357247394e-06,0.0002445422186821412,0.00033370284783313525,0.0005355958349486023,-0.00016799089102027598,-3.191922741297451e-05,0.0002990119985576802,0.0009135917374829284,0.2720577120780945,22.696680068969727,-0.04922797530889511,-14.155611038208008,-0.1953025460243225,-2.1453890800476074,0.23471395671367645,0
19,0.09079217910766602,-0.2720577120780945,-22.696680068969727,0.04922797530889511,14.155611038208008,0.1953025460243225,2.1453890800476074,-0.23471395671367645,0.0,0.0,0.0,0.0,0.0,0.0,0.0,-0.2773925604745699,0.09050529032596033,-0.08395694321947626,0.28957033937659876,-0.03952479351096437,-0.04811068174790231,-0.25840164544152877,1.6755066100798153,0.05207031008810327,0.0299411310414996,-2.7523990921555903,0.03424359762629091,2.7663679543071322,0.7691641174869404,1.6754973547542302,0.052104326824870026,0.029969505109285054,-2.752394845125968,0.0342448039870148,2.7663679543071322,0.7691630533470046,-0.0002445422186821412,-0.00033370284783313525,-0.0005355958349486023,0.00016799089102027598,3.191922741297451e-05,-0.0002990119985576802,-0.0009135917374829284,0.0,0.0,0.0,0.0,0.0,0.0,0.0,-9.255325585044716e-06,3.401673676675654e-05,2.8374067785452012e-05,4.247029622206355e-06,1.2063607238918528e-06,0.0,-1.0641399357247394e-06,0.0002445422186821412,0.00033370284783313525,0.0005355958349486023,-0.00016799089102027598,-3.191922741297451e-05,0.0002990119985576802,0.0009135917374829284,0.2720577120780945,22.696680068969727,-0.04922797530889511,-14.155611038208008,-0.1953025460243225,-2.1453890800476074,0.23471395671367645,0
20,0.09499669075012207,-0.2998287081718445,-22.748254776000977,0.02542426437139511,14.179414749145508,0.2007957100868225,2.1389803886413574,-0.26217979192733765,0.0,0.0,0.0,0.0,0.0,0.0,0.0,-0.28166244708121485,0.09483308898962738,-0.08339796079330088,0.28803771953238494,-0.03879419695701268,-0.04797498724893241,-0.25907685531187763,1.6755085589216465,0.052074175044044727,0.029942801477354865,-2.7524007625914457,0.03424294830140969,2.766368666383955,0.7691660963628026,1.6754973547542302,0.052104326824870026,0.029969505109285054,-2.752394845125968,0.0342448039870148,2.7663679543071322,0.7691630533470046,7.773042189623372e-05,0.0013178549647384706,-0.00031358950004158943,-0.0004060509227074775,-0.0003416156792723575,-8.40236897814393e-05,-0.0004938779485247458,0.0,0.0,0.0,0.0,0.0,0.0,0.0,-1.1204167416289934e-05,3.0151780825299346e-05,2.6703631930188182e-05,5.917465477622841e-06,1.8556856051094028e-06,-7.120768228396912e-07,-3.043015798009918e-06,-7.773042189623372e-05,-0.0013178549647384706,0.00031358950004158943,0.0004060509227074775,0.0003416156792723575,8.40236897814393e-05,0.0004938779485247458,0.2998287081718445,22.748254776000977,-0.02542426437139511,-14.179414749145508,-0.2007957100868225,-2.1389803886413574,0.26217979192733765,0
21,0.09999656677246094,-0.2998287081718445,-22.748254776000977,0.02542426437139511,14.179414749145508,0.2007957100868225,2.1389803886413574,-0.26217979192733765,0.0,0.0,0.0,0.0,0.0,0.0,0.0,-0.28166244708121485,0.09483308898962738,-0.08339796079330088,0.28803771953238494,-0.03879419695701268,-0.04797498724893241,-0.25907685531187763,1.6755085589216465,0.052074175044044727,0.029942801477354865,-2.7524007625914457,0.03424294830140969,2.766368666383955,0.7691660963628026,1.6754973547542302,0.052104326824870026,0.029969505109285054,-2.752394845125968,0.0342448039870148,2.7663679543071322,0.7691630533470046,7.773042189623372e-05,0.0013178549647384706,-0.00031358950004158943,-0.0004060509227074775,-0.0003416156792723575,-8.40236897814393e-05,-0.0004938779485247458,0.0,0.0,0.0,0.0,0.0,0.0,0.0,-1.1204167416289934e-05,3.0151780825299346e-05,2.6703631930188182e-05,5.917465477622841e-06,1.8556856051094028e-06,-7.120768228396912e-07,-3.043015798009918e-06,-7.773042189623372e-05,-0.0013178549647384706,0.00031358950004158943,0.0004060509227074775,0.0003416156792723575,8.40236897814393e-05,0.0004938779485247458,0.2998287081718445,22.748254776000977,-0.02542426437139511,-14.179414749145508,-0.2007957100868225,-2.1389803886413574,0.26217979192733765,0
22,0.10499858856201172,-0.2720577120780945,-22.720483779907227,0.001620553433895111,14.179414749145508,0.2007957100868225,2.1389803886413574,-0.28232139348983765,0.0,0.0,0.0,0.0,0.0,0.0,0.0,-0.2804141981046548,0.09658476174773362,-0.07744563674015732,0.2859793800199372,-0.03884695943727424,-0.04795511234271125,-0.26053365304200543,1.6755066866092356,0.0520719805364356,0.02994447191321013,-2.7524007625914457,0.03423979097557808,2.766368666383955,0.769169407200119,1.6754973547542302,0.052104326824870026,0.029969505109285054,-2.752394845125968,0.0342448039870148,2.7663679543071322,0.7691630533470046,0.00016940466505791448,0.0008525044389494515,-0.00030133871434457807,-0.0006935252237680972,-0.00014046100138273343,5.6556670553598364e-05,0.0005637377744811673,0.0,0.0,0.0,0.0,0.0,0.0,0.0,-9.331855005401124e-06,3.234628843442472e-05,2.5033196074924352e-05,5.917465477622841e-06,5.013011436717785e-06,-7.120768228396912e-07,-6.3538531143159105e-06,-0.00016940466505791448,-0.0008525044389494515,0.00030133871434457807,0.0006935252237680972,0.00014046100138273343,-5.6556670553598364e-05,-0.0005637377744811673,0.2720577120780945,22.720483779907227,-0.001620553433895111,-14.179414749145508,-0.2007957100868225,-2.1389803886413574,0.28232139348983765,0
23,0.10999798774719238,-0.2720577120780945,-22.720483779907227,0.001620553433895111,14.179414749145508,0.2007957100868225,2.1389803886413574,-0.28232139348983765,0.0,0.0,0.0,0.0,0.0,0.0,0.0,-0.2804141981046548,0.09658476174773362,-0.07744563674015732,0.2859793800199372,-0.03884695943727424,-0.04795511234271125,-0.26053365304200543,1.6755066866092356,0.0520719805364356,0.02994447191321013,-2.7524007625914457,0.03423979097557808,2.766368666383955,0.769169407200119,1.6754973547542302,0.052104326824870026,0.029969505109285054,-2.752394845125968,0.0342448039870148,2.7663679543071322,0.7691630533470046,0.00016940466505791448,0.0008525044389494515,-0.00030133871434457807,-0.0006935252237680972,-0.00014046100138273343,5.6556670553598364e-05,0.0005637377744811673,0.0,0.0,0.0,0.0,0.0,0.0,0.0,-9.331855005401124e-06,3.234628843442472e-05,2.5033196074924352e-05,5.917465477622841e-06,5.013011436717785e-06,-7.120768228396912e-07,-6.3538531143159105e-06,-0.00016940466505791448,-0.0008525044389494515,0.00030133871434457807,0.0006935252237680972,0.00014046100138273343,-5.6556670553598364e-05,-0.0005637377744811673,0.2720577120780945,22.720483779907227,-0.001620553433895111,-14.179414749145508,-0.2007957100868225,-2.1389803886413574,0.28232139348983765,0
24,0.1150064468383789,-0.2998287081718445,-22.720483779907227,0.001620553433895111,14.131807327270508,0.1834006905555725,2.1453890800476074,-0.24112264811992645,0.0,0.0,0.0,0.0,0.0,0.0,0.0,-0.2759324837644062,0.09227406771170822,-0.07773243854340726,0.2850098981185481,-0.03859761123549512,-0.0474651022346012,-0.2617343706537135,1.6755085589220786,0.0520719805239586,0.02994447191321013,-2.7523974186672797,0.03424480214234956,2.7663679543071322,0.7691648295637633,1.6754973547542302,0.052104326824870026,0.029969505109285054,-2.752394845125968,0.0342448039870148,2.7663679543071322,0.7691630533470046,0.0008822659058753836,0.00027658316366036207,-0.0003905791550294913,0.00029093062970939857,0.0004927727110885276,-0.00010458576919655097,-0.0005209265777272059,0.0,0.0,0.0,0.0,0.0,0.0,0.0,-1.1204167848388735e-05,3.234630091142332e-05,2.5033196074924352e-05,2.5735413116123596e-06,1.8446652400028185e-09,0.0,-1.776216758675453e-06,-0.0008822659058753836,-0.00027658316366036207,0.0003905791550294913,-0.00029093062970939857,-0.0004927727110885276,0.00010458576919655097,0.0005209265777272059,0.2998287081718445,22.720483779907227,-0.001620553433895111,-14.131807327270508,-0.1834006905555725,-2.1453890800476074,0.24112264811992645,0
25,0.12000060081481934,-0.2998287081718445,-22.720483779907227,0.001620553433895111,14.131807327270508,0.1834006905555725,2.1453890800476074,-0.24112264811992645,0.0,0.0,0.0,0.0,0.0,0.0,0.0,-0.2759324837644062,0.09227406771170822,-0.07773243854340726,0.2850098981185481,-0.03859761123549512,-0.0474651022346012,-0.2617343706537135,1.6755085589220786,0.0520719805239586,0.02994447191321013,-2.7523974186672797,0.03424480214234956,2.7663679543071322,0.7691648295637633,1.6754973547542302,0.052104326824870026,0.029969505109285054,-2.752394845125968,0.0342448039870148,2.7663679543071322,0.7691630533470046,0.0008822659058753836,0.00027658316366036207,-0.0003905791550294913,0.00029093062970939857,0.0004927727110885276,-0.00010458576919655097,-0.0005209265777272059,0.0,0.0,0.0,0.0,0.0,0.0,0.0,-1.1204167848388735e-05,3.234630091142332e-05,2.5033196074924352e-05,2.5735413116123596e-06,1.8446652400028185e-09,0.0,-1.776216758675453e-06,-0.0008822659058753836,-0.00027658316366036207,0.0003905791550294913,-0.00029093062970939857,-0.0004927727110885276,0.00010458576919655097,0.0005209265777272059,0.2998287081718445,22.720483779907227,-0.001620553433895111,-14.131807327270508,-0.1834006905555725,-2.1453890800476074,0.24112264811992645,0
26,0.12500405311584473,-0.2720577120780945,-22.672876358032227,-0.02615044265985489,14.155611038208008,0.1888938546180725,2.1325716972351074,-0.20724813640117645,0.0,0.0,0.0,0.0,0.0,0.0,0.0,-0.2771854896247358,0.09496757705103022,-0.08130821146155427,0.2826001402240924,-0.038726183879832655,-0.0470133018658663,-0.2617481941231068,1.6755066867492072,0.052068639652248006,0.02994642075504127,-2.752399092155573,0.03424431018961191,2.7663693784607783,0.7691610657291279,1.6754973547542302,0.052104326824870026,0.029969505109285054,-2.752394845125968,0.0342448039870148,2.7663679543071322,0.7691630533470046,-0.0002468243296904554,-0.000644544572872024,0.0006225615645955161,-7.02067470130361e-05,0.0001568966155554364,0.00014274418153446334,-0.002371301800139673,0.0,0.0,0.0,0.0,0.0,0.0,0.0,-9.331994976990998e-06,3.568717262202037e-05,2.3084354243783217e-05,4.247029604886876e-06,4.937974028909609e-07,-1.4241536461234716e-06,1.9876178767308517e-06,0.0002468243296904554,0.000644544572872024,-0.0006225615645955161,7.02067470130361e-05,-0.0001568966155554364,-0.00014274418153446334,0.002371301800139673,0.2720577120780945,22.672876358032227,0.02615044265985489,-14.155611038208008,-0.1888938546180725,-2.1325716972351074,0.20724813640117645,0
27,0.13000750541687012,-0.2720577120780945,-22.672876358032227,-0.02615044265985489,14.155611038208008,0.1888938546180725,2.1325716972351074,-0.20724813640117645,0.0,0.0,0.0,0.0,0.0,0.0,0.0,-0.2771854896247358,0.09496757705103022,-0.08130821146155427,0.2826001402240924,-0.038726183879832655,-0.0470133018658663,-0.2617481941231068,1.6755066867492072,0.052068639652248006,0.02994642075504127,-2.752399092155573,0.03424431018961191,2.7663693784607783,0.7691610657291279,1.6754973547542302,0.052104326824870026,0.029969505109285054,-2.752394845125968,0.0342448039870148,2.7663679543071322,0.7691630533470046,-0.0002468243296904554,-0.000644544572872024,0.0006225615645955161,-7.02067470130361e-05,0.0001568966155554364,0.00014274418153446334,-0.002371301800139673,0.0,0.0,0.0,0.0,0.0,0.0,0.0,-9.331994976990998e-06,3.568717262202037e-05,2.3084354243783217e-05,4.247029604886876e-06,4.937974028909609e-07,-1.4241536461234716e-06,1.9876178767308517e-06,0.0002468243296904554,0.000644544572872024,-0.0006225615645955161,7.02067470130361e-05,-0.0001568966155554364,-0.00014274418153446334,0.002371301800139673,0.2720577120780945,22.672876358032227,0.02615044265985489,-14.155611038208008,-0.1888938546180725,-2.1325716972351074,0.20724813640117645,0
28,0.13500356674194336,-0.2720577120780945,-22.748254776000977,0.02542426437139511,14.131807327270508,0.2072044014930725,2.1325716972351074,-0.27591270208358765,0.0,0.0,0.0,0.0,0.0,0.0,0.0,-0.27947207656348927,0.09414538122920534,-0.0835514528899847,0.28065484712892397,-0.03938997478295586,-0.04703253238071294,-0.260182910837503,1.6755087018844073,0.052073929365789674,0.029942801477354865,-2.7523974217197353,0.03424227519790549,2.7663693784607783,0.7691686951253148,1.6754973547542302,0.052104326824870026,0.029969505109285054,-2.752394845125968,0.0342448039870148,2.7663679543071322,0.7691630533470046,-9.496245299901536e-05,0.0010957006741991496,-0.0008560470000038315,0.00041141532417033043,-0.00032201672431558,0.0004015375173226146,0.0008127436634682962,0.0,0.0,0.0,0.0,0.0,0.0,0.0,-1.1347130177030706e-05,3.0397459080351574e-05,2.6703631930188182e-05,2.576593767233959e-06,2.5287891093073167e-06,-1.4241536461234716e-06,-5.641778310194745e-06,9.496245299901536e-05,-0.0010957006741991496,0.0008560470000038315,-0.00041141532417033043,0.00032201672431558,-0.0004015375173226146,-0.0008127436634682962,0.2720577120780945,22.748254776000977,-0.02542426437139511,-14.131807327270508,-0.2072044014930725,-2.1325716972351074,0.27591270208358765,0
29,0.1400003433227539,-0.2720577120780945,-22.748254776000977,0.02542426437139511,14.131807327270508,0.2072044014930725,2.1325716972351074,-0.27591270208358765,0.0,0.0,0.0,0.0,0.0,0.0,0.0,-0.27947207656348927,0.09414538122920534,-0.0835514528899847,0.28065484712892397,-0.03938997478295586,-0.04703253238071294,-0.260182910837503,1.6755087018844073,0.052073929365789674,0.029942801477354865,-2.7523974217197353,0.03424227519790549,2.7663693784607783,0.7691686951253148,1.6754973547542302,0.052104326824870026,0.029969505109285054,-2.752394845125968,0.0342448039870148,2.7663679543071322,0.7691630533470046,-9.496245299901536e-05,0.0010957006741991496,-0.0008560470000038315,0.00041141532417033043,-0.00032201672431558,0.0004015375173226146,0.0008127436634682962,0.0,0.0,0.0,0.0,0.0,0.0,0.0,-1.1347130177030706e-05,3.0397459080351574e-05,2.6703631930188182e-05,2.576593767233959e-06,2.5287891093073167e-06,-1.4241536461234716e-06,-5.641778310194745e-06,9.496245299901536e-05,-0.0010957006741991496,0.0008560470000038315,-0.00041141532417033043,0.00032201672431558,-0.0004015375173226146,-0.0008127436634682962,0.2720577120780945,22.748254776000977,-0.02542426437139511,-14.131807327270508,-0.2072044014930725,-2.1325716972351074,0.27591270208358765,0
30,0.14499902725219727,-0.3236324191093445,-22.696680068969727,-0.02615044265985489,14.155611038208008,0.1888938546180725,2.1325716972351074,-0.24112264811992645,0.0,0.0,0.0,0.0,0.0,0.0,0.0,-0.2748187257904513,0.09208349896332231,-0.08198356937685804,0.2817817486589678,-0.03929236979147744,-0.04659825350665356,-0.2568593535929707,1.6755102295092814,0.05207031012414762,0.02994642075504127,-2.7523990921555903,0.03424430970311108,2.7663693784607783,0.7691647898273335,1.6754973547542302,0.052104326824870026,0.029969505109285054,-2.752394845125968,0.0342448039870148,2.7663679543071322,0.7691630533470046,0.0013648307196423033,-0.00045033828373337647,0.0005920329518248052,8.134407356798704e-05,8.151133480661322e-05,0.00030409334527525437,-0.00022150624753320027,0.0,0.0,0.0,0.0,0.0,0.0,0.0,-1.2874755051184295e-05,3.401670072240848e-05,2.3084354243783217e-05,4.247029622206355e-06,4.942839037236357e-07,-1.4241536461234716e-06,-1.7364803288622e-06,-0.0013648307196423033,0.00045033828373337647,-0.0005920329518248052,-8.134407356798704e-05,-8.151133480661322e-05,-0.00030409334527525437,0.00022150624753320027,0.3236324191093445,22.696680068969727,0.02615044265985489,-14.155611038208008,-0.1888938546180725,-2.1325716972351074,0.24112264811992645,0
31,0.14999628067016602,-0.3236324191093445,-22.696680068969727,-0.02615044265985489,14.155611038208008,0.1888938546180725,2.1325716972351074,-0.24112264811992645,0.0,0.0,0.0,0.0,0.0,0.0,0.0,-0.2748187257904513,0.09208349896332231,-0.08198356937685804,0.2817817486589678,-0.03929236979147744,-0.04659825350665356,-0.2568593535929707,1.6755102295092814,0.05207031012414762,0.02994642075504127,-2.7523990921555903,0.03424430970311108,2.7663693784607783,0.7691647898273335,1.6754973547542302,0.052104326824870026,0.029969505109285054,-2.752394845125968,0.0342448039870148,2.7663679543071322,0.7691630533470046,0.0013648307196423033,-0.00045033828373337647,0.0005920329518248052,8.134407356798704e-05,8.151133480661322e-05,0.00030409334527525437,-0.00022150624753320027,0.0,0.0,0.0,0.0,0.0,0.0,0.0,-1.2874755051184295e-05,3.401670072240848e-05,2.3084354243783217e-05,4.247029622206355e-06,4.942839037236357e-07,-1.4241536461234716e-06,-1.7364803288622e-06,-0.0013648307196423033,0.00045033828373337647,-0.0005920329518248052,-8.134407356798704e-05,-8.151133480661322e-05,-0.00030409334527525437,0.00022150624753320027,0.3236324191093445,22.696680068969727,0.02615044265985489,-14.155611038208008,-0.1888938546180725,-2.1325716972351074,0.24112264811992645,0
32,0.1549975872039795,-0.2720577120780945,-22.720483779907227,0.001620553433895111,14.179414749145508,0.2007957100868225,2.1453890800476074,-0.24112264811992645,0.0,0.0,0.0,0.0,0.0,0.0,0.0,-0.27604547623614595,0.09082070940328263,-0.0842670461468531,0.2796683183864749,-0.0395764059686645,-0.04746073894091,-0.25474747977966045,1.6755066110246237,0.052072059352941104,0.02994447191321013,-2.7524007625914457,0.034242869218056034,2.7663679543071322,0.769164829563539,1.6754973547542302,0.052104326824870026,0.029969505109285054,-2.752394845125968,0.0342448039870148,2.7663679543071322,0.7691630533470046,-7.866391750670753e-05,1.9296599800252593e-05,-0.00018317884614458163,-0.0008399588769004281,-0.0002666992424980114,-0.00023930607657835773,-0.000674590305701357,0.0,0.0,0.0,0.0,0.0,0.0,0.0,-9.256270393498411e-06,3.226747192892204e-05,2.5033196074924352e-05,5.917465477622841e-06,1.934768958766764e-06,0.0,-1.776216534410402e-06,7.866391750670753e-05,-1.9296599800252593e-05,0.00018317884614458163,0.0008399588769004281,0.0002666992424980114,0.00023930607657835773,0.000674590305701357,0.2720577120780945,22.720483779907227,-0.001620553433895111,-14.179414749145508,-0.2007957100868225,-2.1453890800476074,0.24112264811992645,0
33,0.15999603271484375,-0.2720577120780945,-22.720483779907227,0.001620553433895111,14.179414749145508,0.2007957100868225,2.1453890800476074,-0.24112264811992645,0.0,0.0,0.0,0.0,0.0,0.0,0.0,-0.27604547623614595,0.09082070940328263,-0.0842670461468531,0.2796683183864749,-0.0395764059686645,-0.04746073894091,-0.25474747977966045,1.6755066110246237,0.052072059352941104,0.02994447191321013,-2.7524007625914457,0.034242869218056034,2.7663679543071322,0.769164829563539,1.6754973547542302,0.052104326824870026,0.029969505109285054,-2.752394845125968,0.0342448039870148,2.7663679543071322,0.7691630533470046,-7.866391750670753e-05,1.9296599800252593e-05,-0.00018317884614458163,-0.0008399588769004281,-0.0002666992424980114,-0.00023930607657835773,-0.000674590305701357,0.0,0.0,0.0,0.0,0.0,0.0,0.0,-9.256270393498411e-06,3.226747192892204e-05,2.5033196074924352e-05,5.917465477622841e-06,1.934768958766764e-06,0.0,-1.776216534410402e-06,7.866391750670753e-05,-1.9296599800252593e-05,0.00018317884614458163,0.0008399588769004281,0.0002666992424980114,0.00023930607657835773,0.000674590305701357,0.2720577120780945,22.720483779907227,-0.001620553433895111,-14.179414749145508,-0.2007957100868225,-2.1453890800476074,0.24112264811992645,0
34,0.16499733924865723,-0.2720577120780945,-22.720483779907227,0.001620553433895111,14.179414749145508,0.2007957100868225,2.1453890800476074,-0.24112264811992645,0.0,0.0,0.0,0.0,0.0,0.0,0.0,-0.27604547623614595,0.09082070940328263,-0.0842670461468531,0.2796683183864749,-0.0395764059686645,-0.04746073894091,-0.25474747977966045,1.6755066110246237,0.052072059352941104,0.02994447191321013,-2.7524007625914457,0.034242869218056034,2.7663679543071322,0.769164829563539,1.6754973547542302,0.052104326824870026,0.029969505109285054,-2.752394845125968,0.0342448039870148,2.7663679543071322,0.7691630533470046,-7.866391750670753e-05,1.9296599800252593e-05,-0.00018317884614458163,-0.0008399588769004281,-0.0002666992424980114,-0.00023930607657835773,-0.000674590305701357,0.0,0.0,0.0,0.0,0.0,0.0,0.0,-9.256270393498411e-06,3.226747192892204e-05,2.5033196074924352e-05,5.917465477622841e-06,1.934768958766764e-06,0.0,-1.776216534410402e-06,7.866391750670753e-05,-1.9296599800252593e-05,0.00018317884614458163,0.0008399588769004281,0.0002666992424980114,0.00023930607657835773,0.000674590305701357,0.2720577120780945,22.720483779907227,-0.001620553433895111,-14.179414749145508,-0.2007957100868225,-2.1453890800476074,0.24112264811992645,0
35,0.1699974536895752,-0.2720577120780945,-22.720483779907227,0.001620553433895111,14.179414749145508,0.2007957100868225,2.1453890800476074,-0.24112264811992645,0.0,0.0,0.0,0.0,0.0,0.0,0.0,-0.27604547623614595,0.09082070940328263,-0.0842670461468531,0.2796683183864749,-0.0395764059686645,-0.04746073894091,-0.25474747977966045,1.6755066110246237,0.052072059352941104,0.02994447191321013,-2.7524007625914457,0.034242869218056034,2.7663679543071322,0.769164829563539,1.6754973547542302,0.052104326824870026,0.029969505109285054,-2.752394845125968,0.0342448039870148,2.7663679543071322,0.7691630533470046,-7.866391750670753e-05,1.9296599800252593e-05,-0.00018317884614458163,-0.0008399588769004281,-0.0002666992424980114,-0.00023930607657835773,-0.000674590305701357,0.0,0.0,0.0,0.0,0.0,0.0,0.0,-9.256270393498411e-06,3.226747192892204e-05,2.5033196074924352e-05,5.917465477622841e-06,1.934768958766764e-06,0.0,-1.776216534410402e-06,7.866391750670753e-05,-1.9296599800252593e-05,0.00018317884614458163,0.0008399588769004281,0.0002666992424980114,0.00023930607657835773,0.000674590305701357,0.2720577120780945,22.720483779907227,-0.001620553433895111,-14.179414749145508,-0.2007957100868225,-2.1453890800476074,0.24112264811992645,0
36,0.17499661445617676,-0.2720577120780945,-22.696680068969727,0.001620553433895111,14.207185745239258,0.1953025460243225,2.1389803886413574,-0.26858848333358765,0.0,0.0,0.0,0.0,0.0,0.0,0.0,-0.2795920618948597,0.09199545799362277,-0.08797748540376303,0.28312532491899756,-0.03892393446036234,-0.047644856789366564,-0.2546149198351653,1.675506610079817,0.05207054661124304,0.02994447191321013,-2.7524027114332767,0.03424355865275188,2.766368666383955,0.7691678813232314,1.6754973547542302,0.052104326824870026,0.029969505109285054,-2.752394845125968,0.0342448039870148,2.7663679543071322,0.7691630533470046,2.2571812469499137e-05,0.00023716321198195148,-0.0005257747453702323,-0.0008413491708957614,0.0001224428176060447,-0.00018702504135146306,0.00016415118588088997,0.0,0.0,0.0,0.0,0.0,0.0,0.0,-9.255325586821073e-06,3.378021362698824e-05,2.5033196074924352e-05,7.866307308646014e-06,1.2453342629198394e-06,-7.120768228396912e-07,-4.827976226806641e-06,-2.2571812469499137e-05,-0.00023716321198195148,0.0005257747453702323,0.0008413491708957614,-0.0001224428176060447,0.00018702504135146306,-0.00016415118588088997,0.2720577120780945,22.696680068969727,-0.001620553433895111,-14.207185745239258,-0.1953025460243225,-2.1389803886413574,0.26858848333358765,0
37,0.18003344535827637,-0.2720577120780945,-22.696680068969727,0.001620553433895111,14.207185745239258,0.1953025460243225,2.1389803886413574,-0.26858848333358765,0.0,0.0,0.0,0.0,0.0,0.0,0.0,-0.2795920618948597,0.09199545799362277,-0.08797748540376303,0.28312532491899756,-0.03892393446036234,-0.047644856789366564,-0.2546149198351653,1.675506610079817,0.05207054661124304,0.02994447191321013,-2.7524027114332767,0.03424355865275188,2.766368666383955,0.7691678813232314,1.6754973547542302,0.052104326824870026,0.029969505109285054,-2.752394845125968,0.0342448039870148,2.7663679543071322,0.7691630533470046,2.2571812469499137e-05,0.00023716321198195148,-0.0005257747453702323,-0.0008413491708957614,0.0001224428176060447,-0.00018702504135146306,0.00016415118588088997,0.0,0.0,0.0,0.0,0.0,0.0,0.0,-9.255325586821073e-06,3.378021362698824e-05,2.5033196074924352e-05,7.866307308646014e-06,1.2453342629198394e-06,-7.120768228396912e-07,-4.827976226806641e-06,-2.2571812469499137e-05,-0.00023716321198195148,0.0005257747453702323,0.0008413491708957614,-0.0001224428176060447,0.00018702504135146306,-0.00016415118588088997,0.2720577120780945,22.696680068969727,-0.001620553433895111,-14.207185745239258,-0.1953025460243225,-2.1389803886413574,0.26858848333358765,0
38,0.18500638008117676,-0.2720577120780945,-22.696680068969727,0.02542426437139511,14.179414749145508,0.1953025460243225,2.1261630058288574,-0.29605430364608765,0.0,0.0,0.0,0.0,0.0,0.0,0.0,-0.27910543313120584,0.09048469143029861,-0.08793683633488239,0.28429043357190986,-0.03887508381263465,-0.04879928345550225,-0.2555691392377827,1.6755072988445994,0.05207246575753142,0.029942801477354865,-2.7524007625914457,0.0342435981132346,2.766370090537601,0.7691708933446142,1.6754973547542302,0.052104326824870026,0.029969505109285054,-2.752394845125968,0.0342448039870148,2.7663679543071322,0.7691630533470046,-0.00034963126982409844,-2.664411296162343e-05,-0.0006616944141724094,-0.0007778983329734566,-0.00010751873153846752,0.0003929215138236754,0.0016072148176189112,0.0,0.0,0.0,0.0,0.0,0.0,0.0,-9.944090369140568e-06,3.1861067338607996e-05,2.6703631930188182e-05,5.917465477622841e-06,1.2058737801981523e-06,-2.136230468963163e-06,-7.839997609560001e-06,0.00034963126982409844,2.664411296162343e-05,0.0006616944141724094,0.0007778983329734566,0.00010751873153846752,-0.0003929215138236754,-0.0016072148176189112,0.2720577120780945,22.696680068969727,-0.02542426437139511,-14.179414749145508,-0.1953025460243225,-2.1261630058288574,0.29605430364608765,0
39,0.1900019645690918,-0.2720577120780945,-22.696680068969727,0.02542426437139511,14.179414749145508,0.1953025460243225,2.1261630058288574,-0.29605430364608765,0.0,0.0,0.0,0.0,0.0,0.0,0.0,-0.27910543313120584,0.09048469143029861,-0.08793683633488239,0.28429043357190986,-0.03887508381263465,-0.04879928345550225,-0.2555691392377827,1.6755072988445994,0.05207246575753142,0.029942801477354865,-2.7524007625914457,0.0342435981132346,2.766370090537601,0.7691708933446142,1.6754973547542302,0.052104326824870026,0.029969505109285054,-2.752394845125968,0.0342448039870148,2.7663679543071322,0.7691630533470046,-0.00034963126982409844,-2.664411296162343e-05,-0.0006616944141724094,-0.0007778983329734566,-0.00010751873153846752,0.0003929215138236754,0.0016072148176189112,0.0,0.0,0.0,0.0,0.0,0.0,0.0,-9.944090369140568e-06,3.1861067338607996e-05,2.6703631930188182e-05,5.917465477622841e-06,1.2058737801981523e-06,-2.136230468963163e-06,-7.839997609560001e-06,0.00034963126982409844,2.664411296162343e-05,0.0006616944141724094,0.0007778983329734566,0.00010751873153846752,-0.0003929215138236754,-0.0016072148176189112,0.2720577120780945,22.696680068969727,-0.02542426437139511,-14.179414749145508,-0.1953025460243225,-2.1261630058288574,0.29605430364608765,0
40,0.19496631622314453,-0.2720577120780945,-22.748254776000977,-0.02615044265985489,14.179414749145508,0.1953025460243225,2.1389803886413574,-0.24844686686992645,0.0,0.0,0.0,0.0,0.0,0.0,0.0,-0.28058492254124295,0.09369725337396112,-0.08517337176538256,0.285321369951451,-0.038452395104482055,-0.04934348004420466,-0.257198668836907,1.6755066100837033,0.05207416586490558,0.02994642075504127,-2.7524007625914457,0.03424359811345736,2.766368666383955,0.7691645263304276,1.6754973547542302,0.052104326824870026,0.029969505109285054,-2.752394845125968,0.0342448039870148,2.7663679543071322,0.7691630533470046,-0.00015705088903595035,0.0013227250291976693,0.0005699686326714381,-0.0005108774844985009,-3.990100252017127e-05,-0.00024950211941507594,-0.002073924244832097,0.0,0.0,0.0,0.0,0.0,0.0,0.0,-9.255329473045748e-06,3.016095996444257e-05,2.3084354243783217e-05,5.917465477622841e-06,1.2058735574388413e-06,-7.120768228396912e-07,-1.472983423012053e-06,0.00015705088903595035,-0.0013227250291976693,-0.0005699686326714381,0.0005108774844985009,3.990100252017127e-05,0.00024950211941507594,0.002073924244832097,0.2720577120780945,22.748254776000977,0.02615044265985489,-14.179414749145508,-0.1953025460243225,-2.1389803886413574,0.24844686686992645,0
41,0.20000934600830078,-0.2720577120780945,-22.748254776000977,-0.02615044265985489,14.179414749145508,0.1953025460243225,2.1389803886413574,-0.24844686686992645,0.0,0.0,0.0,0.0,0.0,0.0,0.0,-0.28058492254124295,0.09369725337396112,-0.08517337176538256,0.285321369951451,-0.038452395104482055,-0.04934348004420466,-0.257198668836907,1.6755066100837033,0.05207416586490558,0.02994642075504127,-2.7524007625914457,0.03424359811345736,2.766368666383955,0.7691645263304276,1.6754973547542302,0.052104326824870026,0.029969505109285054,-2.752394845125968,0.0342448039870148,2.7663679543071322,0.7691630533470046,-0.00015705088903595035,0.0013227250291976693,0.0005699686326714381,-0.0005108774844985009,-3.990100252017127e-05,-0.00024950211941507594,-0.002073924244832097,0.0,0.0,0.0,0.0,0.0,0.0,0.0,-9.255329473045748e-06,3.016095996444257e-05,2.3084354243783217e-05,5.917465477622841e-06,1.2058735574388413e-06,-7.120768228396912e-07,-1.472983423012053e-06,0.00015705088903595035,-0.0013227250291976693,-0.0005699686326714381,0.0005108774844985009,3.990100252017127e-05,0.00024950211941507594,0.002073924244832097,0.2720577120780945,22.748254776000977,0.02615044265985489,-14.179414749145508,-0.1953025460243225,-2.1389803886413574,0.24844686686992645,0
42,0.2050020694732666,-0.2720577120780945,-22.772058486938477,-0.02615044265985489,14.131807327270508,0.1888938546180725,2.1389803886413574,-0.22830526530742645,0.0,0.0,0.0,0.0,0.0,0.0,0.0,-0.27940773368587274,0.08491489220951463,-0.08315083120105556,0.2888249315456166,-0.03869030618040597,-0.04891184708002162,-0.25776743102906197,1.6755066100798153,0.05207559980297998,0.02994642075504127,-2.7523951964796636,0.034244309703113825,2.766368666383955,0.7691634054038117,1.6754973547542302,0.052104326824870026,0.029969505109285054,-2.752394845125968,0.0342448039870148,2.7663679543071322,0.7691630533470046,-0.0004332791591964112,0.0009238192926592924,0.0010833134938043481,0.00038182246613523,0.00018097278348787275,-7.25578638767614e-05,-0.0013661731975103757,0.0,0.0,0.0,0.0,0.0,0.0,0.0,-9.255325585044716e-06,2.8727021890044557e-05,2.3084354243783217e-05,3.5135369547134587e-07,4.942839009758337e-07,-7.120768228396912e-07,-3.5205680704031295e-07,0.0004332791591964112,-0.0009238192926592924,-0.0010833134938043481,-0.00038182246613523,-0.00018097278348787275,7.25578638767614e-05,0.0013661731975103757,0.2720577120780945,22.772058486938477,0.02615044265985489,-14.131807327270508,-0.1888938546180725,-2.1389803886413574,0.22830526530742645,0
43,0.2100224494934082,-0.2720577120780945,-22.772058486938477,-0.02615044265985489,14.131807327270508,0.1888938546180725,2.1389803886413574,-0.22830526530742645,0.0,0.0,0.0,0.0,0.0,0.0,0.0,-0.27940773368587274,0.08491489220951463,-0.08315083120105556,0.2888249315456166,-0.03869030618040597,-0.04891184708002162,-0.25776743102906197,1.6755066100798153,0.05207559980297998,0.02994642075504127,-2.7523951964796636,0.034244309703113825,2.766368666383955,0.7691634054038117,1.6754973547542302,0.052104326824870026,0.029969505109285054,-2.752394845125968,0.0342448039870148,2.7663679543071322,0.7691630533470046,-0.0004332791591964112,0.0009238192926592924,0.0010833134938043481,0.00038182246613523,0.00018097278348787275,-7.25578638767614e-05,-0.0013661731975103757,0.0,0.0,0.0,0.0,0.0,0.0,0.0,-9.255325585044716e-06,2.8727021890044557e-05,2.3084354243783217e-05,3.5135369547134587e-07,4.942839009758337e-07,-7.120768228396912e-07,-3.5205680704031295e-07,0.0004332791591964112,-0.0009238192926592924,-0.0010833134938043481,-0.00038182246613523,-0.00018097278348787275,7.25578638767614e-05,0.0013661731975103757,0.2720577120780945,22.772058486938477,0.02615044265985489,-14.131807327270508,-0.1888938546180725,-2.1389803886413574,0.22830526530742645,0
44,0.2149960994720459,-0.24825400114059448,-22.720483779907227,0.02542426437139511,14.207185745239258,0.1834006905555725,2.1389803886413574,-0.26217979192733765,0.0,0.0,0.0,0.0,0.0,0.0,0.0,-0.2790165919015003,0.08666190733718289,-0.08202421127579318,0.2882759335159454,-0.03866898558134335,-0.04869637270394341,-0.2567769032661692,1.67550493964396,0.05207224328723309,0.029942798554356168,-2.7524027113830307,0.03424456539749824,2.766368666383955,0.7691671295099787,1.6754973547542302,0.052104326824870026,0.029969505109285054,-2.752394845125968,0.0342448039870148,2.7663679543071322,0.7691630533470046,-0.0006060792066597012,-0.00035905821932902086,-0.0008243266213922697,-0.0010507599032180887,0.0004576660296907361,-1.8565695689354648e-05,-8.646629446630753e-05,0.0,0.0,0.0,0.0,0.0,0.0,0.0,-7.584889729850275e-06,3.2083537636937165e-05,2.6706554928885434e-05,7.866257062616455e-06,2.385895165601948e-07,-7.120768228396912e-07,-4.076162974042674e-06,0.0006060792066597012,0.00035905821932902086,0.0008243266213922697,0.0010507599032180887,-0.0004576660296907361,1.8565695689354648e-05,8.646629446630753e-05,0.24825400114059448,22.720483779907227,-0.02542426437139511,-14.207185745239258,-0.1834006905555725,-2.1389803886413574,0.26217979192733765,0
45,0.22000932693481445,-0.24825400114059448,-22.720483779907227,0.02542426437139511,14.207185745239258,0.1834006905555725,2.1389803886413574,-0.26217979192733765,0.0,0.0,0.0,0.0,0.0,0.0,0.0,-0.2790165919015003,0.08666190733718289,-0.08202421127579318,0.2882759335159454,-0.03866898558134335,-0.04869637270394341,-0.2567769032661692,1.67550493964396,0.05207224328723309,0.029942798554356168,-2.7524027113830307,0.03424456539749824,2.766368666383955,0.7691671295099787,1.6754973547542302,0.052104326824870026,0.029969505109285054,-2.752394845125968,0.0342448039870148,2.7663679543071322,0.7691630533470046,-0.0006060792066597012,-0.00035905821932902086,-0.0008243266213922697,-0.0010507599032180887,0.0004576660296907361,-1.8565695689354648e-05,-8.646629446630753e-05,0.0,0.0,0.0,0.0,0.0,0.0,0.0,-7.584889729850275e-06,3.2083537636937165e-05,2.6706554928885434e-05,7.866257062616455e-06,2.385895165601948e-07,-7.120768228396912e-07,-4.076162974042674e-06,0.0006060792066597012,0.00035905821932902086,0.0008243266213922697,0.0010507599032180887,-0.0004576660296907361,1.8565695689354648e-05,8.646629446630753e-05,0.24825400114059448,22.720483779907227,-0.02542426437139511,-14.207185745239258,-0.1834006905555725,-2.1389803886413574,0.26217979192733765,0
46,0.22499704360961914,-0.19667929410934448,-22.748254776000977,0.001620553433895111,14.179414749145508,0.2007957100868225,2.1325716972351074,-0.28232139348983765,0.0,0.0,0.0,0.0,0.0,0.0,0.0,-0.2773093613043159,0.09280540163258164,-0.08222472919960357,0.2786238726579437,-0.03901533794516842,-0.0501332512139542,-0.25582756083302255,1.6755013204012665,0.05207393909924611,0.029944471913193632,-2.7524007625914453,0.03424298775989006,2.7663693784607783,0.7691694072019135,1.6754973547542302,0.052104326824870026,0.029969505109285054,-2.752394845125968,0.0342448039870148,2.7663679543071322,0.7691630533470046,-0.0020456709445577288,0.0011806337481494236,0.0002440334819523613,-0.0011241530015270117,-1.0594172354596014e-05,0.00012134896291709163,0.0011984214069995283,0.0,0.0,0.0,0.0,0.0,0.0,0.0,-3.965647036308084e-06,3.0387725623914896e-05,2.5033196091421572e-05,5.917465477178752e-06,1.8162271247373907e-06,-1.4241536461234716e-06,-6.3538549088804075e-06,0.0020456709445577288,-0.0011806337481494236,-0.0002440334819523613,0.0011241530015270117,1.0594172354596014e-05,-0.00012134896291709163,-0.0011984214069995283,0.19667929410934448,22.748254776000977,-0.001620553433895111,-14.179414749145508,-0.2007957100868225,-2.1325716972351074,0.28232139348983765,0
47,0.229996919631958,-0.19667929410934448,-22.748254776000977,0.001620553433895111,14.179414749145508,0.2007957100868225,2.1325716972351074,-0.28232139348983765,0.0,0.0,0.0,0.0,0.0,0.0,0.0,-0.2773093613043159,0.09280540163258164,-0.08222472919960357,0.2786238726579437,-0.03901533794516842,-0.0501332512139542,-0.25582756083302255,1.6755013204012665,0.05207393909924611,0.029944471913193632,-2.7524007625914453,0.03424298775989006,2.7663693784607783,0.7691694072019135,1.6754973547542302,0.052104326824870026,0.029969505109285054,-2.752394845125968,0.0342448039870148,2.7663679543071322,0.7691630533470046,-0.0020456709445577288,0.0011806337481494236,0.0002440334819523613,-0.0011241530015270117,-1.0594172354596014e-05,0.00012134896291709163,0.0011984214069995283,0.0,0.0,0.0,0.0,0.0,0.0,0.0,-3.965647036308084e-06,3.0387725623914896e-05,2.5033196091421572e-05,5.917465477178752e-06,1.8162271247373907e-06,-1.4241536461234716e-06,-6.3538549088804075e-06,0.0020456709445577288,-0.0011806337481494236,-0.0002440334819523613,0.0011241530015270117,1.0594172354596014e-05,-0.00012134896291709163,-0.0011984214069995283,0.19667929410934448,22.748254776000977,-0.001620553433895111,-14.179414749145508,-0.2007957100868225,-2.1325716972351074,0.28232139348983765,0
48,0.23502397537231445,-0.3236324191093445,-22.720483779907227,0.001620553433895111,14.131807327270508,0.2007957100868225,2.1261630058288574,-0.23471395671367645,0.0,0.0,0.0,0.0,0.0,0.0,0.0,-0.2796772160445178,0.08715747912045553,-0.08476202360284606,0.2821604884082331,-0.038155086719628466,-0.049857548616100394,-0.2554674949490901,1.675510229357502,0.05207198052401348,0.02994447191321013,-2.752397412562369,0.03424297460840071,2.766370090537601,0.7691641160152207,1.6754973547542302,0.052104326824870026,0.029969505109285054,-2.752394845125968,0.0342448039870148,2.7663679543071322,0.7691630533470046,0.0012089777328422784,0.00021055318928297836,-0.00034239383603571123,0.00040116371065773525,-0.0004441304695872456,0.0002906641542332665,-0.0009582438176546833,0.0,0.0,0.0,0.0,0.0,0.0,0.0,-1.287460327170642e-05,3.234630085654361e-05,2.5033196074924352e-05,2.56743640081325e-06,1.8293786140932689e-06,-2.136230468963163e-06,-1.0626682160896905e-06,-0.0012089777328422784,-0.00021055318928297836,0.00034239383603571123,-0.00040116371065773525,0.0004441304695872456,-0.0002906641542332665,0.0009582438176546833,0.3236324191093445,22.720483779907227,-0.001620553433895111,-14.131807327270508,-0.2007957100868225,-2.1261630058288574,0.23471395671367645,0
49,0.24001049995422363,-0.3236324191093445,-22.720483779907227,0.001620553433895111,14.131807327270508,0.2007957100868225,2.1261630058288574,-0.23471395671367645,0.0,0.0,0.0,0.0,0.0,0.0,0.0,-0.2796772160445178,0.08715747912045553,-0.08476202360284606,0.2821604884082331,-0.038155086719628466,-0.049857548616100394,-0.2554674949490901,1.675510229357502,0.05207198052401348,0.02994447191321013,-2.752397412562369,0.03424297460840071,2.766370090537601,0.7691641160152207,1.6754973547542302,0.052104326824870026,0.029969505109285054,-2.752394845125968,0.0342448039870148,2.7663679543071322,0.7691630533470046,0.0012089777328422784,0.00021055318928297836,-0.00034239383603571123,0.00040116371065773525,-0.0004441304695872456,0.0002906641542332665,-0.0009582438176546833,0.0,0.0,0.0,0.0,0.0,0.0,0.0,-1.287460327170642e-05,3.234630085654361e-05,2.5033196074924352e-05,2.56743640081325e-06,1.8293786140932689e-06,-2.136230468963163e-06,-1.0626682160896905e-06,-0.0012089777328422784,-0.00021055318928297836,0.00034239383603571123,-0.00040116371065773525,0.0004441304695872456,-0.0002906641542332665,0.0009582438176546833,0.3236324191093445,22.720483779907227,-0.001620553433895111,-14.131807327270508,-0.2007957100868225,-2.1261630058288574,0.23471395671367645,0
50,0.24500322341918945,-0.3236324191093445,-22.720483779907227,0.001620553433895111,14.131807327270508,0.2007957100868225,2.1261630058288574,-0.23471395671367645,0.0,0.0,0.0,0.0,0.0,0.0,0.0,-0.2796772160445178,0.08715747912045553,-0.08476202360284606,0.2821604884082331,-0.038155086719628466,-0.049857548616100394,-0.2554674949490901,1.675510229357502,0.05207198052401348,0.02994447191321013,-2.752397412562369,0.03424297460840071,2.766370090537601,0.7691641160152207,1.6754973547542302,0.052104326824870026,0.029969505109285054,-2.752394845125968,0.0342448039870148,2.7663679543071322,0.7691630533470046,0.0012089777328422784,0.00021055318928297836,-0.00034239383603571123,0.00040116371065773525,-0.0004441304695872456,0.0002906641542332665,-0.0009582438176546833,0.0,0.0,0.0,0.0,0.0,0.0,0.0,-1.287460327170642e-05,3.234630085654361e-05,2.5033196074924352e-05,2.56743640081325e-06,1.8293786140932689e-06,-2.136230468963163e-06,-1.0626682160896905e-06,-0.0012089777328422784,-0.00021055318928297836,0.00034239383603571123,-0.00040116371065773525,0.0004441304695872456,-0.0002906641542332665,0.0009582438176546833,0.3236324191093445,22.720483779907227,-0.001620553433895111,-14.131807327270508,-0.2007957100868225,-2.1261630058288574,0.23471395671367645,0
51,0.2500181198120117,-0.2720577120780945,-22.672876358032227,-0.02615044265985489,14.155611038208008,0.1888938546180725,2.1453890800476074,-0.26217979192733765,0.0,0.0,0.0,0.0,0.0,0.0,0.0,-0.2750458330284392,0.08552513587309435,-0.08212644518534025,0.2858967487447933,-0.03852880626311067,-0.050007917406919324,-0.2559813104392118,1.6755066100798153,0.05206935041068571,0.02994642075504127,-2.752399064683439,0.034243244757180664,2.7663679543071322,0.7691668116185316,1.6754973547542302,0.052104326824870026,0.029969505109285054,-2.752394845125968,0.0342448039870148,2.7663679543071322,0.7691630533470046,-0.0005142394942589357,-0.0005869006370448571,0.0009506201330300326,0.00017691773699292075,4.255046048358323e-05,-0.00022501856935844633,-0.0001937796935580635,0.0,0.0,0.0,0.0,0.0,0.0,0.0,-9.255325585044716e-06,3.497641418431785e-05,2.3084354243783217e-05,4.219557470985791e-06,1.5592298341360333e-06,0.0,-3.758271526987933e-06,0.0005142394942589357,0.0005869006370448571,-0.0009506201330300326,-0.00017691773699292075,-4.255046048358323e-05,0.00022501856935844633,0.0001937796935580635,0.2720577120780945,22.672876358032227,0.02615044265985489,-14.155611038208008,-0.1888938546180725,-2.1453890800476074,0.26217979192733765,0
52,0.2550685405731201,-0.2720577120780945,-22.672876358032227,-0.02615044265985489,14.155611038208008,0.1888938546180725,2.1453890800476074,-0.26217979192733765,0.0,0.0,0.0,0.0,0.0,0.0,0.0,-0.2750458330284392,0.08552513587309435,-0.08212644518534025,0.2858967487447933,-0.03852880626311067,-0.050007917406919324,-0.2559813104392118,1.6755066100798153,0.05206935041068571,0.02994642075504127,-2.752399064683439,0.034243244757180664,2.7663679543071322,0.7691668116185316,1.6754973547542302,0.052104326824870026,0.029969505109285054,-2.752394845125968,0.0342448039870148,2.7663679543071322,0.7691630533470046,-0.0005142394942589357,-0.0005869006370448571,0.0009506201330300326,0.00017691773699292075,4.255046048358323e-05,-0.00022501856935844633,-0.0001937796935580635,0.0,0.0,0.0,0.0,0.0,0.0,0.0,-9.255325585044716e-06,3.497641418431785e-05,2.3084354243783217e-05,4.219557470985791e-06,1.5592298341360333e-06,0.0,-3.758271526987933e-06,0.0005142394942589357,0.0005869006370448571,-0.0009506201330300326,-0.00017691773699292075,-4.255046048358323e-05,0.00022501856935844633,0.0001937796935580635,0.2720577120780945,22.672876358032227,0.02615044265985489,-14.155611038208008,-0.1888938546180725,-2.1453890800476074,0.26217979192733765,0
53,0.26004505157470703,-0.2720577120780945,-22.696680068969727,0.001620553433895111,14.155611038208008,0.1953025460243225,2.1261630058288574,-0.30337852239608765,0.0,0.0,0.0,0.0,0.0,0.0,0.0,-0.27654536572943494,0.0837549074678869,-0.08460024883458439,0.28729853544765,-0.03880010791699758,-0.04926896894111927,-0.2571937544146657,1.6755066100798153,0.05207243944783669,0.02994447191321013,-2.7523990921554353,0.034242528289919555,2.766370090537601,0.7691717468811085,1.6754973547542302,0.052104326824870026,0.029969505109285054,-2.752394845125968,0.0342448039870148,2.7663679543071322,0.7691630533470046,-2.96701558371544e-05,-0.0006452391119068936,-0.0005138788425730312,-0.00033391455190296353,5.45143239345217e-05,0.000493199735468082,0.001857894303197531,0.0,0.0,0.0,0.0,0.0,0.0,0.0,-9.255325585044716e-06,3.1887377033336384e-05,2.5033196074924352e-05,4.247029467219221e-06,2.27569709524561e-06,-2.136230468963163e-06,-8.693534103820788e-06,2.96701558371544e-05,0.0006452391119068936,0.0005138788425730312,0.00033391455190296353,-5.45143239345217e-05,-0.000493199735468082,-0.001857894303197531,0.2720577120780945,22.696680068969727,-0.001620553433895111,-14.155611038208008,-0.1953025460243225,-2.1261630058288574,0.30337852239608765,0
54,0.26503849029541016,-0.2720577120780945,-22.696680068969727,0.001620553433895111,14.155611038208008,0.1953025460243225,2.1261630058288574,-0.30337852239608765,0.0,0.0,0.0,0.0,0.0,0.0,0.0,-0.27654536572943494,0.0837549074678869,-0.08460024883458439,0.28729853544765,-0.03880010791699758,-0.04926896894111927,-0.2571937544146657,1.6755066100798153,0.05207243944783669,0.02994447191321013,-2.7523990921554353,0.034242528289919555,2.766370090537601,0.7691717468811085,1.6754973547542302,0.052104326824870026,0.029969505109285054,-2.752394845125968,0.0342448039870148,2.7663679543071322,0.7691630533470046,-2.96701558371544e-05,-0.0006452391119068936,-0.0005138788425730312,-0.00033391455190296353,5.45143239345217e-05,0.000493199735468082,0.001857894303197531,0.0,0.0,0.0,0.0,0.0,0.0,0.0,-9.255325585044716e-06,3.1887377033336384e-05,2.5033196074924352e-05,4.247029467219221e-06,2.27569709524561e-06,-2.136230468963163e-06,-8.693534103820788e-06,2.96701558371544e-05,0.0006452391119068936,0.0005138788425730312,0.00033391455190296353,-5.45143239345217e-05,-0.000493199735468082,-0.001857894303197531,0.2720577120780945,22.696680068969727,-0.001620553433895111,-14.155611038208008,-0.1953025460243225,-2.1261630058288574,0.30337852239608765,0
55,0.2700653076171875,-0.2998287081718445,-22.696680068969727,0.001620553433895111,14.207185745239258,0.1888938546180725,2.1389803886413574,-0.25485557317733765,0.0,0.0,0.0,0.0,0.0,0.0,0.0,-0.27608378744612394,0.09104715732829903,-0.08470021397715,0.28644309444953037,-0.038556830800447875,-0.0492298385740844,-0.2587077566955246,1.6755085589216465,0.05207243848264743,0.02994447191321013,-2.7524027114332767,0.034241113885165014,2.766368666383955,0.7691663554443252,1.6754973547542302,0.052104326824870026,0.029969505109285054,-2.752394845125968,0.0342448039870148,2.7663679543071322,0.7691630533470046,0.00019043470638835516,-0.00011958141448749357,0.0004320572810802828,-0.0008064469844327615,5.282367739758024e-05,-3.977693167956858e-05,-0.00011979112176875935,0.0,0.0,0.0,0.0,0.0,0.0,0.0,-1.1204167416289934e-05,3.188834222259823e-05,2.5033196074924352e-05,7.866307308646014e-06,3.690101849786187e-06,-7.120768228396912e-07,-3.302097320578845e-06,-0.00019043470638835516,0.00011958141448749357,-0.0004320572810802828,0.0008064469844327615,-5.282367739758024e-05,3.977693167956858e-05,0.00011979112176875935,0.2998287081718445,22.696680068969727,-0.001620553433895111,-14.207185745239258,-0.1888938546180725,-2.1389803886413574,0.25485557317733765,0
56,0.2750427722930908,-0.2998287081718445,-22.696680068969727,0.001620553433895111,14.207185745239258,0.1888938546180725,2.1389803886413574,-0.25485557317733765,0.0,0.0,0.0,0.0,0.0,0.0,0.0,-0.27608378744612394,0.09104715732829903,-0.08470021397715,0.28644309444953037,-0.038556830800447875,-0.0492298385740844,-0.2587077566955246,1.6755085589216465,0.05207243848264743,0.02994447191321013,-2.7524027114332767,0.034241113885165014,2.766368666383955,0.7691663554443252,1.6754973547542302,0.052104326824870026,0.029969505109285054,-2.752394845125968,0.0342448039870148,2.7663679543071322,0.7691630533470046,0.00019043470638835516,-0.00011958141448749357,0.0004320572810802828,-0.0008064469844327615,5.282367739758024e-05,-3.977693167956858e-05,-0.00011979112176875935,0.0,0.0,0.0,0.0,0.0,0.0,0.0,-1.1204167416289934e-05,3.188834222259823e-05,2.5033196074924352e-05,7.866307308646014e-06,3.690101849786187e-06,-7.120768228396912e-07,-3.302097320578845e-06,-0.00019043470638835516,0.00011958141448749357,-0.0004320572810802828,0.0008064469844327615,-5.282367739758024e-05,3.977693167956858e-05,0.00011979112176875935,0.2998287081718445,22.696680068969727,-0.001620553433895111,-14.207185745239258,-0.1888938546180725,-2.1389803886413574,0.25485557317733765,0
57,0.2800149917602539,-0.2720577120780945,-22.720483779907227,0.001620553433895111,14.179414749145508,0.1888938546180725,2.1325716972351074,-0.25485557317733765,0.0,0.0,0.0,0.0,0.0,0.0,0.0,-0.2773770029472616,0.08702065332737016,-0.08274570125621028,0.2842807210851525,-0.038534931209606195,-0.04901474376330008,-0.2600976254099305,1.6755066195278918,0.05207268999681467,0.02994447191321013,-2.7524007625914457,0.034244310172237044,2.7663693784607783,0.7691663157078954,1.6754973547542302,0.052104326824870026,0.029969505109285054,-2.752394845125968,0.0342448039870148,2.7663679543071322,0.7691630533470046,-8.238871088378947e-05,0.00014118139255477963,0.00017787839637164137,-0.0009229284634179318,0.00019532125207782846,0.00018293870000334842,-0.0007905277862020314,0.0,0.0,0.0,0.0,0.0,0.0,0.0,-9.264773661588066e-06,3.1636828055355004e-05,2.5033196074924352e-05,5.917465477622841e-06,4.938147777563962e-07,-1.4241536461234716e-06,-3.262360890765592e-06,8.238871088378947e-05,-0.00014118139255477963,-0.00017787839637164137,0.0009229284634179318,-0.00019532125207782846,-0.00018293870000334842,0.0007905277862020314,0.2720577120780945,22.720483779907227,-0.001620553433895111,-14.179414749145508,-0.1888938546180725,-2.1325716972351074,0.25485557317733765,0
58,0.2850074768066406,-0.2720577120780945,-22.720483779907227,0.001620553433895111,14.179414749145508,0.1888938546180725,2.1325716972351074,-0.25485557317733765,0.0,0.0,0.0,0.0,0.0,0.0,0.0,-0.2773770029472616,0.08702065332737016,-0.08274570125621028,0.2842807210851525,-0.038534931209606195,-0.04901474376330008,-0.2600976254099305,1.6755066195278918,0.05207268999681467,0.02994447191321013,-2.7524007625914457,0.034244310172237044,2.7663693784607783,0.7691663157078954,1.6754973547542302,0.052104326824870026,0.029969505109285054,-2.752394845125968,0.0342448039870148,2.7663679543071322,0.7691630533470046,-8.238871088378947e-05,0.00014118139255477963,0.00017787839637164137,-0.0009229284634179318,0.00019532125207782846,0.00018293870000334842,-0.0007905277862020314,0.0,0.0,0.0,0.0,0.0,0.0,0.0,-9.264773661588066e-06,3.1636828055355004e-05,2.5033196074924352e-05,5.917465477622841e-06,4.938147777563962e-07,-1.4241536461234716e-06,-3.262360890765592e-06,8.238871088378947e-05,-0.00014118139255477963,-0.00017787839637164137,0.0009229284634179318,-0.00019532125207782846,-0.00018293870000334842,0.0007905277862020314,0.2720577120780945,22.720483779907227,-0.001620553433895111,-14.179414749145508,-0.1888938546180725,-2.1325716972351074,0.25485557317733765,0
59,0.29000043869018555,-0.2998287081718445,-22.696680068969727,-0.02615044265985489,14.131807327270508,0.1888938546180725,2.1389803886413574,-0.25485557317733765,0.0,0.0,0.0,0.0,0.0,0.0,0.0,-0.2803309505819554,0.08738572117024726,-0.08248812132052827,0.28439652606436283,-0.03826875302233852,-0.04887684163848897,-0.26204067910652273,1.6755106252164789,0.052070310448547326,0.02994642075504127,-2.7523974217197353,0.0342441918088321,2.766368666383955,0.7691663554423064,1.6754973547542302,0.052104326824870026,0.029969505109285054,-2.752394845125968,0.0342448039870148,2.7663679543071322,0.7691630533470046,0.00019924611413742684,-0.0002762469841803384,0.0006701535190731067,0.0005249967065197067,0.00037974269723668557,-0.0002905924182233375,0.00032333784495862123,0.0,0.0,0.0,0.0,0.0,0.0,0.0,-1.3270462248637926e-05,3.401637632269999e-05,2.3084354243783217e-05,2.576593767233959e-06,6.121781827017614e-07,-7.120768228396912e-07,-3.302095301749297e-06,-0.00019924611413742684,0.0002762469841803384,-0.0006701535190731067,-0.0005249967065197067,-0.00037974269723668557,0.0002905924182233375,-0.00032333784495862123,0.2998287081718445,22.696680068969727,0.02615044265985489,-14.131807327270508,-0.1888938546180725,-2.1389803886413574,0.25485557317733765,0
60,0.2950289249420166,-0.2998287081718445,-22.696680068969727,-0.02615044265985489,14.131807327270508,0.1888938546180725,2.1389803886413574,-0.25485557317733765,0.0,0.0,0.0,0.0,0.0,0.0,0.0,-0.2803309505819554,0.08738572117024726,-0.08248812132052827,0.28439652606436283,-0.03826875302233852,-0.04887684163848897,-0.26204067910652273,1.6755106252164789,0.052070310448547326,0.02994642075504127,-2.7523974217197353,0.0342441918088321,2.766368666383955,0.7691663554423064,1.6754973547542302,0.052104326824870026,0.029969505109285054,-2.752394845125968,0.0342448039870148,2.7663679543071322,0.7691630533470046,0.00019924611413742684,-0.0002762469841803384,0.0006701535190731067,0.0005249967065197067,0.00037974269723668557,-0.0002905924182233375,0.00032333784495862123,0.0,0.0,0.0,0.0,0.0,0.0,0.0,-1.3270462248637926e-05,3.401637632269999e-05,2.3084354243783217e-05,2.576593767233959e-06,6.121781827017614e-07,-7.120768228396912e-07,-3.302095301749297e-06,-0.00019924611413742684,0.0002762469841803384,-0.0006701535190731067,-0.0005249967065197067,-0.00037974269723668557,0.0002905924182233375,-0.00032333784495862123,0.2998287081718445,22.696680068969727,0.02615044265985489,-14.131807327270508,-0.1888938546180725,-2.1389803886413574,0.25485557317733765,0
61,0.3000173568725586,-0.24825400114059448,-22.696680068969727,0.001620553433895111,14.155611038208008,0.1953025460243225,2.1325716972351074,-0.29605430364608765,0.0,0.0,0.0,0.0,0.0,0.0,0.0,-0.2782582698645093,0.08448165503712994,-0.07882922156383183,0.2813212920392539,-0.038666155891855986,-0.049330906491451776,-0.261574822495585,1.6755049396452562,0.05207054693549404,0.02994447191321013,-2.7523990921555903,0.03424359809533991,2.7663693784607783,0.769170933081044,1.6754973547542302,0.052104326824870026,0.029969505109285054,-2.752394845125968,0.0342448039870148,2.7663679543071322,0.7691630533470046,-0.0002753120438376765,-0.0004452347175151409,7.164428761727919e-05,-0.0004918786460048979,6.0588595066573995e-05,6.78465992573192e-05,0.0009030016634839342,0.0,0.0,0.0,0.0,0.0,0.0,0.0,-7.584891025924634e-06,3.377988937598719e-05,2.5033196074924352e-05,4.247029622206355e-06,1.2058916748908244e-06,-1.4241536461234716e-06,-7.879734039373254e-06,0.0002753120438376765,0.0004452347175151409,-7.164428761727919e-05,0.0004918786460048979,-6.0588595066573995e-05,-6.78465992573192e-05,-0.0009030016634839342,0.24825400114059448,22.696680068969727,-0.001620553433895111,-14.155611038208008,-0.1953025460243225,-2.1325716972351074,0.29605430364608765,0
62,0.30506038665771484,-0.24825400114059448,-22.696680068969727,0.001620553433895111,14.155611038208008,0.1953025460243225,2.1325716972351074,-0.29605430364608765,0.0,0.0,0.0,0.0,0.0,0.0,0.0,-0.2782582698645093,0.08448165503712994,-0.07882922156383183,0.2813212920392539,-0.038666155891855986,-0.049330906491451776,-0.261574822495585,1.6755049396452562,0.05207054693549404,0.02994447191321013,-2.7523990921555903,0.03424359809533991,2.7663693784607783,0.769170933081044,1.6754973547542302,0.052104326824870026,0.029969505109285054,-2.752394845125968,0.0342448039870148,2.7663679543071322,0.7691630533470046,-0.0002753120438376765,-0.0004452347175151409,7.164428761727919e-05,-0.0004918786460048979,6.0588595066573995e-05,6.78465992573192e-05,0.0009030016634839342,0.0,0.0,0.0,0.0,0.0,0.0,0.0,-7.584891025924634e-06,3.377988937598719e-05,2.5033196074924352e-05,4.247029622206355e-06,1.2058916748908244e-06,-1.4241536461234716e-06,-7.879734039373254e-06,0.0002753120438376765,0.0004452347175151409,-7.164428761727919e-05,0.0004918786460048979,-6.0588595066573995e-05,-6.78465992573192e-05,-0.0009030016634839342,0.24825400114059448,22.696680068969727,-0.001620553433895111,-14.155611038208008,-0.1953025460243225,-2.1325716972351074,0.29605430364608765,0
63,0.3100707530975342,-0.2998287081718445,-22.748254776000977,0.001620553433895111,14.155611038208008,0.2007957100868225,2.1389803886413574,-0.25485557317733765,0.0,0.0,0.0,0.0,0.0,0.0,0.0,-0.27786085203333405,0.08052289505714627,-0.08114022736572962,0.2834264525134804,-0.038348271213625544,-0.04965111076535099,-0.26221836493590683,1.6755085589216465,0.0520739306647231,0.02994447191321013,-2.752399091138105,0.03424298776189476,2.766368666383955,0.7691659978164566,1.6754973547542302,0.052104326824870026,0.029969505109285054,-2.752394845125968,0.0342448039870148,2.7663679543071322,0.7691630533470046,0.00029519039140633077,0.0004721254081458813,-8.067697908475402e-05,9.62762871284441e-05,-0.0002159989679740526,-0.00032561883781479374,4.5807355646089696e-05,0.0,0.0,0.0,0.0,0.0,0.0,0.0,-1.1204167416289934e-05,3.0396160146925477e-05,2.5033196074924352e-05,4.2460121369991555e-06,1.8162251200423696e-06,-7.120768228396912e-07,-2.9444694519265013e-06,-0.00029519039140633077,-0.0004721254081458813,8.067697908475402e-05,-9.62762871284441e-05,0.0002159989679740526,0.00032561883781479374,-4.5807355646089696e-05,0.2998287081718445,22.748254776000977,-0.001620553433895111,-14.155611038208008,-0.2007957100868225,-2.1389803886413574,0.25485557317733765,0
64,0.31507110595703125,-0.2998287081718445,-22.748254776000977,0.001620553433895111,14.155611038208008,0.2007957100868225,2.1389803886413574,-0.25485557317733765,0.0,0.0,0.0,0.0,0.0,0.0,0.0,-0.27786085203333405,0.08052289505714627,-0.08114022736572962,0.2834264525134804,-0.038348271213625544,-0.04965111076535099,-0.26221836493590683,1.6755085589216465,0.0520739306647231,0.02994447191321013,-2.752399091138105,0.03424298776189476,2.766368666383955,0.7691659978164566,1.6754973547542302,0.052104326824870026,0.029969505109285054,-2.752394845125968,0.0342448039870148,2.7663679543071322,0.7691630533470046,0.00029519039140633077,0.0004721254081458813,-8.067697908475402e-05,9.62762871284441e-05,-0.0002159989679740526,-0.00032561883781479374,4.5807355646089696e-05,0.0,0.0,0.0,0.0,0.0,0.0,0.0,-1.1204167416289934e-05,3.0396160146925477e-05,2.5033196074924352e-05,4.2460121369991555e-06,1.8162251200423696e-06,-7.120768228396912e-07,-2.9444694519265013e-06,-0.00029519039140633077,-0.0004721254081458813,8.067697908475402e-05,-9.62762871284441e-05,0.0002159989679740526,0.00032561883781479374,-4.5807355646089696e-05,0.2998287081718445,22.748254776000977,-0.001620553433895111,-14.155611038208008,-0.2007957100868225,-2.1389803886413574,0.25485557317733765,0
65,0.32000017166137695,-0.2998287081718445,-22.748254776000977,0.001620553433895111,14.155611038208008,0.2007957100868225,2.1389803886413574,-0.25485557317733765,0.0,0.0,0.0,0.0,0.0,0.0,0.0,-0.27786085203333405,0.08052289505714627,-0.08114022736572962,0.2834264525134804,-0.038348271213625544,-0.04965111076535099,-0.26221836493590683,1.6755085589216465,0.0520739306647231,0.02994447191321013,-2.752399091138105,0.03424298776189476,2.766368666383955,0.7691659978164566,1.6754973547542302,0.052104326824870026,0.029969505109285054,-2.752394845125968,0.0342448039870148,2.7663679543071322,0.7691630533470046,0.00029519039140633077,0.0004721254081458813,-8.067697908475402e-05,9.62762871284441e-05,-0.0002159989679740526,-0.00032561883781479374,4.5807355646089696e-05,0.0,0.0,0.0,0.0,0.0,0.0,0.0,-1.1204167416289934e-05,3.0396160146925477e-05,2.5033196074924352e-05,4.2460121369991555e-06,1.8162251200423696e-06,-7.120768228396912e-07,-2.9444694519265013e-06,-0.00029519039140633077,-0.0004721254081458813,8.067697908475402e-05,-9.62762871284441e-05,0.0002159989679740526,0.00032561883781479374,-4.5807355646089696e-05,0.2998287081718445,22.748254776000977,-0.001620553433895111,-14.155611038208008,-0.2007957100868225,-2.1389803886413574,0.25485557317733765,0
66,0.32501912117004395,-0.2998287081718445,-22.748254776000977,0.001620553433895111,14.155611038208008,0.2007957100868225,2.1389803886413574,-0.25485557317733765,0.0,0.0,0.0,0.0,0.0,0.0,0.0,-0.27786085203333405,0.08052289505714627,-0.08114022736572962,0.2834264525134804,-0.038348271213625544,-0.04965111076535099,-0.26221836493590683,1.6755085589216465,0.0520739306647231,0.02994447191321013,-2.752399091138105,0.03424298776189476,2.766368666383955,0.7691659978164566,1.6754973547542302,0.052104326824870026,0.029969505109285054,-2.752394845125968,0.0342448039870148,2.7663679543071322,0.7691630533470046,0.00029519039140633077,0.0004721254081458813,-8.067697908475402e-05,9.62762871284441e-05,-0.0002159989679740526,-0.00032561883781479374,4.5807355646089696e-05,0.0,0.0,0.0,0.0,0.0,0.0,0.0,-1.1204167416289934e-05,3.0396160146925477e-05,2.5033196074924352e-05,4.2460121369991555e-06,1.8162251200423696e-06,-7.120768228396912e-07,-2.9444694519265013e-06,-0.00029519039140633077,-0.0004721254081458813,8.067697908475402e-05,-9.62762871284441e-05,0.0002159989679740526,0.00032561883781479374,-4.5807355646089696e-05,0.2998287081718445,22.748254776000977,-0.001620553433895111,-14.155611038208008,-0.2007957100868225,-2.1389803886413574,0.25485557317733765,0
67,0.3300004005432129,-0.24825400114059448,-22.696680068969727,0.001620553433895111,14.108003616333008,0.1834006905555725,2.1197543144226074,-0.27591270208358765,0.0,0.0,0.0,0.0,0.0,0.0,0.0,-0.2712011657693437,0.08714713900684472,-0.07421133680689959,0.27672873614607896,-0.03916786212741853,-0.05179590078475419,-0.2616633930671477,1.67550493964396,0.05207275707860757,0.02994447191321013,-2.7523957512838795,0.03424492054184278,2.7663708024529186,0.7691686951250906,1.6754973547542302,0.052104326824870026,0.029969505109285054,-2.752394845125968,0.0342448039870148,2.7663679543071322,0.7691630533470046,5.2787909516266996e-05,-0.0002950072180307739,9.67388935155378e-05,0.001123366993609438,0.0002663292280159708,0.0005404175368514543,0.00016743409157571286,0.0,0.0,0.0,0.0,0.0,0.0,0.0,-7.584889729850275e-06,3.156974626245673e-05,2.5033196074924352e-05,9.061579113733842e-07,-1.1655482797662264e-07,-2.848145786327194e-06,-5.641778085929694e-06,-5.2787909516266996e-05,0.0002950072180307739,-9.67388935155378e-05,-0.001123366993609438,-0.0002663292280159708,-0.0005404175368514543,-0.00016743409157571286,0.24825400114059448,22.696680068969727,-0.001620553433895111,-14.108003616333008,-0.1834006905555725,-2.1197543144226074,0.27591270208358765,0
68,0.33499574661254883,-0.24825400114059448,-22.696680068969727,0.001620553433895111,14.108003616333008,0.1834006905555725,2.1197543144226074,-0.27591270208358765,0.0,0.0,0.0,0.0,0.0,0.0,0.0,-0.2712011657693437,0.08714713900684472,-0.07421133680689959,0.27672873614607896,-0.03916786212741853,-0.05179590078475419,-0.2616633930671477,1.67550493964396,0.05207275707860757,0.02994447191321013,-2.7523957512838795,0.03424492054184278,2.7663708024529186,0.7691686951250906,1.6754973547542302,0.052104326824870026,0.029969505109285054,-2.752394845125968,0.0342448039870148,2.7663679543071322,0.7691630533470046,5.2787909516266996e-05,-0.0002950072180307739,9.67388935155378e-05,0.001123366993609438,0.0002663292280159708,0.0005404175368514543,0.00016743409157571286,0.0,0.0,0.0,0.0,0.0,0.0,0.0,-7.584889729850275e-06,3.156974626245673e-05,2.5033196074924352e-05,9.061579113733842e-07,-1.1655482797662264e-07,-2.848145786327194e-06,-5.641778085929694e-06,-5.2787909516266996e-05,0.0002950072180307739,-9.67388935155378e-05,-0.001123366993609438,-0.0002663292280159708,-0.0005404175368514543,-0.00016743409157571286,0.24825400114059448,22.696680068969727,-0.001620553433895111,-14.108003616333008,-0.1834006905555725,-2.1197543144226074,0.27591270208358765,0
69,0.3400301933288574,-0.2720577120780945,-22.696680068969727,0.001620553433895111,14.155611038208008,0.2007957100868225,2.1261630058288574,-0.28232139348983765,0.0,0.0,0.0,0.0,0.0,0.0,0.0,-0.273215160624383,0.08215238172000391,-0.07787140324344725,0.28218971700542717,-0.03934029983232448,-0.05165970623112096,-0.2625485532129465,1.6755066100798153,0.052070311075113916,0.02994447191321013,-2.7523990921555903,0.03424263261755307,2.7663700905376003,0.7691694072021378,1.6754973547542302,0.052104326824870026,0.029969505109285054,-2.752394845125968,0.0342448039870148,2.7663679543071322,0.7691630533470046,8.393075161190751e-05,-0.00037249687882595964,0.0002664595832002225,0.00019421589022232814,-0.00023473010924032704,0.00016714810966700035,0.0008258797331552731,0.0,0.0,0.0,0.0,0.0,0.0,0.0,-9.255325585044716e-06,3.4015749756109714e-05,2.5033196074924352e-05,4.247029622206355e-06,2.1713694617273016e-06,-2.1362304680749844e-06,-6.3538551331454585e-06,-8.393075161190751e-05,0.00037249687882595964,-0.0002664595832002225,-0.00019421589022232814,0.00023473010924032704,-0.00016714810966700035,-0.0008258797331552731,0.2720577120780945,22.696680068969727,-0.001620553433895111,-14.155611038208008,-0.2007957100868225,-2.1261630058288574,0.28232139348983765,0
70,0.3450148105621338,-0.2720577120780945,-22.696680068969727,0.001620553433895111,14.155611038208008,0.2007957100868225,2.1261630058288574,-0.28232139348983765,0.0,0.0,0.0,0.0,0.0,0.0,0.0,-0.273215160624383,0.08215238172000391,-0.07787140324344725,0.28218971700542717,-0.03934029983232448,-0.05165970623112096,-0.2625485532129465,1.6755066100798153,0.052070311075113916,0.02994447191321013,-2.7523990921555903,0.03424263261755307,2.7663700905376003,0.7691694072021378,1.6754973547542302,0.052104326824870026,0.029969505109285054,-2.752394845125968,0.0342448039870148,2.7663679543071322,0.7691630533470046,8.393075161190751e-05,-0.00037249687882595964,0.0002664595832002225,0.00019421589022232814,-0.00023473010924032704,0.00016714810966700035,0.0008258797331552731,0.0,0.0,0.0,0.0,0.0,0.0,0.0,-9.255325585044716e-06,3.4015749756109714e-05,2.5033196074924352e-05,4.247029622206355e-06,2.1713694617273016e-06,-2.1362304680749844e-06,-6.3538551331454585e-06,-8.393075161190751e-05,0.00037249687882595964,-0.0002664595832002225,-0.00019421589022232814,0.00023473010924032704,-0.00016714810966700035,-0.0008258797331552731,0.2720577120780945,22.696680068969727,-0.001620553433895111,-14.155611038208008,-0.2007957100868225,-2.1261630058288574,0.28232139348983765,0
71,0.35006165504455566,-0.2998287081718445,-22.696680068969727,0.001620553433895111,14.179414749145508,0.1953025460243225,2.1389803886413574,-0.23471395671367645,0.0,0.0,0.0,0.0,0.0,0.0,0.0,-0.27328722985959447,0.0883344247115055,-0.07717730518631742,0.2798342507470363,-0.03870924561381802,-0.05300001991139051,-0.26269648775323584,1.6755085589216465,0.05207031008810884,0.02994447191321013,-2.7524007625914457,0.03424359811145256,2.766368666383955,0.7691641174869404,1.6754973547542302,0.052104326824870026,0.029969505109285054,-2.752394845125968,0.0342448039870148,2.7663679543071322,0.7691630533470046,0.000665756590613593,8.944322887314353e-05,0.00031089291294658856,-0.0004047387614240295,1.799000420745657e-05,-0.00016466785592759772,-0.001281241226742857,0.0,0.0,0.0,0.0,0.0,0.0,0.0,-1.1204167416289934e-05,3.401673676118461e-05,2.5033196074924352e-05,5.917465477622841e-06,1.2058755622379458e-06,-7.120768228396912e-07,-1.0641399357247394e-06,-0.000665756590613593,-8.944322887314353e-05,-0.00031089291294658856,0.0004047387614240295,-1.799000420745657e-05,0.00016466785592759772,0.001281241226742857,0.2998287081718445,22.696680068969727,-0.001620553433895111,-14.179414749145508,-0.1953025460243225,-2.1389803886413574,0.23471395671367645,0
72,0.35504674911499023,-0.2998287081718445,-22.696680068969727,0.001620553433895111,14.179414749145508,0.1953025460243225,2.1389803886413574,-0.23471395671367645,0.0,0.0,0.0,0.0,0.0,0.0,0.0,-0.27328722985959447,0.0883344247115055,-0.07717730518631742,0.2798342507470363,-0.03870924561381802,-0.05300001991139051,-0.26269648775323584,1.6755085589216465,0.05207031008810884,0.02994447191321013,-2.7524007625914457,0.03424359811145256,2.766368666383955,0.7691641174869404,1.6754973547542302,0.052104326824870026,0.029969505109285054,-2.752394845125968,0.0342448039870148,2.7663679543071322,0.7691630533470046,0.000665756590613593,8.944322887314353e-05,0.00031089291294658856,-0.0004047387614240295,1.799000420745657e-05,-0.00016466785592759772,-0.001281241226742857,0.0,0.0,0.0,0.0,0.0,0.0,0.0,-1.1204167416289934e-05,3.401673676118461e-05,2.5033196074924352e-05,5.917465477622841e-06,1.2058755622379458e-06,-7.120768228396912e-07,-1.0641399357247394e-06,-0.000665756590613593,-8.944322887314353e-05,-0.00031089291294658856,0.0004047387614240295,-1.799000420745657e-05,0.00016466785592759772,0.001281241226742857,0.2998287081718445,22.696680068969727,-0.001620553433895111,-14.179414749145508,-0.1953025460243225,-2.1389803886413574,0.23471395671367645,0
73,0.36000561714172363,-0.24825400114059448,-22.720483779907227,0.04922797530889511,14.131807327270508,0.1953025460243225,2.1325716972351074,-0.25485557317733765,0.0,0.0,0.0,0.0,0.0,0.0,0.0,-0.2772774880106125,0.08215782517118868,-0.08090087599603127,0.28540859149647446,-0.03818865354799244,-0.05220586293004221,-0.26252257460141565,1.6755050190078036,0.05207198052395853,0.0299411310414996,-2.7523974217197353,0.03424359811345726,2.7663693784607783,0.7691663554443252,1.6754973547542302,0.052104326824870026,0.029969505109285054,-2.752394845125968,0.0342448039870148,2.7663679543071322,0.7691630533470046,-0.000613978973782285,0.0002933353391698633,-0.0015361092533156598,0.0007085493449065504,2.3125256506675024e-05,8.82580181266018e-05,0.00032793319587330925,0.0,0.0,0.0,0.0,0.0,0.0,0.0,-7.664253573347324e-06,3.234630091149271e-05,2.8374067785452012e-05,2.576593767233959e-06,1.2058735575429247e-06,-1.4241536461234716e-06,-3.302097320578845e-06,0.000613978973782285,-0.0002933353391698633,0.0015361092533156598,-0.0007085493449065504,-2.3125256506675024e-05,-8.82580181266018e-05,-0.00032793319587330925,0.24825400114059448,22.720483779907227,-0.04922797530889511,-14.131807327270508,-0.1953025460243225,-2.1325716972351074,0.25485557317733765,0
74,0.36499905586242676,-0.24825400114059448,-22.720483779907227,0.04922797530889511,14.131807327270508,0.1953025460243225,2.1325716972351074,-0.25485557317733765,0.0,0.0,0.0,0.0,0.0,0.0,0.0,-0.2772774880106125,0.08215782517118868,-0.08090087599603127,0.28540859149647446,-0.03818865354799244,-0.05220586293004221,-0.26252257460141565,1.6755050190078036,0.05207198052395853,0.0299411310414996,-2.7523974217197353,0.03424359811345726,2.7663693784607783,0.7691663554443252,1.6754973547542302,0.052104326824870026,0.029969505109285054,-2.752394845125968,0.0342448039870148,2.7663679543071322,0.7691630533470046,-0.000613978973782285,0.0002933353391698633,-0.0015361092533156598,0.0007085493449065504,2.3125256506675024e-05,8.82580181266018e-05,0.00032793319587330925,0.0,0.0,0.0,0.0,0.0,0.0,0.0,-7.664253573347324e-06,3.234630091149271e-05,2.8374067785452012e-05,2.576593767233959e-06,1.2058735575429247e-06,-1.4241536461234716e-06,-3.302097320578845e-06,0.000613978973782285,-0.0002933353391698633,0.0015361092533156598,-0.0007085493449065504,-2.3125256506675024e-05,-8.82580181266018e-05,-0.00032793319587330925,0.24825400114059448,22.720483779907227,-0.04922797530889511,-14.131807327270508,-0.1953025460243225,-2.1325716972351074,0.25485557317733765,0
75,0.37000083923339844,-0.2720577120780945,-22.672876358032227,0.001620553433895111,14.179414749145508,0.1834006905555725,2.1389803886413574,-0.29605430364608765,0.0,0.0,0.0,0.0,0.0,0.0,0.0,-0.27467212826773363,0.08872147118769341,-0.08126851262058987,0.282627016801954,-0.038402304862578014,-0.052189670856808194,-0.26136108111095807,1.675506610079865,0.05206863976038104,0.02994447191321013,-2.7524007625914457,0.03424492054184278,2.766368666383955,0.769170933081044,1.6754973547542302,0.052104326824870026,0.029969505109285054,-2.752394845125968,0.0342448039870148,2.7663679543071322,0.7691630533470046,-0.00028349958445173456,-0.00045021746058445425,0.00024195921009593485,-0.0005626019685199656,0.00032847726706596925,-0.00014995856541762857,0.0013490374440471794,0.0,0.0,0.0,0.0,0.0,0.0,0.0,-9.255325634782707e-06,3.568706448898312e-05,2.5033196074924352e-05,5.917465477622841e-06,-1.1655482797662264e-07,-7.120768228396912e-07,-7.879734039373254e-06,0.00028349958445173456,0.00045021746058445425,-0.00024195921009593485,0.0005626019685199656,-0.00032847726706596925,0.00014995856541762857,-0.0013490374440471794,0.2720577120780945,22.672876358032227,-0.001620553433895111,-14.179414749145508,-0.1834006905555725,-2.1389803886413574,0.29605430364608765,0
76,0.3749980926513672,-0.2720577120780945,-22.672876358032227,0.001620553433895111,14.179414749145508,0.1834006905555725,2.1389803886413574,-0.29605430364608765,0.0,0.0,0.0,0.0,0.0,0.0,0.0,-0.27467212826773363,0.08872147118769341,-0.08126851262058987,0.282627016801954,-0.038402304862578014,-0.052189670856808194,-0.26136108111095807,1.675506610079865,0.05206863976038104,0.02994447191321013,-2.7524007625914457,0.03424492054184278,2.766368666383955,0.769170933081044,1.6754973547542302,0.052104326824870026,0.029969505109285054,-2.752394845125968,0.0342448039870148,2.7663679543071322,0.7691630533470046,-0.00028349958445173456,-0.00045021746058445425,0.00024195921009593485,-0.0005626019685199656,0.00032847726706596925,-0.00014995856541762857,0.0013490374440471794,0.0,0.0,0.0,0.0,0.0,0.0,0.0,-9.255325634782707e-06,3.568706448898312e-05,2.5033196074924352e-05,5.917465477622841e-06,-1.1655482797662264e-07,-7.120768228396912e-07,-7.879734039373254e-06,0.00028349958445173456,0.00045021746058445425,-0.00024195921009593485,0.0005626019685199656,-0.00032847726706596925,0.00014995856541762857,-0.0013490374440471794,0.2720577120780945,22.672876358032227,-0.001620553433895111,-14.179414749145508,-0.1834006905555725,-2.1389803886413574,0.29605430364608765,0
77,0.3800194263458252,-0.3236324191093445,-22.748254776000977,0.001620553433895111,14.155611038208008,0.1953025460243225,2.1325716972351074,-0.26217979192733765,0.0,0.0,0.0,0.0,0.0,0.0,0.0,-0.27495477017688197,0.08378092977918157,-0.08037334671413136,0.28612265129863823,-0.038965128661672614,-0.05135748902600025,-0.26201224083038116,1.6755102548673084,0.05207393228538182,0.02994447191321013,-2.7523990921555903,0.03424359809541416,2.7663693784607783,0.7691703481607967,1.6754973547542302,0.052104326824870026,0.029969505109285054,-2.752394845125968,0.0342448039870148,2.7663679543071322,0.7691630533470046,0.0010786409473016712,0.0004843388662206275,0.00040823603085243766,-0.00012962805144823704,-0.00021562000397422584,9.87322859690238e-05,-0.00021587592973910046,0.0,0.0,0.0,0.0,0.0,0.0,0.0,-1.290011307819583e-05,3.039453948820714e-05,2.5033196074924352e-05,4.247029622206355e-06,1.2058916006377207e-06,-1.4241536461234716e-06,-7.29481379202479e-06,-0.0010786409473016712,-0.0004843388662206275,-0.00040823603085243766,0.00012962805144823704,0.00021562000397422584,-9.87322859690238e-05,0.00021587592973910046,0.3236324191093445,22.748254776000977,-0.001620553433895111,-14.155611038208008,-0.1953025460243225,-2.1325716972351074,0.26217979192733765,0
78,0.38501787185668945,-0.3236324191093445,-22.748254776000977,0.001620553433895111,14.155611038208008,0.1953025460243225,2.1325716972351074,-0.26217979192733765,0.0,0.0,0.0,0.0,0.0,0.0,0.0,-0.27495477017688197,0.08378092977918157,-0.08037334671413136,0.28612265129863823,-0.038965128661672614,-0.05135748902600025,-0.26201224083038116,1.6755102548673084,0.05207393228538182,0.02994447191321013,-2.7523990921555903,0.03424359809541416,2.7663693784607783,0.7691703481607967,1.6754973547542302,0.052104326824870026,0.029969505109285054,-2.752394845125968,0.0342448039870148,2.7663679543071322,0.7691630533470046,0.0010786409473016712,0.0004843388662206275,0.00040823603085243766,-0.00012962805144823704,-0.00021562000397422584,9.87322859690238e-05,-0.00021587592973910046,0.0,0.0,0.0,0.0,0.0,0.0,0.0,-1.290011307819583e-05,3.039453948820714e-05,2.5033196074924352e-05,4.247029622206355e-06,1.2058916006377207e-06,-1.4241536461234716e-06,-7.29481379202479e-06,-0.0010786409473016712,-0.0004843388662206275,-0.00040823603085243766,0.00012962805144823704,0.00021562000397422584,-9.87322859690238e-05,0.00021587592973910046,0.3236324191093445,22.748254776000977,-0.001620553433895111,-14.155611038208008,-0.1953025460243225,-2.1325716972351074,0.26217979192733765,0
79,0.3900463581085205,-0.24825400114059448,-22.748254776000977,0.02542426437139511,14.108003616333008,0.1888938546180725,2.1389803886413574,-0.23471395671367645,0.0,0.0,0.0,0.0,0.0,0.0,0.0,-0.2727032691651218,0.08775717165517802,-0.07773202706069503,0.2854729909357666,-0.039478630751933176,-0.05143080879575374,-0.26297604969811883,1.6755056284088883,0.052076066507105834,0.029942801477354865,-2.75239572381178,0.03424430580578213,2.766368666383955,0.7691641175048854,1.6754973547542302,0.052104326824870026,0.029969505109285054,-2.752394845125968,0.0342448039870148,2.7663679543071322,0.7691630533470046,-0.0001720462403753035,0.0010580955884160884,-0.0005578208448820514,0.0013445192243643016,0.00036507382101850415,-0.0001218732650852354,-0.0012566007692677874,0.0,0.0,0.0,0.0,0.0,0.0,0.0,-8.273654658053076e-06,2.8260317764192133e-05,2.6703631930188182e-05,8.786858121112573e-07,4.981812326693147e-07,-7.120768228396912e-07,-1.064157880814598e-06,0.0001720462403753035,-0.0010580955884160884,0.0005578208448820514,-0.0013445192243643016,-0.00036507382101850415,0.0001218732650852354,0.0012566007692677874,0.24825400114059448,22.748254776000977,-0.02542426437139511,-14.108003616333008,-0.1888938546180725,-2.1389803886413574,0.23471395671367645,0
