rezayati/contactInterpretation/dataset/franka_main/labeled_data/link5/c3_3.csv
index,time,tau_J0,tau_J1,tau_J2,tau_J3,tau_J4,tau_J5,tau_J6,tau_J_d0,tau_J_d1,tau_J_d2,tau_J_d3,tau_J_d4,tau_J_d5,tau_J_d6,tau_ext0,tau_ext1,tau_ext2,tau_ext3,tau_ext4,tau_ext5,tau_ext6,q0,q1,q2,q3,q4,q5,q6,q_d0,q_d1,q_d2,q_d3,q_d4,q_d5,q_d6,dq0,dq1,dq2,dq3,dq4,dq5,dq6,dq_d0,dq_d1,dq_d2,dq_d3,dq_d4,dq_d5,dq_d6,e0,e1,e2,e3,e4,e5,e6,de0,de1,de2,de3,de4,de5,de6,etau_J0,etau_J1,etau_J2,etau_J3,etau_J4,etau_J5,etau_J6,label
1,0.0,-0.3514034152030945,-34.09072494506836,-3.7752349376678467,19.412263870239258,0.2191062569618225,1.790164589881897,-0.11111776530742645,0.0,0.0,0.0,0.0,0.0,0.0,0.0,-0.3707846582283941,-0.019019753075491943,-0.2304714728259002,0.4086822826561323,0.16742138686631083,-0.11861813342071925,-0.10143039817593993,1.0545311604508678,0.3240073629612031,-0.3924884934928783,-2.15358870303296,0.8647525511297343,2.465991656294739,0.5444892771057699,1.0544104758940245,0.3238615046091247,-0.39250456234122666,-2.153291787532338,0.8647539153680389,2.46587817577521,0.5445020185570556,8.310823477938925e-05,-0.00012213778891076145,-0.0005092172352261525,0.0007330976018510087,0.00022313583424787733,-0.0002465801136236311,0.00016449794470210248,0.0,0.0,0.0,0.0,0.0,0.0,0.0,-0.00012068455684333124,-0.00014585835207836517,-1.6068848348371745e-05,0.0002969155006220525,1.3642383046574835e-06,-0.00011348051952886351,1.27414512857138e-05,-8.310823477938925e-05,0.00012213778891076145,0.0005092172352261525,-0.0007330976018510087,-0.00022313583424787733,0.0002465801136236311,-0.00016449794470210248,0.3514034152030945,34.09072494506836,3.7752349376678467,-19.412263870239258,-0.2191062569618225,-1.790164589881897,0.11111776530742645,0
2,0.005044460296630859,-0.4029781222343445,-34.09072494506836,-3.7752349376678467,19.459871292114258,0.2191062569618225,1.783755898475647,-0.13858358561992645,0.0,0.0,0.0,0.0,0.0,0.0,0.0,-0.3748471903264242,-0.006719750690333074,-0.23570143029054857,0.3985124392511658,0.16792826733671515,-0.11930971233588544,-0.10096978407232152,1.0545368460233053,0.3240066478319766,-0.39248849349272874,-2.1535920530619856,0.8647525642116126,2.46599238145344,0.5444923246644618,1.0544104758940245,0.3238615046091247,-0.39250456234122666,-2.153291787532338,0.8647539153680389,2.46587817577521,0.5445020185570556,0.0007979037565099399,0.0003251323491684662,-0.00033204326955317906,-0.0006220105238362172,0.0002430780002125005,0.00011583478241650327,0.0016618190886829149,0.0,0.0,0.0,0.0,0.0,0.0,0.0,-0.00012637012928085056,-0.00014514322285186232,-1.6068848497918786e-05,0.00030026552964779185,1.3511564262991271e-06,-0.00011420567822995054,9.693892593753972e-06,-0.0007979037565099399,-0.0003251323491684662,0.00033204326955317906,0.0006220105238362172,-0.0002430780002125005,-0.00011583478241650327,-0.0016618190886829149,0.4029781222343445,34.09072494506836,3.7752349376678467,-19.459871292114258,-0.2191062569618225,-1.783755898475647,0.13858358561992645,0
3,0.010042667388916016,-0.4029781222343445,-34.09072494506836,-3.7752349376678467,19.459871292114258,0.2191062569618225,1.783755898475647,-0.13858358561992645,0.0,0.0,0.0,0.0,0.0,0.0,0.0,-0.3748471903264242,-0.006719750690333074,-0.23570143029054857,0.3985124392511658,0.16792826733671515,-0.11930971233588544,-0.10096978407232152,1.0545368460233053,0.3240066478319766,-0.39248849349272874,-2.1535920530619856,0.8647525642116126,2.46599238145344,0.5444923246644618,1.0544104758940245,0.3238615046091247,-0.39250456234122666,-2.153291787532338,0.8647539153680389,2.46587817577521,0.5445020185570556,0.0007979037565099399,0.0003251323491684662,-0.00033204326955317906,-0.0006220105238362172,0.0002430780002125005,0.00011583478241650327,0.0016618190886829149,0.0,0.0,0.0,0.0,0.0,0.0,0.0,-0.00012637012928085056,-0.00014514322285186232,-1.6068848497918786e-05,0.00030026552964779185,1.3511564262991271e-06,-0.00011420567822995054,9.693892593753972e-06,-0.0007979037565099399,-0.0003251323491684662,0.00033204326955317906,0.0006220105238362172,-0.0002430780002125005,-0.00011583478241650327,-0.0016618190886829149,0.4029781222343445,34.09072494506836,3.7752349376678467,-19.459871292114258,-0.2191062569618225,-1.783755898475647,0.13858358561992645,0
4,0.015047311782836914,-0.3514034152030945,-34.09072494506836,-3.7752349376678467,19.436067581176758,0.2191062569618225,1.796573281288147,-0.07724325358867645,0.0,0.0,0.0,0.0,0.0,0.0,0.0,-0.37510358869418353,-0.01383400113343081,-0.23619895537900842,0.40128378816242666,0.16882435411091531,-0.11860883146182741,-0.10069017041534814,1.0545318757186684,0.324007047445241,-0.39248849349272874,-2.1535893935175405,0.8647525641578513,2.4659877783854802,0.5444855108485516,1.0544104758940245,0.3238615046091247,-0.39250456234122666,-2.153291787532338,0.8647539153680389,2.46587817577521,0.5445020185570556,-0.0005327576596596311,0.00013951766645396596,-0.0004657506194635568,-0.0004532799683751392,0.00027436700872402695,-0.00037063130240901955,-0.0008872724302069886,0.0,0.0,0.0,0.0,0.0,0.0,0.0,-0.00012139982464387522,-0.00014554283611628582,-1.6068848497918786e-05,0.0002976059852026758,1.3512101876278493e-06,-0.00010960261027026519,1.650770850403216e-05,0.0005327576596596311,-0.00013951766645396596,0.0004657506194635568,0.0004532799683751392,-0.00027436700872402695,0.00037063130240901955,0.0008872724302069886,0.3514034152030945,34.09072494506836,3.7752349376678467,-19.436067581176758,-0.2191062569618225,-1.796573281288147,0.07724325358867645,0
5,0.02004861831665039,-0.3514034152030945,-34.09072494506836,-3.7752349376678467,19.436067581176758,0.2191062569618225,1.796573281288147,-0.07724325358867645,0.0,0.0,0.0,0.0,0.0,0.0,0.0,-0.37510358869418353,-0.01383400113343081,-0.23619895537900842,0.40128378816242666,0.16882435411091531,-0.11860883146182741,-0.10069017041534814,1.0545318757186684,0.324007047445241,-0.39248849349272874,-2.1535893935175405,0.8647525641578513,2.4659877783854802,0.5444855108485516,1.0544104758940245,0.3238615046091247,-0.39250456234122666,-2.153291787532338,0.8647539153680389,2.46587817577521,0.5445020185570556,-0.0005327576596596311,0.00013951766645396596,-0.0004657506194635568,-0.0004532799683751392,0.00027436700872402695,-0.00037063130240901955,-0.0008872724302069886,0.0,0.0,0.0,0.0,0.0,0.0,0.0,-0.00012139982464387522,-0.00014554283611628582,-1.6068848497918786e-05,0.0002976059852026758,1.3512101876278493e-06,-0.00010960261027026519,1.650770850403216e-05,0.0005327576596596311,-0.00013951766645396596,0.0004657506194635568,0.0004532799683751392,-0.00027436700872402695,0.00037063130240901955,0.0008872724302069886,0.3514034152030945,34.09072494506836,3.7752349376678467,-19.436067581176758,-0.2191062569618225,-1.796573281288147,0.07724325358867645,0
6,0.025044679641723633,-0.3514034152030945,-34.06295394897461,-3.8228423595428467,19.412263870239258,0.2126975655555725,1.790164589881897,-0.06351034343242645,0.0,0.0,0.0,0.0,0.0,0.0,0.0,-0.3754971947491458,-0.017532283517836044,-0.23617138902997778,0.40362103093730917,0.1702078900260525,-0.11766106727584945,-0.10052759174000384,1.054531796238182,0.32400509849664944,-0.39248523209387787,-2.1535887091322876,0.8647532762885091,2.465991669358746,0.5444843406049489,1.0544104758940245,0.3238615046091247,-0.39250456234122666,-2.153291787532338,0.8647539153680389,2.46587817577521,0.5445020185570556,-0.000946247533807897,-0.0002367090992964687,0.0006425650566472549,0.00024403266472844184,0.00044728331618221814,-0.0002551620494798596,-0.0007070655464614888,0.0,0.0,0.0,0.0,0.0,0.0,0.0,-0.00012132034415746062,-0.0001435938875247178,-1.9330247348792184e-05,0.0002969215999497621,6.390795298516494e-07,-0.00011349358353607286,1.7677952106720518e-05,0.000946247533807897,0.0002367090992964687,-0.0006425650566472549,-0.00024403266472844184,-0.00044728331618221814,0.0002551620494798596,0.0007070655464614888,0.3514034152030945,34.06295394897461,3.8228423595428467,-19.412263870239258,-0.2126975655555725,-1.790164589881897,0.06351034343242645,0
7,0.030045747756958008,-0.3514034152030945,-34.06295394897461,-3.8228423595428467,19.412263870239258,0.2126975655555725,1.790164589881897,-0.06351034343242645,0.0,0.0,0.0,0.0,0.0,0.0,0.0,-0.3754971947491458,-0.017532283517836044,-0.23617138902997778,0.40362103093730917,0.1702078900260525,-0.11766106727584945,-0.10052759174000384,1.054531796238182,0.32400509849664944,-0.39248523209387787,-2.1535887091322876,0.8647532762885091,2.465991669358746,0.5444843406049489,1.0544104758940245,0.3238615046091247,-0.39250456234122666,-2.153291787532338,0.8647539153680389,2.46587817577521,0.5445020185570556,-0.000946247533807897,-0.0002367090992964687,0.0006425650566472549,0.00024403266472844184,0.00044728331618221814,-0.0002551620494798596,-0.0007070655464614888,0.0,0.0,0.0,0.0,0.0,0.0,0.0,-0.00012132034415746062,-0.0001435938875247178,-1.9330247348792184e-05,0.0002969215999497621,6.390795298516494e-07,-0.00011349358353607286,1.7677952106720518e-05,0.000946247533807897,0.0002367090992964687,-0.0006425650566472549,-0.00024403266472844184,-0.00044728331618221814,0.0002551620494798596,0.0007070655464614888,0.3514034152030945,34.06295394897461,3.8228423595428467,-19.412263870239258,-0.2126975655555725,-1.790164589881897,0.06351034343242645,0
8,0.035048723220825195,-0.3752071261405945,-34.09072494506836,-3.7752349376678467,19.459871292114258,0.2310081124305725,1.783755898475647,-0.07724325358867645,0.0,0.0,0.0,0.0,0.0,0.0,0.0,-0.38082573322008006,-0.011248152984708477,-0.23797894851042078,0.40029810873226396,0.1703929199234417,-0.11756387805260064,-0.09903457440981894,1.054533476630408,0.32400704733847996,-0.3924884934931774,-2.1535920255899206,0.864751241783301,2.4659923814535136,0.5444858669703795,1.0544104758940245,0.3238615046091247,-0.39250456234122666,-2.153291787532338,0.8647539153680389,2.46587817577521,0.5445020185570556,-0.0009685450622412482,0.0008240889322405003,-0.0010013138105567148,-0.0009480655768789365,-0.0002503132664095736,0.00039143435366948445,-0.000734395952530696,0.0,0.0,0.0,0.0,0.0,0.0,0.0,-0.00012300073638349396,-0.00014554272935524137,-1.6068848049277662e-05,0.0003002380575827246,2.673584737933332e-06,-0.00011420567830366934,1.615158667611638e-05,0.0009685450622412482,-0.0008240889322405003,0.0010013138105567148,0.0009480655768789365,0.0002503132664095736,-0.00039143435366948445,0.000734395952530696,0.3752071261405945,34.09072494506836,3.7752349376678467,-19.459871292114258,-0.2310081124305725,-1.783755898475647,0.07724325358867645,0
9,0.040062665939331055,-0.3752071261405945,-34.09072494506836,-3.7752349376678467,19.459871292114258,0.2310081124305725,1.783755898475647,-0.07724325358867645,0.0,0.0,0.0,0.0,0.0,0.0,0.0,-0.38082573322008006,-0.011248152984708477,-0.23797894851042078,0.40029810873226396,0.1703929199234417,-0.11756387805260064,-0.09903457440981894,1.054533476630408,0.32400704733847996,-0.3924884934931774,-2.1535920255899206,0.864751241783301,2.4659923814535136,0.5444858669703795,1.0544104758940245,0.3238615046091247,-0.39250456234122666,-2.153291787532338,0.8647539153680389,2.46587817577521,0.5445020185570556,-0.0009685450622412482,0.0008240889322405003,-0.0010013138105567148,-0.0009480655768789365,-0.0002503132664095736,0.00039143435366948445,-0.000734395952530696,0.0,0.0,0.0,0.0,0.0,0.0,0.0,-0.00012300073638349396,-0.00014554272935524137,-1.6068848049277662e-05,0.0003002380575827246,2.673584737933332e-06,-0.00011420567830366934,1.615158667611638e-05,0.0009685450622412482,-0.0008240889322405003,0.0010013138105567148,0.0009480655768789365,0.0002503132664095736,-0.00039143435366948445,0.000734395952530696,0.3752071261405945,34.09072494506836,3.7752349376678467,-19.459871292114258,-0.2310081124305725,-1.783755898475647,0.07724325358867645,0
10,0.045043230056762695,-0.4267818331718445,-34.06295394897461,-3.7990386486053467,19.436067581176758,0.2191062569618225,1.790164589881897,-0.06991903483867645,0.0,0.0,0.0,0.0,0.0,0.0,0.0,-0.37656334489066806,-0.017112694931728692,-0.2319949470896627,0.40252440779260773,0.17016444325937596,-0.11692043550206682,-0.09838811952208773,1.0545366447988318,0.32400327730720685,-0.3924868230568735,-2.1535903795735716,0.8647525642116864,2.465991669376691,0.5444846951104216,1.0544104758940245,0.3238615046091247,-0.39250456234122666,-2.153291787532338,0.8647539153680389,2.46587817577521,0.5445020185570556,0.000794189831668367,-0.0007179944802337168,-0.0001919593048219888,-0.0004970406824194219,0.00021525724122408148,6.636034097807011e-05,-0.0009468002017646223,0.0,0.0,0.0,0.0,0.0,0.0,0.0,-0.00012616890480732224,-0.0001417726980821321,-1.773928435316874e-05,0.00029859204123372507,1.351156352469296e-06,-0.00011349360148082965,1.7323446633965567e-05,-0.000794189831668367,0.0007179944802337168,0.0001919593048219888,0.0004970406824194219,-0.00021525724122408148,-6.636034097807011e-05,0.0009468002017646223,0.4267818331718445,34.06295394897461,3.7990386486053467,-19.436067581176758,-0.2191062569618225,-1.790164589881897,0.06991903483867645,0
11,0.05004310607910156,-0.4267818331718445,-34.06295394897461,-3.7990386486053467,19.436067581176758,0.2191062569618225,1.790164589881897,-0.06991903483867645,0.0,0.0,0.0,0.0,0.0,0.0,0.0,-0.37656334489066806,-0.017112694931728692,-0.2319949470896627,0.40252440779260773,0.17016444325937596,-0.11692043550206682,-0.09838811952208773,1.0545366447988318,0.32400327730720685,-0.3924868230568735,-2.1535903795735716,0.8647525642116864,2.465991669376691,0.5444846951104216,1.0544104758940245,0.3238615046091247,-0.39250456234122666,-2.153291787532338,0.8647539153680389,2.46587817577521,0.5445020185570556,0.000794189831668367,-0.0007179944802337168,-0.0001919593048219888,-0.0004970406824194219,0.00021525724122408148,6.636034097807011e-05,-0.0009468002017646223,0.0,0.0,0.0,0.0,0.0,0.0,0.0,-0.00012616890480732224,-0.0001417726980821321,-1.773928435316874e-05,0.00029859204123372507,1.351156352469296e-06,-0.00011349360148082965,1.7323446633965567e-05,-0.000794189831668367,0.0007179944802337168,0.0001919593048219888,0.0004970406824194219,-0.00021525724122408148,-6.636034097807011e-05,0.0009468002017646223,0.4267818331718445,34.06295394897461,3.7990386486053467,-19.436067581176758,-0.2191062569618225,-1.790164589881897,0.06991903483867645,0
12,0.055043697357177734,-0.3752071261405945,-34.09072494506836,-3.7990386486053467,19.388460159301758,0.2072044014930725,1.783755898475647,-0.11844198405742645,0.0,0.0,0.0,0.0,0.0,0.0,0.0,-0.3803442089943076,-0.009861329002610596,-0.2335418094451968,0.3991508554040776,0.17001516381187634,-0.11631101253754844,-0.0981526939315481,1.054532998664258,0.3240042187194206,-0.3924868230568735,-2.1535867945055576,0.8647538866400719,2.4659923814535136,0.5444900997906603,1.0544104758940245,0.3238615046091247,-0.39250456234122666,-2.153291787532338,0.8647539153680389,2.46587817577521,0.5445020185570556,-0.0004005150493785675,0.0006934843568714525,0.00011769773191251417,0.0011646252959081843,0.000500196256575729,0.00019908284144659386,0.001297264175686157,0.0,0.0,0.0,0.0,0.0,0.0,0.0,-0.0001225227702335019,-0.00014271411029587178,-1.773928435316874e-05,0.0002950069732197136,2.8727967005259814e-08,-0.00011420567830366934,1.1918766395280223e-05,0.0004005150493785675,-0.0006934843568714525,-0.00011769773191251417,-0.0011646252959081843,-0.000500196256575729,-0.00019908284144659386,-0.001297264175686157,0.3752071261405945,34.09072494506836,3.7990386486053467,-19.388460159301758,-0.2072044014930725,-1.783755898475647,0.11844198405742645,0
13,0.06004476547241211,-0.3752071261405945,-34.09072494506836,-3.7990386486053467,19.388460159301758,0.2072044014930725,1.783755898475647,-0.11844198405742645,0.0,0.0,0.0,0.0,0.0,0.0,0.0,-0.3803442089943076,-0.009861329002610596,-0.2335418094451968,0.3991508554040776,0.17001516381187634,-0.11631101253754844,-0.0981526939315481,1.054532998664258,0.3240042187194206,-0.3924868230568735,-2.1535867945055576,0.8647538866400719,2.4659923814535136,0.5444900997906603,1.0544104758940245,0.3238615046091247,-0.39250456234122666,-2.153291787532338,0.8647539153680389,2.46587817577521,0.5445020185570556,-0.0004005150493785675,0.0006934843568714525,0.00011769773191251417,0.0011646252959081843,0.000500196256575729,0.00019908284144659386,0.001297264175686157,0.0,0.0,0.0,0.0,0.0,0.0,0.0,-0.0001225227702335019,-0.00014271411029587178,-1.773928435316874e-05,0.0002950069732197136,2.8727967005259814e-08,-0.00011420567830366934,1.1918766395280223e-05,0.0004005150493785675,-0.0006934843568714525,-0.00011769773191251417,-0.0011646252959081843,-0.000500196256575729,-0.00019908284144659386,-0.001297264175686157,0.3752071261405945,34.09072494506836,3.7990386486053467,-19.388460159301758,-0.2072044014930725,-1.783755898475647,0.11844198405742645,0
14,0.06500005722045898,-0.4029781222343445,-34.03915023803711,-3.7990386486053467,19.436067581176758,0.2245994210243225,1.790164589881897,-0.12485067546367645,0.0,0.0,0.0,0.0,0.0,0.0,0.0,-0.38343026667946634,-0.011509346330666907,-0.23380832042642805,0.39978994332014106,0.1695028285537152,-0.1167659347440558,-0.09759499717184743,1.0545349740332293,0.3240030287182346,-0.3924868230568735,-2.1535903826247864,0.8647519538601239,2.465988488847247,0.5444907986241002,1.0544104758940245,0.3238615046091247,-0.39250456234122666,-2.153291787532338,0.8647539153680389,2.46587817577521,0.5445020185570556,0.00061960836807491,-0.0009394794943854367,0.00018594628654017932,-0.00011540146766248571,-0.00014923272008835172,-0.00016347462048255755,0.0009846014167246638,0.0,0.0,0.0,0.0,0.0,0.0,0.0,-0.00012449813920478725,-0.00014152410910989177,-1.773928435316874e-05,0.0002985950924485614,1.9615079149826187e-06,-0.00011031307203701601,1.1219932955386369e-05,-0.00061960836807491,0.0009394794943854367,-0.00018594628654017932,0.00011540146766248571,0.00014923272008835172,0.00016347462048255755,-0.0009846014167246638,0.4029781222343445,34.03915023803711,3.7990386486053467,-19.436067581176758,-0.2245994210243225,-1.790164589881897,0.12485067546367645,0
15,0.07000136375427246,-0.4029781222343445,-34.03915023803711,-3.7990386486053467,19.436067581176758,0.2245994210243225,1.790164589881897,-0.12485067546367645,0.0,0.0,0.0,0.0,0.0,0.0,0.0,-0.38343026667946634,-0.011509346330666907,-0.23380832042642805,0.39978994332014106,0.1695028285537152,-0.1167659347440558,-0.09759499717184743,1.0545349740332293,0.3240030287182346,-0.3924868230568735,-2.1535903826247864,0.8647519538601239,2.465988488847247,0.5444907986241002,1.0544104758940245,0.3238615046091247,-0.39250456234122666,-2.153291787532338,0.8647539153680389,2.46587817577521,0.5445020185570556,0.00061960836807491,-0.0009394794943854367,0.00018594628654017932,-0.00011540146766248571,-0.00014923272008835172,-0.00016347462048255755,0.0009846014167246638,0.0,0.0,0.0,0.0,0.0,0.0,0.0,-0.00012449813920478725,-0.00014152410910989177,-1.773928435316874e-05,0.0002985950924485614,1.9615079149826187e-06,-0.00011031307203701601,1.1219932955386369e-05,-0.00061960836807491,0.0009394794943854367,-0.00018594628654017932,0.00011540146766248571,0.00014923272008835172,0.00016347462048255755,-0.0009846014167246638,0.4029781222343445,34.03915023803711,3.7990386486053467,-19.436067581176758,-0.2245994210243225,-1.790164589881897,0.12485067546367645,0
16,0.07504844665527344,-0.4029781222343445,-34.06295394897461,-3.7990386486053467,19.436067581176758,0.2191062569618225,1.790164589881897,-0.12485067546367645,0.0,0.0,0.0,0.0,0.0,0.0,0.0,-0.385973517533399,-0.016892345105059915,-0.23629142616920507,0.40513140483729276,0.16937781538679625,-0.1168986701389038,-0.09772537201352825,1.0545347885603678,0.32400440791267265,-0.3924868230568735,-2.1535903826261817,0.8647525627581362,2.465991664998086,0.5444908117059777,1.0544104758940245,0.3238615046091247,-0.39250456234122666,-2.153291787532338,0.8647539153680389,2.46587817577521,0.5445020185570556,0.00042060514491272614,-0.000588192231553389,0.00019506169859951323,-0.00014771075991703374,0.00013381651937073385,-0.0001840745475102619,0.0007849766439761526,0.0,0.0,0.0,0.0,0.0,0.0,0.0,-0.00012431266634327365,-0.00014290330354793657,-1.773928435316874e-05,0.0002985950938438897,1.3526099027494354e-06,-0.00011348922287623964,1.1206851077916191e-05,-0.00042060514491272614,0.000588192231553389,-0.00019506169859951323,0.00014771075991703374,-0.00013381651937073385,0.0001840745475102619,-0.0007849766439761526,0.4029781222343445,34.06295394897461,3.7990386486053467,-19.436067581176758,-0.2191062569618225,-1.790164589881897,0.12485067546367645,0
17,0.08005070686340332,-0.4029781222343445,-34.06295394897461,-3.7990386486053467,19.436067581176758,0.2191062569618225,1.790164589881897,-0.12485067546367645,0.0,0.0,0.0,0.0,0.0,0.0,0.0,-0.385973517533399,-0.016892345105059915,-0.23629142616920507,0.40513140483729276,0.16937781538679625,-0.1168986701389038,-0.09772537201352825,1.0545347885603678,0.32400440791267265,-0.3924868230568735,-2.1535903826261817,0.8647525627581362,2.465991664998086,0.5444908117059777,1.0544104758940245,0.3238615046091247,-0.39250456234122666,-2.153291787532338,0.8647539153680389,2.46587817577521,0.5445020185570556,0.00042060514491272614,-0.000588192231553389,0.00019506169859951323,-0.00014771075991703374,0.00013381651937073385,-0.0001840745475102619,0.0007849766439761526,0.0,0.0,0.0,0.0,0.0,0.0,0.0,-0.00012431266634327365,-0.00014290330354793657,-1.773928435316874e-05,0.0002985950938438897,1.3526099027494354e-06,-0.00011348922287623964,1.1206851077916191e-05,-0.00042060514491272614,0.000588192231553389,-0.00019506169859951323,0.00014771075991703374,-0.00013381651937073385,0.0001840745475102619,-0.0007849766439761526,0.4029781222343445,34.06295394897461,3.7990386486053467,-19.436067581176758,-0.2191062569618225,-1.790164589881897,0.12485067546367645,0
18,0.08509135246276855,-0.4029781222343445,-34.06295394897461,-3.7990386486053467,19.436067581176758,0.2191062569618225,1.790164589881897,-0.12485067546367645,0.0,0.0,0.0,0.0,0.0,0.0,0.0,-0.385973517533399,-0.016892345105059915,-0.23629142616920507,0.40513140483729276,0.16937781538679625,-0.1168986701389038,-0.09772537201352825,1.0545347885603678,0.32400440791267265,-0.3924868230568735,-2.1535903826261817,0.8647525627581362,2.465991664998086,0.5444908117059777,1.0544104758940245,0.3238615046091247,-0.39250456234122666,-2.153291787532338,0.8647539153680389,2.46587817577521,0.5445020185570556,0.00042060514491272614,-0.000588192231553389,0.00019506169859951323,-0.00014771075991703374,0.00013381651937073385,-0.0001840745475102619,0.0007849766439761526,0.0,0.0,0.0,0.0,0.0,0.0,0.0,-0.00012431266634327365,-0.00014290330354793657,-1.773928435316874e-05,0.0002985950938438897,1.3526099027494354e-06,-0.00011348922287623964,1.1206851077916191e-05,-0.00042060514491272614,0.000588192231553389,-0.00019506169859951323,0.00014771075991703374,-0.00013381651937073385,0.0001840745475102619,-0.0007849766439761526,0.4029781222343445,34.06295394897461,3.7990386486053467,-19.436067581176758,-0.2191062569618225,-1.790164589881897,0.12485067546367645,0
19,0.09009671211242676,-0.4029781222343445,-34.06295394897461,-3.7990386486053467,19.436067581176758,0.2191062569618225,1.790164589881897,-0.12485067546367645,0.0,0.0,0.0,0.0,0.0,0.0,0.0,-0.385973517533399,-0.016892345105059915,-0.23629142616920507,0.40513140483729276,0.16937781538679625,-0.1168986701389038,-0.09772537201352825,1.0545347885603678,0.32400440791267265,-0.3924868230568735,-2.1535903826261817,0.8647525627581362,2.465991664998086,0.5444908117059777,1.0544104758940245,0.3238615046091247,-0.39250456234122666,-2.153291787532338,0.8647539153680389,2.46587817577521,0.5445020185570556,0.00042060514491272614,-0.000588192231553389,0.00019506169859951323,-0.00014771075991703374,0.00013381651937073385,-0.0001840745475102619,0.0007849766439761526,0.0,0.0,0.0,0.0,0.0,0.0,0.0,-0.00012431266634327365,-0.00014290330354793657,-1.773928435316874e-05,0.0002985950938438897,1.3526099027494354e-06,-0.00011348922287623964,1.1206851077916191e-05,-0.00042060514491272614,0.000588192231553389,-0.00019506169859951323,0.00014771075991703374,-0.00013381651937073385,0.0001840745475102619,-0.0007849766439761526,0.4029781222343445,34.06295394897461,3.7990386486053467,-19.436067581176758,-0.2191062569618225,-1.790164589881897,0.12485067546367645,0
20,0.09504079818725586,-0.3752071261405945,-34.11452865600586,-3.7514312267303467,19.412263870239258,0.2126975655555725,1.783755898475647,-0.05710165575146675,0.0,0.0,0.0,0.0,0.0,0.0,0.0,-0.38428013374635506,-0.004764510907570115,-0.23406461670447945,0.39744727293994037,0.16949120648506075,-0.11833016390419633,-0.09984439180667248,1.054532751741361,0.32400810815146375,-0.3924901638929182,-2.153586239701358,0.8647500973741131,2.4659922244162273,0.5444832709552424,1.0544104758940245,0.3238615046091247,-0.39250456234122666,-2.153291787532338,0.8647539153680389,2.46587817577521,0.5445020185570556,-0.0001026417779421737,0.0010759841006622122,-0.0011348109243301938,-0.0003025986855092223,0.00047212292932478873,-3.6870309143083234e-05,-0.0017108279748530816,0.0,0.0,0.0,0.0,0.0,0.0,0.0,-0.00012227584733648378,-0.00014660354233902995,-1.4398448308472478e-05,0.00029445216902024285,3.817993925792074e-06,-0.00011404864101738355,1.8747601813196013e-05,0.0001026417779421737,-0.0010759841006622122,0.0011348109243301938,0.0003025986855092223,-0.00047212292932478873,3.6870309143083234e-05,0.0017108279748530816,0.3752071261405945,34.11452865600586,3.7514312267303467,-19.412263870239258,-0.2126975655555725,-1.783755898475647,0.05710165575146675,0
21,0.1000065803527832,-0.3752071261405945,-34.11452865600586,-3.7514312267303467,19.412263870239258,0.2126975655555725,1.783755898475647,-0.05710165575146675,0.0,0.0,0.0,0.0,0.0,0.0,0.0,-0.38428013374635506,-0.004764510907570115,-0.23406461670447945,0.39744727293994037,0.16949120648506075,-0.11833016390419633,-0.09984439180667248,1.054532751741361,0.32400810815146375,-0.3924901638929182,-2.153586239701358,0.8647500973741131,2.4659922244162273,0.5444832709552424,1.0544104758940245,0.3238615046091247,-0.39250456234122666,-2.153291787532338,0.8647539153680389,2.46587817577521,0.5445020185570556,-0.0001026417779421737,0.0010759841006622122,-0.0011348109243301938,-0.0003025986855092223,0.00047212292932478873,-3.6870309143083234e-05,-0.0017108279748530816,0.0,0.0,0.0,0.0,0.0,0.0,0.0,-0.00012227584733648378,-0.00014660354233902995,-1.4398448308472478e-05,0.00029445216902024285,3.817993925792074e-06,-0.00011404864101738355,1.8747601813196013e-05,0.0001026417779421737,-0.0010759841006622122,0.0011348109243301938,0.0003025986855092223,-0.00047212292932478873,3.6870309143083234e-05,0.0017108279748530816,0.3752071261405945,34.11452865600586,3.7514312267303467,-19.412263870239258,-0.2126975655555725,-1.783755898475647,0.05710165575146675,0
22,0.10504364967346191,-0.3752071261405945,-34.09072494506836,-3.7514312267303467,19.388460159301758,0.2191062569618225,1.790164589881897,-0.08365194499492645,0.0,0.0,0.0,0.0,0.0,0.0,0.0,-0.3755231726514952,-0.015135141503053737,-0.22766599673306964,0.40301979947213007,0.1691512510057223,-0.11846081845018881,-0.09946863104763683,1.054532752540317,0.32400732078417865,-0.39249016392858377,-2.1535870417405145,0.8647525641937414,2.4659916693758044,0.5444862214718234,1.0544104758940245,0.3238615046091247,-0.39250456234122666,-2.153291787532338,0.8647539153680389,2.46587817577521,0.5445020185570556,0.0004954782262946173,5.14122555163725e-05,-0.0007765353586528602,0.000845689618440057,-3.4686466444317917e-05,-0.0001809226008487421,-0.000998062307373374,0.0,0.0,0.0,0.0,0.0,0.0,0.0,-0.00012227664629249624,-0.00014581617505393663,-1.4398412642890879e-05,0.00029525420817666514,1.3511742975591545e-06,-0.00011349360059442759,1.5797085232249763e-05,-0.0004954782262946173,-5.14122555163725e-05,0.0007765353586528602,-0.000845689618440057,3.4686466444317917e-05,0.0001809226008487421,0.000998062307373374,0.3752071261405945,34.09072494506836,3.7514312267303467,-19.388460159301758,-0.2191062569618225,-1.790164589881897,0.08365194499492645,0
23,0.1100461483001709,-0.3752071261405945,-34.09072494506836,-3.7514312267303467,19.388460159301758,0.2191062569618225,1.790164589881897,-0.08365194499492645,0.0,0.0,0.0,0.0,0.0,0.0,0.0,-0.3755231726514952,-0.015135141503053737,-0.22766599673306964,0.40301979947213007,0.1691512510057223,-0.11846081845018881,-0.09946863104763683,1.054532752540317,0.32400732078417865,-0.39249016392858377,-2.1535870417405145,0.8647525641937414,2.4659916693758044,0.5444862214718234,1.0544104758940245,0.3238615046091247,-0.39250456234122666,-2.153291787532338,0.8647539153680389,2.46587817577521,0.5445020185570556,0.0004954782262946173,5.14122555163725e-05,-0.0007765353586528602,0.000845689618440057,-3.4686466444317917e-05,-0.0001809226008487421,-0.000998062307373374,0.0,0.0,0.0,0.0,0.0,0.0,0.0,-0.00012227664629249624,-0.00014581617505393663,-1.4398412642890879e-05,0.00029525420817666514,1.3511742975591545e-06,-0.00011349360059442759,1.5797085232249763e-05,-0.0004954782262946173,-5.14122555163725e-05,0.0007765353586528602,-0.000845689618440057,3.4686466444317917e-05,0.0001809226008487421,0.000998062307373374,0.3752071261405945,34.09072494506836,3.7514312267303467,-19.388460159301758,-0.2191062569618225,-1.790164589881897,0.08365194499492645,0
24,0.11504387855529785,-0.3752071261405945,-34.06295394897461,-3.7752349376678467,19.436067581176758,0.2310081124305725,1.783755898475647,-0.06991903483867645,0.0,0.0,0.0,0.0,0.0,0.0,0.0,-0.38476482456723693,-0.019122710150062786,-0.23636674921453762,0.4009343701722755,0.16935772536885993,-0.1172139904069093,-0.09940896545155906,1.0545334680867646,0.3240022459788166,-0.39248849349272874,-2.1535896408794915,0.8647512025374443,2.4659923814535136,0.544484813330488,1.0544104758940245,0.3238615046091247,-0.39250456234122666,-2.153291787532338,0.8647539153680389,2.46587817577521,0.5445020185570556,-7.285845212603907e-05,-0.0005660051393139399,-0.0006210125522055575,-0.00034348473652988934,-0.00021527620588878806,0.00028012085193908836,-0.0016823543828266294,0.0,0.0,0.0,0.0,0.0,0.0,0.0,-0.0001229921927401456,-0.000140741369691888,-1.6068848497918786e-05,0.00029785334715359824,2.712830594608917e-06,-0.00011420567830366934,1.7205226567562626e-05,7.285845212603907e-05,0.0005660051393139399,0.0006210125522055575,0.00034348473652988934,0.00021527620588878806,-0.00028012085193908836,0.0016823543828266294,0.3752071261405945,34.06295394897461,3.7752349376678467,-19.436067581176758,-0.2310081124305725,-1.783755898475647,0.06991903483867645,0
25,0.12009143829345703,-0.3752071261405945,-34.06295394897461,-3.7752349376678467,19.436067581176758,0.2310081124305725,1.783755898475647,-0.06991903483867645,0.0,0.0,0.0,0.0,0.0,0.0,0.0,-0.38476482456723693,-0.019122710150062786,-0.23636674921453762,0.4009343701722755,0.16935772536885993,-0.1172139904069093,-0.09940896545155906,1.0545334680867646,0.3240022459788166,-0.39248849349272874,-2.1535896408794915,0.8647512025374443,2.4659923814535136,0.544484813330488,1.0544104758940245,0.3238615046091247,-0.39250456234122666,-2.153291787532338,0.8647539153680389,2.46587817577521,0.5445020185570556,-7.285845212603907e-05,-0.0005660051393139399,-0.0006210125522055575,-0.00034348473652988934,-0.00021527620588878806,0.00028012085193908836,-0.0016823543828266294,0.0,0.0,0.0,0.0,0.0,0.0,0.0,-0.0001229921927401456,-0.000140741369691888,-1.6068848497918786e-05,0.00029785334715359824,2.712830594608917e-06,-0.00011420567830366934,1.7205226567562626e-05,7.285845212603907e-05,0.0005660051393139399,0.0006210125522055575,0.00034348473652988934,0.00021527620588878806,-0.00028012085193908836,0.0016823543828266294,0.3752071261405945,34.06295394897461,3.7752349376678467,-19.436067581176758,-0.2310081124305725,-1.783755898475647,0.06991903483867645,0
26,0.12507224082946777,-0.3514034152030945,-34.11452865600586,-3.7990386486053467,19.436067581176758,0.2191062569618225,1.777347207069397,-0.08365194499492645,0.0,0.0,0.0,0.0,0.0,0.0,0.0,-0.3746268754185147,-0.016375380290050662,-0.22666287816911596,0.398064570604681,0.1692765660707832,-0.11770738554234488,-0.10030925068888924,1.0545313463276014,0.32400882939089165,-0.3924868230568735,-2.153590382621995,0.8647525637269482,2.4659930804483845,0.5444894129843143,1.0544104758940245,0.3238615046091247,-0.39250456234122666,-2.153291787532338,0.8647539153680389,2.46587817577521,0.5445020185570556,-0.0005893379250061956,0.0004585837777179154,0.0004037178653105902,-0.0005563510457748296,8.849869539331606e-05,0.00037230673396029855,-0.00014167428649321945,0.0,0.0,0.0,0.0,0.0,0.0,0.0,-0.00012087043357689176,-0.0001473247817669332,-1.773928435316874e-05,0.00029859508965701664,1.3516410907188359e-06,-0.00011490467317454289,1.26055727412977e-05,0.0005893379250061956,-0.0004585837777179154,-0.0004037178653105902,0.0005563510457748296,-8.849869539331606e-05,-0.00037230673396029855,0.00014167428649321945,0.3514034152030945,34.11452865600586,3.7990386486053467,-19.436067581176758,-0.2191062569618225,-1.777347207069397,0.08365194499492645,0
27,0.13005304336547852,-0.3514034152030945,-34.11452865600586,-3.7990386486053467,19.436067581176758,0.2191062569618225,1.777347207069397,-0.08365194499492645,0.0,0.0,0.0,0.0,0.0,0.0,0.0,-0.3746268754185147,-0.016375380290050662,-0.22666287816911596,0.398064570604681,0.1692765660707832,-0.11770738554234488,-0.10030925068888924,1.0545313463276014,0.32400882939089165,-0.3924868230568735,-2.153590382621995,0.8647525637269482,2.4659930804483845,0.5444894129843143,1.0544104758940245,0.3238615046091247,-0.39250456234122666,-2.153291787532338,0.8647539153680389,2.46587817577521,0.5445020185570556,-0.0005893379250061956,0.0004585837777179154,0.0004037178653105902,-0.0005563510457748296,8.849869539331606e-05,0.00037230673396029855,-0.00014167428649321945,0.0,0.0,0.0,0.0,0.0,0.0,0.0,-0.00012087043357689176,-0.0001473247817669332,-1.773928435316874e-05,0.00029859508965701664,1.3516410907188359e-06,-0.00011490467317454289,1.26055727412977e-05,0.0005893379250061956,-0.0004585837777179154,-0.0004037178653105902,0.0005563510457748296,-8.849869539331606e-05,-0.00037230673396029855,0.00014167428649321945,0.3514034152030945,34.11452865600586,3.7990386486053467,-19.436067581176758,-0.2191062569618225,-1.777347207069397,0.08365194499492645,0
28,0.13505315780639648,-0.4267818331718445,-34.11452865600586,-3.8228423595428467,19.487642288208008,0.2245994210243225,1.783755898475647,-0.11111776530742645,0.0,0.0,0.0,0.0,0.0,0.0,0.0,-0.383638784541567,-0.01693938072835823,-0.2323576815966258,0.39783862695436656,0.16956390977568317,-0.11723465233370822,-0.09918830796668571,1.054537089001191,0.32400802871947126,-0.3924851526210182,-2.1535940018661837,0.8647519538601212,2.46599238145344,0.544489272763138,1.0544104758940245,0.3238615046091247,-0.39250456234122666,-2.153291787532338,0.8647539153680389,2.46587817577521,0.5445020185570556,0.0006704593585330632,0.0005925903067983709,0.0006243563102309665,-0.001785615386627331,9.198619568593306e-06,5.374648801857041e-05,0.0006024739488885609,0.0,0.0,0.0,0.0,0.0,0.0,0.0,-0.00012661310716644003,-0.00014652411034654644,-1.94097202084742e-05,0.0003022143338458072,1.9615079177581762e-06,-0.00011420567822995054,1.274579391763453e-05,-0.0006704593585330632,-0.0005925903067983709,-0.0006243563102309665,0.001785615386627331,-9.198619568593306e-06,-5.374648801857041e-05,-0.0006024739488885609,0.4267818331718445,34.11452865600586,3.8228423595428467,-19.487642288208008,-0.2245994210243225,-1.783755898475647,0.11111776530742645,0
29,0.14005470275878906,-0.4267818331718445,-34.11452865600586,-3.8228423595428467,19.487642288208008,0.2245994210243225,1.783755898475647,-0.11111776530742645,0.0,0.0,0.0,0.0,0.0,0.0,0.0,-0.383638784541567,-0.01693938072835823,-0.2323576815966258,0.39783862695436656,0.16956390977568317,-0.11723465233370822,-0.09918830796668571,1.054537089001191,0.32400802871947126,-0.3924851526210182,-2.1535940018661837,0.8647519538601212,2.46599238145344,0.544489272763138,1.0544104758940245,0.3238615046091247,-0.39250456234122666,-2.153291787532338,0.8647539153680389,2.46587817577521,0.5445020185570556,0.0006704593585330632,0.0005925903067983709,0.0006243563102309665,-0.001785615386627331,9.198619568593306e-06,5.374648801857041e-05,0.0006024739488885609,0.0,0.0,0.0,0.0,0.0,0.0,0.0,-0.00012661310716644003,-0.00014652411034654644,-1.94097202084742e-05,0.0003022143338458072,1.9615079177581762e-06,-0.00011420567822995054,1.274579391763453e-05,-0.0006704593585330632,-0.0005925903067983709,-0.0006243563102309665,0.001785615386627331,-9.198619568593306e-06,-5.374648801857041e-05,-0.0006024739488885609,0.4267818331718445,34.11452865600586,3.8228423595428467,-19.487642288208008,-0.2245994210243225,-1.783755898475647,0.11111776530742645,0
30,0.14504408836364746,-0.3752071261405945,-34.11452865600586,-3.7990386486053467,19.412263870239258,0.2191062569618225,1.790164589881897,-0.06991903483867645,0.0,0.0,0.0,0.0,0.0,0.0,0.0,-0.38858602169971673,-0.020363112508585843,-0.2362813405903272,0.4008702753997675,0.16962438850983205,-0.11770131156944103,-0.09860005121117241,1.0545348981743368,0.3240066750481661,-0.3924868230568735,-2.1535879704436356,0.8647525642116864,2.465991669376691,0.5444878740227888,1.0544104758940245,0.3238615046091247,-0.39250456234122666,-2.153291787532338,0.8647539153680389,2.46587817577521,0.5445020185570556,-0.0007173471653230803,0.00041081063077919743,-0.0005014766662464652,0.00035827217376435086,0.0002424041106614618,-0.00013892920436343518,-0.0014068958908819344,0.0,0.0,0.0,0.0,0.0,0.0,0.0,-0.0001244222803122863,-0.0001451704390413866,-1.773928435316874e-05,0.00029618291129773766,1.351156352469296e-06,-0.00011349360148082965,1.4144534266846698e-05,0.0007173471653230803,-0.00041081063077919743,0.0005014766662464652,-0.00035827217376435086,-0.0002424041106614618,0.00013892920436343518,0.0014068958908819344,0.3752071261405945,34.11452865600586,3.7990386486053467,-19.412263870239258,-0.2191062569618225,-1.790164589881897,0.06991903483867645,0
31,0.15006017684936523,-0.3752071261405945,-34.11452865600586,-3.7990386486053467,19.412263870239258,0.2191062569618225,1.790164589881897,-0.06991903483867645,0.0,0.0,0.0,0.0,0.0,0.0,0.0,-0.38858602169971673,-0.020363112508585843,-0.2362813405903272,0.4008702753997675,0.16962438850983205,-0.11770131156944103,-0.09860005121117241,1.0545348981743368,0.3240066750481661,-0.3924868230568735,-2.1535879704436356,0.8647525642116864,2.465991669376691,0.5444878740227888,1.0544104758940245,0.3238615046091247,-0.39250456234122666,-2.153291787532338,0.8647539153680389,2.46587817577521,0.5445020185570556,-0.0007173471653230803,0.00041081063077919743,-0.0005014766662464652,0.00035827217376435086,0.0002424041106614618,-0.00013892920436343518,-0.0014068958908819344,0.0,0.0,0.0,0.0,0.0,0.0,0.0,-0.0001244222803122863,-0.0001451704390413866,-1.773928435316874e-05,0.00029618291129773766,1.351156352469296e-06,-0.00011349360148082965,1.4144534266846698e-05,0.0007173471653230803,-0.00041081063077919743,0.0005014766662464652,-0.00035827217376435086,-0.0002424041106614618,0.00013892920436343518,0.0014068958908819344,0.3752071261405945,34.11452865600586,3.7990386486053467,-19.412263870239258,-0.2191062569618225,-1.790164589881897,0.06991903483867645,0
32,0.15504813194274902,-0.4029781222343445,-34.11452865600586,-3.7990386486053467,19.412263870239258,0.2245994210243225,1.790164589881897,-0.09097616374492645,0.0,0.0,0.0,0.0,0.0,0.0,0.0,-0.37637072856143666,-0.014245039450973546,-0.2249602354986316,0.3983105389876899,0.16933090341508325,-0.11975934611541801,-0.09893836377043438,1.0545354195571026,0.3240058898808004,-0.3924868230568735,-2.1535886297698403,0.8647519538601239,2.465991311641825,0.544487034807335,1.0544104758940245,0.3238615046091247,-0.39250456234122666,-2.153291787532338,0.8647539153680389,2.46587817577521,0.5445020185570556,0.0005670401093361177,0.0006559899498375657,1.3759531639502944e-05,0.00031271816254015573,-0.00019659450728573772,-0.00025653920866136165,-0.0006403812964312194,0.0,0.0,0.0,0.0,0.0,0.0,0.0,-0.00012494366307813642,-0.00014438527167570658,-1.773928435316874e-05,0.0002968422375024815,1.9615079149826187e-06,-0.00011313586661509945,1.498374972064287e-05,-0.0005670401093361177,-0.0006559899498375657,-1.3759531639502944e-05,-0.00031271816254015573,0.00019659450728573772,0.00025653920866136165,0.0006403812964312194,0.4029781222343445,34.11452865600586,3.7990386486053467,-19.412263870239258,-0.2245994210243225,-1.790164589881897,0.09097616374492645,0
33,0.16005492210388184,-0.4029781222343445,-34.11452865600586,-3.7990386486053467,19.412263870239258,0.2245994210243225,1.790164589881897,-0.09097616374492645,0.0,0.0,0.0,0.0,0.0,0.0,0.0,-0.37637072856143666,-0.014245039450973546,-0.2249602354986316,0.3983105389876899,0.16933090341508325,-0.11975934611541801,-0.09893836377043438,1.0545354195571026,0.3240058898808004,-0.3924868230568735,-2.1535886297698403,0.8647519538601239,2.465991311641825,0.544487034807335,1.0544104758940245,0.3238615046091247,-0.39250456234122666,-2.153291787532338,0.8647539153680389,2.46587817577521,0.5445020185570556,0.0005670401093361177,0.0006559899498375657,1.3759531639502944e-05,0.00031271816254015573,-0.00019659450728573772,-0.00025653920866136165,-0.0006403812964312194,0.0,0.0,0.0,0.0,0.0,0.0,0.0,-0.00012494366307813642,-0.00014438527167570658,-1.773928435316874e-05,0.0002968422375024815,1.9615079149826187e-06,-0.00011313586661509945,1.498374972064287e-05,-0.0005670401093361177,-0.0006559899498375657,-1.3759531639502944e-05,-0.00031271816254015573,0.00019659450728573772,0.00025653920866136165,0.0006403812964312194,0.4029781222343445,34.11452865600586,3.7990386486053467,-19.412263870239258,-0.2245994210243225,-1.790164589881897,0.09097616374492645,0
34,0.1650404930114746,-0.3514034152030945,-34.11452865600586,-3.7990386486053467,19.412263870239258,0.2191062569618225,1.783755898475647,-0.08365194499492645,0.0,0.0,0.0,0.0,0.0,0.0,0.0,-0.3753712248678749,-0.013948685561092475,-0.2257409114749694,0.39782448248422486,0.16896815315524605,-0.1200861133533996,-0.09992331219647563,1.054533468111249,0.32400809084215065,-0.3924868230568735,-2.1535887121898614,0.8647525640501809,2.465992381397659,0.5444873198712927,1.0544104758940245,0.3238615046091247,-0.39250456234122666,-2.153291787532338,0.8647539153680389,2.46587817577521,0.5445020185570556,-0.00037501245816949516,0.0008063169170995253,0.00044109937254798684,0.0003390377517228518,-7.087695917876082e-05,2.1377415029579177e-05,-0.0004855340635210299,0.0,0.0,0.0,0.0,0.0,0.0,0.0,-0.0001229922172245601,-0.00014658623302593599,-1.773928435316874e-05,0.0002969246575235118,1.3513178580559781e-06,-0.00011420562244923715,1.4698685762870589e-05,0.00037501245816949516,-0.0008063169170995253,-0.00044109937254798684,-0.0003390377517228518,7.087695917876082e-05,-2.1377415029579177e-05,0.0004855340635210299,0.3514034152030945,34.11452865600586,3.7990386486053467,-19.412263870239258,-0.2191062569618225,-1.783755898475647,0.08365194499492645,0
35,0.17000389099121094,-0.3514034152030945,-34.11452865600586,-3.7990386486053467,19.412263870239258,0.2191062569618225,1.783755898475647,-0.08365194499492645,0.0,0.0,0.0,0.0,0.0,0.0,0.0,-0.3753712248678749,-0.013948685561092475,-0.2257409114749694,0.39782448248422486,0.16896815315524605,-0.1200861133533996,-0.09992331219647563,1.054533468111249,0.32400809084215065,-0.3924868230568735,-2.1535887121898614,0.8647525640501809,2.465992381397659,0.5444873198712927,1.0544104758940245,0.3238615046091247,-0.39250456234122666,-2.153291787532338,0.8647539153680389,2.46587817577521,0.5445020185570556,-0.00037501245816949516,0.0008063169170995253,0.00044109937254798684,0.0003390377517228518,-7.087695917876082e-05,2.1377415029579177e-05,-0.0004855340635210299,0.0,0.0,0.0,0.0,0.0,0.0,0.0,-0.0001229922172245601,-0.00014658623302593599,-1.773928435316874e-05,0.0002969246575235118,1.3513178580559781e-06,-0.00011420562244923715,1.4698685762870589e-05,0.00037501245816949516,-0.0008063169170995253,-0.00044109937254798684,-0.0003390377517228518,7.087695917876082e-05,-2.1377415029579177e-05,0.0004855340635210299,0.3514034152030945,34.11452865600586,3.7990386486053467,-19.412263870239258,-0.2191062569618225,-1.783755898475647,0.08365194499492645,0
36,0.17507410049438477,-0.3514034152030945,-34.06295394897461,-3.7752349376678467,19.436067581176758,0.2126975655555725,1.790164589881897,-0.12485067546367645,0.0,0.0,0.0,0.0,0.0,0.0,0.0,-0.37622961193436416,-0.013312618832739745,-0.2270734723883811,0.3968128411282466,0.16833905776888725,-0.12031020957200585,-0.09879887070927854,1.05453211413861,0.32400296253736205,-0.39248849349272874,-2.153590382513128,0.8647531586047738,2.465991551639121,0.544490839975658,1.0544104758940245,0.3238615046091247,-0.39250456234122666,-2.153291787532338,0.8647539153680389,2.46587817577521,0.5445020185570556,8.630235864258694e-05,-0.0005303674161235152,-5.027895440365072e-06,-0.00021171782656567422,0.00035562470354392486,-0.000400938465597596,0.0008712153220165582,0.0,0.0,0.0,0.0,0.0,0.0,0.0,-0.00012163824458544248,-0.00014145792823733183,-1.6068848497918786e-05,0.0002985949807903232,7.5676326516394e-07,-0.00011337586391091392,1.117858139765282e-05,-8.630235864258694e-05,0.0005303674161235152,5.027895440365072e-06,0.00021171782656567422,-0.00035562470354392486,0.000400938465597596,-0.0008712153220165582,0.3514034152030945,34.06295394897461,3.7752349376678467,-19.436067581176758,-0.2126975655555725,-1.790164589881897,0.12485067546367645,0
37,0.18004441261291504,-0.3514034152030945,-34.06295394897461,-3.7752349376678467,19.436067581176758,0.2126975655555725,1.790164589881897,-0.12485067546367645,0.0,0.0,0.0,0.0,0.0,0.0,0.0,-0.37622961193436416,-0.013312618832739745,-0.2270734723883811,0.3968128411282466,0.16833905776888725,-0.12031020957200585,-0.09879887070927854,1.05453211413861,0.32400296253736205,-0.39248849349272874,-2.153590382513128,0.8647531586047738,2.465991551639121,0.544490839975658,1.0544104758940245,0.3238615046091247,-0.39250456234122666,-2.153291787532338,0.8647539153680389,2.46587817577521,0.5445020185570556,8.630235864258694e-05,-0.0005303674161235152,-5.027895440365072e-06,-0.00021171782656567422,0.00035562470354392486,-0.000400938465597596,0.0008712153220165582,0.0,0.0,0.0,0.0,0.0,0.0,0.0,-0.00012163824458544248,-0.00014145792823733183,-1.6068848497918786e-05,0.0002985949807903232,7.5676326516394e-07,-0.00011337586391091392,1.117858139765282e-05,-8.630235864258694e-05,0.0005303674161235152,5.027895440365072e-06,0.00021171782656567422,-0.00035562470354392486,0.000400938465597596,-0.0008712153220165582,0.3514034152030945,34.06295394897461,3.7752349376678467,-19.436067581176758,-0.2126975655555725,-1.790164589881897,0.12485067546367645,0
38,0.1850602626800537,-0.3236324191093445,-34.09072494506836,-3.7752349376678467,19.436067581176758,0.2072044014930725,1.790164589881897,-0.13217489421367645,0.0,0.0,0.0,0.0,0.0,0.0,0.0,-0.37961049547284653,-0.017774438908519243,-0.23172010703601975,0.4004041463342647,0.16824171363674958,-0.11944560775123574,-0.09914735511000085,1.0545312780142995,0.3240052428137285,-0.39248849349272874,-2.1535903826261817,0.8647538866398504,2.4659916693764696,0.5444920049385882,1.0544104758940245,0.3238615046091247,-0.39250456234122666,-2.153291787532338,0.8647539153680389,2.46587817577521,0.5445020185570556,-0.000888066081941945,0.00012590746205435452,-5.999252553531476e-05,-0.0004118691103382766,0.0006029349087537612,-0.00010347802236118449,0.001618406674621512,0.0,0.0,0.0,0.0,0.0,0.0,0.0,-0.0001208021202749876,-0.00014373820460378273,-1.6068848497918786e-05,0.0002985950938438897,2.8728188494753226e-08,-0.00011349360125967323,1.0013618467419327e-05,0.000888066081941945,-0.00012590746205435452,5.999252553531476e-05,0.0004118691103382766,-0.0006029349087537612,0.00010347802236118449,-0.001618406674621512,0.3236324191093445,34.09072494506836,3.7752349376678467,-19.436067581176758,-0.2072044014930725,-1.790164589881897,0.13217489421367645,0
39,0.19005513191223145,-0.3236324191093445,-34.09072494506836,-3.7752349376678467,19.436067581176758,0.2072044014930725,1.790164589881897,-0.13217489421367645,0.0,0.0,0.0,0.0,0.0,0.0,0.0,-0.37961049547284653,-0.017774438908519243,-0.23172010703601975,0.4004041463342647,0.16824171363674958,-0.11944560775123574,-0.09914735511000085,1.0545312780142995,0.3240052428137285,-0.39248849349272874,-2.1535903826261817,0.8647538866398504,2.4659916693764696,0.5444920049385882,1.0544104758940245,0.3238615046091247,-0.39250456234122666,-2.153291787532338,0.8647539153680389,2.46587817577521,0.5445020185570556,-0.000888066081941945,0.00012590746205435452,-5.999252553531476e-05,-0.0004118691103382766,0.0006029349087537612,-0.00010347802236118449,0.001618406674621512,0.0,0.0,0.0,0.0,0.0,0.0,0.0,-0.0001208021202749876,-0.00014373820460378273,-1.6068848497918786e-05,0.0002985950938438897,2.8728188494753226e-08,-0.00011349360125967323,1.0013618467419327e-05,0.000888066081941945,-0.00012590746205435452,5.999252553531476e-05,0.0004118691103382766,-0.0006029349087537612,0.00010347802236118449,-0.001618406674621512,0.3236324191093445,34.09072494506836,3.7752349376678467,-19.436067581176758,-0.2072044014930725,-1.790164589881897,0.13217489421367645,0
40,0.19504618644714355,-0.3236324191093445,-34.09072494506836,-3.7752349376678467,19.436067581176758,0.2072044014930725,1.790164589881897,-0.13217489421367645,0.0,0.0,0.0,0.0,0.0,0.0,0.0,-0.37961049547284653,-0.017774438908519243,-0.23172010703601975,0.4004041463342647,0.16824171363674958,-0.11944560775123574,-0.09914735511000085,1.0545312780142995,0.3240052428137285,-0.39248849349272874,-2.1535903826261817,0.8647538866398504,2.4659916693764696,0.5444920049385882,1.0544104758940245,0.3238615046091247,-0.39250456234122666,-2.153291787532338,0.8647539153680389,2.46587817577521,0.5445020185570556,-0.000888066081941945,0.00012590746205435452,-5.999252553531476e-05,-0.0004118691103382766,0.0006029349087537612,-0.00010347802236118449,0.001618406674621512,0.0,0.0,0.0,0.0,0.0,0.0,0.0,-0.0001208021202749876,-0.00014373820460378273,-1.6068848497918786e-05,0.0002985950938438897,2.8728188494753226e-08,-0.00011349360125967323,1.0013618467419327e-05,0.000888066081941945,-0.00012590746205435452,5.999252553531476e-05,0.0004118691103382766,-0.0006029349087537612,0.00010347802236118449,-0.001618406674621512,0.3236324191093445,34.09072494506836,3.7752349376678467,-19.436067581176758,-0.2072044014930725,-1.790164589881897,0.13217489421367645,0
41,0.2000410556793213,-0.3236324191093445,-34.09072494506836,-3.7752349376678467,19.436067581176758,0.2072044014930725,1.790164589881897,-0.13217489421367645,0.0,0.0,0.0,0.0,0.0,0.0,0.0,-0.37961049547284653,-0.017774438908519243,-0.23172010703601975,0.4004041463342647,0.16824171363674958,-0.11944560775123574,-0.09914735511000085,1.0545312780142995,0.3240052428137285,-0.39248849349272874,-2.1535903826261817,0.8647538866398504,2.4659916693764696,0.5444920049385882,1.0544104758940245,0.3238615046091247,-0.39250456234122666,-2.153291787532338,0.8647539153680389,2.46587817577521,0.5445020185570556,-0.000888066081941945,0.00012590746205435452,-5.999252553531476e-05,-0.0004118691103382766,0.0006029349087537612,-0.00010347802236118449,0.001618406674621512,0.0,0.0,0.0,0.0,0.0,0.0,0.0,-0.0001208021202749876,-0.00014373820460378273,-1.6068848497918786e-05,0.0002985950938438897,2.8728188494753226e-08,-0.00011349360125967323,1.0013618467419327e-05,0.000888066081941945,-0.00012590746205435452,5.999252553531476e-05,0.0004118691103382766,-0.0006029349087537612,0.00010347802236118449,-0.001618406674621512,0.3236324191093445,34.09072494506836,3.7752349376678467,-19.436067581176758,-0.2072044014930725,-1.790164589881897,0.13217489421367645,0
42,0.20505475997924805,-0.3514034152030945,-34.06295394897461,-3.8744170665740967,19.412263870239258,0.2245994210243225,1.770938515663147,-0.10470907390117645,0.0,0.0,0.0,0.0,0.0,0.0,0.0,-0.3742267961578681,-0.013629242491093404,-0.22743484849611437,0.3975896824862699,0.16756809271246445,-0.11915944086437309,-0.09946468683949317,1.0545318004974435,0.3240047071543973,-0.3924815333433318,-2.1535887121903263,0.8647519538601239,2.465993766361303,0.5444886784080819,1.0544104758940245,0.3238615046091247,-0.39250456234122666,-2.153291787532338,0.8647539153680389,2.46587817577521,0.5445020185570556,-0.0005125126063145024,-0.0005624804406724257,0.0019536237451872143,2.526240819875641e-05,-0.00013825757459787048,0.0007594344013922531,0.0010323142558894022,0.0,0.0,0.0,0.0,0.0,0.0,0.0,-0.0001213246034190707,-0.00014320254527255827,-2.302899789485835e-05,0.00029692465798847323,1.9615079149826187e-06,-0.00011559058609300621,1.3340148973695065e-05,0.0005125126063145024,0.0005624804406724257,-0.0019536237451872143,-2.526240819875641e-05,0.00013825757459787048,-0.0007594344013922531,-0.0010323142558894022,0.3514034152030945,34.06295394897461,3.8744170665740967,-19.412263870239258,-0.2245994210243225,-1.770938515663147,0.10470907390117645,0
43,0.21005630493164062,-0.3514034152030945,-34.06295394897461,-3.8744170665740967,19.412263870239258,0.2245994210243225,1.770938515663147,-0.10470907390117645,0.0,0.0,0.0,0.0,0.0,0.0,0.0,-0.3742267961578681,-0.013629242491093404,-0.22743484849611437,0.3975896824862699,0.16756809271246445,-0.11915944086437309,-0.09946468683949317,1.0545318004974435,0.3240047071543973,-0.3924815333433318,-2.1535887121903263,0.8647519538601239,2.465993766361303,0.5444886784080819,1.0544104758940245,0.3238615046091247,-0.39250456234122666,-2.153291787532338,0.8647539153680389,2.46587817577521,0.5445020185570556,-0.0005125126063145024,-0.0005624804406724257,0.0019536237451872143,2.526240819875641e-05,-0.00013825757459787048,0.0007594344013922531,0.0010323142558894022,0.0,0.0,0.0,0.0,0.0,0.0,0.0,-0.0001213246034190707,-0.00014320254527255827,-2.302899789485835e-05,0.00029692465798847323,1.9615079149826187e-06,-0.00011559058609300621,1.3340148973695065e-05,0.0005125126063145024,0.0005624804406724257,-0.0019536237451872143,-2.526240819875641e-05,0.00013825757459787048,-0.0007594344013922531,-0.0010323142558894022,0.3514034152030945,34.06295394897461,3.8744170665740967,-19.412263870239258,-0.2245994210243225,-1.770938515663147,0.10470907390117645,0
44,0.21500134468078613,-0.3514034152030945,-34.09072494506836,-3.7752349376678467,19.459871292114258,0.2310081124305725,1.777347207069397,-0.11844198405742645,0.0,0.0,0.0,0.0,0.0,0.0,0.0,-0.3741199531325569,-0.018211483572697237,-0.23013955502433076,0.39846066242445577,0.16784091377522337,-0.11836985614110414,-0.09882477717532596,1.0545310814153772,0.3240064390282992,-0.39248849349272874,-2.153592053062037,0.864751241783301,2.4659930935302627,0.5444904402446505,1.0544104758940245,0.3238615046091247,-0.39250456234122666,-2.153291787532338,0.8647539153680389,2.46587817577521,0.5445020185570556,-0.0007852712506256022,3.623063869188908e-05,-0.0005480578997363209,-0.0009283689904733536,-0.00020709791224282728,0.0002944096741895474,0.0010076312667139677,0.0,0.0,0.0,0.0,0.0,0.0,0.0,-0.00012060552135273461,-0.00014493441917445837,-1.6068848497918786e-05,0.0003002655296993062,2.673584737933332e-06,-0.00011491775505279023,1.1578312405058355e-05,0.0007852712506256022,-3.623063869188908e-05,0.0005480578997363209,0.0009283689904733536,0.00020709791224282728,-0.0002944096741895474,-0.0010076312667139677,0.3514034152030945,34.09072494506836,3.7752349376678467,-19.459871292114258,-0.2310081124305725,-1.777347207069397,0.11844198405742645,0
45,0.22004246711730957,-0.3514034152030945,-34.09072494506836,-3.7752349376678467,19.459871292114258,0.2310081124305725,1.777347207069397,-0.11844198405742645,0.0,0.0,0.0,0.0,0.0,0.0,0.0,-0.3741199531325569,-0.018211483572697237,-0.23013955502433076,0.39846066242445577,0.16784091377522337,-0.11836985614110414,-0.09882477717532596,1.0545310814153772,0.3240064390282992,-0.39248849349272874,-2.153592053062037,0.864751241783301,2.4659930935302627,0.5444904402446505,1.0544104758940245,0.3238615046091247,-0.39250456234122666,-2.153291787532338,0.8647539153680389,2.46587817577521,0.5445020185570556,-0.0007852712506256022,3.623063869188908e-05,-0.0005480578997363209,-0.0009283689904733536,-0.00020709791224282728,0.0002944096741895474,0.0010076312667139677,0.0,0.0,0.0,0.0,0.0,0.0,0.0,-0.00012060552135273461,-0.00014493441917445837,-1.6068848497918786e-05,0.0003002655296993062,2.673584737933332e-06,-0.00011491775505279023,1.1578312405058355e-05,0.0007852712506256022,-3.623063869188908e-05,0.0005480578997363209,0.0009283689904733536,0.00020709791224282728,-0.0002944096741895474,-0.0010076312667139677,0.3514034152030945,34.09072494506836,3.7752349376678467,-19.459871292114258,-0.2310081124305725,-1.777347207069397,0.11844198405742645,0
46,0.22507357597351074,-0.3514034152030945,-34.06295394897461,-3.7990386486053467,19.436067581176758,0.2310081124305725,1.796573281288147,-0.09097616374492645,0.0,0.0,0.0,0.0,0.0,0.0,0.0,-0.37730314383235275,-0.01967001922710782,-0.2310209515794215,0.398528752269685,0.16904781668409505,-0.11840296209742261,-0.09905360528821254,1.0545310927880565,0.32400305654582934,-0.3924868230568735,-2.1535903826261817,0.864751241783301,2.465990957299868,0.5444870347913866,1.0544104758940245,0.3238615046091247,-0.39250456234122666,-2.153291787532338,0.8647539153680389,2.46587817577521,0.5445020185570556,-0.0011270919465007853,-0.0006797471766951639,-3.7146630250403643e-06,-0.00010855617794819796,-0.00032626851470843175,-0.00033907831561687593,-0.00026914134647083946,0.0,0.0,0.0,0.0,0.0,0.0,0.0,-0.0001206168940319774,-0.0001415519367046203,-1.773928435316874e-05,0.0002985950938438897,2.673584737933332e-06,-0.00011278152465798996,1.4983765668996618e-05,0.0011270919465007853,0.0006797471766951639,3.7146630250403643e-06,0.00010855617794819796,0.00032626851470843175,0.00033907831561687593,0.00026914134647083946,0.3514034152030945,34.06295394897461,3.7990386486053467,-19.436067581176758,-0.2310081124305725,-1.796573281288147,0.09097616374492645,0
47,0.2300586700439453,-0.3514034152030945,-34.06295394897461,-3.7990386486053467,19.436067581176758,0.2310081124305725,1.796573281288147,-0.09097616374492645,0.0,0.0,0.0,0.0,0.0,0.0,0.0,-0.37730314383235275,-0.01967001922710782,-0.2310209515794215,0.398528752269685,0.16904781668409505,-0.11840296209742261,-0.09905360528821254,1.0545310927880565,0.32400305654582934,-0.3924868230568735,-2.1535903826261817,0.864751241783301,2.465990957299868,0.5444870347913866,1.0544104758940245,0.3238615046091247,-0.39250456234122666,-2.153291787532338,0.8647539153680389,2.46587817577521,0.5445020185570556,-0.0011270919465007853,-0.0006797471766951639,-3.7146630250403643e-06,-0.00010855617794819796,-0.00032626851470843175,-0.00033907831561687593,-0.00026914134647083946,0.0,0.0,0.0,0.0,0.0,0.0,0.0,-0.0001206168940319774,-0.0001415519367046203,-1.773928435316874e-05,0.0002985950938438897,2.673584737933332e-06,-0.00011278152465798996,1.4983765668996618e-05,0.0011270919465007853,0.0006797471766951639,3.7146630250403643e-06,0.00010855617794819796,0.00032626851470843175,0.00033907831561687593,0.00026914134647083946,0.3514034152030945,34.06295394897461,3.7990386486053467,-19.436067581176758,-0.2310081124305725,-1.796573281288147,0.09097616374492645,0
48,0.23505806922912598,-0.4029781222343445,-34.09072494506836,-3.8506133556365967,19.412263870239258,0.2191062569618225,1.790164589881897,-0.12485067546367645,0.0,0.0,0.0,0.0,0.0,0.0,0.0,-0.38151861391506475,-0.013384130580253659,-0.23248723242138034,0.395526488948132,0.17010086652394832,-0.11839045699973613,-0.09986188048116681,1.0545347355769379,0.32400633317039657,-0.39248320377918705,-2.1535886847056656,0.8647525642116864,2.465991669376691,0.5444908001314109,1.0544104758940245,0.3238615046091247,-0.39250456234122666,-2.153291787532338,0.8647539153680389,2.46587817577521,0.5445020185570556,0.00016988256976877597,0.00043034468086729076,0.0013049623506709376,0.00023255367391699958,0.0003080346826133336,-0.00017878186549593868,0.0014322902613029388,0.0,0.0,0.0,0.0,0.0,0.0,0.0,-0.00012425968291340794,-0.00014482856127184807,-2.1358562039608397e-05,0.0002968971733277037,1.351156352469296e-06,-0.00011349360148082965,1.1218425644665686e-05,-0.00016988256976877597,-0.00043034468086729076,-0.0013049623506709376,-0.00023255367391699958,-0.0003080346826133336,0.00017878186549593868,-0.0014322902613029388,0.4029781222343445,34.09072494506836,3.8506133556365967,-19.412263870239258,-0.2191062569618225,-1.790164589881897,0.12485067546367645,0
49,0.2400517463684082,-0.4029781222343445,-34.09072494506836,-3.8506133556365967,19.412263870239258,0.2191062569618225,1.790164589881897,-0.12485067546367645,0.0,0.0,0.0,0.0,0.0,0.0,0.0,-0.38151861391506475,-0.013384130580253659,-0.23248723242138034,0.395526488948132,0.17010086652394832,-0.11839045699973613,-0.09986188048116681,1.0545347355769379,0.32400633317039657,-0.39248320377918705,-2.1535886847056656,0.8647525642116864,2.465991669376691,0.5444908001314109,1.0544104758940245,0.3238615046091247,-0.39250456234122666,-2.153291787532338,0.8647539153680389,2.46587817577521,0.5445020185570556,0.00016988256976877597,0.00043034468086729076,0.0013049623506709376,0.00023255367391699958,0.0003080346826133336,-0.00017878186549593868,0.0014322902613029388,0.0,0.0,0.0,0.0,0.0,0.0,0.0,-0.00012425968291340794,-0.00014482856127184807,-2.1358562039608397e-05,0.0002968971733277037,1.351156352469296e-06,-0.00011349360148082965,1.1218425644665686e-05,-0.00016988256976877597,-0.00043034468086729076,-0.0013049623506709376,-0.00023255367391699958,-0.0003080346826133336,0.00017878186549593868,-0.0014322902613029388,0.4029781222343445,34.09072494506836,3.8506133556365967,-19.412263870239258,-0.2191062569618225,-1.790164589881897,0.12485067546367645,0
50,0.24505352973937988,-0.4267818331718445,-34.06295394897461,-3.7990386486053467,19.412263870239258,0.2126975655555725,1.796573281288147,-0.11111776530742645,0.0,0.0,0.0,0.0,0.0,0.0,0.0,-0.3731533094809991,-0.016095110023352194,-0.22319908793037363,0.3996462807038404,0.1700839950086988,-0.11895021880917435,-0.10053436354768726,1.0545364779635749,0.324004486394517,-0.3924868230568735,-2.1535884646022163,0.8647532762885094,2.465990957281923,0.5444892727451219,1.0544104758940245,0.3238615046091247,-0.39250456234122666,-2.153291787532338,0.8647539153680389,2.46587817577521,0.5445020185570556,0.0007994283724637948,-0.00031481160003501236,0.00046875309621700157,0.00044839046568051635,0.0005098705151714177,-0.00043811774204617046,0.0003462324860372455,0.0,0.0,0.0,0.0,0.0,0.0,0.0,-0.0001260020695503794,-0.00014298178539229323,-1.773928435316874e-05,0.0002966770698784593,6.390795295185825e-07,-0.00011278150671323317,1.2745811933667639e-05,-0.0007994283724637948,0.00031481160003501236,-0.00046875309621700157,-0.00044839046568051635,-0.0005098705151714177,0.00043811774204617046,-0.0003462324860372455,0.4267818331718445,34.06295394897461,3.7990386486053467,-19.412263870239258,-0.2126975655555725,-1.796573281288147,0.11111776530742645,0
51,0.2500483989715576,-0.4267818331718445,-34.06295394897461,-3.7990386486053467,19.412263870239258,0.2126975655555725,1.796573281288147,-0.11111776530742645,0.0,0.0,0.0,0.0,0.0,0.0,0.0,-0.3731533094809991,-0.016095110023352194,-0.22319908793037363,0.3996462807038404,0.1700839950086988,-0.11895021880917435,-0.10053436354768726,1.0545364779635749,0.324004486394517,-0.3924868230568735,-2.1535884646022163,0.8647532762885094,2.465990957281923,0.5444892727451219,1.0544104758940245,0.3238615046091247,-0.39250456234122666,-2.153291787532338,0.8647539153680389,2.46587817577521,0.5445020185570556,0.0007994283724637948,-0.00031481160003501236,0.00046875309621700157,0.00044839046568051635,0.0005098705151714177,-0.00043811774204617046,0.0003462324860372455,0.0,0.0,0.0,0.0,0.0,0.0,0.0,-0.0001260020695503794,-0.00014298178539229323,-1.773928435316874e-05,0.0002966770698784593,6.390795295185825e-07,-0.00011278150671323317,1.2745811933667639e-05,-0.0007994283724637948,0.00031481160003501236,-0.00046875309621700157,-0.00044839046568051635,-0.0005098705151714177,0.00043811774204617046,-0.0003462324860372455,0.4267818331718445,34.06295394897461,3.7990386486053467,-19.412263870239258,-0.2126975655555725,-1.796573281288147,0.11111776530742645,0
52,0.25504565238952637,-0.3752071261405945,-34.06295394897461,-3.7990386486053467,19.412263870239258,0.2191062569618225,1.802981972694397,-0.13217489421367645,0.0,0.0,0.0,0.0,0.0,0.0,0.0,-0.3878882104861508,-0.01358363798230692,-0.2351776005890354,0.3953293972293745,0.17022408517085338,-0.11822704688622927,-0.102118452782176,1.0545327779417113,0.32400541718408493,-0.3924868230568735,-2.1535887121889288,0.8647525642116864,2.465990245223045,0.5444927113100947,1.0544104758940245,0.3238615046091247,-0.39250456234122666,-2.153291787532338,0.8647539153680389,2.46587817577521,0.5445020185570556,-0.0005502493392464957,-0.00040195306666844554,-0.0004093065815919915,-6.376581765409804e-05,5.7915212542221416e-05,-0.0004763300523160857,0.001116268893255459,0.0,0.0,0.0,0.0,0.0,0.0,0.0,-0.00012230204768681752,-0.00014391257496021437,-1.773928435316874e-05,0.0002969246565909245,1.351156352469296e-06,-0.00011206944783515027,9.30724696091012e-06,0.0005502493392464957,0.00040195306666844554,0.0004093065815919915,6.376581765409804e-05,-5.7915212542221416e-05,0.0004763300523160857,-0.001116268893255459,0.3752071261405945,34.06295394897461,3.7990386486053467,-19.412263870239258,-0.2191062569618225,-1.802981972694397,0.13217489421367645,0
53,0.26004505157470703,-0.3752071261405945,-34.06295394897461,-3.7990386486053467,19.412263870239258,0.2191062569618225,1.802981972694397,-0.13217489421367645,0.0,0.0,0.0,0.0,0.0,0.0,0.0,-0.3878882104861508,-0.01358363798230692,-0.2351776005890354,0.3953293972293745,0.17022408517085338,-0.11822704688622927,-0.102118452782176,1.0545327779417113,0.32400541718408493,-0.3924868230568735,-2.1535887121889288,0.8647525642116864,2.465990245223045,0.5444927113100947,1.0544104758940245,0.3238615046091247,-0.39250456234122666,-2.153291787532338,0.8647539153680389,2.46587817577521,0.5445020185570556,-0.0005502493392464957,-0.00040195306666844554,-0.0004093065815919915,-6.376581765409804e-05,5.7915212542221416e-05,-0.0004763300523160857,0.001116268893255459,0.0,0.0,0.0,0.0,0.0,0.0,0.0,-0.00012230204768681752,-0.00014391257496021437,-1.773928435316874e-05,0.0002969246565909245,1.351156352469296e-06,-0.00011206944783515027,9.30724696091012e-06,0.0005502493392464957,0.00040195306666844554,0.0004093065815919915,6.376581765409804e-05,-5.7915212542221416e-05,0.0004763300523160857,-0.001116268893255459,0.3752071261405945,34.06295394897461,3.7990386486053467,-19.412263870239258,-0.2191062569618225,-1.802981972694397,0.13217489421367645,0
54,0.26505589485168457,-0.3752071261405945,-34.06295394897461,-3.8228423595428467,19.412263870239258,0.2245994210243225,1.802981972694397,-0.11844198405742645,0.0,0.0,0.0,0.0,0.0,0.0,0.0,-0.38078699817263195,-0.019539278711239203,-0.23142840477132992,0.3988828790942947,0.16940592725641107,-0.11769914317854141,-0.1029293908485559,1.0545329902079432,0.32400251232987143,-0.3924851526210182,-2.1535887121903263,0.8647519538601239,2.465990245223045,0.5444900910714265,1.0544104758940245,0.3238615046091247,-0.39250456234122666,-2.153291787532338,0.8647539153680389,2.46587817577521,0.5445020185570556,0.00022748034192375373,-0.0009491605165266349,0.00041793305458901115,0.00030865362831167747,-4.535747205249889e-05,-0.0005786684416456962,0.0004729811668532317,0.0,0.0,0.0,0.0,0.0,0.0,0.0,-0.00012251431391874235,-0.00014100772074671086,-1.94097202084742e-05,0.00029692465798847323,1.9615079149826187e-06,-0.00011206944783515027,1.1927485629059653e-05,-0.00022748034192375373,0.0009491605165266349,-0.00041793305458901115,-0.00030865362831167747,4.535747205249889e-05,0.0005786684416456962,-0.0004729811668532317,0.3752071261405945,34.06295394897461,3.8228423595428467,-19.412263870239258,-0.2245994210243225,-1.802981972694397,0.11844198405742645,0
55,0.27008914947509766,-0.3752071261405945,-34.06295394897461,-3.8228423595428467,19.412263870239258,0.2245994210243225,1.802981972694397,-0.11844198405742645,0.0,0.0,0.0,0.0,0.0,0.0,0.0,-0.38078699817263195,-0.019539278711239203,-0.23142840477132992,0.3988828790942947,0.16940592725641107,-0.11769914317854141,-0.1029293908485559,1.0545329902079432,0.32400251232987143,-0.3924851526210182,-2.1535887121903263,0.8647519538601239,2.465990245223045,0.5444900910714265,1.0544104758940245,0.3238615046091247,-0.39250456234122666,-2.153291787532338,0.8647539153680389,2.46587817577521,0.5445020185570556,0.00022748034192375373,-0.0009491605165266349,0.00041793305458901115,0.00030865362831167747,-4.535747205249889e-05,-0.0005786684416456962,0.0004729811668532317,0.0,0.0,0.0,0.0,0.0,0.0,0.0,-0.00012251431391874235,-0.00014100772074671086,-1.94097202084742e-05,0.00029692465798847323,1.9615079149826187e-06,-0.00011206944783515027,1.1927485629059653e-05,-0.00022748034192375373,0.0009491605165266349,-0.00041793305458901115,-0.00030865362831167747,4.535747205249889e-05,0.0005786684416456962,-0.0004729811668532317,0.3752071261405945,34.06295394897461,3.8228423595428467,-19.412263870239258,-0.2245994210243225,-1.802981972694397,0.11844198405742645,0
56,0.27504658699035645,-0.3752071261405945,-34.06295394897461,-3.8228423595428467,19.412263870239258,0.2245994210243225,1.802981972694397,-0.11844198405742645,0.0,0.0,0.0,0.0,0.0,0.0,0.0,-0.38078699817263195,-0.019539278711239203,-0.23142840477132992,0.3988828790942947,0.16940592725641107,-0.11769914317854141,-0.1029293908485559,1.0545329902079432,0.32400251232987143,-0.3924851526210182,-2.1535887121903263,0.8647519538601239,2.465990245223045,0.5444900910714265,1.0544104758940245,0.3238615046091247,-0.39250456234122666,-2.153291787532338,0.8647539153680389,2.46587817577521,0.5445020185570556,0.00022748034192375373,-0.0009491605165266349,0.00041793305458901115,0.00030865362831167747,-4.535747205249889e-05,-0.0005786684416456962,0.0004729811668532317,0.0,0.0,0.0,0.0,0.0,0.0,0.0,-0.00012251431391874235,-0.00014100772074671086,-1.94097202084742e-05,0.00029692465798847323,1.9615079149826187e-06,-0.00011206944783515027,1.1927485629059653e-05,-0.00022748034192375373,0.0009491605165266349,-0.00041793305458901115,-0.00030865362831167747,4.535747205249889e-05,0.0005786684416456962,-0.0004729811668532317,0.3752071261405945,34.06295394897461,3.8228423595428467,-19.412263870239258,-0.2245994210243225,-1.802981972694397,0.11844198405742645,0
57,0.28003811836242676,-0.3752071261405945,-34.06295394897461,-3.8228423595428467,19.412263870239258,0.2245994210243225,1.802981972694397,-0.11844198405742645,0.0,0.0,0.0,0.0,0.0,0.0,0.0,-0.38078699817263195,-0.019539278711239203,-0.23142840477132992,0.3988828790942947,0.16940592725641107,-0.11769914317854141,-0.1029293908485559,1.0545329902079432,0.32400251232987143,-0.3924851526210182,-2.1535887121903263,0.8647519538601239,2.465990245223045,0.5444900910714265,1.0544104758940245,0.3238615046091247,-0.39250456234122666,-2.153291787532338,0.8647539153680389,2.46587817577521,0.5445020185570556,0.00022748034192375373,-0.0009491605165266349,0.00041793305458901115,0.00030865362831167747,-4.535747205249889e-05,-0.0005786684416456962,0.0004729811668532317,0.0,0.0,0.0,0.0,0.0,0.0,0.0,-0.00012251431391874235,-0.00014100772074671086,-1.94097202084742e-05,0.00029692465798847323,1.9615079149826187e-06,-0.00011206944783515027,1.1927485629059653e-05,-0.00022748034192375373,0.0009491605165266349,-0.00041793305458901115,-0.00030865362831167747,4.535747205249889e-05,0.0005786684416456962,-0.0004729811668532317,0.3752071261405945,34.06295394897461,3.8228423595428467,-19.412263870239258,-0.2245994210243225,-1.802981972694397,0.11844198405742645,0
58,0.28504014015197754,-0.3752071261405945,-34.09072494506836,-3.7990386486053467,19.412263870239258,0.2245994210243225,1.783755898475647,-0.12485067546367645,0.0,0.0,0.0,0.0,0.0,0.0,0.0,-0.3684791960628744,-0.018014177063768514,-0.22265351093262511,0.39709573866723924,0.16900419803651437,-0.11830301810401189,-0.10215268725359393,1.0545349063397402,0.32400736292597815,-0.3924868230568735,-2.1535887121903263,0.8647519538601239,2.4659923683715617,0.5444911518367608,1.0544104758940245,0.3238615046091247,-0.39250456234122666,-2.153291787532338,0.8647539153680389,2.46587817577521,0.5445020185570556,0.0005298201534565119,-0.0002684029624353264,0.0006628522173549198,1.494051986333203e-05,-3.616413862647133e-05,0.00014248086577784054,0.0008202441398996027,0.0,0.0,0.0,0.0,0.0,0.0,0.0,-0.0001244304457157508,-0.0001458583168534311,-1.773928435316874e-05,0.00029692465798847323,1.9615079149826187e-06,-0.0001141925963517032,1.0866720294822052e-05,-0.0005298201534565119,0.0002684029624353264,-0.0006628522173549198,-1.494051986333203e-05,3.616413862647133e-05,-0.00014248086577784054,-0.0008202441398996027,0.3752071261405945,34.09072494506836,3.7990386486053467,-19.412263870239258,-0.2245994210243225,-1.783755898475647,0.12485067546367645,0
59,0.2900528907775879,-0.3752071261405945,-34.09072494506836,-3.7990386486053467,19.412263870239258,0.2245994210243225,1.783755898475647,-0.12485067546367645,0.0,0.0,0.0,0.0,0.0,0.0,0.0,-0.3684791960628744,-0.018014177063768514,-0.22265351093262511,0.39709573866723924,0.16900419803651437,-0.11830301810401189,-0.10215268725359393,1.0545349063397402,0.32400736292597815,-0.3924868230568735,-2.1535887121903263,0.8647519538601239,2.4659923683715617,0.5444911518367608,1.0544104758940245,0.3238615046091247,-0.39250456234122666,-2.153291787532338,0.8647539153680389,2.46587817577521,0.5445020185570556,0.0005298201534565119,-0.0002684029624353264,0.0006628522173549198,1.494051986333203e-05,-3.616413862647133e-05,0.00014248086577784054,0.0008202441398996027,0.0,0.0,0.0,0.0,0.0,0.0,0.0,-0.0001244304457157508,-0.0001458583168534311,-1.773928435316874e-05,0.00029692465798847323,1.9615079149826187e-06,-0.0001141925963517032,1.0866720294822052e-05,-0.0005298201534565119,0.0002684029624353264,-0.0006628522173549198,-1.494051986333203e-05,3.616413862647133e-05,-0.00014248086577784054,-0.0008202441398996027,0.3752071261405945,34.09072494506836,3.7990386486053467,-19.412263870239258,-0.2245994210243225,-1.783755898475647,0.12485067546367645,0
60,0.29505252838134766,-0.3752071261405945,-34.11452865600586,-3.7752349376678467,19.436067581176758,0.2245994210243225,1.783755898475647,-0.09097616374492645,0.0,0.0,0.0,0.0,0.0,0.0,0.0,-0.3739038174935952,-0.02069860691449346,-0.22788818907947106,0.39958828525443507,0.16945849655374154,-0.11757411274411188,-0.10114571390875485,1.0545334768445578,0.3240088039348701,-0.39248779148246804,-2.1535903826261817,0.8647519538601239,2.465991321815163,0.5444873880080814,1.0544104758940245,0.3238615046091247,-0.39250456234122666,-2.153291787532338,0.8647539153680389,2.46587817577521,0.5445020185570556,0.000588022813080773,0.0007464508487109723,-2.652551472340338e-05,0.00017234094396019988,-0.00014604418423656214,0.00016348371938796326,0.0001450067627327653,0.0,0.0,0.0,0.0,0.0,0.0,0.0,-0.00012300095053330296,-0.00014729932574536475,-1.6770858758619056e-05,0.0002985950938438897,1.9615079149826187e-06,-0.00011314603995282724,1.4630548974214896e-05,-0.000588022813080773,-0.0007464508487109723,2.652551472340338e-05,-0.00017234094396019988,0.00014604418423656214,-0.00016348371938796326,-0.0001450067627327653,0.3752071261405945,34.11452865600586,3.7752349376678467,-19.436067581176758,-0.2245994210243225,-1.783755898475647,0.09097616374492645,0
61,0.3000907897949219,-0.3752071261405945,-34.11452865600586,-3.7752349376678467,19.436067581176758,0.2245994210243225,1.783755898475647,-0.09097616374492645,0.0,0.0,0.0,0.0,0.0,0.0,0.0,-0.3739038174935952,-0.02069860691449346,-0.22788818907947106,0.39958828525443507,0.16945849655374154,-0.11757411274411188,-0.10114571390875485,1.0545334768445578,0.3240088039348701,-0.39248779148246804,-2.1535903826261817,0.8647519538601239,2.465991321815163,0.5444873880080814,1.0544104758940245,0.3238615046091247,-0.39250456234122666,-2.153291787532338,0.8647539153680389,2.46587817577521,0.5445020185570556,0.000588022813080773,0.0007464508487109723,-2.652551472340338e-05,0.00017234094396019988,-0.00014604418423656214,0.00016348371938796326,0.0001450067627327653,0.0,0.0,0.0,0.0,0.0,0.0,0.0,-0.00012300095053330296,-0.00014729932574536475,-1.6770858758619056e-05,0.0002985950938438897,1.9615079149826187e-06,-0.00011314603995282724,1.4630548974214896e-05,-0.000588022813080773,-0.0007464508487109723,2.652551472340338e-05,-0.00017234094396019988,0.00014604418423656214,-0.00016348371938796326,-0.0001450067627327653,0.3752071261405945,34.11452865600586,3.7752349376678467,-19.436067581176758,-0.2245994210243225,-1.783755898475647,0.09097616374492645,0
62,0.30509328842163086,-0.3752071261405945,-34.06295394897461,-3.7990386486053467,19.436067581176758,0.2245994210243225,1.790164589881897,-0.11844198405742645,0.0,0.0,0.0,0.0,0.0,0.0,0.0,-0.3838017467077795,-0.01344817323802564,-0.2348233322277394,0.3951965791251072,0.1695477452627347,-0.11750212094813255,-0.1000037050013749,1.0545330255184164,0.32400298520566767,-0.39248682305555255,-2.1535903826261817,0.8647519538601239,2.4659916693746973,0.544490204285437,1.0544104758940245,0.3238615046091247,-0.39250456234122666,-2.153291787532338,0.8647539153680389,2.46587817577521,0.5445020185570556,-0.00026843139520734056,-0.00035036683366038607,3.208271209213458e-05,-0.00046081407199128846,-6.928814715651965e-05,-8.040006822590496e-05,0.0011748907630178937,0.0,0.0,0.0,0.0,0.0,0.0,0.0,-0.00012254962439195438,-0.0001414805965429533,-1.7739285674112093e-05,0.0002985950938438897,1.9615079149826187e-06,-0.00011349359948731319,1.1814271618559857e-05,0.00026843139520734056,0.00035036683366038607,-3.208271209213458e-05,0.00046081407199128846,6.928814715651965e-05,8.040006822590496e-05,-0.0011748907630178937,0.3752071261405945,34.06295394897461,3.7990386486053467,-19.436067581176758,-0.2245994210243225,-1.790164589881897,0.11844198405742645,0
63,0.3100554943084717,-0.3752071261405945,-34.06295394897461,-3.7990386486053467,19.436067581176758,0.2245994210243225,1.790164589881897,-0.11844198405742645,0.0,0.0,0.0,0.0,0.0,0.0,0.0,-0.3838017467077795,-0.01344817323802564,-0.2348233322277394,0.3951965791251072,0.1695477452627347,-0.11750212094813255,-0.1000037050013749,1.0545330255184164,0.32400298520566767,-0.39248682305555255,-2.1535903826261817,0.8647519538601239,2.4659916693746973,0.544490204285437,1.0544104758940245,0.3238615046091247,-0.39250456234122666,-2.153291787532338,0.8647539153680389,2.46587817577521,0.5445020185570556,-0.00026843139520734056,-0.00035036683366038607,3.208271209213458e-05,-0.00046081407199128846,-6.928814715651965e-05,-8.040006822590496e-05,0.0011748907630178937,0.0,0.0,0.0,0.0,0.0,0.0,0.0,-0.00012254962439195438,-0.0001414805965429533,-1.7739285674112093e-05,0.0002985950938438897,1.9615079149826187e-06,-0.00011349359948731319,1.1814271618559857e-05,0.00026843139520734056,0.00035036683366038607,-3.208271209213458e-05,0.00046081407199128846,6.928814715651965e-05,8.040006822590496e-05,-0.0011748907630178937,0.3752071261405945,34.06295394897461,3.7990386486053467,-19.436067581176758,-0.2245994210243225,-1.790164589881897,0.11844198405742645,0
64,0.31504201889038086,-0.4029781222343445,-34.11452865600586,-3.7990386486053467,19.360689163208008,0.2245994210243225,1.796573281288147,-0.06991903483867645,0.0,0.0,0.0,0.0,0.0,0.0,0.0,-0.37321839834747356,-0.010919847305324724,-0.22449676627548798,0.39704754207132803,0.16844528998492622,-0.11788252352847998,-0.09985363055876001,1.0545347885603695,0.32400907173822935,-0.3924868230568735,-2.15358509291264,0.8647519538601239,2.4659909180540116,0.5444850488062916,1.0544104758940245,0.3238615046091247,-0.39250456234122666,-2.153291787532338,0.8647539153680389,2.46587817577521,0.5445020185570556,0.0006540731897550791,0.0012348761898888754,-0.00017342714160550594,0.001285597591740282,-0.00013694809461951968,-0.000304380264856468,-0.0007312601400302184,0.0,0.0,0.0,0.0,0.0,0.0,0.0,-0.00012431266634505,-0.000147567129104631,-1.773928435316874e-05,0.00029330538030203357,1.9615079149826187e-06,-0.00011274227880164744,1.6969750764039837e-05,-0.0006540731897550791,-0.0012348761898888754,0.00017342714160550594,-0.001285597591740282,0.00013694809461951968,0.000304380264856468,0.0007312601400302184,0.4029781222343445,34.11452865600586,3.7990386486053467,-19.360689163208008,-0.2245994210243225,-1.796573281288147,0.06991903483867645,0
65,0.3200490474700928,-0.4029781222343445,-34.11452865600586,-3.7990386486053467,19.360689163208008,0.2245994210243225,1.796573281288147,-0.06991903483867645,0.0,0.0,0.0,0.0,0.0,0.0,0.0,-0.37321839834747356,-0.010919847305324724,-0.22449676627548798,0.39704754207132803,0.16844528998492622,-0.11788252352847998,-0.09985363055876001,1.0545347885603695,0.32400907173822935,-0.3924868230568735,-2.15358509291264,0.8647519538601239,2.4659909180540116,0.5444850488062916,1.0544104758940245,0.3238615046091247,-0.39250456234122666,-2.153291787532338,0.8647539153680389,2.46587817577521,0.5445020185570556,0.0006540731897550791,0.0012348761898888754,-0.00017342714160550594,0.001285597591740282,-0.00013694809461951968,-0.000304380264856468,-0.0007312601400302184,0.0,0.0,0.0,0.0,0.0,0.0,0.0,-0.00012431266634505,-0.000147567129104631,-1.773928435316874e-05,0.00029330538030203357,1.9615079149826187e-06,-0.00011274227880164744,1.6969750764039837e-05,-0.0006540731897550791,-0.0012348761898888754,0.00017342714160550594,-0.001285597591740282,0.00013694809461951968,0.000304380264856468,0.0007312601400302184,0.4029781222343445,34.11452865600586,3.7990386486053467,-19.360689163208008,-0.2245994210243225,-1.796573281288147,0.06991903483867645,0
66,0.3250448703765869,-0.4267818331718445,-34.09072494506836,-3.7752349376678467,19.436067581176758,0.2310081124305725,1.790164589881897,-0.10470907390117645,0.0,0.0,0.0,0.0,0.0,0.0,0.0,-0.325027174216446,-0.007417909411935695,-0.17894419339432097,0.3993012167159191,0.16634694122661192,-0.12146190705314826,-0.09884111167519805,1.0545370893272403,0.3240066066240435,-0.39248849349272874,-2.1535903826261817,0.8647512461439517,2.4659916693764696,0.5444885650309437,1.0544104758940245,0.3238615046091247,-0.39250456234122666,-2.153291787532338,0.8647539153680389,2.46587817577521,0.5445020185570556,0.0007764986056333157,0.000322058936062739,-0.0032435998359593566,-0.00013855459412406488,-0.00023363103569686909,5.0919776402278174e-05,0.00041691570213926255,0.0,0.0,0.0,0.0,0.0,0.0,0.0,-0.00012661343321584972,-0.00014510201491879648,-1.6068848497918786e-05,0.0002985950938438897,2.6692240872039363e-06,-0.00011349360125967323,1.3453526111928404e-05,-0.0007764986056333157,-0.000322058936062739,0.0032435998359593566,0.00013855459412406488,0.00023363103569686909,-5.0919776402278174e-05,-0.00041691570213926255,0.4267818331718445,34.09072494506836,3.7752349376678467,-19.436067581176758,-0.2310081124305725,-1.790164589881897,0.10470907390117645,0
67,0.3300437927246094,-0.4267818331718445,-34.09072494506836,-3.7752349376678467,19.436067581176758,0.2310081124305725,1.790164589881897,-0.10470907390117645,0.0,0.0,0.0,0.0,0.0,0.0,0.0,-0.325027174216446,-0.007417909411935695,-0.17894419339432097,0.3993012167159191,0.16634694122661192,-0.12146190705314826,-0.09884111167519805,1.0545370893272403,0.3240066066240435,-0.39248849349272874,-2.1535903826261817,0.8647512461439517,2.4659916693764696,0.5444885650309437,1.0544104758940245,0.3238615046091247,-0.39250456234122666,-2.153291787532338,0.8647539153680389,2.46587817577521,0.5445020185570556,0.0007764986056333157,0.000322058936062739,-0.0032435998359593566,-0.00013855459412406488,-0.00023363103569686909,5.0919776402278174e-05,0.00041691570213926255,0.0,0.0,0.0,0.0,0.0,0.0,0.0,-0.00012661343321584972,-0.00014510201491879648,-1.6068848497918786e-05,0.0002985950938438897,2.6692240872039363e-06,-0.00011349360125967323,1.3453526111928404e-05,-0.0007764986056333157,-0.000322058936062739,0.0032435998359593566,0.00013855459412406488,0.00023363103569686909,-5.0919776402278174e-05,-0.00041691570213926255,0.4267818331718445,34.09072494506836,3.7752349376678467,-19.436067581176758,-0.2310081124305725,-1.790164589881897,0.10470907390117645,0
68,0.33504271507263184,-0.3752071261405945,-34.09072494506836,-3.7514312267303467,19.459871292114258,0.2245994210243225,1.790164589881897,-0.09738485515117645,0.0,0.0,0.0,0.0,0.0,0.0,0.0,-0.298760996578073,0.005116313427967923,-0.15168970664234394,0.3957593748493395,0.1652690324540249,-0.12391921251821886,-0.0986549096242601,1.054535165038054,0.32400430223367505,-0.392490163928584,-2.153592053062037,0.8647519538601486,2.465991668730669,0.5444877468662375,1.0544104758940245,0.3238615046091247,-0.39250456234122666,-2.153291787532338,0.8647539153680389,2.46587817577521,0.5445020185570556,0.0001838312881871089,0.0005425937831172792,-0.004354818324285414,-0.0011826713740475665,0.00013138508510697274,9.409883787804641e-05,-0.0003776436252821224,0.0,0.0,0.0,0.0,0.0,0.0,0.0,-0.00012468914402941067,-0.00014279762455032818,-1.4398412642668834e-05,0.0003002655296993062,1.9615078903356675e-06,-0.00011349295545892701,1.4271690818135063e-05,-0.0001838312881871089,-0.0005425937831172792,0.004354818324285414,0.0011826713740475665,-0.00013138508510697274,-9.409883787804641e-05,0.0003776436252821224,0.3752071261405945,34.09072494506836,3.7514312267303467,-19.459871292114258,-0.2245994210243225,-1.790164589881897,0.09738485515117645,0
69,0.3400435447692871,-0.3752071261405945,-34.09072494506836,-3.7514312267303467,19.459871292114258,0.2245994210243225,1.790164589881897,-0.09738485515117645,0.0,0.0,0.0,0.0,0.0,0.0,0.0,-0.298760996578073,0.005116313427967923,-0.15168970664234394,0.3957593748493395,0.1652690324540249,-0.12391921251821886,-0.0986549096242601,1.054535165038054,0.32400430223367505,-0.392490163928584,-2.153592053062037,0.8647519538601486,2.465991668730669,0.5444877468662375,1.0544104758940245,0.3238615046091247,-0.39250456234122666,-2.153291787532338,0.8647539153680389,2.46587817577521,0.5445020185570556,0.0001838312881871089,0.0005425937831172792,-0.004354818324285414,-0.0011826713740475665,0.00013138508510697274,9.409883787804641e-05,-0.0003776436252821224,0.0,0.0,0.0,0.0,0.0,0.0,0.0,-0.00012468914402941067,-0.00014279762455032818,-1.4398412642668834e-05,0.0003002655296993062,1.9615078903356675e-06,-0.00011349295545892701,1.4271690818135063e-05,-0.0001838312881871089,-0.0005425937831172792,0.004354818324285414,0.0011826713740475665,-0.00013138508510697274,-9.409883787804641e-05,0.0003776436252821224,0.3752071261405945,34.09072494506836,3.7514312267303467,-19.459871292114258,-0.2245994210243225,-1.790164589881897,0.09738485515117645,0
70,0.34503912925720215,-0.3752071261405945,-34.09072494506836,-3.7990386486053467,19.388460159301758,0.2072044014930725,1.783755898475647,-0.07724325358867645,0.0,0.0,0.0,0.0,0.0,0.0,0.0,-0.37414940378975003,-0.0184986369570886,-0.2245069144118434,0.4050904976983689,0.1679438240889277,-0.11626644860989362,-0.0995526892567185,1.0545328603346908,0.3240066499586853,-0.3924868230568735,-2.1535870417544714,0.8647538865862368,2.46599238145351,0.5444855089643189,1.0544104758940245,0.3238615046091247,-0.39250456234122666,-2.153291787532338,0.8647539153680389,2.46587817577521,0.5445020185570556,0.0001350268953032575,0.00016204619428409134,3.1109383241318214e-05,0.0016208689698114787,0.00032745874593867854,0.00024040843043327757,-0.0009480357507789725,0.0,0.0,0.0,0.0,0.0,0.0,0.0,-0.00012238444066636767,-0.00014514534956056035,-1.773928435316874e-05,0.00029525422213350083,2.8781802163813097e-08,-0.00011420567830011663,1.6509592736690948e-05,-0.0001350268953032575,-0.00016204619428409134,-3.1109383241318214e-05,-0.0016208689698114787,-0.00032745874593867854,-0.00024040843043327757,0.0009480357507789725,0.3752071261405945,34.09072494506836,3.7990386486053467,-19.388460159301758,-0.2072044014930725,-1.783755898475647,0.07724325358867645,0
71,0.35004234313964844,-0.3752071261405945,-34.09072494506836,-3.7990386486053467,19.388460159301758,0.2072044014930725,1.783755898475647,-0.07724325358867645,0.0,0.0,0.0,0.0,0.0,0.0,0.0,-0.37414940378975003,-0.0184986369570886,-0.2245069144118434,0.4050904976983689,0.1679438240889277,-0.11626644860989362,-0.0995526892567185,1.0545328603346908,0.3240066499586853,-0.3924868230568735,-2.1535870417544714,0.8647538865862368,2.46599238145351,0.5444855089643189,1.0544104758940245,0.3238615046091247,-0.39250456234122666,-2.153291787532338,0.8647539153680389,2.46587817577521,0.5445020185570556,0.0001350268953032575,0.00016204619428409134,3.1109383241318214e-05,0.0016208689698114787,0.00032745874593867854,0.00024040843043327757,-0.0009480357507789725,0.0,0.0,0.0,0.0,0.0,0.0,0.0,-0.00012238444066636767,-0.00014514534956056035,-1.773928435316874e-05,0.00029525422213350083,2.8781802163813097e-08,-0.00011420567830011663,1.6509592736690948e-05,-0.0001350268953032575,-0.00016204619428409134,-3.1109383241318214e-05,-0.0016208689698114787,-0.00032745874593867854,-0.00024040843043327757,0.0009480357507789725,0.3752071261405945,34.09072494506836,3.7990386486053467,-19.388460159301758,-0.2072044014930725,-1.783755898475647,0.07724325358867645,0
72,0.3550424575805664,-0.3752071261405945,-34.06295394897461,-3.7752349376678467,19.436067581176758,0.2245994210243225,1.790164589881897,-0.11111776530742645,0.0,0.0,0.0,0.0,0.0,0.0,0.0,-0.4113230173672646,-0.013879571541268574,-0.2586432494830436,0.3982076594048687,0.1685480211716045,-0.11378868272137037,-0.09931300615090037,1.0545328308872883,0.3240052052576712,-0.39248849349272874,-2.153590381608697,0.8647519538601236,2.465991669376691,0.5444928441180739,1.0544104758940245,0.3238615046091247,-0.39250456234122666,-2.153291787532338,0.8647539153680389,2.46587817577521,0.5445020185570556,0.0001948502048737223,-0.0005015713756861733,-0.00039915086770248514,-0.0003028596317949279,-0.00022457079090908543,0.00012562123080752532,0.0003306121320667444,0.0,0.0,0.0,0.0,0.0,0.0,0.0,-0.00012235499326385124,-0.00014370064854646314,-1.6068848497918786e-05,0.0002985940763591266,1.9615079153156856e-06,-0.00011349360148082965,9.17443898174053e-06,-0.0001948502048737223,0.0005015713756861733,0.00039915086770248514,0.0003028596317949279,0.00022457079090908543,-0.00012562123080752532,-0.0003306121320667444,0.3752071261405945,34.06295394897461,3.7752349376678467,-19.436067581176758,-0.2245994210243225,-1.790164589881897,0.11111776530742645,0
73,0.36005163192749023,-0.3752071261405945,-34.06295394897461,-3.7752349376678467,19.436067581176758,0.2245994210243225,1.790164589881897,-0.11111776530742645,0.0,0.0,0.0,0.0,0.0,0.0,0.0,-0.4113230173672646,-0.013879571541268574,-0.2586432494830436,0.3982076594048687,0.1685480211716045,-0.11378868272137037,-0.09931300615090037,1.0545328308872883,0.3240052052576712,-0.39248849349272874,-2.153590381608697,0.8647519538601236,2.465991669376691,0.5444928441180739,1.0544104758940245,0.3238615046091247,-0.39250456234122666,-2.153291787532338,0.8647539153680389,2.46587817577521,0.5445020185570556,0.0001948502048737223,-0.0005015713756861733,-0.00039915086770248514,-0.0003028596317949279,-0.00022457079090908543,0.00012562123080752532,0.0003306121320667444,0.0,0.0,0.0,0.0,0.0,0.0,0.0,-0.00012235499326385124,-0.00014370064854646314,-1.6068848497918786e-05,0.0002985940763591266,1.9615079153156856e-06,-0.00011349360148082965,9.17443898174053e-06,-0.0001948502048737223,0.0005015713756861733,0.00039915086770248514,0.0003028596317949279,0.00022457079090908543,-0.00012562123080752532,-0.0003306121320667444,0.3752071261405945,34.06295394897461,3.7752349376678467,-19.436067581176758,-0.2245994210243225,-1.790164589881897,0.11111776530742645,0
74,0.36505651473999023,-0.3752071261405945,-34.06295394897461,-3.7752349376678467,19.436067581176758,0.2245994210243225,1.783755898475647,-0.06991903483867645,0.0,0.0,0.0,0.0,0.0,0.0,0.0,-0.4067554938691403,-0.014684446097457893,-0.25472176575343486,0.4020107760778733,0.16810177245907332,-0.11389504925689661,-0.10037695092100372,1.0545330792261816,0.3240051848744749,-0.39248849349272874,-2.1535903551540767,0.8647519538601239,2.4659892024852907,0.5444847343744176,1.0544104758940245,0.3238615046091247,-0.39250456234122666,-2.153291787532338,0.8647539153680389,2.46587817577521,0.5445020185570556,-0.00024823208759787923,-0.00023708307344406904,-0.0002889460144575993,-0.00015564891898020897,-7.120671021448368e-05,0.00017069350740319753,-0.0013191924731201714,0.0,0.0,0.0,0.0,0.0,0.0,0.0,-0.00012260333215707853,-0.00014368026535016565,-1.6068848497918786e-05,0.00029856762173885443,1.9615079149826187e-06,-0.00011102671008078602,1.7284182638022116e-05,0.00024823208759787923,0.00023708307344406904,0.0002889460144575993,0.00015564891898020897,7.120671021448368e-05,-0.00017069350740319753,0.0013191924731201714,0.3752071261405945,34.06295394897461,3.7752349376678467,-19.436067581176758,-0.2245994210243225,-1.783755898475647,0.06991903483867645,0
75,0.37006521224975586,-0.3752071261405945,-34.06295394897461,-3.7752349376678467,19.436067581176758,0.2245994210243225,1.783755898475647,-0.06991903483867645,0.0,0.0,0.0,0.0,0.0,0.0,0.0,-0.4067554938691403,-0.014684446097457893,-0.25472176575343486,0.4020107760778733,0.16810177245907332,-0.11389504925689661,-0.10037695092100372,1.0545330792261816,0.3240051848744749,-0.39248849349272874,-2.1535903551540767,0.8647519538601239,2.4659892024852907,0.5444847343744176,1.0544104758940245,0.3238615046091247,-0.39250456234122666,-2.153291787532338,0.8647539153680389,2.46587817577521,0.5445020185570556,-0.00024823208759787923,-0.00023708307344406904,-0.0002889460144575993,-0.00015564891898020897,-7.120671021448368e-05,0.00017069350740319753,-0.0013191924731201714,0.0,0.0,0.0,0.0,0.0,0.0,0.0,-0.00012260333215707853,-0.00014368026535016565,-1.6068848497918786e-05,0.00029856762173885443,1.9615079149826187e-06,-0.00011102671008078602,1.7284182638022116e-05,0.00024823208759787923,0.00023708307344406904,0.0002889460144575993,0.00015564891898020897,7.120671021448368e-05,-0.00017069350740319753,0.0013191924731201714,0.3752071261405945,34.06295394897461,3.7752349376678467,-19.436067581176758,-0.2245994210243225,-1.783755898475647,0.06991903483867645,0
76,0.375044584274292,-0.4267818331718445,-34.11452865600586,-3.8228423595428467,19.412263870239258,0.2191062569618225,1.783755898475647,-0.09097616374492645,0.0,0.0,0.0,0.0,0.0,0.0,0.0,-0.4016067473855192,-0.019487057979618562,-0.24986190532122185,0.40514520664624637,0.16844737719465547,-0.11460013623622711,-0.10027863284412508,1.0545371225785543,0.3240087537865302,-0.3924851526210182,-2.1535887121901713,0.8647525642116864,2.4659923814355684,0.5444870349511172,1.0544104758940245,0.3238615046091247,-0.39250456234122666,-2.153291787532338,0.8647539153680389,2.46587817577521,0.5445020185570556,0.0009479337319436111,0.0006361860743711619,0.0007337028263455358,3.800313163076045e-05,6.807893559786922e-05,0.00011567848957648451,-0.0005343557076717601,0.0,0.0,0.0,0.0,0.0,0.0,0.0,-0.00012664668452977423,-0.00014724917740549515,-1.94097202084742e-05,0.0002969246578334861,1.351156352469296e-06,-0.00011420566035846846,1.4983605938434508e-05,-0.0009479337319436111,-0.0006361860743711619,-0.0007337028263455358,-3.800313163076045e-05,-6.807893559786922e-05,-0.00011567848957648451,0.0005343557076717601,0.4267818331718445,34.11452865600586,3.8228423595428467,-19.412263870239258,-0.2191062569618225,-1.783755898475647,0.09097616374492645,0
77,0.38004112243652344,-0.4267818331718445,-34.11452865600586,-3.8228423595428467,19.412263870239258,0.2191062569618225,1.783755898475647,-0.09097616374492645,0.0,0.0,0.0,0.0,0.0,0.0,0.0,-0.4016067473855192,-0.019487057979618562,-0.24986190532122185,0.40514520664624637,0.16844737719465547,-0.11460013623622711,-0.10027863284412508,1.0545371225785543,0.3240087537865302,-0.3924851526210182,-2.1535887121901713,0.8647525642116864,2.4659923814355684,0.5444870349511172,1.0544104758940245,0.3238615046091247,-0.39250456234122666,-2.153291787532338,0.8647539153680389,2.46587817577521,0.5445020185570556,0.0009479337319436111,0.0006361860743711619,0.0007337028263455358,3.800313163076045e-05,6.807893559786922e-05,0.00011567848957648451,-0.0005343557076717601,0.0,0.0,0.0,0.0,0.0,0.0,0.0,-0.00012664668452977423,-0.00014724917740549515,-1.94097202084742e-05,0.0002969246578334861,1.351156352469296e-06,-0.00011420566035846846,1.4983605938434508e-05,-0.0009479337319436111,-0.0006361860743711619,-0.0007337028263455358,-3.800313163076045e-05,-6.807893559786922e-05,-0.00011567848957648451,0.0005343557076717601,0.4267818331718445,34.11452865600586,3.8228423595428467,-19.412263870239258,-0.2191062569618225,-1.783755898475647,0.09097616374492645,0
78,0.3850390911102295,-0.4029781222343445,-34.01534652709961,-3.8228423595428467,19.436067581176758,0.2191062569618225,1.790164589881897,-0.13217489421367645,0.0,0.0,0.0,0.0,0.0,0.0,0.0,-0.3964389048275003,-0.015276156786109689,-0.2435397737118773,0.40236249437358684,0.16836371245981105,-0.11585893428126003,-0.10081223786807812,1.054534700296228,0.32400175871530434,-0.3924850746198781,-2.153590382513128,0.8647525600125413,2.4659916562409037,0.5444951446070426,1.0544104758940245,0.3238615046091247,-0.39250456234122666,-2.153291787532338,0.8647539153680389,2.46587817577521,0.5445020185570556,0.0003896431968283843,-0.0017134557069370755,0.000516297494240022,-0.0003518432866669856,3.1777183858663636e-05,-0.0001950649123104297,0.0012221226506256148,0.0,0.0,0.0,0.0,0.0,0.0,0.0,-0.00012422440220349884,-0.00014025410617962697,-1.948772134857668e-05,0.0002985949807903232,1.3553554976120097e-06,-0.00011348046569370496,6.873950012975527e-06,-0.0003896431968283843,0.0017134557069370755,-0.000516297494240022,0.0003518432866669856,-3.1777183858663636e-05,0.0001950649123104297,-0.0012221226506256148,0.4029781222343445,34.01534652709961,3.8228423595428467,-19.436067581176758,-0.2191062569618225,-1.790164589881897,0.13217489421367645,0
79,0.390089750289917,-0.4029781222343445,-34.01534652709961,-3.8228423595428467,19.436067581176758,0.2191062569618225,1.790164589881897,-0.13217489421367645,0.0,0.0,0.0,0.0,0.0,0.0,0.0,-0.3964389048275003,-0.015276156786109689,-0.2435397737118773,0.40236249437358684,0.16836371245981105,-0.11585893428126003,-0.10081223786807812,1.054534700296228,0.32400175871530434,-0.3924850746198781,-2.153590382513128,0.8647525600125413,2.4659916562409037,0.5444951446070426,1.0544104758940245,0.3238615046091247,-0.39250456234122666,-2.153291787532338,0.8647539153680389,2.46587817577521,0.5445020185570556,0.0003896431968283843,-0.0017134557069370755,0.000516297494240022,-0.0003518432866669856,3.1777183858663636e-05,-0.0001950649123104297,0.0012221226506256148,0.0,0.0,0.0,0.0,0.0,0.0,0.0,-0.00012422440220349884,-0.00014025410617962697,-1.948772134857668e-05,0.0002985949807903232,1.3553554976120097e-06,-0.00011348046569370496,6.873950012975527e-06,-0.0003896431968283843,0.0017134557069370755,-0.000516297494240022,0.0003518432866669856,-3.1777183858663636e-05,0.0001950649123104297,-0.0012221226506256148,0.4029781222343445,34.01534652709961,3.8228423595428467,-19.436067581176758,-0.2191062569618225,-1.790164589881897,0.13217489421367645,0
80,0.3950679302215576,-0.4029781222343445,-34.01534652709961,-3.8228423595428467,19.436067581176758,0.2191062569618225,1.790164589881897,-0.13217489421367645,0.0,0.0,0.0,0.0,0.0,0.0,0.0,-0.3964389048275003,-0.015276156786109689,-0.2435397737118773,0.40236249437358684,0.16836371245981105,-0.11585893428126003,-0.10081223786807812,1.054534700296228,0.32400175871530434,-0.3924850746198781,-2.153590382513128,0.8647525600125413,2.4659916562409037,0.5444951446070426,1.0544104758940245,0.3238615046091247,-0.39250456234122666,-2.153291787532338,0.8647539153680389,2.46587817577521,0.5445020185570556,0.0003896431968283843,-0.0017134557069370755,0.000516297494240022,-0.0003518432866669856,3.1777183858663636e-05,-0.0001950649123104297,0.0012221226506256148,0.0,0.0,0.0,0.0,0.0,0.0,0.0,-0.00012422440220349884,-0.00014025410617962697,-1.948772134857668e-05,0.0002985949807903232,1.3553554976120097e-06,-0.00011348046569370496,6.873950012975527e-06,-0.0003896431968283843,0.0017134557069370755,-0.000516297494240022,0.0003518432866669856,-3.1777183858663636e-05,0.0001950649123104297,-0.0012221226506256148,0.4029781222343445,34.01534652709961,3.8228423595428467,-19.436067581176758,-0.2191062569618225,-1.790164589881897,0.13217489421367645,0
