rezayati/contactInterpretation/dataset/franka_main/labeled_data/link5/c3_4.csv
index,time,tau_J0,tau_J1,tau_J2,tau_J3,tau_J4,tau_J5,tau_J6,tau_J_d0,tau_J_d1,tau_J_d2,tau_J_d3,tau_J_d4,tau_J_d5,tau_J_d6,tau_ext0,tau_ext1,tau_ext2,tau_ext3,tau_ext4,tau_ext5,tau_ext6,q0,q1,q2,q3,q4,q5,q6,q_d0,q_d1,q_d2,q_d3,q_d4,q_d5,q_d6,dq0,dq1,dq2,dq3,dq4,dq5,dq6,dq_d0,dq_d1,dq_d2,dq_d3,dq_d4,dq_d5,dq_d6,e0,e1,e2,e3,e4,e5,e6,de0,de1,de2,de3,de4,de5,de6,etau_J0,etau_J1,etau_J2,etau_J3,etau_J4,etau_J5,etau_J6,label
1,0.0,-0.24825400114059448,-19.792627334594727,-0.3475005328655243,20.106538772583008,0.7189841866493225,2.4566683769226074,-0.20724813640117645,0.0,0.0,0.0,0.0,0.0,0.0,0.0,-0.2503889434216381,-0.06190387412302994,-0.14186385515799116,0.3503734411879022,0.12178060752362463,0.0881221441094635,-0.24159611865966343,1.2134675709280816,-0.2201692590826625,-0.0074985117925363675,-2.6039126758827633,-0.10889612030306567,2.4681849740876345,0.826473962178588,1.2134413937687574,-0.2202432315892585,-0.0075118285948192216,-2.6038483821997875,-0.10888392708698907,2.4681821257803174,0.826474908251239,0.0002815544382279771,-0.000577992805481637,0.00029738429036038405,0.0003220365285591635,-0.0004147985807780664,9.128808402663183e-05,-0.0018504501782225515,0.0,0.0,0.0,0.0,0.0,0.0,0.0,-2.6177159324181076e-05,-7.397250659599286e-05,-1.3316802282854062e-05,6.429368297578009e-05,1.2193216076594737e-05,-2.848307317115939e-06,9.460726509979978e-07,-0.0002815544382279771,0.000577992805481637,-0.00029738429036038405,-0.0003220365285591635,0.0004147985807780664,-9.128808402663183e-05,0.0018504501782225515,0.24825400114059448,19.792627334594727,0.3475005328655243,-20.106538772583008,-0.7189841866493225,-2.4566683769226074,0.20724813640117645,0
2,0.004998445510864258,-0.24825400114059448,-19.768823623657227,-0.3475005328655243,20.106538772583008,0.7015891671180725,2.4493441581726074,-0.26217979192733765,0.0,0.0,0.0,0.0,0.0,0.0,0.0,-0.24726021152856428,-0.05457817210833068,-0.13830030350712574,0.3485967031139803,0.12255049158767276,0.08771992707499744,-0.24176387168431973,1.2134698426957204,-0.22017068894839986,-0.0074985117925363675,-2.603914974308032,-0.10888993052402025,2.4681859056272626,0.8264761367197929,1.2134413937687574,-0.2202432315892585,-0.0075118285948192216,-2.6038483821997875,-0.10888392708698907,2.4681821257803174,0.826474908251239,6.707499058923916e-05,-0.0004888395254615781,0.0005149687935280788,0.0008335708073919858,0.00021071410969070333,0.0005028091563197578,0.0009554809097015187,0.0,0.0,0.0,0.0,0.0,0.0,0.0,-2.8448926963076104e-05,-7.254264085862494e-05,-1.3316802282854062e-05,6.659210824455641e-05,6.003437031179559e-06,-3.779846945217713e-06,-1.228468553882145e-06,-6.707499058923916e-05,0.0004888395254615781,-0.0005149687935280788,-0.0008335708073919858,-0.00021071410969070333,-0.0005028091563197578,-0.0009554809097015187,0.24825400114059448,19.768823623657227,0.3475005328655243,-20.106538772583008,-0.7015891671180725,-2.4493441581726074,0.26217979192733765,0
3,0.009995222091674805,-0.24825400114059448,-19.768823623657227,-0.3475005328655243,20.106538772583008,0.7015891671180725,2.4493441581726074,-0.26217979192733765,0.0,0.0,0.0,0.0,0.0,0.0,0.0,-0.24726021152856428,-0.05457817210833068,-0.13830030350712574,0.3485967031139803,0.12255049158767276,0.08771992707499744,-0.24176387168431973,1.2134698426957204,-0.22017068894839986,-0.0074985117925363675,-2.603914974308032,-0.10888993052402025,2.4681859056272626,0.8264761367197929,1.2134413937687574,-0.2202432315892585,-0.0075118285948192216,-2.6038483821997875,-0.10888392708698907,2.4681821257803174,0.826474908251239,6.707499058923916e-05,-0.0004888395254615781,0.0005149687935280788,0.0008335708073919858,0.00021071410969070333,0.0005028091563197578,0.0009554809097015187,0.0,0.0,0.0,0.0,0.0,0.0,0.0,-2.8448926963076104e-05,-7.254264085862494e-05,-1.3316802282854062e-05,6.659210824455641e-05,6.003437031179559e-06,-3.779846945217713e-06,-1.228468553882145e-06,-6.707499058923916e-05,0.0004888395254615781,-0.0005149687935280788,-0.0008335708073919858,-0.00021071410969070333,-0.0005028091563197578,-0.0009554809097015187,0.24825400114059448,19.768823623657227,0.3475005328655243,-20.106538772583008,-0.7015891671180725,-2.4493441581726074,0.26217979192733765,0
4,0.014993906021118164,-0.2720577120780945,-19.844202041625977,-0.3236968219280243,20.106538772583008,0.7134910225868225,2.4694857597351074,-0.26858848333358765,0.0,0.0,0.0,0.0,0.0,0.0,0.0,-0.25352301482035133,-0.05656460302629345,-0.14275810613706752,0.34951653446201364,0.12301961195922992,0.08711793869830493,-0.24249819819002338,1.2134711834038348,-0.22016571565321935,-0.0075001822283916305,-2.6039129338164044,-0.10889444955647641,2.4681836676721978,0.8264767339439671,1.2134413937687574,-0.2202432315892585,-0.0075118285948192216,-2.6038483821997875,-0.10888392708698907,2.4681821257803174,0.826474908251239,0.0002441738210456818,0.0013040197515937144,-0.0007211297451651767,0.0003197784229659212,-0.00023020604656413707,-0.00033939550640788946,0.0014106366202311055,0.0,0.0,0.0,0.0,0.0,0.0,0.0,-2.978963507738186e-05,-7.751593603913531e-05,-1.16463664275911e-05,6.455161661689246e-05,1.0522469487336816e-05,-1.541891880396662e-06,-1.8256927281079527e-06,-0.0002441738210456818,-0.0013040197515937144,0.0007211297451651767,-0.0003197784229659212,0.00023020604656413707,0.00033939550640788946,-0.0014106366202311055,0.2720577120780945,19.844202041625977,0.3236968219280243,-20.106538772583008,-0.7134910225868225,-2.4694857597351074,0.26858848333358765,0
5,0.01999354362487793,-0.2720577120780945,-19.844202041625977,-0.3236968219280243,20.106538772583008,0.7134910225868225,2.4694857597351074,-0.26858848333358765,0.0,0.0,0.0,0.0,0.0,0.0,0.0,-0.25352301482035133,-0.05656460302629345,-0.14275810613706752,0.34951653446201364,0.12301961195922992,0.08711793869830493,-0.24249819819002338,1.2134711834038348,-0.22016571565321935,-0.0075001822283916305,-2.6039129338164044,-0.10889444955647641,2.4681836676721978,0.8264767339439671,1.2134413937687574,-0.2202432315892585,-0.0075118285948192216,-2.6038483821997875,-0.10888392708698907,2.4681821257803174,0.826474908251239,0.0002441738210456818,0.0013040197515937144,-0.0007211297451651767,0.0003197784229659212,-0.00023020604656413707,-0.00033939550640788946,0.0014106366202311055,0.0,0.0,0.0,0.0,0.0,0.0,0.0,-2.978963507738186e-05,-7.751593603913531e-05,-1.16463664275911e-05,6.455161661689246e-05,1.0522469487336816e-05,-1.541891880396662e-06,-1.8256927281079527e-06,-0.0002441738210456818,-0.0013040197515937144,0.0007211297451651767,-0.0003197784229659212,0.00023020604656413707,0.00033939550640788946,-0.0014106366202311055,0.2720577120780945,19.844202041625977,0.3236968219280243,-20.106538772583008,-0.7134910225868225,-2.4694857597351074,0.26858848333358765,0
6,0.0250093936920166,-0.24825400114059448,-19.768823623657227,-0.2998931109905243,20.154146194458008,0.7015891671180725,2.4566683769226074,-0.26217979192733765,0.0,0.0,0.0,0.0,0.0,0.0,0.0,-0.24729110108865424,-0.05176468485195303,-0.1375634050864636,0.34831126261022116,0.1224764657149769,0.08676136648890756,-0.24207656386027593,1.2134665796694206,-0.22017068894882805,-0.007501852664246893,-2.603916271877166,-0.10889040226961721,2.4681849740882735,0.8264799595341124,1.2134413937687574,-0.2202432315892585,-0.0075118285948192216,-2.6038483821997875,-0.10888392708698907,2.4681821257803174,0.826474908251239,-5.1190190031136913e-05,-1.036699403440054e-05,-0.001028399819342386,-0.00056481719421487,0.0003066201953728235,0.0001468107661175675,0.0008519629550901787,0.0,0.0,0.0,0.0,0.0,0.0,0.0,-2.5185900663249328e-05,-7.254264043043968e-05,-9.975930572328137e-06,6.788967737847429e-05,6.475182628140619e-06,-2.848307956160312e-06,-5.0512828733140225e-06,5.1190190031136913e-05,1.036699403440054e-05,0.001028399819342386,0.00056481719421487,-0.0003066201953728235,-0.0001468107661175675,-0.0008519629550901787,0.24825400114059448,19.768823623657227,0.2998931109905243,-20.154146194458008,-0.7015891671180725,-2.4566683769226074,0.26217979192733765,0
7,0.030007600784301758,-0.24825400114059448,-19.768823623657227,-0.2998931109905243,20.154146194458008,0.7015891671180725,2.4566683769226074,-0.26217979192733765,0.0,0.0,0.0,0.0,0.0,0.0,0.0,-0.24729110108865424,-0.05176468485195303,-0.1375634050864636,0.34831126261022116,0.1224764657149769,0.08676136648890756,-0.24207656386027593,1.2134665796694206,-0.22017068894882805,-0.007501852664246893,-2.603916271877166,-0.10889040226961721,2.4681849740882735,0.8264799595341124,1.2134413937687574,-0.2202432315892585,-0.0075118285948192216,-2.6038483821997875,-0.10888392708698907,2.4681821257803174,0.826474908251239,-5.1190190031136913e-05,-1.036699403440054e-05,-0.001028399819342386,-0.00056481719421487,0.0003066201953728235,0.0001468107661175675,0.0008519629550901787,0.0,0.0,0.0,0.0,0.0,0.0,0.0,-2.5185900663249328e-05,-7.254264043043968e-05,-9.975930572328137e-06,6.788967737847429e-05,6.475182628140619e-06,-2.848307956160312e-06,-5.0512828733140225e-06,5.1190190031136913e-05,1.036699403440054e-05,0.001028399819342386,0.00056481719421487,-0.0003066201953728235,-0.0001468107661175675,-0.0008519629550901787,0.24825400114059448,19.768823623657227,0.2998931109905243,-20.154146194458008,-0.7015891671180725,-2.4566683769226074,0.26217979192733765,0
8,0.03502678871154785,-0.2720577120780945,-19.792627334594727,-0.3236968219280243,20.130342483520508,0.7070823311805725,2.4630770683288574,-0.26217979192733765,0.0,0.0,0.0,0.0,0.0,0.0,0.0,-0.24920656973189034,-0.060363854674470724,-0.13934274466743318,0.35604397895603396,0.12250368720681663,0.08790177270389513,-0.24216665859020048,1.2134714402066362,-0.22016912528656507,-0.0075001793058187775,-2.6039159786325667,-0.1088919593595611,2.468184732961066,0.8264757212138224,1.2134413937687574,-0.2202432315892585,-0.0075118285948192216,-2.6038483821997875,-0.10888392708698907,2.4681821257803174,0.826474908251239,0.0006880337622759368,-0.00038612630485269,-0.0007496274507084219,0.00019699763408521158,8.378571977138518e-05,-0.0001803955419215007,0.00036340437496936746,0.0,0.0,0.0,0.0,0.0,0.0,0.0,-3.0046437878850085e-05,-7.410630269341634e-05,-1.1649289000444096e-05,6.759643277920446e-05,8.032272572025545e-06,-2.6071807486260923e-06,-8.129625833630527e-07,-0.0006880337622759368,0.00038612630485269,0.0007496274507084219,-0.00019699763408521158,-8.378571977138518e-05,0.0001803955419215007,-0.00036340437496936746,0.2720577120780945,19.792627334594727,0.3236968219280243,-20.130342483520508,-0.7070823311805725,-2.4630770683288574,0.26217979192733765,0
9,0.03995800018310547,-0.2720577120780945,-19.792627334594727,-0.3236968219280243,20.130342483520508,0.7070823311805725,2.4630770683288574,-0.26217979192733765,0.0,0.0,0.0,0.0,0.0,0.0,0.0,-0.24920656973189034,-0.060363854674470724,-0.13934274466743318,0.35604397895603396,0.12250368720681663,0.08790177270389513,-0.24216665859020048,1.2134714402066362,-0.22016912528656507,-0.0075001793058187775,-2.6039159786325667,-0.1088919593595611,2.468184732961066,0.8264757212138224,1.2134413937687574,-0.2202432315892585,-0.0075118285948192216,-2.6038483821997875,-0.10888392708698907,2.4681821257803174,0.826474908251239,0.0006880337622759368,-0.00038612630485269,-0.0007496274507084219,0.00019699763408521158,8.378571977138518e-05,-0.0001803955419215007,0.00036340437496936746,0.0,0.0,0.0,0.0,0.0,0.0,0.0,-3.0046437878850085e-05,-7.410630269341634e-05,-1.1649289000444096e-05,6.759643277920446e-05,8.032272572025545e-06,-2.6071807486260923e-06,-8.129625833630527e-07,-0.0006880337622759368,0.00038612630485269,0.0007496274507084219,-0.00019699763408521158,-8.378571977138518e-05,0.0001803955419215007,-0.00036340437496936746,0.2720577120780945,19.792627334594727,0.3236968219280243,-20.130342483520508,-0.7070823311805725,-2.4630770683288574,0.26217979192733765,0
10,0.04500627517700195,-0.24825400114059448,-19.768823623657227,-0.3475005328655243,20.130342483520508,0.7015891671180725,2.4630770683288574,-0.26217979192733765,0.0,0.0,0.0,0.0,0.0,0.0,0.0,-0.2493910979849706,-0.06076698505293933,-0.1409720776021893,0.35501389271974915,0.12252579794213699,0.08785178406484578,-0.24231946388989986,1.2134668261916113,-0.22017068927277744,-0.007498511756449722,-2.603916636567373,-0.10889135051710519,2.4681843056181796,0.826480414511373,1.2134413937687574,-0.2202432315892585,-0.0075118285948192216,-2.6038483821997875,-0.10888392708698907,2.4681821257803174,0.826474908251239,-5.4047360908918785e-05,-0.0015974763898385887,0.00033640688565846164,-0.00013299261758298393,0.00024049404594135774,-0.0004023558551632732,0.0010083296786557745,0.0,0.0,0.0,0.0,0.0,0.0,0.0,-2.5432422853910452e-05,-7.254231648104459e-05,-1.3316838369499887e-05,6.825436758539638e-05,7.423430116115792e-06,-2.179837862215095e-06,-5.506260133958385e-06,5.4047360908918785e-05,0.0015974763898385887,-0.00033640688565846164,0.00013299261758298393,-0.00024049404594135774,0.0004023558551632732,-0.0010083296786557745,0.24825400114059448,19.768823623657227,0.3475005328655243,-20.130342483520508,-0.7015891671180725,-2.4630770683288574,0.26217979192733765,0
11,0.049991607666015625,-0.24825400114059448,-19.768823623657227,-0.3475005328655243,20.130342483520508,0.7015891671180725,2.4630770683288574,-0.26217979192733765,0.0,0.0,0.0,0.0,0.0,0.0,0.0,-0.2493910979849706,-0.06076698505293933,-0.1409720776021893,0.35501389271974915,0.12252579794213699,0.08785178406484578,-0.24231946388989986,1.2134668261916113,-0.22017068927277744,-0.007498511756449722,-2.603916636567373,-0.10889135051710519,2.4681843056181796,0.826480414511373,1.2134413937687574,-0.2202432315892585,-0.0075118285948192216,-2.6038483821997875,-0.10888392708698907,2.4681821257803174,0.826474908251239,-5.4047360908918785e-05,-0.0015974763898385887,0.00033640688565846164,-0.00013299261758298393,0.00024049404594135774,-0.0004023558551632732,0.0010083296786557745,0.0,0.0,0.0,0.0,0.0,0.0,0.0,-2.5432422853910452e-05,-7.254231648104459e-05,-1.3316838369499887e-05,6.825436758539638e-05,7.423430116115792e-06,-2.179837862215095e-06,-5.506260133958385e-06,5.4047360908918785e-05,0.0015974763898385887,-0.00033640688565846164,0.00013299261758298393,-0.00024049404594135774,0.0004023558551632732,-0.0010083296786557745,0.24825400114059448,19.768823623657227,0.3475005328655243,-20.130342483520508,-0.7015891671180725,-2.4630770683288574,0.26217979192733765,0
12,0.05498981475830078,-0.24825400114059448,-19.768823623657227,-0.3475005328655243,20.130342483520508,0.7015891671180725,2.4630770683288574,-0.26217979192733765,0.0,0.0,0.0,0.0,0.0,0.0,0.0,-0.2493910979849706,-0.06076698505293933,-0.1409720776021893,0.35501389271974915,0.12252579794213699,0.08785178406484578,-0.24231946388989986,1.2134668261916113,-0.22017068927277744,-0.007498511756449722,-2.603916636567373,-0.10889135051710519,2.4681843056181796,0.826480414511373,1.2134413937687574,-0.2202432315892585,-0.0075118285948192216,-2.6038483821997875,-0.10888392708698907,2.4681821257803174,0.826474908251239,-5.4047360908918785e-05,-0.0015974763898385887,0.00033640688565846164,-0.00013299261758298393,0.00024049404594135774,-0.0004023558551632732,0.0010083296786557745,0.0,0.0,0.0,0.0,0.0,0.0,0.0,-2.5432422853910452e-05,-7.254231648104459e-05,-1.3316838369499887e-05,6.825436758539638e-05,7.423430116115792e-06,-2.179837862215095e-06,-5.506260133958385e-06,5.4047360908918785e-05,0.0015974763898385887,-0.00033640688565846164,0.00013299261758298393,-0.00024049404594135774,0.0004023558551632732,-0.0010083296786557745,0.24825400114059448,19.768823623657227,0.3475005328655243,-20.130342483520508,-0.7015891671180725,-2.4630770683288574,0.26217979192733765,0
13,0.05999183654785156,-0.24825400114059448,-19.768823623657227,-0.3475005328655243,20.130342483520508,0.7015891671180725,2.4630770683288574,-0.26217979192733765,0.0,0.0,0.0,0.0,0.0,0.0,0.0,-0.2493910979849706,-0.06076698505293933,-0.1409720776021893,0.35501389271974915,0.12252579794213699,0.08785178406484578,-0.24231946388989986,1.2134668261916113,-0.22017068927277744,-0.007498511756449722,-2.603916636567373,-0.10889135051710519,2.4681843056181796,0.826480414511373,1.2134413937687574,-0.2202432315892585,-0.0075118285948192216,-2.6038483821997875,-0.10888392708698907,2.4681821257803174,0.826474908251239,-5.4047360908918785e-05,-0.0015974763898385887,0.00033640688565846164,-0.00013299261758298393,0.00024049404594135774,-0.0004023558551632732,0.0010083296786557745,0.0,0.0,0.0,0.0,0.0,0.0,0.0,-2.5432422853910452e-05,-7.254231648104459e-05,-1.3316838369499887e-05,6.825436758539638e-05,7.423430116115792e-06,-2.179837862215095e-06,-5.506260133958385e-06,5.4047360908918785e-05,0.0015974763898385887,-0.00033640688565846164,0.00013299261758298393,-0.00024049404594135774,0.0004023558551632732,-0.0010083296786557745,0.24825400114059448,19.768823623657227,0.3475005328655243,-20.130342483520508,-0.7015891671180725,-2.4630770683288574,0.26217979192733765,0
14,0.06495380401611328,-0.2720577120780945,-19.816431045532227,-0.2998931109905243,20.106538772583008,0.7070823311805725,2.4694857597351074,-0.21457235515117645,0.0,0.0,0.0,0.0,0.0,0.0,0.0,-0.24780885267471273,-0.05264149731929296,-0.14038732977008925,0.35081761704648673,0.1227987695970401,0.086937989739586,-0.24158576164095924,1.2134712628260194,-0.22016735719030447,-0.007501852628165544,-2.6039126192304005,-0.1088905436721202,2.4681867288485977,0.8264714363942718,1.2134413937687574,-0.2202432315892585,-0.0075118285948192216,-2.6038483821997875,-0.10888392708698907,2.4681821257803174,0.826474908251239,0.0007591605254778925,0.00045537192320831984,-0.0007713608026259361,0.000334441230403091,-3.08082108429935e-05,-0.0005007192720239018,-0.0009405113779456892,0.0,0.0,0.0,0.0,0.0,0.0,0.0,-2.986905726198863e-05,-7.587439895401227e-05,-9.97596665367785e-06,6.423703061297914e-05,6.616585131125063e-06,-4.603068280317757e-06,3.4718569672520516e-06,-0.0007591605254778925,-0.00045537192320831984,0.0007713608026259361,-0.000334441230403091,3.08082108429935e-05,0.0005007192720239018,0.0009405113779456892,0.2720577120780945,19.816431045532227,0.2998931109905243,-20.106538772583008,-0.7070823311805725,-2.4694857597351074,0.21457235515117645,0
15,0.07000923156738281,-0.2720577120780945,-19.816431045532227,-0.2998931109905243,20.106538772583008,0.7070823311805725,2.4694857597351074,-0.21457235515117645,0.0,0.0,0.0,0.0,0.0,0.0,0.0,-0.24780885267471273,-0.05264149731929296,-0.14038732977008925,0.35081761704648673,0.1227987695970401,0.086937989739586,-0.24158576164095924,1.2134712628260194,-0.22016735719030447,-0.007501852628165544,-2.6039126192304005,-0.1088905436721202,2.4681867288485977,0.8264714363942718,1.2134413937687574,-0.2202432315892585,-0.0075118285948192216,-2.6038483821997875,-0.10888392708698907,2.4681821257803174,0.826474908251239,0.0007591605254778925,0.00045537192320831984,-0.0007713608026259361,0.000334441230403091,-3.08082108429935e-05,-0.0005007192720239018,-0.0009405113779456892,0.0,0.0,0.0,0.0,0.0,0.0,0.0,-2.986905726198863e-05,-7.587439895401227e-05,-9.97596665367785e-06,6.423703061297914e-05,6.616585131125063e-06,-4.603068280317757e-06,3.4718569672520516e-06,-0.0007591605254778925,-0.00045537192320831984,0.0007713608026259361,-0.000334441230403091,3.08082108429935e-05,0.0005007192720239018,0.0009405113779456892,0.2720577120780945,19.816431045532227,0.2998931109905243,-20.106538772583008,-0.7070823311805725,-2.4694857597351074,0.21457235515117645,0
16,0.07500815391540527,-0.24825400114059448,-19.891809463500977,-0.2721221148967743,20.130342483520508,0.7189841866493225,2.4493441581726074,-0.25485557317733765,0.0,0.0,0.0,0.0,0.0,0.0,0.0,-0.25128611637767767,-0.06025501239683951,-0.14255099367308524,0.3560240797733577,0.12310018339704995,0.08783178392129941,-0.24183929187902145,1.2134669116977166,-0.2201620583618068,-0.007503801506077966,-2.6039164409540163,-0.10889546340113689,2.468185787895674,0.8264792481265479,1.2134413937687574,-0.2202432315892585,-0.0075118285948192216,-2.6038483821997875,-0.10888392708698907,2.4681821257803174,0.826474908251239,0.00013101412436928352,0.0019923270093721735,-0.0018389750439718497,0.000340718950395681,-0.0004452182057801697,0.0004884214759102855,0.0005824933508731969,0.0,0.0,0.0,0.0,0.0,0.0,0.0,-2.5517928959217784e-05,-8.117322745168631e-05,-8.027088741255524e-06,6.80587542287725e-05,1.1536314147811422e-05,-3.662115356739548e-06,-4.339875308900787e-06,-0.00013101412436928352,-0.0019923270093721735,0.0018389750439718497,-0.000340718950395681,0.0004452182057801697,-0.0004884214759102855,-0.0005824933508731969,0.24825400114059448,19.891809463500977,0.2721221148967743,-20.130342483520508,-0.7189841866493225,-2.4493441581726074,0.25485557317733765,0
17,0.08002090454101562,-0.24825400114059448,-19.891809463500977,-0.2721221148967743,20.130342483520508,0.7189841866493225,2.4493441581726074,-0.25485557317733765,0.0,0.0,0.0,0.0,0.0,0.0,0.0,-0.25128611637767767,-0.06025501239683951,-0.14255099367308524,0.3560240797733577,0.12310018339704995,0.08783178392129941,-0.24183929187902145,1.2134669116977166,-0.2201620583618068,-0.007503801506077966,-2.6039164409540163,-0.10889546340113689,2.468185787895674,0.8264792481265479,1.2134413937687574,-0.2202432315892585,-0.0075118285948192216,-2.6038483821997875,-0.10888392708698907,2.4681821257803174,0.826474908251239,0.00013101412436928352,0.0019923270093721735,-0.0018389750439718497,0.000340718950395681,-0.0004452182057801697,0.0004884214759102855,0.0005824933508731969,0.0,0.0,0.0,0.0,0.0,0.0,0.0,-2.5517928959217784e-05,-8.117322745168631e-05,-8.027088741255524e-06,6.80587542287725e-05,1.1536314147811422e-05,-3.662115356739548e-06,-4.339875308900787e-06,-0.00013101412436928352,-0.0019923270093721735,0.0018389750439718497,-0.000340718950395681,0.0004452182057801697,-0.0004884214759102855,-0.0005824933508731969,0.24825400114059448,19.891809463500977,0.2721221148967743,-20.130342483520508,-0.7189841866493225,-2.4493441581726074,0.25485557317733765,0
18,0.08501362800598145,-0.22445029020309448,-19.792627334594727,-0.3475005328655243,20.106538772583008,0.7070823311805725,2.4694857597351074,-0.24112264811992645,0.0,0.0,0.0,0.0,0.0,0.0,0.0,-0.24498350069924613,-0.05388755681087248,-0.13912783136044954,0.35068684077784884,0.12323617502105072,0.08741680562768131,-0.24214728391982107,1.2134658740963014,-0.22016901851118656,-0.007498274739404955,-2.603912933850247,-0.10889479837311851,2.468183554294614,0.8264780870022542,1.2134413937687574,-0.2202432315892585,-0.0075118285948192216,-2.6038483821997875,-0.10888392708698907,2.4681821257803174,0.826474908251239,-0.00021523549166720669,-0.00013819183912876598,0.0003170254568553782,0.00047984453357768783,-1.4444636729446315e-06,-0.0003479549647996692,0.000307626645975537,0.0,0.0,0.0,0.0,0.0,0.0,0.0,-2.4480327543985325e-05,-7.421307807192745e-05,-1.355385541426668e-05,6.455165045959887e-05,1.087128612943522e-05,-1.4285142966308229e-06,-3.1787510151870535e-06,0.00021523549166720669,0.00013819183912876598,-0.0003170254568553782,-0.00047984453357768783,1.4444636729446315e-06,0.0003479549647996692,-0.000307626645975537,0.22445029020309448,19.792627334594727,0.3475005328655243,-20.106538772583008,-0.7070823311805725,-2.4694857597351074,0.24112264811992645,0
19,0.09002089500427246,-0.22445029020309448,-19.792627334594727,-0.3475005328655243,20.106538772583008,0.7070823311805725,2.4694857597351074,-0.24112264811992645,0.0,0.0,0.0,0.0,0.0,0.0,0.0,-0.24498350069924613,-0.05388755681087248,-0.13912783136044954,0.35068684077784884,0.12323617502105072,0.08741680562768131,-0.24214728391982107,1.2134658740963014,-0.22016901851118656,-0.007498274739404955,-2.603912933850247,-0.10889479837311851,2.468183554294614,0.8264780870022542,1.2134413937687574,-0.2202432315892585,-0.0075118285948192216,-2.6038483821997875,-0.10888392708698907,2.4681821257803174,0.826474908251239,-0.00021523549166720669,-0.00013819183912876598,0.0003170254568553782,0.00047984453357768783,-1.4444636729446315e-06,-0.0003479549647996692,0.000307626645975537,0.0,0.0,0.0,0.0,0.0,0.0,0.0,-2.4480327543985325e-05,-7.421307807192745e-05,-1.355385541426668e-05,6.455165045959887e-05,1.087128612943522e-05,-1.4285142966308229e-06,-3.1787510151870535e-06,0.00021523549166720669,0.00013819183912876598,-0.0003170254568553782,-0.00047984453357768783,1.4444636729446315e-06,0.0003479549647996692,-0.000307626645975537,0.22445029020309448,19.792627334594727,0.3475005328655243,-20.106538772583008,-0.7070823311805725,-2.4694857597351074,0.24112264811992645,0
20,0.09002089500427246,-0.22445029020309448,-19.792627334594727,-0.3475005328655243,20.106538772583008,0.7070823311805725,2.4694857597351074,-0.24112264811992645,0.0,0.0,0.0,0.0,0.0,0.0,0.0,-0.24498350069924613,-0.05388755681087248,-0.13912783136044954,0.35068684077784884,0.12323617502105072,0.08741680562768131,-0.24214728391982107,1.2134658740963014,-0.22016901851118656,-0.007498274739404955,-2.603912933850247,-0.10889479837311851,2.468183554294614,0.8264780870022542,1.2134413937687574,-0.2202432315892585,-0.0075118285948192216,-2.6038483821997875,-0.10888392708698907,2.4681821257803174,0.826474908251239,-0.00021523549166720669,-0.00013819183912876598,0.0003170254568553782,0.00047984453357768783,-1.4444636729446315e-06,-0.0003479549647996692,0.000307626645975537,0.0,0.0,0.0,0.0,0.0,0.0,0.0,-2.4480327543985325e-05,-7.421307807192745e-05,-1.355385541426668e-05,6.455165045959887e-05,1.087128612943522e-05,-1.4285142966308229e-06,-3.1787510151870535e-06,0.00021523549166720669,0.00013819183912876598,-0.0003170254568553782,-0.00047984453357768783,1.4444636729446315e-06,0.0003479549647996692,-0.000307626645975537,0.22445029020309448,19.792627334594727,0.3475005328655243,-20.106538772583008,-0.7070823311805725,-2.4694857597351074,0.24112264811992645,0
21,0.1000216007232666,-0.22445029020309448,-19.816431045532227,-0.2998931109905243,20.106538772583008,0.7070823311805725,2.4566683769226074,-0.22098104655742645,0.0,0.0,0.0,0.0,0.0,0.0,0.0,-0.24673570360467295,-0.054688000649843915,-0.14151106518948378,0.3506953936443968,0.12338320423885864,0.08766803017499497,-0.24137989037902238,1.2134659564031187,-0.2201673754202453,-0.007501852662908722,-2.603915000134231,-0.10889069702633308,2.4681849755411838,0.8264712611594911,1.2134413937687574,-0.2202432315892585,-0.0075118285948192216,-2.6038483821997875,-0.10888392708698907,2.4681821257803174,0.826474908251239,-0.0007926560721579592,0.0005700754561962282,-0.0006800228799491958,0.00032902252470385875,-0.00013226350028529803,0.00020598048283497527,-0.0011090637630122228,0.0,0.0,0.0,0.0,0.0,0.0,0.0,-2.456263436134698e-05,-7.58561690131776e-05,-9.975931910499898e-06,6.66179344435136e-05,6.769939344009046e-06,-2.8497608663968776e-06,3.6470917479380915e-06,0.0007926560721579592,-0.0005700754561962282,0.0006800228799491958,-0.00032902252470385875,0.00013226350028529803,-0.00020598048283497527,0.0011090637630122228,0.22445029020309448,19.816431045532227,0.2998931109905243,-20.106538772583008,-0.7070823311805725,-2.4566683769226074,0.22098104655742645,0
22,0.10501861572265625,-0.22445029020309448,-19.816431045532227,-0.2998931109905243,20.106538772583008,0.7070823311805725,2.4566683769226074,-0.22098104655742645,0.0,0.0,0.0,0.0,0.0,0.0,0.0,-0.24673570360467295,-0.054688000649843915,-0.14151106518948378,0.3506953936443968,0.12338320423885864,0.08766803017499497,-0.24137989037902238,1.2134659564031187,-0.2201673754202453,-0.007501852662908722,-2.603915000134231,-0.10889069702633308,2.4681849755411838,0.8264712611594911,1.2134413937687574,-0.2202432315892585,-0.0075118285948192216,-2.6038483821997875,-0.10888392708698907,2.4681821257803174,0.826474908251239,-0.0007926560721579592,0.0005700754561962282,-0.0006800228799491958,0.00032902252470385875,-0.00013226350028529803,0.00020598048283497527,-0.0011090637630122228,0.0,0.0,0.0,0.0,0.0,0.0,0.0,-2.456263436134698e-05,-7.58561690131776e-05,-9.975931910499898e-06,6.66179344435136e-05,6.769939344009046e-06,-2.8497608663968776e-06,3.6470917479380915e-06,0.0007926560721579592,-0.0005700754561962282,0.0006800228799491958,-0.00032902252470385875,0.00013226350028529803,-0.00020598048283497527,0.0011090637630122228,0.22445029020309448,19.816431045532227,0.2998931109905243,-20.106538772583008,-0.7070823311805725,-2.4566683769226074,0.22098104655742645,0
23,0.11002635955810547,-0.22445029020309448,-19.768823623657227,-0.3475005328655243,20.130342483520508,0.7134910225868225,2.4630770683288574,-0.27591270208358765,0.0,0.0,0.0,0.0,0.0,0.0,0.0,-0.2492836092767792,-0.05235943871049795,-0.1395847199121996,0.3502893046719311,0.12257369717947347,0.08751526113899621,-0.2417821128141691,1.213467344064935,-0.22017140089156434,-0.007496378314353644,-2.6039164372142585,-0.10889231612816311,2.4681853260095745,0.8264807354338934,1.2134413937687574,-0.2202432315892585,-0.0075118285948192216,-2.6038483821997875,-0.10888392708698907,2.4681821257803174,0.826474908251239,-0.0006413565608234256,-0.0002206641353088239,0.00034332704307399976,-0.00013391633804425089,-0.00028127629476032456,-0.0001632105450076291,0.0011497809651636395,0.0,0.0,0.0,0.0,0.0,0.0,0.0,-2.595029617769029e-05,-7.18306976941474e-05,-1.5450280465577164e-05,6.805501447093576e-05,8.38904117403394e-06,-3.2002292571498003e-06,-5.827182654405405e-06,0.0006413565608234256,0.0002206641353088239,-0.00034332704307399976,0.00013391633804425089,0.00028127629476032456,0.0001632105450076291,-0.0011497809651636395,0.22445029020309448,19.768823623657227,0.3475005328655243,-20.130342483520508,-0.7134910225868225,-2.4630770683288574,0.27591270208358765,0
24,0.11500740051269531,-0.22445029020309448,-19.768823623657227,-0.3475005328655243,20.130342483520508,0.7134910225868225,2.4630770683288574,-0.27591270208358765,0.0,0.0,0.0,0.0,0.0,0.0,0.0,-0.2492836092767792,-0.05235943871049795,-0.1395847199121996,0.3502893046719311,0.12257369717947347,0.08751526113899621,-0.2417821128141691,1.213467344064935,-0.22017140089156434,-0.007496378314353644,-2.6039164372142585,-0.10889231612816311,2.4681853260095745,0.8264807354338934,1.2134413937687574,-0.2202432315892585,-0.0075118285948192216,-2.6038483821997875,-0.10888392708698907,2.4681821257803174,0.826474908251239,-0.0006413565608234256,-0.0002206641353088239,0.00034332704307399976,-0.00013391633804425089,-0.00028127629476032456,-0.0001632105450076291,0.0011497809651636395,0.0,0.0,0.0,0.0,0.0,0.0,0.0,-2.595029617769029e-05,-7.18306976941474e-05,-1.5450280465577164e-05,6.805501447093576e-05,8.38904117403394e-06,-3.2002292571498003e-06,-5.827182654405405e-06,0.0006413565608234256,0.0002206641353088239,-0.00034332704307399976,0.00013391633804425089,0.00028127629476032456,0.0001632105450076291,-0.0011497809651636395,0.22445029020309448,19.768823623657227,0.3475005328655243,-20.130342483520508,-0.7134910225868225,-2.4630770683288574,0.27591270208358765,0
25,0.12002015113830566,-0.24825400114059448,-19.844202041625977,-0.3713042438030243,20.154146194458008,0.7134910225868225,2.4630770683288574,-0.22098104655742645,0.0,0.0,0.0,0.0,0.0,0.0,0.0,-0.2481300983457763,-0.05356916755751043,-0.1356978697310387,0.35411884504980645,0.12214274914196542,0.08776135069519972,-0.2420633565090572,1.213469133554389,-0.22016539923751913,-0.007496841344637558,-2.6039176519365683,-0.10889555549054687,2.468184301747166,0.8264714546363087,1.2134413937687574,-0.2202432315892585,-0.0075118285948192216,-2.6038483821997875,-0.10888392708698907,2.4681821257803174,0.826474908251239,0.0002585739502037575,0.0013829314501457469,0.000655605816424642,-0.0005491473840773862,-0.00027802609830131886,-0.00018172054748362591,-0.0009560082138247658,0.0,0.0,0.0,0.0,0.0,0.0,0.0,-2.7739785631641922e-05,-7.783235173935976e-05,-1.498725018166374e-05,6.926973678078596e-05,1.1628403557797928e-05,-2.1759668484833128e-06,3.453614930370996e-06,-0.0002585739502037575,-0.0013829314501457469,-0.000655605816424642,0.0005491473840773862,0.00027802609830131886,0.00018172054748362591,0.0009560082138247658,0.24825400114059448,19.844202041625977,0.3713042438030243,-20.154146194458008,-0.7134910225868225,-2.4630770683288574,0.22098104655742645,0
26,0.12503266334533691,-0.24825400114059448,-19.844202041625977,-0.3713042438030243,20.154146194458008,0.7134910225868225,2.4630770683288574,-0.22098104655742645,0.0,0.0,0.0,0.0,0.0,0.0,0.0,-0.2481300983457763,-0.05356916755751043,-0.1356978697310387,0.35411884504980645,0.12214274914196542,0.08776135069519972,-0.2420633565090572,1.213469133554389,-0.22016539923751913,-0.007496841344637558,-2.6039176519365683,-0.10889555549054687,2.468184301747166,0.8264714546363087,1.2134413937687574,-0.2202432315892585,-0.0075118285948192216,-2.6038483821997875,-0.10888392708698907,2.4681821257803174,0.826474908251239,0.0002585739502037575,0.0013829314501457469,0.000655605816424642,-0.0005491473840773862,-0.00027802609830131886,-0.00018172054748362591,-0.0009560082138247658,0.0,0.0,0.0,0.0,0.0,0.0,0.0,-2.7739785631641922e-05,-7.783235173935976e-05,-1.498725018166374e-05,6.926973678078596e-05,1.1628403557797928e-05,-2.1759668484833128e-06,3.453614930370996e-06,-0.0002585739502037575,-0.0013829314501457469,-0.000655605816424642,0.0005491473840773862,0.00027802609830131886,0.00018172054748362591,0.0009560082138247658,0.24825400114059448,19.844202041625977,0.3713042438030243,-20.154146194458008,-0.7134910225868225,-2.4630770683288574,0.22098104655742645,0
27,0.1300203800201416,-0.24825400114059448,-19.792627334594727,-0.3990752398967743,20.106538772583008,0.7015891671180725,2.4630770683288574,-0.20083944499492645,0.0,0.0,0.0,0.0,0.0,0.0,0.0,-0.2541019315424452,-0.05074043349393991,-0.14169533471206583,0.35348086475710466,0.122433964042717,0.08707694506340705,-0.2419024166859959,1.2134668991199382,-0.2201690185111866,-0.007494892514849897,-2.603914923612585,-0.10888992906391355,2.4681842620110106,0.826470266610438,1.2134413937687574,-0.2202432315892585,-0.0075118285948192216,-2.6038483821997875,-0.10888392708698907,2.4681821257803174,0.826474908251239,-0.0007451739344179948,-2.780952613280001e-05,0.0012362782226433978,0.00040823569673722673,0.00031724611722627576,-3.8660950045289655e-06,-0.0016257214815698147,0.0,0.0,0.0,0.0,0.0,0.0,0.0,-2.5505351180843405e-05,-7.42130780718997e-05,-1.6936079969324946e-05,6.654141279760495e-05,6.001976924477348e-06,-2.136230693228214e-06,4.641640801050784e-06,0.0007451739344179948,2.780952613280001e-05,-0.0012362782226433978,-0.00040823569673722673,-0.00031724611722627576,3.8660950045289655e-06,0.0016257214815698147,0.24825400114059448,19.792627334594727,0.3990752398967743,-20.106538772583008,-0.7015891671180725,-2.4630770683288574,0.20083944499492645,0
28,0.13501834869384766,-0.24825400114059448,-19.792627334594727,-0.3990752398967743,20.106538772583008,0.7015891671180725,2.4630770683288574,-0.20083944499492645,0.0,0.0,0.0,0.0,0.0,0.0,0.0,-0.2541019315424452,-0.05074043349393991,-0.14169533471206583,0.35348086475710466,0.122433964042717,0.08707694506340705,-0.2419024166859959,1.2134668991199382,-0.2201690185111866,-0.007494892514849897,-2.603914923612585,-0.10888992906391355,2.4681842620110106,0.826470266610438,1.2134413937687574,-0.2202432315892585,-0.0075118285948192216,-2.6038483821997875,-0.10888392708698907,2.4681821257803174,0.826474908251239,-0.0007451739344179948,-2.780952613280001e-05,0.0012362782226433978,0.00040823569673722673,0.00031724611722627576,-3.8660950045289655e-06,-0.0016257214815698147,0.0,0.0,0.0,0.0,0.0,0.0,0.0,-2.5505351180843405e-05,-7.42130780718997e-05,-1.6936079969324946e-05,6.654141279760495e-05,6.001976924477348e-06,-2.136230693228214e-06,4.641640801050784e-06,0.0007451739344179948,2.780952613280001e-05,-0.0012362782226433978,-0.00040823569673722673,-0.00031724611722627576,3.8660950045289655e-06,0.0016257214815698147,0.24825400114059448,19.792627334594727,0.3990752398967743,-20.106538772583008,-0.7015891671180725,-2.4630770683288574,0.20083944499492645,0
29,0.14002037048339844,-0.2720577120780945,-19.792627334594727,-0.3713042438030243,20.154146194458008,0.7015891671180725,2.4630770683288574,-0.24112264811992645,0.0,0.0,0.0,0.0,0.0,0.0,0.0,-0.25444970465973515,-0.05233994041523858,-0.14095735085782815,0.3554499955785359,0.12234205620020462,0.08742475231038692,-0.241122960756792,1.2134707164745782,-0.22016902241760283,-0.007496128248904964,-2.603918341017174,-0.10889312772304578,2.468185326009566,0.8264776043529167,1.2134413937687574,-0.2202432315892585,-0.0075118285948192216,-2.6038483821997875,-0.10888392708698907,2.4681821257803174,0.826474908251239,0.00019505624041130188,-0.00016646267361796447,0.0004939071115080705,-0.0007729600971870455,0.00035659514371895375,-0.0002743159173937964,0.0003171462122870665,0.0,0.0,0.0,0.0,0.0,0.0,0.0,-2.9322705820788997e-05,-7.420917165565366e-05,-1.5700345914257743e-05,6.995881738625087e-05,9.200636056708178e-06,-3.2002292487121053e-06,-2.696101677690521e-06,-0.00019505624041130188,0.00016646267361796447,-0.0004939071115080705,0.0007729600971870455,-0.00035659514371895375,0.0002743159173937964,-0.0003171462122870665,0.2720577120780945,19.792627334594727,0.3713042438030243,-20.154146194458008,-0.7015891671180725,-2.4630770683288574,0.24112264811992645,0
30,0.1450183391571045,-0.2720577120780945,-19.792627334594727,-0.3713042438030243,20.154146194458008,0.7015891671180725,2.4630770683288574,-0.24112264811992645,0.0,0.0,0.0,0.0,0.0,0.0,0.0,-0.25444970465973515,-0.05233994041523858,-0.14095735085782815,0.3554499955785359,0.12234205620020462,0.08742475231038692,-0.241122960756792,1.2134707164745782,-0.22016902241760283,-0.007496128248904964,-2.603918341017174,-0.10889312772304578,2.468185326009566,0.8264776043529167,1.2134413937687574,-0.2202432315892585,-0.0075118285948192216,-2.6038483821997875,-0.10888392708698907,2.4681821257803174,0.826474908251239,0.00019505624041130188,-0.00016646267361796447,0.0004939071115080705,-0.0007729600971870455,0.00035659514371895375,-0.0002743159173937964,0.0003171462122870665,0.0,0.0,0.0,0.0,0.0,0.0,0.0,-2.9322705820788997e-05,-7.420917165565366e-05,-1.5700345914257743e-05,6.995881738625087e-05,9.200636056708178e-06,-3.2002292487121053e-06,-2.696101677690521e-06,-0.00019505624041130188,0.00016646267361796447,-0.0004939071115080705,0.0007729600971870455,-0.00035659514371895375,0.0002743159173937964,-0.0003171462122870665,0.2720577120780945,19.792627334594727,0.3713042438030243,-20.154146194458008,-0.7015891671180725,-2.4630770683288574,0.24112264811992645,0
31,0.15001964569091797,-0.2720577120780945,-19.844202041625977,-0.3475005328655243,20.130342483520508,0.7070823311805725,2.4630770683288574,-0.21457235515117645,0.0,0.0,0.0,0.0,0.0,0.0,0.0,-0.25293317785405545,-0.05860191009963675,-0.13878631462439328,0.3574833575448391,0.12215751172606533,0.08752726082791126,-0.24106188167983292,1.213471217428564,-0.2201653993420338,-0.007498510814319902,-2.6039136859343532,-0.10889481524615872,2.468184262016792,0.8264751427832375,1.2134413937687574,-0.2202432315892585,-0.0075118285948192216,-2.6038483821997875,-0.10888392708698907,2.4681821257803174,0.826474908251239,0.00035891933906802986,0.0006875203462890624,0.00041843682768199114,-6.127081619078839e-05,0.00013377210748649054,-8.380299815954164e-05,-0.001214792173791571,0.0,0.0,0.0,0.0,0.0,0.0,0.0,-2.9823659806638148e-05,-7.783224722468507e-05,-1.3317780499319358e-05,6.53037345657026e-05,1.0888159169650247e-05,-2.136236474825637e-06,-2.345319984886629e-07,-0.00035891933906802986,-0.0006875203462890624,-0.00041843682768199114,6.127081619078839e-05,-0.00013377210748649054,8.380299815954164e-05,0.001214792173791571,0.2720577120780945,19.844202041625977,0.3475005328655243,-20.130342483520508,-0.7070823311805725,-2.4630770683288574,0.21457235515117645,0
32,0.15499472618103027,-0.2720577120780945,-19.844202041625977,-0.3475005328655243,20.130342483520508,0.7070823311805725,2.4630770683288574,-0.21457235515117645,0.0,0.0,0.0,0.0,0.0,0.0,0.0,-0.25293317785405545,-0.05860191009963675,-0.13878631462439328,0.3574833575448391,0.12215751172606533,0.08752726082791126,-0.24106188167983292,1.213471217428564,-0.2201653993420338,-0.007498510814319902,-2.6039136859343532,-0.10889481524615872,2.468184262016792,0.8264751427832375,1.2134413937687574,-0.2202432315892585,-0.0075118285948192216,-2.6038483821997875,-0.10888392708698907,2.4681821257803174,0.826474908251239,0.00035891933906802986,0.0006875203462890624,0.00041843682768199114,-6.127081619078839e-05,0.00013377210748649054,-8.380299815954164e-05,-0.001214792173791571,0.0,0.0,0.0,0.0,0.0,0.0,0.0,-2.9823659806638148e-05,-7.783224722468507e-05,-1.3317780499319358e-05,6.53037345657026e-05,1.0888159169650247e-05,-2.136236474825637e-06,-2.345319984886629e-07,-0.00035891933906802986,-0.0006875203462890624,-0.00041843682768199114,6.127081619078839e-05,-0.00013377210748649054,8.380299815954164e-05,0.001214792173791571,0.2720577120780945,19.844202041625977,0.3475005328655243,-20.130342483520508,-0.7070823311805725,-2.4630770683288574,0.21457235515117645,0
33,0.16000723838806152,-0.22445029020309448,-19.768823623657227,-0.3236968219280243,20.154146194458008,0.7134910225868225,2.4630770683288574,-0.24844686686992645,0.0,0.0,0.0,0.0,0.0,0.0,0.0,-0.25847720605693647,-0.04966041118718544,-0.14073903865405285,0.3513972408540592,0.12220145192987752,0.08626124038497153,-0.2407472174897078,1.2134673850012891,-0.22017068927257713,-0.007498051203721344,-2.603918341000757,-0.10889564605122745,2.468187441409691,0.8264755645856037,1.2134413937687574,-0.2202432315892585,-0.0075118285948192216,-2.6038483821997875,-0.10888392708698907,2.4681821257803174,0.826474908251239,-0.0008692632889717772,-0.0006034109511252226,-2.1026727315786727e-06,-0.0006992197951194907,-0.00021557840530312257,-0.00013016986899252168,0.000261011749050706,0.0,0.0,0.0,0.0,0.0,0.0,0.0,-2.59912325317746e-05,-7.254231668135658e-05,-1.3777391097877581e-05,6.995880096960505e-05,1.1718964238377483e-05,-5.3156293735590054e-06,-6.563343646348585e-07,0.0008692632889717772,0.0006034109511252226,2.1026727315786727e-06,0.0006992197951194907,0.00021557840530312257,0.00013016986899252168,-0.000261011749050706,0.22445029020309448,19.768823623657227,0.3236968219280243,-20.154146194458008,-0.7134910225868225,-2.4630770683288574,0.24844686686992645,0
34,0.16501569747924805,-0.22445029020309448,-19.768823623657227,-0.3236968219280243,20.154146194458008,0.7134910225868225,2.4630770683288574,-0.24844686686992645,0.0,0.0,0.0,0.0,0.0,0.0,0.0,-0.25847720605693647,-0.04966041118718544,-0.14073903865405285,0.3513972408540592,0.12220145192987752,0.08626124038497153,-0.2407472174897078,1.2134673850012891,-0.22017068927257713,-0.007498051203721344,-2.603918341000757,-0.10889564605122745,2.468187441409691,0.8264755645856037,1.2134413937687574,-0.2202432315892585,-0.0075118285948192216,-2.6038483821997875,-0.10888392708698907,2.4681821257803174,0.826474908251239,-0.0008692632889717772,-0.0006034109511252226,-2.1026727315786727e-06,-0.0006992197951194907,-0.00021557840530312257,-0.00013016986899252168,0.000261011749050706,0.0,0.0,0.0,0.0,0.0,0.0,0.0,-2.59912325317746e-05,-7.254231668135658e-05,-1.3777391097877581e-05,6.995880096960505e-05,1.1718964238377483e-05,-5.3156293735590054e-06,-6.563343646348585e-07,0.0008692632889717772,0.0006034109511252226,2.1026727315786727e-06,0.0006992197951194907,0.00021557840530312257,0.00013016986899252168,-0.000261011749050706,0.22445029020309448,19.768823623657227,0.3236968219280243,-20.154146194458008,-0.7134910225868225,-2.4630770683288574,0.24844686686992645,0
35,0.17001962661743164,-0.22445029020309448,-19.768823623657227,-0.3236968219280243,20.154146194458008,0.7134910225868225,2.4630770683288574,-0.24844686686992645,0.0,0.0,0.0,0.0,0.0,0.0,0.0,-0.25847720605693647,-0.04966041118718544,-0.14073903865405285,0.3513972408540592,0.12220145192987752,0.08626124038497153,-0.2407472174897078,1.2134673850012891,-0.22017068927257713,-0.007498051203721344,-2.603918341000757,-0.10889564605122745,2.468187441409691,0.8264755645856037,1.2134413937687574,-0.2202432315892585,-0.0075118285948192216,-2.6038483821997875,-0.10888392708698907,2.4681821257803174,0.826474908251239,-0.0008692632889717772,-0.0006034109511252226,-2.1026727315786727e-06,-0.0006992197951194907,-0.00021557840530312257,-0.00013016986899252168,0.000261011749050706,0.0,0.0,0.0,0.0,0.0,0.0,0.0,-2.59912325317746e-05,-7.254231668135658e-05,-1.3777391097877581e-05,6.995880096960505e-05,1.1718964238377483e-05,-5.3156293735590054e-06,-6.563343646348585e-07,0.0008692632889717772,0.0006034109511252226,2.1026727315786727e-06,0.0006992197951194907,0.00021557840530312257,0.00013016986899252168,-0.000261011749050706,0.22445029020309448,19.768823623657227,0.3236968219280243,-20.154146194458008,-0.7134910225868225,-2.4630770683288574,0.24844686686992645,0
36,0.1750199794769287,-0.22445029020309448,-19.768823623657227,-0.3236968219280243,20.154146194458008,0.7134910225868225,2.4630770683288574,-0.24844686686992645,0.0,0.0,0.0,0.0,0.0,0.0,0.0,-0.25847720605693647,-0.04966041118718544,-0.14073903865405285,0.3513972408540592,0.12220145192987752,0.08626124038497153,-0.2407472174897078,1.2134673850012891,-0.22017068927257713,-0.007498051203721344,-2.603918341000757,-0.10889564605122745,2.468187441409691,0.8264755645856037,1.2134413937687574,-0.2202432315892585,-0.0075118285948192216,-2.6038483821997875,-0.10888392708698907,2.4681821257803174,0.826474908251239,-0.0008692632889717772,-0.0006034109511252226,-2.1026727315786727e-06,-0.0006992197951194907,-0.00021557840530312257,-0.00013016986899252168,0.000261011749050706,0.0,0.0,0.0,0.0,0.0,0.0,0.0,-2.59912325317746e-05,-7.254231668135658e-05,-1.3777391097877581e-05,6.995880096960505e-05,1.1718964238377483e-05,-5.3156293735590054e-06,-6.563343646348585e-07,0.0008692632889717772,0.0006034109511252226,2.1026727315786727e-06,0.0006992197951194907,0.00021557840530312257,0.00013016986899252168,-0.000261011749050706,0.22445029020309448,19.768823623657227,0.3236968219280243,-20.154146194458008,-0.7134910225868225,-2.4630770683288574,0.24844686686992645,0
37,0.18002009391784668,-0.22445029020309448,-19.745019912719727,-0.3236968219280243,20.154146194458008,0.7134910225868225,2.4566683769226074,-0.26858848333358765,0.0,0.0,0.0,0.0,0.0,0.0,0.0,-0.2568456077105314,-0.05172184016439134,-0.13708760746955173,0.35410914346088873,0.12219596286393751,0.0873474721313264,-0.2412434484202476,1.2134681238058034,-0.2201752862653013,-0.007500182216361934,-2.603918314562991,-0.10889125571163882,2.468184987241344,0.8264778304645886,1.2134413937687574,-0.2202432315892585,-0.0075118285948192216,-2.6038483821997875,-0.10888392708698907,2.4681821257803174,0.826474908251239,-0.00033828029420631425,-0.0007854887174969418,-0.00019632152660088752,-0.0005180962466661465,-9.760516919504212e-05,-7.55407783744387e-05,0.0012205771117615762,0.0,0.0,0.0,0.0,0.0,0.0,0.0,-2.6730037046007737e-05,-6.794532395718034e-05,-1.1646378457287783e-05,6.993236320340657e-05,7.328624649749482e-06,-2.8614610267929663e-06,-2.92221334952103e-06,0.00033828029420631425,0.0007854887174969418,0.00019632152660088752,0.0005180962466661465,9.760516919504212e-05,7.55407783744387e-05,-0.0012205771117615762,0.22445029020309448,19.745019912719727,0.3236968219280243,-20.154146194458008,-0.7134910225868225,-2.4566683769226074,0.26858848333358765,0
38,0.18501520156860352,-0.22445029020309448,-19.745019912719727,-0.3236968219280243,20.154146194458008,0.7134910225868225,2.4566683769226074,-0.26858848333358765,0.0,0.0,0.0,0.0,0.0,0.0,0.0,-0.2568456077105314,-0.05172184016439134,-0.13708760746955173,0.35410914346088873,0.12219596286393751,0.0873474721313264,-0.2412434484202476,1.2134681238058034,-0.2201752862653013,-0.007500182216361934,-2.603918314562991,-0.10889125571163882,2.468184987241344,0.8264778304645886,1.2134413937687574,-0.2202432315892585,-0.0075118285948192216,-2.6038483821997875,-0.10888392708698907,2.4681821257803174,0.826474908251239,-0.00033828029420631425,-0.0007854887174969418,-0.00019632152660088752,-0.0005180962466661465,-9.760516919504212e-05,-7.55407783744387e-05,0.0012205771117615762,0.0,0.0,0.0,0.0,0.0,0.0,0.0,-2.6730037046007737e-05,-6.794532395718034e-05,-1.1646378457287783e-05,6.993236320340657e-05,7.328624649749482e-06,-2.8614610267929663e-06,-2.92221334952103e-06,0.00033828029420631425,0.0007854887174969418,0.00019632152660088752,0.0005180962466661465,9.760516919504212e-05,7.55407783744387e-05,-0.0012205771117615762,0.22445029020309448,19.745019912719727,0.3236968219280243,-20.154146194458008,-0.7134910225868225,-2.4566683769226074,0.26858848333358765,0
39,0.19001984596252441,-0.24825400114059448,-19.792627334594727,-0.2998931109905243,20.082735061645508,0.7189841866493225,2.4493441581726074,-0.24112264811992645,0.0,0.0,0.0,0.0,0.0,0.0,0.0,-0.25417444019378616,-0.05233155617724736,-0.13645712923928938,0.3537839363591074,0.12232143198041669,0.08802732308566898,-0.24142430777571391,1.2134688049110802,-0.22016904598113446,-0.007501851581812435,-2.6039133212066217,-0.10889233627554935,2.468185800971719,0.8264770182493607,1.2134413937687574,-0.2202432315892585,-0.0075118285948192216,-2.6038483821997875,-0.10888392708698907,2.4681821257803174,0.826474908251239,-0.00013878328213496975,3.0077724884622906e-06,-0.0005396188120524178,0.0007705521516232509,-0.00047109099864978544,0.00044851071598672043,-0.00013468679978408452,0.0,0.0,0.0,0.0,0.0,0.0,0.0,-2.741114232285291e-05,-7.418560812402775e-05,-9.977013006786176e-06,6.493900683413045e-05,8.40918856027939e-06,-3.6751914014310216e-06,-2.109998121668788e-06,0.00013878328213496975,-3.0077724884622906e-06,0.0005396188120524178,-0.0007705521516232509,0.00047109099864978544,-0.00044851071598672043,0.00013468679978408452,0.24825400114059448,19.792627334594727,0.2998931109905243,-20.082735061645508,-0.7189841866493225,-2.4493441581726074,0.24112264811992645,0
40,0.1950082778930664,-0.24825400114059448,-19.792627334594727,-0.2998931109905243,20.082735061645508,0.7189841866493225,2.4493441581726074,-0.24112264811992645,0.0,0.0,0.0,0.0,0.0,0.0,0.0,-0.25417444019378616,-0.05233155617724736,-0.13645712923928938,0.3537839363591074,0.12232143198041669,0.08802732308566898,-0.24142430777571391,1.2134688049110802,-0.22016904598113446,-0.007501851581812435,-2.6039133212066217,-0.10889233627554935,2.468185800971719,0.8264770182493607,1.2134413937687574,-0.2202432315892585,-0.0075118285948192216,-2.6038483821997875,-0.10888392708698907,2.4681821257803174,0.826474908251239,-0.00013878328213496975,3.0077724884622906e-06,-0.0005396188120524178,0.0007705521516232509,-0.00047109099864978544,0.00044851071598672043,-0.00013468679978408452,0.0,0.0,0.0,0.0,0.0,0.0,0.0,-2.741114232285291e-05,-7.418560812402775e-05,-9.977013006786176e-06,6.493900683413045e-05,8.40918856027939e-06,-3.6751914014310216e-06,-2.109998121668788e-06,0.00013878328213496975,-3.0077724884622906e-06,0.0005396188120524178,-0.0007705521516232509,0.00047109099864978544,-0.00044851071598672043,0.00013468679978408452,0.24825400114059448,19.792627334594727,0.2998931109905243,-20.082735061645508,-0.7189841866493225,-2.4493441581726074,0.24112264811992645,0
41,0.20001983642578125,-0.24825400114059448,-19.768823623657227,-0.3475005328655243,20.082735061645508,0.7189841866493225,2.4429354667663574,-0.26858848333358765,0.0,0.0,0.0,0.0,0.0,0.0,0.0,-0.2558512943374401,-0.04686565398134716,-0.1359885587287328,0.3508698517797032,0.12231722913693681,0.08763075744242207,-0.24211444671676247,1.213469851746999,-0.22017285114861126,-0.007498511792530257,-2.6039125644157872,-0.10889623842426542,2.4681864999665892,0.826480981289805,1.2134413937687574,-0.2202432315892585,-0.0075118285948192216,-2.6038483821997875,-0.10888392708698907,2.4681821257803174,0.826474908251239,5.939251143954477e-06,-0.00019240571398981723,0.00028697671195292347,0.001002737880608363,-0.0006324106780881214,0.000741272273784491,0.0009205364768236546,0.0,0.0,0.0,0.0,0.0,0.0,0.0,-2.8457978241691606e-05,-7.038044064722193e-05,-1.3316802288964626e-05,6.418221599968632e-05,1.2311337276346701e-05,-4.374186271860481e-06,-6.073038565923561e-06,-5.939251143954477e-06,0.00019240571398981723,-0.00028697671195292347,-0.001002737880608363,0.0006324106780881214,-0.000741272273784491,-0.0009205364768236546,0.24825400114059448,19.768823623657227,0.3475005328655243,-20.082735061645508,-0.7189841866493225,-2.4429354667663574,0.26858848333358765,0
42,0.2050178050994873,-0.24825400114059448,-19.768823623657227,-0.3475005328655243,20.082735061645508,0.7189841866493225,2.4429354667663574,-0.26858848333358765,0.0,0.0,0.0,0.0,0.0,0.0,0.0,-0.2558512943374401,-0.04686565398134716,-0.1359885587287328,0.3508698517797032,0.12231722913693681,0.08763075744242207,-0.24211444671676247,1.213469851746999,-0.22017285114861126,-0.007498511792530257,-2.6039125644157872,-0.10889623842426542,2.4681864999665892,0.826480981289805,1.2134413937687574,-0.2202432315892585,-0.0075118285948192216,-2.6038483821997875,-0.10888392708698907,2.4681821257803174,0.826474908251239,5.939251143954477e-06,-0.00019240571398981723,0.00028697671195292347,0.001002737880608363,-0.0006324106780881214,0.000741272273784491,0.0009205364768236546,0.0,0.0,0.0,0.0,0.0,0.0,0.0,-2.8457978241691606e-05,-7.038044064722193e-05,-1.3316802288964626e-05,6.418221599968632e-05,1.2311337276346701e-05,-4.374186271860481e-06,-6.073038565923561e-06,-5.939251143954477e-06,0.00019240571398981723,-0.00028697671195292347,-0.001002737880608363,0.0006324106780881214,-0.000741272273784491,-0.0009205364768236546,0.24825400114059448,19.768823623657227,0.3475005328655243,-20.082735061645508,-0.7189841866493225,-2.4429354667663574,0.26858848333358765,0
43,0.2100210189819336,-0.24825400114059448,-19.768823623657227,-0.3713042438030243,20.154146194458008,0.7189841866493225,2.4566683769226074,-0.22830526530742645,0.0,0.0,0.0,0.0,0.0,0.0,0.0,-0.25423894634303074,-0.0540108843734555,-0.1339242073202377,0.35739246623636073,0.12239774248382833,0.08813363237942703,-0.24408128105522775,1.2134696279438553,-0.22017068895924752,-0.007496815053525428,-2.6039183406983497,-0.10889541052821476,2.468184974087609,0.8264751333380733,1.2134413937687574,-0.2202432315892585,-0.0075118285948192216,-2.6038483821997875,-0.10888392708698907,2.4681821257803174,0.826474908251239,-0.00016862794099993268,-0.0006653651962699493,0.0007655265340246005,-0.00011615720828276837,-0.0004398643217492952,-0.000267597505174656,-0.0007106391517531378,0.0,0.0,0.0,0.0,0.0,0.0,0.0,-2.8234175097896497e-05,-7.254263001096883e-05,-1.5013541293793994e-05,6.995849856217262e-05,1.1483441225687563e-05,-2.848307291802854e-06,-2.2508683428235088e-07,0.00016862794099993268,0.0006653651962699493,-0.0007655265340246005,0.00011615720828276837,0.0004398643217492952,0.000267597505174656,0.0007106391517531378,0.24825400114059448,19.768823623657227,0.3713042438030243,-20.154146194458008,-0.7189841866493225,-2.4566683769226074,0.22830526530742645,0
44,0.21501421928405762,-0.24825400114059448,-19.768823623657227,-0.3713042438030243,20.154146194458008,0.7189841866493225,2.4566683769226074,-0.22830526530742645,0.0,0.0,0.0,0.0,0.0,0.0,0.0,-0.25423894634303074,-0.0540108843734555,-0.1339242073202377,0.35739246623636073,0.12239774248382833,0.08813363237942703,-0.24408128105522775,1.2134696279438553,-0.22017068895924752,-0.007496815053525428,-2.6039183406983497,-0.10889541052821476,2.468184974087609,0.8264751333380733,1.2134413937687574,-0.2202432315892585,-0.0075118285948192216,-2.6038483821997875,-0.10888392708698907,2.4681821257803174,0.826474908251239,-0.00016862794099993268,-0.0006653651962699493,0.0007655265340246005,-0.00011615720828276837,-0.0004398643217492952,-0.000267597505174656,-0.0007106391517531378,0.0,0.0,0.0,0.0,0.0,0.0,0.0,-2.8234175097896497e-05,-7.254263001096883e-05,-1.5013541293793994e-05,6.995849856217262e-05,1.1483441225687563e-05,-2.848307291802854e-06,-2.2508683428235088e-07,0.00016862794099993268,0.0006653651962699493,-0.0007655265340246005,0.00011615720828276837,0.0004398643217492952,0.000267597505174656,0.0007106391517531378,0.24825400114059448,19.768823623657227,0.3713042438030243,-20.154146194458008,-0.7189841866493225,-2.4566683769226074,0.22830526530742645,0
45,0.2200319766998291,-0.24825400114059448,-19.792627334594727,-0.2998931109905243,20.106538772583008,0.7070823311805725,2.4566683769226074,-0.20083944499492645,0.0,0.0,0.0,0.0,0.0,0.0,0.0,-0.25723059181452584,-0.05365517469882244,-0.14053907982949884,0.3537813268443711,0.12240648151653048,0.08664411122694175,-0.24492829876881753,1.2134698388634995,-0.22016901851118661,-0.007501843571649535,-2.603914999201086,-0.10889207701199186,2.468184974087609,0.8264690056986896,1.2134413937687574,-0.2202432315892585,-0.0075118285948192216,-2.6038483821997875,-0.10888392708698907,2.4681821257803174,0.826474908251239,-0.00041716569875849144,-0.0006717289079103367,-0.001693283387458367,0.000323339133069473,-6.0270371952440204e-06,0.00010023656691503745,-0.0019592563882736233,0.0,0.0,0.0,0.0,0.0,0.0,0.0,-2.8445094742091115e-05,-7.421307807187194e-05,-9.985023169686337e-06,6.661700129839687e-05,8.149925002781666e-06,-2.848307291802854e-06,5.9025525493972e-06,0.00041716569875849144,0.0006717289079103367,0.001693283387458367,-0.000323339133069473,6.0270371952440204e-06,-0.00010023656691503745,0.0019592563882736233,0.24825400114059448,19.792627334594727,0.2998931109905243,-20.106538772583008,-0.7070823311805725,-2.4566683769226074,0.20083944499492645,0
46,0.22503280639648438,-0.24825400114059448,-19.792627334594727,-0.2998931109905243,20.106538772583008,0.7070823311805725,2.4566683769226074,-0.20083944499492645,0.0,0.0,0.0,0.0,0.0,0.0,0.0,-0.25723059181452584,-0.05365517469882244,-0.14053907982949884,0.3537813268443711,0.12240648151653048,0.08664411122694175,-0.24492829876881753,1.2134698388634995,-0.22016901851118661,-0.007501843571649535,-2.603914999201086,-0.10889207701199186,2.468184974087609,0.8264690056986896,1.2134413937687574,-0.2202432315892585,-0.0075118285948192216,-2.6038483821997875,-0.10888392708698907,2.4681821257803174,0.826474908251239,-0.00041716569875849144,-0.0006717289079103367,-0.001693283387458367,0.000323339133069473,-6.0270371952440204e-06,0.00010023656691503745,-0.0019592563882736233,0.0,0.0,0.0,0.0,0.0,0.0,0.0,-2.8445094742091115e-05,-7.421307807187194e-05,-9.985023169686337e-06,6.661700129839687e-05,8.149925002781666e-06,-2.848307291802854e-06,5.9025525493972e-06,0.00041716569875849144,0.0006717289079103367,0.001693283387458367,-0.000323339133069473,6.0270371952440204e-06,-0.00010023656691503745,0.0019592563882736233,0.24825400114059448,19.792627334594727,0.2998931109905243,-20.106538772583008,-0.7070823311805725,-2.4566683769226074,0.20083944499492645,0
47,0.23002076148986816,-0.2998287081718445,-19.792627334594727,-0.3713042438030243,20.106538772583008,0.7015891671180725,2.4630770683288574,-0.24112264811992645,0.0,0.0,0.0,0.0,0.0,0.0,0.0,-0.25439053744470147,-0.05201025216308069,-0.1429625649440244,0.3513521579341101,0.12220386756958465,0.08710668935471692,-0.24436660256790857,1.213473159830798,-0.22016973154067035,-0.007496841356629777,-2.6039149743211474,-0.10889009996494493,2.4681842620107863,0.8264734556442208,1.2134413937687574,-0.2202432315892585,-0.0075118285948192216,-2.6038483821997875,-0.10888392708698907,2.4681821257803174,0.826474908251239,0.0010641186019726358,-0.00024593077613384334,0.0003547405291710265,0.00042736557402735383,0.00013759337334254398,4.125528966133068e-05,0.00016490950249783173,0.0,0.0,0.0,0.0,0.0,0.0,0.0,-3.176606204058352e-05,-7.350004858813763e-05,-1.498723818944489e-05,6.659212135984305e-05,6.172877955859524e-06,-2.136230468963163e-06,1.4526070182263595e-06,-0.0010641186019726358,0.00024593077613384334,-0.0003547405291710265,-0.00042736557402735383,-0.00013759337334254398,-4.125528966133068e-05,-0.00016490950249783173,0.2998287081718445,19.792627334594727,0.3713042438030243,-20.106538772583008,-0.7015891671180725,-2.4630770683288574,0.24112264811992645,0
48,0.23500800132751465,-0.2998287081718445,-19.792627334594727,-0.3713042438030243,20.106538772583008,0.7015891671180725,2.4630770683288574,-0.24112264811992645,0.0,0.0,0.0,0.0,0.0,0.0,0.0,-0.25439053744470147,-0.05201025216308069,-0.1429625649440244,0.3513521579341101,0.12220386756958465,0.08710668935471692,-0.24436660256790857,1.213473159830798,-0.22016973154067035,-0.007496841356629777,-2.6039149743211474,-0.10889009996494493,2.4681842620107863,0.8264734556442208,1.2134413937687574,-0.2202432315892585,-0.0075118285948192216,-2.6038483821997875,-0.10888392708698907,2.4681821257803174,0.826474908251239,0.0010641186019726358,-0.00024593077613384334,0.0003547405291710265,0.00042736557402735383,0.00013759337334254398,4.125528966133068e-05,0.00016490950249783173,0.0,0.0,0.0,0.0,0.0,0.0,0.0,-3.176606204058352e-05,-7.350004858813763e-05,-1.498723818944489e-05,6.659212135984305e-05,6.172877955859524e-06,-2.136230468963163e-06,1.4526070182263595e-06,-0.0010641186019726358,0.00024593077613384334,-0.0003547405291710265,-0.00042736557402735383,-0.00013759337334254398,-4.125528966133068e-05,-0.00016490950249783173,0.2998287081718445,19.792627334594727,0.3713042438030243,-20.106538772583008,-0.7015891671180725,-2.4630770683288574,0.24112264811992645,0
49,0.2400214672088623,-0.22445029020309448,-19.792627334594727,-0.3236968219280243,20.130342483520508,0.7015891671180725,2.4493441581726074,-0.20724813640117645,0.0,0.0,0.0,0.0,0.0,0.0,0.0,-0.2511022824735318,-0.054819655282935684,-0.14038544192417785,0.350136897468622,0.12163766430058812,0.08791251706071236,-0.24370781693972984,1.2134651200415747,-0.22016902730464827,-0.007500155816992514,-2.603913911743238,-0.10888994656494726,2.4681857878896927,0.8264741963078159,1.2134413937687574,-0.2202432315892585,-0.0075118285948192216,-2.6038483821997875,-0.10888392708698907,2.4681821257803174,0.826474908251239,-0.0007951845748726101,-0.0001598187489039492,-0.00030676641567013984,-0.00038155266362999667,0.00024023825991626607,0.0004417188193127115,-0.0013538107870854064,0.0,0.0,0.0,0.0,0.0,0.0,0.0,-2.3726272817325977e-05,-7.420428461021866e-05,-1.1672777826707455e-05,6.552954345062645e-05,6.019477958182917e-06,-3.6621093753019807e-06,7.11943423103989e-07,0.0007951845748726101,0.0001598187489039492,0.00030676641567013984,0.00038155266362999667,-0.00024023825991626607,-0.0004417188193127115,0.0013538107870854064,0.22445029020309448,19.792627334594727,0.3236968219280243,-20.130342483520508,-0.7015891671180725,-2.4493441581726074,0.20724813640117645,0
50,0.24501562118530273,-0.22445029020309448,-19.792627334594727,-0.3236968219280243,20.130342483520508,0.7015891671180725,2.4493441581726074,-0.20724813640117645,0.0,0.0,0.0,0.0,0.0,0.0,0.0,-0.2511022824735318,-0.054819655282935684,-0.14038544192417785,0.350136897468622,0.12163766430058812,0.08791251706071236,-0.24370781693972984,1.2134651200415747,-0.22016902730464827,-0.007500155816992514,-2.603913911743238,-0.10888994656494726,2.4681857878896927,0.8264741963078159,1.2134413937687574,-0.2202432315892585,-0.0075118285948192216,-2.6038483821997875,-0.10888392708698907,2.4681821257803174,0.826474908251239,-0.0007951845748726101,-0.0001598187489039492,-0.00030676641567013984,-0.00038155266362999667,0.00024023825991626607,0.0004417188193127115,-0.0013538107870854064,0.0,0.0,0.0,0.0,0.0,0.0,0.0,-2.3726272817325977e-05,-7.420428461021866e-05,-1.1672777826707455e-05,6.552954345062645e-05,6.019477958182917e-06,-3.6621093753019807e-06,7.11943423103989e-07,0.0007951845748726101,0.0001598187489039492,0.00030676641567013984,0.00038155266362999667,-0.00024023825991626607,-0.0004417188193127115,0.0013538107870854064,0.22445029020309448,19.792627334594727,0.3236968219280243,-20.130342483520508,-0.7015891671180725,-2.4493441581726074,0.20724813640117645,0
51,0.25002169609069824,-0.24825400114059448,-19.768823623657227,-0.3475005328655243,20.082735061645508,0.7134910225868225,2.4566683769226074,-0.21457235515117645,0.0,0.0,0.0,0.0,0.0,0.0,0.0,-0.25427494872857426,-0.055118740463889475,-0.14217524791924394,0.348424999548244,0.12198172900837921,0.08821787683221755,-0.242224419889539,1.213469601547329,-0.22017068894709146,-0.007498275063986179,-2.603913304184659,-0.1088923207789012,2.4681853274618244,0.8264747444586434,1.2134413937687574,-0.2202432315892585,-0.0075118285948192216,-2.6038483821997875,-0.10888392708698907,2.4681821257803174,0.826474908251239,-0.00015314003709847166,-0.0005485038764363556,0.0004859376517330963,0.0010576230995478866,-0.00014994917077133107,0.00021417160565580386,-0.0009011070688872313,0.0,0.0,0.0,0.0,0.0,0.0,0.0,-2.8207778571598396e-05,-7.254264216702278e-05,-1.3553530833042803e-05,6.492198487162426e-05,8.393691912120249e-06,-3.201681507025711e-06,1.6379259559773374e-07,0.00015314003709847166,0.0005485038764363556,-0.0004859376517330963,-0.0010576230995478866,0.00014994917077133107,-0.00021417160565580386,0.0009011070688872313,0.24825400114059448,19.768823623657227,0.3475005328655243,-20.082735061645508,-0.7134910225868225,-2.4566683769226074,0.21457235515117645,0
52,0.255033016204834,-0.24825400114059448,-19.768823623657227,-0.3475005328655243,20.082735061645508,0.7134910225868225,2.4566683769226074,-0.21457235515117645,0.0,0.0,0.0,0.0,0.0,0.0,0.0,-0.25427494872857426,-0.055118740463889475,-0.14217524791924394,0.348424999548244,0.12198172900837921,0.08821787683221755,-0.242224419889539,1.213469601547329,-0.22017068894709146,-0.007498275063986179,-2.603913304184659,-0.1088923207789012,2.4681853274618244,0.8264747444586434,1.2134413937687574,-0.2202432315892585,-0.0075118285948192216,-2.6038483821997875,-0.10888392708698907,2.4681821257803174,0.826474908251239,-0.00015314003709847166,-0.0005485038764363556,0.0004859376517330963,0.0010576230995478866,-0.00014994917077133107,0.00021417160565580386,-0.0009011070688872313,0.0,0.0,0.0,0.0,0.0,0.0,0.0,-2.8207778571598396e-05,-7.254264216702278e-05,-1.3553530833042803e-05,6.492198487162426e-05,8.393691912120249e-06,-3.201681507025711e-06,1.6379259559773374e-07,0.00015314003709847166,0.0005485038764363556,-0.0004859376517330963,-0.0010576230995478866,0.00014994917077133107,-0.00021417160565580386,0.0009011070688872313,0.24825400114059448,19.768823623657227,0.3475005328655243,-20.082735061645508,-0.7134910225868225,-2.4566683769226074,0.21457235515117645,0
53,0.26001906394958496,-0.24825400114059448,-19.768823623657227,-0.3475005328655243,20.130342483520508,0.6951804757118225,2.4566683769226074,-0.28232139348983765,0.0,0.0,0.0,0.0,0.0,0.0,0.0,-0.25766212023032636,-0.051579944752772694,-0.14506524700767737,0.3480029540387103,0.12290867210758223,0.08833146339808964,-0.2413310304890216,1.2134674041720719,-0.22017071531535176,-0.00749614450718907,-2.6039166705816066,-0.10889386957960373,2.468184987171556,0.826478274595718,1.2134413937687574,-0.2202432315892585,-0.0075118285948192216,-2.6038483821997875,-0.10888392708698907,2.4681821257803174,0.826474908251239,-0.0005348903877969324,-0.0002080888248872231,0.00011355924484155393,-4.029530878872398e-06,0.00048439967474975997,0.00016498080630039224,0.001684535711868926,0.0,0.0,0.0,0.0,0.0,0.0,0.0,-2.6010403314513653e-05,-7.251627390672533e-05,-1.5684087630151583e-05,6.828838181904828e-05,9.942492614656295e-06,-2.8613912386177276e-06,-3.366344478950012e-06,0.0005348903877969324,0.0002080888248872231,-0.00011355924484155393,4.029530878872398e-06,-0.00048439967474975997,-0.00016498080630039224,-0.001684535711868926,0.24825400114059448,19.768823623657227,0.3475005328655243,-20.130342483520508,-0.6951804757118225,-2.4566683769226074,0.28232139348983765,0
54,0.26502227783203125,-0.24825400114059448,-19.768823623657227,-0.3475005328655243,20.130342483520508,0.6951804757118225,2.4566683769226074,-0.28232139348983765,0.0,0.0,0.0,0.0,0.0,0.0,0.0,-0.25766212023032636,-0.051579944752772694,-0.14506524700767737,0.3480029540387103,0.12290867210758223,0.08833146339808964,-0.2413310304890216,1.2134674041720719,-0.22017071531535176,-0.00749614450718907,-2.6039166705816066,-0.10889386957960373,2.468184987171556,0.826478274595718,1.2134413937687574,-0.2202432315892585,-0.0075118285948192216,-2.6038483821997875,-0.10888392708698907,2.4681821257803174,0.826474908251239,-0.0005348903877969324,-0.0002080888248872231,0.00011355924484155393,-4.029530878872398e-06,0.00048439967474975997,0.00016498080630039224,0.001684535711868926,0.0,0.0,0.0,0.0,0.0,0.0,0.0,-2.6010403314513653e-05,-7.251627390672533e-05,-1.5684087630151583e-05,6.828838181904828e-05,9.942492614656295e-06,-2.8613912386177276e-06,-3.366344478950012e-06,0.0005348903877969324,0.0002080888248872231,-0.00011355924484155393,4.029530878872398e-06,-0.00048439967474975997,-0.00016498080630039224,-0.001684535711868926,0.24825400114059448,19.768823623657227,0.3475005328655243,-20.130342483520508,-0.6951804757118225,-2.4566683769226074,0.28232139348983765,0
55,0.2700202465057373,-0.22445029020309448,-19.792627334594727,-0.3475005328655243,20.082735061645508,0.7015891671180725,2.4493441581726074,-0.23471395671367645,0.0,0.0,0.0,0.0,0.0,0.0,0.0,-0.24923147216138258,-0.05163748765675909,-0.1356764961297832,0.3501715892500174,0.12279082066362249,0.08857476227609319,-0.24261134465251358,1.2134649949918925,-0.22017115434443985,-0.007498275050771877,-2.6039133297100396,-0.1088901002529669,2.4681857878897664,0.8264727478754291,1.2134413937687574,-0.2202432315892585,-0.0075118285948192216,-2.6038483821997875,-0.10888392708698907,2.4681821257803174,0.826474908251239,-8.294601993811831e-05,0.00019007248649010447,0.0007647380772778582,0.0010596208075316696,0.0002712675067207132,0.0005483882601364209,-0.0006704938696331721,0.0,0.0,0.0,0.0,0.0,0.0,0.0,-2.360122313516122e-05,-7.20772448186413e-05,-1.3553544047344851e-05,6.494751025210022e-05,6.173165977826911e-06,-3.6621094490207895e-06,2.1603758099120185e-06,8.294601993811831e-05,-0.00019007248649010447,-0.0007647380772778582,-0.0010596208075316696,-0.0002712675067207132,-0.0005483882601364209,0.0006704938696331721,0.22445029020309448,19.792627334594727,0.3475005328655243,-20.082735061645508,-0.7015891671180725,-2.4493441581726074,0.23471395671367645,0
56,0.2750129699707031,-0.22445029020309448,-19.792627334594727,-0.3475005328655243,20.082735061645508,0.7015891671180725,2.4493441581726074,-0.23471395671367645,0.0,0.0,0.0,0.0,0.0,0.0,0.0,-0.24923147216138258,-0.05163748765675909,-0.1356764961297832,0.3501715892500174,0.12279082066362249,0.08857476227609319,-0.24261134465251358,1.2134649949918925,-0.22017115434443985,-0.007498275050771877,-2.6039133297100396,-0.1088901002529669,2.4681857878897664,0.8264727478754291,1.2134413937687574,-0.2202432315892585,-0.0075118285948192216,-2.6038483821997875,-0.10888392708698907,2.4681821257803174,0.826474908251239,-8.294601993811831e-05,0.00019007248649010447,0.0007647380772778582,0.0010596208075316696,0.0002712675067207132,0.0005483882601364209,-0.0006704938696331721,0.0,0.0,0.0,0.0,0.0,0.0,0.0,-2.360122313516122e-05,-7.20772448186413e-05,-1.3553544047344851e-05,6.494751025210022e-05,6.173165977826911e-06,-3.6621094490207895e-06,2.1603758099120185e-06,8.294601993811831e-05,-0.00019007248649010447,-0.0007647380772778582,-0.0010596208075316696,-0.0002712675067207132,-0.0005483882601364209,0.0006704938696331721,0.22445029020309448,19.792627334594727,0.3475005328655243,-20.082735061645508,-0.7015891671180725,-2.4493441581726074,0.23471395671367645,0
57,0.2799675464630127,-0.2720577120780945,-19.768823623657227,-0.3475005328655243,20.154146194458008,0.7070823311805725,2.4566683769226074,-0.24112264811992645,0.0,0.0,0.0,0.0,0.0,0.0,0.0,-0.25290696621748227,-0.051721701879819476,-0.13993875541965425,0.35123135769236435,0.12294264407667721,0.08842908497264483,-0.24318573834476612,1.2134689554325335,-0.2201706889952692,-0.007498511466469637,-2.6039183325143367,-0.10889065800613629,2.468184974087609,0.8264776067682603,1.2134413937687574,-0.2202432315892585,-0.0075118285948192216,-2.6038483821997875,-0.10888392708698907,2.4681821257803174,0.826474908251239,0.00048184904501061645,-0.0008387395841873511,0.000718140124389122,-0.0007255356756694715,-5.909218737290769e-05,9.009083691786234e-05,0.00021549696477028766,0.0,0.0,0.0,0.0,0.0,0.0,0.0,-2.7561663776154433e-05,-7.25425939892832e-05,-1.331712834958497e-05,6.99503145491498e-05,6.7309191472131324e-06,-2.848307291802854e-06,-2.6985170212823206e-06,-0.00048184904501061645,0.0008387395841873511,-0.000718140124389122,0.0007255356756694715,5.909218737290769e-05,-9.009083691786234e-05,-0.00021549696477028766,0.2720577120780945,19.768823623657227,0.3475005328655243,-20.154146194458008,-0.7070823311805725,-2.4566683769226074,0.24112264811992645,0
58,0.285015344619751,-0.2720577120780945,-19.768823623657227,-0.3475005328655243,20.154146194458008,0.7070823311805725,2.4566683769226074,-0.24112264811992645,0.0,0.0,0.0,0.0,0.0,0.0,0.0,-0.25290696621748227,-0.051721701879819476,-0.13993875541965425,0.35123135769236435,0.12294264407667721,0.08842908497264483,-0.24318573834476612,1.2134689554325335,-0.2201706889952692,-0.007498511466469637,-2.6039183325143367,-0.10889065800613629,2.468184974087609,0.8264776067682603,1.2134413937687574,-0.2202432315892585,-0.0075118285948192216,-2.6038483821997875,-0.10888392708698907,2.4681821257803174,0.826474908251239,0.00048184904501061645,-0.0008387395841873511,0.000718140124389122,-0.0007255356756694715,-5.909218737290769e-05,9.009083691786234e-05,0.00021549696477028766,0.0,0.0,0.0,0.0,0.0,0.0,0.0,-2.7561663776154433e-05,-7.25425939892832e-05,-1.331712834958497e-05,6.99503145491498e-05,6.7309191472131324e-06,-2.848307291802854e-06,-2.6985170212823206e-06,-0.00048184904501061645,0.0008387395841873511,-0.000718140124389122,0.0007255356756694715,5.909218737290769e-05,-9.009083691786234e-05,-0.00021549696477028766,0.2720577120780945,19.768823623657227,0.3475005328655243,-20.154146194458008,-0.7070823311805725,-2.4566683769226074,0.24112264811992645,0
59,0.2900207042694092,-0.2720577120780945,-19.768823623657227,-0.3475005328655243,20.154146194458008,0.7070823311805725,2.4566683769226074,-0.24112264811992645,0.0,0.0,0.0,0.0,0.0,0.0,0.0,-0.25290696621748227,-0.051721701879819476,-0.13993875541965425,0.35123135769236435,0.12294264407667721,0.08842908497264483,-0.24318573834476612,1.2134689554325335,-0.2201706889952692,-0.007498511466469637,-2.6039183325143367,-0.10889065800613629,2.468184974087609,0.8264776067682603,1.2134413937687574,-0.2202432315892585,-0.0075118285948192216,-2.6038483821997875,-0.10888392708698907,2.4681821257803174,0.826474908251239,0.00048184904501061645,-0.0008387395841873511,0.000718140124389122,-0.0007255356756694715,-5.909218737290769e-05,9.009083691786234e-05,0.00021549696477028766,0.0,0.0,0.0,0.0,0.0,0.0,0.0,-2.7561663776154433e-05,-7.25425939892832e-05,-1.331712834958497e-05,6.99503145491498e-05,6.7309191472131324e-06,-2.848307291802854e-06,-2.6985170212823206e-06,-0.00048184904501061645,0.0008387395841873511,-0.000718140124389122,0.0007255356756694715,5.909218737290769e-05,-9.009083691786234e-05,-0.00021549696477028766,0.2720577120780945,19.768823623657227,0.3475005328655243,-20.154146194458008,-0.7070823311805725,-2.4566683769226074,0.24112264811992645,0
60,0.2950403690338135,-0.2720577120780945,-19.768823623657227,-0.3475005328655243,20.154146194458008,0.7070823311805725,2.4566683769226074,-0.24112264811992645,0.0,0.0,0.0,0.0,0.0,0.0,0.0,-0.25290696621748227,-0.051721701879819476,-0.13993875541965425,0.35123135769236435,0.12294264407667721,0.08842908497264483,-0.24318573834476612,1.2134689554325335,-0.2201706889952692,-0.007498511466469637,-2.6039183325143367,-0.10889065800613629,2.468184974087609,0.8264776067682603,1.2134413937687574,-0.2202432315892585,-0.0075118285948192216,-2.6038483821997875,-0.10888392708698907,2.4681821257803174,0.826474908251239,0.00048184904501061645,-0.0008387395841873511,0.000718140124389122,-0.0007255356756694715,-5.909218737290769e-05,9.009083691786234e-05,0.00021549696477028766,0.0,0.0,0.0,0.0,0.0,0.0,0.0,-2.7561663776154433e-05,-7.25425939892832e-05,-1.331712834958497e-05,6.99503145491498e-05,6.7309191472131324e-06,-2.848307291802854e-06,-2.6985170212823206e-06,-0.00048184904501061645,0.0008387395841873511,-0.000718140124389122,0.0007255356756694715,5.909218737290769e-05,-9.009083691786234e-05,-0.00021549696477028766,0.2720577120780945,19.768823623657227,0.3475005328655243,-20.154146194458008,-0.7070823311805725,-2.4566683769226074,0.24112264811992645,0
61,0.3000335693359375,-0.22445029020309448,-19.768823623657227,-0.3236968219280243,20.130342483520508,0.7134910225868225,2.4630770683288574,-0.24844686686992645,0.0,0.0,0.0,0.0,0.0,0.0,0.0,-0.2517844515389225,-0.0519452833304873,-0.13805098866716572,0.3495786861715905,0.12272997667779578,0.0877055005727601,-0.24275174303479316,1.2134658636220799,-0.22017140089141024,-0.007500179305816937,-2.6039165940522824,-0.10889236123695684,2.4681877941378843,0.8264756704766871,1.2134413937687574,-0.2202432315892585,-0.0075118285948192216,-2.6038483821997875,-0.10888392708698907,2.4681821257803174,0.826474908251239,-0.0006807293667842308,-0.0009813853568497522,-0.00031050491882923884,-0.0003138428859834519,-0.00012837852410210003,-0.00021059594809855734,0.00024382030253607544,0.0,0.0,0.0,0.0,0.0,0.0,0.0,-2.4469853322495183e-05,-7.183069784824636e-05,-1.1649289002284638e-05,6.821185249483719e-05,8.434149967762039e-06,-5.668357566879223e-06,-7.622254480921242e-07,0.0006807293667842308,0.0009813853568497522,0.00031050491882923884,0.0003138428859834519,0.00012837852410210003,0.00021059594809855734,-0.00024382030253607544,0.22445029020309448,19.768823623657227,0.3236968219280243,-20.130342483520508,-0.7134910225868225,-2.4630770683288574,0.24844686686992645,0
62,0.3050253391265869,-0.22445029020309448,-19.768823623657227,-0.3236968219280243,20.130342483520508,0.7134910225868225,2.4630770683288574,-0.24844686686992645,0.0,0.0,0.0,0.0,0.0,0.0,0.0,-0.2517844515389225,-0.0519452833304873,-0.13805098866716572,0.3495786861715905,0.12272997667779578,0.0877055005727601,-0.24275174303479316,1.2134658636220799,-0.22017140089141024,-0.007500179305816937,-2.6039165940522824,-0.10889236123695684,2.4681877941378843,0.8264756704766871,1.2134413937687574,-0.2202432315892585,-0.0075118285948192216,-2.6038483821997875,-0.10888392708698907,2.4681821257803174,0.826474908251239,-0.0006807293667842308,-0.0009813853568497522,-0.00031050491882923884,-0.0003138428859834519,-0.00012837852410210003,-0.00021059594809855734,0.00024382030253607544,0.0,0.0,0.0,0.0,0.0,0.0,0.0,-2.4469853322495183e-05,-7.183069784824636e-05,-1.1649289002284638e-05,6.821185249483719e-05,8.434149967762039e-06,-5.668357566879223e-06,-7.622254480921242e-07,0.0006807293667842308,0.0009813853568497522,0.00031050491882923884,0.0003138428859834519,0.00012837852410210003,0.00021059594809855734,-0.00024382030253607544,0.22445029020309448,19.768823623657227,0.3236968219280243,-20.130342483520508,-0.7134910225868225,-2.4630770683288574,0.24844686686992645,0
63,0.3100311756134033,-0.2720577120780945,-19.816431045532227,-0.3236968219280243,20.130342483520508,0.7134910225868225,2.4566683769226074,-0.20724813640117645,0.0,0.0,0.0,0.0,0.0,0.0,0.0,-0.25343903674731644,-0.05476548406577005,-0.1414400263282181,0.3513291155457206,0.12326896489218228,0.08756746255975173,-0.24305262075820103,1.2134685789679234,-0.22016758539413964,-0.007500182228375132,-2.603916669636511,-0.10889231786433942,2.4681849757226035,0.8264696020202437,1.2134413937687574,-0.2202432315892585,-0.0075118285948192216,-2.6038483821997875,-0.10888392708698907,2.4681821257803174,0.826474908251239,0.0006807859506318126,8.93299417878305e-05,-0.0005711137982736113,0.00020981199429506272,-0.0002601618645911932,-6.364431494769419e-05,-0.0017980816796959722,0.0,0.0,0.0,0.0,0.0,0.0,0.0,-2.718519916600215e-05,-7.564619511885029e-05,-1.1646366444089187e-05,6.828743672349091e-05,8.390777350347767e-06,-2.849942286164975e-06,5.3062309953721964e-06,-0.0006807859506318126,-8.93299417878305e-05,0.0005711137982736113,-0.00020981199429506272,0.0002601618645911932,6.364431494769419e-05,0.0017980816796959722,0.2720577120780945,19.816431045532227,0.3236968219280243,-20.130342483520508,-0.7134910225868225,-2.4566683769226074,0.20724813640117645,0
64,0.31502795219421387,-0.2720577120780945,-19.816431045532227,-0.3236968219280243,20.130342483520508,0.7134910225868225,2.4566683769226074,-0.20724813640117645,0.0,0.0,0.0,0.0,0.0,0.0,0.0,-0.25343903674731644,-0.05476548406577005,-0.1414400263282181,0.3513291155457206,0.12326896489218228,0.08756746255975173,-0.24305262075820103,1.2134685789679234,-0.22016758539413964,-0.007500182228375132,-2.603916669636511,-0.10889231786433942,2.4681849757226035,0.8264696020202437,1.2134413937687574,-0.2202432315892585,-0.0075118285948192216,-2.6038483821997875,-0.10888392708698907,2.4681821257803174,0.826474908251239,0.0006807859506318126,8.93299417878305e-05,-0.0005711137982736113,0.00020981199429506272,-0.0002601618645911932,-6.364431494769419e-05,-0.0017980816796959722,0.0,0.0,0.0,0.0,0.0,0.0,0.0,-2.718519916600215e-05,-7.564619511885029e-05,-1.1646366444089187e-05,6.828743672349091e-05,8.390777350347767e-06,-2.849942286164975e-06,5.3062309953721964e-06,-0.0006807859506318126,-8.93299417878305e-05,0.0005711137982736113,-0.00020981199429506272,0.0002601618645911932,6.364431494769419e-05,0.0017980816796959722,0.2720577120780945,19.816431045532227,0.3236968219280243,-20.130342483520508,-0.7134910225868225,-2.4566683769226074,0.20724813640117645,0
65,0.3200247287750244,-0.22445029020309448,-19.768823623657227,-0.3713042438030243,20.130342483520508,0.7015891671180725,2.4630770683288574,-0.24112264811992645,0.0,0.0,0.0,0.0,0.0,0.0,0.0,-0.25320892430712433,-0.05344627423325499,-0.14041804441017236,0.34898010687046016,0.1231510751583828,0.08716001921717612,-0.24385349397840872,1.2134652148035765,-0.2201706892739162,-0.0074968413566811045,-2.603916669531959,-0.10889347956855722,2.468184301741169,0.8264734437998247,1.2134413937687574,-0.2202432315892585,-0.0075118285948192216,-2.6038483821997875,-0.10888392708698907,2.4681821257803174,0.826474908251239,-0.0008321046107935082,-0.0006896143609002846,0.0006800274132668222,0.0003267540572979784,0.0001793566154260571,-0.00022201251068429027,0.0001723142591891624,0.0,0.0,0.0,0.0,0.0,0.0,0.0,-2.3821034819127007e-05,-7.254231534228883e-05,-1.4987238138117025e-05,6.828733217156824e-05,9.552481568142479e-06,-2.175960851502623e-06,1.4644514143569154e-06,0.0008321046107935082,0.0006896143609002846,-0.0006800274132668222,-0.0003267540572979784,-0.0001793566154260571,0.00022201251068429027,-0.0001723142591891624,0.22445029020309448,19.768823623657227,0.3713042438030243,-20.130342483520508,-0.7015891671180725,-2.4630770683288574,0.24112264811992645,0
66,0.3250234127044678,-0.22445029020309448,-19.768823623657227,-0.3713042438030243,20.130342483520508,0.7015891671180725,2.4630770683288574,-0.24112264811992645,0.0,0.0,0.0,0.0,0.0,0.0,0.0,-0.25320892430712433,-0.05344627423325499,-0.14041804441017236,0.34898010687046016,0.1231510751583828,0.08716001921717612,-0.24385349397840872,1.2134652148035765,-0.2201706892739162,-0.0074968413566811045,-2.603916669531959,-0.10889347956855722,2.468184301741169,0.8264734437998247,1.2134413937687574,-0.2202432315892585,-0.0075118285948192216,-2.6038483821997875,-0.10888392708698907,2.4681821257803174,0.826474908251239,-0.0008321046107935082,-0.0006896143609002846,0.0006800274132668222,0.0003267540572979784,0.0001793566154260571,-0.00022201251068429027,0.0001723142591891624,0.0,0.0,0.0,0.0,0.0,0.0,0.0,-2.3821034819127007e-05,-7.254231534228883e-05,-1.4987238138117025e-05,6.828733217156824e-05,9.552481568142479e-06,-2.175960851502623e-06,1.4644514143569154e-06,0.0008321046107935082,0.0006896143609002846,-0.0006800274132668222,-0.0003267540572979784,-0.0001793566154260571,0.00022201251068429027,-0.0001723142591891624,0.22445029020309448,19.768823623657227,0.3713042438030243,-20.130342483520508,-0.7015891671180725,-2.4630770683288574,0.24112264811992645,0
67,0.3300509452819824,-0.2720577120780945,-19.768823623657227,-0.3713042438030243,20.130342483520508,0.7015891671180725,2.4630770683288574,-0.27591270208358765,0.0,0.0,0.0,0.0,0.0,0.0,0.0,-0.2557755398436095,-0.048933981148966486,-0.14224320174519087,0.3455120848339566,0.12263889106330084,0.08663894653275175,-0.24392254616754427,1.2134693155858407,-0.2201707162919577,-0.007496762447214073,-2.603914524923549,-0.10889115776646004,2.468184266371661,0.8264804146834935,1.2134413937687574,-0.2202432315892585,-0.0075118285948192216,-2.6038483821997875,-0.10888392708698907,2.4681821257803174,0.826474908251239,0.00043892691215939887,-0.00010422432103138402,0.00036980042323570954,-0.00019340599536013387,0.00011702072954392434,-9.655289106943535e-05,0.001159469767099124,0.0,0.0,0.0,0.0,0.0,0.0,0.0,-2.7921817083331746e-05,-7.251529730079032e-05,-1.5066147605148801e-05,6.614272376159747e-05,7.230679470962564e-06,-2.140591343735565e-06,-5.506432254498428e-06,-0.00043892691215939887,0.00010422432103138402,-0.00036980042323570954,0.00019340599536013387,-0.00011702072954392434,9.655289106943535e-05,-0.001159469767099124,0.2720577120780945,19.768823623657227,0.3713042438030243,-20.130342483520508,-0.7015891671180725,-2.4630770683288574,0.27591270208358765,0
68,0.3350217342376709,-0.2720577120780945,-19.768823623657227,-0.3713042438030243,20.130342483520508,0.7015891671180725,2.4630770683288574,-0.27591270208358765,0.0,0.0,0.0,0.0,0.0,0.0,0.0,-0.2557755398436095,-0.048933981148966486,-0.14224320174519087,0.3455120848339566,0.12263889106330084,0.08663894653275175,-0.24392254616754427,1.2134693155858407,-0.2201707162919577,-0.007496762447214073,-2.603914524923549,-0.10889115776646004,2.468184266371661,0.8264804146834935,1.2134413937687574,-0.2202432315892585,-0.0075118285948192216,-2.6038483821997875,-0.10888392708698907,2.4681821257803174,0.826474908251239,0.00043892691215939887,-0.00010422432103138402,0.00036980042323570954,-0.00019340599536013387,0.00011702072954392434,-9.655289106943535e-05,0.001159469767099124,0.0,0.0,0.0,0.0,0.0,0.0,0.0,-2.7921817083331746e-05,-7.251529730079032e-05,-1.5066147605148801e-05,6.614272376159747e-05,7.230679470962564e-06,-2.140591343735565e-06,-5.506432254498428e-06,-0.00043892691215939887,0.00010422432103138402,-0.00036980042323570954,0.00019340599536013387,-0.00011702072954392434,9.655289106943535e-05,-0.001159469767099124,0.2720577120780945,19.768823623657227,0.3713042438030243,-20.130342483520508,-0.7015891671180725,-2.4630770683288574,0.27591270208358765,0
69,0.34002113342285156,-0.24825400114059448,-19.792627334594727,-0.3475005328655243,20.106538772583008,0.7134910225868225,2.4566683769226074,-0.20724813640117645,0.0,0.0,0.0,0.0,0.0,0.0,0.0,-0.253881678575955,-0.05503536140668305,-0.14165531259894662,0.3497803245428965,0.12249119065600055,0.08737080680208018,-0.2436576713476123,1.2134695395232429,-0.22016901851134094,-0.007498482566362391,-2.603915000133783,-0.10889243615447573,2.4681849871695856,0.8264697359179258,1.2134413937687574,-0.2202432315892585,-0.0075118285948192216,-2.6038483821997875,-0.10888392708698907,2.4681821257803174,0.826474908251239,-0.00020819616150645733,0.0002119147902890275,0.0004192840053332744,0.00026532118228781343,-0.00016026353262173202,-8.778936114696857e-06,-0.0013134915057058008,0.0,0.0,0.0,0.0,0.0,0.0,0.0,-2.8145754485509045e-05,-7.421307791755094e-05,-1.334602845683066e-05,6.661793399542759e-05,8.509067486658917e-06,-2.8613892681939035e-06,5.1723333132080995e-06,0.00020819616150645733,-0.0002119147902890275,-0.0004192840053332744,-0.00026532118228781343,0.00016026353262173202,8.778936114696857e-06,0.0013134915057058008,0.24825400114059448,19.792627334594727,0.3475005328655243,-20.106538772583008,-0.7134910225868225,-2.4566683769226074,0.20724813640117645,0
70,0.34502196311950684,-0.24825400114059448,-19.792627334594727,-0.3475005328655243,20.106538772583008,0.7134910225868225,2.4566683769226074,-0.20724813640117645,0.0,0.0,0.0,0.0,0.0,0.0,0.0,-0.253881678575955,-0.05503536140668305,-0.14165531259894662,0.3497803245428965,0.12249119065600055,0.08737080680208018,-0.2436576713476123,1.2134695395232429,-0.22016901851134094,-0.007498482566362391,-2.603915000133783,-0.10889243615447573,2.4681849871695856,0.8264697359179258,1.2134413937687574,-0.2202432315892585,-0.0075118285948192216,-2.6038483821997875,-0.10888392708698907,2.4681821257803174,0.826474908251239,-0.00020819616150645733,0.0002119147902890275,0.0004192840053332744,0.00026532118228781343,-0.00016026353262173202,-8.778936114696857e-06,-0.0013134915057058008,0.0,0.0,0.0,0.0,0.0,0.0,0.0,-2.8145754485509045e-05,-7.421307791755094e-05,-1.334602845683066e-05,6.661793399542759e-05,8.509067486658917e-06,-2.8613892681939035e-06,5.1723333132080995e-06,0.00020819616150645733,-0.0002119147902890275,-0.0004192840053332744,-0.00026532118228781343,0.00016026353262173202,8.778936114696857e-06,0.0013134915057058008,0.24825400114059448,19.792627334594727,0.3475005328655243,-20.106538772583008,-0.7134910225868225,-2.4566683769226074,0.20724813640117645,0
71,0.35001587867736816,-0.2720577120780945,-19.768823623657227,-0.3475005328655243,20.130342483520508,0.7015891671180725,2.4429354667663574,-0.22830526530742645,0.0,0.0,0.0,0.0,0.0,0.0,0.0,-0.25516544756411763,-0.051326558239787955,-0.1444756298491222,0.3493503430386594,0.12335238441394963,0.08699208145071587,-0.24308988520210967,1.2134689647191783,-0.22017068894704184,-0.007498265971521413,-2.6039166705817505,-0.10889347773024838,2.4681896788809774,0.8264755566730351,1.2134413937687574,-0.2202432315892585,-0.0075118285948192216,-2.6038483821997875,-0.10888392708698907,2.4681821257803174,0.826474908251239,0.0003631997902391682,-0.00037186037462762065,0.00031418732394469253,-0.00041691078223387977,0.00048114966242744417,0.000570533764584366,-0.0002490850363350265,0.0,0.0,0.0,0.0,0.0,0.0,0.0,-2.7570950420940932e-05,-7.254264221664974e-05,-1.3562623297808281e-05,6.828838196293319e-05,9.550643259303992e-06,-7.553100660029344e-06,-6.484217960345262e-07,-0.0003631997902391682,0.00037186037462762065,-0.00031418732394469253,0.00041691078223387977,-0.00048114966242744417,-0.000570533764584366,0.0002490850363350265,0.2720577120780945,19.768823623657227,0.3475005328655243,-20.130342483520508,-0.7015891671180725,-2.4429354667663574,0.22830526530742645,0
72,0.35502147674560547,-0.2720577120780945,-19.768823623657227,-0.3475005328655243,20.130342483520508,0.7015891671180725,2.4429354667663574,-0.22830526530742645,0.0,0.0,0.0,0.0,0.0,0.0,0.0,-0.25516544756411763,-0.051326558239787955,-0.1444756298491222,0.3493503430386594,0.12335238441394963,0.08699208145071587,-0.24308988520210967,1.2134689647191783,-0.22017068894704184,-0.007498265971521413,-2.6039166705817505,-0.10889347773024838,2.4681896788809774,0.8264755566730351,1.2134413937687574,-0.2202432315892585,-0.0075118285948192216,-2.6038483821997875,-0.10888392708698907,2.4681821257803174,0.826474908251239,0.0003631997902391682,-0.00037186037462762065,0.00031418732394469253,-0.00041691078223387977,0.00048114966242744417,0.000570533764584366,-0.0002490850363350265,0.0,0.0,0.0,0.0,0.0,0.0,0.0,-2.7570950420940932e-05,-7.254264221664974e-05,-1.3562623297808281e-05,6.828838196293319e-05,9.550643259303992e-06,-7.553100660029344e-06,-6.484217960345262e-07,-0.0003631997902391682,0.00037186037462762065,-0.00031418732394469253,0.00041691078223387977,-0.00048114966242744417,-0.000570533764584366,0.0002490850363350265,0.2720577120780945,19.768823623657227,0.3475005328655243,-20.130342483520508,-0.7015891671180725,-2.4429354667663574,0.22830526530742645,0
73,0.36002063751220703,-0.24825400114059448,-19.792627334594727,-0.2998931109905243,20.154146194458008,0.7070823311805725,2.4566683769226074,-0.25485557317733765,0.0,0.0,0.0,0.0,0.0,0.0,0.0,-0.2515052283016841,-0.049111606000114084,-0.1405607955593824,0.3487538563230585,0.12359645239182099,0.08652541045948335,-0.2416743353184766,1.2134696202125628,-0.22016901851118656,-0.007501615931682797,-2.6039183410176054,-0.10889090778747244,2.4681885106291928,0.8264753366827564,1.2134413937687574,-0.2202432315892585,-0.0075118285948192216,-2.6038483821997875,-0.10888392708698907,2.4681821257803174,0.826474908251239,0.00041076010137055505,0.00029825195301225746,-0.0009036178155288355,-0.0008159551706425281,2.5514283474717946e-05,0.0001199606291082938,0.0009204851840017097,0.0,0.0,0.0,0.0,0.0,0.0,0.0,-2.8226443805401402e-05,-7.421307807192745e-05,-1.021266313642414e-05,6.995881781790558e-05,6.980700483369406e-06,-6.384848875384819e-06,-4.284315173741504e-07,-0.00041076010137055505,-0.00029825195301225746,0.0009036178155288355,0.0008159551706425281,-2.5514283474717946e-05,-0.0001199606291082938,-0.0009204851840017097,0.24825400114059448,19.792627334594727,0.2998931109905243,-20.154146194458008,-0.7070823311805725,-2.4566683769226074,0.25485557317733765,0
74,0.3650205135345459,-0.24825400114059448,-19.792627334594727,-0.2998931109905243,20.154146194458008,0.7070823311805725,2.4566683769226074,-0.25485557317733765,0.0,0.0,0.0,0.0,0.0,0.0,0.0,-0.2515052283016841,-0.049111606000114084,-0.1405607955593824,0.3487538563230585,0.12359645239182099,0.08652541045948335,-0.2416743353184766,1.2134696202125628,-0.22016901851118656,-0.007501615931682797,-2.6039183410176054,-0.10889090778747244,2.4681885106291928,0.8264753366827564,1.2134413937687574,-0.2202432315892585,-0.0075118285948192216,-2.6038483821997875,-0.10888392708698907,2.4681821257803174,0.826474908251239,0.00041076010137055505,0.00029825195301225746,-0.0009036178155288355,-0.0008159551706425281,2.5514283474717946e-05,0.0001199606291082938,0.0009204851840017097,0.0,0.0,0.0,0.0,0.0,0.0,0.0,-2.8226443805401402e-05,-7.421307807192745e-05,-1.021266313642414e-05,6.995881781790558e-05,6.980700483369406e-06,-6.384848875384819e-06,-4.284315173741504e-07,-0.00041076010137055505,-0.00029825195301225746,0.0009036178155288355,0.0008159551706425281,-2.5514283474717946e-05,-0.0001199606291082938,-0.0009204851840017097,0.24825400114059448,19.792627334594727,0.2998931109905243,-20.154146194458008,-0.7070823311805725,-2.4566683769226074,0.25485557317733765,0
75,0.370009183883667,-0.24825400114059448,-19.792627334594727,-0.3475005328655243,20.130342483520508,0.7134910225868225,2.4566683769226074,-0.20083944499492645,0.0,0.0,0.0,0.0,0.0,0.0,0.0,-0.254519287758767,-0.05041950325796098,-0.1429858880132399,0.3462029384427476,0.12354229209855898,0.08575007329131917,-0.24024697292355096,1.2134698663742167,-0.22016901851118656,-0.007498485488935236,-2.603916669636943,-0.10889480442555498,2.4681849740942634,0.8264699133427306,1.2134413937687574,-0.2202432315892585,-0.0075118285948192216,-2.6038483821997875,-0.10888392708698907,2.4681821257803174,0.826474908251239,-0.00012566527803548703,-0.0002375855148594773,0.0002836073122539309,-0.000525771923156379,-0.00014453647300960982,5.567281734228743e-05,-0.0016038309154004552,0.0,0.0,0.0,0.0,0.0,0.0,0.0,-2.847260545935093e-05,-7.421307807192745e-05,-1.3343105883985469e-05,6.828743715558971e-05,1.0877338565903893e-05,-2.8483139460355744e-06,4.994908508471063e-06,0.00012566527803548703,0.0002375855148594773,-0.0002836073122539309,0.000525771923156379,0.00014453647300960982,-5.567281734228743e-05,0.0016038309154004552,0.24825400114059448,19.792627334594727,0.3475005328655243,-20.130342483520508,-0.7134910225868225,-2.4566683769226074,0.20083944499492645,0
76,0.37502050399780273,-0.24825400114059448,-19.792627334594727,-0.3475005328655243,20.130342483520508,0.7134910225868225,2.4566683769226074,-0.20083944499492645,0.0,0.0,0.0,0.0,0.0,0.0,0.0,-0.254519287758767,-0.05041950325796098,-0.1429858880132399,0.3462029384427476,0.12354229209855898,0.08575007329131917,-0.24024697292355096,1.2134698663742167,-0.22016901851118656,-0.007498485488935236,-2.603916669636943,-0.10889480442555498,2.4681849740942634,0.8264699133427306,1.2134413937687574,-0.2202432315892585,-0.0075118285948192216,-2.6038483821997875,-0.10888392708698907,2.4681821257803174,0.826474908251239,-0.00012566527803548703,-0.0002375855148594773,0.0002836073122539309,-0.000525771923156379,-0.00014453647300960982,5.567281734228743e-05,-0.0016038309154004552,0.0,0.0,0.0,0.0,0.0,0.0,0.0,-2.847260545935093e-05,-7.421307807192745e-05,-1.3343105883985469e-05,6.828743715558971e-05,1.0877338565903893e-05,-2.8483139460355744e-06,4.994908508471063e-06,0.00012566527803548703,0.0002375855148594773,-0.0002836073122539309,0.000525771923156379,0.00014453647300960982,-5.567281734228743e-05,0.0016038309154004552,0.24825400114059448,19.792627334594727,0.3475005328655243,-20.130342483520508,-0.7134910225868225,-2.4566683769226074,0.20083944499492645,0
77,0.38001036643981934,-0.24825400114059448,-19.792627334594727,-0.2721221148967743,20.154146194458008,0.7134910225868225,2.4630770683288574,-0.24844686686992645,0.0,0.0,0.0,0.0,0.0,0.0,0.0,-0.24926595138428811,-0.05093666575120047,-0.13498844366251903,0.34578862639393637,0.12309221476671639,0.08580626224778413,-0.24048905322548406,1.2134698671283226,-0.22016901851118656,-0.007503801505929549,-2.6039183410176,-0.10889137469949073,2.4681842620107863,0.8264783921506069,1.2134413937687574,-0.2202432315892585,-0.0075118285948192216,-2.6038483821997875,-0.10888392708698907,2.4681821257803174,0.826474908251239,-0.00022688768356897378,-0.00044522877849880745,-0.0009963923959561533,-0.0010257358083162306,-0.0002892416568384633,-0.00011776335807108453,0.00015952345671391957,0.0,0.0,0.0,0.0,0.0,0.0,0.0,-2.8473359565239775e-05,-7.421307807192745e-05,-8.027088889672393e-06,6.995881781257651e-05,7.447612501654266e-06,-2.136230468963163e-06,-3.483899367884291e-06,0.00022688768356897378,0.00044522877849880745,0.0009963923959561533,0.0010257358083162306,0.0002892416568384633,0.00011776335807108453,-0.00015952345671391957,0.24825400114059448,19.792627334594727,0.2721221148967743,-20.154146194458008,-0.7134910225868225,-2.4630770683288574,0.24844686686992645,0
78,0.3850119113922119,-0.24825400114059448,-19.792627334594727,-0.2721221148967743,20.154146194458008,0.7134910225868225,2.4630770683288574,-0.24844686686992645,0.0,0.0,0.0,0.0,0.0,0.0,0.0,-0.24926595138428811,-0.05093666575120047,-0.13498844366251903,0.34578862639393637,0.12309221476671639,0.08580626224778413,-0.24048905322548406,1.2134698671283226,-0.22016901851118656,-0.007503801505929549,-2.6039183410176,-0.10889137469949073,2.4681842620107863,0.8264783921506069,1.2134413937687574,-0.2202432315892585,-0.0075118285948192216,-2.6038483821997875,-0.10888392708698907,2.4681821257803174,0.826474908251239,-0.00022688768356897378,-0.00044522877849880745,-0.0009963923959561533,-0.0010257358083162306,-0.0002892416568384633,-0.00011776335807108453,0.00015952345671391957,0.0,0.0,0.0,0.0,0.0,0.0,0.0,-2.8473359565239775e-05,-7.421307807192745e-05,-8.027088889672393e-06,6.995881781257651e-05,7.447612501654266e-06,-2.136230468963163e-06,-3.483899367884291e-06,0.00022688768356897378,0.00044522877849880745,0.0009963923959561533,0.0010257358083162306,0.0002892416568384633,0.00011776335807108453,-0.00015952345671391957,0.24825400114059448,19.792627334594727,0.2721221148967743,-20.154146194458008,-0.7134910225868225,-2.4630770683288574,0.24844686686992645,0
79,0.39002227783203125,-0.24825400114059448,-19.844202041625977,-0.3475005328655243,20.082735061645508,0.7015891671180725,2.4566683769226074,-0.27591270208358765,0.0,0.0,0.0,0.0,0.0,0.0,0.0,-0.25543575982299516,-0.05077212082247254,-0.13688427815343654,0.3492999641801902,0.1233328257468817,0.08601084485245863,-0.241442192109112,1.2134668262419934,-0.22016540802293683,-0.007498510493615098,-2.6039133292901253,-0.10889140535990195,2.468184974087609,0.8264771916475859,1.2134413937687574,-0.2202432315892585,-0.0075118285948192216,-2.6038483821997875,-0.10888392708698907,2.4681821257803174,0.826474908251239,0.0002590594220814275,0.0015242727165371368,1.5474658982361878e-05,0.0013997991630729514,4.338559432822171e-05,0.00013974761418549756,0.0017569460591772715,0.0,0.0,0.0,0.0,0.0,0.0,0.0,-2.5432473236053355e-05,-7.782356632166088e-05,-1.3318101204123217e-05,6.494709033777468e-05,7.478272912878059e-06,-2.848307291802854e-06,-2.283396346891564e-06,-0.0002590594220814275,-0.0015242727165371368,-1.5474658982361878e-05,-0.0013997991630729514,-4.338559432822171e-05,-0.00013974761418549756,-0.0017569460591772715,0.24825400114059448,19.844202041625977,0.3475005328655243,-20.082735061645508,-0.7015891671180725,-2.4566683769226074,0.27591270208358765,0
