rezayati/contactInterpretation/dataset/franka_main/labeled_data/link5/c3_6.csv
index,time,tau_J0,tau_J1,tau_J2,tau_J3,tau_J4,tau_J5,tau_J6,tau_J_d0,tau_J_d1,tau_J_d2,tau_J_d3,tau_J_d4,tau_J_d5,tau_J_d6,tau_ext0,tau_ext1,tau_ext2,tau_ext3,tau_ext4,tau_ext5,tau_ext6,q0,q1,q2,q3,q4,q5,q6,q_d0,q_d1,q_d2,q_d3,q_d4,q_d5,q_d6,dq0,dq1,dq2,dq3,dq4,dq5,dq6,dq_d0,dq_d1,dq_d2,dq_d3,dq_d4,dq_d5,dq_d6,e0,e1,e2,e3,e4,e5,e6,de0,de1,de2,de3,de4,de5,de6,etau_J0,etau_J1,etau_J2,etau_J3,etau_J4,etau_J5,etau_J6,label
1,0.0,0.10880166292190552,-18.106531143188477,1.1441986560821533,18.198274612426758,0.8563132882118225,2.2488436698913574,-0.20083944499492645,0.0,0.0,0.0,0.0,0.0,0.0,0.0,0.11240581483037083,0.55709442081871,0.2963977110876972,0.5842639020658899,0.4378668934400011,0.06403344011634218,-0.19618862237885235,-0.6093464551850368,-0.05750001164538818,-0.6666269375863524,-2.5947360422904033,-0.05571102132800244,2.5079574496481154,0.8763184780991738,-0.6090851748156966,-0.05753196718556838,-0.666603097082616,-2.5945565370258534,-0.05562143941554,2.507976027223799,0.8763108487046415,0.0003490597807997235,-0.000985631057566312,1.0182692075500495e-05,0.0005595456112986238,0.00021600443486113812,-2.0448475986844667e-05,-0.000284923665724648,0.0,0.0,0.0,0.0,0.0,0.0,0.0,0.00026128036934025545,-3.19555401802063e-05,2.3840503736383134e-05,0.00017950526454990623,8.958191246243724e-05,1.8577575683575986e-05,-7.629394532360223e-06,-0.0003490597807997235,0.000985631057566312,-1.0182692075500495e-05,-0.0005595456112986238,-0.00021600443486113812,2.0448475986844667e-05,0.000284923665724648,-0.10880166292190552,18.106531143188477,-1.1441986560821533,-18.198274612426758,-0.8563132882118225,-2.2488436698913574,0.20083944499492645,0
2,0.0049936771392822266,0.16037636995315552,-18.130334854125977,1.1164276599884033,18.198274612426758,0.8618064522743225,2.2424349784851074,-0.17978231608867645,0.0,0.0,0.0,0.0,0.0,0.0,0.0,0.11450628234215852,0.5543546925745836,0.3009226707252955,0.5822926428383752,0.4376707298041321,0.06491742371456868,-0.1963303966541236,-0.6093500744627232,-0.05749834120953291,-0.6666271461219748,-2.594733817062893,-0.05571209219616162,2.5079581617249382,0.8763161384181842,-0.6090851748156966,-0.05753196718556838,-0.666603097082616,-2.5945565370258534,-0.05562143941554,2.507976027223799,0.8763108487046415,-0.001056914339595311,0.0005329227528736853,0.00029432937877290976,0.00038515146240975564,-1.9457191336316108e-05,0.0003317472929237546,-0.0004705346841003865,0.0,0.0,0.0,0.0,0.0,0.0,0.0,0.0002648996470265841,-3.362597603547013e-05,2.4049039358819968e-05,0.000177280037039651,9.065278062161952e-05,1.7865498860736295e-05,-5.289713542744323e-06,0.001056914339595311,-0.0005329227528736853,-0.00029432937877290976,-0.00038515146240975564,1.9457191336316108e-05,-0.0003317472929237546,0.0004705346841003865,-0.16037636995315552,18.130334854125977,-1.1164276599884033,-18.198274612426758,-0.8618064522743225,-2.2424349784851074,0.17978231608867645,0
3,0.009997129440307617,0.16037636995315552,-18.130334854125977,1.1164276599884033,18.198274612426758,0.8618064522743225,2.2424349784851074,-0.17978231608867645,0.0,0.0,0.0,0.0,0.0,0.0,0.0,0.11450628234215852,0.5543546925745836,0.3009226707252955,0.5822926428383752,0.4376707298041321,0.06491742371456868,-0.1963303966541236,-0.6093500744627232,-0.05749834120953291,-0.6666271461219748,-2.594733817062893,-0.05571209219616162,2.5079581617249382,0.8763161384181842,-0.6090851748156966,-0.05753196718556838,-0.666603097082616,-2.5945565370258534,-0.05562143941554,2.507976027223799,0.8763108487046415,-0.001056914339595311,0.0005329227528736853,0.00029432937877290976,0.00038515146240975564,-1.9457191336316108e-05,0.0003317472929237546,-0.0004705346841003865,0.0,0.0,0.0,0.0,0.0,0.0,0.0,0.0002648996470265841,-3.362597603547013e-05,2.4049039358819968e-05,0.000177280037039651,9.065278062161952e-05,1.7865498860736295e-05,-5.289713542744323e-06,0.001056914339595311,-0.0005329227528736853,-0.00029432937877290976,-0.00038515146240975564,1.9457191336316108e-05,-0.0003317472929237546,0.0004705346841003865,-0.16037636995315552,18.130334854125977,-1.1164276599884033,-18.198274612426758,-0.8618064522743225,-2.2424349784851074,0.17978231608867645,0
4,0.015006780624389648,0.08103066682815552,-18.078760147094727,1.0926239490509033,18.146699905395508,0.8618064522743225,2.2424349784851074,-0.20083944499492645,0.0,0.0,0.0,0.0,0.0,0.0,0.0,0.11424900332026337,0.5501868221156111,0.2998967164273327,0.581607473097151,0.43787761922683216,0.06558874584241525,-0.19639752297703392,-0.6093445063432057,-0.05750196048721932,-0.666626182487105,-2.594730197772645,-0.055707474474455766,2.5079581617249382,0.8763152991847858,-0.6090851748156966,-0.05753196718556838,-0.666603097082616,-2.5945565370258534,-0.05562143941554,2.507976027223799,0.8763108487046415,0.0008845714518539786,-0.0005268173573098684,0.00038946242904512,0.0014894967824175202,-5.912150890069703e-05,-5.683506061572725e-05,-0.0005768698699353861,0.0,0.0,0.0,0.0,0.0,0.0,0.0,0.00025933152750912125,-3.0006698349065164e-05,2.3085404489031625e-05,0.00017366074679170396,8.60350589157663e-05,1.7865498860736295e-05,-4.450480144302382e-06,-0.0008845714518539786,0.0005268173573098684,-0.00038946242904512,-0.0014894967824175202,5.912150890069703e-05,5.683506061572725e-05,0.0005768698699353861,-0.08103066682815552,18.078760147094727,-1.0926239490509033,-18.146699905395508,-0.8618064522743225,-2.2424349784851074,0.20083944499492645,0
5,0.02000880241394043,0.08103066682815552,-18.078760147094727,1.0926239490509033,18.146699905395508,0.8618064522743225,2.2424349784851074,-0.20083944499492645,0.0,0.0,0.0,0.0,0.0,0.0,0.0,0.11424900332026337,0.5501868221156111,0.2998967164273327,0.581607473097151,0.43787761922683216,0.06558874584241525,-0.19639752297703392,-0.6093445063432057,-0.05750196048721932,-0.666626182487105,-2.594730197772645,-0.055707474474455766,2.5079581617249382,0.8763152991847858,-0.6090851748156966,-0.05753196718556838,-0.666603097082616,-2.5945565370258534,-0.05562143941554,2.507976027223799,0.8763108487046415,0.0008845714518539786,-0.0005268173573098684,0.00038946242904512,0.0014894967824175202,-5.912150890069703e-05,-5.683506061572725e-05,-0.0005768698699353861,0.0,0.0,0.0,0.0,0.0,0.0,0.0,0.00025933152750912125,-3.0006698349065164e-05,2.3085404489031625e-05,0.00017366074679170396,8.60350589157663e-05,1.7865498860736295e-05,-4.450480144302382e-06,-0.0008845714518539786,0.0005268173573098684,-0.00038946242904512,-0.0014894967824175202,5.912150890069703e-05,5.683506061572725e-05,0.0005768698699353861,-0.08103066682815552,18.078760147094727,-1.0926239490509033,-18.146699905395508,-0.8618064522743225,-2.2424349784851074,0.20083944499492645,0
6,0.025004148483276367,0.08103066682815552,-18.078760147094727,1.1164276599884033,18.222078323364258,0.8563132882118225,2.2360262870788574,-0.16604940593242645,0.0,0.0,0.0,0.0,0.0,0.0,0.0,0.11093096813612163,0.5532943373531117,0.29307594722957103,0.5801998961539686,0.4381448558276803,0.06426346674757236,-0.1970899512349657,-0.6093445063432057,-0.05750196048721932,-0.6666279321454387,-2.594735487486187,-0.055711176064229685,2.507958873801761,0.876314612521333,-0.6090851748156966,-0.05753196718556838,-0.666603097082616,-2.5945565370258534,-0.05562143941554,2.507976027223799,0.8763108487046415,0.00034021590364135596,9.863525016388663e-05,-0.0006466059618022399,-0.000753062048493434,0.0003171479973422527,0.0004674443935158409,-0.0008867738513372872,0.0,0.0,0.0,0.0,0.0,0.0,0.0,0.00025933152750912125,-3.0006698349065164e-05,2.4835062822692322e-05,0.0001789504603335601,8.973664868968528e-05,1.7153422037896604e-05,-3.7638166915376914e-06,-0.00034021590364135596,-9.863525016388663e-05,0.0006466059618022399,0.000753062048493434,-0.0003171479973422527,-0.0004674443935158409,0.0008867738513372872,-0.08103066682815552,18.078760147094727,-1.1164276599884033,-18.222078323364258,-0.8563132882118225,-2.2360262870788574,0.16604940593242645,0
7,0.029948949813842773,0.08103066682815552,-18.078760147094727,1.1164276599884033,18.222078323364258,0.8563132882118225,2.2360262870788574,-0.16604940593242645,0.0,0.0,0.0,0.0,0.0,0.0,0.0,0.11093096813612163,0.5532943373531117,0.29307594722957103,0.5801998961539686,0.4381448558276803,0.06426346674757236,-0.1970899512349657,-0.6093445063432057,-0.05750196048721932,-0.6666279321454387,-2.594735487486187,-0.055711176064229685,2.507958873801761,0.876314612521333,-0.6090851748156966,-0.05753196718556838,-0.666603097082616,-2.5945565370258534,-0.05562143941554,2.507976027223799,0.8763108487046415,0.00034021590364135596,9.863525016388663e-05,-0.0006466059618022399,-0.000753062048493434,0.0003171479973422527,0.0004674443935158409,-0.0008867738513372872,0.0,0.0,0.0,0.0,0.0,0.0,0.0,0.00025933152750912125,-3.0006698349065164e-05,2.4835062822692322e-05,0.0001789504603335601,8.973664868968528e-05,1.7153422037896604e-05,-3.7638166915376914e-06,-0.00034021590364135596,-9.863525016388663e-05,0.0006466059618022399,0.000753062048493434,-0.0003171479973422527,-0.0004674443935158409,0.0008867738513372872,-0.08103066682815552,18.078760147094727,-1.1164276599884033,-18.222078323364258,-0.8563132882118225,-2.2360262870788574,0.16604940593242645,0
8,0.03499770164489746,0.10880166292190552,-18.078760147094727,1.0688202381134033,18.222078323364258,0.8618064522743225,2.2424349784851074,-0.24112264811992645,0.0,0.0,0.0,0.0,0.0,0.0,0.0,0.10645568563190022,0.5538891004636967,0.28905562772974536,0.583850493733484,0.438386882985753,0.06446969115234592,-0.19711191985743928,-0.6093464551850368,-0.05750196048721932,-0.6666223633450357,-2.594735487486187,-0.055711080164947496,2.5079581617249382,0.8763229540106322,-0.6090851748156966,-0.05753196718556838,-0.666603097082616,-2.5945565370258534,-0.05562143941554,2.507976027223799,0.8763108487046415,-0.0007875310656521009,-0.0004121474983491997,0.00010688591190866738,-0.0001241251951415242,-0.00016131032189565346,0.00012264254396127477,0.0011321233476462038,0.0,0.0,0.0,0.0,0.0,0.0,0.0,0.00026128036934025545,-3.0006698349065164e-05,1.926626241965934e-05,0.0001789504603335601,8.964074940749633e-05,1.7865498860736295e-05,-1.2105305990717241e-05,0.0007875310656521009,0.0004121474983491997,-0.00010688591190866738,0.0001241251951415242,0.00016131032189565346,-0.00012264254396127477,-0.0011321233476462038,-0.10880166292190552,18.078760147094727,-1.0688202381134033,-18.222078323364258,-0.8618064522743225,-2.2424349784851074,0.24112264811992645,0
9,0.040001869201660156,0.10880166292190552,-18.078760147094727,1.0688202381134033,18.222078323364258,0.8618064522743225,2.2424349784851074,-0.24112264811992645,0.0,0.0,0.0,0.0,0.0,0.0,0.0,0.10645568563190022,0.5538891004636967,0.28905562772974536,0.583850493733484,0.438386882985753,0.06446969115234592,-0.19711191985743928,-0.6093464551850368,-0.05750196048721932,-0.6666223633450357,-2.594735487486187,-0.055711080164947496,2.5079581617249382,0.8763229540106322,-0.6090851748156966,-0.05753196718556838,-0.666603097082616,-2.5945565370258534,-0.05562143941554,2.507976027223799,0.8763108487046415,-0.0007875310656521009,-0.0004121474983491997,0.00010688591190866738,-0.0001241251951415242,-0.00016131032189565346,0.00012264254396127477,0.0011321233476462038,0.0,0.0,0.0,0.0,0.0,0.0,0.0,0.00026128036934025545,-3.0006698349065164e-05,1.926626241965934e-05,0.0001789504603335601,8.964074940749633e-05,1.7865498860736295e-05,-1.2105305990717241e-05,0.0007875310656521009,0.0004121474983491997,-0.00010688591190866738,0.0001241251951415242,0.00016131032189565346,-0.00012264254396127477,-0.0011321233476462038,-0.10880166292190552,18.078760147094727,-1.0688202381134033,-18.222078323364258,-0.8618064522743225,-2.2424349784851074,0.24112264811992645,0
10,0.04503369331359863,0.10880166292190552,-18.130334854125977,1.0926239490509033,18.122896194458008,0.8563132882118225,2.2488436698913574,-0.15964071452617645,0.0,0.0,0.0,0.0,0.0,0.0,0.0,0.10648477073570294,0.5573300357046077,0.28794311591896454,0.5854074670591664,0.438098372808921,0.06417176631610805,-0.19860890137970744,-0.6093464551850368,-0.05749834120953291,-0.6666240435434397,-2.594728530389245,-0.05570726366188831,2.5079574496481154,0.876313900462455,-0.6090851748156966,-0.05753196718556838,-0.666603097082616,-2.5945565370258534,-0.05562143941554,2.507976027223799,0.8763108487046415,-0.0008816860433375174,0.000619433023243416,0.00012211451267143887,0.002340293571840953,0.00013488968923247943,4.135186383762396e-06,-0.0008238383109917171,0.0,0.0,0.0,0.0,0.0,0.0,0.0,0.00026128036934025545,-3.362597603547013e-05,2.0946460823734192e-05,0.00017199336339146498,8.582424634830804e-05,1.8577575683575986e-05,-3.051757813565814e-06,0.0008816860433375174,-0.000619433023243416,-0.00012211451267143887,-0.002340293571840953,-0.00013488968923247943,-4.135186383762396e-06,0.0008238383109917171,-0.10880166292190552,18.130334854125977,-1.0926239490509033,-18.122896194458008,-0.8563132882118225,-2.2488436698913574,0.15964071452617645,0
11,0.049996137619018555,0.10880166292190552,-18.130334854125977,1.0926239490509033,18.122896194458008,0.8563132882118225,2.2488436698913574,-0.15964071452617645,0.0,0.0,0.0,0.0,0.0,0.0,0.0,0.10648477073570294,0.5573300357046077,0.28794311591896454,0.5854074670591664,0.438098372808921,0.06417176631610805,-0.19860890137970744,-0.6093464551850368,-0.05749834120953291,-0.6666240435434397,-2.594728530389245,-0.05570726366188831,2.5079574496481154,0.876313900462455,-0.6090851748156966,-0.05753196718556838,-0.666603097082616,-2.5945565370258534,-0.05562143941554,2.507976027223799,0.8763108487046415,-0.0008816860433375174,0.000619433023243416,0.00012211451267143887,0.002340293571840953,0.00013488968923247943,4.135186383762396e-06,-0.0008238383109917171,0.0,0.0,0.0,0.0,0.0,0.0,0.0,0.00026128036934025545,-3.362597603547013e-05,2.0946460823734192e-05,0.00017199336339146498,8.582424634830804e-05,1.8577575683575986e-05,-3.051757813565814e-06,0.0008816860433375174,-0.000619433023243416,-0.00012211451267143887,-0.002340293571840953,-0.00013488968923247943,-4.135186383762396e-06,0.0008238383109917171,-0.10880166292190552,18.130334854125977,-1.0926239490509033,-18.122896194458008,-0.8563132882118225,-2.2488436698913574,0.15964071452617645,0
12,0.05706453323364258,0.08103066682815552,-18.130334854125977,1.1441986560821533,18.198274612426758,0.8618064522743225,2.2488436698913574,-0.17978231608867645,0.0,0.0,0.0,0.0,0.0,0.0,0.0,0.10134070656421854,0.5516073555198232,0.286508592271192,0.5866730179226987,0.43784391947831663,0.06487220203598222,-0.1963876243428376,-0.6093445063432057,-0.05749834120953291,-0.666627664783474,-2.5947338170503484,-0.0557120097455282,2.5079574496481154,0.876316125336232,-0.6090851748156966,-0.05753196718556838,-0.666603097082616,-2.5945565370258534,-0.05562143941554,2.507976027223799,0.8763108487046415,3.884732484612611e-05,-0.0004744082794782594,-0.0012021286514069056,0.00017652885337521014,3.5811853527756326e-05,0.00017347924922372256,-0.0010527999433099383,0.0,0.0,0.0,0.0,0.0,0.0,0.0,0.00025933152750912125,-3.362597603547013e-05,2.456770085801363e-05,0.000177280024495019,9.057032998820158e-05,1.8577575683575986e-05,-5.276631590556136e-06,-3.884732484612611e-05,0.0004744082794782594,0.0012021286514069056,-0.00017652885337521014,-3.5811853527756326e-05,-0.00017347924922372256,0.0010527999433099383,-0.08103066682815552,18.130334854125977,-1.1441986560821533,-18.198274612426758,-0.8618064522743225,-2.2488436698913574,0.17978231608867645,0
13,0.05999445915222168,0.08103066682815552,-18.130334854125977,1.1441986560821533,18.198274612426758,0.8618064522743225,2.2488436698913574,-0.17978231608867645,0.0,0.0,0.0,0.0,0.0,0.0,0.0,0.10134070656421854,0.5516073555198232,0.286508592271192,0.5866730179226987,0.43784391947831663,0.06487220203598222,-0.1963876243428376,-0.6093445063432057,-0.05749834120953291,-0.666627664783474,-2.5947338170503484,-0.0557120097455282,2.5079574496481154,0.876316125336232,-0.6090851748156966,-0.05753196718556838,-0.666603097082616,-2.5945565370258534,-0.05562143941554,2.507976027223799,0.8763108487046415,3.884732484612611e-05,-0.0004744082794782594,-0.0012021286514069056,0.00017652885337521014,3.5811853527756326e-05,0.00017347924922372256,-0.0010527999433099383,0.0,0.0,0.0,0.0,0.0,0.0,0.0,0.00025933152750912125,-3.362597603547013e-05,2.456770085801363e-05,0.000177280024495019,9.057032998820158e-05,1.8577575683575986e-05,-5.276631590556136e-06,-3.884732484612611e-05,0.0004744082794782594,0.0012021286514069056,-0.00017652885337521014,-3.5811853527756326e-05,-0.00017347924922372256,0.0010527999433099383,-0.08103066682815552,18.130334854125977,-1.1441986560821533,-18.198274612426758,-0.8618064522743225,-2.2488436698913574,0.17978231608867645,0
14,0.06499576568603516,0.13260537385940552,-18.106531143188477,1.1164276599884033,18.245882034301758,0.8499045968055725,2.2552523612976074,-0.15964071452617645,0.0,0.0,0.0,0.0,0.0,0.0,0.0,0.10121142762096838,0.5568458193250002,0.2887017406752759,0.5836322909213136,0.4379801982616284,0.0652796179279933,-0.19795531719361315,-0.609348125620892,-0.05750001164538818,-0.666625001376353,-2.594737157922042,-0.055707577198374755,2.5079567375712926,0.8763138983628087,-0.6090851748156966,-0.05753196718556838,-0.666603097082616,-2.5945565370258534,-0.05562143941554,2.507976027223799,0.8763108487046415,-0.0006469787196694075,-0.00010603310065111199,-0.00020719013277796012,-0.0008264773011074102,0.0004898095308703357,-9.589004297505641e-05,-0.0018153231320968178,0.0,0.0,0.0,0.0,0.0,0.0,0.0,0.0002629508051954499,-3.19555401802063e-05,2.1904293737051717e-05,0.0001806208961885325,8.613778283475537e-05,1.9289652506415678e-05,-3.0496581672201373e-06,0.0006469787196694075,0.00010603310065111199,0.00020719013277796012,0.0008264773011074102,-0.0004898095308703357,9.589004297505641e-05,0.0018153231320968178,-0.13260537385940552,18.106531143188477,-1.1164276599884033,-18.245882034301758,-0.8499045968055725,-2.2552523612976074,0.15964071452617645,0
15,0.07015061378479004,0.13260537385940552,-18.106531143188477,1.1164276599884033,18.245882034301758,0.8499045968055725,2.2552523612976074,-0.15964071452617645,0.0,0.0,0.0,0.0,0.0,0.0,0.0,0.10121142762096838,0.5568458193250002,0.2887017406752759,0.5836322909213136,0.4379801982616284,0.0652796179279933,-0.19795531719361315,-0.609348125620892,-0.05750001164538818,-0.666625001376353,-2.594737157922042,-0.055707577198374755,2.5079567375712926,0.8763138983628087,-0.6090851748156966,-0.05753196718556838,-0.666603097082616,-2.5945565370258534,-0.05562143941554,2.507976027223799,0.8763108487046415,-0.0006469787196694075,-0.00010603310065111199,-0.00020719013277796012,-0.0008264773011074102,0.0004898095308703357,-9.589004297505641e-05,-0.0018153231320968178,0.0,0.0,0.0,0.0,0.0,0.0,0.0,0.0002629508051954499,-3.19555401802063e-05,2.1904293737051717e-05,0.0001806208961885325,8.613778283475537e-05,1.9289652506415678e-05,-3.0496581672201373e-06,0.0006469787196694075,0.00010603310065111199,0.00020719013277796012,0.0008264773011074102,-0.0004898095308703357,9.589004297505641e-05,0.0018153231320968178,-0.13260537385940552,18.106531143188477,-1.1164276599884033,-18.245882034301758,-0.8499045968055725,-2.2552523612976074,0.15964071452617645,0
16,0.07500123977661133,0.13260537385940552,-18.130334854125977,1.0688202381134033,18.198274612426758,0.8618064522743225,2.2488436698913574,-0.22830526530742645,0.0,0.0,0.0,0.0,0.0,0.0,0.0,0.11186545316024481,0.5583863159983853,0.29812080140700115,0.5792436764419969,0.4372261994004875,0.06495577473397221,-0.1973763519493583,-0.609348125620892,-0.05749834120953291,-0.6666245892226607,-2.5947338170503316,-0.0557085447408091,2.5079574496481154,0.8763215298569745,-0.6090851748156966,-0.05753196718556838,-0.666603097082616,-2.5945565370258534,-0.05562143941554,2.507976027223799,0.8763108487046415,0.0006262452339187522,0.0010132310407337405,0.0018016729427155704,-6.871660298277157e-05,-5.93587321137627e-05,-9.239182926963201e-05,0.0013001585416919346,0.0,0.0,0.0,0.0,0.0,0.0,0.0,0.0002629508051954499,-3.362597603547013e-05,2.1492140044654384e-05,0.00017728002447814362,8.710532526910036e-05,1.8577575683575986e-05,-1.068115233304745e-05,-0.0006262452339187522,-0.0010132310407337405,-0.0018016729427155704,6.871660298277157e-05,5.93587321137627e-05,9.239182926963201e-05,-0.0013001585416919346,-0.13260537385940552,18.130334854125977,-1.0688202381134033,-18.198274612426758,-0.8618064522743225,-2.2488436698913574,0.22830526530742645,0
17,0.07999444007873535,0.13260537385940552,-18.130334854125977,1.0688202381134033,18.198274612426758,0.8618064522743225,2.2488436698913574,-0.22830526530742645,0.0,0.0,0.0,0.0,0.0,0.0,0.0,0.11186545316024481,0.5583863159983853,0.29812080140700115,0.5792436764419969,0.4372261994004875,0.06495577473397221,-0.1973763519493583,-0.609348125620892,-0.05749834120953291,-0.6666245892226607,-2.5947338170503316,-0.0557085447408091,2.5079574496481154,0.8763215298569745,-0.6090851748156966,-0.05753196718556838,-0.666603097082616,-2.5945565370258534,-0.05562143941554,2.507976027223799,0.8763108487046415,0.0006262452339187522,0.0010132310407337405,0.0018016729427155704,-6.871660298277157e-05,-5.93587321137627e-05,-9.239182926963201e-05,0.0013001585416919346,0.0,0.0,0.0,0.0,0.0,0.0,0.0,0.0002629508051954499,-3.362597603547013e-05,2.1492140044654384e-05,0.00017728002447814362,8.710532526910036e-05,1.8577575683575986e-05,-1.068115233304745e-05,-0.0006262452339187522,-0.0010132310407337405,-0.0018016729427155704,6.871660298277157e-05,5.93587321137627e-05,9.239182926963201e-05,-0.0013001585416919346,-0.13260537385940552,18.130334854125977,-1.0688202381134033,-18.198274612426758,-0.8618064522743225,-2.2488436698913574,0.22830526530742645,0
18,0.08499574661254883,0.08103066682815552,-18.078760147094727,1.1164276599884033,18.198274612426758,0.8618064522743225,2.2488436698913574,-0.15231649577617645,0.0,0.0,0.0,0.0,0.0,0.0,0.0,0.10908273053240464,0.5549959761613669,0.29052593588899317,0.5850437880378552,0.4380026207080668,0.065232175016039,-0.19705436188088704,-0.6093445063432057,-0.05750196048721932,-0.6666281689655481,-2.5947338170503316,-0.0557121442650433,2.5079574496481154,0.8763130866603718,-0.6090851748156966,-0.05753196718556838,-0.666603097082616,-2.5945565370258534,-0.05562143941554,2.507976027223799,0.8763108487046415,0.001024459815337833,-2.488252345709271e-05,0.00043967421181157206,0.00031274173756592707,-3.171828908356141e-05,0.00010520051991342623,-0.0015120237951837569,0.0,0.0,0.0,0.0,0.0,0.0,0.0,0.00025933152750912125,-3.0006698349065164e-05,2.507188293210394e-05,0.00017728002447814362,9.070484950329805e-05,1.8577575683575986e-05,-2.237955730288732e-06,-0.001024459815337833,2.488252345709271e-05,-0.00043967421181157206,-0.00031274173756592707,3.171828908356141e-05,-0.00010520051991342623,0.0015120237951837569,-0.08103066682815552,18.078760147094727,-1.1164276599884033,-18.198274612426758,-0.8618064522743225,-2.2488436698913574,0.15231649577617645,0
19,0.09002017974853516,0.08103066682815552,-18.078760147094727,1.1164276599884033,18.198274612426758,0.8618064522743225,2.2488436698913574,-0.15231649577617645,0.0,0.0,0.0,0.0,0.0,0.0,0.0,0.10908273053240464,0.5549959761613669,0.29052593588899317,0.5850437880378552,0.4380026207080668,0.065232175016039,-0.19705436188088704,-0.6093445063432057,-0.05750196048721932,-0.6666281689655481,-2.5947338170503316,-0.0557121442650433,2.5079574496481154,0.8763130866603718,-0.6090851748156966,-0.05753196718556838,-0.666603097082616,-2.5945565370258534,-0.05562143941554,2.507976027223799,0.8763108487046415,0.001024459815337833,-2.488252345709271e-05,0.00043967421181157206,0.00031274173756592707,-3.171828908356141e-05,0.00010520051991342623,-0.0015120237951837569,0.0,0.0,0.0,0.0,0.0,0.0,0.0,0.00025933152750912125,-3.0006698349065164e-05,2.507188293210394e-05,0.00017728002447814362,9.070484950329805e-05,1.8577575683575986e-05,-2.237955730288732e-06,-0.001024459815337833,2.488252345709271e-05,-0.00043967421181157206,-0.00031274173756592707,3.171828908356141e-05,-0.00010520051991342623,0.0015120237951837569,-0.08103066682815552,18.078760147094727,-1.1164276599884033,-18.198274612426758,-0.8618064522743225,-2.2488436698913574,0.15231649577617645,0
20,0.09500598907470703,0.08103066682815552,-18.078760147094727,1.1164276599884033,18.198274612426758,0.8618064522743225,2.2488436698913574,-0.15231649577617645,0.0,0.0,0.0,0.0,0.0,0.0,0.0,0.10908273053240464,0.5549959761613669,0.29052593588899317,0.5850437880378552,0.4380026207080668,0.065232175016039,-0.19705436188088704,-0.6093445063432057,-0.05750196048721932,-0.6666281689655481,-2.5947338170503316,-0.0557121442650433,2.5079574496481154,0.8763130866603718,-0.6090851748156966,-0.05753196718556838,-0.666603097082616,-2.5945565370258534,-0.05562143941554,2.507976027223799,0.8763108487046415,0.001024459815337833,-2.488252345709271e-05,0.00043967421181157206,0.00031274173756592707,-3.171828908356141e-05,0.00010520051991342623,-0.0015120237951837569,0.0,0.0,0.0,0.0,0.0,0.0,0.0,0.00025933152750912125,-3.0006698349065164e-05,2.507188293210394e-05,0.00017728002447814362,9.070484950329805e-05,1.8577575683575986e-05,-2.237955730288732e-06,-0.001024459815337833,2.488252345709271e-05,-0.00043967421181157206,-0.00031274173756592707,3.171828908356141e-05,-0.00010520051991342623,0.0015120237951837569,-0.08103066682815552,18.078760147094727,-1.1164276599884033,-18.198274612426758,-0.8618064522743225,-2.2488436698913574,0.15231649577617645,0
21,0.10000085830688477,0.08103066682815552,-18.078760147094727,1.1164276599884033,18.198274612426758,0.8618064522743225,2.2488436698913574,-0.15231649577617645,0.0,0.0,0.0,0.0,0.0,0.0,0.0,0.10908273053240464,0.5549959761613669,0.29052593588899317,0.5850437880378552,0.4380026207080668,0.065232175016039,-0.19705436188088704,-0.6093445063432057,-0.05750196048721932,-0.6666281689655481,-2.5947338170503316,-0.0557121442650433,2.5079574496481154,0.8763130866603718,-0.6090851748156966,-0.05753196718556838,-0.666603097082616,-2.5945565370258534,-0.05562143941554,2.507976027223799,0.8763108487046415,0.001024459815337833,-2.488252345709271e-05,0.00043967421181157206,0.00031274173756592707,-3.171828908356141e-05,0.00010520051991342623,-0.0015120237951837569,0.0,0.0,0.0,0.0,0.0,0.0,0.0,0.00025933152750912125,-3.0006698349065164e-05,2.507188293210394e-05,0.00017728002447814362,9.070484950329805e-05,1.8577575683575986e-05,-2.237955730288732e-06,-0.001024459815337833,2.488252345709271e-05,-0.00043967421181157206,-0.00031274173756592707,3.171828908356141e-05,-0.00010520051991342623,0.0015120237951837569,-0.08103066682815552,18.078760147094727,-1.1164276599884033,-18.198274612426758,-0.8618064522743225,-2.2488436698913574,0.15231649577617645,0
22,0.10500216484069824,0.08103066682815552,-18.078760147094727,1.1164276599884033,18.198274612426758,0.8618064522743225,2.2488436698913574,-0.15231649577617645,0.0,0.0,0.0,0.0,0.0,0.0,0.0,0.10908273053240464,0.5549959761613669,0.29052593588899317,0.5850437880378552,0.4380026207080668,0.065232175016039,-0.19705436188088704,-0.6093445063432057,-0.05750196048721932,-0.6666281689655481,-2.5947338170503316,-0.0557121442650433,2.5079574496481154,0.8763130866603718,-0.6090851748156966,-0.05753196718556838,-0.666603097082616,-2.5945565370258534,-0.05562143941554,2.507976027223799,0.8763108487046415,0.001024459815337833,-2.488252345709271e-05,0.00043967421181157206,0.00031274173756592707,-3.171828908356141e-05,0.00010520051991342623,-0.0015120237951837569,0.0,0.0,0.0,0.0,0.0,0.0,0.0,0.00025933152750912125,-3.0006698349065164e-05,2.507188293210394e-05,0.00017728002447814362,9.070484950329805e-05,1.8577575683575986e-05,-2.237955730288732e-06,-0.001024459815337833,2.488252345709271e-05,-0.00043967421181157206,-0.00031274173756592707,3.171828908356141e-05,-0.00010520051991342623,0.0015120237951837569,-0.08103066682815552,18.078760147094727,-1.1164276599884033,-18.198274612426758,-0.8618064522743225,-2.2488436698913574,0.15231649577617645,0
23,0.1099998950958252,0.10880166292190552,-18.106531143188477,1.1164276599884033,18.245882034301758,0.8563132882118225,2.2488436698913574,-0.16604940593242645,0.0,0.0,0.0,0.0,0.0,0.0,0.0,0.10885720721259984,0.5553692935188345,0.29528684770498514,0.5869396589334065,0.4369376229757021,0.06638462630502133,-0.19537235696282845,-0.6093464551850368,-0.05750001164538818,-0.6666249900143689,-2.594737157922042,-0.05571118082426111,2.5079574496481154,0.8763146125392778,-0.6090851748156966,-0.05753196718556838,-0.666603097082616,-2.5945565370258534,-0.05562143941554,2.507976027223799,0.8763108487046415,-0.0005170198367674183,-0.0001617360375516499,-0.0007311919175944012,-0.000544531686419281,0.0001739850369635132,-1.304440319847184e-05,-0.002045303514719731,0.0,0.0,0.0,0.0,0.0,0.0,0.0,0.00026128036934025545,-3.19555401802063e-05,2.1892931752920397e-05,0.0001806208961885325,8.974140872110986e-05,1.8577575683575986e-05,-3.763834636294483e-06,0.0005170198367674183,0.0001617360375516499,0.0007311919175944012,0.000544531686419281,-0.0001739850369635132,1.304440319847184e-05,0.002045303514719731,-0.10880166292190552,18.106531143188477,-1.1164276599884033,-18.245882034301758,-0.8563132882118225,-2.2488436698913574,0.16604940593242645,0
24,0.11509346961975098,0.10880166292190552,-18.106531143188477,1.1164276599884033,18.245882034301758,0.8563132882118225,2.2488436698913574,-0.16604940593242645,0.0,0.0,0.0,0.0,0.0,0.0,0.0,0.10885720721259984,0.5553692935188345,0.29528684770498514,0.5869396589334065,0.4369376229757021,0.06638462630502133,-0.19537235696282845,-0.6093464551850368,-0.05750001164538818,-0.6666249900143689,-2.594737157922042,-0.05571118082426111,2.5079574496481154,0.8763146125392778,-0.6090851748156966,-0.05753196718556838,-0.666603097082616,-2.5945565370258534,-0.05562143941554,2.507976027223799,0.8763108487046415,-0.0005170198367674183,-0.0001617360375516499,-0.0007311919175944012,-0.000544531686419281,0.0001739850369635132,-1.304440319847184e-05,-0.002045303514719731,0.0,0.0,0.0,0.0,0.0,0.0,0.0,0.00026128036934025545,-3.19555401802063e-05,2.1892931752920397e-05,0.0001806208961885325,8.974140872110986e-05,1.8577575683575986e-05,-3.763834636294483e-06,0.0005170198367674183,0.0001617360375516499,0.0007311919175944012,0.000544531686419281,-0.0001739850369635132,1.304440319847184e-05,0.002045303514719731,-0.10880166292190552,18.106531143188477,-1.1164276599884033,-18.245882034301758,-0.8563132882118225,-2.2488436698913574,0.16604940593242645,0
25,0.11999988555908203,0.10880166292190552,-18.106531143188477,1.1164276599884033,18.245882034301758,0.8563132882118225,2.2488436698913574,-0.16604940593242645,0.0,0.0,0.0,0.0,0.0,0.0,0.0,0.10885720721259984,0.5553692935188345,0.29528684770498514,0.5869396589334065,0.4369376229757021,0.06638462630502133,-0.19537235696282845,-0.6093464551850368,-0.05750001164538818,-0.6666249900143689,-2.594737157922042,-0.05571118082426111,2.5079574496481154,0.8763146125392778,-0.6090851748156966,-0.05753196718556838,-0.666603097082616,-2.5945565370258534,-0.05562143941554,2.507976027223799,0.8763108487046415,-0.0005170198367674183,-0.0001617360375516499,-0.0007311919175944012,-0.000544531686419281,0.0001739850369635132,-1.304440319847184e-05,-0.002045303514719731,0.0,0.0,0.0,0.0,0.0,0.0,0.0,0.00026128036934025545,-3.19555401802063e-05,2.1892931752920397e-05,0.0001806208961885325,8.974140872110986e-05,1.8577575683575986e-05,-3.763834636294483e-06,0.0005170198367674183,0.0001617360375516499,0.0007311919175944012,0.000544531686419281,-0.0001739850369635132,1.304440319847184e-05,0.002045303514719731,-0.10880166292190552,18.106531143188477,-1.1164276599884033,-18.245882034301758,-0.8563132882118225,-2.2488436698913574,0.16604940593242645,0
26,0.12499737739562988,0.10880166292190552,-18.106531143188477,1.1164276599884033,18.245882034301758,0.8563132882118225,2.2488436698913574,-0.16604940593242645,0.0,0.0,0.0,0.0,0.0,0.0,0.0,0.10885720721259984,0.5553692935188345,0.29528684770498514,0.5869396589334065,0.4369376229757021,0.06638462630502133,-0.19537235696282845,-0.6093464551850368,-0.05750001164538818,-0.6666249900143689,-2.594737157922042,-0.05571118082426111,2.5079574496481154,0.8763146125392778,-0.6090851748156966,-0.05753196718556838,-0.666603097082616,-2.5945565370258534,-0.05562143941554,2.507976027223799,0.8763108487046415,-0.0005170198367674183,-0.0001617360375516499,-0.0007311919175944012,-0.000544531686419281,0.0001739850369635132,-1.304440319847184e-05,-0.002045303514719731,0.0,0.0,0.0,0.0,0.0,0.0,0.0,0.00026128036934025545,-3.19555401802063e-05,2.1892931752920397e-05,0.0001806208961885325,8.974140872110986e-05,1.8577575683575986e-05,-3.763834636294483e-06,0.0005170198367674183,0.0001617360375516499,0.0007311919175944012,0.000544531686419281,-0.0001739850369635132,1.304440319847184e-05,0.002045303514719731,-0.10880166292190552,18.106531143188477,-1.1164276599884033,-18.245882034301758,-0.8563132882118225,-2.2488436698913574,0.16604940593242645,0
27,0.13000202178955078,0.05722695589065552,-18.106531143188477,1.1164276599884033,18.222078323364258,0.8563132882118225,2.2625765800476074,-0.21457235515117645,0.0,0.0,0.0,0.0,0.0,0.0,0.0,0.10707406770023802,0.5592894430928571,0.2913194257619781,0.5870321717761375,0.4369756766214161,0.0665259919639241,-0.1961780388970343,-0.6093428359073504,-0.05750001164538818,-0.6666250778653369,-2.594735487486187,-0.05571031339222661,2.507955923769209,0.8763200039780801,-0.6090851748156966,-0.05753196718556838,-0.666603097082616,-2.5945565370258534,-0.05562143941554,2.507976027223799,0.8763108487046415,0.0013807877096349203,0.0005664981656655401,-0.0003248938309886951,0.0001358944908337509,0.00032049700848861415,-0.00044388890298082507,0.00134893804178774,0.0,0.0,0.0,0.0,0.0,0.0,0.0,0.0002576610916538158,-3.19555401802063e-05,2.1980782720865122e-05,0.0001789504603335601,8.887397668660979e-05,2.0103454589914804e-05,-9.155273438588019e-06,-0.0013807877096349203,-0.0005664981656655401,0.0003248938309886951,-0.0001358944908337509,-0.00032049700848861415,0.00044388890298082507,-0.00134893804178774,-0.05722695589065552,18.106531143188477,-1.1164276599884033,-18.222078323364258,-0.8563132882118225,-2.2625765800476074,0.21457235515117645,0
28,0.13499760627746582,0.05722695589065552,-18.106531143188477,1.1164276599884033,18.222078323364258,0.8563132882118225,2.2625765800476074,-0.21457235515117645,0.0,0.0,0.0,0.0,0.0,0.0,0.0,0.10707406770023802,0.5592894430928571,0.2913194257619781,0.5870321717761375,0.4369756766214161,0.0665259919639241,-0.1961780388970343,-0.6093428359073504,-0.05750001164538818,-0.6666250778653369,-2.594735487486187,-0.05571031339222661,2.507955923769209,0.8763200039780801,-0.6090851748156966,-0.05753196718556838,-0.666603097082616,-2.5945565370258534,-0.05562143941554,2.507976027223799,0.8763108487046415,0.0013807877096349203,0.0005664981656655401,-0.0003248938309886951,0.0001358944908337509,0.00032049700848861415,-0.00044388890298082507,0.00134893804178774,0.0,0.0,0.0,0.0,0.0,0.0,0.0,0.0002576610916538158,-3.19555401802063e-05,2.1980782720865122e-05,0.0001789504603335601,8.887397668660979e-05,2.0103454589914804e-05,-9.155273438588019e-06,-0.0013807877096349203,-0.0005664981656655401,0.0003248938309886951,-0.0001358944908337509,-0.00032049700848861415,0.00044388890298082507,-0.00134893804178774,-0.05722695589065552,18.106531143188477,-1.1164276599884033,-18.222078323364258,-0.8563132882118225,-2.2625765800476074,0.21457235515117645,0
29,0.1399998664855957,0.13260537385940552,-18.078760147094727,1.1164276599884033,18.198274612426758,0.8618064522743225,2.2360262870788574,-0.17337362468242645,0.0,0.0,0.0,0.0,0.0,0.0,0.0,0.09950745253223978,0.5597004364174846,0.2844975610410606,0.5842923978149164,0.4377937970800046,0.06614932396152394,-0.19495907592066858,-0.609348125620892,-0.05750196048721932,-0.6666272491428515,-2.5947338170503316,-0.05571214033008192,2.507958873801761,0.8763154263413614,-0.6090851748156966,-0.05753196718556838,-0.666603097082616,-2.5945565370258534,-0.05562143941554,2.507976027223799,0.8763108487046415,-0.0010188207794975736,-0.000360745362637088,-0.00018931765451100422,-0.00027800888954071946,-0.0001026374686145235,0.00038024549184509344,-0.0010437230333412008,0.0,0.0,0.0,0.0,0.0,0.0,0.0,0.0002629508051954499,-3.0006698349065164e-05,2.4152060235538286e-05,0.00017728002447814362,9.070091454192047e-05,1.7153422037896604e-05,-4.577636719904632e-06,0.0010188207794975736,0.000360745362637088,0.00018931765451100422,0.00027800888954071946,0.0001026374686145235,-0.00038024549184509344,0.0010437230333412008,-0.13260537385940552,18.078760147094727,-1.1164276599884033,-18.198274612426758,-0.8618064522743225,-2.2360262870788574,0.17337362468242645,0
30,0.14501166343688965,0.13260537385940552,-18.078760147094727,1.1164276599884033,18.198274612426758,0.8618064522743225,2.2360262870788574,-0.17337362468242645,0.0,0.0,0.0,0.0,0.0,0.0,0.0,0.09950745253223978,0.5597004364174846,0.2844975610410606,0.5842923978149164,0.4377937970800046,0.06614932396152394,-0.19495907592066858,-0.609348125620892,-0.05750196048721932,-0.6666272491428515,-2.5947338170503316,-0.05571214033008192,2.507958873801761,0.8763154263413614,-0.6090851748156966,-0.05753196718556838,-0.666603097082616,-2.5945565370258534,-0.05562143941554,2.507976027223799,0.8763108487046415,-0.0010188207794975736,-0.000360745362637088,-0.00018931765451100422,-0.00027800888954071946,-0.0001026374686145235,0.00038024549184509344,-0.0010437230333412008,0.0,0.0,0.0,0.0,0.0,0.0,0.0,0.0002629508051954499,-3.0006698349065164e-05,2.4152060235538286e-05,0.00017728002447814362,9.070091454192047e-05,1.7153422037896604e-05,-4.577636719904632e-06,0.0010188207794975736,0.000360745362637088,0.00018931765451100422,0.00027800888954071946,0.0001026374686145235,-0.00038024549184509344,0.0010437230333412008,-0.13260537385940552,18.078760147094727,-1.1164276599884033,-18.198274612426758,-0.8618064522743225,-2.2360262870788574,0.17337362468242645,0
31,0.15000438690185547,0.16037636995315552,-18.130334854125977,1.1441986560821533,18.198274612426758,0.8563132882118225,2.2625765800476074,-0.21457235515117645,0.0,0.0,0.0,0.0,0.0,0.0,0.0,0.11252686347127965,0.557949521363464,0.2991754460931735,0.5922026285192648,0.43778946444411726,0.06668294542382514,-0.19654988868818427,-0.6093500744627232,-0.05749834120953291,-0.6666294286753637,-2.5947338170503316,-0.05571141613110114,2.507955923769209,0.8763200039780801,-0.6090851748156966,-0.05753196718556838,-0.666603097082616,-2.5945565370258534,-0.05562143941554,2.507976027223799,0.8763108487046415,-1.8643399318320978e-05,0.0007381887733846275,-0.0002039519819108004,0.0006774376009688331,0.00012064230731107944,-0.00065522608084754,0.0008264813941591031,0.0,0.0,0.0,0.0,0.0,0.0,0.0,0.0002648996470265841,-3.362597603547013e-05,2.6331592747674826e-05,0.00017728002447814362,8.997671556113668e-05,2.0103454589914804e-05,-9.155273438588019e-06,1.8643399318320978e-05,-0.0007381887733846275,0.0002039519819108004,-0.0006774376009688331,-0.00012064230731107944,0.00065522608084754,-0.0008264813941591031,-0.16037636995315552,18.130334854125977,-1.1441986560821533,-18.198274612426758,-0.8563132882118225,-2.2625765800476074,0.21457235515117645,0
32,0.15500378608703613,0.16037636995315552,-18.130334854125977,1.1441986560821533,18.198274612426758,0.8563132882118225,2.2625765800476074,-0.21457235515117645,0.0,0.0,0.0,0.0,0.0,0.0,0.0,0.11252686347127965,0.557949521363464,0.2991754460931735,0.5922026285192648,0.43778946444411726,0.06668294542382514,-0.19654988868818427,-0.6093500744627232,-0.05749834120953291,-0.6666294286753637,-2.5947338170503316,-0.05571141613110114,2.507955923769209,0.8763200039780801,-0.6090851748156966,-0.05753196718556838,-0.666603097082616,-2.5945565370258534,-0.05562143941554,2.507976027223799,0.8763108487046415,-1.8643399318320978e-05,0.0007381887733846275,-0.0002039519819108004,0.0006774376009688331,0.00012064230731107944,-0.00065522608084754,0.0008264813941591031,0.0,0.0,0.0,0.0,0.0,0.0,0.0,0.0002648996470265841,-3.362597603547013e-05,2.6331592747674826e-05,0.00017728002447814362,8.997671556113668e-05,2.0103454589914804e-05,-9.155273438588019e-06,1.8643399318320978e-05,-0.0007381887733846275,0.0002039519819108004,-0.0006774376009688331,-0.00012064230731107944,0.00065522608084754,-0.0008264813941591031,-0.16037636995315552,18.130334854125977,-1.1441986560821533,-18.198274612426758,-0.8563132882118225,-2.2625765800476074,0.21457235515117645,0
33,0.15999960899353027,0.08103066682815552,-18.130334854125977,1.1441986560821533,18.198274612426758,0.8618064522743225,2.2625765800476074,-0.16604940593242645,0.0,0.0,0.0,0.0,0.0,0.0,0.0,0.10443300711699598,0.5537803433734121,0.2875641209791276,0.5901522141895346,0.4384393445525353,0.06581937707498342,-0.19527187371734678,-0.6093445063432057,-0.05749834120953291,-0.6666272056169197,-2.5947338994666302,-0.05571210512531397,2.507955923769209,0.876314612539278,-0.6090851748156966,-0.05753196718556838,-0.666603097082616,-2.5945565370258534,-0.05562143941554,2.507976027223799,0.8763108487046415,0.0003216941723267666,2.009497742803628e-05,-0.00013559269233979812,0.00044544349821242695,-4.337546081927388e-05,-0.0005834617835812955,-0.0013167765409023045,0.0,0.0,0.0,0.0,0.0,0.0,0.0,0.00025933152750912125,-3.362597603547013e-05,2.410853430367954e-05,0.00017736244077681818,9.066570977397242e-05,2.0103454589914804e-05,-3.7638346365165276e-06,-0.0003216941723267666,-2.009497742803628e-05,0.00013559269233979812,-0.00044544349821242695,4.337546081927388e-05,0.0005834617835812955,0.0013167765409023045,-0.08103066682815552,18.130334854125977,-1.1441986560821533,-18.198274612426758,-0.8618064522743225,-2.2625765800476074,0.16604940593242645,0
34,0.16495013236999512,0.08103066682815552,-18.130334854125977,1.1441986560821533,18.198274612426758,0.8618064522743225,2.2625765800476074,-0.16604940593242645,0.0,0.0,0.0,0.0,0.0,0.0,0.0,0.10443300711699598,0.5537803433734121,0.2875641209791276,0.5901522141895346,0.4384393445525353,0.06581937707498342,-0.19527187371734678,-0.6093445063432057,-0.05749834120953291,-0.6666272056169197,-2.5947338994666302,-0.05571210512531397,2.507955923769209,0.876314612539278,-0.6090851748156966,-0.05753196718556838,-0.666603097082616,-2.5945565370258534,-0.05562143941554,2.507976027223799,0.8763108487046415,0.0003216941723267666,2.009497742803628e-05,-0.00013559269233979812,0.00044544349821242695,-4.337546081927388e-05,-0.0005834617835812955,-0.0013167765409023045,0.0,0.0,0.0,0.0,0.0,0.0,0.0,0.00025933152750912125,-3.362597603547013e-05,2.410853430367954e-05,0.00017736244077681818,9.066570977397242e-05,2.0103454589914804e-05,-3.7638346365165276e-06,-0.0003216941723267666,-2.009497742803628e-05,0.00013559269233979812,-0.00044544349821242695,4.337546081927388e-05,0.0005834617835812955,0.0013167765409023045,-0.08103066682815552,18.130334854125977,-1.1441986560821533,-18.198274612426758,-0.8618064522743225,-2.2625765800476074,0.16604940593242645,0
35,0.1699981689453125,0.08103066682815552,-18.078760147094727,1.0926239490509033,18.222078323364258,0.8682151436805725,2.2552523612976074,-0.22830526530742645,0.0,0.0,0.0,0.0,0.0,0.0,0.0,0.09874103722578978,0.5540626325148462,0.2886229876771705,0.5858419494503556,0.4385550827022863,0.06535133302902442,-0.19645429311718263,-0.6093445063432057,-0.05750196048721932,-0.6666258097134791,-2.594735487486652,-0.055711739508211434,2.5079567375712926,0.8763215298569863,-0.6090851748156966,-0.05753196718556838,-0.666603097082616,-2.5945565370258534,-0.05562143941554,2.507976027223799,0.8763108487046415,-0.0005373641673069825,-0.0011348299154828282,-0.0002735425380578816,-0.0003223800048116618,-6.390697724446105e-05,-0.00025545597157782755,0.0015095220725478747,0.0,0.0,0.0,0.0,0.0,0.0,0.0,0.00025933152750912125,-3.0006698349065164e-05,2.2712630863064298e-05,0.0001789504607985215,9.030009267143452e-05,1.9289652506415678e-05,-1.0681152344815814e-05,0.0005373641673069825,0.0011348299154828282,0.0002735425380578816,0.0003223800048116618,6.390697724446105e-05,0.00025545597157782755,-0.0015095220725478747,-0.08103066682815552,18.078760147094727,-1.0926239490509033,-18.222078323364258,-0.8682151436805725,-2.2552523612976074,0.22830526530742645,0
36,0.17499971389770508,0.08103066682815552,-18.078760147094727,1.0926239490509033,18.222078323364258,0.8682151436805725,2.2552523612976074,-0.22830526530742645,0.0,0.0,0.0,0.0,0.0,0.0,0.0,0.09874103722578978,0.5540626325148462,0.2886229876771705,0.5858419494503556,0.4385550827022863,0.06535133302902442,-0.19645429311718263,-0.6093445063432057,-0.05750196048721932,-0.6666258097134791,-2.594735487486652,-0.055711739508211434,2.5079567375712926,0.8763215298569863,-0.6090851748156966,-0.05753196718556838,-0.666603097082616,-2.5945565370258534,-0.05562143941554,2.507976027223799,0.8763108487046415,-0.0005373641673069825,-0.0011348299154828282,-0.0002735425380578816,-0.0003223800048116618,-6.390697724446105e-05,-0.00025545597157782755,0.0015095220725478747,0.0,0.0,0.0,0.0,0.0,0.0,0.0,0.00025933152750912125,-3.0006698349065164e-05,2.2712630863064298e-05,0.0001789504607985215,9.030009267143452e-05,1.9289652506415678e-05,-1.0681152344815814e-05,0.0005373641673069825,0.0011348299154828282,0.0002735425380578816,0.0003223800048116618,6.390697724446105e-05,0.00025545597157782755,-0.0015095220725478747,-0.08103066682815552,18.078760147094727,-1.0926239490509033,-18.222078323364258,-0.8682151436805725,-2.2552523612976074,0.22830526530742645,0
37,0.1799941062927246,0.05722695589065552,-18.106531143188477,1.0926239490509033,18.222078323364258,0.8737083077430725,2.2552523612976074,-0.17337362468242645,0.0,0.0,0.0,0.0,0.0,0.0,0.0,0.10808146404192957,0.5534772352016861,0.300389473951141,0.585064355338633,0.43817681269151504,0.06686804682335716,-0.19539243142631624,-0.6093428359073504,-0.05750001164538818,-0.6666234358967845,-2.594735487486187,-0.05571310010205156,2.5079567375712926,0.8763154263413614,-0.6090851748156966,-0.05753196718556838,-0.666603097082616,-2.5945565370258534,-0.05562143941554,2.507976027223799,0.8763108487046415,0.0007417135220656272,-0.00027902046732697204,0.00022853372781773618,-0.00027337129244670266,-0.0004004365789477383,1.4464004718716787e-05,-0.0003492065424395951,0.0,0.0,0.0,0.0,0.0,0.0,0.0,0.0002576610916538158,-3.19555401802063e-05,2.0338814168519015e-05,0.0001789504603335601,9.166068651156323e-05,1.9289652506415678e-05,-4.577636719904632e-06,-0.0007417135220656272,0.00027902046732697204,-0.00022853372781773618,0.00027337129244670266,0.0004004365789477383,-1.4464004718716787e-05,0.0003492065424395951,-0.05722695589065552,18.106531143188477,-1.0926239490509033,-18.222078323364258,-0.8737083077430725,-2.2552523612976074,0.17337362468242645,0
38,0.1849982738494873,0.05722695589065552,-18.106531143188477,1.0926239490509033,18.222078323364258,0.8737083077430725,2.2552523612976074,-0.17337362468242645,0.0,0.0,0.0,0.0,0.0,0.0,0.0,0.10808146404192957,0.5534772352016861,0.300389473951141,0.585064355338633,0.43817681269151504,0.06686804682335716,-0.19539243142631624,-0.6093428359073504,-0.05750001164538818,-0.6666234358967845,-2.594735487486187,-0.05571310010205156,2.5079567375712926,0.8763154263413614,-0.6090851748156966,-0.05753196718556838,-0.666603097082616,-2.5945565370258534,-0.05562143941554,2.507976027223799,0.8763108487046415,0.0007417135220656272,-0.00027902046732697204,0.00022853372781773618,-0.00027337129244670266,-0.0004004365789477383,1.4464004718716787e-05,-0.0003492065424395951,0.0,0.0,0.0,0.0,0.0,0.0,0.0,0.0002576610916538158,-3.19555401802063e-05,2.0338814168519015e-05,0.0001789504603335601,9.166068651156323e-05,1.9289652506415678e-05,-4.577636719904632e-06,-0.0007417135220656272,0.00027902046732697204,-0.00022853372781773618,0.00027337129244670266,0.0004004365789477383,-1.4464004718716787e-05,0.0003492065424395951,-0.05722695589065552,18.106531143188477,-1.0926239490509033,-18.222078323364258,-0.8737083077430725,-2.2552523612976074,0.17337362468242645,0
39,0.18999719619750977,0.13260537385940552,-18.106531143188477,1.1441986560821533,18.198274612426758,0.8618064522743225,2.2552523612976074,-0.21457235515117645,0.0,0.0,0.0,0.0,0.0,0.0,0.0,0.10240084017430258,0.5571149565238938,0.29647194010453426,0.5829275336644149,0.43823813423951896,0.06718383027432326,-0.1949624027359708,-0.609348125620892,-0.05750001164538818,-0.6666269730718206,-2.5947338170503316,-0.05571107724417062,2.5079567375712926,0.8763200038165746,-0.6090851748156966,-0.05753196718556838,-0.666603097082616,-2.5945565370258534,-0.05562143941554,2.507976027223799,0.8763108487046415,-0.000947898951694298,0.00045398384264568736,-0.000931087495309064,0.0003068395983835203,-0.00014324115521900343,-0.0003634824843612263,0.0007724908466058578,0.0,0.0,0.0,0.0,0.0,0.0,0.0,0.0002629508051954499,-3.19555401802063e-05,2.3875989204613646e-05,0.00017728002447814362,8.963782863061903e-05,1.9289652506415678e-05,-9.155111933112359e-06,0.000947898951694298,-0.00045398384264568736,0.000931087495309064,-0.0003068395983835203,0.00014324115521900343,0.0003634824843612263,-0.0007724908466058578,-0.13260537385940552,18.106531143188477,-1.1441986560821533,-18.198274612426758,-0.8618064522743225,-2.2552523612976074,0.21457235515117645,0
40,0.1951005458831787,0.13260537385940552,-18.106531143188477,1.1441986560821533,18.198274612426758,0.8618064522743225,2.2552523612976074,-0.21457235515117645,0.0,0.0,0.0,0.0,0.0,0.0,0.0,0.10240084017430258,0.5571149565238938,0.29647194010453426,0.5829275336644149,0.43823813423951896,0.06718383027432326,-0.1949624027359708,-0.609348125620892,-0.05750001164538818,-0.6666269730718206,-2.5947338170503316,-0.05571107724417062,2.5079567375712926,0.8763200038165746,-0.6090851748156966,-0.05753196718556838,-0.666603097082616,-2.5945565370258534,-0.05562143941554,2.507976027223799,0.8763108487046415,-0.000947898951694298,0.00045398384264568736,-0.000931087495309064,0.0003068395983835203,-0.00014324115521900343,-0.0003634824843612263,0.0007724908466058578,0.0,0.0,0.0,0.0,0.0,0.0,0.0,0.0002629508051954499,-3.19555401802063e-05,2.3875989204613646e-05,0.00017728002447814362,8.963782863061903e-05,1.9289652506415678e-05,-9.155111933112359e-06,0.000947898951694298,-0.00045398384264568736,0.000931087495309064,-0.0003068395983835203,0.00014324115521900343,0.0003634824843612263,-0.0007724908466058578,-0.13260537385940552,18.106531143188477,-1.1441986560821533,-18.198274612426758,-0.8618064522743225,-2.2552523612976074,0.21457235515117645,0
41,0.1999962329864502,0.16037636995315552,-18.054956436157227,1.1441986560821533,18.222078323364258,0.8618064522743225,2.2488436698913574,-0.22098104655742645,0.0,0.0,0.0,0.0,0.0,0.0,0.0,0.10153290093879247,0.5597438049741483,0.2946544439540591,0.5835317104371347,0.4378128792931163,0.06613754372719872,-0.19597793101941918,-0.6093500744627232,-0.05750363092307458,-0.6666271859801294,-2.594735487486187,-0.05571201463148975,2.5079574496481154,0.8763207160549021,-0.6090851748156966,-0.05753196718556838,-0.666603097082616,-2.5945565370258534,-0.05562143941554,2.507976027223799,0.8763108487046415,-0.0006454898823552364,-0.0006724343799580848,-0.0011420169726649382,-0.0004872695308467525,7.553680506438067e-06,-1.4384114438402602e-05,0.0005953542516651945,0.0,0.0,0.0,0.0,0.0,0.0,0.0,0.0002648996470265841,-2.8336262493801334e-05,2.408889751337462e-05,0.0001789504603335601,9.057521594974666e-05,1.8577575683575986e-05,-9.867350260650554e-06,0.0006454898823552364,0.0006724343799580848,0.0011420169726649382,0.0004872695308467525,-7.553680506438067e-06,1.4384114438402602e-05,-0.0005953542516651945,-0.16037636995315552,18.054956436157227,-1.1441986560821533,-18.222078323364258,-0.8618064522743225,-2.2488436698913574,0.22098104655742645,0
42,0.20499372482299805,0.16037636995315552,-18.054956436157227,1.1441986560821533,18.222078323364258,0.8618064522743225,2.2488436698913574,-0.22098104655742645,0.0,0.0,0.0,0.0,0.0,0.0,0.0,0.10153290093879247,0.5597438049741483,0.2946544439540591,0.5835317104371347,0.4378128792931163,0.06613754372719872,-0.19597793101941918,-0.6093500744627232,-0.05750363092307458,-0.6666271859801294,-2.594735487486187,-0.05571201463148975,2.5079574496481154,0.8763207160549021,-0.6090851748156966,-0.05753196718556838,-0.666603097082616,-2.5945565370258534,-0.05562143941554,2.507976027223799,0.8763108487046415,-0.0006454898823552364,-0.0006724343799580848,-0.0011420169726649382,-0.0004872695308467525,7.553680506438067e-06,-1.4384114438402602e-05,0.0005953542516651945,0.0,0.0,0.0,0.0,0.0,0.0,0.0,0.0002648996470265841,-2.8336262493801334e-05,2.408889751337462e-05,0.0001789504603335601,9.057521594974666e-05,1.8577575683575986e-05,-9.867350260650554e-06,0.0006454898823552364,0.0006724343799580848,0.0011420169726649382,0.0004872695308467525,-7.553680506438067e-06,1.4384114438402602e-05,-0.0005953542516651945,-0.16037636995315552,18.054956436157227,-1.1441986560821533,-18.222078323364258,-0.8618064522743225,-2.2488436698913574,0.22098104655742645,0
43,0.20999479293823242,0.08103066682815552,-18.078760147094727,1.1680023670196533,18.198274612426758,0.8563132882118225,2.2424349784851074,-0.16604940593242645,0.0,0.0,0.0,0.0,0.0,0.0,0.0,0.10690541992545005,0.5640995716418652,0.2939296886168332,0.5817561174246058,0.43773137651603855,0.06542383395772754,-0.19691442040139118,-0.6093445063432057,-0.05750196048721932,-0.666628935017916,-2.5947338170503316,-0.05571033784105916,2.5079581617249382,0.876314612539278,-0.6090851748156966,-0.05753196718556838,-0.666603097082616,-2.5945565370258534,-0.05562143941554,2.507976027223799,0.8763108487046415,0.0009442729913159523,-0.00018686997467183436,-0.0009403316977844337,5.592676627414645e-06,0.00024801519456751843,0.00031699276978497463,-0.0007948084156471866,0.0,0.0,0.0,0.0,0.0,0.0,0.0,0.00025933152750912125,-3.0006698349065164e-05,2.5837935299977133e-05,0.00017728002447814362,8.889842551915855e-05,1.7865498860736295e-05,-3.7638346365165276e-06,-0.0009442729913159523,0.00018686997467183436,0.0009403316977844337,-5.592676627414645e-06,-0.00024801519456751843,-0.00031699276978497463,0.0007948084156471866,-0.08103066682815552,18.078760147094727,-1.1680023670196533,-18.198274612426758,-0.8563132882118225,-2.2424349784851074,0.16604940593242645,0
44,0.2149960994720459,0.08103066682815552,-18.078760147094727,1.1680023670196533,18.198274612426758,0.8563132882118225,2.2424349784851074,-0.16604940593242645,0.0,0.0,0.0,0.0,0.0,0.0,0.0,0.10690541992545005,0.5640995716418652,0.2939296886168332,0.5817561174246058,0.43773137651603855,0.06542383395772754,-0.19691442040139118,-0.6093445063432057,-0.05750196048721932,-0.666628935017916,-2.5947338170503316,-0.05571033784105916,2.5079581617249382,0.876314612539278,-0.6090851748156966,-0.05753196718556838,-0.666603097082616,-2.5945565370258534,-0.05562143941554,2.507976027223799,0.8763108487046415,0.0009442729913159523,-0.00018686997467183436,-0.0009403316977844337,5.592676627414645e-06,0.00024801519456751843,0.00031699276978497463,-0.0007948084156471866,0.0,0.0,0.0,0.0,0.0,0.0,0.0,0.00025933152750912125,-3.0006698349065164e-05,2.5837935299977133e-05,0.00017728002447814362,8.889842551915855e-05,1.7865498860736295e-05,-3.7638346365165276e-06,-0.0009442729913159523,0.00018686997467183436,0.0009403316977844337,-5.592676627414645e-06,-0.00024801519456751843,-0.00031699276978497463,0.0007948084156471866,-0.08103066682815552,18.078760147094727,-1.1680023670196533,-18.198274612426758,-0.8563132882118225,-2.2424349784851074,0.16604940593242645,0
45,0.22001075744628906,0.16037636995315552,-18.154138565063477,1.0926239490509033,18.198274612426758,0.8618064522743225,2.2424349784851074,-0.22098104655742645,0.0,0.0,0.0,0.0,0.0,0.0,0.0,0.10295108268798814,0.5565151956933843,0.29121660988782677,0.5842050556053027,0.43771944382182354,0.06665938363984034,-0.1971298716560868,-0.6093500744627232,-0.05749667077367765,-0.6666233476177277,-2.5947338170503316,-0.055711658410178215,2.5079581617249382,0.8763203628421933,-0.6090851748156966,-0.05753196718556838,-0.666603097082616,-2.5945565370258534,-0.05562143941554,2.507976027223799,0.8763108487046415,-0.001571537231929022,0.000780149273428947,5.544103347201044e-07,0.000120292813066765,5.90815878137537e-05,0.00041317343465142913,0.00015455633102771745,0.0,0.0,0.0,0.0,0.0,0.0,0.0,0.0002648996470265841,-3.529641189073396e-05,2.0250535111676626e-05,0.00017728002447814362,9.021899463821509e-05,1.7865498860736295e-05,-9.514137551791535e-06,0.001571537231929022,-0.000780149273428947,-5.544103347201044e-07,-0.000120292813066765,-5.90815878137537e-05,-0.00041317343465142913,-0.00015455633102771745,-0.16037636995315552,18.154138565063477,-1.0926239490509033,-18.198274612426758,-0.8618064522743225,-2.2424349784851074,0.22098104655742645,0
46,0.22501182556152344,0.16037636995315552,-18.154138565063477,1.0926239490509033,18.198274612426758,0.8618064522743225,2.2424349784851074,-0.22098104655742645,0.0,0.0,0.0,0.0,0.0,0.0,0.0,0.10295108268798814,0.5565151956933843,0.29121660988782677,0.5842050556053027,0.43771944382182354,0.06665938363984034,-0.1971298716560868,-0.6093500744627232,-0.05749667077367765,-0.6666233476177277,-2.5947338170503316,-0.055711658410178215,2.5079581617249382,0.8763203628421933,-0.6090851748156966,-0.05753196718556838,-0.666603097082616,-2.5945565370258534,-0.05562143941554,2.507976027223799,0.8763108487046415,-0.001571537231929022,0.000780149273428947,5.544103347201044e-07,0.000120292813066765,5.90815878137537e-05,0.00041317343465142913,0.00015455633102771745,0.0,0.0,0.0,0.0,0.0,0.0,0.0,0.0002648996470265841,-3.529641189073396e-05,2.0250535111676626e-05,0.00017728002447814362,9.021899463821509e-05,1.7865498860736295e-05,-9.514137551791535e-06,0.001571537231929022,-0.000780149273428947,-5.544103347201044e-07,-0.000120292813066765,-5.90815878137537e-05,-0.00041317343465142913,-0.00015455633102771745,-0.16037636995315552,18.154138565063477,-1.0926239490509033,-18.198274612426758,-0.8618064522743225,-2.2424349784851074,0.22098104655742645,0
47,0.23035550117492676,0.13260537385940552,-18.154138565063477,1.1164276599884033,18.222078323364258,0.8499045968055725,2.2552523612976074,-0.15231649577617645,0.0,0.0,0.0,0.0,0.0,0.0,0.0,0.10423678029021013,0.5541247999947306,0.2918179477163838,0.5814066755266413,0.4374689250924268,0.06688022293919653,-0.19860421467691475,-0.609348125620892,-0.05749667077367765,-0.6666249983926354,-2.5947377137437435,-0.05570727463065482,2.5079567375712926,0.8763130822977272,-0.6090851748156966,-0.05753196718556838,-0.666603097082616,-2.5945565370258534,-0.05562143941554,2.507976027223799,0.8763108487046415,-0.0010344422458302882,0.00022846635243987582,-0.0007431513259881763,-0.0005637146294940214,0.0003220455602045833,9.814387336975955e-05,-0.0016011984317091,0.0,0.0,0.0,0.0,0.0,0.0,0.0,0.0002629508051954499,-3.529641189073396e-05,2.1901310019445397e-05,0.00018117671789008583,8.583521511482117e-05,1.9289652506415678e-05,-2.2335930857098063e-06,0.0010344422458302882,-0.00022846635243987582,0.0007431513259881763,0.0005637146294940214,-0.0003220455602045833,-9.814387336975955e-05,0.0016011984317091,-0.13260537385940552,18.154138565063477,-1.1164276599884033,-18.222078323364258,-0.8499045968055725,-2.2552523612976074,0.15231649577617645,0
48,0.23499846458435059,0.13260537385940552,-18.154138565063477,1.1164276599884033,18.222078323364258,0.8499045968055725,2.2552523612976074,-0.15231649577617645,0.0,0.0,0.0,0.0,0.0,0.0,0.0,0.10423678029021013,0.5541247999947306,0.2918179477163838,0.5814066755266413,0.4374689250924268,0.06688022293919653,-0.19860421467691475,-0.609348125620892,-0.05749667077367765,-0.6666249983926354,-2.5947377137437435,-0.05570727463065482,2.5079567375712926,0.8763130822977272,-0.6090851748156966,-0.05753196718556838,-0.666603097082616,-2.5945565370258534,-0.05562143941554,2.507976027223799,0.8763108487046415,-0.0010344422458302882,0.00022846635243987582,-0.0007431513259881763,-0.0005637146294940214,0.0003220455602045833,9.814387336975955e-05,-0.0016011984317091,0.0,0.0,0.0,0.0,0.0,0.0,0.0,0.0002629508051954499,-3.529641189073396e-05,2.1901310019445397e-05,0.00018117671789008583,8.583521511482117e-05,1.9289652506415678e-05,-2.2335930857098063e-06,0.0010344422458302882,-0.00022846635243987582,0.0007431513259881763,0.0005637146294940214,-0.0003220455602045833,-9.814387336975955e-05,0.0016011984317091,-0.13260537385940552,18.154138565063477,-1.1164276599884033,-18.222078323364258,-0.8499045968055725,-2.2552523612976074,0.15231649577617645,0
49,0.24000167846679688,0.13260537385940552,-18.154138565063477,1.1164276599884033,18.222078323364258,0.8499045968055725,2.2552523612976074,-0.15231649577617645,0.0,0.0,0.0,0.0,0.0,0.0,0.0,0.10423678029021013,0.5541247999947306,0.2918179477163838,0.5814066755266413,0.4374689250924268,0.06688022293919653,-0.19860421467691475,-0.609348125620892,-0.05749667077367765,-0.6666249983926354,-2.5947377137437435,-0.05570727463065482,2.5079567375712926,0.8763130822977272,-0.6090851748156966,-0.05753196718556838,-0.666603097082616,-2.5945565370258534,-0.05562143941554,2.507976027223799,0.8763108487046415,-0.0010344422458302882,0.00022846635243987582,-0.0007431513259881763,-0.0005637146294940214,0.0003220455602045833,9.814387336975955e-05,-0.0016011984317091,0.0,0.0,0.0,0.0,0.0,0.0,0.0,0.0002629508051954499,-3.529641189073396e-05,2.1901310019445397e-05,0.00018117671789008583,8.583521511482117e-05,1.9289652506415678e-05,-2.2335930857098063e-06,0.0010344422458302882,-0.00022846635243987582,0.0007431513259881763,0.0005637146294940214,-0.0003220455602045833,-9.814387336975955e-05,0.0016011984317091,-0.13260537385940552,18.154138565063477,-1.1164276599884033,-18.222078323364258,-0.8499045968055725,-2.2552523612976074,0.15231649577617645,0
50,0.24501252174377441,0.13260537385940552,-18.154138565063477,1.1164276599884033,18.222078323364258,0.8499045968055725,2.2552523612976074,-0.15231649577617645,0.0,0.0,0.0,0.0,0.0,0.0,0.0,0.10423678029021013,0.5541247999947306,0.2918179477163838,0.5814066755266413,0.4374689250924268,0.06688022293919653,-0.19860421467691475,-0.609348125620892,-0.05749667077367765,-0.6666249983926354,-2.5947377137437435,-0.05570727463065482,2.5079567375712926,0.8763130822977272,-0.6090851748156966,-0.05753196718556838,-0.666603097082616,-2.5945565370258534,-0.05562143941554,2.507976027223799,0.8763108487046415,-0.0010344422458302882,0.00022846635243987582,-0.0007431513259881763,-0.0005637146294940214,0.0003220455602045833,9.814387336975955e-05,-0.0016011984317091,0.0,0.0,0.0,0.0,0.0,0.0,0.0,0.0002629508051954499,-3.529641189073396e-05,2.1901310019445397e-05,0.00018117671789008583,8.583521511482117e-05,1.9289652506415678e-05,-2.2335930857098063e-06,0.0010344422458302882,-0.00022846635243987582,0.0007431513259881763,0.0005637146294940214,-0.0003220455602045833,-9.814387336975955e-05,0.0016011984317091,-0.13260537385940552,18.154138565063477,-1.1164276599884033,-18.222078323364258,-0.8499045968055725,-2.2552523612976074,0.15231649577617645,0
51,0.24999642372131348,0.13260537385940552,-18.106531143188477,1.0926239490509033,18.198274612426758,0.8682151436805725,2.2552523612976074,-0.20724813640117645,0.0,0.0,0.0,0.0,0.0,0.0,0.0,0.1126202921210271,0.5543278102501775,0.3003339821438119,0.5792015226568652,0.436464821171491,0.0674752371107647,-0.19624988053322096,-0.609348125620892,-0.05750001164538818,-0.6666233280657963,-2.5947338170880334,-0.05571167519233236,2.5079567375712926,0.876319190175923,-0.6090851748156966,-0.05753196718556838,-0.666603097082616,-2.5945565370258534,-0.05562143941554,2.507976027223799,0.8763108487046415,-0.0002022886503840618,-0.00032832037817782895,0.0004318624997321499,0.00043687899775014176,-0.00027050106362488653,-0.00034867126137601463,0.0005698085943664139,0.0,0.0,0.0,0.0,0.0,0.0,0.0,0.0002629508051954499,-3.19555401802063e-05,2.023098318026939e-05,0.00017728006217998526,9.023577679236061e-05,1.9289652506415678e-05,-8.341471281481105e-06,0.0002022886503840618,0.00032832037817782895,-0.0004318624997321499,-0.00043687899775014176,0.00027050106362488653,0.00034867126137601463,-0.0005698085943664139,-0.13260537385940552,18.106531143188477,-1.0926239490509033,-18.198274612426758,-0.8682151436805725,-2.2552523612976074,0.20724813640117645,0
52,0.25499629974365234,0.13260537385940552,-18.106531143188477,1.0926239490509033,18.198274612426758,0.8682151436805725,2.2552523612976074,-0.20724813640117645,0.0,0.0,0.0,0.0,0.0,0.0,0.0,0.1126202921210271,0.5543278102501775,0.3003339821438119,0.5792015226568652,0.436464821171491,0.0674752371107647,-0.19624988053322096,-0.609348125620892,-0.05750001164538818,-0.6666233280657963,-2.5947338170880334,-0.05571167519233236,2.5079567375712926,0.876319190175923,-0.6090851748156966,-0.05753196718556838,-0.666603097082616,-2.5945565370258534,-0.05562143941554,2.507976027223799,0.8763108487046415,-0.0002022886503840618,-0.00032832037817782895,0.0004318624997321499,0.00043687899775014176,-0.00027050106362488653,-0.00034867126137601463,0.0005698085943664139,0.0,0.0,0.0,0.0,0.0,0.0,0.0,0.0002629508051954499,-3.19555401802063e-05,2.023098318026939e-05,0.00017728006217998526,9.023577679236061e-05,1.9289652506415678e-05,-8.341471281481105e-06,0.0002022886503840618,0.00032832037817782895,-0.0004318624997321499,-0.00043687899775014176,0.00027050106362488653,0.00034867126137601463,-0.0005698085943664139,-0.13260537385940552,18.106531143188477,-1.0926239490509033,-18.198274612426758,-0.8682151436805725,-2.2552523612976074,0.20724813640117645,0
53,0.26000475883483887,0.10880166292190552,-18.031152725219727,1.1164276599884033,18.222078323364258,0.8563132882118225,2.2296175956726074,-0.16604940593242645,0.0,0.0,0.0,0.0,0.0,0.0,0.0,0.10852731282083708,0.5580216418627078,0.2927437148255756,0.5755550873213613,0.43688362848333784,0.06646845602970874,-0.19667663052179116,-0.6093464551850368,-0.057505301358929846,-0.6666257395335323,-2.5947355699024857,-0.05571116784903936,2.507959585878584,0.876314612539278,-0.6090851748156966,-0.05753196718556838,-0.666603097082616,-2.5945565370258534,-0.05562143941554,2.507976027223799,0.8763108487046415,2.1474405692062336e-05,-0.0008859460146019966,-0.00030539224492151333,-0.0005363865202176815,0.000164499334318071,0.0004584198660710293,-0.0014454253859461945,0.0,0.0,0.0,0.0,0.0,0.0,0.0,0.00026128036934025545,-2.6665826638537504e-05,2.2642450916321444e-05,0.00017903287663223466,8.972843349935866e-05,1.6441345215056913e-05,-3.7638346365165276e-06,-2.1474405692062336e-05,0.0008859460146019966,0.00030539224492151333,0.0005363865202176815,-0.000164499334318071,-0.0004584198660710293,0.0014454253859461945,-0.10880166292190552,18.031152725219727,-1.1164276599884033,-18.222078323364258,-0.8563132882118225,-2.2296175956726074,0.16604940593242645,0
54,0.2649960517883301,0.10880166292190552,-18.031152725219727,1.1164276599884033,18.222078323364258,0.8563132882118225,2.2296175956726074,-0.16604940593242645,0.0,0.0,0.0,0.0,0.0,0.0,0.0,0.10852731282083708,0.5580216418627078,0.2927437148255756,0.5755550873213613,0.43688362848333784,0.06646845602970874,-0.19667663052179116,-0.6093464551850368,-0.057505301358929846,-0.6666257395335323,-2.5947355699024857,-0.05571116784903936,2.507959585878584,0.876314612539278,-0.6090851748156966,-0.05753196718556838,-0.666603097082616,-2.5945565370258534,-0.05562143941554,2.507976027223799,0.8763108487046415,2.1474405692062336e-05,-0.0008859460146019966,-0.00030539224492151333,-0.0005363865202176815,0.000164499334318071,0.0004584198660710293,-0.0014454253859461945,0.0,0.0,0.0,0.0,0.0,0.0,0.0,0.00026128036934025545,-2.6665826638537504e-05,2.2642450916321444e-05,0.00017903287663223466,8.972843349935866e-05,1.6441345215056913e-05,-3.7638346365165276e-06,-2.1474405692062336e-05,0.0008859460146019966,0.00030539224492151333,0.0005363865202176815,-0.000164499334318071,-0.0004584198660710293,0.0014454253859461945,-0.10880166292190552,18.031152725219727,-1.1164276599884033,-18.222078323364258,-0.8563132882118225,-2.2296175956726074,0.16604940593242645,0
55,0.2702345848083496,0.10880166292190552,-18.031152725219727,1.1164276599884033,18.198274612426758,0.8563132882118225,2.2360262870788574,-0.22098104655742645,0.0,0.0,0.0,0.0,0.0,0.0,0.0,0.11206171215380097,0.5566045624972998,0.2959198772743476,0.5808912363661125,0.43712559818753355,0.06594846024160726,-0.1973079231119195,-0.6093464551850368,-0.057505301358929846,-0.666625306912748,-2.5947338170507965,-0.05571031306762808,2.507958873801761,0.876320716054903,-0.6090851748156966,-0.05753196718556838,-0.666603097082616,-2.5945565370258534,-0.05562143941554,2.507976027223799,0.8763108487046415,0.0001124109201355984,-0.0014752107335825667,7.164259807142449e-05,-0.0001651050788800991,0.00033023961532898337,0.0004186530268075674,0.0003870338412798228,0.0,0.0,0.0,0.0,0.0,0.0,0.0,0.00026128036934025545,-2.6665826638537504e-05,2.220983013201394e-05,0.00017728002494310502,8.887365208808118e-05,1.7153422037896604e-05,-9.867350261538732e-06,-0.0001124109201355984,0.0014752107335825667,-7.164259807142449e-05,0.0001651050788800991,-0.00033023961532898337,-0.0004186530268075674,-0.0003870338412798228,-0.10880166292190552,18.031152725219727,-1.1164276599884033,-18.198274612426758,-0.8563132882118225,-2.2360262870788574,0.22098104655742645,0
56,0.27499914169311523,0.10880166292190552,-18.031152725219727,1.1164276599884033,18.198274612426758,0.8563132882118225,2.2360262870788574,-0.22098104655742645,0.0,0.0,0.0,0.0,0.0,0.0,0.0,0.11206171215380097,0.5566045624972998,0.2959198772743476,0.5808912363661125,0.43712559818753355,0.06594846024160726,-0.1973079231119195,-0.6093464551850368,-0.057505301358929846,-0.666625306912748,-2.5947338170507965,-0.05571031306762808,2.507958873801761,0.876320716054903,-0.6090851748156966,-0.05753196718556838,-0.666603097082616,-2.5945565370258534,-0.05562143941554,2.507976027223799,0.8763108487046415,0.0001124109201355984,-0.0014752107335825667,7.164259807142449e-05,-0.0001651050788800991,0.00033023961532898337,0.0004186530268075674,0.0003870338412798228,0.0,0.0,0.0,0.0,0.0,0.0,0.0,0.00026128036934025545,-2.6665826638537504e-05,2.220983013201394e-05,0.00017728002494310502,8.887365208808118e-05,1.7153422037896604e-05,-9.867350261538732e-06,-0.0001124109201355984,0.0014752107335825667,-7.164259807142449e-05,0.0001651050788800991,-0.00033023961532898337,-0.0004186530268075674,-0.0003870338412798228,-0.10880166292190552,18.031152725219727,-1.1164276599884033,-18.198274612426758,-0.8563132882118225,-2.2360262870788574,0.22098104655742645,0
57,0.28000879287719727,0.05722695589065552,-18.106531143188477,1.0926239490509033,18.198274612426758,0.8682151436805725,2.2424349784851074,-0.21457235515117645,0.0,0.0,0.0,0.0,0.0,0.0,0.0,0.10436844971874527,0.5571044705248556,0.2908853982896904,0.5852191553815564,0.4378645337591733,0.06612893577051951,-0.1985524347202262,-0.6093425930736125,-0.05750001164538818,-0.6666257818055974,-2.5947338170503316,-0.05570965842909115,2.5079581617249382,0.8763200039780801,-0.6090851748156966,-0.05753196718556838,-0.666603097082616,-2.5945565370258534,-0.05562143941554,2.507976027223799,0.8763108487046415,0.0009246298205904917,8.217022083696226e-05,0.00028848944798110133,0.00017287938159614026,-6.070163551841828e-05,-0.006866708236152711,0.0008318826809570784,0.0,0.0,0.0,0.0,0.0,0.0,0.0,0.0002574182579159201,-3.19555401802063e-05,2.2684722981392014e-05,0.00017728002447814362,8.821901355114681e-05,1.7865498860736295e-05,-9.155273438588019e-06,-0.0009246298205904917,-8.217022083696226e-05,-0.00028848944798110133,-0.00017287938159614026,6.070163551841828e-05,0.006866708236152711,-0.0008318826809570784,-0.05722695589065552,18.106531143188477,-1.0926239490509033,-18.198274612426758,-0.8682151436805725,-2.2424349784851074,0.21457235515117645,0
58,0.28499794006347656,0.05722695589065552,-18.106531143188477,1.0926239490509033,18.198274612426758,0.8682151436805725,2.2424349784851074,-0.21457235515117645,0.0,0.0,0.0,0.0,0.0,0.0,0.0,0.10436844971874527,0.5571044705248556,0.2908853982896904,0.5852191553815564,0.4378645337591733,0.06612893577051951,-0.1985524347202262,-0.6093425930736125,-0.05750001164538818,-0.6666257818055974,-2.5947338170503316,-0.05570965842909115,2.5079581617249382,0.8763200039780801,-0.6090851748156966,-0.05753196718556838,-0.666603097082616,-2.5945565370258534,-0.05562143941554,2.507976027223799,0.8763108487046415,0.0009246298205904917,8.217022083696226e-05,0.00028848944798110133,0.00017287938159614026,-6.070163551841828e-05,-0.006866708236152711,0.0008318826809570784,0.0,0.0,0.0,0.0,0.0,0.0,0.0,0.0002574182579159201,-3.19555401802063e-05,2.2684722981392014e-05,0.00017728002447814362,8.821901355114681e-05,1.7865498860736295e-05,-9.155273438588019e-06,-0.0009246298205904917,-8.217022083696226e-05,-0.00028848944798110133,-0.00017287938159614026,6.070163551841828e-05,0.006866708236152711,-0.0008318826809570784,-0.05722695589065552,18.106531143188477,-1.0926239490509033,-18.198274612426758,-0.8682151436805725,-2.2424349784851074,0.21457235515117645,0
59,0.2900199890136719,0.10880166292190552,-18.106531143188477,1.1164276599884033,18.198274612426758,0.8618064522743225,2.2488436698913574,-0.23471395671367645,0.0,0.0,0.0,0.0,0.0,0.0,0.0,0.10642686511487547,0.5574556056748484,0.294331936187706,0.5858749408965048,0.4379043495466197,0.06655292504415901,-0.1981383329275773,-0.60934645518458,-0.05750001164538818,-0.6666249988695088,-2.5947338170503316,-0.05570735617927488,2.5079574496481154,0.8763222417723038,-0.6090851748156966,-0.05753196718556838,-0.666603097082616,-2.5945565370258534,-0.05562143941554,2.507976027223799,0.8763108487046415,-0.00022446284655266633,-0.0005582060141283777,-0.0005594290220183939,1.8341975078652796e-05,-0.00015561159492857648,-0.0002545037067959414,0.0012515692146623564,0.0,0.0,0.0,0.0,0.0,0.0,0.0,0.00026128036888339867,-3.19555401802063e-05,2.1901786892764008e-05,0.00017728002447814362,8.591676373487928e-05,1.8577575683575986e-05,-1.1393067662290868e-05,0.00022446284655266633,0.0005582060141283777,0.0005594290220183939,-1.8341975078652796e-05,0.00015561159492857648,0.0002545037067959414,-0.0012515692146623564,-0.10880166292190552,18.106531143188477,-1.1164276599884033,-18.198274612426758,-0.8618064522743225,-2.2488436698913574,0.23471395671367645,0
60,0.2950019836425781,0.10880166292190552,-18.106531143188477,1.1164276599884033,18.198274612426758,0.8618064522743225,2.2488436698913574,-0.23471395671367645,0.0,0.0,0.0,0.0,0.0,0.0,0.0,0.10642686511487547,0.5574556056748484,0.294331936187706,0.5858749408965048,0.4379043495466197,0.06655292504415901,-0.1981383329275773,-0.60934645518458,-0.05750001164538818,-0.6666249988695088,-2.5947338170503316,-0.05570735617927488,2.5079574496481154,0.8763222417723038,-0.6090851748156966,-0.05753196718556838,-0.666603097082616,-2.5945565370258534,-0.05562143941554,2.507976027223799,0.8763108487046415,-0.00022446284655266633,-0.0005582060141283777,-0.0005594290220183939,1.8341975078652796e-05,-0.00015561159492857648,-0.0002545037067959414,0.0012515692146623564,0.0,0.0,0.0,0.0,0.0,0.0,0.0,0.00026128036888339867,-3.19555401802063e-05,2.1901786892764008e-05,0.00017728002447814362,8.591676373487928e-05,1.8577575683575986e-05,-1.1393067662290868e-05,0.00022446284655266633,0.0005582060141283777,0.0005594290220183939,-1.8341975078652796e-05,0.00015561159492857648,0.0002545037067959414,-0.0012515692146623564,-0.10880166292190552,18.106531143188477,-1.1164276599884033,-18.198274612426758,-0.8618064522743225,-2.2488436698913574,0.23471395671367645,0
61,0.30001020431518555,0.13260537385940552,-18.130334854125977,1.1441986560821533,18.245882034301758,0.8563132882118225,2.2552523612976074,-0.15964071452617645,0.0,0.0,0.0,0.0,0.0,0.0,0.0,0.11134059611409243,0.5595416079551945,0.297472676498665,0.579311627916317,0.43741379827875443,0.06571256760708494,-0.19997955760984992,-0.6093481246215763,-0.05750046959205677,-0.6666269473797133,-2.594737157922042,-0.055711141339356875,2.5079567375712926,0.8763139004624542,-0.6090851748156966,-0.05753196718556838,-0.666603097082616,-2.5945565370258534,-0.05562143941554,2.507976027223799,0.8763108487046415,-0.00014050692986567818,0.0003528260179650045,-0.0008514640544020099,-0.0009023509307722052,0.0002859789404270819,-6.633874986298e-05,-0.001536240865297057,0.0,0.0,0.0,0.0,0.0,0.0,0.0,0.0002629498058797086,-3.149759351161324e-05,2.3850297097283146e-05,0.0001806208961885325,8.970192381687475e-05,1.9289652506415678e-05,-3.0517578126776357e-06,0.00014050692986567818,-0.0003528260179650045,0.0008514640544020099,0.0009023509307722052,-0.0002859789404270819,6.633874986298e-05,0.001536240865297057,-0.13260537385940552,18.130334854125977,-1.1441986560821533,-18.245882034301758,-0.8563132882118225,-2.2552523612976074,0.15964071452617645,0
62,0.3049941062927246,0.13260537385940552,-18.130334854125977,1.1441986560821533,18.245882034301758,0.8563132882118225,2.2552523612976074,-0.15964071452617645,0.0,0.0,0.0,0.0,0.0,0.0,0.0,0.11134059611409243,0.5595416079551945,0.297472676498665,0.579311627916317,0.43741379827875443,0.06571256760708494,-0.19997955760984992,-0.6093481246215763,-0.05750046959205677,-0.6666269473797133,-2.594737157922042,-0.055711141339356875,2.5079567375712926,0.8763139004624542,-0.6090851748156966,-0.05753196718556838,-0.666603097082616,-2.5945565370258534,-0.05562143941554,2.507976027223799,0.8763108487046415,-0.00014050692986567818,0.0003528260179650045,-0.0008514640544020099,-0.0009023509307722052,0.0002859789404270819,-6.633874986298e-05,-0.001536240865297057,0.0,0.0,0.0,0.0,0.0,0.0,0.0,0.0002629498058797086,-3.149759351161324e-05,2.3850297097283146e-05,0.0001806208961885325,8.970192381687475e-05,1.9289652506415678e-05,-3.0517578126776357e-06,0.00014050692986567818,-0.0003528260179650045,0.0008514640544020099,0.0009023509307722052,-0.0002859789404270819,6.633874986298e-05,0.001536240865297057,-0.13260537385940552,18.130334854125977,-1.1441986560821533,-18.245882034301758,-0.8563132882118225,-2.2552523612976074,0.15964071452617645,0
63,0.3099961280822754,0.13260537385940552,-18.130334854125977,1.1441986560821533,18.222078323364258,0.8682151436805725,2.2360262870788574,-0.20083944499492645,0.0,0.0,0.0,0.0,0.0,0.0,0.0,0.10797274462001194,0.5561408046152625,0.29147139488008356,0.5776339610017952,0.43796301306931407,0.06654131157268107,-0.19855228240654715,-0.6093481256208865,-0.0574983412215477,-0.6666294139454627,-2.594735487486187,-0.05571238076817079,2.507958873801761,0.8763184780991738,-0.6090851748156966,-0.05753196718556838,-0.666603097082616,-2.5945565370258534,-0.05562143941554,2.507976027223799,0.8763108487046415,-6.500585837477477e-05,0.00027791004813929065,-0.0007556905529607284,-0.0005207746878520033,-1.1728799316687988e-06,0.000517518166802718,0.00028634603122869453,0.0,0.0,0.0,0.0,0.0,0.0,0.0,0.0002629508051898988,-3.362596402068513e-05,2.63168628467092e-05,0.0001789504603335601,9.094135263078978e-05,1.7153422037896604e-05,-7.629394532360223e-06,6.500585837477477e-05,-0.00027791004813929065,0.0007556905529607284,0.0005207746878520033,1.1728799316687988e-06,-0.000517518166802718,-0.00028634603122869453,-0.13260537385940552,18.130334854125977,-1.1441986560821533,-18.222078323364258,-0.8682151436805725,-2.2360262870788574,0.20083944499492645,0
64,0.3150019645690918,0.13260537385940552,-18.130334854125977,1.1441986560821533,18.222078323364258,0.8682151436805725,2.2360262870788574,-0.20083944499492645,0.0,0.0,0.0,0.0,0.0,0.0,0.0,0.10797274462001194,0.5561408046152625,0.29147139488008356,0.5776339610017952,0.43796301306931407,0.06654131157268107,-0.19855228240654715,-0.6093481256208865,-0.0574983412215477,-0.6666294139454627,-2.594735487486187,-0.05571238076817079,2.507958873801761,0.8763184780991738,-0.6090851748156966,-0.05753196718556838,-0.666603097082616,-2.5945565370258534,-0.05562143941554,2.507976027223799,0.8763108487046415,-6.500585837477477e-05,0.00027791004813929065,-0.0007556905529607284,-0.0005207746878520033,-1.1728799316687988e-06,0.000517518166802718,0.00028634603122869453,0.0,0.0,0.0,0.0,0.0,0.0,0.0,0.0002629508051898988,-3.362596402068513e-05,2.63168628467092e-05,0.0001789504603335601,9.094135263078978e-05,1.7153422037896604e-05,-7.629394532360223e-06,6.500585837477477e-05,-0.00027791004813929065,0.0007556905529607284,0.0005207746878520033,1.1728799316687988e-06,-0.000517518166802718,-0.00028634603122869453,-0.13260537385940552,18.130334854125977,-1.1441986560821533,-18.222078323364258,-0.8682151436805725,-2.2360262870788574,0.20083944499492645,0
65,0.3199808597564697,0.18418008089065552,-18.078760147094727,1.1441986560821533,18.245882034301758,0.8618064522743225,2.2360262870788574,-0.21457235515117645,0.0,0.0,0.0,0.0,0.0,0.0,0.0,0.11892625474123626,0.5583534479880408,0.3013955265719429,0.5755255167006871,0.43824231485295,0.06651799731490217,-0.19818954246496406,-0.6093517448985785,-0.05750196048721939,-0.6666271877381684,-2.594737157922042,-0.055711785303630176,2.507958873801761,0.8763198818798594,-0.6090851748156966,-0.05753196718556838,-0.666603097082616,-2.5945565370258534,-0.05562143941554,2.507976027223799,0.8763108487046415,-0.0011335742238600469,-0.0004546111796881681,-0.00021827144115503123,-0.0013167150396830544,7.65242949445114e-05,0.0005324727244437042,0.0004284040569433396,0.0,0.0,0.0,0.0,0.0,0.0,0.0,0.00026657008288188955,-3.0006698348995775e-05,2.409065555242229e-05,0.0001806208961885325,9.034588809017641e-05,1.7153422037896604e-05,-9.03317521794289e-06,0.0011335742238600469,0.0004546111796881681,0.00021827144115503123,0.0013167150396830544,-7.65242949445114e-05,-0.0005324727244437042,-0.0004284040569433396,-0.18418008089065552,18.078760147094727,-1.1441986560821533,-18.245882034301758,-0.8618064522743225,-2.2360262870788574,0.21457235515117645,0
66,0.3249986171722412,0.18418008089065552,-18.078760147094727,1.1441986560821533,18.245882034301758,0.8618064522743225,2.2360262870788574,-0.21457235515117645,0.0,0.0,0.0,0.0,0.0,0.0,0.0,0.11892625474123626,0.5583534479880408,0.3013955265719429,0.5755255167006871,0.43824231485295,0.06651799731490217,-0.19818954246496406,-0.6093517448985785,-0.05750196048721939,-0.6666271877381684,-2.594737157922042,-0.055711785303630176,2.507958873801761,0.8763198818798594,-0.6090851748156966,-0.05753196718556838,-0.666603097082616,-2.5945565370258534,-0.05562143941554,2.507976027223799,0.8763108487046415,-0.0011335742238600469,-0.0004546111796881681,-0.00021827144115503123,-0.0013167150396830544,7.65242949445114e-05,0.0005324727244437042,0.0004284040569433396,0.0,0.0,0.0,0.0,0.0,0.0,0.0,0.00026657008288188955,-3.0006698348995775e-05,2.409065555242229e-05,0.0001806208961885325,9.034588809017641e-05,1.7153422037896604e-05,-9.03317521794289e-06,0.0011335742238600469,0.0004546111796881681,0.00021827144115503123,0.0013167150396830544,-7.65242949445114e-05,-0.0005324727244437042,-0.0004284040569433396,-0.18418008089065552,18.078760147094727,-1.1441986560821533,-18.245882034301758,-0.8618064522743225,-2.2360262870788574,0.21457235515117645,0
67,0.3300182819366455,0.10880166292190552,-18.106531143188477,1.1164276599884033,18.198274612426758,0.8499045968055725,2.2424349784851074,-0.20083944499492645,0.0,0.0,0.0,0.0,0.0,0.0,0.0,0.10906464023086976,0.5531734383998703,0.29300367843970165,0.5792835635845963,0.43907077040958403,0.06637642895847104,-0.1980501519802181,-0.6093464551850368,-0.057500011645388184,-0.6666278628326744,-2.5947338170503316,-0.05571033555381794,2.5079581617249382,0.8763184780984846,-0.6090851748156966,-0.05753196718556838,-0.666603097082616,-2.5945565370258534,-0.05562143941554,2.507976027223799,0.8763108487046415,-0.0003196430669860863,-0.00010281816720862199,0.00015707825792574007,0.0001600559381550954,0.0004146404681861116,0.0004906767552526328,0.0004936867702963215,0.0,0.0,0.0,0.0,0.0,0.0,0.0,0.00026128036934025545,-3.195554018019936e-05,2.4765750058386438e-05,0.00017728002447814362,8.889613827794268e-05,1.7865498860736295e-05,-7.629393843133769e-06,0.0003196430669860863,0.00010281816720862199,-0.00015707825792574007,-0.0001600559381550954,-0.0004146404681861116,-0.0004906767552526328,-0.0004936867702963215,-0.10880166292190552,18.106531143188477,-1.1164276599884033,-18.198274612426758,-0.8499045968055725,-2.2424349784851074,0.20083944499492645,0
68,0.33499956130981445,0.10880166292190552,-18.106531143188477,1.1164276599884033,18.198274612426758,0.8499045968055725,2.2424349784851074,-0.20083944499492645,0.0,0.0,0.0,0.0,0.0,0.0,0.0,0.10906464023086976,0.5531734383998703,0.29300367843970165,0.5792835635845963,0.43907077040958403,0.06637642895847104,-0.1980501519802181,-0.6093464551850368,-0.057500011645388184,-0.6666278628326744,-2.5947338170503316,-0.05571033555381794,2.5079581617249382,0.8763184780984846,-0.6090851748156966,-0.05753196718556838,-0.666603097082616,-2.5945565370258534,-0.05562143941554,2.507976027223799,0.8763108487046415,-0.0003196430669860863,-0.00010281816720862199,0.00015707825792574007,0.0001600559381550954,0.0004146404681861116,0.0004906767552526328,0.0004936867702963215,0.0,0.0,0.0,0.0,0.0,0.0,0.0,0.00026128036934025545,-3.195554018019936e-05,2.4765750058386438e-05,0.00017728002447814362,8.889613827794268e-05,1.7865498860736295e-05,-7.629393843133769e-06,0.0003196430669860863,0.00010281816720862199,-0.00015707825792574007,-0.0001600559381550954,-0.0004146404681861116,-0.0004906767552526328,-0.0004936867702963215,-0.10880166292190552,18.106531143188477,-1.1164276599884033,-18.198274612426758,-0.8499045968055725,-2.2424349784851074,0.20083944499492645,0
69,0.3400077819824219,0.08103066682815552,-18.078760147094727,1.0410492420196533,18.198274612426758,0.8563132882118225,2.2488436698913574,-0.20083944499492645,0.0,0.0,0.0,0.0,0.0,0.0,0.0,0.10569189635850586,0.5557197680985203,0.2916132685246334,0.5789152511954193,0.4385620143104831,0.06562165952927396,-0.19824304156353734,-0.6093445063432057,-0.057501960487219325,-0.6666228380434772,-2.5947338170503316,-0.05571011180718791,2.5079574496481154,0.8763184780991738,-0.6090851748156966,-0.05753196718556838,-0.666603097082616,-2.5945565370258534,-0.05562143941554,2.507976027223799,0.8763108487046415,-0.00016038176195019895,-0.0005241905912311888,0.0006264271869634158,0.00025028421369881963,0.0002323973833668822,-0.00013981210131279036,-9.477220676399055e-05,0.0,0.0,0.0,0.0,0.0,0.0,0.0,0.00025933152750912125,-3.0006698349058225e-05,1.974096086121424e-05,0.00017728002447814362,8.867239164791346e-05,1.8577575683575986e-05,-7.629394532360223e-06,0.00016038176195019895,0.0005241905912311888,-0.0006264271869634158,-0.00025028421369881963,-0.0002323973833668822,0.00013981210131279036,9.477220676399055e-05,-0.08103066682815552,18.078760147094727,-1.0410492420196533,-18.198274612426758,-0.8563132882118225,-2.2488436698913574,0.20083944499492645,0
70,0.3450045585632324,0.08103066682815552,-18.078760147094727,1.0410492420196533,18.198274612426758,0.8563132882118225,2.2488436698913574,-0.20083944499492645,0.0,0.0,0.0,0.0,0.0,0.0,0.0,0.10569189635850586,0.5557197680985203,0.2916132685246334,0.5789152511954193,0.4385620143104831,0.06562165952927396,-0.19824304156353734,-0.6093445063432057,-0.057501960487219325,-0.6666228380434772,-2.5947338170503316,-0.05571011180718791,2.5079574496481154,0.8763184780991738,-0.6090851748156966,-0.05753196718556838,-0.666603097082616,-2.5945565370258534,-0.05562143941554,2.507976027223799,0.8763108487046415,-0.00016038176195019895,-0.0005241905912311888,0.0006264271869634158,0.00025028421369881963,0.0002323973833668822,-0.00013981210131279036,-9.477220676399055e-05,0.0,0.0,0.0,0.0,0.0,0.0,0.0,0.00025933152750912125,-3.0006698349058225e-05,1.974096086121424e-05,0.00017728002447814362,8.867239164791346e-05,1.8577575683575986e-05,-7.629394532360223e-06,0.00016038176195019895,0.0005241905912311888,-0.0006264271869634158,-0.00025028421369881963,-0.0002323973833668822,0.00013981210131279036,9.477220676399055e-05,-0.08103066682815552,18.078760147094727,-1.0410492420196533,-18.198274612426758,-0.8563132882118225,-2.2488436698913574,0.20083944499492645,0
71,0.3499946594238281,0.08103066682815552,-18.078760147094727,1.0410492420196533,18.198274612426758,0.8563132882118225,2.2488436698913574,-0.20083944499492645,0.0,0.0,0.0,0.0,0.0,0.0,0.0,0.10569189635850586,0.5557197680985203,0.2916132685246334,0.5789152511954193,0.4385620143104831,0.06562165952927396,-0.19824304156353734,-0.6093445063432057,-0.057501960487219325,-0.6666228380434772,-2.5947338170503316,-0.05571011180718791,2.5079574496481154,0.8763184780991738,-0.6090851748156966,-0.05753196718556838,-0.666603097082616,-2.5945565370258534,-0.05562143941554,2.507976027223799,0.8763108487046415,-0.00016038176195019895,-0.0005241905912311888,0.0006264271869634158,0.00025028421369881963,0.0002323973833668822,-0.00013981210131279036,-9.477220676399055e-05,0.0,0.0,0.0,0.0,0.0,0.0,0.0,0.00025933152750912125,-3.0006698349058225e-05,1.974096086121424e-05,0.00017728002447814362,8.867239164791346e-05,1.8577575683575986e-05,-7.629394532360223e-06,0.00016038176195019895,0.0005241905912311888,-0.0006264271869634158,-0.00025028421369881963,-0.0002323973833668822,0.00013981210131279036,9.477220676399055e-05,-0.08103066682815552,18.078760147094727,-1.0410492420196533,-18.198274612426758,-0.8563132882118225,-2.2488436698913574,0.20083944499492645,0
72,0.3549964427947998,0.08103066682815552,-18.078760147094727,1.0410492420196533,18.198274612426758,0.8563132882118225,2.2488436698913574,-0.20083944499492645,0.0,0.0,0.0,0.0,0.0,0.0,0.0,0.10569189635850586,0.5557197680985203,0.2916132685246334,0.5789152511954193,0.4385620143104831,0.06562165952927396,-0.19824304156353734,-0.6093445063432057,-0.057501960487219325,-0.6666228380434772,-2.5947338170503316,-0.05571011180718791,2.5079574496481154,0.8763184780991738,-0.6090851748156966,-0.05753196718556838,-0.666603097082616,-2.5945565370258534,-0.05562143941554,2.507976027223799,0.8763108487046415,-0.00016038176195019895,-0.0005241905912311888,0.0006264271869634158,0.00025028421369881963,0.0002323973833668822,-0.00013981210131279036,-9.477220676399055e-05,0.0,0.0,0.0,0.0,0.0,0.0,0.0,0.00025933152750912125,-3.0006698349058225e-05,1.974096086121424e-05,0.00017728002447814362,8.867239164791346e-05,1.8577575683575986e-05,-7.629394532360223e-06,0.00016038176195019895,0.0005241905912311888,-0.0006264271869634158,-0.00025028421369881963,-0.0002323973833668822,0.00013981210131279036,9.477220676399055e-05,-0.08103066682815552,18.078760147094727,-1.0410492420196533,-18.198274612426758,-0.8563132882118225,-2.2488436698913574,0.20083944499492645,0
73,0.3600656986236572,0.08103066682815552,-18.078760147094727,1.0688202381134033,18.170503616333008,0.8618064522743225,2.2424349784851074,-0.20083944499492645,0.0,0.0,0.0,0.0,0.0,0.0,0.0,0.10982223441835726,0.5550412879223613,0.2958149017497419,0.5819748096875771,0.437660228941377,0.06589389067998595,-0.19914713776653384,-0.6093445063432057,-0.057501960487219325,-0.6666216863542156,-2.5947318682085005,-0.05571091804248419,2.5079581617249382,0.8763184780991738,-0.6090851748156966,-0.05753196718556838,-0.666603097082616,-2.5945565370258534,-0.05562143941554,2.507976027223799,0.8763108487046415,0.00030696889825343254,-0.0005782409277623006,0.0005563501367430144,0.0009539871543647508,0.00010737819468956185,0.0001590086714837081,-0.000269251785683946,0.0,0.0,0.0,0.0,0.0,0.0,0.0,0.00025933152750912125,-3.0006698349058225e-05,1.8589271599589452e-05,0.00017533118264712044,8.947862694418801e-05,1.7865498860736295e-05,-7.629394532360223e-06,-0.00030696889825343254,0.0005782409277623006,-0.0005563501367430144,-0.0009539871543647508,-0.00010737819468956185,-0.0001590086714837081,0.000269251785683946,-0.08103066682815552,18.078760147094727,-1.0688202381134033,-18.170503616333008,-0.8618064522743225,-2.2424349784851074,0.20083944499492645,0
74,0.3650088310241699,0.08103066682815552,-18.078760147094727,1.0688202381134033,18.170503616333008,0.8618064522743225,2.2424349784851074,-0.20083944499492645,0.0,0.0,0.0,0.0,0.0,0.0,0.0,0.10982223441835726,0.5550412879223613,0.2958149017497419,0.5819748096875771,0.437660228941377,0.06589389067998595,-0.19914713776653384,-0.6093445063432057,-0.057501960487219325,-0.6666216863542156,-2.5947318682085005,-0.05571091804248419,2.5079581617249382,0.8763184780991738,-0.6090851748156966,-0.05753196718556838,-0.666603097082616,-2.5945565370258534,-0.05562143941554,2.507976027223799,0.8763108487046415,0.00030696889825343254,-0.0005782409277623006,0.0005563501367430144,0.0009539871543647508,0.00010737819468956185,0.0001590086714837081,-0.000269251785683946,0.0,0.0,0.0,0.0,0.0,0.0,0.0,0.00025933152750912125,-3.0006698349058225e-05,1.8589271599589452e-05,0.00017533118264712044,8.947862694418801e-05,1.7865498860736295e-05,-7.629394532360223e-06,-0.00030696889825343254,0.0005782409277623006,-0.0005563501367430144,-0.0009539871543647508,-0.00010737819468956185,-0.0001590086714837081,0.000269251785683946,-0.08103066682815552,18.078760147094727,-1.0688202381134033,-18.170503616333008,-0.8618064522743225,-2.2424349784851074,0.20083944499492645,0
75,0.37001514434814453,0.10880166292190552,-18.078760147094727,1.0926239490509033,18.222078323364258,0.8618064522743225,2.2424349784851074,-0.22830526530742645,0.0,0.0,0.0,0.0,0.0,0.0,0.0,0.10080636396847384,0.5536818510974628,0.286774486920804,0.5848854711989483,0.4376409875932577,0.06625022829770505,-0.20035827414803736,-0.6093464551850368,-0.057501960487219325,-0.6666261791802844,-2.594735487486187,-0.05570858434890946,2.5079581617249382,0.8763215296954808,-0.6090851748156966,-0.05753196718556838,-0.666603097082616,-2.5945565370258534,-0.05562143941554,2.507976027223799,0.8763108487046415,-0.0002846320514022574,-0.0007864819228097754,-0.0004177851383362688,-0.0002758210067125638,0.00011871203330363524,0.00011892525271116604,0.0013492942033716173,0.0,0.0,0.0,0.0,0.0,0.0,0.0,0.00026128036934025545,-3.0006698349058225e-05,2.3082097668436496e-05,0.0001789504603335601,8.714493336946239e-05,1.7865498860736295e-05,-1.0680990839340154e-05,0.0002846320514022574,0.0007864819228097754,0.0004177851383362688,0.0002758210067125638,-0.00011871203330363524,-0.00011892525271116604,-0.0013492942033716173,-0.10880166292190552,18.078760147094727,-1.0926239490509033,-18.222078323364258,-0.8618064522743225,-2.2424349784851074,0.22830526530742645,0
76,0.3749961853027344,0.10880166292190552,-18.078760147094727,1.0926239490509033,18.222078323364258,0.8618064522743225,2.2424349784851074,-0.22830526530742645,0.0,0.0,0.0,0.0,0.0,0.0,0.0,0.10080636396847384,0.5536818510974628,0.286774486920804,0.5848854711989483,0.4376409875932577,0.06625022829770505,-0.20035827414803736,-0.6093464551850368,-0.057501960487219325,-0.6666261791802844,-2.594735487486187,-0.05570858434890946,2.5079581617249382,0.8763215296954808,-0.6090851748156966,-0.05753196718556838,-0.666603097082616,-2.5945565370258534,-0.05562143941554,2.507976027223799,0.8763108487046415,-0.0002846320514022574,-0.0007864819228097754,-0.0004177851383362688,-0.0002758210067125638,0.00011871203330363524,0.00011892525271116604,0.0013492942033716173,0.0,0.0,0.0,0.0,0.0,0.0,0.0,0.00026128036934025545,-3.0006698349058225e-05,2.3082097668436496e-05,0.0001789504603335601,8.714493336946239e-05,1.7865498860736295e-05,-1.0680990839340154e-05,0.0002846320514022574,0.0007864819228097754,0.0004177851383362688,0.0002758210067125638,-0.00011871203330363524,-0.00011892525271116604,-0.0013492942033716173,-0.10880166292190552,18.078760147094727,-1.0926239490509033,-18.222078323364258,-0.8618064522743225,-2.2424349784851074,0.22830526530742645,0
77,0.3800055980682373,0.16037636995315552,-18.106531143188477,1.0926239490509033,18.170503616333008,0.8682151436805725,2.2424349784851074,-0.17337362468242645,0.0,0.0,0.0,0.0,0.0,0.0,0.0,0.10761255529328177,0.5587411342943801,0.29171682633355794,0.5810818228039809,0.4375896777301727,0.0646813801241894,-0.20017775607177093,-0.6093500744627232,-0.057500011645388184,-0.6666242751424435,-2.5947318692259853,-0.055712330448872555,2.5079581617249382,0.8763150731286508,-0.6090851748156966,-0.05753196718556838,-0.666603097082616,-2.5945565370258534,-0.05562143941554,2.507976027223799,0.8763108487046415,-0.0014638788541186027,0.000215655538069533,0.0010238279361079049,0.0008008924204774849,-0.0001490755453572362,6.214609403793245e-06,-0.0007854495239498901,0.0,0.0,0.0,0.0,0.0,0.0,0.0,0.0002648996470265841,-3.195554018019936e-05,2.1178059827486884e-05,0.00017533220013188355,9.089103333255466e-05,1.7865498860736295e-05,-4.2244240092692564e-06,0.0014638788541186027,-0.000215655538069533,-0.0010238279361079049,-0.0008008924204774849,0.0001490755453572362,-6.214609403793245e-06,0.0007854495239498901,-0.16037636995315552,18.106531143188477,-1.0926239490509033,-18.170503616333008,-0.8682151436805725,-2.2424349784851074,0.17337362468242645,0
78,0.3850119113922119,0.16037636995315552,-18.106531143188477,1.0926239490509033,18.170503616333008,0.8682151436805725,2.2424349784851074,-0.17337362468242645,0.0,0.0,0.0,0.0,0.0,0.0,0.0,0.10761255529328177,0.5587411342943801,0.29171682633355794,0.5810818228039809,0.4375896777301727,0.0646813801241894,-0.20017775607177093,-0.6093500744627232,-0.057500011645388184,-0.6666242751424435,-2.5947318692259853,-0.055712330448872555,2.5079581617249382,0.8763150731286508,-0.6090851748156966,-0.05753196718556838,-0.666603097082616,-2.5945565370258534,-0.05562143941554,2.507976027223799,0.8763108487046415,-0.0014638788541186027,0.000215655538069533,0.0010238279361079049,0.0008008924204774849,-0.0001490755453572362,6.214609403793245e-06,-0.0007854495239498901,0.0,0.0,0.0,0.0,0.0,0.0,0.0,0.0002648996470265841,-3.195554018019936e-05,2.1178059827486884e-05,0.00017533220013188355,9.089103333255466e-05,1.7865498860736295e-05,-4.2244240092692564e-06,0.0014638788541186027,-0.000215655538069533,-0.0010238279361079049,-0.0008008924204774849,0.0001490755453572362,-6.214609403793245e-06,0.0007854495239498901,-0.16037636995315552,18.106531143188477,-1.0926239490509033,-18.170503616333008,-0.8682151436805725,-2.2424349784851074,0.17337362468242645,0
79,0.39002394676208496,0.10880166292190552,-18.106531143188477,1.1164276599884033,18.198274612426758,0.8563132882118225,2.2552523612976074,-0.22098104655742645,0.0,0.0,0.0,0.0,0.0,0.0,0.0,0.11259850049620437,0.5589138933024533,0.2950978998478385,0.5797319914199965,0.4380179235346699,0.06398781195888302,-0.19861253934320627,-0.6093464551850368,-0.057500011645388184,-0.666627452390413,-2.594733817050337,-0.05571140428298193,2.5079567375712926,0.8763207160529092,-0.6090851748156966,-0.05753196718556838,-0.666603097082616,-2.5945565370258534,-0.05562143941554,2.507976027223799,0.8763108487046415,0.0008319622861528579,0.00013950614754379176,0.0006144152983347329,-8.119644515825744e-05,0.000116393535023079,-0.00027925385289127326,0.0004703368814544593,0.0,0.0,0.0,0.0,0.0,0.0,0.0,0.00026128036934025545,-3.195554018019936e-05,2.4355307796986025e-05,0.0001772800244834727,8.996486744192872e-05,1.9289652506415678e-05,-9.867348267689202e-06,-0.0008319622861528579,-0.00013950614754379176,-0.0006144152983347329,8.119644515825744e-05,-0.000116393535023079,0.00027925385289127326,-0.0004703368814544593,-0.10880166292190552,18.106531143188477,-1.1164276599884033,-18.198274612426758,-0.8563132882118225,-2.2552523612976074,0.22098104655742645,0
80,0.395007848739624,0.10880166292190552,-18.106531143188477,1.1164276599884033,18.198274612426758,0.8563132882118225,2.2552523612976074,-0.22098104655742645,0.0,0.0,0.0,0.0,0.0,0.0,0.0,0.11259850049620437,0.5589138933024533,0.2950978998478385,0.5797319914199965,0.4380179235346699,0.06398781195888302,-0.19861253934320627,-0.6093464551850368,-0.057500011645388184,-0.666627452390413,-2.594733817050337,-0.05571140428298193,2.5079567375712926,0.8763207160529092,-0.6090851748156966,-0.05753196718556838,-0.666603097082616,-2.5945565370258534,-0.05562143941554,2.507976027223799,0.8763108487046415,0.0008319622861528579,0.00013950614754379176,0.0006144152983347329,-8.119644515825744e-05,0.000116393535023079,-0.00027925385289127326,0.0004703368814544593,0.0,0.0,0.0,0.0,0.0,0.0,0.0,0.00026128036934025545,-3.195554018019936e-05,2.4355307796986025e-05,0.0001772800244834727,8.996486744192872e-05,1.9289652506415678e-05,-9.867348267689202e-06,-0.0008319622861528579,-0.00013950614754379176,-0.0006144152983347329,8.119644515825744e-05,-0.000116393535023079,0.00027925385289127326,-0.0004703368814544593,-0.10880166292190552,18.106531143188477,-1.1164276599884033,-18.198274612426758,-0.8563132882118225,-2.2552523612976074,0.22098104655742645,0
