rezayati/contactInterpretation/dataset/franka_main/labeled_data/link5/c3_7.csv
index,time,tau_J0,tau_J1,tau_J2,tau_J3,tau_J4,tau_J5,tau_J6,tau_J_d0,tau_J_d1,tau_J_d2,tau_J_d3,tau_J_d4,tau_J_d5,tau_J_d6,tau_ext0,tau_ext1,tau_ext2,tau_ext3,tau_ext4,tau_ext5,tau_ext6,q0,q1,q2,q3,q4,q5,q6,q_d0,q_d1,q_d2,q_d3,q_d4,q_d5,q_d6,dq0,dq1,dq2,dq3,dq4,dq5,dq6,dq_d0,dq_d1,dq_d2,dq_d3,dq_d4,dq_d5,dq_d6,e0,e1,e2,e3,e4,e5,e6,de0,de1,de2,de3,de4,de5,de6,etau_J0,etau_J1,etau_J2,etau_J3,etau_J4,etau_J5,etau_J6,label
1,0.0,-0.19667929410934448,-11.850122451782227,1.2671844959259033,21.717256546020508,0.3079124093055725,2.5207552909851074,-0.20083944499492645,0.0,0.0,0.0,0.0,0.0,0.0,0.0,-0.13555714727404944,0.48001709898576683,0.07877673490754075,0.42335589851231575,-0.21373312276764986,0.12641578195345327,-0.21872612372886735,0.17267932355822177,-0.48755940752474547,-0.11155794509984326,-1.9461365302609552,0.1337864404718081,2.595546303484175,0.9452468986428446,0.1728802376190821,-0.48752024683155326,-0.11147110072896137,-1.9463801863486305,0.1336059019074957,2.595550359778934,0.9452445589611904,0.0013238035600443327,-5.4047596415871144e-05,-0.00011770190263021546,-0.00023913008828762832,0.00032176532034159055,0.00017976478776629833,-0.0002865694842484653,0.0,0.0,0.0,0.0,0.0,0.0,0.0,0.00020091406086034103,3.9160693192208385e-05,8.684437088189723e-05,-0.00024365608767529245,-0.00018053856431241022,4.056294759191559e-06,-2.3396816541954024e-06,-0.0013238035600443327,5.4047596415871144e-05,0.00011770190263021546,0.00023913008828762832,-0.00032176532034159055,-0.00017976478776629833,0.0002865694842484653,0.19667929410934448,11.850122451782227,-1.2671844959259033,-21.717256546020508,-0.3079124093055725,-2.5207552909851074,0.20083944499492645,0
2,0.004935026168823242,-0.19667929410934448,-11.925500869750977,1.2156097888946533,21.717256546020508,0.3381248116493225,2.5271639823913574,-0.21457235515117645,0.0,0.0,0.0,0.0,0.0,0.0,0.0,-0.1401470480350489,0.46303731681621557,0.07128432463742192,0.42817416461004615,-0.21416451926612146,0.12731852677293973,-0.21807605732120963,0.17267932355822177,-0.4875567309186459,-0.1115521901323941,-1.9461377397532877,0.13378308353821433,2.595545591407352,0.9452484245217508,0.1728802376190821,-0.48752024683155326,-0.11147110072896137,-1.9463801863486305,0.1336059019074957,2.595550359778934,0.9452445589611904,0.0006348739969467901,0.000385095368152324,0.0005518632123486137,-0.00022232477476197973,-0.0007892084487123383,-7.710167811177792e-05,0.00040395494682828606,0.0,0.0,0.0,0.0,0.0,0.0,0.0,0.00020091406086034103,3.648408709261419e-05,8.108940343273807e-05,-0.00024244659534278235,-0.00017718163071864246,4.76837158203125e-06,-3.865560560423198e-06,-0.0006348739969467901,-0.000385095368152324,-0.0005518632123486137,0.00022232477476197973,0.0007892084487123383,7.710167811177792e-05,-0.00040395494682828606,0.19667929410934448,11.925500869750977,-1.2156097888946533,-21.717256546020508,-0.3381248116493225,-2.5271639823913574,0.21457235515117645,0
3,0.009787559509277344,-0.19667929410934448,-11.925500869750977,1.2156097888946533,21.717256546020508,0.3381248116493225,2.5271639823913574,-0.21457235515117645,0.0,0.0,0.0,0.0,0.0,0.0,0.0,-0.1401470480350489,0.46303731681621557,0.07128432463742192,0.42817416461004615,-0.21416451926612146,0.12731852677293973,-0.21807605732120963,0.17267932355822177,-0.4875567309186459,-0.1115521901323941,-1.9461377397532877,0.13378308353821433,2.595545591407352,0.9452484245217508,0.1728802376190821,-0.48752024683155326,-0.11147110072896137,-1.9463801863486305,0.1336059019074957,2.595550359778934,0.9452445589611904,0.0006348739969467901,0.000385095368152324,0.0005518632123486137,-0.00022232477476197973,-0.0007892084487123383,-7.710167811177792e-05,0.00040395494682828606,0.0,0.0,0.0,0.0,0.0,0.0,0.0,0.00020091406086034103,3.648408709261419e-05,8.108940343273807e-05,-0.00024244659534278235,-0.00017718163071864246,4.76837158203125e-06,-3.865560560423198e-06,-0.0006348739969467901,-0.000385095368152324,-0.0005518632123486137,0.00022232477476197973,0.0007892084487123383,7.710167811177792e-05,-0.00040395494682828606,0.19667929410934448,11.925500869750977,-1.2156097888946533,-21.717256546020508,-0.3381248116493225,-2.5271639823913574,0.21457235515117645,0
4,0.014828920364379883,-0.14510458707809448,-11.873926162719727,1.2433807849884033,21.717256546020508,0.3198142647743225,2.5143465995788574,-0.21457235515117645,0.0,0.0,0.0,0.0,0.0,0.0,0.0,-0.14601210062881784,0.46729316955797734,0.0663184432953337,0.4186184361577466,-0.21391816869022814,0.12673676916870671,-0.21757685734290896,0.17267570438904695,-0.487557512299583,-0.11155440264526853,-1.9461377134871947,0.13378511804342266,2.5955470155609977,0.9452484245217508,0.1728802376190821,-0.48752024683155326,-0.11147110072896137,-1.9463801863486305,0.1336059019074957,2.595550359778934,0.9452445589611904,-0.0009047911527367566,-0.001007694529766115,-0.0005470576037321316,-0.00013764074090728045,7.517697859543465e-05,0.0007309462670770839,0.00019758618121008584,0.0,0.0,0.0,0.0,0.0,0.0,0.0,0.00020453323003516433,3.726546802973463e-05,8.330191630716299e-05,-0.00024247286143586066,-0.00017921613592697394,3.3442179363518676e-06,-3.865560560423198e-06,0.0009047911527367566,0.001007694529766115,0.0005470576037321316,0.00013764074090728045,-7.517697859543465e-05,-0.0007309462670770839,-0.00019758618121008584,0.14510458707809448,11.873926162719727,-1.2433807849884033,-21.717256546020508,-0.3198142647743225,-2.5143465995788574,0.21457235515117645,0
5,0.01982879638671875,-0.14510458707809448,-11.873926162719727,1.2433807849884033,21.717256546020508,0.3198142647743225,2.5143465995788574,-0.21457235515117645,0.0,0.0,0.0,0.0,0.0,0.0,0.0,-0.14601210062881784,0.46729316955797734,0.0663184432953337,0.4186184361577466,-0.21391816869022814,0.12673676916870671,-0.21757685734290896,0.17267570438904695,-0.487557512299583,-0.11155440264526853,-1.9461377134871947,0.13378511804342266,2.5955470155609977,0.9452484245217508,0.1728802376190821,-0.48752024683155326,-0.11147110072896137,-1.9463801863486305,0.1336059019074957,2.595550359778934,0.9452445589611904,-0.0009047911527367566,-0.001007694529766115,-0.0005470576037321316,-0.00013764074090728045,7.517697859543465e-05,0.0007309462670770839,0.00019758618121008584,0.0,0.0,0.0,0.0,0.0,0.0,0.0,0.00020453323003516433,3.726546802973463e-05,8.330191630716299e-05,-0.00024247286143586066,-0.00017921613592697394,3.3442179363518676e-06,-3.865560560423198e-06,0.0009047911527367566,0.001007694529766115,0.0005470576037321316,0.00013764074090728045,-7.517697859543465e-05,-0.0007309462670770839,-0.00019758618121008584,0.14510458707809448,11.873926162719727,-1.2433807849884033,-21.717256546020508,-0.3198142647743225,-2.5143465995788574,0.21457235515117645,0
6,0.02482914924621582,-0.12130087614059448,-11.873926162719727,1.2433807849884033,21.693452835083008,0.3198142647743225,2.5143465995788574,-0.25485557317733765,0.0,0.0,0.0,0.0,0.0,0.0,0.0,-0.13872180433772724,0.4674790411304136,0.08022724137449648,0.4108414336578836,-0.2139230255326666,0.1254531862867522,-0.21709534536682953,0.17267403384468016,-0.48755748575613783,-0.11155650820379562,-1.9461339332526169,0.13378511804342266,2.5955470155609977,0.9452529004348649,0.1728802376190821,-0.48752024683155326,-0.11147110072896137,-1.9463801863486305,0.1336059019074957,2.595550359778934,0.9452445589611904,0.00043478200294351814,-0.0009139683415416677,0.0007051406703010686,0.00023598455256897225,-2.3045160642468068e-05,0.0003376280235613719,0.0020882338099502662,0.0,0.0,0.0,0.0,0.0,0.0,0.0,0.00020620377440194737,3.7238924584570565e-05,8.540747483425093e-05,-0.00024625309601367107,-0.00017921613592697394,3.3442179363518676e-06,-8.341473674455813e-06,-0.00043478200294351814,0.0009139683415416677,-0.0007051406703010686,-0.00023598455256897225,2.3045160642468068e-05,-0.0003376280235613719,-0.0020882338099502662,0.12130087614059448,11.873926162719727,-1.2433807849884033,-21.693452835083008,-0.3198142647743225,-2.5143465995788574,0.25485557317733765,0
7,0.02982497215270996,-0.12130087614059448,-11.873926162719727,1.2433807849884033,21.693452835083008,0.3198142647743225,2.5143465995788574,-0.25485557317733765,0.0,0.0,0.0,0.0,0.0,0.0,0.0,-0.13872180433772724,0.4674790411304136,0.08022724137449648,0.4108414336578836,-0.2139230255326666,0.1254531862867522,-0.21709534536682953,0.17267403384468016,-0.48755748575613783,-0.11155650820379562,-1.9461339332526169,0.13378511804342266,2.5955470155609977,0.9452529004348649,0.1728802376190821,-0.48752024683155326,-0.11147110072896137,-1.9463801863486305,0.1336059019074957,2.595550359778934,0.9452445589611904,0.00043478200294351814,-0.0009139683415416677,0.0007051406703010686,0.00023598455256897225,-2.3045160642468068e-05,0.0003376280235613719,0.0020882338099502662,0.0,0.0,0.0,0.0,0.0,0.0,0.0,0.00020620377440194737,3.7238924584570565e-05,8.540747483425093e-05,-0.00024625309601367107,-0.00017921613592697394,3.3442179363518676e-06,-8.341473674455813e-06,-0.00043478200294351814,0.0009139683415416677,-0.0007051406703010686,-0.00023598455256897225,2.3045160642468068e-05,-0.0003376280235613719,-0.0020882338099502662,0.12130087614059448,11.873926162719727,-1.2433807849884033,-21.693452835083008,-0.3198142647743225,-2.5143465995788574,0.25485557317733765,0
8,0.03482389450073242,-0.06972616910934448,-11.802515029907227,1.2909882068634033,21.693452835083008,0.3143211007118225,2.5143465995788574,-0.22830526530742645,0.0,0.0,0.0,0.0,0.0,0.0,0.0,-0.14723301512290177,0.46302345004442225,0.06302583151735962,0.4101872026463828,-0.21343777749218976,0.12489614560495764,-0.21711236678453133,0.17267042335643035,-0.48756257653654667,-0.11155986948890559,-1.9461339767812678,0.13378572839498518,2.5955470155609977,0.9452499504006571,0.1728802376190821,-0.48752024683155326,-0.11147110072896137,-1.9463801863486305,0.1336059019074957,2.595550359778934,0.9452445589611904,-0.0015693085307531918,-0.0011953119433616838,-0.0005034351604194003,0.00020976582161605413,0.00016648830411274522,0.00043520046618864764,0.000650424289228854,0.0,0.0,0.0,0.0,0.0,0.0,0.0,0.00020981426265176406,4.2329704993404604e-05,8.876875994422162e-05,-0.0002462095673627651,-0.00017982648748948726,3.3442179363518676e-06,-5.3914394666509935e-06,0.0015693085307531918,0.0011953119433616838,0.0005034351604194003,-0.00020976582161605413,-0.00016648830411274522,-0.00043520046618864764,-0.000650424289228854,0.06972616910934448,11.802515029907227,-1.2909882068634033,-21.693452835083008,-0.3143211007118225,-2.5143465995788574,0.22830526530742645,0
9,0.039825439453125,-0.06972616910934448,-11.802515029907227,1.2909882068634033,21.693452835083008,0.3143211007118225,2.5143465995788574,-0.22830526530742645,0.0,0.0,0.0,0.0,0.0,0.0,0.0,-0.14723301512290177,0.46302345004442225,0.06302583151735962,0.4101872026463828,-0.21343777749218976,0.12489614560495764,-0.21711236678453133,0.17267042335643035,-0.48756257653654667,-0.11155986948890559,-1.9461339767812678,0.13378572839498518,2.5955470155609977,0.9452499504006571,0.1728802376190821,-0.48752024683155326,-0.11147110072896137,-1.9463801863486305,0.1336059019074957,2.595550359778934,0.9452445589611904,-0.0015693085307531918,-0.0011953119433616838,-0.0005034351604194003,0.00020976582161605413,0.00016648830411274522,0.00043520046618864764,0.000650424289228854,0.0,0.0,0.0,0.0,0.0,0.0,0.0,0.00020981426265176406,4.2329704993404604e-05,8.876875994422162e-05,-0.0002462095673627651,-0.00017982648748948726,3.3442179363518676e-06,-5.3914394666509935e-06,0.0015693085307531918,0.0011953119433616838,0.0005034351604194003,-0.00020976582161605413,-0.00016648830411274522,-0.00043520046618864764,-0.000650424289228854,0.06972616910934448,11.802515029907227,-1.2909882068634033,-21.693452835083008,-0.3143211007118225,-2.5143465995788574,0.22830526530742645,0
10,0.044823646545410156,-0.14510458707809448,-11.826318740844727,1.3147919178009033,21.693452835083008,0.3198142647743225,2.5207552909851074,-0.17978231608867645,0.0,0.0,0.0,0.0,0.0,0.0,0.0,-0.1391651809345495,0.45648984081705446,0.07272253082767341,0.4170673613467672,-0.2138300438052301,0.12556876504226114,-0.2181621528123429,0.1726757042805519,-0.4875630018295857,-0.11156147069453573,-1.9461370788027932,0.13378511804342266,2.595546303484175,0.945244558961855,0.1728802376190821,-0.48752024683155326,-0.11147110072896137,-1.9463801863486305,0.1336059019074957,2.595550359778934,0.9452445589611904,0.0006575457636329599,0.0002547643420672404,-0.0005152725754332614,0.00035823073636437715,1.0446938062425199e-05,0.00016443545884440127,-0.0016776626586921925,0.0,0.0,0.0,0.0,0.0,0.0,0.0,0.0002045333385302106,4.275499803241267e-05,9.036996557436339e-05,-0.00024310754583733996,-0.00017921613592697394,4.056294759191559e-06,-6.645795025406187e-13,-0.0006575457636329599,-0.0002547643420672404,0.0005152725754332614,-0.00035823073636437715,-1.0446938062425199e-05,-0.00016443545884440127,0.0016776626586921925,0.14510458707809448,11.826318740844727,-1.3147919178009033,-21.693452835083008,-0.3198142647743225,-2.5207552909851074,0.17978231608867645,0
11,0.04982280731201172,-0.14510458707809448,-11.826318740844727,1.3147919178009033,21.693452835083008,0.3198142647743225,2.5207552909851074,-0.17978231608867645,0.0,0.0,0.0,0.0,0.0,0.0,0.0,-0.1391651809345495,0.45648984081705446,0.07272253082767341,0.4170673613467672,-0.2138300438052301,0.12556876504226114,-0.2181621528123429,0.1726757042805519,-0.4875630018295857,-0.11156147069453573,-1.9461370788027932,0.13378511804342266,2.595546303484175,0.945244558961855,0.1728802376190821,-0.48752024683155326,-0.11147110072896137,-1.9463801863486305,0.1336059019074957,2.595550359778934,0.9452445589611904,0.0006575457636329599,0.0002547643420672404,-0.0005152725754332614,0.00035823073636437715,1.0446938062425199e-05,0.00016443545884440127,-0.0016776626586921925,0.0,0.0,0.0,0.0,0.0,0.0,0.0,0.0002045333385302106,4.275499803241267e-05,9.036996557436339e-05,-0.00024310754583733996,-0.00017921613592697394,4.056294759191559e-06,-6.645795025406187e-13,-0.0006575457636329599,-0.0002547643420672404,0.0005152725754332614,-0.00035823073636437715,-1.0446938062425199e-05,-0.00016443545884440127,0.0016776626586921925,0.14510458707809448,11.826318740844727,-1.3147919178009033,-21.693452835083008,-0.3198142647743225,-2.5207552909851074,0.17978231608867645,0
12,0.05485248565673828,-0.14510458707809448,-11.774744033813477,1.2909882068634033,21.693452835083008,0.3262229561805725,2.5335726737976074,-0.20724813640117645,0.0,0.0,0.0,0.0,0.0,0.0,0.0,-0.1409599178116267,0.45658602649741836,0.07327536270038831,0.42161670226250336,-0.21336762648321494,0.12632676032765508,-0.21936878434613616,0.17267570428053539,-0.4875669194969283,-0.11155987838657822,-1.94613638714872,0.13378440596659977,2.595544879330529,0.9452476107196676,0.1728802376190821,-0.48752024683155326,-0.11147110072896137,-1.9463801863486305,0.1336059019074957,2.595550359778934,0.9452445589611904,-0.00041241869949329603,-0.0010902743567630334,-0.00012562888264340948,2.3887219252910285e-05,-1.3199341854353458e-05,-0.0002379179523916178,7.964690999770236e-05,0.0,0.0,0.0,0.0,0.0,0.0,0.0,0.00020453333854672517,4.667266537505821e-05,8.877765761684808e-05,-0.00024379919991046606,-0.00017850405910407874,5.480448404870941e-06,-3.051758477146116e-06,0.00041241869949329603,0.0010902743567630334,0.00012562888264340948,-2.3887219252910285e-05,1.3199341854353458e-05,0.0002379179523916178,-7.964690999770236e-05,0.14510458707809448,11.774744033813477,-1.2909882068634033,-21.693452835083008,-0.3262229561805725,-2.5335726737976074,0.20724813640117645,0
13,0.059828758239746094,-0.14510458707809448,-11.774744033813477,1.2909882068634033,21.693452835083008,0.3262229561805725,2.5335726737976074,-0.20724813640117645,0.0,0.0,0.0,0.0,0.0,0.0,0.0,-0.1409599178116267,0.45658602649741836,0.07327536270038831,0.42161670226250336,-0.21336762648321494,0.12632676032765508,-0.21936878434613616,0.17267570428053539,-0.4875669194969283,-0.11155987838657822,-1.94613638714872,0.13378440596659977,2.595544879330529,0.9452476107196676,0.1728802376190821,-0.48752024683155326,-0.11147110072896137,-1.9463801863486305,0.1336059019074957,2.595550359778934,0.9452445589611904,-0.00041241869949329603,-0.0010902743567630334,-0.00012562888264340948,2.3887219252910285e-05,-1.3199341854353458e-05,-0.0002379179523916178,7.964690999770236e-05,0.0,0.0,0.0,0.0,0.0,0.0,0.0,0.00020453333854672517,4.667266537505821e-05,8.877765761684808e-05,-0.00024379919991046606,-0.00017850405910407874,5.480448404870941e-06,-3.051758477146116e-06,0.00041241869949329603,0.0010902743567630334,0.00012562888264340948,-2.3887219252910285e-05,1.3199341854353458e-05,0.0002379179523916178,-7.964690999770236e-05,0.14510458707809448,11.774744033813477,-1.2909882068634033,-21.693452835083008,-0.3262229561805725,-2.5335726737976074,0.20724813640117645,0
14,0.06482744216918945,-0.14510458707809448,-11.774744033813477,1.2909882068634033,21.693452835083008,0.3262229561805725,2.5335726737976074,-0.20724813640117645,0.0,0.0,0.0,0.0,0.0,0.0,0.0,-0.1409599178116267,0.45658602649741836,0.07327536270038831,0.42161670226250336,-0.21336762648321494,0.12632676032765508,-0.21936878434613616,0.17267570428053539,-0.4875669194969283,-0.11155987838657822,-1.94613638714872,0.13378440596659977,2.595544879330529,0.9452476107196676,0.1728802376190821,-0.48752024683155326,-0.11147110072896137,-1.9463801863486305,0.1336059019074957,2.595550359778934,0.9452445589611904,-0.00041241869949329603,-0.0010902743567630334,-0.00012562888264340948,2.3887219252910285e-05,-1.3199341854353458e-05,-0.0002379179523916178,7.964690999770236e-05,0.0,0.0,0.0,0.0,0.0,0.0,0.0,0.00020453333854672517,4.667266537505821e-05,8.877765761684808e-05,-0.00024379919991046606,-0.00017850405910407874,5.480448404870941e-06,-3.051758477146116e-06,0.00041241869949329603,0.0010902743567630334,0.00012562888264340948,-2.3887219252910285e-05,1.3199341854353458e-05,0.0002379179523916178,-7.964690999770236e-05,0.14510458707809448,11.774744033813477,-1.2909882068634033,-21.693452835083008,-0.3262229561805725,-2.5335726737976074,0.20724813640117645,0
15,0.06983113288879395,-0.14510458707809448,-11.774744033813477,1.2909882068634033,21.693452835083008,0.3262229561805725,2.5335726737976074,-0.20724813640117645,0.0,0.0,0.0,0.0,0.0,0.0,0.0,-0.1409599178116267,0.45658602649741836,0.07327536270038831,0.42161670226250336,-0.21336762648321494,0.12632676032765508,-0.21936878434613616,0.17267570428053539,-0.4875669194969283,-0.11155987838657822,-1.94613638714872,0.13378440596659977,2.595544879330529,0.9452476107196676,0.1728802376190821,-0.48752024683155326,-0.11147110072896137,-1.9463801863486305,0.1336059019074957,2.595550359778934,0.9452445589611904,-0.00041241869949329603,-0.0010902743567630334,-0.00012562888264340948,2.3887219252910285e-05,-1.3199341854353458e-05,-0.0002379179523916178,7.964690999770236e-05,0.0,0.0,0.0,0.0,0.0,0.0,0.0,0.00020453333854672517,4.667266537505821e-05,8.877765761684808e-05,-0.00024379919991046606,-0.00017850405910407874,5.480448404870941e-06,-3.051758477146116e-06,0.00041241869949329603,0.0010902743567630334,0.00012562888264340948,-2.3887219252910285e-05,1.3199341854353458e-05,0.0002379179523916178,-7.964690999770236e-05,0.14510458707809448,11.774744033813477,-1.2909882068634033,-21.693452835083008,-0.3262229561805725,-2.5335726737976074,0.20724813640117645,0
16,0.07483172416687012,-0.12130087614059448,-11.802515029907227,1.2909882068634033,21.693452835083008,0.3262229561805725,2.5335726737976074,-0.23471395671367645,0.0,0.0,0.0,0.0,0.0,0.0,0.0,-0.13944295289230488,0.4669671859455204,0.08444074943360334,0.4203769661670501,-0.21306934508111386,0.12739877726319618,-0.21924962329392295,0.1726740338446801,-0.4875625010385749,-0.11155695237270938,-1.9461346950669742,0.13378436659809984,2.595544879330529,0.94525066247748,0.1728802376190821,-0.48752024683155326,-0.11147110072896137,-1.9463801863486305,0.1336059019074957,2.595550359778934,0.9452445589611904,-0.0005276504468084908,-0.0006225999137652295,-0.00047790479325382463,0.00010630324973953217,-0.00025600098507691244,-7.215863925327618e-05,0.0010641598573313425,0.0,0.0,0.0,0.0,0.0,0.0,0.0,0.00020620377440200288,4.22542070216414e-05,8.585164374801113e-05,-0.00024549128165629597,-0.0001784646906041465,5.480448404870941e-06,-6.103516289601707e-06,0.0005276504468084908,0.0006225999137652295,0.00047790479325382463,-0.00010630324973953217,0.00025600098507691244,7.215863925327618e-05,-0.0010641598573313425,0.12130087614059448,11.802515029907227,-1.2909882068634033,-21.693452835083008,-0.3262229561805725,-2.5335726737976074,0.23471395671367645,0
17,0.07977175712585449,-0.12130087614059448,-11.802515029907227,1.2909882068634033,21.693452835083008,0.3262229561805725,2.5335726737976074,-0.23471395671367645,0.0,0.0,0.0,0.0,0.0,0.0,0.0,-0.13944295289230488,0.4669671859455204,0.08444074943360334,0.4203769661670501,-0.21306934508111386,0.12739877726319618,-0.21924962329392295,0.1726740338446801,-0.4875625010385749,-0.11155695237270938,-1.9461346950669742,0.13378436659809984,2.595544879330529,0.94525066247748,0.1728802376190821,-0.48752024683155326,-0.11147110072896137,-1.9463801863486305,0.1336059019074957,2.595550359778934,0.9452445589611904,-0.0005276504468084908,-0.0006225999137652295,-0.00047790479325382463,0.00010630324973953217,-0.00025600098507691244,-7.215863925327618e-05,0.0010641598573313425,0.0,0.0,0.0,0.0,0.0,0.0,0.0,0.00020620377440200288,4.22542070216414e-05,8.585164374801113e-05,-0.00024549128165629597,-0.0001784646906041465,5.480448404870941e-06,-6.103516289601707e-06,0.0005276504468084908,0.0006225999137652295,0.00047790479325382463,-0.00010630324973953217,0.00025600098507691244,7.215863925327618e-05,-0.0010641598573313425,0.12130087614059448,11.802515029907227,-1.2909882068634033,-21.693452835083008,-0.3262229561805725,-2.5335726737976074,0.23471395671367645,0
18,0.08482146263122559,-0.09352988004684448,-11.774744033813477,1.2909882068634033,21.669649124145508,0.3079124093055725,2.5271639823913574,-0.21457235515117645,0.0,0.0,0.0,0.0,0.0,0.0,0.0,-0.13931750638388438,0.46837471193616886,0.08763477087835217,0.42408677688622837,-0.2132475488781607,0.12909956193761785,-0.21873076354717974,0.17267208500284897,-0.48756455495814777,-0.1115598793471059,-1.9461325739846522,0.1337864404715859,2.595545591407352,0.9452484245217508,0.1728802376190821,-0.48752024683155326,-0.11147110072896137,-1.9463801863486305,0.1336059019074957,2.595550359778934,0.9452445589611904,-0.0006555805342123817,-0.0017543487384837856,-0.00022181316211256682,0.0014846181074631192,0.00038633572147184485,8.134440704340251e-05,0.00033406598844694624,0.0,0.0,0.0,0.0,0.0,0.0,0.0,0.00020815261623313708,4.430812659450556e-05,8.877861814453325e-05,-0.0002476123639783001,-0.00018053856409019908,4.76837158203125e-06,-3.865560560423198e-06,0.0006555805342123817,0.0017543487384837856,0.00022181316211256682,-0.0014846181074631192,-0.00038633572147184485,-8.134440704340251e-05,-0.00033406598844694624,0.09352988004684448,11.774744033813477,-1.2909882068634033,-21.669649124145508,-0.3079124093055725,-2.5271639823913574,0.21457235515117645,0
19,0.08982348442077637,-0.09352988004684448,-11.774744033813477,1.2909882068634033,21.669649124145508,0.3079124093055725,2.5271639823913574,-0.21457235515117645,0.0,0.0,0.0,0.0,0.0,0.0,0.0,-0.13931750638388438,0.46837471193616886,0.08763477087835217,0.42408677688622837,-0.2132475488781607,0.12909956193761785,-0.21873076354717974,0.17267208500284897,-0.48756455495814777,-0.1115598793471059,-1.9461325739846522,0.1337864404715859,2.595545591407352,0.9452484245217508,0.1728802376190821,-0.48752024683155326,-0.11147110072896137,-1.9463801863486305,0.1336059019074957,2.595550359778934,0.9452445589611904,-0.0006555805342123817,-0.0017543487384837856,-0.00022181316211256682,0.0014846181074631192,0.00038633572147184485,8.134440704340251e-05,0.00033406598844694624,0.0,0.0,0.0,0.0,0.0,0.0,0.0,0.00020815261623313708,4.430812659450556e-05,8.877861814453325e-05,-0.0002476123639783001,-0.00018053856409019908,4.76837158203125e-06,-3.865560560423198e-06,0.0006555805342123817,0.0017543487384837856,0.00022181316211256682,-0.0014846181074631192,-0.00038633572147184485,-8.134440704340251e-05,-0.00033406598844694624,0.09352988004684448,11.774744033813477,-1.2909882068634033,-21.669649124145508,-0.3079124093055725,-2.5271639823913574,0.21457235515117645,0
20,0.09482216835021973,-0.17287558317184448,-11.826318740844727,1.2909882068634033,21.717256546020508,0.3198142647743225,2.5271639823913574,-0.22830526530742645,0.0,0.0,0.0,0.0,0.0,0.0,0.0,-0.13659897698550003,0.48913500856260267,0.08242162459282117,0.41354700111328124,-0.21369774008538858,0.1273629971124531,-0.2191833806694556,0.17267765312236652,-0.4875616482840627,-0.1115591674192606,-1.9461356767259497,0.13378511804342266,2.5955455957680025,0.9452499504006571,0.1728802376190821,-0.48752024683155326,-0.11147110072896137,-1.9463801863486305,0.1336059019074957,2.595550359778934,0.9452445589611904,0.0010420974893638295,2.38644608487615e-05,-0.0001737692805645279,-0.0007445076004049849,-0.00010326999145059516,-0.00011456147766579513,0.0010839477410522508,0.0,0.0,0.0,0.0,0.0,0.0,0.0,0.00020258449671559098,4.140145250941529e-05,8.80666902992322e-05,-0.0002445096226808552,-0.00017921613592697394,4.764010931523899e-06,-5.3914394666509935e-06,-0.0010420974893638295,-2.38644608487615e-05,0.0001737692805645279,0.0007445076004049849,0.00010326999145059516,0.00011456147766579513,-0.0010839477410522508,0.17287558317184448,11.826318740844727,-1.2909882068634033,-21.717256546020508,-0.3198142647743225,-2.5271639823913574,0.22830526530742645,0
21,0.10001301765441895,-0.17287558317184448,-11.826318740844727,1.2909882068634033,21.717256546020508,0.3198142647743225,2.5271639823913574,-0.22830526530742645,0.0,0.0,0.0,0.0,0.0,0.0,0.0,-0.13659897698550003,0.48913500856260267,0.08242162459282117,0.41354700111328124,-0.21369774008538858,0.1273629971124531,-0.2191833806694556,0.17267765312236652,-0.4875616482840627,-0.1115591674192606,-1.9461356767259497,0.13378511804342266,2.5955455957680025,0.9452499504006571,0.1728802376190821,-0.48752024683155326,-0.11147110072896137,-1.9463801863486305,0.1336059019074957,2.595550359778934,0.9452445589611904,0.0010420974893638295,2.38644608487615e-05,-0.0001737692805645279,-0.0007445076004049849,-0.00010326999145059516,-0.00011456147766579513,0.0010839477410522508,0.0,0.0,0.0,0.0,0.0,0.0,0.0,0.00020258449671559098,4.140145250941529e-05,8.80666902992322e-05,-0.0002445096226808552,-0.00017921613592697394,4.764010931523899e-06,-5.3914394666509935e-06,-0.0010420974893638295,-2.38644608487615e-05,0.0001737692805645279,0.0007445076004049849,0.00010326999145059516,0.00011456147766579513,-0.0010839477410522508,0.17287558317184448,11.826318740844727,-1.2909882068634033,-21.717256546020508,-0.3198142647743225,-2.5271639823913574,0.22830526530742645,0
22,0.10482072830200195,-0.17287558317184448,-11.850122451782227,1.2433807849884033,21.717256546020508,0.3143211007118225,2.5271639823913574,-0.24112264811992645,0.0,0.0,0.0,0.0,0.0,0.0,0.0,-0.14073061721292202,0.4798776617223873,0.07529327829182335,0.4213873000247968,-0.21334478483996375,0.1282534796834015,-0.21901986040692417,0.17267765312236652,-0.48756233547439026,-0.11155651211958945,-1.9461358057998672,0.13378572839498518,2.5955455914073764,0.9452513731007527,0.1728802376190821,-0.48752024683155326,-0.11147110072896137,-1.9463801863486305,0.1336059019074957,2.595550359778934,0.9452445589611904,0.0006550498907952622,0.00019637509222211435,0.0005720875671252429,-0.000395609914373287,0.00022585451812976898,2.479552738151339e-05,0.0011639816467513447,0.0,0.0,0.0,0.0,0.0,0.0,0.0,0.00020258449671559098,4.208864283700153e-05,8.541139062807901e-05,-0.00024438054876330106,-0.00017982648748948726,4.7683715576063435e-06,-6.814139562272281e-06,-0.0006550498907952622,-0.00019637509222211435,-0.0005720875671252429,0.000395609914373287,-0.00022585451812976898,-2.479552738151339e-05,-0.0011639816467513447,0.17287558317184448,11.850122451782227,-1.2433807849884033,-21.717256546020508,-0.3143211007118225,-2.5271639823913574,0.24112264811992645,0
23,0.10982346534729004,-0.17287558317184448,-11.850122451782227,1.2433807849884033,21.717256546020508,0.3143211007118225,2.5271639823913574,-0.24112264811992645,0.0,0.0,0.0,0.0,0.0,0.0,0.0,-0.14073061721292202,0.4798776617223873,0.07529327829182335,0.4213873000247968,-0.21334478483996375,0.1282534796834015,-0.21901986040692417,0.17267765312236652,-0.48756233547439026,-0.11155651211958945,-1.9461358057998672,0.13378572839498518,2.5955455914073764,0.9452513731007527,0.1728802376190821,-0.48752024683155326,-0.11147110072896137,-1.9463801863486305,0.1336059019074957,2.595550359778934,0.9452445589611904,0.0006550498907952622,0.00019637509222211435,0.0005720875671252429,-0.000395609914373287,0.00022585451812976898,2.479552738151339e-05,0.0011639816467513447,0.0,0.0,0.0,0.0,0.0,0.0,0.0,0.00020258449671559098,4.208864283700153e-05,8.541139062807901e-05,-0.00024438054876330106,-0.00017982648748948726,4.7683715576063435e-06,-6.814139562272281e-06,-0.0006550498907952622,-0.00019637509222211435,-0.0005720875671252429,0.000395609914373287,-0.00022585451812976898,-2.479552738151339e-05,-0.0011639816467513447,0.17287558317184448,11.850122451782227,-1.2433807849884033,-21.717256546020508,-0.3143211007118225,-2.5271639823913574,0.24112264811992645,0
24,0.11483621597290039,-0.12130087614059448,-11.873926162719727,1.2433807849884033,21.669649124145508,0.3198142647743225,2.5271639823913574,-0.17978231608867645,0.0,0.0,0.0,0.0,0.0,0.0,0.0,-0.14194605726324752,0.47540006591143463,0.07476743288607969,0.4251668475882357,-0.21381834802193417,0.12888311536463237,-0.21996383396831848,0.1726740338446801,-0.4875596315771745,-0.11155653751486765,-1.9461322304375837,0.1337851178814124,2.595545591407352,0.9452445589618304,0.1728802376190821,-0.48752024683155326,-0.11147110072896137,-1.9463801863486305,0.1336059019074957,2.595550359778934,0.9452445589611904,-0.000852764980925093,0.0006027640190332769,0.0001794850071158465,0.0011613045717102507,-3.39764229971738e-05,-5.482472831996303e-05,-0.0013615514583576345,0.0,0.0,0.0,0.0,0.0,0.0,0.0,0.00020620377440200288,3.9384745621262596e-05,8.543678590627879e-05,-0.000247955911046871,-0.00017921597391670763,4.76837158203125e-06,-6.399325513939402e-13,0.000852764980925093,-0.0006027640190332769,-0.0001794850071158465,-0.0011613045717102507,3.39764229971738e-05,5.482472831996303e-05,0.0013615514583576345,0.12130087614059448,11.873926162719727,-1.2433807849884033,-21.669649124145508,-0.3198142647743225,-2.5271639823913574,0.17978231608867645,0
25,0.1198263168334961,-0.12130087614059448,-11.873926162719727,1.2433807849884033,21.669649124145508,0.3198142647743225,2.5271639823913574,-0.17978231608867645,0.0,0.0,0.0,0.0,0.0,0.0,0.0,-0.14194605726324752,0.47540006591143463,0.07476743288607969,0.4251668475882357,-0.21381834802193417,0.12888311536463237,-0.21996383396831848,0.1726740338446801,-0.4875596315771745,-0.11155653751486765,-1.9461322304375837,0.1337851178814124,2.595545591407352,0.9452445589618304,0.1728802376190821,-0.48752024683155326,-0.11147110072896137,-1.9463801863486305,0.1336059019074957,2.595550359778934,0.9452445589611904,-0.000852764980925093,0.0006027640190332769,0.0001794850071158465,0.0011613045717102507,-3.39764229971738e-05,-5.482472831996303e-05,-0.0013615514583576345,0.0,0.0,0.0,0.0,0.0,0.0,0.0,0.00020620377440200288,3.9384745621262596e-05,8.543678590627879e-05,-0.000247955911046871,-0.00017921597391670763,4.76837158203125e-06,-6.399325513939402e-13,0.000852764980925093,-0.0006027640190332769,-0.0001794850071158465,-0.0011613045717102507,3.39764229971738e-05,5.482472831996303e-05,0.0013615514583576345,0.12130087614059448,11.873926162719727,-1.2433807849884033,-21.669649124145508,-0.3198142647743225,-2.5271639823913574,0.17978231608867645,0
26,0.12483692169189453,-0.14510458707809448,-11.873926162719727,1.2433807849884033,21.741060256958008,0.3143211007118225,2.5335726737976074,-0.24112264811992645,0.0,0.0,0.0,0.0,0.0,0.0,0.0,-0.1447440340292565,0.47615692313192515,0.06883702717411656,0.4194168129303013,-0.21382930772723763,0.12753075233777497,-0.2211825093330126,0.17267570428053539,-0.4875598787883806,-0.11155432344537068,-1.946139475302766,0.1337857283949849,2.595544879330529,0.945251374554303,0.1728802376190821,-0.48752024683155326,-0.11147110072896137,-1.9463801863486305,0.1336059019074957,2.595550359778934,0.9452445589611904,-0.0002961463910044022,-4.6634871499764527e-05,-0.0001119815824987199,-0.0010405139247842159,0.0002603889056055208,-0.00010705700907946236,0.001293871460569107,0.0,0.0,0.0,0.0,0.0,0.0,0.0,0.00020453333854672517,3.963195682732401e-05,8.322271640931467e-05,-0.00024071104586442793,-0.0001798264874892097,5.480448404870941e-06,-6.8155931125524205e-06,0.0002961463910044022,4.6634871499764527e-05,0.0001119815824987199,0.0010405139247842159,-0.0002603889056055208,0.00010705700907946236,-0.001293871460569107,0.14510458707809448,11.873926162719727,-1.2433807849884033,-21.741060256958008,-0.3143211007118225,-2.5335726737976074,0.24112264811992645,0
27,0.12983417510986328,-0.14510458707809448,-11.873926162719727,1.2433807849884033,21.741060256958008,0.3143211007118225,2.5335726737976074,-0.24112264811992645,0.0,0.0,0.0,0.0,0.0,0.0,0.0,-0.1447440340292565,0.47615692313192515,0.06883702717411656,0.4194168129303013,-0.21382930772723763,0.12753075233777497,-0.2211825093330126,0.17267570428053539,-0.4875598787883806,-0.11155432344537068,-1.946139475302766,0.1337857283949849,2.595544879330529,0.945251374554303,0.1728802376190821,-0.48752024683155326,-0.11147110072896137,-1.9463801863486305,0.1336059019074957,2.595550359778934,0.9452445589611904,-0.0002961463910044022,-4.6634871499764527e-05,-0.0001119815824987199,-0.0010405139247842159,0.0002603889056055208,-0.00010705700907946236,0.001293871460569107,0.0,0.0,0.0,0.0,0.0,0.0,0.0,0.00020453333854672517,3.963195682732401e-05,8.322271640931467e-05,-0.00024071104586442793,-0.0001798264874892097,5.480448404870941e-06,-6.8155931125524205e-06,0.0002961463910044022,4.6634871499764527e-05,0.0001119815824987199,0.0010405139247842159,-0.0002603889056055208,0.00010705700907946236,-0.001293871460569107,0.14510458707809448,11.873926162719727,-1.2433807849884033,-21.741060256958008,-0.3143211007118225,-2.5335726737976074,0.24112264811992645,0
28,0.134840726852417,-0.09352988004684448,-11.873926162719727,1.2909882068634033,21.741060256958008,0.3198142647743225,2.5335726737976074,-0.17337362468242645,0.0,0.0,0.0,0.0,0.0,0.0,0.0,-0.13916321438290724,0.46403059487591974,0.07690087855954122,0.4208624170870865,-0.2141280377980361,0.12790420015463008,-0.22113922820897516,0.17267208500284897,-0.4875574858059687,-0.11155916643015262,-1.9461374854414413,0.13378511804342266,2.595544879330529,0.9452438468850322,0.1728802376190821,-0.48752024683155326,-0.11147110072896137,-1.9463801863486305,0.1336059019074957,2.595550359778934,0.9452445589611904,-0.00118540797290598,-0.0007887596523810801,-0.00036753315869601604,-0.0007892879290066125,0.00014492625015954797,-0.00024240729958241458,-0.0016414060873732848,0.0,0.0,0.0,0.0,0.0,0.0,0.0,0.00020815261623313708,3.7238974415432224e-05,8.806570119125612e-05,-0.00024270090718925275,-0.00017921613592697394,5.480448404870941e-06,7.120761582601887e-07,0.00118540797290598,0.0007887596523810801,0.00036753315869601604,0.0007892879290066125,-0.00014492625015954797,0.00024240729958241458,0.0016414060873732848,0.09352988004684448,11.873926162719727,-1.2909882068634033,-21.741060256958008,-0.3198142647743225,-2.5335726737976074,0.17337362468242645,0
29,0.13978815078735352,-0.09352988004684448,-11.873926162719727,1.2909882068634033,21.741060256958008,0.3198142647743225,2.5335726737976074,-0.17337362468242645,0.0,0.0,0.0,0.0,0.0,0.0,0.0,-0.13916321438290724,0.46403059487591974,0.07690087855954122,0.4208624170870865,-0.2141280377980361,0.12790420015463008,-0.22113922820897516,0.17267208500284897,-0.4875574858059687,-0.11155916643015262,-1.9461374854414413,0.13378511804342266,2.595544879330529,0.9452438468850322,0.1728802376190821,-0.48752024683155326,-0.11147110072896137,-1.9463801863486305,0.1336059019074957,2.595550359778934,0.9452445589611904,-0.00118540797290598,-0.0007887596523810801,-0.00036753315869601604,-0.0007892879290066125,0.00014492625015954797,-0.00024240729958241458,-0.0016414060873732848,0.0,0.0,0.0,0.0,0.0,0.0,0.0,0.00020815261623313708,3.7238974415432224e-05,8.806570119125612e-05,-0.00024270090718925275,-0.00017921613592697394,5.480448404870941e-06,7.120761582601887e-07,0.00118540797290598,0.0007887596523810801,0.00036753315869601604,0.0007892879290066125,-0.00014492625015954797,0.00024240729958241458,0.0016414060873732848,0.09352988004684448,11.873926162719727,-1.2909882068634033,-21.741060256958008,-0.3198142647743225,-2.5335726737976074,0.17337362468242645,0
30,0.1448214054107666,-0.12130087614059448,-11.850122451782227,1.2671844959259033,21.717256546020508,0.3198142647743225,2.5207552909851074,-0.17337362468242645,0.0,0.0,0.0,0.0,0.0,0.0,0.0,-0.13123782857355606,0.4726013649160361,0.08718914434398373,0.41373439567631665,-0.21421312805839293,0.1267592321456872,-0.2202757379641178,0.1726740338446801,-0.48756013682965016,-0.11155820588542527,-1.946135602812356,0.13378511804342266,2.595546303484175,0.9452438468850322,0.1728802376190821,-0.48752024683155326,-0.11147110072896137,-1.9463801863486305,0.1336059019074957,2.595550359778934,0.9452445589611904,0.00011365873967143809,-0.00037428242229979754,0.0016026638972396535,-0.0003111286717535081,1.5599717042400303e-05,0.0002580998160775197,-0.0007117597662770471,0.0,0.0,0.0,0.0,0.0,0.0,0.0,0.00020620377440200288,3.988999809689808e-05,8.710515646390138e-05,-0.0002445835362745452,-0.00017921613592697394,4.056294759191559e-06,7.120761582601887e-07,-0.00011365873967143809,0.00037428242229979754,-0.0016026638972396535,0.0003111286717535081,-1.5599717042400303e-05,-0.0002580998160775197,0.0007117597662770471,0.12130087614059448,11.850122451782227,-1.2671844959259033,-21.717256546020508,-0.3198142647743225,-2.5207552909851074,0.17337362468242645,0
31,0.1498260498046875,-0.12130087614059448,-11.850122451782227,1.2671844959259033,21.717256546020508,0.3198142647743225,2.5207552909851074,-0.17337362468242645,0.0,0.0,0.0,0.0,0.0,0.0,0.0,-0.13123782857355606,0.4726013649160361,0.08718914434398373,0.41373439567631665,-0.21421312805839293,0.1267592321456872,-0.2202757379641178,0.1726740338446801,-0.48756013682965016,-0.11155820588542527,-1.946135602812356,0.13378511804342266,2.595546303484175,0.9452438468850322,0.1728802376190821,-0.48752024683155326,-0.11147110072896137,-1.9463801863486305,0.1336059019074957,2.595550359778934,0.9452445589611904,0.00011365873967143809,-0.00037428242229979754,0.0016026638972396535,-0.0003111286717535081,1.5599717042400303e-05,0.0002580998160775197,-0.0007117597662770471,0.0,0.0,0.0,0.0,0.0,0.0,0.0,0.00020620377440200288,3.988999809689808e-05,8.710515646390138e-05,-0.0002445835362745452,-0.00017921613592697394,4.056294759191559e-06,7.120761582601887e-07,-0.00011365873967143809,0.00037428242229979754,-0.0016026638972396535,0.0003111286717535081,-1.5599717042400303e-05,-0.0002580998160775197,0.0007117597662770471,0.12130087614059448,11.850122451782227,-1.2671844959259033,-21.717256546020508,-0.3198142647743225,-2.5207552909851074,0.17337362468242645,0
32,0.15482640266418457,-0.12130087614059448,-11.850122451782227,1.2909882068634033,21.741060256958008,0.3143211007118225,2.5271639823913574,-0.20083944499492645,0.0,0.0,0.0,0.0,0.0,0.0,0.0,-0.13517457275331152,0.4614850665442659,0.07981750045730297,0.4187397056931758,-0.21327976691987627,0.12734363637813084,-0.21809218225110563,0.1726740338446801,-0.48756226446935824,-0.11155986959757096,-1.9461380423931263,0.13378572839498518,2.595545591407352,0.9452468986428446,0.1728802376190821,-0.48752024683155326,-0.11147110072896137,-1.9463801863486305,0.1336059019074957,2.595550359778934,0.9452445589611904,0.00020283840298524841,2.6300446843721606e-05,0.00033308300406676496,-0.0007321418716277329,0.00024453987471788216,-0.00012067396501243972,0.0026114618890035806,0.0,0.0,0.0,0.0,0.0,0.0,0.0,0.00020620377440200288,4.20176378049808e-05,8.876886860958999e-05,-0.00024214395550425927,-0.00017982648748948726,4.76837158203125e-06,-2.3396816541954024e-06,-0.00020283840298524841,-2.6300446843721606e-05,-0.00033308300406676496,0.0007321418716277329,-0.00024453987471788216,0.00012067396501243972,-0.0026114618890035806,0.12130087614059448,11.850122451782227,-1.2909882068634033,-21.741060256958008,-0.3143211007118225,-2.5271639823913574,0.20083944499492645,0
33,0.15982484817504883,-0.12130087614059448,-11.850122451782227,1.2909882068634033,21.741060256958008,0.3143211007118225,2.5271639823913574,-0.20083944499492645,0.0,0.0,0.0,0.0,0.0,0.0,0.0,-0.13517457275331152,0.4614850665442659,0.07981750045730297,0.4187397056931758,-0.21327976691987627,0.12734363637813084,-0.21809218225110563,0.1726740338446801,-0.48756226446935824,-0.11155986959757096,-1.9461380423931263,0.13378572839498518,2.595545591407352,0.9452468986428446,0.1728802376190821,-0.48752024683155326,-0.11147110072896137,-1.9463801863486305,0.1336059019074957,2.595550359778934,0.9452445589611904,0.00020283840298524841,2.6300446843721606e-05,0.00033308300406676496,-0.0007321418716277329,0.00024453987471788216,-0.00012067396501243972,0.0026114618890035806,0.0,0.0,0.0,0.0,0.0,0.0,0.0,0.00020620377440200288,4.20176378049808e-05,8.876886860958999e-05,-0.00024214395550425927,-0.00017982648748948726,4.76837158203125e-06,-2.3396816541954024e-06,-0.00020283840298524841,-2.6300446843721606e-05,-0.00033308300406676496,0.0007321418716277329,-0.00024453987471788216,0.00012067396501243972,-0.0026114618890035806,0.12130087614059448,11.850122451782227,-1.2909882068634033,-21.741060256958008,-0.3143211007118225,-2.5271639823913574,0.20083944499492645,0
34,0.164825439453125,-0.17287558317184448,-11.850122451782227,1.2909882068634033,21.669649124145508,0.3143211007118225,2.5271639823913574,-0.19351522624492645,0.0,0.0,0.0,0.0,0.0,0.0,0.0,-0.13371880704076874,0.4757506727691028,0.08171855625078189,0.41374979254417593,-0.2128994561322579,0.12638440731987488,-0.21839923575564915,0.17267765312236652,-0.48756020127581085,-0.11155980025864391,-1.946135125910178,0.13378572839498518,2.595545591407352,0.9452460848407613,0.1728802376190821,-0.48752024683155326,-0.11147110072896137,-1.9463801863486305,0.1336059019074957,2.595550359778934,0.9452445589611904,0.0008873515475354059,0.00097215617920752,-0.00017145601671419007,0.0007986673806395614,0.0004008509638366215,5.1208106804091575e-06,-0.00035679253416164036,0.0,0.0,0.0,0.0,0.0,0.0,0.0,0.00020258449671559098,3.9954444257583877e-05,8.869952968254546e-05,-0.0002450604384525157,-0.00017982648748948726,4.76837158203125e-06,-1.5258795709183204e-06,-0.0008873515475354059,-0.00097215617920752,0.00017145601671419007,-0.0007986673806395614,-0.0004008509638366215,-5.1208106804091575e-06,0.00035679253416164036,0.17287558317184448,11.850122451782227,-1.2909882068634033,-21.669649124145508,-0.3143211007118225,-2.5271639823913574,0.19351522624492645,0
35,0.16982412338256836,-0.17287558317184448,-11.850122451782227,1.2909882068634033,21.669649124145508,0.3143211007118225,2.5271639823913574,-0.19351522624492645,0.0,0.0,0.0,0.0,0.0,0.0,0.0,-0.13371880704076874,0.4757506727691028,0.08171855625078189,0.41374979254417593,-0.2128994561322579,0.12638440731987488,-0.21839923575564915,0.17267765312236652,-0.48756020127581085,-0.11155980025864391,-1.946135125910178,0.13378572839498518,2.595545591407352,0.9452460848407613,0.1728802376190821,-0.48752024683155326,-0.11147110072896137,-1.9463801863486305,0.1336059019074957,2.595550359778934,0.9452445589611904,0.0008873515475354059,0.00097215617920752,-0.00017145601671419007,0.0007986673806395614,0.0004008509638366215,5.1208106804091575e-06,-0.00035679253416164036,0.0,0.0,0.0,0.0,0.0,0.0,0.0,0.00020258449671559098,3.9954444257583877e-05,8.869952968254546e-05,-0.0002450604384525157,-0.00017982648748948726,4.76837158203125e-06,-1.5258795709183204e-06,-0.0008873515475354059,-0.00097215617920752,0.00017145601671419007,-0.0007986673806395614,-0.0004008509638366215,-5.1208106804091575e-06,0.00035679253416164036,0.17287558317184448,11.850122451782227,-1.2909882068634033,-21.669649124145508,-0.3143211007118225,-2.5271639823913574,0.19351522624492645,0
36,0.17483258247375488,-0.17287558317184448,-11.850122451782227,1.2909882068634033,21.669649124145508,0.3143211007118225,2.5271639823913574,-0.19351522624492645,0.0,0.0,0.0,0.0,0.0,0.0,0.0,-0.13371880704076874,0.4757506727691028,0.08171855625078189,0.41374979254417593,-0.2128994561322579,0.12638440731987488,-0.21839923575564915,0.17267765312236652,-0.48756020127581085,-0.11155980025864391,-1.946135125910178,0.13378572839498518,2.595545591407352,0.9452460848407613,0.1728802376190821,-0.48752024683155326,-0.11147110072896137,-1.9463801863486305,0.1336059019074957,2.595550359778934,0.9452445589611904,0.0008873515475354059,0.00097215617920752,-0.00017145601671419007,0.0007986673806395614,0.0004008509638366215,5.1208106804091575e-06,-0.00035679253416164036,0.0,0.0,0.0,0.0,0.0,0.0,0.0,0.00020258449671559098,3.9954444257583877e-05,8.869952968254546e-05,-0.0002450604384525157,-0.00017982648748948726,4.76837158203125e-06,-1.5258795709183204e-06,-0.0008873515475354059,-0.00097215617920752,0.00017145601671419007,-0.0007986673806395614,-0.0004008509638366215,-5.1208106804091575e-06,0.00035679253416164036,0.17287558317184448,11.850122451782227,-1.2909882068634033,-21.669649124145508,-0.3143211007118225,-2.5271639823913574,0.19351522624492645,0
37,0.17982745170593262,-0.17287558317184448,-11.850122451782227,1.2909882068634033,21.669649124145508,0.3143211007118225,2.5271639823913574,-0.19351522624492645,0.0,0.0,0.0,0.0,0.0,0.0,0.0,-0.13371880704076874,0.4757506727691028,0.08171855625078189,0.41374979254417593,-0.2128994561322579,0.12638440731987488,-0.21839923575564915,0.17267765312236652,-0.48756020127581085,-0.11155980025864391,-1.946135125910178,0.13378572839498518,2.595545591407352,0.9452460848407613,0.1728802376190821,-0.48752024683155326,-0.11147110072896137,-1.9463801863486305,0.1336059019074957,2.595550359778934,0.9452445589611904,0.0008873515475354059,0.00097215617920752,-0.00017145601671419007,0.0007986673806395614,0.0004008509638366215,5.1208106804091575e-06,-0.00035679253416164036,0.0,0.0,0.0,0.0,0.0,0.0,0.0,0.00020258449671559098,3.9954444257583877e-05,8.869952968254546e-05,-0.0002450604384525157,-0.00017982648748948726,4.76837158203125e-06,-1.5258795709183204e-06,-0.0008873515475354059,-0.00097215617920752,0.00017145601671419007,-0.0007986673806395614,-0.0004008509638366215,-5.1208106804091575e-06,0.00035679253416164036,0.17287558317184448,11.850122451782227,-1.2909882068634033,-21.669649124145508,-0.3143211007118225,-2.5271639823913574,0.19351522624492645,0
38,0.18624234199523926,-0.14510458707809448,-11.850122451782227,1.2909882068634033,21.717256546020508,0.3143211007118225,2.5335726737976074,-0.22830526530742645,0.0,0.0,0.0,0.0,0.0,0.0,0.0,-0.13262671589729377,0.4658754547273158,0.08719898754769596,0.4227461566451354,-0.21337082860508177,0.12817789337698812,-0.21892129823999315,0.17267570428053539,-0.4875613287912698,-0.1115598528866585,-1.9461363889327257,0.13378572839498518,2.595544879330529,0.9452499504006571,0.1728802376190821,-0.48752024683155326,-0.11147110072896137,-1.9463801863486305,0.1336059019074957,2.595550359778934,0.9452445589611904,-0.00024195405263996602,0.0004075732815108319,-0.0005784511952694371,-9.771523401831369e-05,0.0006366006785622774,-0.00010283791356518354,0.0007803486699460085,0.0,0.0,0.0,0.0,0.0,0.0,0.0,0.00020453333854672517,4.108195971652684e-05,8.875215769713063e-05,-0.00024379741590485615,-0.00017982648748948726,5.480448404870941e-06,-5.3914394666509935e-06,0.00024195405263996602,-0.0004075732815108319,0.0005784511952694371,9.771523401831369e-05,-0.0006366006785622774,0.00010283791356518354,-0.0007803486699460085,0.14510458707809448,11.850122451782227,-1.2909882068634033,-21.717256546020508,-0.3143211007118225,-2.5335726737976074,0.22830526530742645,0
39,0.18982958793640137,-0.14510458707809448,-11.850122451782227,1.2909882068634033,21.717256546020508,0.3143211007118225,2.5335726737976074,-0.22830526530742645,0.0,0.0,0.0,0.0,0.0,0.0,0.0,-0.13262671589729377,0.4658754547273158,0.08719898754769596,0.4227461566451354,-0.21337082860508177,0.12817789337698812,-0.21892129823999315,0.17267570428053539,-0.4875613287912698,-0.1115598528866585,-1.9461363889327257,0.13378572839498518,2.595544879330529,0.9452499504006571,0.1728802376190821,-0.48752024683155326,-0.11147110072896137,-1.9463801863486305,0.1336059019074957,2.595550359778934,0.9452445589611904,-0.00024195405263996602,0.0004075732815108319,-0.0005784511952694371,-9.771523401831369e-05,0.0006366006785622774,-0.00010283791356518354,0.0007803486699460085,0.0,0.0,0.0,0.0,0.0,0.0,0.0,0.00020453333854672517,4.108195971652684e-05,8.875215769713063e-05,-0.00024379741590485615,-0.00017982648748948726,5.480448404870941e-06,-5.3914394666509935e-06,0.00024195405263996602,-0.0004075732815108319,0.0005784511952694371,9.771523401831369e-05,-0.0006366006785622774,0.00010283791356518354,-0.0007803486699460085,0.14510458707809448,11.850122451782227,-1.2909882068634033,-21.717256546020508,-0.3143211007118225,-2.5335726737976074,0.22830526530742645,0
40,0.19483113288879395,-0.12130087614059448,-11.850122451782227,1.2909882068634033,21.717256546020508,0.3143211007118225,2.5271639823913574,-0.17978231608867645,0.0,0.0,0.0,0.0,0.0,0.0,0.0,-0.13496213268343824,0.4685065039043993,0.08263632313094273,0.42465450239563934,-0.21346106850029611,0.12891137610657571,-0.21941788717392718,0.1726740338446801,-0.4875615492566883,-0.11155986764423052,-1.9461363121844546,0.13378572839498518,2.595545591407352,0.945244558961855,0.1728802376190821,-0.48752024683155326,-0.11147110072896137,-1.9463801863486305,0.1336059019074957,2.595550359778934,0.9452445589611904,-0.0005103203582436075,9.594391652246579e-05,-0.0007068491181733619,0.0002326315661721857,0.00032240165600117427,-1.9771958877797816e-05,-0.001694473867016422,0.0,0.0,0.0,0.0,0.0,0.0,0.0,0.00020620377440200288,4.1302425135059107e-05,8.876691526915614e-05,-0.0002438741641759279,-0.00017982648748948726,4.76837158203125e-06,-6.645795025406187e-13,0.0005103203582436075,-9.594391652246579e-05,0.0007068491181733619,-0.0002326315661721857,-0.00032240165600117427,1.9771958877797816e-05,0.001694473867016422,0.12130087614059448,11.850122451782227,-1.2909882068634033,-21.717256546020508,-0.3143211007118225,-2.5271639823913574,0.17978231608867645,0
41,0.19983148574829102,-0.12130087614059448,-11.850122451782227,1.2909882068634033,21.717256546020508,0.3143211007118225,2.5271639823913574,-0.17978231608867645,0.0,0.0,0.0,0.0,0.0,0.0,0.0,-0.13496213268343824,0.4685065039043993,0.08263632313094273,0.42465450239563934,-0.21346106850029611,0.12891137610657571,-0.21941788717392718,0.1726740338446801,-0.4875615492566883,-0.11155986764423052,-1.9461363121844546,0.13378572839498518,2.595545591407352,0.945244558961855,0.1728802376190821,-0.48752024683155326,-0.11147110072896137,-1.9463801863486305,0.1336059019074957,2.595550359778934,0.9452445589611904,-0.0005103203582436075,9.594391652246579e-05,-0.0007068491181733619,0.0002326315661721857,0.00032240165600117427,-1.9771958877797816e-05,-0.001694473867016422,0.0,0.0,0.0,0.0,0.0,0.0,0.0,0.00020620377440200288,4.1302425135059107e-05,8.876691526915614e-05,-0.0002438741641759279,-0.00017982648748948726,4.76837158203125e-06,-6.645795025406187e-13,0.0005103203582436075,-9.594391652246579e-05,0.0007068491181733619,-0.0002326315661721857,-0.00032240165600117427,1.9771958877797816e-05,0.001694473867016422,0.12130087614059448,11.850122451782227,-1.2909882068634033,-21.717256546020508,-0.3143211007118225,-2.5271639823913574,0.17978231608867645,0
42,0.2048323154449463,-0.14510458707809448,-11.826318740844727,1.3147919178009033,21.693452835083008,0.3198142647743225,2.5271639823913574,-0.23471395671367645,0.0,0.0,0.0,0.0,0.0,0.0,0.0,-0.13385613590993467,0.4802246082932721,0.08025142562245066,0.4192675206591817,-0.21359054927361099,0.12785373234229835,-0.22082769245850326,0.17267570428053539,-0.4875629815659191,-0.11155941382163143,-1.9461346388410656,0.13378511804342266,2.595545591407352,0.94525066247748,0.1728802376190821,-0.48752024683155326,-0.11147110072896137,-1.9463801863486305,0.1336059019074957,2.595550359778934,0.9452445589611904,0.00023685103863067572,-0.0004783795359968744,-0.001001954260271684,0.0003844680740828809,0.000184912592880288,4.402104061701693e-06,0.0009543810195421282,0.0,0.0,0.0,0.0,0.0,0.0,0.0,0.00020453333854672517,4.273473436583464e-05,8.831309267005871e-05,-0.00024554750756489163,-0.00017921613592697394,4.76837158203125e-06,-6.103516289601707e-06,-0.00023685103863067572,0.0004783795359968744,0.001001954260271684,-0.0003844680740828809,-0.000184912592880288,-4.402104061701693e-06,-0.0009543810195421282,0.14510458707809448,11.826318740844727,-1.3147919178009033,-21.693452835083008,-0.3198142647743225,-2.5271639823913574,0.23471395671367645,0
43,0.20983195304870605,-0.14510458707809448,-11.826318740844727,1.3147919178009033,21.693452835083008,0.3198142647743225,2.5271639823913574,-0.23471395671367645,0.0,0.0,0.0,0.0,0.0,0.0,0.0,-0.13385613590993467,0.4802246082932721,0.08025142562245066,0.4192675206591817,-0.21359054927361099,0.12785373234229835,-0.22082769245850326,0.17267570428053539,-0.4875629815659191,-0.11155941382163143,-1.9461346388410656,0.13378511804342266,2.595545591407352,0.94525066247748,0.1728802376190821,-0.48752024683155326,-0.11147110072896137,-1.9463801863486305,0.1336059019074957,2.595550359778934,0.9452445589611904,0.00023685103863067572,-0.0004783795359968744,-0.001001954260271684,0.0003844680740828809,0.000184912592880288,4.402104061701693e-06,0.0009543810195421282,0.0,0.0,0.0,0.0,0.0,0.0,0.0,0.00020453333854672517,4.273473436583464e-05,8.831309267005871e-05,-0.00024554750756489163,-0.00017921613592697394,4.76837158203125e-06,-6.103516289601707e-06,-0.00023685103863067572,0.0004783795359968744,0.001001954260271684,-0.0003844680740828809,-0.000184912592880288,-4.402104061701693e-06,-0.0009543810195421282,0.14510458707809448,11.826318740844727,-1.3147919178009033,-21.693452835083008,-0.3198142647743225,-2.5271639823913574,0.23471395671367645,0
44,0.21483254432678223,-0.14510458707809448,-11.850122451782227,1.2433807849884033,21.717256546020508,0.3262229561805725,2.5207552909851074,-0.22830526530742645,0.0,0.0,0.0,0.0,0.0,0.0,0.0,-0.13700080487211977,0.4710232917178585,0.07608735383634388,0.4215907871004614,-0.21287833858713506,0.12826496848959304,-0.22271798136249962,0.17267570428053539,-0.48755916845030195,-0.11155416500643216,-1.9461356057585855,0.13378440596659977,2.595546303484175,0.9452499504006571,0.1728802376190821,-0.48752024683155326,-0.11147110072896137,-1.9463801863486305,0.1336059019074957,2.595550359778934,0.9452445589611904,0.00033472825440659796,-0.00023150291071961652,0.0006624672925925059,-0.0007734266115522513,-0.00020224196224834468,0.00029773338925883605,0.0008622007244159643,0.0,0.0,0.0,0.0,0.0,0.0,0.0,0.00020453333854672517,3.892161874868849e-05,8.306427747079015e-05,-0.0002445805900450626,-0.00017850405910407874,4.056294759191559e-06,-5.3914394666509935e-06,-0.00033472825440659796,0.00023150291071961652,-0.0006624672925925059,0.0007734266115522513,0.00020224196224834468,-0.00029773338925883605,-0.0008622007244159643,0.14510458707809448,11.850122451782227,-1.2433807849884033,-21.717256546020508,-0.3262229561805725,-2.5207552909851074,0.22830526530742645,0
45,0.21982979774475098,-0.14510458707809448,-11.850122451782227,1.2433807849884033,21.717256546020508,0.3262229561805725,2.5207552909851074,-0.22830526530742645,0.0,0.0,0.0,0.0,0.0,0.0,0.0,-0.13700080487211977,0.4710232917178585,0.07608735383634388,0.4215907871004614,-0.21287833858713506,0.12826496848959304,-0.22271798136249962,0.17267570428053539,-0.48755916845030195,-0.11155416500643216,-1.9461356057585855,0.13378440596659977,2.595546303484175,0.9452499504006571,0.1728802376190821,-0.48752024683155326,-0.11147110072896137,-1.9463801863486305,0.1336059019074957,2.595550359778934,0.9452445589611904,0.00033472825440659796,-0.00023150291071961652,0.0006624672925925059,-0.0007734266115522513,-0.00020224196224834468,0.00029773338925883605,0.0008622007244159643,0.0,0.0,0.0,0.0,0.0,0.0,0.0,0.00020453333854672517,3.892161874868849e-05,8.306427747079015e-05,-0.0002445805900450626,-0.00017850405910407874,4.056294759191559e-06,-5.3914394666509935e-06,-0.00033472825440659796,0.00023150291071961652,-0.0006624672925925059,0.0007734266115522513,0.00020224196224834468,-0.00029773338925883605,-0.0008622007244159643,0.14510458707809448,11.850122451782227,-1.2433807849884033,-21.717256546020508,-0.3262229561805725,-2.5207552909851074,0.22830526530742645,0
46,0.22524046897888184,-0.14510458707809448,-11.826318740844727,1.2433807849884033,21.693452835083008,0.3198142647743225,2.5271639823913574,-0.22830526530742645,0.0,0.0,0.0,0.0,0.0,0.0,0.0,-0.13416720829270412,0.4727237096968673,0.07935234399239509,0.41991015651691627,-0.21335681601916537,0.12769302179651498,-0.2229681462608167,0.17267570428053539,-0.48756082662790096,-0.11155369066487682,-1.9461339067564964,0.13378511804342266,2.595545591407352,0.9452498326630872,0.1728802376190821,-0.48752024683155326,-0.11147110072896137,-1.9463801863486305,0.1336059019074957,2.595550359778934,0.9452445589611904,-3.4273171826306766e-05,-0.0005928316367920343,0.0008486335322134663,0.0004882183265682199,1.3493499665837107e-05,-0.00020093926558166847,0.0011650231271353258,0.0,0.0,0.0,0.0,0.0,0.0,0.0,0.00020453333854672517,4.057979634769504e-05,8.258993591545027e-05,-0.0002462795921340799,-0.00017921613592697394,4.76837158203125e-06,-5.273701896735261e-06,3.4273171826306766e-05,0.0005928316367920343,-0.0008486335322134663,-0.0004882183265682199,-1.3493499665837107e-05,0.00020093926558166847,-0.0011650231271353258,0.14510458707809448,11.826318740844727,-1.2433807849884033,-21.693452835083008,-0.3198142647743225,-2.5271639823913574,0.22830526530742645,0
47,0.2298283576965332,-0.14510458707809448,-11.826318740844727,1.2433807849884033,21.693452835083008,0.3198142647743225,2.5271639823913574,-0.22830526530742645,0.0,0.0,0.0,0.0,0.0,0.0,0.0,-0.13416720829270412,0.4727237096968673,0.07935234399239509,0.41991015651691627,-0.21335681601916537,0.12769302179651498,-0.2229681462608167,0.17267570428053539,-0.48756082662790096,-0.11155369066487682,-1.9461339067564964,0.13378511804342266,2.595545591407352,0.9452498326630872,0.1728802376190821,-0.48752024683155326,-0.11147110072896137,-1.9463801863486305,0.1336059019074957,2.595550359778934,0.9452445589611904,-3.4273171826306766e-05,-0.0005928316367920343,0.0008486335322134663,0.0004882183265682199,1.3493499665837107e-05,-0.00020093926558166847,0.0011650231271353258,0.0,0.0,0.0,0.0,0.0,0.0,0.0,0.00020453333854672517,4.057979634769504e-05,8.258993591545027e-05,-0.0002462795921340799,-0.00017921613592697394,4.76837158203125e-06,-5.273701896735261e-06,3.4273171826306766e-05,0.0005928316367920343,-0.0008486335322134663,-0.0004882183265682199,-1.3493499665837107e-05,0.00020093926558166847,-0.0011650231271353258,0.14510458707809448,11.826318740844727,-1.2433807849884033,-21.693452835083008,-0.3198142647743225,-2.5271639823913574,0.22830526530742645,0
48,0.2352464199066162,-0.14510458707809448,-11.901697158813477,1.2433807849884033,21.693452835083008,0.3198142647743225,2.5207552909851074,-0.17978231608867645,0.0,0.0,0.0,0.0,0.0,0.0,0.0,-0.1403550095467811,0.47494322715716525,0.07303809943870164,0.4175919327322215,-0.21339237316424567,0.12660760308998006,-0.22144457038586063,0.17267570428053539,-0.4875562524970762,-0.11155645933876034,-1.9461360549220157,0.13378511804342266,2.595546303484175,0.9452445589598611,0.1728802376190821,-0.48752024683155326,-0.11147110072896137,-1.9463801863486305,0.1336059019074957,2.595550359778934,0.9452445589611904,-0.0003760362340945827,0.0012887351125282652,0.0006129719081456393,0.00013542738547353737,4.702673668487381e-05,0.00011755242702939857,-0.0008699035117182753,0.0,0.0,0.0,0.0,0.0,0.0,0.0,0.00020453333854672517,3.600566552292017e-05,8.535860979896892e-05,-0.00024413142661483533,-0.00017921613592697394,4.056294759191559e-06,1.3292700273837e-12,0.0003760362340945827,-0.0012887351125282652,-0.0006129719081456393,-0.00013542738547353737,-4.702673668487381e-05,-0.00011755242702939857,0.0008699035117182753,0.14510458707809448,11.901697158813477,-1.2433807849884033,-21.693452835083008,-0.3198142647743225,-2.5207552909851074,0.17978231608867645,0
49,0.23982882499694824,-0.14510458707809448,-11.901697158813477,1.2433807849884033,21.693452835083008,0.3198142647743225,2.5207552909851074,-0.17978231608867645,0.0,0.0,0.0,0.0,0.0,0.0,0.0,-0.1403550095467811,0.47494322715716525,0.07303809943870164,0.4175919327322215,-0.21339237316424567,0.12660760308998006,-0.22144457038586063,0.17267570428053539,-0.4875562524970762,-0.11155645933876034,-1.9461360549220157,0.13378511804342266,2.595546303484175,0.9452445589598611,0.1728802376190821,-0.48752024683155326,-0.11147110072896137,-1.9463801863486305,0.1336059019074957,2.595550359778934,0.9452445589611904,-0.0003760362340945827,0.0012887351125282652,0.0006129719081456393,0.00013542738547353737,4.702673668487381e-05,0.00011755242702939857,-0.0008699035117182753,0.0,0.0,0.0,0.0,0.0,0.0,0.0,0.00020453333854672517,3.600566552292017e-05,8.535860979896892e-05,-0.00024413142661483533,-0.00017921613592697394,4.056294759191559e-06,1.3292700273837e-12,0.0003760362340945827,-0.0012887351125282652,-0.0006129719081456393,-0.00013542738547353737,-4.702673668487381e-05,-0.00011755242702939857,0.0008699035117182753,0.14510458707809448,11.901697158813477,-1.2433807849884033,-21.693452835083008,-0.3198142647743225,-2.5207552909851074,0.17978231608867645,0
50,0.24664855003356934,-0.17287558317184448,-11.873926162719727,1.2671844959259033,21.717256546020508,0.3143211007118225,2.5271639823913574,-0.20724813640117645,0.0,0.0,0.0,0.0,0.0,0.0,0.0,-0.1430882014461934,0.4623201911806685,0.0756018072680567,0.42485798749667014,-0.21334975248081375,0.12703580344155302,-0.22034136044078276,0.17267765312236652,-0.48755751239646894,-0.11155820791455216,-1.94613775157013,0.13378572839498518,2.595545591407352,0.9452476107196676,0.1728802376190821,-0.48752024683155326,-0.11147110072896137,-1.9463801863486305,0.1336059019074957,2.595550359778934,0.9452445589611904,0.0002042084122419773,2.8075469594248122e-05,0.00025143734178572865,-0.00028437459495008415,0.00021477674345168101,-0.0002579715651967719,0.01015594387369538,0.0,0.0,0.0,0.0,0.0,0.0,0.0,0.00020258449671559098,3.726556491567834e-05,8.710718559079567e-05,-0.0002424347785006109,-0.00017982648748948726,4.76837158203125e-06,-3.051758477146116e-06,-0.0002042084122419773,-2.8075469594248122e-05,-0.00025143734178572865,0.00028437459495008415,-0.00021477674345168101,0.0002579715651967719,-0.01015594387369538,0.17287558317184448,11.873926162719727,-1.2671844959259033,-21.717256546020508,-0.3143211007118225,-2.5271639823913574,0.20724813640117645,0
51,0.24982643127441406,-0.17287558317184448,-11.873926162719727,1.2671844959259033,21.717256546020508,0.3143211007118225,2.5271639823913574,-0.20724813640117645,0.0,0.0,0.0,0.0,0.0,0.0,0.0,-0.1430882014461934,0.4623201911806685,0.0756018072680567,0.42485798749667014,-0.21334975248081375,0.12703580344155302,-0.22034136044078276,0.17267765312236652,-0.48755751239646894,-0.11155820791455216,-1.94613775157013,0.13378572839498518,2.595545591407352,0.9452476107196676,0.1728802376190821,-0.48752024683155326,-0.11147110072896137,-1.9463801863486305,0.1336059019074957,2.595550359778934,0.9452445589611904,0.0002042084122419773,2.8075469594248122e-05,0.00025143734178572865,-0.00028437459495008415,0.00021477674345168101,-0.0002579715651967719,0.01015594387369538,0.0,0.0,0.0,0.0,0.0,0.0,0.0,0.00020258449671559098,3.726556491567834e-05,8.710718559079567e-05,-0.0002424347785006109,-0.00017982648748948726,4.76837158203125e-06,-3.051758477146116e-06,-0.0002042084122419773,-2.8075469594248122e-05,-0.00025143734178572865,0.00028437459495008415,-0.00021477674345168101,0.0002579715651967719,-0.01015594387369538,0.17287558317184448,11.873926162719727,-1.2671844959259033,-21.717256546020508,-0.3143211007118225,-2.5271639823913574,0.20724813640117645,0
52,0.25482654571533203,-0.09352988004684448,-11.850122451782227,1.3425629138946533,21.693452835083008,0.3317161202430725,2.5207552909851074,-0.22098104655742645,0.0,0.0,0.0,0.0,0.0,0.0,0.0,-0.13566646462167387,0.4693421900010393,0.0910726758662386,0.42042158650310585,-0.21381327777969591,0.12583159199898794,-0.22089558125783185,0.17267208500284897,-0.48756130298883654,-0.1115634719112982,-1.946134161858458,0.13378379561503725,2.595546303484175,0.9452491365985738,0.1728802376190821,-0.48752024683155326,-0.11147110072896137,-1.9463801863486305,0.1336059019074957,2.595550359778934,0.9452445589611904,-0.0006459697046103139,-0.00026288682307414106,-0.0005979801528663148,0.0007596429738063813,-0.0003723686014082732,0.00021674742004560061,0.00039435330288200123,0.0,0.0,0.0,0.0,0.0,0.0,0.0,0.00020815261623313708,4.105615728328127e-05,9.237118233683395e-05,-0.00024602449017252503,-0.00017789370754156542,4.056294759191559e-06,-4.5776373833739115e-06,0.0006459697046103139,0.00026288682307414106,0.0005979801528663148,-0.0007596429738063813,0.0003723686014082732,-0.00021674742004560061,-0.00039435330288200123,0.09352988004684448,11.850122451782227,-1.3425629138946533,-21.693452835083008,-0.3317161202430725,-2.5207552909851074,0.22098104655742645,0
53,0.25983309745788574,-0.09352988004684448,-11.850122451782227,1.3425629138946533,21.693452835083008,0.3317161202430725,2.5207552909851074,-0.22098104655742645,0.0,0.0,0.0,0.0,0.0,0.0,0.0,-0.13566646462167387,0.4693421900010393,0.0910726758662386,0.42042158650310585,-0.21381327777969591,0.12583159199898794,-0.22089558125783185,0.17267208500284897,-0.48756130298883654,-0.1115634719112982,-1.946134161858458,0.13378379561503725,2.595546303484175,0.9452491365985738,0.1728802376190821,-0.48752024683155326,-0.11147110072896137,-1.9463801863486305,0.1336059019074957,2.595550359778934,0.9452445589611904,-0.0006459697046103139,-0.00026288682307414106,-0.0005979801528663148,0.0007596429738063813,-0.0003723686014082732,0.00021674742004560061,0.00039435330288200123,0.0,0.0,0.0,0.0,0.0,0.0,0.0,0.00020815261623313708,4.105615728328127e-05,9.237118233683395e-05,-0.00024602449017252503,-0.00017789370754156542,4.056294759191559e-06,-4.5776373833739115e-06,0.0006459697046103139,0.00026288682307414106,0.0005979801528663148,-0.0007596429738063813,0.0003723686014082732,-0.00021674742004560061,-0.00039435330288200123,0.09352988004684448,11.850122451782227,-1.3425629138946533,-21.693452835083008,-0.3317161202430725,-2.5207552909851074,0.22098104655742645,0
54,0.2648487091064453,-0.09352988004684448,-11.802515029907227,1.2433807849884033,21.693452835083008,0.3317161202430725,2.5207552909851074,-0.22098104655742645,0.0,0.0,0.0,0.0,0.0,0.0,0.0,-0.1420819877178721,0.46862880636634774,0.07681751592849008,0.41877847017831726,-0.2123900674753137,0.12671548761612478,-0.2217047564196224,0.17267208500284897,-0.48756536147825924,-0.11155653849176744,-1.946136148822691,0.13378379561503725,2.595546303484175,0.9452491365985738,0.1728802376190821,-0.48752024683155326,-0.11147110072896137,-1.9463801863486305,0.1336059019074957,2.595550359778934,0.9452445589611904,9.898220564847632e-06,-0.0008865260217611552,0.0007522277475700622,0.0005169748759959403,-0.000417702403057267,0.0002901993768408279,-6.94738611881323e-05,0.0,0.0,0.0,0.0,0.0,0.0,0.0,0.00020815261623313708,4.511464670597931e-05,8.543776280607596e-05,-0.00024403752593959993,-0.00017789370754156542,4.056294759191559e-06,-4.5776373833739115e-06,-9.898220564847632e-06,0.0008865260217611552,-0.0007522277475700622,-0.0005169748759959403,0.000417702403057267,-0.0002901993768408279,6.94738611881323e-05,0.09352988004684448,11.802515029907227,-1.2433807849884033,-21.693452835083008,-0.3317161202430725,-2.5207552909851074,0.22098104655742645,0
55,0.2698397636413574,-0.09352988004684448,-11.802515029907227,1.2433807849884033,21.693452835083008,0.3317161202430725,2.5207552909851074,-0.22098104655742645,0.0,0.0,0.0,0.0,0.0,0.0,0.0,-0.1420819877178721,0.46862880636634774,0.07681751592849008,0.41877847017831726,-0.2123900674753137,0.12671548761612478,-0.2217047564196224,0.17267208500284897,-0.48756536147825924,-0.11155653849176744,-1.946136148822691,0.13378379561503725,2.595546303484175,0.9452491365985738,0.1728802376190821,-0.48752024683155326,-0.11147110072896137,-1.9463801863486305,0.1336059019074957,2.595550359778934,0.9452445589611904,9.898220564847632e-06,-0.0008865260217611552,0.0007522277475700622,0.0005169748759959403,-0.000417702403057267,0.0002901993768408279,-6.94738611881323e-05,0.0,0.0,0.0,0.0,0.0,0.0,0.0,0.00020815261623313708,4.511464670597931e-05,8.543776280607596e-05,-0.00024403752593959993,-0.00017789370754156542,4.056294759191559e-06,-4.5776373833739115e-06,-9.898220564847632e-06,0.0008865260217611552,-0.0007522277475700622,-0.0005169748759959403,0.000417702403057267,-0.0002901993768408279,6.94738611881323e-05,0.09352988004684448,11.802515029907227,-1.2433807849884033,-21.693452835083008,-0.3317161202430725,-2.5207552909851074,0.22098104655742645,0
56,0.274829626083374,-0.17287558317184448,-11.802515029907227,1.2671844959259033,21.669649124145508,0.3198142647743225,2.5335726737976074,-0.19351522624492645,0.0,0.0,0.0,0.0,0.0,0.0,0.0,-0.13278972376585155,0.4782183265365982,0.08377719736249829,0.41464890625324496,-0.2125064065552672,0.12628904541407945,-0.22241945112719766,0.17267765312236652,-0.48756547333300165,-0.1115579451361627,-1.946133287177287,0.1337847637269232,2.595544879330529,0.9452460848407613,0.1728802376190821,-0.48752024683155326,-0.11147110072896137,-1.9463801863486305,0.1336059019074957,2.595550359778934,0.9452445589611904,0.0010673082662717701,-6.0829837480727436e-05,0.00039697217115355763,0.0006835449255475616,0.00012181772630874206,-0.00030833211132668526,0.008731667112445501,0.0,0.0,0.0,0.0,0.0,0.0,0.0,0.00020258449671559098,4.522650144839213e-05,8.68444072013308e-05,-0.0002468991713435731,-0.00017886181942750046,5.480448404870941e-06,-1.5258795709183204e-06,-0.0010673082662717701,6.0829837480727436e-05,-0.00039697217115355763,-0.0006835449255475616,-0.00012181772630874206,0.00030833211132668526,-0.008731667112445501,0.17287558317184448,11.802515029907227,-1.2671844959259033,-21.669649124145508,-0.3198142647743225,-2.5335726737976074,0.19351522624492645,0
57,0.28015851974487305,-0.17287558317184448,-11.802515029907227,1.2671844959259033,21.669649124145508,0.3198142647743225,2.5335726737976074,-0.19351522624492645,0.0,0.0,0.0,0.0,0.0,0.0,0.0,-0.13278972376585155,0.4782183265365982,0.08377719736249829,0.41464890625324496,-0.2125064065552672,0.12628904541407945,-0.22241945112719766,0.17267765312236652,-0.48756547333300165,-0.1115579451361627,-1.946133287177287,0.1337847637269232,2.595544879330529,0.9452460848407613,0.1728802376190821,-0.48752024683155326,-0.11147110072896137,-1.9463801863486305,0.1336059019074957,2.595550359778934,0.9452445589611904,0.0010673082662717701,-6.0829837480727436e-05,0.00039697217115355763,0.0006835449255475616,0.00012181772630874206,-0.00030833211132668526,0.008731667112445501,0.0,0.0,0.0,0.0,0.0,0.0,0.0,0.00020258449671559098,4.522650144839213e-05,8.68444072013308e-05,-0.0002468991713435731,-0.00017886181942750046,5.480448404870941e-06,-1.5258795709183204e-06,-0.0010673082662717701,6.0829837480727436e-05,-0.00039697217115355763,-0.0006835449255475616,-0.00012181772630874206,0.00030833211132668526,-0.008731667112445501,0.17287558317184448,11.802515029907227,-1.2671844959259033,-21.669649124145508,-0.3198142647743225,-2.5335726737976074,0.19351522624492645,0
58,0.2848348617553711,-0.17287558317184448,-11.802515029907227,1.2671844959259033,21.669649124145508,0.3198142647743225,2.5335726737976074,-0.19351522624492645,0.0,0.0,0.0,0.0,0.0,0.0,0.0,-0.13278972376585155,0.4782183265365982,0.08377719736249829,0.41464890625324496,-0.2125064065552672,0.12628904541407945,-0.22241945112719766,0.17267765312236652,-0.48756547333300165,-0.1115579451361627,-1.946133287177287,0.1337847637269232,2.595544879330529,0.9452460848407613,0.1728802376190821,-0.48752024683155326,-0.11147110072896137,-1.9463801863486305,0.1336059019074957,2.595550359778934,0.9452445589611904,0.0010673082662717701,-6.0829837480727436e-05,0.00039697217115355763,0.0006835449255475616,0.00012181772630874206,-0.00030833211132668526,0.008731667112445501,0.0,0.0,0.0,0.0,0.0,0.0,0.0,0.00020258449671559098,4.522650144839213e-05,8.68444072013308e-05,-0.0002468991713435731,-0.00017886181942750046,5.480448404870941e-06,-1.5258795709183204e-06,-0.0010673082662717701,6.0829837480727436e-05,-0.00039697217115355763,-0.0006835449255475616,-0.00012181772630874206,0.00030833211132668526,-0.008731667112445501,0.17287558317184448,11.802515029907227,-1.2671844959259033,-21.669649124145508,-0.3198142647743225,-2.5335726737976074,0.19351522624492645,0
59,0.28985118865966797,-0.17287558317184448,-11.802515029907227,1.2671844959259033,21.669649124145508,0.3198142647743225,2.5335726737976074,-0.19351522624492645,0.0,0.0,0.0,0.0,0.0,0.0,0.0,-0.13278972376585155,0.4782183265365982,0.08377719736249829,0.41464890625324496,-0.2125064065552672,0.12628904541407945,-0.22241945112719766,0.17267765312236652,-0.48756547333300165,-0.1115579451361627,-1.946133287177287,0.1337847637269232,2.595544879330529,0.9452460848407613,0.1728802376190821,-0.48752024683155326,-0.11147110072896137,-1.9463801863486305,0.1336059019074957,2.595550359778934,0.9452445589611904,0.0010673082662717701,-6.0829837480727436e-05,0.00039697217115355763,0.0006835449255475616,0.00012181772630874206,-0.00030833211132668526,0.008731667112445501,0.0,0.0,0.0,0.0,0.0,0.0,0.0,0.00020258449671559098,4.522650144839213e-05,8.68444072013308e-05,-0.0002468991713435731,-0.00017886181942750046,5.480448404870941e-06,-1.5258795709183204e-06,-0.0010673082662717701,6.0829837480727436e-05,-0.00039697217115355763,-0.0006835449255475616,-0.00012181772630874206,0.00030833211132668526,-0.008731667112445501,0.17287558317184448,11.802515029907227,-1.2671844959259033,-21.669649124145508,-0.3198142647743225,-2.5335726737976074,0.19351522624492645,0
60,0.29485344886779785,-0.17287558317184448,-11.850122451782227,1.2671844959259033,21.669649124145508,0.3143211007118225,2.5271639823913574,-0.17337362468242645,0.0,0.0,0.0,0.0,0.0,0.0,0.0,-0.1374661054224279,0.46950735334078897,0.08060919355161748,0.4196347620062159,-0.21310171506330725,0.12646441580077802,-0.2232079550560395,0.17267765312236652,-0.48756139322260617,-0.11155812689154246,-1.946132263180753,0.1337853739144753,2.595545591407352,0.9452438468850322,0.1728802376190821,-0.48752024683155326,-0.11147110072896137,-1.9463801863486305,0.1336059019074957,2.595550359778934,0.9452445589611904,0.00011981214236600413,0.0006788828608206742,0.00020459247685060465,0.0003129142360969337,0.0002458947707394376,-0.0004939794226845452,-0.0007068059633778398,0.0,0.0,0.0,0.0,0.0,0.0,0.0,0.00020258449671559098,4.1146391052904185e-05,8.702616258109142e-05,-0.00024792316787758395,-0.00017947200697959742,4.76837158203125e-06,7.120761582601887e-07,-0.00011981214236600413,-0.0006788828608206742,-0.00020459247685060465,-0.0003129142360969337,-0.0002458947707394376,0.0004939794226845452,0.0007068059633778398,0.17287558317184448,11.850122451782227,-1.2671844959259033,-21.669649124145508,-0.3143211007118225,-2.5271639823913574,0.17337362468242645,0
61,0.29984617233276367,-0.17287558317184448,-11.850122451782227,1.2671844959259033,21.669649124145508,0.3143211007118225,2.5271639823913574,-0.17337362468242645,0.0,0.0,0.0,0.0,0.0,0.0,0.0,-0.1374661054224279,0.46950735334078897,0.08060919355161748,0.4196347620062159,-0.21310171506330725,0.12646441580077802,-0.2232079550560395,0.17267765312236652,-0.48756139322260617,-0.11155812689154246,-1.946132263180753,0.1337853739144753,2.595545591407352,0.9452438468850322,0.1728802376190821,-0.48752024683155326,-0.11147110072896137,-1.9463801863486305,0.1336059019074957,2.595550359778934,0.9452445589611904,0.00011981214236600413,0.0006788828608206742,0.00020459247685060465,0.0003129142360969337,0.0002458947707394376,-0.0004939794226845452,-0.0007068059633778398,0.0,0.0,0.0,0.0,0.0,0.0,0.0,0.00020258449671559098,4.1146391052904185e-05,8.702616258109142e-05,-0.00024792316787758395,-0.00017947200697959742,4.76837158203125e-06,7.120761582601887e-07,-0.00011981214236600413,-0.0006788828608206742,-0.00020459247685060465,-0.0003129142360969337,-0.0002458947707394376,0.0004939794226845452,0.0007068059633778398,0.17287558317184448,11.850122451782227,-1.2671844959259033,-21.669649124145508,-0.3143211007118225,-2.5271639823913574,0.17337362468242645,0
62,0.30483579635620117,-0.09352988004684448,-11.873926162719727,1.2909882068634033,21.693452835083008,0.3198142647743225,2.5335726737976074,-0.23471395671367645,0.0,0.0,0.0,0.0,0.0,0.0,0.0,-0.13825913324348255,0.4730960107622478,0.09141656884334957,0.4206410858132096,-0.21378242611695322,0.12617146163074494,-0.22158306276066417,0.17267208500284897,-0.48755971987917157,-0.11155987837481357,-1.9461361310516128,0.13378498681442252,2.595544879330529,0.94525066247748,0.1728802376190821,-0.48752024683155326,-0.11147110072896137,-1.9463801863486305,0.1336059019074957,2.595550359778934,0.9452445589611904,-0.0015098918638228427,0.0009446454290287533,0.00016487970482052035,0.0005550872130261485,-0.00015702170339461707,-0.00023278782835881446,0.0013515670728399451,0.0,0.0,0.0,0.0,0.0,0.0,0.0,0.00020815261623313708,3.9473047618310275e-05,8.877764585220327e-05,-0.00024405529701776452,-0.0001790849069268352,5.480448404870941e-06,-6.103516289601707e-06,0.0015098918638228427,-0.0009446454290287533,-0.00016487970482052035,-0.0005550872130261485,0.00015702170339461707,0.00023278782835881446,-0.0013515670728399451,0.09352988004684448,11.873926162719727,-1.2909882068634033,-21.693452835083008,-0.3198142647743225,-2.5335726737976074,0.23471395671367645,0
63,0.3098330497741699,-0.09352988004684448,-11.873926162719727,1.2909882068634033,21.693452835083008,0.3198142647743225,2.5335726737976074,-0.23471395671367645,0.0,0.0,0.0,0.0,0.0,0.0,0.0,-0.13825913324348255,0.4730960107622478,0.09141656884334957,0.4206410858132096,-0.21378242611695322,0.12617146163074494,-0.22158306276066417,0.17267208500284897,-0.48755971987917157,-0.11155987837481357,-1.9461361310516128,0.13378498681442252,2.595544879330529,0.94525066247748,0.1728802376190821,-0.48752024683155326,-0.11147110072896137,-1.9463801863486305,0.1336059019074957,2.595550359778934,0.9452445589611904,-0.0015098918638228427,0.0009446454290287533,0.00016487970482052035,0.0005550872130261485,-0.00015702170339461707,-0.00023278782835881446,0.0013515670728399451,0.0,0.0,0.0,0.0,0.0,0.0,0.0,0.00020815261623313708,3.9473047618310275e-05,8.877764585220327e-05,-0.00024405529701776452,-0.0001790849069268352,5.480448404870941e-06,-6.103516289601707e-06,0.0015098918638228427,-0.0009446454290287533,-0.00016487970482052035,-0.0005550872130261485,0.00015702170339461707,0.00023278782835881446,-0.0013515670728399451,0.09352988004684448,11.873926162719727,-1.2909882068634033,-21.693452835083008,-0.3198142647743225,-2.5335726737976074,0.23471395671367645,0
64,0.3148355484008789,-0.04592245817184448,-11.873926162719727,1.2909882068634033,21.693452835083008,0.3198142647743225,2.5143465995788574,-0.21457235515117645,0.0,0.0,0.0,0.0,0.0,0.0,0.0,-0.1314440737901937,0.48495187722528793,0.09549281213417443,0.41110628143570416,-0.21394593443668392,0.1248344785531941,-0.22033565770955738,0.17266874413113845,-0.48756037459083057,-0.11155702268820246,-1.9461371023991072,0.133785117556651,2.5955470155609977,0.9452484245217508,0.1728802376190821,-0.48752024683155326,-0.11147110072896137,-1.9463801863486305,0.1336059019074957,2.595550359778934,0.9452445589611904,-0.0005106490736565374,-0.00021470082171447905,0.0001182776029245488,0.0003899687661947788,5.1454809052709477e-05,0.0003990812209908432,0.0006529273113831336,0.0,0.0,0.0,0.0,0.0,0.0,0.0,0.00021149348794366474,4.0127759277308606e-05,8.592195924109203e-05,-0.00024308394952332613,-0.00017921564915532318,3.3442179363518676e-06,-3.865560560423198e-06,0.0005106490736565374,0.00021470082171447905,-0.0001182776029245488,-0.0003899687661947788,-5.1454809052709477e-05,-0.0003990812209908432,-0.0006529273113831336,0.04592245817184448,11.873926162719727,-1.2909882068634033,-21.693452835083008,-0.3198142647743225,-2.5143465995788574,0.21457235515117645,0
65,0.31983256340026855,-0.04592245817184448,-11.873926162719727,1.2909882068634033,21.693452835083008,0.3198142647743225,2.5143465995788574,-0.21457235515117645,0.0,0.0,0.0,0.0,0.0,0.0,0.0,-0.1314440737901937,0.48495187722528793,0.09549281213417443,0.41110628143570416,-0.21394593443668392,0.1248344785531941,-0.22033565770955738,0.17266874413113845,-0.48756037459083057,-0.11155702268820246,-1.9461371023991072,0.133785117556651,2.5955470155609977,0.9452484245217508,0.1728802376190821,-0.48752024683155326,-0.11147110072896137,-1.9463801863486305,0.1336059019074957,2.595550359778934,0.9452445589611904,-0.0005106490736565374,-0.00021470082171447905,0.0001182776029245488,0.0003899687661947788,5.1454809052709477e-05,0.0003990812209908432,0.0006529273113831336,0.0,0.0,0.0,0.0,0.0,0.0,0.0,0.00021149348794366474,4.0127759277308606e-05,8.592195924109203e-05,-0.00024308394952332613,-0.00017921564915532318,3.3442179363518676e-06,-3.865560560423198e-06,0.0005106490736565374,0.00021470082171447905,-0.0001182776029245488,-0.0003899687661947788,-5.1454809052709477e-05,-0.0003990812209908432,-0.0006529273113831336,0.04592245817184448,11.873926162719727,-1.2909882068634033,-21.693452835083008,-0.3198142647743225,-2.5143465995788574,0.21457235515117645,0
66,0.32483768463134766,-0.19667929410934448,-11.850122451782227,1.2156097888946533,21.669649124145508,0.3198142647743225,2.5335726737976074,-0.20724813640117645,0.0,0.0,0.0,0.0,0.0,0.0,0.0,-0.14323082244813118,0.474799481996087,0.06410383369503408,0.41168337470819866,-0.21212835582053546,0.12527981857311407,-0.21928657469001467,0.17267932355822177,-0.4875591561974123,-0.11155458657021754,-1.9461344548196322,0.13378511804342175,2.595544879330529,0.9452476107196676,0.1728802376190821,-0.48752024683155326,-0.11147110072896137,-1.9463801863486305,0.1336059019074957,2.595550359778934,0.9452445589611904,0.000980754850931601,-0.0007175471732079703,0.0005822123834296501,0.0007645040473229827,-5.2860161066474806e-05,-0.000415862063858901,-0.0005703155557646705,0.0,0.0,0.0,0.0,0.0,0.0,0.0,0.00020091406086034103,3.8909365859041145e-05,8.348584125617009e-05,-0.0002457315289983164,-0.000179216135926058,5.480448404870941e-06,-3.051758477146116e-06,-0.000980754850931601,0.0007175471732079703,-0.0005822123834296501,-0.0007645040473229827,5.2860161066474806e-05,0.000415862063858901,0.0005703155557646705,0.19667929410934448,11.850122451782227,-1.2156097888946533,-21.669649124145508,-0.3198142647743225,-2.5335726737976074,0.20724813640117645,0
67,0.32982563972473145,-0.19667929410934448,-11.850122451782227,1.2156097888946533,21.669649124145508,0.3198142647743225,2.5335726737976074,-0.20724813640117645,0.0,0.0,0.0,0.0,0.0,0.0,0.0,-0.14323082244813118,0.474799481996087,0.06410383369503408,0.41168337470819866,-0.21212835582053546,0.12527981857311407,-0.21928657469001467,0.17267932355822177,-0.4875591561974123,-0.11155458657021754,-1.9461344548196322,0.13378511804342175,2.595544879330529,0.9452476107196676,0.1728802376190821,-0.48752024683155326,-0.11147110072896137,-1.9463801863486305,0.1336059019074957,2.595550359778934,0.9452445589611904,0.000980754850931601,-0.0007175471732079703,0.0005822123834296501,0.0007645040473229827,-5.2860161066474806e-05,-0.000415862063858901,-0.0005703155557646705,0.0,0.0,0.0,0.0,0.0,0.0,0.0,0.00020091406086034103,3.8909365859041145e-05,8.348584125617009e-05,-0.0002457315289983164,-0.000179216135926058,5.480448404870941e-06,-3.051758477146116e-06,-0.000980754850931601,0.0007175471732079703,-0.0005822123834296501,-0.0007645040473229827,5.2860161066474806e-05,0.000415862063858901,0.0005703155557646705,0.19667929410934448,11.850122451782227,-1.2156097888946533,-21.669649124145508,-0.3198142647743225,-2.5335726737976074,0.20724813640117645,0
68,0.3348252773284912,-0.12130087614059448,-11.826318740844727,1.2671844959259033,21.693452835083008,0.3198142647743225,2.5207552909851074,-0.22830526530742645,0.0,0.0,0.0,0.0,0.0,0.0,0.0,-0.13974175269562014,0.4734994920534956,0.07838304751888825,0.41107942929365404,-0.21333900446289453,0.12449471708040025,-0.22003279896677766,0.1726740338446801,-0.48756082662783173,-0.11155747061508971,-1.9461348535788772,0.1337840550939242,2.595546303484175,0.9452499460400063,0.1728802376190821,-0.48752024683155326,-0.11147110072896137,-1.9463801863486305,0.1336059019074957,2.595550359778934,0.9452445589611904,-0.0015084761202301495,-0.0006650407559310922,-0.0011284542956650858,5.497996076606748e-05,0.0001703905565227781,-6.929031067726989e-05,0.000509631278604604,0.0,0.0,0.0,0.0,0.0,0.0,0.0,0.00020620377440200288,4.0579796278472635e-05,8.636988612834018e-05,-0.00024533276975335916,-0.00017815318642849798,4.056294759191559e-06,-5.387078815921598e-06,0.0015084761202301495,0.0006650407559310922,0.0011284542956650858,-5.497996076606748e-05,-0.0001703905565227781,6.929031067726989e-05,-0.000509631278604604,0.12130087614059448,11.826318740844727,-1.2671844959259033,-21.693452835083008,-0.3198142647743225,-2.5207552909851074,0.22830526530742645,0
69,0.339832067489624,-0.12130087614059448,-11.826318740844727,1.2671844959259033,21.693452835083008,0.3198142647743225,2.5207552909851074,-0.22830526530742645,0.0,0.0,0.0,0.0,0.0,0.0,0.0,-0.13974175269562014,0.4734994920534956,0.07838304751888825,0.41107942929365404,-0.21333900446289453,0.12449471708040025,-0.22003279896677766,0.1726740338446801,-0.48756082662783173,-0.11155747061508971,-1.9461348535788772,0.1337840550939242,2.595546303484175,0.9452499460400063,0.1728802376190821,-0.48752024683155326,-0.11147110072896137,-1.9463801863486305,0.1336059019074957,2.595550359778934,0.9452445589611904,-0.0015084761202301495,-0.0006650407559310922,-0.0011284542956650858,5.497996076606748e-05,0.0001703905565227781,-6.929031067726989e-05,0.000509631278604604,0.0,0.0,0.0,0.0,0.0,0.0,0.0,0.00020620377440200288,4.0579796278472635e-05,8.636988612834018e-05,-0.00024533276975335916,-0.00017815318642849798,4.056294759191559e-06,-5.387078815921598e-06,0.0015084761202301495,0.0006650407559310922,0.0011284542956650858,-5.497996076606748e-05,-0.0001703905565227781,6.929031067726989e-05,-0.000509631278604604,0.12130087614059448,11.826318740844727,-1.2671844959259033,-21.693452835083008,-0.3198142647743225,-2.5207552909851074,0.22830526530742645,0
70,0.34482550621032715,-0.17287558317184448,-11.850122451782227,1.2671844959259033,21.693452835083008,0.3079124093055725,2.5271639823913574,-0.17337362468242645,0.0,0.0,0.0,0.0,0.0,0.0,0.0,-0.14098626596021427,0.4601457101469349,0.07937710282430034,0.41819650349085963,-0.2131554339754265,0.1250383776718741,-0.22113232370355632,0.17267765312236652,-0.4875613374015885,-0.11155820892638431,-1.9461339248547804,0.13378608615330848,2.595545591407352,0.9452438468850239,0.1728802376190821,-0.48752024683155326,-0.11147110072896137,-1.9463801863486305,0.1336059019074957,2.595550359778934,0.9452445589611904,0.0006078252585055571,-0.00033874390229220186,-0.0005175018969517987,0.00014429520471021816,0.00047206370254703443,0.00015302900492867368,-0.0016441646312311915,0.0,0.0,0.0,0.0,0.0,0.0,0.0,0.00020258449671559098,4.109057003526262e-05,8.710819742294151e-05,-0.0002462614938500973,-0.0001801842458127867,4.76837158203125e-06,7.12076166475839e-07,-0.0006078252585055571,0.00033874390229220186,0.0005175018969517987,-0.00014429520471021816,-0.00047206370254703443,-0.00015302900492867368,0.0016441646312311915,0.17287558317184448,11.850122451782227,-1.2671844959259033,-21.693452835083008,-0.3079124093055725,-2.5271639823913574,0.17337362468242645,0
71,0.349825382232666,-0.17287558317184448,-11.850122451782227,1.2671844959259033,21.693452835083008,0.3079124093055725,2.5271639823913574,-0.17337362468242645,0.0,0.0,0.0,0.0,0.0,0.0,0.0,-0.14098626596021427,0.4601457101469349,0.07937710282430034,0.41819650349085963,-0.2131554339754265,0.1250383776718741,-0.22113232370355632,0.17267765312236652,-0.4875613374015885,-0.11155820892638431,-1.9461339248547804,0.13378608615330848,2.595545591407352,0.9452438468850239,0.1728802376190821,-0.48752024683155326,-0.11147110072896137,-1.9463801863486305,0.1336059019074957,2.595550359778934,0.9452445589611904,0.0006078252585055571,-0.00033874390229220186,-0.0005175018969517987,0.00014429520471021816,0.00047206370254703443,0.00015302900492867368,-0.0016441646312311915,0.0,0.0,0.0,0.0,0.0,0.0,0.0,0.00020258449671559098,4.109057003526262e-05,8.710819742294151e-05,-0.0002462614938500973,-0.0001801842458127867,4.76837158203125e-06,7.12076166475839e-07,-0.0006078252585055571,0.00033874390229220186,0.0005175018969517987,-0.00014429520471021816,-0.00047206370254703443,-0.00015302900492867368,0.0016441646312311915,0.17287558317184448,11.850122451782227,-1.2671844959259033,-21.693452835083008,-0.3079124093055725,-2.5271639823913574,0.17337362468242645,0
72,0.3548257350921631,-0.14510458707809448,-11.873926162719727,1.3147919178009033,21.717256546020508,0.3262229561805725,2.5207552909851074,-0.17978231608867645,0.0,0.0,0.0,0.0,0.0,0.0,0.0,-0.14132418077887293,0.4567848669819798,0.07637824600565062,0.4218880531680765,-0.21332250815934822,0.12566074034860758,-0.2204715147440193,0.17267570428053539,-0.487559738843993,-0.11156154686967189,-1.9461362917939322,0.13378440596459965,2.595546303484175,0.945244558961855,0.1728802376190821,-0.48752024683155326,-0.11147110072896137,-1.9463801863486305,0.1336059019074957,2.595550359778934,0.9452445589611904,1.834480883792281e-06,-2.3468623559995918e-05,-0.0005487540388146828,1.9169647392363143e-05,-0.00021782730413745556,0.00015665202044570897,-0.0010566245960901368,0.0,0.0,0.0,0.0,0.0,0.0,0.0,0.00020453333854672517,3.949201243974576e-05,9.04461407105206e-05,-0.00024389455469830956,-0.00017850405710395645,4.056294759191559e-06,-6.645795025406187e-13,-1.834480883792281e-06,2.3468623559995918e-05,0.0005487540388146828,-1.9169647392363143e-05,0.00021782730413745556,-0.00015665202044570897,0.0010566245960901368,0.14510458707809448,11.873926162719727,-1.3147919178009033,-21.717256546020508,-0.3262229561805725,-2.5207552909851074,0.17978231608867645,0
73,0.35983967781066895,-0.14510458707809448,-11.873926162719727,1.3147919178009033,21.717256546020508,0.3262229561805725,2.5207552909851074,-0.17978231608867645,0.0,0.0,0.0,0.0,0.0,0.0,0.0,-0.14132418077887293,0.4567848669819798,0.07637824600565062,0.4218880531680765,-0.21332250815934822,0.12566074034860758,-0.2204715147440193,0.17267570428053539,-0.487559738843993,-0.11156154686967189,-1.9461362917939322,0.13378440596459965,2.595546303484175,0.945244558961855,0.1728802376190821,-0.48752024683155326,-0.11147110072896137,-1.9463801863486305,0.1336059019074957,2.595550359778934,0.9452445589611904,1.834480883792281e-06,-2.3468623559995918e-05,-0.0005487540388146828,1.9169647392363143e-05,-0.00021782730413745556,0.00015665202044570897,-0.0010566245960901368,0.0,0.0,0.0,0.0,0.0,0.0,0.0,0.00020453333854672517,3.949201243974576e-05,9.04461407105206e-05,-0.00024389455469830956,-0.00017850405710395645,4.056294759191559e-06,-6.645795025406187e-13,-1.834480883792281e-06,2.3468623559995918e-05,0.0005487540388146828,-1.9169647392363143e-05,0.00021782730413745556,-0.00015665202044570897,0.0010566245960901368,0.14510458707809448,11.873926162719727,-1.3147919178009033,-21.717256546020508,-0.3262229561805725,-2.5207552909851074,0.17978231608867645,0
74,0.3648364543914795,-0.14510458707809448,-11.873926162719727,1.3147919178009033,21.741060256958008,0.3143211007118225,2.5143465995788574,-0.15964071452617645,0.0,0.0,0.0,0.0,0.0,0.0,0.0,-0.14315146973666842,0.4612290581502908,0.07636941219816892,0.41987058538309974,-0.2133998937177436,0.1254520967941893,-0.2193515223604239,0.17267570428053539,-0.48755772726531205,-0.11156154654408759,-1.9461393934074704,0.13378572839498515,2.5955470155609977,0.9452423210061258,0.1728802376190821,-0.48752024683155326,-0.11147110072896137,-1.9463801863486305,0.1336059019074957,2.595550359778934,0.9452445589611904,0.000307655587910182,4.117781565668179e-05,-0.00022493680119180983,-0.0006742748246630891,0.00024815402333479953,0.0004656768612089986,-0.0015716540355394338,0.0,0.0,0.0,0.0,0.0,0.0,0.0,0.00020453333854672517,3.748043375878529e-05,9.044581512622496e-05,-0.00024079294116008398,-0.0001798264874894595,3.3442179363518676e-06,2.2379550645990065e-06,-0.000307655587910182,-4.117781565668179e-05,0.00022493680119180983,0.0006742748246630891,-0.00024815402333479953,-0.0004656768612089986,0.0015716540355394338,0.14510458707809448,11.873926162719727,-1.3147919178009033,-21.741060256958008,-0.3143211007118225,-2.5143465995788574,0.15964071452617645,0
75,0.3698253631591797,-0.14510458707809448,-11.873926162719727,1.3147919178009033,21.741060256958008,0.3143211007118225,2.5143465995788574,-0.15964071452617645,0.0,0.0,0.0,0.0,0.0,0.0,0.0,-0.14315146973666842,0.4612290581502908,0.07636941219816892,0.41987058538309974,-0.2133998937177436,0.1254520967941893,-0.2193515223604239,0.17267570428053539,-0.48755772726531205,-0.11156154654408759,-1.9461393934074704,0.13378572839498515,2.5955470155609977,0.9452423210061258,0.1728802376190821,-0.48752024683155326,-0.11147110072896137,-1.9463801863486305,0.1336059019074957,2.595550359778934,0.9452445589611904,0.000307655587910182,4.117781565668179e-05,-0.00022493680119180983,-0.0006742748246630891,0.00024815402333479953,0.0004656768612089986,-0.0015716540355394338,0.0,0.0,0.0,0.0,0.0,0.0,0.0,0.00020453333854672517,3.748043375878529e-05,9.044581512622496e-05,-0.00024079294116008398,-0.0001798264874894595,3.3442179363518676e-06,2.2379550645990065e-06,-0.000307655587910182,-4.117781565668179e-05,0.00022493680119180983,0.0006742748246630891,-0.00024815402333479953,-0.0004656768612089986,0.0015716540355394338,0.14510458707809448,11.873926162719727,-1.3147919178009033,-21.741060256958008,-0.3143211007118225,-2.5143465995788574,0.15964071452617645,0
76,0.3748326301574707,-0.14510458707809448,-11.873926162719727,1.3147919178009033,21.741060256958008,0.3143211007118225,2.5143465995788574,-0.15964071452617645,0.0,0.0,0.0,0.0,0.0,0.0,0.0,-0.14315146973666842,0.4612290581502908,0.07636941219816892,0.41987058538309974,-0.2133998937177436,0.1254520967941893,-0.2193515223604239,0.17267570428053539,-0.48755772726531205,-0.11156154654408759,-1.9461393934074704,0.13378572839498515,2.5955470155609977,0.9452423210061258,0.1728802376190821,-0.48752024683155326,-0.11147110072896137,-1.9463801863486305,0.1336059019074957,2.595550359778934,0.9452445589611904,0.000307655587910182,4.117781565668179e-05,-0.00022493680119180983,-0.0006742748246630891,0.00024815402333479953,0.0004656768612089986,-0.0015716540355394338,0.0,0.0,0.0,0.0,0.0,0.0,0.0,0.00020453333854672517,3.748043375878529e-05,9.044581512622496e-05,-0.00024079294116008398,-0.0001798264874894595,3.3442179363518676e-06,2.2379550645990065e-06,-0.000307655587910182,-4.117781565668179e-05,0.00022493680119180983,0.0006742748246630891,-0.00024815402333479953,-0.0004656768612089986,0.0015716540355394338,0.14510458707809448,11.873926162719727,-1.3147919178009033,-21.741060256958008,-0.3143211007118225,-2.5143465995788574,0.15964071452617645,0
77,0.37985730171203613,-0.14510458707809448,-11.873926162719727,1.3147919178009033,21.741060256958008,0.3143211007118225,2.5143465995788574,-0.15964071452617645,0.0,0.0,0.0,0.0,0.0,0.0,0.0,-0.14315146973666842,0.4612290581502908,0.07636941219816892,0.41987058538309974,-0.2133998937177436,0.1254520967941893,-0.2193515223604239,0.17267570428053539,-0.48755772726531205,-0.11156154654408759,-1.9461393934074704,0.13378572839498515,2.5955470155609977,0.9452423210061258,0.1728802376190821,-0.48752024683155326,-0.11147110072896137,-1.9463801863486305,0.1336059019074957,2.595550359778934,0.9452445589611904,0.000307655587910182,4.117781565668179e-05,-0.00022493680119180983,-0.0006742748246630891,0.00024815402333479953,0.0004656768612089986,-0.0015716540355394338,0.0,0.0,0.0,0.0,0.0,0.0,0.0,0.00020453333854672517,3.748043375878529e-05,9.044581512622496e-05,-0.00024079294116008398,-0.0001798264874894595,3.3442179363518676e-06,2.2379550645990065e-06,-0.000307655587910182,-4.117781565668179e-05,0.00022493680119180983,0.0006742748246630891,-0.00024815402333479953,-0.0004656768612089986,0.0015716540355394338,0.14510458707809448,11.873926162719727,-1.3147919178009033,-21.741060256958008,-0.3143211007118225,-2.5143465995788574,0.15964071452617645,0
78,0.38483166694641113,-0.12130087614059448,-11.873926162719727,1.3425629138946533,21.741060256958008,0.3143211007118225,2.5207552909851074,-0.24112264811992645,0.0,0.0,0.0,0.0,0.0,0.0,0.0,-0.13905036633006967,0.45507413865110025,0.08450140766349781,0.4249023522045338,-0.21292038302594152,0.12565317348275776,-0.21801771257201927,0.1726740338446801,-0.48755751529998437,-0.11156041029370024,-1.9461379541785953,0.13378572834098176,2.595546303484175,0.945251374554303,0.1728802376190821,-0.48752024683155326,-0.11147110072896137,-1.9463801863486305,0.1336059019074957,2.595550359778934,0.9452445589611904,0.0005335612040964191,0.0001884296449894984,-0.0006983827501770832,-0.0007003262073211851,0.0004489774811905786,5.179330952027046e-05,0.001523001159069808,0.0,0.0,0.0,0.0,0.0,0.0,0.0,0.00020620377440200288,3.726846843110643e-05,8.930956473887641e-05,-0.00024223217003527253,-0.0001798264334860744,4.056294759191559e-06,-6.8155931125524205e-06,-0.0005335612040964191,-0.0001884296449894984,0.0006983827501770832,0.0007003262073211851,-0.0004489774811905786,-5.179330952027046e-05,-0.001523001159069808,0.12130087614059448,11.873926162719727,-1.3425629138946533,-21.741060256958008,-0.3143211007118225,-2.5207552909851074,0.24112264811992645,0
79,0.3899955749511719,-0.12130087614059448,-11.873926162719727,1.3425629138946533,21.741060256958008,0.3143211007118225,2.5207552909851074,-0.24112264811992645,0.0,0.0,0.0,0.0,0.0,0.0,0.0,-0.13905036633006967,0.45507413865110025,0.08450140766349781,0.4249023522045338,-0.21292038302594152,0.12565317348275776,-0.21801771257201927,0.1726740338446801,-0.48755751529998437,-0.11156041029370024,-1.9461379541785953,0.13378572834098176,2.595546303484175,0.945251374554303,0.1728802376190821,-0.48752024683155326,-0.11147110072896137,-1.9463801863486305,0.1336059019074957,2.595550359778934,0.9452445589611904,0.0005335612040964191,0.0001884296449894984,-0.0006983827501770832,-0.0007003262073211851,0.0004489774811905786,5.179330952027046e-05,0.001523001159069808,0.0,0.0,0.0,0.0,0.0,0.0,0.0,0.00020620377440200288,3.726846843110643e-05,8.930956473887641e-05,-0.00024223217003527253,-0.0001798264334860744,4.056294759191559e-06,-6.8155931125524205e-06,-0.0005335612040964191,-0.0001884296449894984,0.0006983827501770832,0.0007003262073211851,-0.0004489774811905786,-5.179330952027046e-05,-0.001523001159069808,0.12130087614059448,11.873926162719727,-1.3425629138946533,-21.741060256958008,-0.3143211007118225,-2.5207552909851074,0.24112264811992645,0
