rezayati/contactInterpretation/dataset/franka_main/labeled_data/link5/c3_8.csv
index,time,tau_J0,tau_J1,tau_J2,tau_J3,tau_J4,tau_J5,tau_J6,tau_J_d0,tau_J_d1,tau_J_d2,tau_J_d3,tau_J_d4,tau_J_d5,tau_J_d6,tau_ext0,tau_ext1,tau_ext2,tau_ext3,tau_ext4,tau_ext5,tau_ext6,q0,q1,q2,q3,q4,q5,q6,q_d0,q_d1,q_d2,q_d3,q_d4,q_d5,q_d6,dq0,dq1,dq2,dq3,dq4,dq5,dq6,dq_d0,dq_d1,dq_d2,dq_d3,dq_d4,dq_d5,dq_d6,e0,e1,e2,e3,e4,e5,e6,de0,de1,de2,de3,de4,de5,de6,etau_J0,etau_J1,etau_J2,etau_J3,etau_J4,etau_J5,etau_J6,label
1,0.0,-0.2998287081718445,-22.696680068969727,-0.04995415359735489,14.179414749145508,0.2841086983680725,2.1325716972351074,-0.27591270208358765,0.0,0.0,0.0,0.0,0.0,0.0,0.0,-0.279205463134305,0.10563876307589844,-0.07943349627743582,0.3297686189226121,0.05526110257231312,-0.05189613465214175,-0.25403599295679313,1.6755159145763223,0.05225353249860704,0.029932076502154892,-2.7525316458881037,0.034224141811145976,2.7663693784607783,0.7691686951253148,1.6754973547542302,0.052104326824870026,0.029969505109285054,-2.752394845125968,0.0342448039870148,2.7663679543071322,0.7691630533470046,0.0003612322481713617,0.00036684339032619194,0.0014552512640203263,0.0001961477280121545,9.525026610673392e-05,3.5191638300871315e-05,0.0006921953846532704,0.0,0.0,0.0,0.0,0.0,0.0,0.0,-1.8559822092090172e-05,-0.00014920567373701704,3.742860713016119e-05,0.00013680076213562486,2.066217586882413e-05,-1.4241536461234716e-06,-5.641778310194745e-06,-0.0003612322481713617,-0.00036684339032619194,-0.0014552512640203263,-0.0001961477280121545,-9.525026610673392e-05,-3.5191638300871315e-05,-0.0006921953846532704,0.2998287081718445,22.696680068969727,0.04995415359735489,-14.179414749145508,-0.2841086983680725,-2.1325716972351074,0.27591270208358765,0
2,0.005017757415771484,-0.2998287081718445,-22.696680068969727,-0.04995415359735489,14.179414749145508,0.2841086983680725,2.1325716972351074,-0.27591270208358765,0.0,0.0,0.0,0.0,0.0,0.0,0.0,-0.279205463134305,0.10563876307589844,-0.07943349627743582,0.3297686189226121,0.05526110257231312,-0.05189613465214175,-0.25403599295679313,1.6755159145763223,0.05225353249860704,0.029932076502154892,-2.7525316458881037,0.034224141811145976,2.7663693784607783,0.7691686951253148,1.6754973547542302,0.052104326824870026,0.029969505109285054,-2.752394845125968,0.0342448039870148,2.7663679543071322,0.7691630533470046,0.0003612322481713617,0.00036684339032619194,0.0014552512640203263,0.0001961477280121545,9.525026610673392e-05,3.5191638300871315e-05,0.0006921953846532704,0.0,0.0,0.0,0.0,0.0,0.0,0.0,-1.8559822092090172e-05,-0.00014920567373701704,3.742860713016119e-05,0.00013680076213562486,2.066217586882413e-05,-1.4241536461234716e-06,-5.641778310194745e-06,-0.0003612322481713617,-0.00036684339032619194,-0.0014552512640203263,-0.0001961477280121545,-9.525026610673392e-05,-3.5191638300871315e-05,-0.0006921953846532704,0.2998287081718445,22.696680068969727,0.04995415359735489,-14.179414749145508,-0.2841086983680725,-2.1325716972351074,0.27591270208358765,0
3,0.01000523567199707,-0.24825400114059448,-22.672876358032227,0.02542426437139511,14.179414749145508,0.2841086983680725,2.1261630058288574,-0.24112264811992645,0.0,0.0,0.0,0.0,0.0,0.0,0.0,-0.27585782435144945,0.10110982054079169,-0.07790313597230443,0.3325380196163881,0.05544763029987861,-0.05181598664178683,-0.2539514289934744,1.675514439709007,0.052253279078594186,0.029926506236331186,-2.7525316543913245,0.03422414040446905,2.7663697373248914,0.7691648295637633,1.6754973547542302,0.052104326824870026,0.029969505109285054,-2.752394845125968,0.0342448039870148,2.7663679543071322,0.7691630533470046,-0.0006549994050138498,-0.0004903256869913352,-0.0006748523217252909,0.0005701453247334385,0.0002852275540666622,0.0001101203931194301,-0.0002902137576456753,0.0,0.0,0.0,0.0,0.0,0.0,0.0,-1.7084954776702688e-05,-0.00014895225372416054,4.299887295386787e-05,0.00013680926535641902,2.0663582545751846e-05,-1.7830177592159657e-06,-1.776216758675453e-06,0.0006549994050138498,0.0004903256869913352,0.0006748523217252909,-0.0005701453247334385,-0.0002852275540666622,-0.0001101203931194301,0.0002902137576456753,0.24825400114059448,22.672876358032227,-0.02542426437139511,-14.179414749145508,-0.2841086983680725,-2.1261630058288574,0.24112264811992645,0
4,0.015002012252807617,-0.24825400114059448,-22.672876358032227,0.02542426437139511,14.179414749145508,0.2841086983680725,2.1261630058288574,-0.24112264811992645,0.0,0.0,0.0,0.0,0.0,0.0,0.0,-0.27585782435144945,0.10110982054079169,-0.07790313597230443,0.3325380196163881,0.05544763029987861,-0.05181598664178683,-0.2539514289934744,1.675514439709007,0.052253279078594186,0.029926506236331186,-2.7525316543913245,0.03422414040446905,2.7663697373248914,0.7691648295637633,1.6754973547542302,0.052104326824870026,0.029969505109285054,-2.752394845125968,0.0342448039870148,2.7663679543071322,0.7691630533470046,-0.0006549994050138498,-0.0004903256869913352,-0.0006748523217252909,0.0005701453247334385,0.0002852275540666622,0.0001101203931194301,-0.0002902137576456753,0.0,0.0,0.0,0.0,0.0,0.0,0.0,-1.7084954776702688e-05,-0.00014895225372416054,4.299887295386787e-05,0.00013680926535641902,2.0663582545751846e-05,-1.7830177592159657e-06,-1.776216758675453e-06,0.0006549994050138498,0.0004903256869913352,0.0006748523217252909,-0.0005701453247334385,-0.0002852275540666622,-0.0001101203931194301,0.0002902137576456753,0.24825400114059448,22.672876358032227,-0.02542426437139511,-14.179414749145508,-0.2841086983680725,-2.1261630058288574,0.24112264811992645,0
5,0.020002126693725586,-0.2998287081718445,-22.672876358032227,0.001620553433895111,14.207185745239258,0.2905173897743225,2.1325716972351074,-0.24844686686992645,0.0,0.0,0.0,0.0,0.0,0.0,0.0,-0.27439941254933775,0.10345712060280118,-0.07810018222822722,0.32890908742649005,0.055511544881842505,-0.05329840696286689,-0.2529913625290727,1.6755171292353839,0.052251860164910714,0.02992849119673203,-2.7525336032332035,0.03422342978913754,2.7663693784587844,0.7691656433658466,1.6754973547542302,0.052104326824870026,0.029969505109285054,-2.752394845125968,0.0342448039870148,2.7663679543071322,0.7691630533470046,0.0009021932096193653,-0.0007261323538783302,0.00019152215704279065,-0.0006353435963567913,-4.223298400304912e-05,-6.992774474992141e-05,-0.010009845060723754,0.0,0.0,0.0,0.0,0.0,0.0,0.0,-1.9774481153644885e-05,-0.00014753334004068835,4.10139125530222e-05,0.00013875810723540383,2.1374197877260803e-05,-1.4241516521629194e-06,-2.590018841952535e-06,-0.0009021932096193653,0.0007261323538783302,-0.00019152215704279065,0.0006353435963567913,4.223298400304912e-05,6.992774474992141e-05,0.010009845060723754,0.2998287081718445,22.672876358032227,-0.001620553433895111,-14.207185745239258,-0.2905173897743225,-2.1325716972351074,0.24844686686992645,0
6,0.024999618530273438,-0.2998287081718445,-22.672876358032227,0.001620553433895111,14.207185745239258,0.2905173897743225,2.1325716972351074,-0.24844686686992645,0.0,0.0,0.0,0.0,0.0,0.0,0.0,-0.27439941254933775,0.10345712060280118,-0.07810018222822722,0.32890908742649005,0.055511544881842505,-0.05329840696286689,-0.2529913625290727,1.6755171292353839,0.052251860164910714,0.02992849119673203,-2.7525336032332035,0.03422342978913754,2.7663693784587844,0.7691656433658466,1.6754973547542302,0.052104326824870026,0.029969505109285054,-2.752394845125968,0.0342448039870148,2.7663679543071322,0.7691630533470046,0.0009021932096193653,-0.0007261323538783302,0.00019152215704279065,-0.0006353435963567913,-4.223298400304912e-05,-6.992774474992141e-05,-0.010009845060723754,0.0,0.0,0.0,0.0,0.0,0.0,0.0,-1.9774481153644885e-05,-0.00014753334004068835,4.10139125530222e-05,0.00013875810723540383,2.1374197877260803e-05,-1.4241516521629194e-06,-2.590018841952535e-06,-0.0009021932096193653,0.0007261323538783302,-0.00019152215704279065,0.0006353435963567913,4.223298400304912e-05,6.992774474992141e-05,0.010009845060723754,0.2998287081718445,22.672876358032227,-0.001620553433895111,-14.207185745239258,-0.2905173897743225,-2.1325716972351074,0.24844686686992645,0
7,0.02999591827392578,-0.2998287081718445,-22.696680068969727,-0.02615044265985489,14.230989456176758,0.2722068428993225,2.1325716972351074,-0.23471395671367645,0.0,0.0,0.0,0.0,0.0,0.0,0.0,-0.2791422872565511,0.1095825929956414,-0.08164649608869792,0.32754215548765414,0.0562129683216067,-0.05372236665841067,-0.2536523966650142,1.6755180916984307,0.05225495146083336,0.02993044011246942,-2.752535273669059,0.034225459422689626,2.7663693784607783,0.7691641042414638,1.6754973547542302,0.052104326824870026,0.029969505109285054,-2.752394845125968,0.0342448039870148,2.7663679543071322,0.7691630533470046,-0.00029586863438435345,0.00037385526824648343,0.0009552274230312806,-0.0011942894393515316,0.0005612772586177328,0.00018661384005410567,-0.001380985030971949,0.0,0.0,0.0,0.0,0.0,0.0,0.0,-2.0736944200461238e-05,-0.0001506246359633326,3.9064996815635356e-05,0.0001404285430908203,1.9344564325174396e-05,-1.4241536461234716e-06,-1.0508944591203218e-06,0.00029586863438435345,-0.00037385526824648343,-0.0009552274230312806,0.0011942894393515316,-0.0005612772586177328,-0.00018661384005410567,0.001380985030971949,0.2998287081718445,22.696680068969727,0.02615044265985489,-14.230989456176758,-0.2722068428993225,-2.1325716972351074,0.23471395671367645,0
8,0.03499770164489746,-0.2998287081718445,-22.696680068969727,-0.02615044265985489,14.230989456176758,0.2722068428993225,2.1325716972351074,-0.23471395671367645,0.0,0.0,0.0,0.0,0.0,0.0,0.0,-0.2791422872565511,0.1095825929956414,-0.08164649608869792,0.32754215548765414,0.0562129683216067,-0.05372236665841067,-0.2536523966650142,1.6755180916984307,0.05225495146083336,0.02993044011246942,-2.752535273669059,0.034225459422689626,2.7663693784607783,0.7691641042414638,1.6754973547542302,0.052104326824870026,0.029969505109285054,-2.752394845125968,0.0342448039870148,2.7663679543071322,0.7691630533470046,-0.00029586863438435345,0.00037385526824648343,0.0009552274230312806,-0.0011942894393515316,0.0005612772586177328,0.00018661384005410567,-0.001380985030971949,0.0,0.0,0.0,0.0,0.0,0.0,0.0,-2.0736944200461238e-05,-0.0001506246359633326,3.9064996815635356e-05,0.0001404285430908203,1.9344564325174396e-05,-1.4241536461234716e-06,-1.0508944591203218e-06,0.00029586863438435345,-0.00037385526824648343,-0.0009552274230312806,0.0011942894393515316,-0.0005612772586177328,-0.00018661384005410567,0.001380985030971949,0.2998287081718445,22.696680068969727,0.02615044265985489,-14.230989456176758,-0.2722068428993225,-2.1325716972351074,0.23471395671367645,0
9,0.03999590873718262,-0.2720577120780945,-22.720483779907227,0.02542426437139511,14.207185745239258,0.2905173897743225,2.1325716972351074,-0.29605430364608765,0.0,0.0,0.0,0.0,0.0,0.0,0.0,-0.2765732460034806,0.0996605508707442,-0.07612057566902948,0.334967081431689,0.05495073042409142,-0.05115541606365289,-0.255353007834946,1.6755159053519224,0.05225520006343491,0.02992389470670464,-2.7525336032332035,0.03422331140767103,2.7663693784607783,0.7691709330809693,1.6754973547542302,0.052104326824870026,0.029969505109285054,-2.752394845125968,0.0342448039870148,2.7663679543071322,0.7691630533470046,-0.00039936722218153015,0.000318612692539472,-0.0002475555732378689,-2.915240292105905e-05,-0.00023516533409357089,-7.434939923420726e-05,0.0018216290581291158,0.0,0.0,0.0,0.0,0.0,0.0,0.0,-1.8550597692179593e-05,-0.00015087323856488588,4.561040258041493e-05,0.00013875810723540383,2.14925793437723e-05,-1.4241536461234716e-06,-7.879733964655244e-06,0.00039936722218153015,-0.000318612692539472,0.0002475555732378689,2.915240292105905e-05,0.00023516533409357089,7.434939923420726e-05,-0.0018216290581291158,0.2720577120780945,22.720483779907227,-0.02542426437139511,-14.207185745239258,-0.2905173897743225,-2.1325716972351074,0.29605430364608765,0
10,0.044997453689575195,-0.2720577120780945,-22.720483779907227,0.02542426437139511,14.207185745239258,0.2905173897743225,2.1325716972351074,-0.29605430364608765,0.0,0.0,0.0,0.0,0.0,0.0,0.0,-0.2765732460034806,0.0996605508707442,-0.07612057566902948,0.334967081431689,0.05495073042409142,-0.05115541606365289,-0.255353007834946,1.6755159053519224,0.05225520006343491,0.02992389470670464,-2.7525336032332035,0.03422331140767103,2.7663693784607783,0.7691709330809693,1.6754973547542302,0.052104326824870026,0.029969505109285054,-2.752394845125968,0.0342448039870148,2.7663679543071322,0.7691630533470046,-0.00039936722218153015,0.000318612692539472,-0.0002475555732378689,-2.915240292105905e-05,-0.00023516533409357089,-7.434939923420726e-05,0.0018216290581291158,0.0,0.0,0.0,0.0,0.0,0.0,0.0,-1.8550597692179593e-05,-0.00015087323856488588,4.561040258041493e-05,0.00013875810723540383,2.14925793437723e-05,-1.4241536461234716e-06,-7.879733964655244e-06,0.00039936722218153015,-0.000318612692539472,0.0002475555732378689,2.915240292105905e-05,0.00023516533409357089,7.434939923420726e-05,-0.0018216290581291158,0.2720577120780945,22.720483779907227,-0.02542426437139511,-14.207185745239258,-0.2905173897743225,-2.1325716972351074,0.29605430364608765,0
11,0.04999566078186035,-0.2720577120780945,-22.672876358032227,-0.02615044265985489,14.179414749145508,0.2905173897743225,2.1389803886413574,-0.23471395671367645,0.0,0.0,0.0,0.0,0.0,0.0,0.0,-0.2802722043621976,0.10601814455849409,-0.07830808928340187,0.3282429161998785,0.05469312297976481,-0.05231817180095266,-0.2563076343368292,1.675515189876812,0.05225091712869897,0.029930125605887828,-2.7525316543913725,0.034223423780091314,2.766368666383955,0.7691641160152207,1.6754973547542302,0.052104326824870026,0.029969505109285054,-2.752394845125968,0.0342448039870148,2.7663679543071322,0.7691630533470046,0.00023553432730366637,-0.00030478895684884783,0.00045609366749337906,0.00037133298963016605,-0.00027076748541233114,-0.0003576074424262665,-0.0007642151814480381,0.0,0.0,0.0,0.0,0.0,0.0,0.0,-1.7835122581688623e-05,-0.00014659030382894317,3.937950339722579e-05,0.00013680926540438065,2.138020692348669e-05,-7.120768228396912e-07,-1.0626682160896905e-06,-0.00023553432730366637,0.00030478895684884783,-0.00045609366749337906,-0.00037133298963016605,0.00027076748541233114,0.0003576074424262665,0.0007642151814480381,0.2720577120780945,22.672876358032227,0.02615044265985489,-14.179414749145508,-0.2905173897743225,-2.1389803886413574,0.23471395671367645,0
12,0.05499720573425293,-0.2720577120780945,-22.672876358032227,-0.02615044265985489,14.179414749145508,0.2905173897743225,2.1389803886413574,-0.23471395671367645,0.0,0.0,0.0,0.0,0.0,0.0,0.0,-0.2802722043621976,0.10601814455849409,-0.07830808928340187,0.3282429161998785,0.05469312297976481,-0.05231817180095266,-0.2563076343368292,1.675515189876812,0.05225091712869897,0.029930125605887828,-2.7525316543913725,0.034223423780091314,2.766368666383955,0.7691641160152207,1.6754973547542302,0.052104326824870026,0.029969505109285054,-2.752394845125968,0.0342448039870148,2.7663679543071322,0.7691630533470046,0.00023553432730366637,-0.00030478895684884783,0.00045609366749337906,0.00037133298963016605,-0.00027076748541233114,-0.0003576074424262665,-0.0007642151814480381,0.0,0.0,0.0,0.0,0.0,0.0,0.0,-1.7835122581688623e-05,-0.00014659030382894317,3.937950339722579e-05,0.00013680926540438065,2.138020692348669e-05,-7.120768228396912e-07,-1.0626682160896905e-06,-0.00023553432730366637,0.00030478895684884783,-0.00045609366749337906,-0.00037133298963016605,0.00027076748541233114,0.0003576074424262665,0.0007642151814480381,0.2720577120780945,22.672876358032227,0.02615044265985489,-14.179414749145508,-0.2905173897743225,-2.1389803886413574,0.23471395671367645,0
13,0.06000185012817383,-0.2720577120780945,-22.672876358032227,-0.02615044265985489,14.179414749145508,0.2905173897743225,2.1389803886413574,-0.23471395671367645,0.0,0.0,0.0,0.0,0.0,0.0,0.0,-0.2802722043621976,0.10601814455849409,-0.07830808928340187,0.3282429161998785,0.05469312297976481,-0.05231817180095266,-0.2563076343368292,1.675515189876812,0.05225091712869897,0.029930125605887828,-2.7525316543913725,0.034223423780091314,2.766368666383955,0.7691641160152207,1.6754973547542302,0.052104326824870026,0.029969505109285054,-2.752394845125968,0.0342448039870148,2.7663679543071322,0.7691630533470046,0.00023553432730366637,-0.00030478895684884783,0.00045609366749337906,0.00037133298963016605,-0.00027076748541233114,-0.0003576074424262665,-0.0007642151814480381,0.0,0.0,0.0,0.0,0.0,0.0,0.0,-1.7835122581688623e-05,-0.00014659030382894317,3.937950339722579e-05,0.00013680926540438065,2.138020692348669e-05,-7.120768228396912e-07,-1.0626682160896905e-06,-0.00023553432730366637,0.00030478895684884783,-0.00045609366749337906,-0.00037133298963016605,0.00027076748541233114,0.0003576074424262665,0.0007642151814480381,0.2720577120780945,22.672876358032227,0.02615044265985489,-14.179414749145508,-0.2905173897743225,-2.1389803886413574,0.23471395671367645,0
14,0.06500530242919922,-0.2720577120780945,-22.672876358032227,-0.02615044265985489,14.179414749145508,0.2905173897743225,2.1389803886413574,-0.23471395671367645,0.0,0.0,0.0,0.0,0.0,0.0,0.0,-0.2802722043621976,0.10601814455849409,-0.07830808928340187,0.3282429161998785,0.05469312297976481,-0.05231817180095266,-0.2563076343368292,1.675515189876812,0.05225091712869897,0.029930125605887828,-2.7525316543913725,0.034223423780091314,2.766368666383955,0.7691641160152207,1.6754973547542302,0.052104326824870026,0.029969505109285054,-2.752394845125968,0.0342448039870148,2.7663679543071322,0.7691630533470046,0.00023553432730366637,-0.00030478895684884783,0.00045609366749337906,0.00037133298963016605,-0.00027076748541233114,-0.0003576074424262665,-0.0007642151814480381,0.0,0.0,0.0,0.0,0.0,0.0,0.0,-1.7835122581688623e-05,-0.00014659030382894317,3.937950339722579e-05,0.00013680926540438065,2.138020692348669e-05,-7.120768228396912e-07,-1.0626682160896905e-06,-0.00023553432730366637,0.00030478895684884783,-0.00045609366749337906,-0.00037133298963016605,0.00027076748541233114,0.0003576074424262665,0.0007642151814480381,0.2720577120780945,22.672876358032227,0.02615044265985489,-14.179414749145508,-0.2905173897743225,-2.1389803886413574,0.23471395671367645,0
15,0.07000446319580078,-0.2720577120780945,-22.649072647094727,0.001620553433895111,14.207185745239258,0.2841086983680725,2.1261630058288574,-0.25485557317733765,0.0,0.0,0.0,0.0,0.0,0.0,0.0,-0.278179738579809,0.10890142800486154,-0.07813257512535908,0.3268516727828109,0.05481091471016516,-0.053163313947408114,-0.2571556312686369,1.6755161427839755,0.052252321017837965,0.029928413403720173,-2.752533577723397,0.034223747261110576,2.766370090537601,0.769166351029158,1.6754973547542302,0.052104326824870026,0.029969505109285054,-2.752394845125968,0.0342448039870148,2.7663679543071322,0.7691630533470046,0.00017747346312415536,-0.00047937256824993456,0.00014685295587223745,-0.0005043915542198533,0.00012279232456854645,0.0002327141329957992,-0.0006279368068678065,0.0,0.0,0.0,0.0,0.0,0.0,0.0,-1.878802974530913e-05,-0.00014799419296793875,4.109170556488087e-05,0.00013873259742869237,2.1056725904224083e-05,-2.136230468963163e-06,-3.2976821533470257e-06,-0.00017747346312415536,0.00047937256824993456,-0.00014685295587223745,0.0005043915542198533,-0.00012279232456854645,-0.0002327141329957992,0.0006279368068678065,0.2720577120780945,22.649072647094727,-0.001620553433895111,-14.207185745239258,-0.2841086983680725,-2.1261630058288574,0.25485557317733765,0
16,0.07500433921813965,-0.2720577120780945,-22.649072647094727,0.001620553433895111,14.207185745239258,0.2841086983680725,2.1261630058288574,-0.25485557317733765,0.0,0.0,0.0,0.0,0.0,0.0,0.0,-0.278179738579809,0.10890142800486154,-0.07813257512535908,0.3268516727828109,0.05481091471016516,-0.053163313947408114,-0.2571556312686369,1.6755161427839755,0.052252321017837965,0.029928413403720173,-2.752533577723397,0.034223747261110576,2.766370090537601,0.769166351029158,1.6754973547542302,0.052104326824870026,0.029969505109285054,-2.752394845125968,0.0342448039870148,2.7663679543071322,0.7691630533470046,0.00017747346312415536,-0.00047937256824993456,0.00014685295587223745,-0.0005043915542198533,0.00012279232456854645,0.0002327141329957992,-0.0006279368068678065,0.0,0.0,0.0,0.0,0.0,0.0,0.0,-1.878802974530913e-05,-0.00014799419296793875,4.109170556488087e-05,0.00013873259742869237,2.1056725904224083e-05,-2.136230468963163e-06,-3.2976821533470257e-06,-0.00017747346312415536,0.00047937256824993456,-0.00014685295587223745,0.0005043915542198533,-0.00012279232456854645,-0.0002327141329957992,0.0006279368068678065,0.2720577120780945,22.649072647094727,-0.001620553433895111,-14.207185745239258,-0.2841086983680725,-2.1261630058288574,0.25485557317733765,0
17,0.08000779151916504,-0.2998287081718445,-22.649072647094727,0.001620553433895111,14.207185745239258,0.2905173897743225,2.1389803886413574,-0.28964561223983765,0.0,0.0,0.0,0.0,0.0,0.0,0.0,-0.27485627316077405,0.10115543741169468,-0.07613386856812171,0.33367543117152937,0.055256701207354667,-0.051437732321519804,-0.25892439941966405,1.67551714057326,0.05225019232826966,0.029928492171833493,-2.7525335777232525,0.03422342540242019,2.766368666868472,0.7691702210041962,1.6754973547542302,0.052104326824870026,0.029969505109285054,-2.752394845125968,0.0342448039870148,2.7663679543071322,0.7691630533470046,0.0010176496545465548,-0.0015419117100480084,0.00020828274580281687,-0.00013489817081847755,0.0001894563196366561,-9.077150426064241e-05,0.0009545130331428648,0.0,0.0,0.0,0.0,0.0,0.0,0.0,-1.9785819029838336e-05,-0.00014586550339963644,4.1012937451560816e-05,0.00013873259728436338,2.1378584594611283e-05,-7.1256133971076e-07,-7.167657191553545e-06,-0.0010176496545465548,0.0015419117100480084,-0.00020828274580281687,0.00013489817081847755,-0.0001894563196366561,9.077150426064241e-05,-0.0009545130331428648,0.2998287081718445,22.649072647094727,-0.001620553433895111,-14.207185745239258,-0.2905173897743225,-2.1389803886413574,0.28964561223983765,0
18,0.08499789237976074,-0.2998287081718445,-22.649072647094727,0.001620553433895111,14.207185745239258,0.2905173897743225,2.1389803886413574,-0.28964561223983765,0.0,0.0,0.0,0.0,0.0,0.0,0.0,-0.27485627316077405,0.10115543741169468,-0.07613386856812171,0.33367543117152937,0.055256701207354667,-0.051437732321519804,-0.25892439941966405,1.67551714057326,0.05225019232826966,0.029928492171833493,-2.7525335777232525,0.03422342540242019,2.766368666868472,0.7691702210041962,1.6754973547542302,0.052104326824870026,0.029969505109285054,-2.752394845125968,0.0342448039870148,2.7663679543071322,0.7691630533470046,0.0010176496545465548,-0.0015419117100480084,0.00020828274580281687,-0.00013489817081847755,0.0001894563196366561,-9.077150426064241e-05,0.0009545130331428648,0.0,0.0,0.0,0.0,0.0,0.0,0.0,-1.9785819029838336e-05,-0.00014586550339963644,4.1012937451560816e-05,0.00013873259728436338,2.1378584594611283e-05,-7.1256133971076e-07,-7.167657191553545e-06,-0.0010176496545465548,0.0015419117100480084,-0.00020828274580281687,0.00013489817081847755,-0.0001894563196366561,9.077150426064241e-05,-0.0009545130331428648,0.2998287081718445,22.649072647094727,-0.001620553433895111,-14.207185745239258,-0.2905173897743225,-2.1389803886413574,0.28964561223983765,0
19,0.09051942825317383,-0.2998287081718445,-22.720483779907227,0.001620553433895111,14.207185745239258,0.2841086983680725,2.1325716972351074,-0.25485557317733765,0.0,0.0,0.0,0.0,0.0,0.0,0.0,-0.27549436371165115,0.1041485878431792,-0.07658514005100993,0.33048498431962176,0.05602038985763893,-0.05101837119054634,-0.2604535160546841,1.6755173508602732,0.05225520297502073,0.029928492280474263,-2.7525336032330596,0.03422295805147132,2.766369378460781,0.7691663554443252,1.6754973547542302,0.052104326824870026,0.029969505109285054,-2.752394845125968,0.0342448039870148,2.7663679543071322,0.7691630533470046,0.0004238584668848244,0.0002780200587130913,0.00042496042367977746,-0.00016014128403951813,5.3003840800949894e-05,1.2842653046758927e-05,-0.00047451791199321905,0.0,0.0,0.0,0.0,0.0,0.0,0.0,-1.9996106042974304e-05,-0.00015087615015070555,4.1012828810790825e-05,0.00013875810709151892,2.1845935543482464e-05,-1.4241536487880069e-06,-3.302097320578845e-06,-0.0004238584668848244,-0.0002780200587130913,-0.00042496042367977746,0.00016014128403951813,-5.3003840800949894e-05,-1.2842653046758927e-05,0.00047451791199321905,0.2998287081718445,22.720483779907227,-0.001620553433895111,-14.207185745239258,-0.2841086983680725,-2.1325716972351074,0.25485557317733765,0
20,0.09499835968017578,-0.2998287081718445,-22.720483779907227,0.001620553433895111,14.207185745239258,0.2841086983680725,2.1325716972351074,-0.25485557317733765,0.0,0.0,0.0,0.0,0.0,0.0,0.0,-0.27549436371165115,0.1041485878431792,-0.07658514005100993,0.33048498431962176,0.05602038985763893,-0.05101837119054634,-0.2604535160546841,1.6755173508602732,0.05225520297502073,0.029928492280474263,-2.7525336032330596,0.03422295805147132,2.766369378460781,0.7691663554443252,1.6754973547542302,0.052104326824870026,0.029969505109285054,-2.752394845125968,0.0342448039870148,2.7663679543071322,0.7691630533470046,0.0004238584668848244,0.0002780200587130913,0.00042496042367977746,-0.00016014128403951813,5.3003840800949894e-05,1.2842653046758927e-05,-0.00047451791199321905,0.0,0.0,0.0,0.0,0.0,0.0,0.0,-1.9996106042974304e-05,-0.00015087615015070555,4.1012828810790825e-05,0.00013875810709151892,2.1845935543482464e-05,-1.4241536487880069e-06,-3.302097320578845e-06,-0.0004238584668848244,-0.0002780200587130913,-0.00042496042367977746,0.00016014128403951813,-5.3003840800949894e-05,-1.2842653046758927e-05,0.00047451791199321905,0.2998287081718445,22.720483779907227,-0.001620553433895111,-14.207185745239258,-0.2841086983680725,-2.1325716972351074,0.25485557317733765,0
21,0.09999632835388184,-0.2720577120780945,-22.696680068969727,0.02542426437139511,14.207185745239258,0.2841086983680725,2.1261630058288574,-0.25485557317733765,0.0,0.0,0.0,0.0,0.0,0.0,0.0,-0.27625459804481817,0.10579150604680476,-0.07313550080009319,0.3286698828358478,0.05555621243794434,-0.05187638697445575,-0.2619669128933384,1.6755151842051246,0.05225558014630859,0.029926742645057642,-2.7525329141534836,0.034222708128424754,2.766370090537601,0.7691663554443252,1.6754973547542302,0.052104326824870026,0.029969505109285054,-2.752394845125968,0.0342448039870148,2.7663679543071322,0.7691630533470046,-0.0002259095343928838,-9.134642797413748e-05,-0.00027031048993135417,6.9465116675091e-05,0.00013977402806750853,0.00022372790236858473,-0.0007494060815404767,0.0,0.0,0.0,0.0,0.0,0.0,0.0,-1.782945089434662e-05,-0.00015125332143856723,4.276246422741173e-05,0.0001380690275154528,2.2095858590046036e-05,-2.136230468963163e-06,-3.302097320578845e-06,0.0002259095343928838,9.134642797413748e-05,0.00027031048993135417,-6.9465116675091e-05,-0.00013977402806750853,-0.00022372790236858473,0.0007494060815404767,0.2720577120780945,22.696680068969727,-0.02542426437139511,-14.207185745239258,-0.2841086983680725,-2.1261630058288574,0.25485557317733765,0
22,0.10574531555175781,-0.2720577120780945,-22.696680068969727,0.02542426437139511,14.207185745239258,0.2841086983680725,2.1261630058288574,-0.25485557317733765,0.0,0.0,0.0,0.0,0.0,0.0,0.0,-0.27625459804481817,0.10579150604680476,-0.07313550080009319,0.3286698828358478,0.05555621243794434,-0.05187638697445575,-0.2619669128933384,1.6755151842051246,0.05225558014630859,0.029926742645057642,-2.7525329141534836,0.034222708128424754,2.766370090537601,0.7691663554443252,1.6754973547542302,0.052104326824870026,0.029969505109285054,-2.752394845125968,0.0342448039870148,2.7663679543071322,0.7691630533470046,-0.0002259095343928838,-9.134642797413748e-05,-0.00027031048993135417,6.9465116675091e-05,0.00013977402806750853,0.00022372790236858473,-0.0007494060815404767,0.0,0.0,0.0,0.0,0.0,0.0,0.0,-1.782945089434662e-05,-0.00015125332143856723,4.276246422741173e-05,0.0001380690275154528,2.2095858590046036e-05,-2.136230468963163e-06,-3.302097320578845e-06,0.0002259095343928838,9.134642797413748e-05,0.00027031048993135417,-6.9465116675091e-05,-0.00013977402806750853,-0.00022372790236858473,0.0007494060815404767,0.2720577120780945,22.696680068969727,-0.02542426437139511,-14.207185745239258,-0.2841086983680725,-2.1261630058288574,0.25485557317733765,0
23,0.10999655723571777,-0.2720577120780945,-22.672876358032227,-0.02615044265985489,14.207185745239258,0.2960105538368225,2.1261630058288574,-0.28232139348983765,0.0,0.0,0.0,0.0,0.0,0.0,0.0,-0.27934641589913717,0.10548936269347968,-0.07378251240664231,0.33035757670306676,0.055326932303096,-0.052704882263463995,-0.26260179571925035,1.6755154311984206,0.05225399006485699,0.02993043203338461,-2.752531536934961,0.034222458439150616,2.766370090537601,0.7691694072021378,1.6754973547542302,0.052104326824870026,0.029969505109285054,-2.752394845125968,0.0342448039870148,2.7663679543071322,0.7691630533470046,-0.00013711640482712262,-0.000633333572973837,0.0007499762462993365,0.0001351474435857498,-0.0002361237331401618,0.00036686731778720985,0.000639591249032898,0.0,0.0,0.0,0.0,0.0,0.0,0.0,-1.8076444190384677e-05,-0.00014966323998696213,3.907307590044276e-05,0.00013669180899311684,2.234554786418458e-05,-2.136230468963163e-06,-6.3538551331454585e-06,0.00013711640482712262,0.000633333572973837,-0.0007499762462993365,-0.0001351474435857498,0.0002361237331401618,-0.00036686731778720985,-0.000639591249032898,0.2720577120780945,22.672876358032227,0.02615044265985489,-14.207185745239258,-0.2960105538368225,-2.1261630058288574,0.28232139348983765,0
24,0.11580109596252441,-0.2720577120780945,-22.672876358032227,-0.02615044265985489,14.207185745239258,0.2960105538368225,2.1261630058288574,-0.28232139348983765,0.0,0.0,0.0,0.0,0.0,0.0,0.0,-0.27934641589913717,0.10548936269347968,-0.07378251240664231,0.33035757670306676,0.055326932303096,-0.052704882263463995,-0.26260179571925035,1.6755154311984206,0.05225399006485699,0.02993043203338461,-2.752531536934961,0.034222458439150616,2.766370090537601,0.7691694072021378,1.6754973547542302,0.052104326824870026,0.029969505109285054,-2.752394845125968,0.0342448039870148,2.7663679543071322,0.7691630533470046,-0.00013711640482712262,-0.000633333572973837,0.0007499762462993365,0.0001351474435857498,-0.0002361237331401618,0.00036686731778720985,0.000639591249032898,0.0,0.0,0.0,0.0,0.0,0.0,0.0,-1.8076444190384677e-05,-0.00014966323998696213,3.907307590044276e-05,0.00013669180899311684,2.234554786418458e-05,-2.136230468963163e-06,-6.3538551331454585e-06,0.00013711640482712262,0.000633333572973837,-0.0007499762462993365,-0.0001351474435857498,0.0002361237331401618,-0.00036686731778720985,-0.000639591249032898,0.2720577120780945,22.672876358032227,0.02615044265985489,-14.207185745239258,-0.2960105538368225,-2.1261630058288574,0.28232139348983765,0
25,0.11999821662902832,-0.3236324191093445,-22.696680068969727,0.001620553433895111,14.254793167114258,0.2841086983680725,2.1389803886413574,-0.29605430364608765,0.0,0.0,0.0,0.0,0.0,0.0,0.0,-0.28015761272013645,0.1052120002796762,-0.07548168350151678,0.3323728947771345,0.055338274820027164,-0.05264366609329943,-0.2625194762716463,1.675517617058926,0.05225494941832905,0.02992825533091439,-2.7525369440932494,0.03422400432060325,2.766368666383955,0.769170933081044,1.6754973547542302,0.052104326824870026,0.029969505109285054,-2.752394845125968,0.0342448039870148,2.7663679543071322,0.7691630533470046,0.001026110927685464,0.0001941238294666939,0.000148242020796981,-0.001339074222323617,5.120355850295347e-05,-0.00027351551039470355,0.001919252768924945,0.0,0.0,0.0,0.0,0.0,0.0,0.0,-2.0262304695872757e-05,-0.00015062259345902107,4.124977837066321e-05,0.00014209896728134552,2.0799666411552842e-05,-7.120768228396912e-07,-7.879734039373254e-06,-0.001026110927685464,-0.0001941238294666939,-0.000148242020796981,0.001339074222323617,-5.120355850295347e-05,0.00027351551039470355,-0.001919252768924945,0.3236324191093445,22.696680068969727,-0.001620553433895111,-14.254793167114258,-0.2841086983680725,-2.1389803886413574,0.29605430364608765,0
26,0.12499666213989258,-0.3236324191093445,-22.696680068969727,0.001620553433895111,14.254793167114258,0.2841086983680725,2.1389803886413574,-0.29605430364608765,0.0,0.0,0.0,0.0,0.0,0.0,0.0,-0.28015761272013645,0.1052120002796762,-0.07548168350151678,0.3323728947771345,0.055338274820027164,-0.05264366609329943,-0.2625194762716463,1.675517617058926,0.05225494941832905,0.02992825533091439,-2.7525369440932494,0.03422400432060325,2.766368666383955,0.769170933081044,1.6754973547542302,0.052104326824870026,0.029969505109285054,-2.752394845125968,0.0342448039870148,2.7663679543071322,0.7691630533470046,0.001026110927685464,0.0001941238294666939,0.000148242020796981,-0.001339074222323617,5.120355850295347e-05,-0.00027351551039470355,0.001919252768924945,0.0,0.0,0.0,0.0,0.0,0.0,0.0,-2.0262304695872757e-05,-0.00015062259345902107,4.124977837066321e-05,0.00014209896728134552,2.0799666411552842e-05,-7.120768228396912e-07,-7.879734039373254e-06,-0.001026110927685464,-0.0001941238294666939,-0.000148242020796981,0.001339074222323617,-5.120355850295347e-05,0.00027351551039470355,-0.001919252768924945,0.3236324191093445,22.696680068969727,-0.001620553433895111,-14.254793167114258,-0.2841086983680725,-2.1389803886413574,0.29605430364608765,0
27,0.1300067901611328,-0.3514034152030945,-22.649072647094727,0.02542426437139511,14.179414749145508,0.2841086983680725,2.1325716972351074,-0.24844686686992645,0.0,0.0,0.0,0.0,0.0,0.0,0.0,-0.2769737180192582,0.10998539082893945,-0.07245855431227706,0.33000373856301096,0.054004095489595595,-0.05305990743709159,-0.26263325918997515,1.6755209702402358,0.05224948318780556,0.02992681859739834,-2.7525316543913725,0.03422413748069421,2.7663693784607783,0.7691656433658466,1.6754973547542302,0.052104326824870026,0.029969505109285054,-2.752394845125968,0.0342448039870148,2.7663679543071322,0.7691630533470046,0.0023432549963991185,-0.0006384539313852759,-0.0005137584964428881,0.00034648740954568055,5.683553090971932e-05,0.00011390746456522913,0.0015068535630843737,0.0,0.0,0.0,0.0,0.0,0.0,0.0,-2.3615486005601483e-05,-0.00014515636293553624,4.2686511886713685e-05,0.00013680926540438065,2.0666506320592137e-05,-1.4241536461234716e-06,-2.590018841952535e-06,-0.0023432549963991185,0.0006384539313852759,0.0005137584964428881,-0.00034648740954568055,-5.683553090971932e-05,-0.00011390746456522913,-0.0015068535630843737,0.3514034152030945,22.649072647094727,-0.02542426437139511,-14.179414749145508,-0.2841086983680725,-2.1325716972351074,0.24844686686992645,0
28,0.1350100040435791,-0.3514034152030945,-22.649072647094727,0.02542426437139511,14.179414749145508,0.2841086983680725,2.1325716972351074,-0.24844686686992645,0.0,0.0,0.0,0.0,0.0,0.0,0.0,-0.2769737180192582,0.10998539082893945,-0.07245855431227706,0.33000373856301096,0.054004095489595595,-0.05305990743709159,-0.26263325918997515,1.6755209702402358,0.05224948318780556,0.02992681859739834,-2.7525316543913725,0.03422413748069421,2.7663693784607783,0.7691656433658466,1.6754973547542302,0.052104326824870026,0.029969505109285054,-2.752394845125968,0.0342448039870148,2.7663679543071322,0.7691630533470046,0.0023432549963991185,-0.0006384539313852759,-0.0005137584964428881,0.00034648740954568055,5.683553090971932e-05,0.00011390746456522913,0.0015068535630843737,0.0,0.0,0.0,0.0,0.0,0.0,0.0,-2.3615486005601483e-05,-0.00014515636293553624,4.2686511886713685e-05,0.00013680926540438065,2.0666506320592137e-05,-1.4241536461234716e-06,-2.590018841952535e-06,-0.0023432549963991185,0.0006384539313852759,0.0005137584964428881,-0.00034648740954568055,-5.683553090971932e-05,-0.00011390746456522913,-0.0015068535630843737,0.3514034152030945,22.649072647094727,-0.02542426437139511,-14.179414749145508,-0.2841086983680725,-2.1325716972351074,0.24844686686992645,0
29,0.14000272750854492,-0.2998287081718445,-22.672876358032227,0.02542426437139511,14.179414749145508,0.2905173897743225,2.1453890800476074,-0.24844686686992645,0.0,0.0,0.0,0.0,0.0,0.0,0.0,-0.2765161311515252,0.10357991624855936,-0.07394658540320932,0.33493726588844897,0.054044791042558354,-0.05141579265005605,-0.26366816921791786,1.6755170507396737,0.0522537510752919,0.0299265579542575,-2.7525316540764364,0.0342230683116154,2.7663679543071322,0.7691656433658466,1.6754973547542302,0.052104326824870026,0.029969505109285054,-2.752394845125968,0.0342448039870148,2.7663679543071322,0.7691630533470046,0.0007185594758544789,-0.0004828088842265841,-0.00013085426891443872,0.0005457852510791512,-9.984332536966132e-05,-0.00044140824688981,-0.0008990000069997758,0.0,0.0,0.0,0.0,0.0,0.0,0.0,-1.9695985443490827e-05,-0.0001494242504218729,4.2947155027554806e-05,0.00013680895046830344,2.1735675399398025e-05,0.0,-2.590018841952535e-06,-0.0007185594758544789,0.0004828088842265841,0.00013085426891443872,-0.0005457852510791512,9.984332536966132e-05,0.00044140824688981,0.0008990000069997758,0.2998287081718445,22.672876358032227,-0.02542426437139511,-14.179414749145508,-0.2905173897743225,-2.1453890800476074,0.24844686686992645,0
30,0.14500164985656738,-0.2998287081718445,-22.672876358032227,0.02542426437139511,14.179414749145508,0.2905173897743225,2.1453890800476074,-0.24844686686992645,0.0,0.0,0.0,0.0,0.0,0.0,0.0,-0.2765161311515252,0.10357991624855936,-0.07394658540320932,0.33493726588844897,0.054044791042558354,-0.05141579265005605,-0.26366816921791786,1.6755170507396737,0.0522537510752919,0.0299265579542575,-2.7525316540764364,0.0342230683116154,2.7663679543071322,0.7691656433658466,1.6754973547542302,0.052104326824870026,0.029969505109285054,-2.752394845125968,0.0342448039870148,2.7663679543071322,0.7691630533470046,0.0007185594758544789,-0.0004828088842265841,-0.00013085426891443872,0.0005457852510791512,-9.984332536966132e-05,-0.00044140824688981,-0.0008990000069997758,0.0,0.0,0.0,0.0,0.0,0.0,0.0,-1.9695985443490827e-05,-0.0001494242504218729,4.2947155027554806e-05,0.00013680895046830344,2.1735675399398025e-05,0.0,-2.590018841952535e-06,-0.0007185594758544789,0.0004828088842265841,0.00013085426891443872,-0.0005457852510791512,9.984332536966132e-05,0.00044140824688981,0.0008990000069997758,0.2998287081718445,22.672876358032227,-0.02542426437139511,-14.179414749145508,-0.2905173897743225,-2.1453890800476074,0.24844686686992645,0
31,0.1501178741455078,-0.24825400114059448,-22.720483779907227,0.001620553433895111,14.207185745239258,0.2841086983680725,2.1325716972351074,-0.27591270208358765,0.0,0.0,0.0,0.0,0.0,0.0,0.0,-0.27504232857121413,0.10343968001074708,-0.06959774360796021,0.33202892621321456,0.05367247709080766,-0.0513843486320779,-0.2652101048821242,1.675513518418936,0.05225654102385284,0.029928228388641426,-2.7525336032332017,0.03422378655719755,2.7663693784607783,0.7691686951253148,1.6754973547542302,0.052104326824870026,0.029969505109285054,-2.752394845125968,0.0342448039870148,2.7663679543071322,0.7691630533470046,-0.0005197347808118474,0.000598039017358829,0.000726089132106238,-0.0004537365254985377,4.91544803043291e-06,0.000272943159231251,0.0004693933832010482,0.0,0.0,0.0,0.0,0.0,0.0,0.0,-1.6163664705803882e-05,-0.00015221419898281408,4.127672064362792e-05,0.00013875810723362747,2.101742981724941e-05,-1.4241536461234716e-06,-5.641778310194745e-06,0.0005197347808118474,-0.000598039017358829,-0.000726089132106238,0.0004537365254985377,-4.91544803043291e-06,-0.000272943159231251,-0.0004693933832010482,0.24825400114059448,22.720483779907227,-0.001620553433895111,-14.207185745239258,-0.2841086983680725,-2.1325716972351074,0.27591270208358765,0
32,0.1549973487854004,-0.24825400114059448,-22.720483779907227,0.001620553433895111,14.207185745239258,0.2841086983680725,2.1325716972351074,-0.27591270208358765,0.0,0.0,0.0,0.0,0.0,0.0,0.0,-0.27504232857121413,0.10343968001074708,-0.06959774360796021,0.33202892621321456,0.05367247709080766,-0.0513843486320779,-0.2652101048821242,1.675513518418936,0.05225654102385284,0.029928228388641426,-2.7525336032332017,0.03422378655719755,2.7663693784607783,0.7691686951253148,1.6754973547542302,0.052104326824870026,0.029969505109285054,-2.752394845125968,0.0342448039870148,2.7663679543071322,0.7691630533470046,-0.0005197347808118474,0.000598039017358829,0.000726089132106238,-0.0004537365254985377,4.91544803043291e-06,0.000272943159231251,0.0004693933832010482,0.0,0.0,0.0,0.0,0.0,0.0,0.0,-1.6163664705803882e-05,-0.00015221419898281408,4.127672064362792e-05,0.00013875810723362747,2.101742981724941e-05,-1.4241536461234716e-06,-5.641778310194745e-06,0.0005197347808118474,-0.000598039017358829,-0.000726089132106238,0.0004537365254985377,-4.91544803043291e-06,-0.000272943159231251,-0.0004693933832010482,0.24825400114059448,22.720483779907227,-0.001620553433895111,-14.207185745239258,-0.2841086983680725,-2.1325716972351074,0.27591270208358765,0
33,0.16029024124145508,-0.2720577120780945,-22.720483779907227,0.001620553433895111,14.207185745239258,0.2841086983680725,2.1389803886413574,-0.23471395671367645,0.0,0.0,0.0,0.0,0.0,0.0,0.0,-0.2785883468031768,0.10043527221579299,-0.07050295137140292,0.33417133428694235,0.053507220676154155,-0.050531012934081736,-0.2650796465950579,1.6755161454730376,0.052254246293567154,0.02992849217078908,-2.752533603128225,0.03422413747946493,2.766368666383955,0.7691641174869404,1.6754973547542302,0.052104326824870026,0.029969505109285054,-2.752394845125968,0.0342448039870148,2.7663679543071322,0.7691630533470046,0.0001634580294768473,0.0003462119417863685,0.00026214646258579117,-0.00039033879816979946,1.1161520790664402e-05,-8.188113599833179e-05,-0.0005448961497065923,0.0,0.0,0.0,0.0,0.0,0.0,0.0,-1.8790718807393247e-05,-0.00014991946869712808,4.101293849597537e-05,0.00013875800225671142,2.0666507549872704e-05,-7.120768228396912e-07,-1.0641399357247394e-06,-0.0001634580294768473,-0.0003462119417863685,-0.00026214646258579117,0.00039033879816979946,-1.1161520790664402e-05,8.188113599833179e-05,0.0005448961497065923,0.2720577120780945,22.720483779907227,-0.001620553433895111,-14.207185745239258,-0.2841086983680725,-2.1389803886413574,0.23471395671367645,0
34,0.16515183448791504,-0.2720577120780945,-22.720483779907227,0.001620553433895111,14.207185745239258,0.2841086983680725,2.1389803886413574,-0.23471395671367645,0.0,0.0,0.0,0.0,0.0,0.0,0.0,-0.2785883468031768,0.10043527221579299,-0.07050295137140292,0.33417133428694235,0.053507220676154155,-0.050531012934081736,-0.2650796465950579,1.6755161454730376,0.052254246293567154,0.02992849217078908,-2.752533603128225,0.03422413747946493,2.766368666383955,0.7691641174869404,1.6754973547542302,0.052104326824870026,0.029969505109285054,-2.752394845125968,0.0342448039870148,2.7663679543071322,0.7691630533470046,0.0001634580294768473,0.0003462119417863685,0.00026214646258579117,-0.00039033879816979946,1.1161520790664402e-05,-8.188113599833179e-05,-0.0005448961497065923,0.0,0.0,0.0,0.0,0.0,0.0,0.0,-1.8790718807393247e-05,-0.00014991946869712808,4.101293849597537e-05,0.00013875800225671142,2.0666507549872704e-05,-7.120768228396912e-07,-1.0641399357247394e-06,-0.0001634580294768473,-0.0003462119417863685,-0.00026214646258579117,0.00039033879816979946,-1.1161520790664402e-05,8.188113599833179e-05,0.0005448961497065923,0.2720577120780945,22.720483779907227,-0.001620553433895111,-14.207185745239258,-0.2841086983680725,-2.1389803886413574,0.23471395671367645,0
35,0.1699976921081543,-0.2720577120780945,-22.649072647094727,-0.02615044265985489,14.207185745239258,0.2960105538368225,2.1389803886413574,-0.24844686686992645,0.0,0.0,0.0,0.0,0.0,0.0,0.0,-0.27859477403039196,0.10376915727996978,-0.07270399493951452,0.3342596618885332,0.05308194786007703,-0.04972835554143489,-0.2625409503579607,1.675515192167509,0.05225221288473708,0.029928308468526673,-2.752533603233203,0.03422277851557676,2.766368666383955,0.7691656433658466,1.6754973547542302,0.052104326824870026,0.029969505109285054,-2.752394845125968,0.0342448039870148,2.7663679543071322,0.7691630533470046,-0.00020650101406752343,-0.0007384039428494143,0.0009522217568016451,-0.0005585853503594868,-0.000605338595108946,-0.005340023209386703,0.00020093271875035328,0.0,0.0,0.0,0.0,0.0,0.0,0.0,-1.7837413278876113e-05,-0.0001478860598670556,4.119664075838067e-05,0.00013875810723495974,2.2025471438043287e-05,-7.120768228396912e-07,-2.590018841952535e-06,0.00020650101406752343,0.0007384039428494143,-0.0009522217568016451,0.0005585853503594868,0.000605338595108946,0.005340023209386703,-0.00020093271875035328,0.2720577120780945,22.649072647094727,0.02615044265985489,-14.207185745239258,-0.2960105538368225,-2.1389803886413574,0.24844686686992645,0
36,0.17499899864196777,-0.2720577120780945,-22.649072647094727,-0.02615044265985489,14.207185745239258,0.2960105538368225,2.1389803886413574,-0.24844686686992645,0.0,0.0,0.0,0.0,0.0,0.0,0.0,-0.27859477403039196,0.10376915727996978,-0.07270399493951452,0.3342596618885332,0.05308194786007703,-0.04972835554143489,-0.2625409503579607,1.675515192167509,0.05225221288473708,0.029928308468526673,-2.752533603233203,0.03422277851557676,2.766368666383955,0.7691656433658466,1.6754973547542302,0.052104326824870026,0.029969505109285054,-2.752394845125968,0.0342448039870148,2.7663679543071322,0.7691630533470046,-0.00020650101406752343,-0.0007384039428494143,0.0009522217568016451,-0.0005585853503594868,-0.000605338595108946,-0.005340023209386703,0.00020093271875035328,0.0,0.0,0.0,0.0,0.0,0.0,0.0,-1.7837413278876113e-05,-0.0001478860598670556,4.119664075838067e-05,0.00013875810723495974,2.2025471438043287e-05,-7.120768228396912e-07,-2.590018841952535e-06,0.00020650101406752343,0.0007384039428494143,-0.0009522217568016451,0.0005585853503594868,0.000605338595108946,0.005340023209386703,-0.00020093271875035328,0.2720577120780945,22.649072647094727,0.02615044265985489,-14.207185745239258,-0.2960105538368225,-2.1389803886413574,0.24844686686992645,0
37,0.18007445335388184,-0.2998287081718445,-22.696680068969727,0.001620553433895111,14.155611038208008,0.2841086983680725,2.1325716972351074,-0.22098104655742645,0.0,0.0,0.0,0.0,0.0,0.0,0.0,-0.2785273835575233,0.10137964712412302,-0.07275391073996314,0.3364868739190715,0.05305392990637369,-0.04934475994582166,-0.2598138173990676,1.675518086683749,0.05225491611275176,0.02992841339346238,-2.752529983955517,0.03422378623422946,2.7663693784607783,0.7691625916080341,1.6754973547542302,0.052104326824870026,0.029969505109285054,-2.752394845125968,0.0342448039870148,2.7663679543071322,0.7691630533470046,0.0006254503548377443,0.0003012653237924446,-2.9422581118996606e-05,0.0009417745779152003,2.4878994357606265e-05,-0.00017984875350755253,-0.001890315953111082,0.0,0.0,0.0,0.0,0.0,0.0,0.0,-2.0731929518680303e-05,-0.00015058928788173193,4.1091715822672015e-05,0.00013513882954896417,2.1017752785339183e-05,-1.4241536461234716e-06,4.617389705030561e-07,-0.0006254503548377443,-0.0003012653237924446,2.9422581118996606e-05,-0.0009417745779152003,-2.4878994357606265e-05,0.00017984875350755253,0.001890315953111082,0.2998287081718445,22.696680068969727,-0.001620553433895111,-14.155611038208008,-0.2841086983680725,-2.1325716972351074,0.22098104655742645,0
38,0.1849992275238037,-0.2998287081718445,-22.696680068969727,0.001620553433895111,14.155611038208008,0.2841086983680725,2.1325716972351074,-0.22098104655742645,0.0,0.0,0.0,0.0,0.0,0.0,0.0,-0.2785273835575233,0.10137964712412302,-0.07275391073996314,0.3364868739190715,0.05305392990637369,-0.04934475994582166,-0.2598138173990676,1.675518086683749,0.05225491611275176,0.02992841339346238,-2.752529983955517,0.03422378623422946,2.7663693784607783,0.7691625916080341,1.6754973547542302,0.052104326824870026,0.029969505109285054,-2.752394845125968,0.0342448039870148,2.7663679543071322,0.7691630533470046,0.0006254503548377443,0.0003012653237924446,-2.9422581118996606e-05,0.0009417745779152003,2.4878994357606265e-05,-0.00017984875350755253,-0.001890315953111082,0.0,0.0,0.0,0.0,0.0,0.0,0.0,-2.0731929518680303e-05,-0.00015058928788173193,4.1091715822672015e-05,0.00013513882954896417,2.1017752785339183e-05,-1.4241536461234716e-06,4.617389705030561e-07,-0.0006254503548377443,-0.0003012653237924446,2.9422581118996606e-05,-0.0009417745779152003,-2.4878994357606265e-05,0.00017984875350755253,0.001890315953111082,0.2998287081718445,22.696680068969727,-0.001620553433895111,-14.155611038208008,-0.2841086983680725,-2.1325716972351074,0.22098104655742645,0
39,0.1900179386138916,-0.2998287081718445,-22.696680068969727,0.001620553433895111,14.155611038208008,0.2841086983680725,2.1325716972351074,-0.22098104655742645,0.0,0.0,0.0,0.0,0.0,0.0,0.0,-0.2785273835575233,0.10137964712412302,-0.07275391073996314,0.3364868739190715,0.05305392990637369,-0.04934475994582166,-0.2598138173990676,1.675518086683749,0.05225491611275176,0.02992841339346238,-2.752529983955517,0.03422378623422946,2.7663693784607783,0.7691625916080341,1.6754973547542302,0.052104326824870026,0.029969505109285054,-2.752394845125968,0.0342448039870148,2.7663679543071322,0.7691630533470046,0.0006254503548377443,0.0003012653237924446,-2.9422581118996606e-05,0.0009417745779152003,2.4878994357606265e-05,-0.00017984875350755253,-0.001890315953111082,0.0,0.0,0.0,0.0,0.0,0.0,0.0,-2.0731929518680303e-05,-0.00015058928788173193,4.1091715822672015e-05,0.00013513882954896417,2.1017752785339183e-05,-1.4241536461234716e-06,4.617389705030561e-07,-0.0006254503548377443,-0.0003012653237924446,2.9422581118996606e-05,-0.0009417745779152003,-2.4878994357606265e-05,0.00017984875350755253,0.001890315953111082,0.2998287081718445,22.696680068969727,-0.001620553433895111,-14.155611038208008,-0.2841086983680725,-2.1325716972351074,0.22098104655742645,0
40,0.19499635696411133,-0.2998287081718445,-22.696680068969727,0.001620553433895111,14.155611038208008,0.2841086983680725,2.1325716972351074,-0.22098104655742645,0.0,0.0,0.0,0.0,0.0,0.0,0.0,-0.2785273835575233,0.10137964712412302,-0.07275391073996314,0.3364868739190715,0.05305392990637369,-0.04934475994582166,-0.2598138173990676,1.675518086683749,0.05225491611275176,0.02992841339346238,-2.752529983955517,0.03422378623422946,2.7663693784607783,0.7691625916080341,1.6754973547542302,0.052104326824870026,0.029969505109285054,-2.752394845125968,0.0342448039870148,2.7663679543071322,0.7691630533470046,0.0006254503548377443,0.0003012653237924446,-2.9422581118996606e-05,0.0009417745779152003,2.4878994357606265e-05,-0.00017984875350755253,-0.001890315953111082,0.0,0.0,0.0,0.0,0.0,0.0,0.0,-2.0731929518680303e-05,-0.00015058928788173193,4.1091715822672015e-05,0.00013513882954896417,2.1017752785339183e-05,-1.4241536461234716e-06,4.617389705030561e-07,-0.0006254503548377443,-0.0003012653237924446,2.9422581118996606e-05,-0.0009417745779152003,-2.4878994357606265e-05,0.00017984875350755253,0.001890315953111082,0.2998287081718445,22.696680068969727,-0.001620553433895111,-14.155611038208008,-0.2841086983680725,-2.1325716972351074,0.22098104655742645,0
41,0.20000624656677246,-0.22445029020309448,-22.649072647094727,-0.02615044265985489,14.179414749145508,0.2841086983680725,2.1389803886413574,-0.28964561223983765,0.0,0.0,0.0,0.0,0.0,0.0,0.0,-0.27887584047796465,0.10508589410970359,-0.0745653483859434,0.32830016672753365,0.05326825223378518,-0.051146031358869345,-0.2590688793094158,1.6755120514496242,0.05225205502371709,0.029930439823507224,-2.7525316543913725,0.0342240058903921,2.766368666383955,0.7691700620585017,1.6754973547542302,0.052104326824870026,0.029969505109285054,-2.752394845125968,0.0342448039870148,2.7663679543071322,0.7691630533470046,-0.0012408474281608286,-0.0010290364694893115,0.0006292451923221727,0.0003065312677477377,0.00011681110517487245,-0.0002852842089776552,0.001559466153348374,0.0,0.0,0.0,0.0,0.0,0.0,0.0,-1.469669539400087e-05,-0.00014772819884706356,3.9065285777829806e-05,0.00013680926540438065,2.079809662269838e-05,-7.120768228396912e-07,-7.008711497058506e-06,0.0012408474281608286,0.0010290364694893115,-0.0006292451923221727,-0.0003065312677477377,-0.00011681110517487245,0.0002852842089776552,-0.001559466153348374,0.22445029020309448,22.649072647094727,0.02615044265985489,-14.179414749145508,-0.2841086983680725,-2.1389803886413574,0.28964561223983765,0
42,0.2050466537475586,-0.22445029020309448,-22.649072647094727,-0.02615044265985489,14.179414749145508,0.2841086983680725,2.1389803886413574,-0.28964561223983765,0.0,0.0,0.0,0.0,0.0,0.0,0.0,-0.27887584047796465,0.10508589410970359,-0.0745653483859434,0.32830016672753365,0.05326825223378518,-0.051146031358869345,-0.2590688793094158,1.6755120514496242,0.05225205502371709,0.029930439823507224,-2.7525316543913725,0.0342240058903921,2.766368666383955,0.7691700620585017,1.6754973547542302,0.052104326824870026,0.029969505109285054,-2.752394845125968,0.0342448039870148,2.7663679543071322,0.7691630533470046,-0.0012408474281608286,-0.0010290364694893115,0.0006292451923221727,0.0003065312677477377,0.00011681110517487245,-0.0002852842089776552,0.001559466153348374,0.0,0.0,0.0,0.0,0.0,0.0,0.0,-1.469669539400087e-05,-0.00014772819884706356,3.9065285777829806e-05,0.00013680926540438065,2.079809662269838e-05,-7.120768228396912e-07,-7.008711497058506e-06,0.0012408474281608286,0.0010290364694893115,-0.0006292451923221727,-0.0003065312677477377,-0.00011681110517487245,0.0002852842089776552,-0.001559466153348374,0.22445029020309448,22.649072647094727,0.02615044265985489,-14.179414749145508,-0.2841086983680725,-2.1389803886413574,0.28964561223983765,0
43,0.21003460884094238,-0.3236324191093445,-22.672876358032227,0.001620553433895111,14.179414749145508,0.2841086983680725,2.1197543144226074,-0.27591270208358765,0.0,0.0,0.0,0.0,0.0,0.0,0.0,-0.2810737798847638,0.10788979314209998,-0.0795998320613295,0.3246715536179648,0.05320420961039004,-0.051933886345243194,-0.25867952239312175,1.6755176113898609,0.05225104722327496,0.029928465988809678,-2.752531654251401,0.034223668339412074,2.766370802614424,0.7691686936526979,1.6754973547542302,0.052104326824870026,0.029969505109285054,-2.752394845125968,0.0342448039870148,2.7663679543071322,0.7691630533470046,0.000806531525588345,-0.00040276551861463786,0.0002225569811596327,0.0001890660743040892,-4.09390276703916e-05,-0.008955189892079142,0.005937500816355406,0.0,0.0,0.0,0.0,0.0,0.0,0.0,-2.0256635630655495e-05,-0.000146720398404937,4.103912047537586e-05,0.00013680912543279078,2.1135647602726904e-05,-2.848307291802854e-06,-5.6403056932774476e-06,-0.000806531525588345,0.00040276551861463786,-0.0002225569811596327,-0.0001890660743040892,4.09390276703916e-05,0.008955189892079142,-0.005937500816355406,0.3236324191093445,22.672876358032227,-0.001620553433895111,-14.179414749145508,-0.2841086983680725,-2.1197543144226074,0.27591270208358765,0
44,0.21503925323486328,-0.3236324191093445,-22.672876358032227,0.001620553433895111,14.179414749145508,0.2841086983680725,2.1197543144226074,-0.27591270208358765,0.0,0.0,0.0,0.0,0.0,0.0,0.0,-0.2810737798847638,0.10788979314209998,-0.0795998320613295,0.3246715536179648,0.05320420961039004,-0.051933886345243194,-0.25867952239312175,1.6755176113898609,0.05225104722327496,0.029928465988809678,-2.752531654251401,0.034223668339412074,2.766370802614424,0.7691686936526979,1.6754973547542302,0.052104326824870026,0.029969505109285054,-2.752394845125968,0.0342448039870148,2.7663679543071322,0.7691630533470046,0.000806531525588345,-0.00040276551861463786,0.0002225569811596327,0.0001890660743040892,-4.09390276703916e-05,-0.008955189892079142,0.005937500816355406,0.0,0.0,0.0,0.0,0.0,0.0,0.0,-2.0256635630655495e-05,-0.000146720398404937,4.103912047537586e-05,0.00013680912543279078,2.1135647602726904e-05,-2.848307291802854e-06,-5.6403056932774476e-06,-0.000806531525588345,0.00040276551861463786,-0.0002225569811596327,-0.0001890660743040892,4.09390276703916e-05,0.008955189892079142,-0.005937500816355406,0.3236324191093445,22.672876358032227,-0.001620553433895111,-14.179414749145508,-0.2841086983680725,-2.1197543144226074,0.27591270208358765,0
45,0.22007298469543457,-0.2720577120780945,-22.720483779907227,0.02542426437139511,14.179414749145508,0.2841086983680725,2.1261630058288574,-0.24112264811992645,0.0,0.0,0.0,0.0,0.0,0.0,0.0,-0.280384849973094,0.09575652220436442,-0.0782909950744955,0.3349584366051883,0.05259802323335954,-0.049816571365009735,-0.2592303770901885,1.6755151931364995,0.05225449448277301,0.029926099274697013,-2.7525316543913716,0.034219721639709245,2.7663711501757304,0.769164829563755,1.6754973547542302,0.052104326824870026,0.029969505109285054,-2.752394845125968,0.0342448039870148,2.7663679543071322,0.7691630533470046,-0.00026084484142965895,0.0003998854332532978,-0.0007285697922866146,0.0006484050630227246,0.00012272402307610228,-0.0001143659162368164,-0.0006630148552633343,0.0,0.0,0.0,0.0,0.0,0.0,0.0,-1.7838382269319553e-05,-0.00015016765790298175,4.340583458804087e-05,0.00013680926540349247,2.508234730555503e-05,-3.195868598204754e-06,-1.7762167503487802e-06,0.00026084484142965895,-0.0003998854332532978,0.0007285697922866146,-0.0006484050630227246,-0.00012272402307610228,0.0001143659162368164,0.0006630148552633343,0.2720577120780945,22.720483779907227,-0.02542426437139511,-14.179414749145508,-0.2841086983680725,-2.1261630058288574,0.24112264811992645,0
46,0.22503352165222168,-0.2720577120780945,-22.720483779907227,0.02542426437139511,14.179414749145508,0.2841086983680725,2.1261630058288574,-0.24112264811992645,0.0,0.0,0.0,0.0,0.0,0.0,0.0,-0.280384849973094,0.09575652220436442,-0.0782909950744955,0.3349584366051883,0.05259802323335954,-0.049816571365009735,-0.2592303770901885,1.6755151931364995,0.05225449448277301,0.029926099274697013,-2.7525316543913716,0.034219721639709245,2.7663711501757304,0.769164829563755,1.6754973547542302,0.052104326824870026,0.029969505109285054,-2.752394845125968,0.0342448039870148,2.7663679543071322,0.7691630533470046,-0.00026084484142965895,0.0003998854332532978,-0.0007285697922866146,0.0006484050630227246,0.00012272402307610228,-0.0001143659162368164,-0.0006630148552633343,0.0,0.0,0.0,0.0,0.0,0.0,0.0,-1.7838382269319553e-05,-0.00015016765790298175,4.340583458804087e-05,0.00013680926540349247,2.508234730555503e-05,-3.195868598204754e-06,-1.7762167503487802e-06,0.00026084484142965895,-0.0003998854332532978,0.0007285697922866146,-0.0006484050630227246,-0.00012272402307610228,0.0001143659162368164,0.0006630148552633343,0.2720577120780945,22.720483779907227,-0.02542426437139511,-14.179414749145508,-0.2841086983680725,-2.1261630058288574,0.24112264811992645,0
47,0.23004770278930664,-0.2998287081718445,-22.696680068969727,0.02542426437139511,14.155611038208008,0.2786155343055725,2.1389803886413574,-0.24112264811992645,0.0,0.0,0.0,0.0,0.0,0.0,0.0,-0.28176115988895695,0.1052304810016988,-0.08085211301241634,0.32579668337461487,0.05295588948415542,-0.05294962539401238,-0.2603029796659747,1.6755180951870232,0.0522549222248811,0.029926584241854768,-2.7525279176611646,0.03422475213844929,2.766368666389937,0.7691648295637633,1.6754973547542302,0.052104326824870026,0.029969505109285054,-2.752394845125968,0.0342448039870148,2.7663679543071322,0.7691630533470046,0.0002582047893966708,-1.2840645546605972e-05,-0.000751560314507779,0.0014564058081232162,0.00010341798876362488,-0.0003769832817963626,-0.0007121198432044491,0.0,0.0,0.0,0.0,0.0,0.0,0.0,-2.0740432792987207e-05,-0.00015059540001107624,4.29208674302857e-05,0.00013307253519645457,2.0051848565509622e-05,-7.120828047213479e-07,-1.776216758675453e-06,-0.0002582047893966708,1.2840645546605972e-05,0.000751560314507779,-0.0014564058081232162,-0.00010341798876362488,0.0003769832817963626,0.0007121198432044491,0.2998287081718445,22.696680068969727,-0.02542426437139511,-14.155611038208008,-0.2786155343055725,-2.1389803886413574,0.24112264811992645,0
48,0.2350602149963379,-0.2998287081718445,-22.696680068969727,0.02542426437139511,14.155611038208008,0.2786155343055725,2.1389803886413574,-0.24112264811992645,0.0,0.0,0.0,0.0,0.0,0.0,0.0,-0.28176115988895695,0.1052304810016988,-0.08085211301241634,0.32579668337461487,0.05295588948415542,-0.05294962539401238,-0.2603029796659747,1.6755180951870232,0.0522549222248811,0.029926584241854768,-2.7525279176611646,0.03422475213844929,2.766368666389937,0.7691648295637633,1.6754973547542302,0.052104326824870026,0.029969505109285054,-2.752394845125968,0.0342448039870148,2.7663679543071322,0.7691630533470046,0.0002582047893966708,-1.2840645546605972e-05,-0.000751560314507779,0.0014564058081232162,0.00010341798876362488,-0.0003769832817963626,-0.0007121198432044491,0.0,0.0,0.0,0.0,0.0,0.0,0.0,-2.0740432792987207e-05,-0.00015059540001107624,4.29208674302857e-05,0.00013307253519645457,2.0051848565509622e-05,-7.120828047213479e-07,-1.776216758675453e-06,-0.0002582047893966708,1.2840645546605972e-05,0.000751560314507779,-0.0014564058081232162,-0.00010341798876362488,0.0003769832817963626,0.0007121198432044491,0.2998287081718445,22.696680068969727,-0.02542426437139511,-14.155611038208008,-0.2786155343055725,-2.1389803886413574,0.24112264811992645,0
49,0.24001383781433105,-0.2998287081718445,-22.696680068969727,0.001620553433895111,14.207185745239258,0.2667136788368225,2.1325716972351074,-0.29605430364608765,0.0,0.0,0.0,0.0,0.0,0.0,0.0,-0.27895039403696237,0.11234791195563294,-0.07551215294217284,0.3242763159944483,0.05259106896279485,-0.05341890553270781,-0.26103588882213247,1.6755178541937734,0.052254637089912626,0.029928489033249916,-2.752533603221539,0.034222876885340744,2.7663693784607783,0.7691709330265358,1.6754973547542302,0.052104326824870026,0.029969505109285054,-2.752394845125968,0.0342448039870148,2.7663679543071322,0.7691630533470046,0.00029031940234020226,0.000868738075187776,0.0006185061249527594,-0.00029097640340674575,0.0006713010872684973,5.652004975355582e-05,0.0008987911408338855,0.0,0.0,0.0,0.0,0.0,0.0,0.0,-2.049943954318678e-05,-0.0001503102650425997,4.101607603513788e-05,0.00013875809557095664,2.1927101674056038e-05,-1.4241536461234716e-06,-7.879679531197503e-06,-0.00029031940234020226,-0.000868738075187776,-0.0006185061249527594,0.00029097640340674575,-0.0006713010872684973,-5.652004975355582e-05,-0.0008987911408338855,0.2998287081718445,22.696680068969727,-0.001620553433895111,-14.207185745239258,-0.2667136788368225,-2.1325716972351074,0.29605430364608765,0
50,0.24499750137329102,-0.2998287081718445,-22.696680068969727,0.001620553433895111,14.207185745239258,0.2667136788368225,2.1325716972351074,-0.29605430364608765,0.0,0.0,0.0,0.0,0.0,0.0,0.0,-0.27895039403696237,0.11234791195563294,-0.07551215294217284,0.3242763159944483,0.05259106896279485,-0.05341890553270781,-0.26103588882213247,1.6755178541937734,0.052254637089912626,0.029928489033249916,-2.752533603221539,0.034222876885340744,2.7663693784607783,0.7691709330265358,1.6754973547542302,0.052104326824870026,0.029969505109285054,-2.752394845125968,0.0342448039870148,2.7663679543071322,0.7691630533470046,0.00029031940234020226,0.000868738075187776,0.0006185061249527594,-0.00029097640340674575,0.0006713010872684973,5.652004975355582e-05,0.0008987911408338855,0.0,0.0,0.0,0.0,0.0,0.0,0.0,-2.049943954318678e-05,-0.0001503102650425997,4.101607603513788e-05,0.00013875809557095664,2.1927101674056038e-05,-1.4241536461234716e-06,-7.879679531197503e-06,-0.00029031940234020226,-0.000868738075187776,-0.0006185061249527594,0.00029097640340674575,-0.0006713010872684973,-5.652004975355582e-05,-0.0008987911408338855,0.2998287081718445,22.696680068969727,-0.001620553433895111,-14.207185745239258,-0.2667136788368225,-2.1325716972351074,0.29605430364608765,0
51,0.24999618530273438,-0.2720577120780945,-22.621301651000977,-0.02615044265985489,14.179414749145508,0.2841086983680725,2.1261630058288574,-0.28232139348983765,0.0,0.0,0.0,0.0,0.0,0.0,0.0,-0.279988578058856,0.10691540203466075,-0.07540681411362543,0.33059040996839406,0.052663354141232195,-0.05222886015019641,-0.2626552697102415,1.6755159083666984,0.052249652994762044,0.029930440148522582,-2.7525316543913725,0.03422398400598757,2.766370090537601,0.7691690495742688,1.6754973547542302,0.052104326824870026,0.029969505109285054,-2.752394845125968,0.0342448039870148,2.7663679543071322,0.7691630533470046,0.0003550669640329769,-0.0014834966634913874,0.00045330231834506113,0.00036999080293293525,0.00023794528577670694,0.00024104561106331874,0.0004935874745355353,0.0,0.0,0.0,0.0,0.0,0.0,0.0,-1.8553612468164005e-05,-0.0001453261698920183,3.906496076247143e-05,0.00013680926540438065,2.0819981027229983e-05,-2.136230468963163e-06,-5.996227264160048e-06,-0.0003550669640329769,0.0014834966634913874,-0.00045330231834506113,-0.00036999080293293525,-0.00023794528577670694,-0.00024104561106331874,-0.0004935874745355353,0.2720577120780945,22.621301651000977,0.02615044265985489,-14.179414749145508,-0.2841086983680725,-2.1261630058288574,0.28232139348983765,0
52,0.25499725341796875,-0.2720577120780945,-22.621301651000977,-0.02615044265985489,14.179414749145508,0.2841086983680725,2.1261630058288574,-0.28232139348983765,0.0,0.0,0.0,0.0,0.0,0.0,0.0,-0.279988578058856,0.10691540203466075,-0.07540681411362543,0.33059040996839406,0.052663354141232195,-0.05222886015019641,-0.2626552697102415,1.6755159083666984,0.052249652994762044,0.029930440148522582,-2.7525316543913725,0.03422398400598757,2.766370090537601,0.7691690495742688,1.6754973547542302,0.052104326824870026,0.029969505109285054,-2.752394845125968,0.0342448039870148,2.7663679543071322,0.7691630533470046,0.0003550669640329769,-0.0014834966634913874,0.00045330231834506113,0.00036999080293293525,0.00023794528577670694,0.00024104561106331874,0.0004935874745355353,0.0,0.0,0.0,0.0,0.0,0.0,0.0,-1.8553612468164005e-05,-0.0001453261698920183,3.906496076247143e-05,0.00013680926540438065,2.0819981027229983e-05,-2.136230468963163e-06,-5.996227264160048e-06,-0.0003550669640329769,0.0014834966634913874,-0.00045330231834506113,-0.00036999080293293525,-0.00023794528577670694,-0.00024104561106331874,-0.0004935874745355353,0.2720577120780945,22.621301651000977,0.02615044265985489,-14.179414749145508,-0.2841086983680725,-2.1261630058288574,0.28232139348983765,0
53,0.26000547409057617,-0.2998287081718445,-22.720483779907227,-0.02615044265985489,14.207185745239258,0.2905173897743225,2.1325716972351074,-0.28232139348983765,0.0,0.0,0.0,0.0,0.0,0.0,0.0,-0.279407745700637,0.10369093924499141,-0.07841363674855512,0.33437513004814523,0.05357447013822077,-0.05147299917153673,-0.2639087985476559,1.675517140680953,0.05225659530393345,0.029930440978039024,-2.752532914468419,0.03422342540375662,2.7663693784607783,0.769169407200119,1.6754973547542302,0.052104326824870026,0.029969505109285054,-2.752394845125968,0.0342448039870148,2.7663679543071322,0.7691630533470046,0.00028815456321829686,0.0005496063645783147,0.0007117751475853241,-0.0001315913465208467,-9.787699362170573e-05,7.380326289507809e-06,0.0007589794245498569,0.0,0.0,0.0,0.0,0.0,0.0,0.0,-1.9785926722803993e-05,-0.0001522684790634249,3.906413124602978e-05,0.00013806934245108593,2.1378583258180317e-05,-1.4241536461234716e-06,-6.3538531143159105e-06,-0.00028815456321829686,-0.0005496063645783147,-0.0007117751475853241,0.0001315913465208467,9.787699362170573e-05,-7.380326289507809e-06,-0.0007589794245498569,0.2998287081718445,22.720483779907227,0.02615044265985489,-14.207185745239258,-0.2905173897743225,-2.1325716972351074,0.28232139348983765,0
54,0.2650108337402344,-0.2998287081718445,-22.720483779907227,-0.02615044265985489,14.207185745239258,0.2905173897743225,2.1325716972351074,-0.28232139348983765,0.0,0.0,0.0,0.0,0.0,0.0,0.0,-0.279407745700637,0.10369093924499141,-0.07841363674855512,0.33437513004814523,0.05357447013822077,-0.05147299917153673,-0.2639087985476559,1.675517140680953,0.05225659530393345,0.029930440978039024,-2.752532914468419,0.03422342540375662,2.7663693784607783,0.769169407200119,1.6754973547542302,0.052104326824870026,0.029969505109285054,-2.752394845125968,0.0342448039870148,2.7663679543071322,0.7691630533470046,0.00028815456321829686,0.0005496063645783147,0.0007117751475853241,-0.0001315913465208467,-9.787699362170573e-05,7.380326289507809e-06,0.0007589794245498569,0.0,0.0,0.0,0.0,0.0,0.0,0.0,-1.9785926722803993e-05,-0.0001522684790634249,3.906413124602978e-05,0.00013806934245108593,2.1378583258180317e-05,-1.4241536461234716e-06,-6.3538531143159105e-06,-0.00028815456321829686,-0.0005496063645783147,-0.0007117751475853241,0.0001315913465208467,9.787699362170573e-05,-7.380326289507809e-06,-0.0007589794245498569,0.2998287081718445,22.720483779907227,0.02615044265985489,-14.207185745239258,-0.2905173897743225,-2.1325716972351074,0.28232139348983765,0
55,0.2700157165527344,-0.2720577120780945,-22.720483779907227,0.001620553433895111,14.179414749145508,0.2960105538368225,2.1325716972351074,-0.28232139348983765,0.0,0.0,0.0,0.0,0.0,0.0,0.0,-0.27568195886123975,0.10561160846830384,-0.07573569069770558,0.33260678715845277,0.05357225493809163,-0.05167252403732547,-0.26465801719876064,1.6755153959135314,0.052257332230464866,0.02992845329380444,-2.752529588093132,0.03422281943755853,2.7663693784607783,0.7691694072021378,1.6754973547542302,0.052104326824870026,0.029969505109285054,-2.752394845125968,0.0342448039870148,2.7663679543071322,0.7691630533470046,9.114885020345522e-06,0.0003745444870037971,0.0002473178581203866,0.0005822610187685257,-0.00044846096417199753,6.975061085152319e-05,0.001295871866599954,0.0,0.0,0.0,0.0,0.0,0.0,0.0,-1.804115930115202e-05,-0.00015300540559484016,4.1051815480613874e-05,0.00013474296716387002,2.1984549456267877e-05,-1.4241536461234716e-06,-6.3538551331454585e-06,-9.114885020345522e-06,-0.0003745444870037971,-0.0002473178581203866,-0.0005822610187685257,0.00044846096417199753,-6.975061085152319e-05,-0.001295871866599954,0.2720577120780945,22.720483779907227,-0.001620553433895111,-14.179414749145508,-0.2960105538368225,-2.1325716972351074,0.28232139348983765,0
56,0.27504539489746094,-0.2720577120780945,-22.720483779907227,0.001620553433895111,14.179414749145508,0.2960105538368225,2.1325716972351074,-0.28232139348983765,0.0,0.0,0.0,0.0,0.0,0.0,0.0,-0.27568195886123975,0.10561160846830384,-0.07573569069770558,0.33260678715845277,0.05357225493809163,-0.05167252403732547,-0.26465801719876064,1.6755153959135314,0.052257332230464866,0.02992845329380444,-2.752529588093132,0.03422281943755853,2.7663693784607783,0.7691694072021378,1.6754973547542302,0.052104326824870026,0.029969505109285054,-2.752394845125968,0.0342448039870148,2.7663679543071322,0.7691630533470046,9.114885020345522e-06,0.0003745444870037971,0.0002473178581203866,0.0005822610187685257,-0.00044846096417199753,6.975061085152319e-05,0.001295871866599954,0.0,0.0,0.0,0.0,0.0,0.0,0.0,-1.804115930115202e-05,-0.00015300540559484016,4.1051815480613874e-05,0.00013474296716387002,2.1984549456267877e-05,-1.4241536461234716e-06,-6.3538551331454585e-06,-9.114885020345522e-06,-0.0003745444870037971,-0.0002473178581203866,-0.0005822610187685257,0.00044846096417199753,-6.975061085152319e-05,-0.001295871866599954,0.2720577120780945,22.720483779907227,-0.001620553433895111,-14.179414749145508,-0.2960105538368225,-2.1325716972351074,0.28232139348983765,0
57,0.28002262115478516,-0.2998287081718445,-22.672876358032227,-0.02615044265985489,14.230989456176758,0.2905173897743225,2.1325716972351074,-0.22830526530742645,0.0,0.0,0.0,0.0,0.0,0.0,0.0,-0.28145124601236904,0.10802507751570782,-0.08094873965439024,0.3271531918627121,0.05417440383181888,-0.05275399999618138,-0.2647891236172061,1.6755180599032358,0.05225160021711591,0.029930438092594495,-2.7525352736573945,0.034223072533749385,2.7663693784607783,0.7691634054101174,1.6754973547542302,0.052104326824870026,0.029969505109285054,-2.752394845125968,0.0342448039870148,2.7663679543071322,0.7691630533470046,0.0001723915391402793,-0.0005678144614851413,0.0006416290822135541,-0.0008659614340322163,-0.00011668754633592488,-0.00011646016130048807,-0.0015865535937641384,0.0,0.0,0.0,0.0,0.0,0.0,0.0,-2.070514900553988e-05,-0.00014727339224588493,3.9067016690558926e-05,0.00014042853142637313,2.1731453265415313e-05,-1.4241536461234716e-06,-3.520631127740259e-07,-0.0001723915391402793,0.0005678144614851413,-0.0006416290822135541,0.0008659614340322163,0.00011668754633592488,0.00011646016130048807,0.0015865535937641384,0.2998287081718445,22.672876358032227,0.02615044265985489,-14.230989456176758,-0.2905173897743225,-2.1325716972351074,0.22830526530742645,0
58,0.2850067615509033,-0.2998287081718445,-22.672876358032227,-0.02615044265985489,14.230989456176758,0.2905173897743225,2.1325716972351074,-0.22830526530742645,0.0,0.0,0.0,0.0,0.0,0.0,0.0,-0.28145124601236904,0.10802507751570782,-0.08094873965439024,0.3271531918627121,0.05417440383181888,-0.05275399999618138,-0.2647891236172061,1.6755180599032358,0.05225160021711591,0.029930438092594495,-2.7525352736573945,0.034223072533749385,2.7663693784607783,0.7691634054101174,1.6754973547542302,0.052104326824870026,0.029969505109285054,-2.752394845125968,0.0342448039870148,2.7663679543071322,0.7691630533470046,0.0001723915391402793,-0.0005678144614851413,0.0006416290822135541,-0.0008659614340322163,-0.00011668754633592488,-0.00011646016130048807,-0.0015865535937641384,0.0,0.0,0.0,0.0,0.0,0.0,0.0,-2.070514900553988e-05,-0.00014727339224588493,3.9067016690558926e-05,0.00014042853142637313,2.1731453265415313e-05,-1.4241536461234716e-06,-3.520631127740259e-07,-0.0001723915391402793,0.0005678144614851413,-0.0006416290822135541,0.0008659614340322163,0.00011668754633592488,0.00011646016130048807,0.0015865535937641384,0.2998287081718445,22.672876358032227,0.02615044265985489,-14.230989456176758,-0.2905173897743225,-2.1325716972351074,0.22830526530742645,0
59,0.2900097370147705,-0.3236324191093445,-22.696680068969727,0.04922797530889511,14.179414749145508,0.2905173897743225,2.1325716972351074,-0.28232139348983765,0.0,0.0,0.0,0.0,0.0,0.0,0.0,-0.2802409046372654,0.10346027138820968,-0.0794030720596367,0.327073159997515,0.054380260040657595,-0.052968056573093995,-0.26574368113558583,1.675519739573172,0.052255398156932684,0.02992490601994048,-2.7525316543913725,0.034222004175708615,2.7663693784607783,0.7691694072021378,1.6754973547542302,0.052104326824870026,0.029969505109285054,-2.752394845125968,0.0342448039870148,2.7663679543071322,0.7691630533470046,0.0006346697260305697,-9.154460388690266e-05,-0.0011296921549786552,7.20360681227837e-05,-1.8049135002757437e-05,3.520066414541518e-05,0.000617067718331435,0.0,0.0,0.0,0.0,0.0,0.0,0.0,-2.2384818941789675e-05,-0.00015107133206265777,4.459908934457274e-05,0.00013680926540438065,2.2799811306185858e-05,-1.4241536461234716e-06,-6.3538551331454585e-06,-0.0006346697260305697,9.154460388690266e-05,0.0011296921549786552,-7.20360681227837e-05,1.8049135002757437e-05,-3.520066414541518e-05,-0.000617067718331435,0.3236324191093445,22.696680068969727,-0.04922797530889511,-14.179414749145508,-0.2905173897743225,-2.1325716972351074,0.28232139348983765,0
60,0.2950105667114258,-0.3236324191093445,-22.696680068969727,0.04922797530889511,14.179414749145508,0.2905173897743225,2.1325716972351074,-0.28232139348983765,0.0,0.0,0.0,0.0,0.0,0.0,0.0,-0.2802409046372654,0.10346027138820968,-0.0794030720596367,0.327073159997515,0.054380260040657595,-0.052968056573093995,-0.26574368113558583,1.675519739573172,0.052255398156932684,0.02992490601994048,-2.7525316543913725,0.034222004175708615,2.7663693784607783,0.7691694072021378,1.6754973547542302,0.052104326824870026,0.029969505109285054,-2.752394845125968,0.0342448039870148,2.7663679543071322,0.7691630533470046,0.0006346697260305697,-9.154460388690266e-05,-0.0011296921549786552,7.20360681227837e-05,-1.8049135002757437e-05,3.520066414541518e-05,0.000617067718331435,0.0,0.0,0.0,0.0,0.0,0.0,0.0,-2.2384818941789675e-05,-0.00015107133206265777,4.459908934457274e-05,0.00013680926540438065,2.2799811306185858e-05,-1.4241536461234716e-06,-6.3538551331454585e-06,-0.0006346697260305697,9.154460388690266e-05,0.0011296921549786552,-7.20360681227837e-05,1.8049135002757437e-05,-3.520066414541518e-05,-0.000617067718331435,0.3236324191093445,22.696680068969727,-0.04922797530889511,-14.179414749145508,-0.2905173897743225,-2.1325716972351074,0.28232139348983765,0
61,0.3000473976135254,-0.2998287081718445,-22.696680068969727,-0.02615044265985489,14.207185745239258,0.2841086983680725,2.1325716972351074,-0.28232139348983765,0.0,0.0,0.0,0.0,0.0,0.0,0.0,-0.2845526425047564,0.10103130469153762,-0.07885081750502351,0.3292015741662577,0.05449596216053552,-0.052280455903429696,-0.26669663734163934,1.6755156231393538,0.0522535208352811,0.029930178096145992,-2.7525336032332035,0.03422378508969112,2.7663693784607783,0.7691694072021378,1.6754973547542302,0.052104326824870026,0.029969505109285054,-2.752394845125968,0.0342448039870148,2.7663679543071322,0.7691630533470046,0.0005657319922666098,-2.574519702754961e-05,0.00035005692662634636,-0.000320558267356595,8.508523134449416e-05,-5.658427314975669e-05,0.0015894238896783422,0.0,0.0,0.0,0.0,0.0,0.0,0.0,-1.8268385123532127e-05,-0.0001491940104110731,3.932701313906148e-05,0.00013875810723540383,2.1018897323678287e-05,-1.4241536461234716e-06,-6.3538551331454585e-06,-0.0005657319922666098,2.574519702754961e-05,-0.00035005692662634636,0.000320558267356595,-8.508523134449416e-05,5.658427314975669e-05,-0.0015894238896783422,0.2998287081718445,22.696680068969727,0.02615044265985489,-14.207185745239258,-0.2841086983680725,-2.1325716972351074,0.28232139348983765,0
62,0.3050048351287842,-0.2998287081718445,-22.696680068969727,-0.02615044265985489,14.207185745239258,0.2841086983680725,2.1325716972351074,-0.28232139348983765,0.0,0.0,0.0,0.0,0.0,0.0,0.0,-0.2845526425047564,0.10103130469153762,-0.07885081750502351,0.3292015741662577,0.05449596216053552,-0.052280455903429696,-0.26669663734163934,1.6755156231393538,0.0522535208352811,0.029930178096145992,-2.7525336032332035,0.03422378508969112,2.7663693784607783,0.7691694072021378,1.6754973547542302,0.052104326824870026,0.029969505109285054,-2.752394845125968,0.0342448039870148,2.7663679543071322,0.7691630533470046,0.0005657319922666098,-2.574519702754961e-05,0.00035005692662634636,-0.000320558267356595,8.508523134449416e-05,-5.658427314975669e-05,0.0015894238896783422,0.0,0.0,0.0,0.0,0.0,0.0,0.0,-1.8268385123532127e-05,-0.0001491940104110731,3.932701313906148e-05,0.00013875810723540383,2.1018897323678287e-05,-1.4241536461234716e-06,-6.3538551331454585e-06,-0.0005657319922666098,2.574519702754961e-05,-0.00035005692662634636,0.000320558267356595,-8.508523134449416e-05,5.658427314975669e-05,-0.0015894238896783422,0.2998287081718445,22.696680068969727,0.02615044265985489,-14.207185745239258,-0.2841086983680725,-2.1325716972351074,0.28232139348983765,0
63,0.31003332138061523,-0.2998287081718445,-22.696680068969727,-0.02615044265985489,14.207185745239258,0.2841086983680725,2.1325716972351074,-0.28232139348983765,0.0,0.0,0.0,0.0,0.0,0.0,0.0,-0.2845526425047564,0.10103130469153762,-0.07885081750502351,0.3292015741662577,0.05449596216053552,-0.052280455903429696,-0.26669663734163934,1.6755156231393538,0.0522535208352811,0.029930178096145992,-2.7525336032332035,0.03422378508969112,2.7663693784607783,0.7691694072021378,1.6754973547542302,0.052104326824870026,0.029969505109285054,-2.752394845125968,0.0342448039870148,2.7663679543071322,0.7691630533470046,0.0005657319922666098,-2.574519702754961e-05,0.00035005692662634636,-0.000320558267356595,8.508523134449416e-05,-5.658427314975669e-05,0.0015894238896783422,0.0,0.0,0.0,0.0,0.0,0.0,0.0,-1.8268385123532127e-05,-0.0001491940104110731,3.932701313906148e-05,0.00013875810723540383,2.1018897323678287e-05,-1.4241536461234716e-06,-6.3538551331454585e-06,-0.0005657319922666098,2.574519702754961e-05,-0.00035005692662634636,0.000320558267356595,-8.508523134449416e-05,5.658427314975669e-05,-0.0015894238896783422,0.2998287081718445,22.696680068969727,0.02615044265985489,-14.207185745239258,-0.2841086983680725,-2.1325716972351074,0.28232139348983765,0
64,0.3149986267089844,-0.2998287081718445,-22.696680068969727,-0.02615044265985489,14.207185745239258,0.2841086983680725,2.1325716972351074,-0.28232139348983765,0.0,0.0,0.0,0.0,0.0,0.0,0.0,-0.2845526425047564,0.10103130469153762,-0.07885081750502351,0.3292015741662577,0.05449596216053552,-0.052280455903429696,-0.26669663734163934,1.6755156231393538,0.0522535208352811,0.029930178096145992,-2.7525336032332035,0.03422378508969112,2.7663693784607783,0.7691694072021378,1.6754973547542302,0.052104326824870026,0.029969505109285054,-2.752394845125968,0.0342448039870148,2.7663679543071322,0.7691630533470046,0.0005657319922666098,-2.574519702754961e-05,0.00035005692662634636,-0.000320558267356595,8.508523134449416e-05,-5.658427314975669e-05,0.0015894238896783422,0.0,0.0,0.0,0.0,0.0,0.0,0.0,-1.8268385123532127e-05,-0.0001491940104110731,3.932701313906148e-05,0.00013875810723540383,2.1018897323678287e-05,-1.4241536461234716e-06,-6.3538551331454585e-06,-0.0005657319922666098,2.574519702754961e-05,-0.00035005692662634636,0.000320558267356595,-8.508523134449416e-05,5.658427314975669e-05,-0.0015894238896783422,0.2998287081718445,22.696680068969727,0.02615044265985489,-14.207185745239258,-0.2841086983680725,-2.1325716972351074,0.28232139348983765,0
65,0.3200051784515381,-0.2998287081718445,-22.696680068969727,-0.02615044265985489,14.207185745239258,0.2841086983680725,2.1325716972351074,-0.28232139348983765,0.0,0.0,0.0,0.0,0.0,0.0,0.0,-0.2845526425047564,0.10103130469153762,-0.07885081750502351,0.3292015741662577,0.05449596216053552,-0.052280455903429696,-0.26669663734163934,1.6755156231393538,0.0522535208352811,0.029930178096145992,-2.7525336032332035,0.03422378508969112,2.7663693784607783,0.7691694072021378,1.6754973547542302,0.052104326824870026,0.029969505109285054,-2.752394845125968,0.0342448039870148,2.7663679543071322,0.7691630533470046,0.0005657319922666098,-2.574519702754961e-05,0.00035005692662634636,-0.000320558267356595,8.508523134449416e-05,-5.658427314975669e-05,0.0015894238896783422,0.0,0.0,0.0,0.0,0.0,0.0,0.0,-1.8268385123532127e-05,-0.0001491940104110731,3.932701313906148e-05,0.00013875810723540383,2.1018897323678287e-05,-1.4241536461234716e-06,-6.3538551331454585e-06,-0.0005657319922666098,2.574519702754961e-05,-0.00035005692662634636,0.000320558267356595,-8.508523134449416e-05,5.658427314975669e-05,-0.0015894238896783422,0.2998287081718445,22.696680068969727,0.02615044265985489,-14.207185745239258,-0.2841086983680725,-2.1325716972351074,0.28232139348983765,0
66,0.32501816749572754,-0.24825400114059448,-22.621301651000977,0.02542426437139511,14.207185745239258,0.2905173897743225,2.1389803886413574,-0.28232139348983765,0.0,0.0,0.0,0.0,0.0,0.0,0.0,-0.2874322024713213,0.1076824388836365,-0.08241287909447063,0.32595971943756896,0.054533311951835056,-0.05284041222706726,-0.2669602980620235,1.6755123037521071,0.052248161735930304,0.02992678674898645,-2.7525336032332035,0.03422303512994324,2.766368666383955,0.7691694072021378,1.6754973547542302,0.052104326824870026,0.029969505109285054,-2.752394845125968,0.0342448039870148,2.7663679543071322,0.7691630533470046,-0.0013941429743760192,-0.0014042368521143035,-0.0006775824986775077,-0.00019649919644060306,-0.00017710639174585576,-1.2409814857813711e-05,0.0007125516862697234,0.0,0.0,0.0,0.0,0.0,0.0,0.0,-1.4948997876906844e-05,-0.00014383491106027824,4.271836029860407e-05,0.00013875810723540383,2.1768857071557957e-05,-7.120768228396912e-07,-6.3538551331454585e-06,0.0013941429743760192,0.0014042368521143035,0.0006775824986775077,0.00019649919644060306,0.00017710639174585576,1.2409814857813711e-05,-0.0007125516862697234,0.24825400114059448,22.621301651000977,-0.02542426437139511,-14.207185745239258,-0.2905173897743225,-2.1389803886413574,0.28232139348983765,0
67,0.32999587059020996,-0.24825400114059448,-22.621301651000977,0.02542426437139511,14.207185745239258,0.2905173897743225,2.1389803886413574,-0.28232139348983765,0.0,0.0,0.0,0.0,0.0,0.0,0.0,-0.2874322024713213,0.1076824388836365,-0.08241287909447063,0.32595971943756896,0.054533311951835056,-0.05284041222706726,-0.2669602980620235,1.6755123037521071,0.052248161735930304,0.02992678674898645,-2.7525336032332035,0.03422303512994324,2.766368666383955,0.7691694072021378,1.6754973547542302,0.052104326824870026,0.029969505109285054,-2.752394845125968,0.0342448039870148,2.7663679543071322,0.7691630533470046,-0.0013941429743760192,-0.0014042368521143035,-0.0006775824986775077,-0.00019649919644060306,-0.00017710639174585576,-1.2409814857813711e-05,0.0007125516862697234,0.0,0.0,0.0,0.0,0.0,0.0,0.0,-1.4948997876906844e-05,-0.00014383491106027824,4.271836029860407e-05,0.00013875810723540383,2.1768857071557957e-05,-7.120768228396912e-07,-6.3538551331454585e-06,0.0013941429743760192,0.0014042368521143035,0.0006775824986775077,0.00019649919644060306,0.00017710639174585576,1.2409814857813711e-05,-0.0007125516862697234,0.24825400114059448,22.621301651000977,-0.02542426437139511,-14.207185745239258,-0.2905173897743225,-2.1389803886413574,0.28232139348983765,0
68,0.33500075340270996,-0.24825400114059448,-22.696680068969727,0.001620553433895111,14.207185745239258,0.2905173897743225,2.1325716972351074,-0.25485557317733765,0.0,0.0,0.0,0.0,0.0,0.0,0.0,-0.28396257790842966,0.10553479749777031,-0.07805629028805379,0.32383931610368555,0.05456852966494196,-0.052139562812027695,-0.2664647613017738,1.6755123306193123,0.05225483760284006,0.029925644016201007,-2.7525336032332035,0.0342230746447765,2.7663693784607783,0.7691663554443252,1.6754973547542302,0.052104326824870026,0.029969505109285054,-2.752394845125968,0.0342448039870148,2.7663679543071322,0.7691630533470046,-0.00040078373931235216,-0.00010121161326384567,8.059195052845227e-05,0.005602290350932662,1.0653594416819883e-05,-1.1007763129463445e-05,-0.00024367283614933427,0.0,0.0,0.0,0.0,0.0,0.0,0.0,-1.497586508203419e-05,-0.00015051077797003515,4.386109308404662e-05,0.00013875810723540383,2.172934223829831e-05,-1.4241536461234716e-06,-3.302097320578845e-06,0.00040078373931235216,0.00010121161326384567,-8.059195052845227e-05,-0.005602290350932662,-1.0653594416819883e-05,1.1007763129463445e-05,0.00024367283614933427,0.24825400114059448,22.696680068969727,-0.001620553433895111,-14.207185745239258,-0.2905173897743225,-2.1325716972351074,0.25485557317733765,0
69,0.339982271194458,-0.24825400114059448,-22.696680068969727,0.001620553433895111,14.207185745239258,0.2905173897743225,2.1325716972351074,-0.25485557317733765,0.0,0.0,0.0,0.0,0.0,0.0,0.0,-0.28396257790842966,0.10553479749777031,-0.07805629028805379,0.32383931610368555,0.05456852966494196,-0.052139562812027695,-0.2664647613017738,1.6755123306193123,0.05225483760284006,0.029925644016201007,-2.7525336032332035,0.0342230746447765,2.7663693784607783,0.7691663554443252,1.6754973547542302,0.052104326824870026,0.029969505109285054,-2.752394845125968,0.0342448039870148,2.7663679543071322,0.7691630533470046,-0.00040078373931235216,-0.00010121161326384567,8.059195052845227e-05,0.005602290350932662,1.0653594416819883e-05,-1.1007763129463445e-05,-0.00024367283614933427,0.0,0.0,0.0,0.0,0.0,0.0,0.0,-1.497586508203419e-05,-0.00015051077797003515,4.386109308404662e-05,0.00013875810723540383,2.172934223829831e-05,-1.4241536461234716e-06,-3.302097320578845e-06,0.00040078373931235216,0.00010121161326384567,-8.059195052845227e-05,-0.005602290350932662,-1.0653594416819883e-05,1.1007763129463445e-05,0.00024367283614933427,0.24825400114059448,22.696680068969727,-0.001620553433895111,-14.207185745239258,-0.2905173897743225,-2.1325716972351074,0.25485557317733765,0
70,0.3450171947479248,-0.24825400114059448,-22.720483779907227,-0.02615044265985489,14.207185745239258,0.2786155343055725,2.1389803886413574,-0.26858848333358765,0.0,0.0,0.0,0.0,0.0,0.0,0.0,-0.2812767040546809,0.11560434354816392,-0.07879226359643564,0.3008302519949473,0.05490285997305724,-0.05518219300449061,-0.265871879713383,1.675511612408623,0.05225511503418249,0.02993017494376512,-2.7525336032332035,0.0342243576107022,2.766368666383955,0.7691678813232314,1.6754973547542302,0.052104326824870026,0.029969505109285054,-2.752394845125968,0.0342448039870148,2.7663679543071322,0.7691630533470046,-0.00036389405831192595,0.00031862735587636476,0.0009695038945393662,0.00014903657857132108,0.00021346213573926256,-8.210089106012947e-05,-0.00016995711973251802,0.0,0.0,0.0,0.0,0.0,0.0,0.0,-1.4257654392668684e-05,-0.00015078820931246212,3.933016551993518e-05,0.00013875810723540383,2.044637631259949e-05,-7.120768228396912e-07,-4.827976226806641e-06,0.00036389405831192595,-0.00031862735587636476,-0.0009695038945393662,-0.00014903657857132108,-0.00021346213573926256,8.210089106012947e-05,0.00016995711973251802,0.24825400114059448,22.720483779907227,0.02615044265985489,-14.207185745239258,-0.2786155343055725,-2.1389803886413574,0.26858848333358765,0
71,0.35004568099975586,-0.24825400114059448,-22.720483779907227,-0.02615044265985489,14.207185745239258,0.2786155343055725,2.1389803886413574,-0.26858848333358765,0.0,0.0,0.0,0.0,0.0,0.0,0.0,-0.2812767040546809,0.11560434354816392,-0.07879226359643564,0.3008302519949473,0.05490285997305724,-0.05518219300449061,-0.265871879713383,1.675511612408623,0.05225511503418249,0.02993017494376512,-2.7525336032332035,0.0342243576107022,2.766368666383955,0.7691678813232314,1.6754973547542302,0.052104326824870026,0.029969505109285054,-2.752394845125968,0.0342448039870148,2.7663679543071322,0.7691630533470046,-0.00036389405831192595,0.00031862735587636476,0.0009695038945393662,0.00014903657857132108,0.00021346213573926256,-8.210089106012947e-05,-0.00016995711973251802,0.0,0.0,0.0,0.0,0.0,0.0,0.0,-1.4257654392668684e-05,-0.00015078820931246212,3.933016551993518e-05,0.00013875810723540383,2.044637631259949e-05,-7.120768228396912e-07,-4.827976226806641e-06,0.00036389405831192595,-0.00031862735587636476,-0.0009695038945393662,-0.00014903657857132108,-0.00021346213573926256,8.210089106012947e-05,0.00016995711973251802,0.24825400114059448,22.720483779907227,0.02615044265985489,-14.207185745239258,-0.2786155343055725,-2.1389803886413574,0.26858848333358765,0
72,0.3550286293029785,-0.2998287081718445,-22.696680068969727,0.02542426437139511,14.207185745239258,0.2960105538368225,2.1261630058288574,-0.28232139348983765,0.0,0.0,0.0,0.0,0.0,0.0,0.0,-0.2846304723402021,0.09712944199440672,-0.08325830226872374,0.33531554141676734,0.05558364091380124,-0.049547428414697635,-0.26573962339483925,1.6755178304120624,0.052255634284418255,0.02992682151852866,-2.7525336032332035,0.03422281797385637,2.766370090537601,0.7691694072021378,1.6754973547542302,0.052104326824870026,0.029969505109285054,-2.752394845125968,0.0342448039870148,2.7663679543071322,0.7691630533470046,-4.721566251349507e-05,-1.5628285021728563e-05,-0.0003113676177678932,0.00020292406642028913,-0.00046246208581018255,0.00023293675487880182,0.010404153661401875,0.0,0.0,0.0,0.0,0.0,0.0,0.0,-2.047565783214189e-05,-0.00015130745954822916,4.2683590756393414e-05,0.00013875810723540383,2.1986013158427353e-05,-2.136230468963163e-06,-6.3538551331454585e-06,4.721566251349507e-05,1.5628285021728563e-05,0.0003113676177678932,-0.00020292406642028913,0.00046246208581018255,-0.00023293675487880182,-0.010404153661401875,0.2998287081718445,22.696680068969727,-0.02542426437139511,-14.207185745239258,-0.2960105538368225,-2.1261630058288574,0.28232139348983765,0
73,0.3600022792816162,-0.2998287081718445,-22.696680068969727,0.02542426437139511,14.207185745239258,0.2960105538368225,2.1261630058288574,-0.28232139348983765,0.0,0.0,0.0,0.0,0.0,0.0,0.0,-0.2846304723402021,0.09712944199440672,-0.08325830226872374,0.33531554141676734,0.05558364091380124,-0.049547428414697635,-0.26573962339483925,1.6755178304120624,0.052255634284418255,0.02992682151852866,-2.7525336032332035,0.03422281797385637,2.766370090537601,0.7691694072021378,1.6754973547542302,0.052104326824870026,0.029969505109285054,-2.752394845125968,0.0342448039870148,2.7663679543071322,0.7691630533470046,-4.721566251349507e-05,-1.5628285021728563e-05,-0.0003113676177678932,0.00020292406642028913,-0.00046246208581018255,0.00023293675487880182,0.010404153661401875,0.0,0.0,0.0,0.0,0.0,0.0,0.0,-2.047565783214189e-05,-0.00015130745954822916,4.2683590756393414e-05,0.00013875810723540383,2.1986013158427353e-05,-2.136230468963163e-06,-6.3538551331454585e-06,4.721566251349507e-05,1.5628285021728563e-05,0.0003113676177678932,-0.00020292406642028913,0.00046246208581018255,-0.00023293675487880182,-0.010404153661401875,0.2998287081718445,22.696680068969727,-0.02542426437139511,-14.207185745239258,-0.2960105538368225,-2.1261630058288574,0.28232139348983765,0
74,0.3650033473968506,-0.2998287081718445,-22.649072647094727,0.001620553433895111,14.254793167114258,0.2841086983680725,2.1389803886413574,-0.25485557317733765,0.0,0.0,0.0,0.0,0.0,0.0,0.0,-0.2813730265996544,0.09981924099010107,-0.0779851729123632,0.3349655167302807,0.05525587588481986,-0.050873131060890475,-0.26613232152345756,1.6755156810256446,0.052251602815419684,0.029928255330963858,-2.752536944104914,0.03422410191831157,2.766368666383955,0.7691662362350357,1.6754973547542302,0.052104326824870026,0.029969505109285054,-2.752394845125968,0.0342448039870148,2.7663679543071322,0.7691630533470046,0.0004485023724967587,-0.0007074145557549188,0.0003970287776000829,-0.0015713843710266251,0.00017773217567207788,-0.000309942773544993,0.00021479329338474048,0.0,0.0,0.0,0.0,0.0,0.0,0.0,-1.8326271414403905e-05,-0.00014727599054965845,4.1249778321195835e-05,0.0001420989789457927,2.070206870322805e-05,-7.120768228396912e-07,-3.182888031028064e-06,-0.0004485023724967587,0.0007074145557549188,-0.0003970287776000829,0.0015713843710266251,-0.00017773217567207788,0.000309942773544993,-0.00021479329338474048,0.2998287081718445,22.649072647094727,-0.001620553433895111,-14.254793167114258,-0.2841086983680725,-2.1389803886413574,0.25485557317733765,0
75,0.37000012397766113,-0.2998287081718445,-22.649072647094727,0.001620553433895111,14.254793167114258,0.2841086983680725,2.1389803886413574,-0.25485557317733765,0.0,0.0,0.0,0.0,0.0,0.0,0.0,-0.2813730265996544,0.09981924099010107,-0.0779851729123632,0.3349655167302807,0.05525587588481986,-0.050873131060890475,-0.26613232152345756,1.6755156810256446,0.052251602815419684,0.029928255330963858,-2.752536944104914,0.03422410191831157,2.766368666383955,0.7691662362350357,1.6754973547542302,0.052104326824870026,0.029969505109285054,-2.752394845125968,0.0342448039870148,2.7663679543071322,0.7691630533470046,0.0004485023724967587,-0.0007074145557549188,0.0003970287776000829,-0.0015713843710266251,0.00017773217567207788,-0.000309942773544993,0.00021479329338474048,0.0,0.0,0.0,0.0,0.0,0.0,0.0,-1.8326271414403905e-05,-0.00014727599054965845,4.1249778321195835e-05,0.0001420989789457927,2.070206870322805e-05,-7.120768228396912e-07,-3.182888031028064e-06,-0.0004485023724967587,0.0007074145557549188,-0.0003970287776000829,0.0015713843710266251,-0.00017773217567207788,0.000309942773544993,-0.00021479329338474048,0.2998287081718445,22.649072647094727,-0.001620553433895111,-14.254793167114258,-0.2841086983680725,-2.1389803886413574,0.25485557317733765,0
76,0.3750126361846924,-0.2720577120780945,-22.649072647094727,0.001620553433895111,14.179414749145508,0.2841086983680725,2.1389803886413574,-0.22830526530742645,0.0,0.0,0.0,0.0,0.0,0.0,0.0,-0.2849769184846256,0.09999302733225358,-0.08018137155546817,0.3348382527050343,0.05602976310632217,-0.05108632143112784,-0.26575234003694304,1.675516067336489,0.05225224184171253,0.02992562616384134,-2.7525316543913725,0.034223063225094094,2.766368666383955,0.7691634054094445,1.6754973547542302,0.052104326824870026,0.029969505109285054,-2.752394845125968,0.0342448039870148,2.7663679543071322,0.7691630533470046,-0.00043627535632611615,-0.000967127635868363,-0.0005135461465367598,-0.00012205161464605092,0.0001138648649214786,-6.332797405110198e-05,-0.0014127918669423756,0.0,0.0,0.0,0.0,0.0,0.0,0.0,-1.8712582258828547e-05,-0.00014791501684250502,4.387894544371357e-05,0.00013680926540438065,2.1740761920706342e-05,-7.120768228396912e-07,-3.520624398678507e-07,0.00043627535632611615,0.000967127635868363,0.0005135461465367598,0.00012205161464605092,-0.0001138648649214786,6.332797405110198e-05,0.0014127918669423756,0.2720577120780945,22.649072647094727,-0.001620553433895111,-14.179414749145508,-0.2841086983680725,-2.1389803886413574,0.22830526530742645,0
77,0.3800079822540283,-0.2720577120780945,-22.649072647094727,0.001620553433895111,14.179414749145508,0.2841086983680725,2.1389803886413574,-0.22830526530742645,0.0,0.0,0.0,0.0,0.0,0.0,0.0,-0.2849769184846256,0.09999302733225358,-0.08018137155546817,0.3348382527050343,0.05602976310632217,-0.05108632143112784,-0.26575234003694304,1.675516067336489,0.05225224184171253,0.02992562616384134,-2.7525316543913725,0.034223063225094094,2.766368666383955,0.7691634054094445,1.6754973547542302,0.052104326824870026,0.029969505109285054,-2.752394845125968,0.0342448039870148,2.7663679543071322,0.7691630533470046,-0.00043627535632611615,-0.000967127635868363,-0.0005135461465367598,-0.00012205161464605092,0.0001138648649214786,-6.332797405110198e-05,-0.0014127918669423756,0.0,0.0,0.0,0.0,0.0,0.0,0.0,-1.8712582258828547e-05,-0.00014791501684250502,4.387894544371357e-05,0.00013680926540438065,2.1740761920706342e-05,-7.120768228396912e-07,-3.520624398678507e-07,0.00043627535632611615,0.000967127635868363,0.0005135461465367598,0.00012205161464605092,-0.0001138648649214786,6.332797405110198e-05,0.0014127918669423756,0.2720577120780945,22.649072647094727,-0.001620553433895111,-14.179414749145508,-0.2841086983680725,-2.1389803886413574,0.22830526530742645,0
78,0.38500213623046875,-0.2720577120780945,-22.720483779907227,0.02542426437139511,14.207185745239258,0.2960105538368225,2.1325716972351074,-0.29605430364608765,0.0,0.0,0.0,0.0,0.0,0.0,0.0,-0.2802753118252882,0.09553616728653543,-0.07705896525252535,0.33794010707694244,0.055120729638505714,-0.049876825104406816,-0.2636429315936953,1.6755136468614626,0.052257306065984,0.029924613329179412,-2.7525336032332035,0.03422281943149433,2.7663693784607783,0.769170933081044,1.6754973547542302,0.052104326824870026,0.029969505109285054,-2.752394845125968,0.0342448039870148,2.7663679543071322,0.7691630533470046,-0.0003911207570312761,0.0004080711000615131,-0.0006819729663023434,-0.0001408578095877463,-0.00037649813823627167,0.00023766388618414139,0.001487664196576348,0.0,0.0,0.0,0.0,0.0,0.0,0.0,-1.6292107232418473e-05,-0.00015297924111397354,4.489178010564157e-05,0.00013875810723540383,2.198455552047257e-05,-1.4241536461234716e-06,-7.879734039373254e-06,0.0003911207570312761,-0.0004080711000615131,0.0006819729663023434,0.0001408578095877463,0.00037649813823627167,-0.00023766388618414139,-0.001487664196576348,0.2720577120780945,22.720483779907227,-0.02542426437139511,-14.207185745239258,-0.2960105538368225,-2.1325716972351074,0.29605430364608765,0
79,0.39052724838256836,-0.2720577120780945,-22.720483779907227,0.02542426437139511,14.207185745239258,0.2960105538368225,2.1325716972351074,-0.29605430364608765,0.0,0.0,0.0,0.0,0.0,0.0,0.0,-0.2802753118252882,0.09553616728653543,-0.07705896525252535,0.33794010707694244,0.055120729638505714,-0.049876825104406816,-0.2636429315936953,1.6755136468614626,0.052257306065984,0.029924613329179412,-2.7525336032332035,0.03422281943149433,2.7663693784607783,0.769170933081044,1.6754973547542302,0.052104326824870026,0.029969505109285054,-2.752394845125968,0.0342448039870148,2.7663679543071322,0.7691630533470046,-0.0003911207570312761,0.0004080711000615131,-0.0006819729663023434,-0.0001408578095877463,-0.00037649813823627167,0.00023766388618414139,0.001487664196576348,0.0,0.0,0.0,0.0,0.0,0.0,0.0,-1.6292107232418473e-05,-0.00015297924111397354,4.489178010564157e-05,0.00013875810723540383,2.198455552047257e-05,-1.4241536461234716e-06,-7.879734039373254e-06,0.0003911207570312761,-0.0004080711000615131,0.0006819729663023434,0.0001408578095877463,0.00037649813823627167,-0.00023766388618414139,-0.001487664196576348,0.2720577120780945,22.720483779907227,-0.02542426437139511,-14.207185745239258,-0.2960105538368225,-2.1325716972351074,0.29605430364608765,0
