rezayati/contactInterpretation/dataset/franka_main/labeled_data/link5/c4_3.csv
index,time,tau_J0,tau_J1,tau_J2,tau_J3,tau_J4,tau_J5,tau_J6,tau_J_d0,tau_J_d1,tau_J_d2,tau_J_d3,tau_J_d4,tau_J_d5,tau_J_d6,tau_ext0,tau_ext1,tau_ext2,tau_ext3,tau_ext4,tau_ext5,tau_ext6,q0,q1,q2,q3,q4,q5,q6,q_d0,q_d1,q_d2,q_d3,q_d4,q_d5,q_d6,dq0,dq1,dq2,dq3,dq4,dq5,dq6,dq_d0,dq_d1,dq_d2,dq_d3,dq_d4,dq_d5,dq_d6,e0,e1,e2,e3,e4,e5,e6,de0,de1,de2,de3,de4,de5,de6,etau_J0,etau_J1,etau_J2,etau_J3,etau_J4,etau_J5,etau_J6,label
1,0.0,-0.4029781222343445,-34.18990707397461,-3.7752349376678467,19.535249710083008,0.3317161202430725,1.783755898475647,-0.09097616374492645,0.0,0.0,0.0,0.0,0.0,0.0,0.0,-0.4643845975186787,-0.11306924338080278,-0.2798194973634794,0.5294237928218197,0.28522590989269037,-0.1144564212723705,-0.06804337940632763,1.0544930962135917,0.3242341827738119,-0.3924925270715006,-2.1534981606843573,0.8645866892536481,2.4659349225759506,0.54448703478939,1.0544104758940245,0.3238615046091247,-0.39250456234122666,-2.153291787532338,0.8647539153680389,2.46587817577521,0.5445020185570556,-0.00031498600309100457,6.843789235699535e-05,-0.001305333606747413,0.00018445769325838867,0.0002785865089755193,1.1948947393097093e-05,0.0012048891492532773,0.0,0.0,0.0,0.0,0.0,0.0,0.0,-8.262031956718374e-05,-0.00037267816468716797,-1.2035269726040632e-05,0.00020637315201943451,0.00016722611439079493,-5.674680074063687e-05,1.4983767665621706e-05,0.00031498600309100457,-6.843789235699535e-05,0.001305333606747413,-0.00018445769325838867,-0.0002785865089755193,-1.1948947393097093e-05,-0.0012048891492532773,0.4029781222343445,34.18990707397461,3.7752349376678467,-19.535249710083008,-0.3317161202430725,-1.783755898475647,0.09097616374492645,0
2,0.004911661148071289,-0.4029781222343445,-34.18990707397461,-3.7752349376678467,19.535249710083008,0.3317161202430725,1.783755898475647,-0.09097616374492645,0.0,0.0,0.0,0.0,0.0,0.0,0.0,-0.4643845975186787,-0.11306924338080278,-0.2798194973634794,0.5294237928218197,0.28522590989269037,-0.1144564212723705,-0.06804337940632763,1.0544930962135917,0.3242341827738119,-0.3924925270715006,-2.1534981606843573,0.8645866892536481,2.4659349225759506,0.54448703478939,1.0544104758940245,0.3238615046091247,-0.39250456234122666,-2.153291787532338,0.8647539153680389,2.46587817577521,0.5445020185570556,-0.00031498600309100457,6.843789235699535e-05,-0.001305333606747413,0.00018445769325838867,0.0002785865089755193,1.1948947393097093e-05,0.0012048891492532773,0.0,0.0,0.0,0.0,0.0,0.0,0.0,-8.262031956718374e-05,-0.00037267816468716797,-1.2035269726040632e-05,0.00020637315201943451,0.00016722611439079493,-5.674680074063687e-05,1.4983767665621706e-05,0.00031498600309100457,-6.843789235699535e-05,0.001305333606747413,-0.00018445769325838867,-0.0002785865089755193,-1.1948947393097093e-05,-0.0012048891492532773,0.4029781222343445,34.18990707397461,3.7752349376678467,-19.535249710083008,-0.3317161202430725,-1.783755898475647,0.09097616374492645,0
3,0.009910106658935547,-0.4267818331718445,-34.18990707397461,-3.8506133556365967,19.559053421020508,0.3381248116493225,1.783755898475647,-0.07724325358867645,0.0,0.0,0.0,0.0,0.0,0.0,0.0,-0.46268592039647316,-0.11714705220228651,-0.28262720533225816,0.5309884065081247,0.28544274424858596,-0.1143728507744343,-0.06767838081952503,1.054494766649447,0.3242319496765011,-0.39248879341036486,-2.1534998310825286,0.8645859771768252,2.4659349225759506,0.5444855089104838,1.0544104758940245,0.3238615046091247,-0.39250456234122666,-2.153291787532338,0.8647539153680389,2.46587817577521,0.5445020185570556,9.244581327203847e-05,-0.00012663221399612432,0.0007715624279035406,0.00022117949771591143,6.528847015619897e-05,3.497355082387984e-05,-0.00026215487702073274,0.0,0.0,0.0,0.0,0.0,0.0,0.0,-8.429075542260023e-05,-0.0003704450673763793,-1.5768930861803643e-05,0.00020804355019077292,0.00016793819121374565,-5.674680074063687e-05,1.65096465718495e-05,-9.244581327203847e-05,0.00012663221399612432,-0.0007715624279035406,-0.00022117949771591143,-6.528847015619897e-05,-3.497355082387984e-05,0.00026215487702073274,0.4267818331718445,34.18990707397461,3.8506133556365967,-19.559053421020508,-0.3381248116493225,-1.783755898475647,0.07724325358867645,0
4,0.014910697937011719,-0.4267818331718445,-34.18990707397461,-3.8506133556365967,19.559053421020508,0.3381248116493225,1.783755898475647,-0.07724325358867645,0.0,0.0,0.0,0.0,0.0,0.0,0.0,-0.46268592039647316,-0.11714705220228651,-0.28262720533225816,0.5309884065081247,0.28544274424858596,-0.1143728507744343,-0.06767838081952503,1.054494766649447,0.3242319496765011,-0.39248879341036486,-2.1534998310825286,0.8645859771768252,2.4659349225759506,0.5444855089104838,1.0544104758940245,0.3238615046091247,-0.39250456234122666,-2.153291787532338,0.8647539153680389,2.46587817577521,0.5445020185570556,9.244581327203847e-05,-0.00012663221399612432,0.0007715624279035406,0.00022117949771591143,6.528847015619897e-05,3.497355082387984e-05,-0.00026215487702073274,0.0,0.0,0.0,0.0,0.0,0.0,0.0,-8.429075542260023e-05,-0.0003704450673763793,-1.5768930861803643e-05,0.00020804355019077292,0.00016793819121374565,-5.674680074063687e-05,1.65096465718495e-05,-9.244581327203847e-05,0.00012663221399612432,-0.0007715624279035406,-0.00022117949771591143,-6.528847015619897e-05,-3.497355082387984e-05,0.00026215487702073274,0.4267818331718445,34.18990707397461,3.8506133556365967,-19.559053421020508,-0.3381248116493225,-1.783755898475647,0.07724325358867645,0
5,0.019911527633666992,-0.4267818331718445,-34.18990707397461,-3.8506133556365967,19.559053421020508,0.3381248116493225,1.783755898475647,-0.07724325358867645,0.0,0.0,0.0,0.0,0.0,0.0,0.0,-0.46268592039647316,-0.11714705220228651,-0.28262720533225816,0.5309884065081247,0.28544274424858596,-0.1143728507744343,-0.06767838081952503,1.054494766649447,0.3242319496765011,-0.39248879341036486,-2.1534998310825286,0.8645859771768252,2.4659349225759506,0.5444855089104838,1.0544104758940245,0.3238615046091247,-0.39250456234122666,-2.153291787532338,0.8647539153680389,2.46587817577521,0.5445020185570556,9.244581327203847e-05,-0.00012663221399612432,0.0007715624279035406,0.00022117949771591143,6.528847015619897e-05,3.497355082387984e-05,-0.00026215487702073274,0.0,0.0,0.0,0.0,0.0,0.0,0.0,-8.429075542260023e-05,-0.0003704450673763793,-1.5768930861803643e-05,0.00020804355019077292,0.00016793819121374565,-5.674680074063687e-05,1.65096465718495e-05,-9.244581327203847e-05,0.00012663221399612432,-0.0007715624279035406,-0.00022117949771591143,-6.528847015619897e-05,-3.497355082387984e-05,0.00026215487702073274,0.4267818331718445,34.18990707397461,3.8506133556365967,-19.559053421020508,-0.3381248116493225,-1.783755898475647,0.07724325358867645,0
6,0.02492523193359375,-0.4267818331718445,-34.18990707397461,-3.8506133556365967,19.559053421020508,0.3381248116493225,1.783755898475647,-0.07724325358867645,0.0,0.0,0.0,0.0,0.0,0.0,0.0,-0.46268592039647316,-0.11714705220228651,-0.28262720533225816,0.5309884065081247,0.28544274424858596,-0.1143728507744343,-0.06767838081952503,1.054494766649447,0.3242319496765011,-0.39248879341036486,-2.1534998310825286,0.8645859771768252,2.4659349225759506,0.5444855089104838,1.0544104758940245,0.3238615046091247,-0.39250456234122666,-2.153291787532338,0.8647539153680389,2.46587817577521,0.5445020185570556,9.244581327203847e-05,-0.00012663221399612432,0.0007715624279035406,0.00022117949771591143,6.528847015619897e-05,3.497355082387984e-05,-0.00026215487702073274,0.0,0.0,0.0,0.0,0.0,0.0,0.0,-8.429075542260023e-05,-0.0003704450673763793,-1.5768930861803643e-05,0.00020804355019077292,0.00016793819121374565,-5.674680074063687e-05,1.65096465718495e-05,-9.244581327203847e-05,0.00012663221399612432,-0.0007715624279035406,-0.00022117949771591143,-6.528847015619897e-05,-3.497355082387984e-05,0.00026215487702073274,0.4267818331718445,34.18990707397461,3.8506133556365967,-19.559053421020508,-0.3381248116493225,-1.783755898475647,0.07724325358867645,0
7,0.02995610237121582,-0.4505855441093445,-34.13833236694336,-3.8506133556365967,19.559053421020508,0.3436179757118225,1.783755898475647,-0.09738485515117645,0.0,0.0,0.0,0.0,0.0,0.0,0.0,-0.45839111875637706,-0.1134101921451488,-0.2801421292194894,0.5276553169368798,0.28497896705599635,-0.1155744692484777,-0.06561937509225771,1.0544964370853023,0.32422832746195535,-0.39248881968269433,-2.153499831082528,0.8645853668252627,2.4659349225759506,0.5444877473507296,1.0544104758940245,0.3238615046091247,-0.39250456234122666,-2.153291787532338,0.8647539153680389,2.46587817577521,0.5445020185570556,0.0002575544286050205,-0.0011910728671550713,-8.758330723786722e-06,-0.0001452408169691617,-0.0001555516762673142,0.0001838449817411874,0.0015741750321995379,0.0,0.0,0.0,0.0,0.0,0.0,0.0,-8.596119127779467e-05,-0.0003668228528306283,-1.5742658532325038e-05,0.00020804355019032883,0.00016854854277625897,-5.674680074063687e-05,1.4271206326021968e-05,-0.0002575544286050205,0.0011910728671550713,8.758330723786722e-06,0.0001452408169691617,0.0001555516762673142,-0.0001838449817411874,-0.0015741750321995379,0.4505855441093445,34.13833236694336,3.8506133556365967,-19.559053421020508,-0.3436179757118225,-1.783755898475647,0.09738485515117645,0
8,0.03491520881652832,-0.4505855441093445,-34.13833236694336,-3.8506133556365967,19.559053421020508,0.3436179757118225,1.783755898475647,-0.09738485515117645,0.0,0.0,0.0,0.0,0.0,0.0,0.0,-0.45839111875637706,-0.1134101921451488,-0.2801421292194894,0.5276553169368798,0.28497896705599635,-0.1155744692484777,-0.06561937509225771,1.0544964370853023,0.32422832746195535,-0.39248881968269433,-2.153499831082528,0.8645853668252627,2.4659349225759506,0.5444877473507296,1.0544104758940245,0.3238615046091247,-0.39250456234122666,-2.153291787532338,0.8647539153680389,2.46587817577521,0.5445020185570556,0.0002575544286050205,-0.0011910728671550713,-8.758330723786722e-06,-0.0001452408169691617,-0.0001555516762673142,0.0001838449817411874,0.0015741750321995379,0.0,0.0,0.0,0.0,0.0,0.0,0.0,-8.596119127779467e-05,-0.0003668228528306283,-1.5742658532325038e-05,0.00020804355019032883,0.00016854854277625897,-5.674680074063687e-05,1.4271206326021968e-05,-0.0002575544286050205,0.0011910728671550713,8.758330723786722e-06,0.0001452408169691617,0.0001555516762673142,-0.0001838449817411874,-0.0015741750321995379,0.4505855441093445,34.13833236694336,3.8506133556365967,-19.559053421020508,-0.3436179757118225,-1.783755898475647,0.09738485515117645,0
9,0.03990745544433594,-0.5299312472343445,-34.18990707397461,-3.8228423595428467,19.559053421020508,0.3381248116493225,1.796573281288147,-0.09097616374492645,0.0,0.0,0.0,0.0,0.0,0.0,0.0,-0.45698327518658427,-0.10983235949713505,-0.2783624674780754,0.5262741764226125,0.2844864132218542,-0.11591013896934169,-0.06444801279188787,1.0545020052048197,0.324232033723508,-0.3924905321785878,-2.153499831082528,0.8645859771768252,2.465933498422305,0.5444870347893926,1.0544104758940245,0.3238615046091247,-0.39250456234122666,-2.153291787532338,0.8647539153680389,2.46587817577521,0.5445020185570556,0.001309923655446206,0.00012172161402897579,-0.0005774714358651633,-0.0003115345932200289,0.00015805400393149454,-0.00023797493712583034,0.0011502222845805766,0.0,0.0,0.0,0.0,0.0,0.0,0.0,-9.15293107952575e-05,-0.00037052911438328895,-1.4030162638845045e-05,0.00020804355019032883,0.00016793819121374565,-5.532264709495749e-05,1.498376766295717e-05,-0.001309923655446206,-0.00012172161402897579,0.0005774714358651633,0.0003115345932200289,-0.00015805400393149454,0.00023797493712583034,-0.0011502222845805766,0.5299312472343445,34.18990707397461,3.8228423595428467,-19.559053421020508,-0.3381248116493225,-1.796573281288147,0.09097616374492645,0
10,0.044909000396728516,-0.5299312472343445,-34.18990707397461,-3.8228423595428467,19.559053421020508,0.3381248116493225,1.796573281288147,-0.09097616374492645,0.0,0.0,0.0,0.0,0.0,0.0,0.0,-0.45698327518658427,-0.10983235949713505,-0.2783624674780754,0.5262741764226125,0.2844864132218542,-0.11591013896934169,-0.06444801279188787,1.0545020052048197,0.324232033723508,-0.3924905321785878,-2.153499831082528,0.8645859771768252,2.465933498422305,0.5444870347893926,1.0544104758940245,0.3238615046091247,-0.39250456234122666,-2.153291787532338,0.8647539153680389,2.46587817577521,0.5445020185570556,0.001309923655446206,0.00012172161402897579,-0.0005774714358651633,-0.0003115345932200289,0.00015805400393149454,-0.00023797493712583034,0.0011502222845805766,0.0,0.0,0.0,0.0,0.0,0.0,0.0,-9.15293107952575e-05,-0.00037052911438328895,-1.4030162638845045e-05,0.00020804355019032883,0.00016793819121374565,-5.532264709495749e-05,1.498376766295717e-05,-0.001309923655446206,-0.00012172161402897579,0.0005774714358651633,0.0003115345932200289,-0.00015805400393149454,0.00023797493712583034,-0.0011502222845805766,0.5299312472343445,34.18990707397461,3.8228423595428467,-19.559053421020508,-0.3381248116493225,-1.796573281288147,0.09097616374492645,0
11,0.04991030693054199,-0.5021602511405945,-34.21371078491211,-3.8982207775115967,19.535249710083008,0.3500266671180725,1.802981972694397,-0.03604452684521675,0.0,0.0,0.0,0.0,0.0,0.0,0.0,-0.4592935578254733,-0.10924907453347257,-0.2742444849017315,0.5264508084931045,0.2846799902019647,-0.1152283918691179,-0.06492140816107592,1.0545000563629887,0.3242343941964948,-0.3924833181415153,-2.1534981606466728,0.8645846547484398,2.465932786345482,0.544480931274179,1.0544104758940245,0.3238615046091247,-0.39250456234122666,-2.153291787532338,0.8647539153680389,2.46587817577521,0.5445020185570556,8.61715766304723e-06,0.0006601946566057175,0.0011746778442232725,7.622983795234059e-05,-0.00048672927615789173,-0.0006302536834735321,-0.0009521374313027777,0.0,0.0,0.0,0.0,0.0,0.0,0.0,-8.958046896423433e-05,-0.0003728895873700844,-2.12441997113344e-05,0.00020637311433491234,0.00016926061959909866,-5.46105702721178e-05,2.1087282876641744e-05,-8.61715766304723e-06,-0.0006601946566057175,-0.0011746778442232725,-7.622983795234059e-05,0.00048672927615789173,0.0006302536834735321,0.0009521374313027777,0.5021602511405945,34.21371078491211,3.8982207775115967,-19.535249710083008,-0.3500266671180725,-1.802981972694397,0.03604452684521675,0
12,0.05490875244140625,-0.5021602511405945,-34.21371078491211,-3.8982207775115967,19.535249710083008,0.3500266671180725,1.802981972694397,-0.03604452684521675,0.0,0.0,0.0,0.0,0.0,0.0,0.0,-0.4592935578254733,-0.10924907453347257,-0.2742444849017315,0.5264508084931045,0.2846799902019647,-0.1152283918691179,-0.06492140816107592,1.0545000563629887,0.3242343941964948,-0.3924833181415153,-2.1534981606466728,0.8645846547484398,2.465932786345482,0.544480931274179,1.0544104758940245,0.3238615046091247,-0.39250456234122666,-2.153291787532338,0.8647539153680389,2.46587817577521,0.5445020185570556,8.61715766304723e-06,0.0006601946566057175,0.0011746778442232725,7.622983795234059e-05,-0.00048672927615789173,-0.0006302536834735321,-0.0009521374313027777,0.0,0.0,0.0,0.0,0.0,0.0,0.0,-8.958046896423433e-05,-0.0003728895873700844,-2.12441997113344e-05,0.00020637311433491234,0.00016926061959909866,-5.46105702721178e-05,2.1087282876641744e-05,-8.61715766304723e-06,-0.0006601946566057175,-0.0011746778442232725,-7.622983795234059e-05,0.00048672927615789173,0.0006302536834735321,0.0009521374313027777,0.5021602511405945,34.21371078491211,3.8982207775115967,-19.535249710083008,-0.3500266671180725,-1.802981972694397,0.03604452684521675,0
13,0.0599210262298584,-0.5021602511405945,-34.23751449584961,-3.8744170665740967,19.535249710083008,0.3381248116493225,1.790164589881897,-0.09097616374492645,0.0,0.0,0.0,0.0,0.0,0.0,0.0,-0.4629948746359329,-0.11904927820586152,-0.27565359344744345,0.5306559679208692,0.2844952064324543,-0.11468691915726269,-0.0637250812210548,1.0545000563629887,0.32423577181462165,-0.39248546971217074,-2.1534984109480253,0.8645859771768252,2.4659342104991278,0.54448703478939,1.0544104758940245,0.3238615046091247,-0.39250456234122666,-2.153291787532338,0.8647539153680389,2.46587817577521,0.5445020185570556,0.0005856844047140692,0.0010591686689470413,0.0001577405170984303,0.0006330159194315478,-0.00012708155257021127,-3.370291138857858e-05,0.0015831046858576958,0.0,0.0,0.0,0.0,0.0,0.0,0.0,-8.958046896423433e-05,-0.0003742672054969365,-1.90926290559168e-05,0.0002066234156874458,0.00016793819121374565,-5.603472391779718e-05,1.4983767665621706e-05,-0.0005856844047140692,-0.0010591686689470413,-0.0001577405170984303,-0.0006330159194315478,0.00012708155257021127,3.370291138857858e-05,-0.0015831046858576958,0.5021602511405945,34.23751449584961,3.8744170665740967,-19.535249710083008,-0.3381248116493225,-1.790164589881897,0.09097616374492645,0
14,0.06491756439208984,-0.5021602511405945,-34.23751449584961,-3.8744170665740967,19.535249710083008,0.3381248116493225,1.790164589881897,-0.09097616374492645,0.0,0.0,0.0,0.0,0.0,0.0,0.0,-0.4629948746359329,-0.11904927820586152,-0.27565359344744345,0.5306559679208692,0.2844952064324543,-0.11468691915726269,-0.0637250812210548,1.0545000563629887,0.32423577181462165,-0.39248546971217074,-2.1534984109480253,0.8645859771768252,2.4659342104991278,0.54448703478939,1.0544104758940245,0.3238615046091247,-0.39250456234122666,-2.153291787532338,0.8647539153680389,2.46587817577521,0.5445020185570556,0.0005856844047140692,0.0010591686689470413,0.0001577405170984303,0.0006330159194315478,-0.00012708155257021127,-3.370291138857858e-05,0.0015831046858576958,0.0,0.0,0.0,0.0,0.0,0.0,0.0,-8.958046896423433e-05,-0.0003742672054969365,-1.90926290559168e-05,0.0002066234156874458,0.00016793819121374565,-5.603472391779718e-05,1.4983767665621706e-05,-0.0005856844047140692,-0.0010591686689470413,-0.0001577405170984303,-0.0006330159194315478,0.00012708155257021127,3.370291138857858e-05,-0.0015831046858576958,0.5021602511405945,34.23751449584961,3.8744170665740967,-19.535249710083008,-0.3381248116493225,-1.790164589881897,0.09097616374492645,0
15,0.06986761093139648,-0.4505855441093445,-34.13833236694336,-3.8228423595428467,19.559053421020508,0.3381248116493225,1.777347207069397,-0.02231161668896675,0.0,0.0,0.0,0.0,0.0,0.0,0.0,-0.4595342107548517,-0.10213544182641753,-0.2713145101549604,0.5190240233045371,0.2840365582342657,-0.11681894699504178,-0.06220026347933567,1.0544964370853023,0.32423116089540605,-0.39249061101411353,-2.153500078332838,0.8645859771768252,2.4659356346527734,0.5444794053952727,1.0544104758940245,0.3238615046091247,-0.39250456234122666,-2.153291787532338,0.8647539153680389,2.46587817577521,0.5445020185570556,-0.0005889334724359581,-0.0007227214347232383,-0.0005651299090628243,-0.00044483071034181137,0.00016528036913212592,0.0005061602027184529,-0.0019263299512623554,0.0,0.0,0.0,0.0,0.0,0.0,0.0,-8.596119127779467e-05,-0.00036965628628132796,-1.395132711312641e-05,0.00020829080050033255,0.00016793819121374565,-5.745887756347656e-05,2.261316178286954e-05,0.0005889334724359581,0.0007227214347232383,0.0005651299090628243,0.00044483071034181137,-0.00016528036913212592,-0.0005061602027184529,0.0019263299512623554,0.4505855441093445,34.13833236694336,3.8228423595428467,-19.559053421020508,-0.3381248116493225,-1.777347207069397,0.02231161668896675,0
16,0.07490921020507812,-0.4505855441093445,-34.13833236694336,-3.8228423595428467,19.559053421020508,0.3381248116493225,1.777347207069397,-0.02231161668896675,0.0,0.0,0.0,0.0,0.0,0.0,0.0,-0.4595342107548517,-0.10213544182641753,-0.2713145101549604,0.5190240233045371,0.2840365582342657,-0.11681894699504178,-0.06220026347933567,1.0544964370853023,0.32423116089540605,-0.39249061101411353,-2.153500078332838,0.8645859771768252,2.4659356346527734,0.5444794053952727,1.0544104758940245,0.3238615046091247,-0.39250456234122666,-2.153291787532338,0.8647539153680389,2.46587817577521,0.5445020185570556,-0.0005889334724359581,-0.0007227214347232383,-0.0005651299090628243,-0.00044483071034181137,0.00016528036913212592,0.0005061602027184529,-0.0019263299512623554,0.0,0.0,0.0,0.0,0.0,0.0,0.0,-8.596119127779467e-05,-0.00036965628628132796,-1.395132711312641e-05,0.00020829080050033255,0.00016793819121374565,-5.745887756347656e-05,2.261316178286954e-05,0.0005889334724359581,0.0007227214347232383,0.0005651299090628243,0.00044483071034181137,-0.00016528036913212592,-0.0005061602027184529,0.0019263299512623554,0.4505855441093445,34.13833236694336,3.8228423595428467,-19.559053421020508,-0.3381248116493225,-1.777347207069397,0.02231161668896675,0
17,0.07991385459899902,-0.4267818331718445,-34.16213607788086,-3.8506133556365967,19.559053421020508,0.3381248116493225,1.796573281288147,-0.02963583543896675,0.0,0.0,0.0,0.0,0.0,0.0,0.0,-0.46761822492040683,-0.11463907713442456,-0.27988309513448945,0.5282733366914539,0.2846255559211476,-0.1155822068595771,-0.06246200181705337,1.054494766649447,0.3242328605245439,-0.39248740339694005,-2.153499831083924,0.8645859771768252,2.465933498422305,0.544480219197356,1.0544104758940245,0.3238615046091247,-0.39250456234122666,-2.153291787532338,0.8647539153680389,2.46587817577521,0.5445020185570556,-0.0011971915734064658,-0.0005182437924095923,8.504894454058491e-05,-0.00023810242961527065,5.935109567162258e-05,-0.0004511151828009795,-0.0016807204025994936,0.0,0.0,0.0,0.0,0.0,0.0,0.0,-8.429075542260023e-05,-0.00037135591541920254,-1.7158944286610467e-05,0.00020804355158610122,0.00016793819121374565,-5.532264709495749e-05,2.1799359699592458e-05,0.0011971915734064658,0.0005182437924095923,-8.504894454058491e-05,0.00023810242961527065,-5.935109567162258e-05,0.0004511151828009795,0.0016807204025994936,0.4267818331718445,34.16213607788086,3.8506133556365967,-19.559053421020508,-0.3381248116493225,-1.796573281288147,0.02963583543896675,0
18,0.08491373062133789,-0.4267818331718445,-34.16213607788086,-3.8506133556365967,19.559053421020508,0.3381248116493225,1.796573281288147,-0.02963583543896675,0.0,0.0,0.0,0.0,0.0,0.0,0.0,-0.46761822492040683,-0.11463907713442456,-0.27988309513448945,0.5282733366914539,0.2846255559211476,-0.1155822068595771,-0.06246200181705337,1.054494766649447,0.3242328605245439,-0.39248740339694005,-2.153499831083924,0.8645859771768252,2.465933498422305,0.544480219197356,1.0544104758940245,0.3238615046091247,-0.39250456234122666,-2.153291787532338,0.8647539153680389,2.46587817577521,0.5445020185570556,-0.0011971915734064658,-0.0005182437924095923,8.504894454058491e-05,-0.00023810242961527065,5.935109567162258e-05,-0.0004511151828009795,-0.0016807204025994936,0.0,0.0,0.0,0.0,0.0,0.0,0.0,-8.429075542260023e-05,-0.00037135591541920254,-1.7158944286610467e-05,0.00020804355158610122,0.00016793819121374565,-5.532264709495749e-05,2.1799359699592458e-05,0.0011971915734064658,0.0005182437924095923,-8.504894454058491e-05,0.00023810242961527065,-5.935109567162258e-05,0.0004511151828009795,0.0016807204025994936,0.4267818331718445,34.16213607788086,3.8506133556365967,-19.559053421020508,-0.3381248116493225,-1.796573281288147,0.02963583543896675,0
19,0.08990669250488281,-0.4783565402030945,-34.18990707397461,-3.7752349376678467,19.535249710083008,0.3619285225868225,1.790164589881897,-0.07724325358867645,0.0,0.0,0.0,0.0,0.0,0.0,0.0,-0.46309794533666926,-0.11282106210778776,-0.2753038795273943,0.5318863170895696,0.2845608914403918,-0.11592203939586335,-0.06339786257013924,1.0544983859271333,0.3242341451304162,-0.3924926602332886,-2.1534981606466728,0.8645843919581837,2.4659342104991278,0.5444855089104838,1.0544104758940245,0.3238615046091247,-0.39250456234122666,-2.153291787532338,0.8647539153680389,2.46587817577521,0.5445020185570556,0.0006303982822580688,-2.7522482211792464e-05,-0.001343423704178652,0.0009977325727310825,-0.0007317619012377546,-9.366872926246372e-05,0.0011737131428491178,0.0,0.0,0.0,0.0,0.0,0.0,0.0,-8.791003310881784e-05,-0.0003726405212914896,-1.1902107938055462e-05,0.00020637311433491234,0.00016952340985521008,-5.603472391779718e-05,1.65096465718495e-05,-0.0006303982822580688,2.7522482211792464e-05,0.001343423704178652,-0.0009977325727310825,0.0007317619012377546,9.366872926246372e-05,-0.0011737131428491178,0.4783565402030945,34.18990707397461,3.7752349376678467,-19.535249710083008,-0.3619285225868225,-1.790164589881897,0.07724325358867645,0
20,0.09491395950317383,-0.4783565402030945,-34.18990707397461,-3.7752349376678467,19.535249710083008,0.3619285225868225,1.790164589881897,-0.07724325358867645,0.0,0.0,0.0,0.0,0.0,0.0,0.0,-0.46309794533666926,-0.11282106210778776,-0.2753038795273943,0.5318863170895696,0.2845608914403918,-0.11592203939586335,-0.06339786257013924,1.0544983859271333,0.3242341451304162,-0.3924926602332886,-2.1534981606466728,0.8645843919581837,2.4659342104991278,0.5444855089104838,1.0544104758940245,0.3238615046091247,-0.39250456234122666,-2.153291787532338,0.8647539153680389,2.46587817577521,0.5445020185570556,0.0006303982822580688,-2.7522482211792464e-05,-0.001343423704178652,0.0009977325727310825,-0.0007317619012377546,-9.366872926246372e-05,0.0011737131428491178,0.0,0.0,0.0,0.0,0.0,0.0,0.0,-8.791003310881784e-05,-0.0003726405212914896,-1.1902107938055462e-05,0.00020637311433491234,0.00016952340985521008,-5.603472391779718e-05,1.65096465718495e-05,-0.0006303982822580688,2.7522482211792464e-05,0.001343423704178652,-0.0009977325727310825,0.0007317619012377546,9.366872926246372e-05,-0.0011737131428491178,0.4783565402030945,34.18990707397461,3.7752349376678467,-19.535249710083008,-0.3619285225868225,-1.790164589881897,0.07724325358867645,0
21,0.1003122329711914,-0.4029781222343445,-34.21371078491211,-3.8506133556365967,19.535249710083008,0.3436179757118225,1.796573281288147,-0.07724325358867645,0.0,0.0,0.0,0.0,0.0,0.0,0.0,-0.4620015620237561,-0.10958815140468979,-0.2724878737738498,0.5290689014281429,0.28560049037685653,-0.11614363670207409,-0.06343110406178487,1.0544930962135917,0.32423441448543966,-0.39248882277978153,-2.1534981606466728,0.8645853668312443,2.465933498422305,0.5444855089104838,1.0544104758940245,0.3238615046091247,-0.39250456234122666,-2.153291787532338,0.8647539153680389,2.46587817577521,0.5445020185570556,-0.0008922511581839525,0.00045923625781232674,0.0008016570708210144,0.0003631888038486606,-9.633847525692837e-05,-0.00023279819593084147,0.0008453106655939583,0.0,0.0,0.0,0.0,0.0,0.0,0.0,-8.262031956718374e-05,-0.0003729098763149419,-1.5739561445127226e-05,0.00020637311433491234,0.00016854853679459936,-5.532264709495749e-05,1.65096465718495e-05,0.0008922511581839525,-0.00045923625781232674,-0.0008016570708210144,-0.0003631888038486606,9.633847525692837e-05,0.00023279819593084147,-0.0008453106655939583,0.4029781222343445,34.21371078491211,3.8506133556365967,-19.535249710083008,-0.3436179757118225,-1.796573281288147,0.07724325358867645,0
22,0.10491609573364258,-0.4029781222343445,-34.21371078491211,-3.8506133556365967,19.535249710083008,0.3436179757118225,1.796573281288147,-0.07724325358867645,0.0,0.0,0.0,0.0,0.0,0.0,0.0,-0.4620015620237561,-0.10958815140468979,-0.2724878737738498,0.5290689014281429,0.28560049037685653,-0.11614363670207409,-0.06343110406178487,1.0544930962135917,0.32423441448543966,-0.39248882277978153,-2.1534981606466728,0.8645853668312443,2.465933498422305,0.5444855089104838,1.0544104758940245,0.3238615046091247,-0.39250456234122666,-2.153291787532338,0.8647539153680389,2.46587817577521,0.5445020185570556,-0.0008922511581839525,0.00045923625781232674,0.0008016570708210144,0.0003631888038486606,-9.633847525692837e-05,-0.00023279819593084147,0.0008453106655939583,0.0,0.0,0.0,0.0,0.0,0.0,0.0,-8.262031956718374e-05,-0.0003729098763149419,-1.5739561445127226e-05,0.00020637311433491234,0.00016854853679459936,-5.532264709495749e-05,1.65096465718495e-05,0.0008922511581839525,-0.00045923625781232674,-0.0008016570708210144,-0.0003631888038486606,9.633847525692837e-05,0.00023279819593084147,-0.0008453106655939583,0.4029781222343445,34.21371078491211,3.8506133556365967,-19.535249710083008,-0.3436179757118225,-1.796573281288147,0.07724325358867645,0
23,0.10991454124450684,-0.4267818331718445,-34.18990707397461,-3.8506133556365967,19.535249710083008,0.3500266671180725,1.790164589881897,-0.04977743700146675,0.0,0.0,0.0,0.0,0.0,0.0,0.0,-0.45199840808781067,-0.11358426912066102,-0.26741045351232634,0.5278081477561386,0.2859856958329471,-0.11613344249523605,-0.06495003019025204,1.054494766649447,0.3242327529083318,-0.3924893448211293,-2.1534981606466728,0.8645850079611496,2.4659342104991278,0.5444824571530852,1.0544104758940245,0.3238615046091247,-0.39250456234122666,-2.153291787532338,0.8647539153680389,2.46587817577521,0.5445020185570556,0.00028031619571940283,-0.0002762603870353901,0.0005697150587968162,4.087077800583971e-05,-0.00033002355138219216,-0.0001932892193527581,-0.000875551766612024,0.0,0.0,0.0,0.0,0.0,0.0,0.0,-8.429075542260023e-05,-0.00037124829920709423,-1.5217520097365878e-05,0.00020637311433491234,0.00016890740688935146,-5.603472391779718e-05,1.956140397041395e-05,-0.00028031619571940283,0.0002762603870353901,-0.0005697150587968162,-4.087077800583971e-05,0.00033002355138219216,0.0001932892193527581,0.000875551766612024,0.4267818331718445,34.18990707397461,3.8506133556365967,-19.535249710083008,-0.3500266671180725,-1.790164589881897,0.04977743700146675,0
24,0.11487531661987305,-0.4267818331718445,-34.18990707397461,-3.8506133556365967,19.535249710083008,0.3500266671180725,1.790164589881897,-0.04977743700146675,0.0,0.0,0.0,0.0,0.0,0.0,0.0,-0.45199840808781067,-0.11358426912066102,-0.26741045351232634,0.5278081477561386,0.2859856958329471,-0.11613344249523605,-0.06495003019025204,1.054494766649447,0.3242327529083318,-0.3924893448211293,-2.1534981606466728,0.8645850079611496,2.4659342104991278,0.5444824571530852,1.0544104758940245,0.3238615046091247,-0.39250456234122666,-2.153291787532338,0.8647539153680389,2.46587817577521,0.5445020185570556,0.00028031619571940283,-0.0002762603870353901,0.0005697150587968162,4.087077800583971e-05,-0.00033002355138219216,-0.0001932892193527581,-0.000875551766612024,0.0,0.0,0.0,0.0,0.0,0.0,0.0,-8.429075542260023e-05,-0.00037124829920709423,-1.5217520097365878e-05,0.00020637311433491234,0.00016890740688935146,-5.603472391779718e-05,1.956140397041395e-05,-0.00028031619571940283,0.0002762603870353901,-0.0005697150587968162,-4.087077800583971e-05,0.00033002355138219216,0.0001932892193527581,0.000875551766612024,0.4267818331718445,34.18990707397461,3.8506133556365967,-19.535249710083008,-0.3500266671180725,-1.790164589881897,0.04977743700146675,0
25,0.11991262435913086,-0.4267818331718445,-34.21371078491211,-3.7990386486053467,19.559053421020508,0.3436179757118225,1.796573281288147,-0.06351034343242645,0.0,0.0,0.0,0.0,0.0,0.0,0.0,-0.4494737254042698,-0.11321400950542487,-0.26803679933880964,0.5268636780785976,0.28623128691565913,-0.11633590704063981,-0.06731738486157006,1.054494766649447,0.32423558927322815,-0.39249298235492175,-2.153499831082528,0.8645853668272565,2.465933498422305,0.5444839830315775,1.0544104758940245,0.3238615046091247,-0.39250456234122666,-2.153291787532338,0.8647539153680389,2.46587817577521,0.5445020185570556,0.00010458128958066749,0.0008748441586493297,-0.0005883605783991736,-0.00016664934381882277,-0.0003513748489963579,-0.0002764179828751279,-0.0003151493281761217,0.0,0.0,0.0,0.0,0.0,0.0,0.0,-8.429075542260023e-05,-0.00037408466410343566,-1.1579986304910417e-05,0.00020804355019032883,0.00016854854078240944,-5.532264709495749e-05,1.8035525478077297e-05,-0.00010458128958066749,-0.0008748441586493297,0.0005883605783991736,0.00016664934381882277,0.0003513748489963579,0.0002764179828751279,0.0003151493281761217,0.4267818331718445,34.21371078491211,3.7990386486053467,-19.559053421020508,-0.3436179757118225,-1.796573281288147,0.06351034343242645,0
26,0.1249077320098877,-0.4267818331718445,-34.21371078491211,-3.7990386486053467,19.559053421020508,0.3436179757118225,1.796573281288147,-0.06351034343242645,0.0,0.0,0.0,0.0,0.0,0.0,0.0,-0.4494737254042698,-0.11321400950542487,-0.26803679933880964,0.5268636780785976,0.28623128691565913,-0.11633590704063981,-0.06731738486157006,1.054494766649447,0.32423558927322815,-0.39249298235492175,-2.153499831082528,0.8645853668272565,2.465933498422305,0.5444839830315775,1.0544104758940245,0.3238615046091247,-0.39250456234122666,-2.153291787532338,0.8647539153680389,2.46587817577521,0.5445020185570556,0.00010458128958066749,0.0008748441586493297,-0.0005883605783991736,-0.00016664934381882277,-0.0003513748489963579,-0.0002764179828751279,-0.0003151493281761217,0.0,0.0,0.0,0.0,0.0,0.0,0.0,-8.429075542260023e-05,-0.00037408466410343566,-1.1579986304910417e-05,0.00020804355019032883,0.00016854854078240944,-5.532264709495749e-05,1.8035525478077297e-05,-0.00010458128958066749,-0.0008748441586493297,0.0005883605783991736,0.00016664934381882277,0.0003513748489963579,0.0002764179828751279,0.0003151493281761217,0.4267818331718445,34.21371078491211,3.7990386486053467,-19.559053421020508,-0.3436179757118225,-1.796573281288147,0.06351034343242645,0
27,0.12990808486938477,-0.4267818331718445,-34.21371078491211,-3.7990386486053467,19.559053421020508,0.3436179757118225,1.796573281288147,-0.06351034343242645,0.0,0.0,0.0,0.0,0.0,0.0,0.0,-0.4494737254042698,-0.11321400950542487,-0.26803679933880964,0.5268636780785976,0.28623128691565913,-0.11633590704063981,-0.06731738486157006,1.054494766649447,0.32423558927322815,-0.39249298235492175,-2.153499831082528,0.8645853668272565,2.465933498422305,0.5444839830315775,1.0544104758940245,0.3238615046091247,-0.39250456234122666,-2.153291787532338,0.8647539153680389,2.46587817577521,0.5445020185570556,0.00010458128958066749,0.0008748441586493297,-0.0005883605783991736,-0.00016664934381882277,-0.0003513748489963579,-0.0002764179828751279,-0.0003151493281761217,0.0,0.0,0.0,0.0,0.0,0.0,0.0,-8.429075542260023e-05,-0.00037408466410343566,-1.1579986304910417e-05,0.00020804355019032883,0.00016854854078240944,-5.532264709495749e-05,1.8035525478077297e-05,-0.00010458128958066749,-0.0008748441586493297,0.0005883605783991736,0.00016664934381882277,0.0003513748489963579,0.0002764179828751279,0.0003151493281761217,0.4267818331718445,34.21371078491211,3.7990386486053467,-19.559053421020508,-0.3436179757118225,-1.796573281288147,0.06351034343242645,0
28,0.13495421409606934,-0.4267818331718445,-34.21371078491211,-3.7990386486053467,19.559053421020508,0.3436179757118225,1.796573281288147,-0.06351034343242645,0.0,0.0,0.0,0.0,0.0,0.0,0.0,-0.4494737254042698,-0.11321400950542487,-0.26803679933880964,0.5268636780785976,0.28623128691565913,-0.11633590704063981,-0.06731738486157006,1.054494766649447,0.32423558927322815,-0.39249298235492175,-2.153499831082528,0.8645853668272565,2.465933498422305,0.5444839830315775,1.0544104758940245,0.3238615046091247,-0.39250456234122666,-2.153291787532338,0.8647539153680389,2.46587817577521,0.5445020185570556,0.00010458128958066749,0.0008748441586493297,-0.0005883605783991736,-0.00016664934381882277,-0.0003513748489963579,-0.0002764179828751279,-0.0003151493281761217,0.0,0.0,0.0,0.0,0.0,0.0,0.0,-8.429075542260023e-05,-0.00037408466410343566,-1.1579986304910417e-05,0.00020804355019032883,0.00016854854078240944,-5.532264709495749e-05,1.8035525478077297e-05,-0.00010458128958066749,-0.0008748441586493297,0.0005883605783991736,0.00016664934381882277,0.0003513748489963579,0.0002764179828751279,0.0003151493281761217,0.4267818331718445,34.21371078491211,3.7990386486053467,-19.559053421020508,-0.3436179757118225,-1.796573281288147,0.06351034343242645,0
29,0.13991165161132812,-0.5021602511405945,-34.16213607788086,-3.8744170665740967,19.559053421020508,0.3381248116493225,1.777347207069397,-0.06991903483867645,0.0,0.0,0.0,0.0,0.0,0.0,0.0,-0.46445688842896554,-0.11111208630274105,-0.28243864119489454,0.5254225070387548,0.2865600525684395,-0.11536228448836314,-0.06836753399332476,1.0545000563629887,0.32423220544092457,-0.39248501457542284,-2.153499831082528,0.8645860953989118,2.4659356346527734,0.5444846951084005,1.0544104758940245,0.3238615046091247,-0.39250456234122666,-2.153291787532338,0.8647539153680389,2.46587817577521,0.5445020185570556,0.0005931276396870404,-0.00040630437856376255,0.0005136774261068138,-0.00014040746958505611,-2.9965163043232688e-05,0.00038778393215173975,0.000319622600242909,0.0,0.0,0.0,0.0,0.0,0.0,0.0,-8.958046896423433e-05,-0.0003707008317998528,-1.9547765803817896e-05,0.00020804355019032883,0.00016781996912706987,-5.745887756347656e-05,1.7323448655126583e-05,-0.0005931276396870404,0.00040630437856376255,-0.0005136774261068138,0.00014040746958505611,2.9965163043232688e-05,-0.00038778393215173975,-0.000319622600242909,0.5021602511405945,34.16213607788086,3.8744170665740967,-19.559053421020508,-0.3381248116493225,-1.777347207069397,0.06991903483867645,0
30,0.14494943618774414,-0.5021602511405945,-34.16213607788086,-3.8744170665740967,19.559053421020508,0.3381248116493225,1.777347207069397,-0.06991903483867645,0.0,0.0,0.0,0.0,0.0,0.0,0.0,-0.46445688842896554,-0.11111208630274105,-0.28243864119489454,0.5254225070387548,0.2865600525684395,-0.11536228448836314,-0.06836753399332476,1.0545000563629887,0.32423220544092457,-0.39248501457542284,-2.153499831082528,0.8645860953989118,2.4659356346527734,0.5444846951084005,1.0544104758940245,0.3238615046091247,-0.39250456234122666,-2.153291787532338,0.8647539153680389,2.46587817577521,0.5445020185570556,0.0005931276396870404,-0.00040630437856376255,0.0005136774261068138,-0.00014040746958505611,-2.9965163043232688e-05,0.00038778393215173975,0.000319622600242909,0.0,0.0,0.0,0.0,0.0,0.0,0.0,-8.958046896423433e-05,-0.0003707008317998528,-1.9547765803817896e-05,0.00020804355019032883,0.00016781996912706987,-5.745887756347656e-05,1.7323448655126583e-05,-0.0005931276396870404,0.00040630437856376255,-0.0005136774261068138,0.00014040746958505611,2.9965163043232688e-05,-0.00038778393215173975,-0.000319622600242909,0.5021602511405945,34.16213607788086,3.8744170665740967,-19.559053421020508,-0.3381248116493225,-1.777347207069397,0.06991903483867645,0
31,0.14990925788879395,-0.5299312472343445,-34.18990707397461,-3.8228423595428467,19.559053421020508,0.3436179757118225,1.796573281288147,-0.09097616374492645,0.0,0.0,0.0,0.0,0.0,0.0,0.0,-0.4526324615631867,-0.11618532870845803,-0.2711187977012819,0.5310162138309122,0.2855506276487173,-0.11653809604959837,-0.06741983730949375,1.0545020052048197,0.32423386488223077,-0.39248942513223956,-2.1535005728292185,0.86458536682593,2.465933498422305,0.54448703478939,1.0544104758940245,0.3238615046091247,-0.39250456234122666,-2.153291787532338,0.8647539153680389,2.46587817577521,0.5445020185570556,0.0013739440194105326,-0.00022226782195456575,-0.00046925490075212773,-0.0004451661378500531,-0.00030543262733425514,-0.00018189397776031998,0.0010809548300533735,0.0,0.0,0.0,0.0,0.0,0.0,0.0,-9.15293107952575e-05,-0.0003723602731060538,-1.51372089871038e-05,0.0002087852968806203,0.0001685485421089039,-5.532264709495749e-05,1.4983767665621706e-05,-0.0013739440194105326,0.00022226782195456575,0.00046925490075212773,0.0004451661378500531,0.00030543262733425514,0.00018189397776031998,-0.0010809548300533735,0.5299312472343445,34.18990707397461,3.8228423595428467,-19.559053421020508,-0.3436179757118225,-1.796573281288147,0.09097616374492645,0
32,0.15491366386413574,-0.5299312472343445,-34.18990707397461,-3.8228423595428467,19.559053421020508,0.3436179757118225,1.796573281288147,-0.09097616374492645,0.0,0.0,0.0,0.0,0.0,0.0,0.0,-0.4526324615631867,-0.11618532870845803,-0.2711187977012819,0.5310162138309122,0.2855506276487173,-0.11653809604959837,-0.06741983730949375,1.0545020052048197,0.32423386488223077,-0.39248942513223956,-2.1535005728292185,0.86458536682593,2.465933498422305,0.54448703478939,1.0544104758940245,0.3238615046091247,-0.39250456234122666,-2.153291787532338,0.8647539153680389,2.46587817577521,0.5445020185570556,0.0013739440194105326,-0.00022226782195456575,-0.00046925490075212773,-0.0004451661378500531,-0.00030543262733425514,-0.00018189397776031998,0.0010809548300533735,0.0,0.0,0.0,0.0,0.0,0.0,0.0,-9.15293107952575e-05,-0.0003723602731060538,-1.51372089871038e-05,0.0002087852968806203,0.0001685485421089039,-5.532264709495749e-05,1.4983767665621706e-05,-0.0013739440194105326,0.00022226782195456575,0.00046925490075212773,0.0004451661378500531,0.00030543262733425514,0.00018189397776031998,-0.0010809548300533735,0.5299312472343445,34.18990707397461,3.8228423595428467,-19.559053421020508,-0.3436179757118225,-1.796573281288147,0.09097616374492645,0
33,0.1599128246307373,-0.4505855441093445,-34.16213607788086,-3.8982207775115967,19.586824417114258,0.3381248116493225,1.790164589881897,-0.06991903483867645,0.0,0.0,0.0,0.0,0.0,0.0,0.0,-0.45415788911586275,-0.1115764931800047,-0.267443836052239,0.5308369533253405,0.28497248745888126,-0.11631501016989983,-0.06714000503348902,1.0544964370853023,0.324232710622008,-0.3924838018979855,-2.1535017830186867,0.8645859771768252,2.4659342104991278,0.5444846951084005,1.0544104758940245,0.3238615046091247,-0.39250456234122666,-2.153291787532338,0.8647539153680389,2.46587817577521,0.5445020185570556,-0.0005534016251825812,-0.0003171116446308678,0.001443943429077256,-0.000642954584873207,-4.970878895599031e-05,7.742677592594352e-05,7.00238826969737e-05,0.0,0.0,0.0,0.0,0.0,0.0,0.0,-8.596119127779467e-05,-0.0003712060128832628,-2.0760443241174542e-05,0.00020999548634881293,0.00016793819121374565,-5.603472391779718e-05,1.7323448655126583e-05,0.0005534016251825812,0.0003171116446308678,-0.001443943429077256,0.000642954584873207,4.970878895599031e-05,-7.742677592594352e-05,-7.00238826969737e-05,0.4505855441093445,34.16213607788086,3.8982207775115967,-19.586824417114258,-0.3381248116493225,-1.790164589881897,0.06991903483867645,0
34,0.16490936279296875,-0.4505855441093445,-34.16213607788086,-3.8982207775115967,19.586824417114258,0.3381248116493225,1.790164589881897,-0.06991903483867645,0.0,0.0,0.0,0.0,0.0,0.0,0.0,-0.45415788911586275,-0.1115764931800047,-0.267443836052239,0.5308369533253405,0.28497248745888126,-0.11631501016989983,-0.06714000503348902,1.0544964370853023,0.324232710622008,-0.3924838018979855,-2.1535017830186867,0.8645859771768252,2.4659342104991278,0.5444846951084005,1.0544104758940245,0.3238615046091247,-0.39250456234122666,-2.153291787532338,0.8647539153680389,2.46587817577521,0.5445020185570556,-0.0005534016251825812,-0.0003171116446308678,0.001443943429077256,-0.000642954584873207,-4.970878895599031e-05,7.742677592594352e-05,7.00238826969737e-05,0.0,0.0,0.0,0.0,0.0,0.0,0.0,-8.596119127779467e-05,-0.0003712060128832628,-2.0760443241174542e-05,0.00020999548634881293,0.00016793819121374565,-5.603472391779718e-05,1.7323448655126583e-05,0.0005534016251825812,0.0003171116446308678,-0.001443943429077256,0.000642954584873207,4.970878895599031e-05,-7.742677592594352e-05,-7.00238826969737e-05,0.4505855441093445,34.16213607788086,3.8982207775115967,-19.586824417114258,-0.3381248116493225,-1.790164589881897,0.06991903483867645,0
35,0.1699216365814209,-0.5021602511405945,-34.16213607788086,-3.8506133556365967,19.559053421020508,0.3436179757118225,1.783755898475647,-0.04977743700146675,0.0,0.0,0.0,0.0,0.0,0.0,0.0,-0.47199421501665917,-0.10801616727264798,-0.2804951344679944,0.5266524783652043,0.28532858859144,-0.11527672761141343,-0.06707796225248909,1.0545000563629887,0.3242300533912887,-0.3924885497371574,-2.1534998310825455,0.8645853668252627,2.4659349225759506,0.5444824571530852,1.0544104758940245,0.3238615046091247,-0.39250456234122666,-2.153291787532338,0.8647539153680389,2.46587817577521,0.5445020185570556,0.00020926156408771374,-0.0006037680800192806,-0.000532612484173565,-0.000102308156172979,-0.00023716184392729271,0.00035996238377039076,-0.000879807206596311,0.0,0.0,0.0,0.0,0.0,0.0,0.0,-8.958046896423433e-05,-0.0003685487821639688,-1.601260406924876e-05,0.0002080435502076483,0.00016854854277625897,-5.674680074063687e-05,1.956140397041395e-05,-0.00020926156408771374,0.0006037680800192806,0.000532612484173565,0.000102308156172979,0.00023716184392729271,-0.00035996238377039076,0.000879807206596311,0.5021602511405945,34.16213607788086,3.8506133556365967,-19.559053421020508,-0.3436179757118225,-1.783755898475647,0.04977743700146675,0
36,0.17494487762451172,-0.5021602511405945,-34.16213607788086,-3.8506133556365967,19.559053421020508,0.3436179757118225,1.783755898475647,-0.04977743700146675,0.0,0.0,0.0,0.0,0.0,0.0,0.0,-0.47199421501665917,-0.10801616727264798,-0.2804951344679944,0.5266524783652043,0.28532858859144,-0.11527672761141343,-0.06707796225248909,1.0545000563629887,0.3242300533912887,-0.3924885497371574,-2.1534998310825455,0.8645853668252627,2.4659349225759506,0.5444824571530852,1.0544104758940245,0.3238615046091247,-0.39250456234122666,-2.153291787532338,0.8647539153680389,2.46587817577521,0.5445020185570556,0.00020926156408771374,-0.0006037680800192806,-0.000532612484173565,-0.000102308156172979,-0.00023716184392729271,0.00035996238377039076,-0.000879807206596311,0.0,0.0,0.0,0.0,0.0,0.0,0.0,-8.958046896423433e-05,-0.0003685487821639688,-1.601260406924876e-05,0.0002080435502076483,0.00016854854277625897,-5.674680074063687e-05,1.956140397041395e-05,-0.00020926156408771374,0.0006037680800192806,0.000532612484173565,0.000102308156172979,0.00023716184392729271,-0.00035996238377039076,0.000879807206596311,0.5021602511405945,34.16213607788086,3.8506133556365967,-19.559053421020508,-0.3436179757118225,-1.783755898475647,0.04977743700146675,0
37,0.18001317977905273,-0.4505855441093445,-34.18990707397461,-3.8744170665740967,19.535249710083008,0.3436179757118225,1.783755898475647,-0.03604452684521675,0.0,0.0,0.0,0.0,0.0,0.0,0.0,-0.4626752172586849,-0.10416809788196031,-0.27233507522609796,0.5277745337840606,0.2846865022703661,-0.1162570392866807,-0.06605972398463361,1.0544964370853023,0.32423192808705714,-0.3924879045463483,-2.153498163736813,0.8645853668252627,2.4659349225759506,0.544480931274179,1.0544104758940245,0.3238615046091247,-0.39250456234122666,-2.153291787532338,0.8647539153680389,2.46587817577521,0.5445020185570556,-0.000579791461951565,0.0005502231078005731,0.0003305001526247568,0.0004647838274652501,-0.0002436869155225402,0.00018993573365554275,-0.001107316007040662,0.0,0.0,0.0,0.0,0.0,0.0,0.0,-8.596119127779467e-05,-0.00037042347793242447,-1.6657794878360832e-05,0.0002063762044750561,0.00016854854277625897,-5.674680074063687e-05,2.1087282876641744e-05,0.000579791461951565,-0.0005502231078005731,-0.0003305001526247568,-0.0004647838274652501,0.0002436869155225402,-0.00018993573365554275,0.001107316007040662,0.4505855441093445,34.18990707397461,3.8744170665740967,-19.535249710083008,-0.3436179757118225,-1.783755898475647,0.03604452684521675,0
38,0.18486285209655762,-0.4505855441093445,-34.18990707397461,-3.8744170665740967,19.535249710083008,0.3436179757118225,1.783755898475647,-0.03604452684521675,0.0,0.0,0.0,0.0,0.0,0.0,0.0,-0.4626752172586849,-0.10416809788196031,-0.27233507522609796,0.5277745337840606,0.2846865022703661,-0.1162570392866807,-0.06605972398463361,1.0544964370853023,0.32423192808705714,-0.3924879045463483,-2.153498163736813,0.8645853668252627,2.4659349225759506,0.544480931274179,1.0544104758940245,0.3238615046091247,-0.39250456234122666,-2.153291787532338,0.8647539153680389,2.46587817577521,0.5445020185570556,-0.000579791461951565,0.0005502231078005731,0.0003305001526247568,0.0004647838274652501,-0.0002436869155225402,0.00018993573365554275,-0.001107316007040662,0.0,0.0,0.0,0.0,0.0,0.0,0.0,-8.596119127779467e-05,-0.00037042347793242447,-1.6657794878360832e-05,0.0002063762044750561,0.00016854854277625897,-5.674680074063687e-05,2.1087282876641744e-05,0.000579791461951565,-0.0005502231078005731,-0.0003305001526247568,-0.0004647838274652501,0.0002436869155225402,-0.00018993573365554275,0.001107316007040662,0.4505855441093445,34.18990707397461,3.8744170665740967,-19.535249710083008,-0.3436179757118225,-1.783755898475647,0.03604452684521675,0
39,0.18991303443908691,-0.5021602511405945,-34.23751449584961,-3.8744170665740967,19.559053421020508,0.3436179757118225,1.790164589881897,-0.08365194499492645,0.0,0.0,0.0,0.0,0.0,0.0,0.0,-0.45950940778941096,-0.10941131251338015,-0.27350904946647975,0.5329847068864741,0.2840845834592828,-0.1163739029479328,-0.06408944801876344,1.0545000563629887,0.32423605780006765,-0.39248478700616807,-2.1534999134988446,0.8645853668252627,2.4659342104991278,0.5444862209873067,1.0544104758940245,0.3238615046091247,-0.39250456234122666,-2.153291787532338,0.8647539153680389,2.46587817577521,0.5445020185570556,0.001434766602418632,0.0013144057591912917,0.0007851672029309465,-5.825796582875785e-05,-0.00025477057253516004,-0.0001671096621557268,0.0007602303032821926,0.0,0.0,0.0,0.0,0.0,0.0,0.0,-8.958046896423433e-05,-0.00037455319094292783,-1.9775335058591637e-05,0.00020812596650676696,0.00016854854277625897,-5.603472391779718e-05,1.5797569748898788e-05,-0.001434766602418632,-0.0013144057591912917,-0.0007851672029309465,5.825796582875785e-05,0.00025477057253516004,0.0001671096621557268,-0.0007602303032821926,0.5021602511405945,34.23751449584961,3.8744170665740967,-19.559053421020508,-0.3436179757118225,-1.790164589881897,0.08365194499492645,0
40,0.19491076469421387,-0.5021602511405945,-34.23751449584961,-3.8744170665740967,19.559053421020508,0.3436179757118225,1.790164589881897,-0.08365194499492645,0.0,0.0,0.0,0.0,0.0,0.0,0.0,-0.45950940778941096,-0.10941131251338015,-0.27350904946647975,0.5329847068864741,0.2840845834592828,-0.1163739029479328,-0.06408944801876344,1.0545000563629887,0.32423605780006765,-0.39248478700616807,-2.1534999134988446,0.8645853668252627,2.4659342104991278,0.5444862209873067,1.0544104758940245,0.3238615046091247,-0.39250456234122666,-2.153291787532338,0.8647539153680389,2.46587817577521,0.5445020185570556,0.001434766602418632,0.0013144057591912917,0.0007851672029309465,-5.825796582875785e-05,-0.00025477057253516004,-0.0001671096621557268,0.0007602303032821926,0.0,0.0,0.0,0.0,0.0,0.0,0.0,-8.958046896423433e-05,-0.00037455319094292783,-1.9775335058591637e-05,0.00020812596650676696,0.00016854854277625897,-5.603472391779718e-05,1.5797569748898788e-05,-0.001434766602418632,-0.0013144057591912917,-0.0007851672029309465,5.825796582875785e-05,0.00025477057253516004,0.0001671096621557268,-0.0007602303032821926,0.5021602511405945,34.23751449584961,3.8744170665740967,-19.559053421020508,-0.3436179757118225,-1.790164589881897,0.08365194499492645,0
41,0.1999366283416748,-0.4783565402030945,-34.16213607788086,-3.8744170665740967,19.586824417114258,0.3381248116493225,1.790164589881897,-0.08365194499492645,0.0,0.0,0.0,0.0,0.0,0.0,0.0,-0.46691620323296223,-0.09906151866616748,-0.2805842266672651,0.5258592832765294,0.2841345317388105,-0.11720119330405163,-0.06463193520008614,1.0544983859271333,0.3242326321238145,-0.3924869929206487,-2.1535017799248246,0.8645859771768252,2.4659342104991278,0.5444862209873067,1.0544104758940245,0.3238615046091247,-0.39250456234122666,-2.153291787532338,0.8647539153680389,2.46587817577521,0.5445020185570556,0.00085420356961785,-0.00010329251268429863,0.0006104852874760962,-0.0011029959783476592,-0.0054367727297162825,7.915733916240744e-05,6.791874270689582e-05,0.0,0.0,0.0,0.0,0.0,0.0,0.0,-8.791003310881784e-05,-0.0003711275146897619,-1.7569420577956407e-05,0.0002099923924867575,0.00016793819121374565,-5.603472391779718e-05,1.5797569748898788e-05,-0.00085420356961785,0.00010329251268429863,-0.0006104852874760962,0.0011029959783476592,0.0054367727297162825,-7.915733916240744e-05,-6.791874270689582e-05,0.4783565402030945,34.16213607788086,3.8744170665740967,-19.586824417114258,-0.3381248116493225,-1.790164589881897,0.08365194499492645,0
42,0.2049107551574707,-0.4783565402030945,-34.16213607788086,-3.8744170665740967,19.586824417114258,0.3381248116493225,1.790164589881897,-0.08365194499492645,0.0,0.0,0.0,0.0,0.0,0.0,0.0,-0.46691620323296223,-0.09906151866616748,-0.2805842266672651,0.5258592832765294,0.2841345317388105,-0.11720119330405163,-0.06463193520008614,1.0544983859271333,0.3242326321238145,-0.3924869929206487,-2.1535017799248246,0.8645859771768252,2.4659342104991278,0.5444862209873067,1.0544104758940245,0.3238615046091247,-0.39250456234122666,-2.153291787532338,0.8647539153680389,2.46587817577521,0.5445020185570556,0.00085420356961785,-0.00010329251268429863,0.0006104852874760962,-0.0011029959783476592,-0.0054367727297162825,7.915733916240744e-05,6.791874270689582e-05,0.0,0.0,0.0,0.0,0.0,0.0,0.0,-8.791003310881784e-05,-0.0003711275146897619,-1.7569420577956407e-05,0.0002099923924867575,0.00016793819121374565,-5.603472391779718e-05,1.5797569748898788e-05,-0.00085420356961785,0.00010329251268429863,-0.0006104852874760962,0.0011029959783476592,0.0054367727297162825,-7.915733916240744e-05,-6.791874270689582e-05,0.4783565402030945,34.16213607788086,3.8744170665740967,-19.586824417114258,-0.3381248116493225,-1.790164589881897,0.08365194499492645,0
43,0.20990943908691406,-0.4267818331718445,-34.16213607788086,-3.8506133556365967,19.535249710083008,0.3436179757118225,1.783755898475647,-0.03604452684521675,0.0,0.0,0.0,0.0,0.0,0.0,0.0,-0.4532569960858417,-0.11043459124315404,-0.2713833337101804,0.5324345574963153,0.28337943779603847,-0.11703282887534448,-0.06668702891974383,1.054494766649447,0.32423071566467637,-0.3924866677262308,-2.1534981606466728,0.8645853668252627,2.4659349225759506,0.544480931274179,1.0544104758940245,0.3238615046091247,-0.39250456234122666,-2.153291787532338,0.8647539153680389,2.46587817577521,0.5445020185570556,-0.000546674028399495,-0.0007469843488897058,0.0008101049059182273,1.3283530811843029e-05,0.0017006539429788325,0.0001999302146421265,-0.0014038796940357996,0.0,0.0,0.0,0.0,0.0,0.0,0.0,-8.429075542260023e-05,-0.0003692110555516548,-1.7894614995850322e-05,0.00020637311433491234,0.00016854854277625897,-5.674680074063687e-05,2.1087282876641744e-05,0.000546674028399495,0.0007469843488897058,-0.0008101049059182273,-1.3283530811843029e-05,-0.0017006539429788325,-0.0001999302146421265,0.0014038796940357996,0.4267818331718445,34.16213607788086,3.8506133556365967,-19.535249710083008,-0.3436179757118225,-1.783755898475647,0.03604452684521675,0
44,0.21490740776062012,-0.4267818331718445,-34.16213607788086,-3.8506133556365967,19.535249710083008,0.3436179757118225,1.783755898475647,-0.03604452684521675,0.0,0.0,0.0,0.0,0.0,0.0,0.0,-0.4532569960858417,-0.11043459124315404,-0.2713833337101804,0.5324345574963153,0.28337943779603847,-0.11703282887534448,-0.06668702891974383,1.054494766649447,0.32423071566467637,-0.3924866677262308,-2.1534981606466728,0.8645853668252627,2.4659349225759506,0.544480931274179,1.0544104758940245,0.3238615046091247,-0.39250456234122666,-2.153291787532338,0.8647539153680389,2.46587817577521,0.5445020185570556,-0.000546674028399495,-0.0007469843488897058,0.0008101049059182273,1.3283530811843029e-05,0.0017006539429788325,0.0001999302146421265,-0.0014038796940357996,0.0,0.0,0.0,0.0,0.0,0.0,0.0,-8.429075542260023e-05,-0.0003692110555516548,-1.7894614995850322e-05,0.00020637311433491234,0.00016854854277625897,-5.674680074063687e-05,2.1087282876641744e-05,0.000546674028399495,0.0007469843488897058,-0.0008101049059182273,-1.3283530811843029e-05,-0.0017006539429788325,-0.0001999302146421265,0.0014038796940357996,0.4267818331718445,34.16213607788086,3.8506133556365967,-19.535249710083008,-0.3436179757118225,-1.783755898475647,0.03604452684521675,0
45,0.2199101448059082,-0.4505855441093445,-34.11452865600586,-3.8744170665740967,19.559053421020508,0.3317161202430725,1.777347207069397,-0.03604452684521675,0.0,0.0,0.0,0.0,0.0,0.0,0.0,-0.45413683140024175,-0.10801001219682124,-0.27361133563520956,0.5273644610743664,0.2843125050135583,-0.11721206986460224,-0.0658361845220904,1.0544964370853023,0.3242285746878755,-0.39248690705638317,-2.153499831082528,0.8645867284995047,2.4659356346527734,0.544480931274179,1.0544104758940245,0.3238615046091247,-0.39250456234122666,-2.153291787532338,0.8647539153680389,2.46587817577521,0.5445020185570556,0.00046733167708008745,-0.0020653561776587132,0.000949087765750624,-0.0007200649465256923,0.0005087806300650307,0.00041548775623377994,-0.0011384071583074042,0.0,0.0,0.0,0.0,0.0,0.0,0.0,-8.596119127779467e-05,-0.00036707007875080855,-1.765528484348744e-05,0.00020804355019032883,0.00016718686853423037,-5.745887756347656e-05,2.1087282876641744e-05,-0.00046733167708008745,0.0020653561776587132,-0.000949087765750624,0.0007200649465256923,-0.0005087806300650307,-0.00041548775623377994,0.0011384071583074042,0.4505855441093445,34.11452865600586,3.8744170665740967,-19.559053421020508,-0.3317161202430725,-1.777347207069397,0.03604452684521675,0
46,0.22486019134521484,-0.4505855441093445,-34.11452865600586,-3.8744170665740967,19.559053421020508,0.3317161202430725,1.777347207069397,-0.03604452684521675,0.0,0.0,0.0,0.0,0.0,0.0,0.0,-0.45413683140024175,-0.10801001219682124,-0.27361133563520956,0.5273644610743664,0.2843125050135583,-0.11721206986460224,-0.0658361845220904,1.0544964370853023,0.3242285746878755,-0.39248690705638317,-2.153499831082528,0.8645867284995047,2.4659356346527734,0.544480931274179,1.0544104758940245,0.3238615046091247,-0.39250456234122666,-2.153291787532338,0.8647539153680389,2.46587817577521,0.5445020185570556,0.00046733167708008745,-0.0020653561776587132,0.000949087765750624,-0.0007200649465256923,0.0005087806300650307,0.00041548775623377994,-0.0011384071583074042,0.0,0.0,0.0,0.0,0.0,0.0,0.0,-8.596119127779467e-05,-0.00036707007875080855,-1.765528484348744e-05,0.00020804355019032883,0.00016718686853423037,-5.745887756347656e-05,2.1087282876641744e-05,-0.00046733167708008745,0.0020653561776587132,-0.000949087765750624,0.0007200649465256923,-0.0005087806300650307,-0.00041548775623377994,0.0011384071583074042,0.4505855441093445,34.11452865600586,3.8744170665740967,-19.559053421020508,-0.3317161202430725,-1.777347207069397,0.03604452684521675,0
47,0.22991228103637695,-0.4505855441093445,-34.18990707397461,-3.8506133556365967,19.586824417114258,0.3381248116493225,1.790164589881897,-0.06351034343242645,0.0,0.0,0.0,0.0,0.0,0.0,0.0,-0.4563960545059334,-0.11163050242167276,-0.27804643431609677,0.5274692411812948,0.28509635535224553,-0.11660708765472065,-0.06541593024697237,1.0544964370853023,0.3242338390437388,-0.3924895810307443,-2.153501779924359,0.8645859771770467,2.4659342104991278,0.5444843493262395,1.0544104758940245,0.3238615046091247,-0.39250456234122666,-2.153291787532338,0.8647539153680389,2.46587817577521,0.5445020185570556,6.754283122007285e-07,9.531326953705824e-05,0.00022029514285503343,-0.000923477834689279,0.0002830015077598418,2.4901934773663203e-05,-7.532006474021895e-05,0.0,0.0,0.0,0.0,0.0,0.0,0.0,-8.596119127779467e-05,-0.00037233443461409665,-1.4981310482387045e-05,0.000209992392021352,0.00016793819099225615,-5.603472391779718e-05,1.7669230816141912e-05,-6.754283122007285e-07,-9.531326953705824e-05,-0.00022029514285503343,0.000923477834689279,-0.0002830015077598418,-2.4901934773663203e-05,7.532006474021895e-05,0.4505855441093445,34.18990707397461,3.8506133556365967,-19.586824417114258,-0.3381248116493225,-1.790164589881897,0.06351034343242645,0
48,0.23531746864318848,-0.4505855441093445,-34.18990707397461,-3.8506133556365967,19.586824417114258,0.3381248116493225,1.790164589881897,-0.06351034343242645,0.0,0.0,0.0,0.0,0.0,0.0,0.0,-0.4563960545059334,-0.11163050242167276,-0.27804643431609677,0.5274692411812948,0.28509635535224553,-0.11660708765472065,-0.06541593024697237,1.0544964370853023,0.3242338390437388,-0.3924895810307443,-2.153501779924359,0.8645859771770467,2.4659342104991278,0.5444843493262395,1.0544104758940245,0.3238615046091247,-0.39250456234122666,-2.153291787532338,0.8647539153680389,2.46587817577521,0.5445020185570556,6.754283122007285e-07,9.531326953705824e-05,0.00022029514285503343,-0.000923477834689279,0.0002830015077598418,2.4901934773663203e-05,-7.532006474021895e-05,0.0,0.0,0.0,0.0,0.0,0.0,0.0,-8.596119127779467e-05,-0.00037233443461409665,-1.4981310482387045e-05,0.000209992392021352,0.00016793819099225615,-5.603472391779718e-05,1.7669230816141912e-05,-6.754283122007285e-07,-9.531326953705824e-05,-0.00022029514285503343,0.000923477834689279,-0.0002830015077598418,-2.4901934773663203e-05,7.532006474021895e-05,0.4505855441093445,34.18990707397461,3.8506133556365967,-19.586824417114258,-0.3381248116493225,-1.790164589881897,0.06351034343242645,0
49,0.2399141788482666,-0.4783565402030945,-34.18990707397461,-3.8506133556365967,19.535249710083008,0.3436179757118225,1.790164589881897,-0.06351034343242645,0.0,0.0,0.0,0.0,0.0,0.0,0.0,-0.45722340047782195,-0.1047450653109882,-0.2783310353548038,0.5226675520542,0.286098332130985,-0.11640356233621846,-0.06621293613211458,1.0544983859271333,0.3242346475082425,-0.3924873800366433,-2.1534981606466728,0.8645853668252627,2.4659342104991278,0.5444839830336452,1.0544104758940245,0.3238615046091247,-0.39250456234122666,-2.153291787532338,0.8647539153680389,2.46587817577521,0.5445020185570556,0.00023546640125491502,8.85714382373562e-05,0.0002725824181824263,0.0002569468148079281,-1.9543148846914628e-05,0.0002434472519110765,4.7563022907484075e-05,0.0,0.0,0.0,0.0,0.0,0.0,0.0,-8.791003310881784e-05,-0.0003731428991177732,-1.7182304583363006e-05,0.00020637311433491234,0.00016854854277625897,-5.603472391779718e-05,1.8035523410397936e-05,-0.00023546640125491502,-8.85714382373562e-05,-0.0002725824181824263,-0.0002569468148079281,1.9543148846914628e-05,-0.0002434472519110765,-4.7563022907484075e-05,0.4783565402030945,34.18990707397461,3.8506133556365967,-19.535249710083008,-0.3436179757118225,-1.790164589881897,0.06351034343242645,0
50,0.2449324131011963,-0.4783565402030945,-34.18990707397461,-3.8506133556365967,19.535249710083008,0.3436179757118225,1.790164589881897,-0.06351034343242645,0.0,0.0,0.0,0.0,0.0,0.0,0.0,-0.45722340047782195,-0.1047450653109882,-0.2783310353548038,0.5226675520542,0.286098332130985,-0.11640356233621846,-0.06621293613211458,1.0544983859271333,0.3242346475082425,-0.3924873800366433,-2.1534981606466728,0.8645853668252627,2.4659342104991278,0.5444839830336452,1.0544104758940245,0.3238615046091247,-0.39250456234122666,-2.153291787532338,0.8647539153680389,2.46587817577521,0.5445020185570556,0.00023546640125491502,8.85714382373562e-05,0.0002725824181824263,0.0002569468148079281,-1.9543148846914628e-05,0.0002434472519110765,4.7563022907484075e-05,0.0,0.0,0.0,0.0,0.0,0.0,0.0,-8.791003310881784e-05,-0.0003731428991177732,-1.7182304583363006e-05,0.00020637311433491234,0.00016854854277625897,-5.603472391779718e-05,1.8035523410397936e-05,-0.00023546640125491502,-8.85714382373562e-05,-0.0002725824181824263,-0.0002569468148079281,1.9543148846914628e-05,-0.0002434472519110765,-4.7563022907484075e-05,0.4783565402030945,34.18990707397461,3.8506133556365967,-19.535249710083008,-0.3436179757118225,-1.790164589881897,0.06351034343242645,0
51,0.24990630149841309,-0.4783565402030945,-34.18990707397461,-3.8506133556365967,19.535249710083008,0.3436179757118225,1.790164589881897,-0.06351034343242645,0.0,0.0,0.0,0.0,0.0,0.0,0.0,-0.45722340047782195,-0.1047450653109882,-0.2783310353548038,0.5226675520542,0.286098332130985,-0.11640356233621846,-0.06621293613211458,1.0544983859271333,0.3242346475082425,-0.3924873800366433,-2.1534981606466728,0.8645853668252627,2.4659342104991278,0.5444839830336452,1.0544104758940245,0.3238615046091247,-0.39250456234122666,-2.153291787532338,0.8647539153680389,2.46587817577521,0.5445020185570556,0.00023546640125491502,8.85714382373562e-05,0.0002725824181824263,0.0002569468148079281,-1.9543148846914628e-05,0.0002434472519110765,4.7563022907484075e-05,0.0,0.0,0.0,0.0,0.0,0.0,0.0,-8.791003310881784e-05,-0.0003731428991177732,-1.7182304583363006e-05,0.00020637311433491234,0.00016854854277625897,-5.603472391779718e-05,1.8035523410397936e-05,-0.00023546640125491502,-8.85714382373562e-05,-0.0002725824181824263,-0.0002569468148079281,1.9543148846914628e-05,-0.0002434472519110765,-4.7563022907484075e-05,0.4783565402030945,34.18990707397461,3.8506133556365967,-19.535249710083008,-0.3436179757118225,-1.790164589881897,0.06351034343242645,0
52,0.25492310523986816,-0.4783565402030945,-34.18990707397461,-3.8506133556365967,19.535249710083008,0.3436179757118225,1.790164589881897,-0.06351034343242645,0.0,0.0,0.0,0.0,0.0,0.0,0.0,-0.45722340047782195,-0.1047450653109882,-0.2783310353548038,0.5226675520542,0.286098332130985,-0.11640356233621846,-0.06621293613211458,1.0544983859271333,0.3242346475082425,-0.3924873800366433,-2.1534981606466728,0.8645853668252627,2.4659342104991278,0.5444839830336452,1.0544104758940245,0.3238615046091247,-0.39250456234122666,-2.153291787532338,0.8647539153680389,2.46587817577521,0.5445020185570556,0.00023546640125491502,8.85714382373562e-05,0.0002725824181824263,0.0002569468148079281,-1.9543148846914628e-05,0.0002434472519110765,4.7563022907484075e-05,0.0,0.0,0.0,0.0,0.0,0.0,0.0,-8.791003310881784e-05,-0.0003731428991177732,-1.7182304583363006e-05,0.00020637311433491234,0.00016854854277625897,-5.603472391779718e-05,1.8035523410397936e-05,-0.00023546640125491502,-8.85714382373562e-05,-0.0002725824181824263,-0.0002569468148079281,1.9543148846914628e-05,-0.0002434472519110765,-4.7563022907484075e-05,0.4783565402030945,34.18990707397461,3.8506133556365967,-19.535249710083008,-0.3436179757118225,-1.790164589881897,0.06351034343242645,0
53,0.2599058151245117,-0.4505855441093445,-34.18990707397461,-3.8506133556365967,19.559053421020508,0.3317161202430725,1.783755898475647,-0.07724325358867645,0.0,0.0,0.0,0.0,0.0,0.0,0.0,-0.46301789638048585,-0.10681822312296224,-0.2817310964926837,0.5236666869224383,0.2867592251311161,-0.11513138540054253,-0.0664401661364679,1.0544964370853023,0.32423415333922184,-0.39248642277024265,-2.153499831082528,0.8645866892536481,2.4659349225759506,0.5444855089104838,1.0544104758940245,0.3238615046091247,-0.39250456234122666,-2.153291787532338,0.8647539153680389,2.46587817577521,0.5445020185570556,-0.00035714804065982447,0.00016121781476000988,-0.0003585883468462791,-0.0005350149574337432,0.0003178079801963625,0.0002651561970605391,0.0007642646433648351,0.0,0.0,0.0,0.0,0.0,0.0,0.0,-8.596119127779467e-05,-0.00037264873009712485,-1.8139570984010422e-05,0.00020804355019032883,0.00016722611439079493,-5.674680074063687e-05,1.65096465718495e-05,0.00035714804065982447,-0.00016121781476000988,0.0003585883468462791,0.0005350149574337432,-0.0003178079801963625,-0.0002651561970605391,-0.0007642646433648351,0.4505855441093445,34.18990707397461,3.8506133556365967,-19.559053421020508,-0.3317161202430725,-1.783755898475647,0.07724325358867645,0
54,0.2649209499359131,-0.4505855441093445,-34.18990707397461,-3.8506133556365967,19.559053421020508,0.3317161202430725,1.783755898475647,-0.07724325358867645,0.0,0.0,0.0,0.0,0.0,0.0,0.0,-0.46301789638048585,-0.10681822312296224,-0.2817310964926837,0.5236666869224383,0.2867592251311161,-0.11513138540054253,-0.0664401661364679,1.0544964370853023,0.32423415333922184,-0.39248642277024265,-2.153499831082528,0.8645866892536481,2.4659349225759506,0.5444855089104838,1.0544104758940245,0.3238615046091247,-0.39250456234122666,-2.153291787532338,0.8647539153680389,2.46587817577521,0.5445020185570556,-0.00035714804065982447,0.00016121781476000988,-0.0003585883468462791,-0.0005350149574337432,0.0003178079801963625,0.0002651561970605391,0.0007642646433648351,0.0,0.0,0.0,0.0,0.0,0.0,0.0,-8.596119127779467e-05,-0.00037264873009712485,-1.8139570984010422e-05,0.00020804355019032883,0.00016722611439079493,-5.674680074063687e-05,1.65096465718495e-05,0.00035714804065982447,-0.00016121781476000988,0.0003585883468462791,0.0005350149574337432,-0.0003178079801963625,-0.0002651561970605391,-0.0007642646433648351,0.4505855441093445,34.18990707397461,3.8506133556365967,-19.559053421020508,-0.3317161202430725,-1.783755898475647,0.07724325358867645,0
55,0.26990461349487305,-0.5021602511405945,-34.23751449584961,-3.8506133556365967,19.586824417114258,0.3381248116493225,1.790164589881897,-0.05710165575146675,0.0,0.0,0.0,0.0,0.0,0.0,0.0,-0.46451305779929775,-0.10949700241909618,-0.2842034946436715,0.5259893518374816,0.28614627182075214,-0.11480659115902771,-0.06541342877140713,1.0545000563629887,0.3242360842942758,-0.39248879652876356,-2.1535018714980247,0.8645859771768252,2.4659342104991278,0.5444832709551686,1.0544104758940245,0.3238615046091247,-0.39250456234122666,-2.153291787532338,0.8647539153680389,2.46587817577521,0.5445020185570556,0.0006167125637177872,0.0014623593636673609,-0.00027524110421633154,-0.0009819179219120076,-0.00012164309524267876,0.00010674999315066563,-0.00030762706456370056,0.0,0.0,0.0,0.0,0.0,0.0,0.0,-8.958046896423433e-05,-0.0003745796851510885,-1.5765812463097717e-05,0.00021008396568689136,0.00016793819121374565,-5.603472391779718e-05,1.8747601887025844e-05,-0.0006167125637177872,-0.0014623593636673609,0.00027524110421633154,0.0009819179219120076,0.00012164309524267876,-0.00010674999315066563,0.00030762706456370056,0.5021602511405945,34.23751449584961,3.8506133556365967,-19.586824417114258,-0.3381248116493225,-1.790164589881897,0.05710165575146675,0
56,0.27490663528442383,-0.5021602511405945,-34.23751449584961,-3.8506133556365967,19.586824417114258,0.3381248116493225,1.790164589881897,-0.05710165575146675,0.0,0.0,0.0,0.0,0.0,0.0,0.0,-0.46451305779929775,-0.10949700241909618,-0.2842034946436715,0.5259893518374816,0.28614627182075214,-0.11480659115902771,-0.06541342877140713,1.0545000563629887,0.3242360842942758,-0.39248879652876356,-2.1535018714980247,0.8645859771768252,2.4659342104991278,0.5444832709551686,1.0544104758940245,0.3238615046091247,-0.39250456234122666,-2.153291787532338,0.8647539153680389,2.46587817577521,0.5445020185570556,0.0006167125637177872,0.0014623593636673609,-0.00027524110421633154,-0.0009819179219120076,-0.00012164309524267876,0.00010674999315066563,-0.00030762706456370056,0.0,0.0,0.0,0.0,0.0,0.0,0.0,-8.958046896423433e-05,-0.0003745796851510885,-1.5765812463097717e-05,0.00021008396568689136,0.00016793819121374565,-5.603472391779718e-05,1.8747601887025844e-05,-0.0006167125637177872,-0.0014623593636673609,0.00027524110421633154,0.0009819179219120076,0.00012164309524267876,-0.00010674999315066563,0.00030762706456370056,0.5021602511405945,34.23751449584961,3.8506133556365967,-19.586824417114258,-0.3381248116493225,-1.790164589881897,0.05710165575146675,0
57,0.27991795539855957,-0.4783565402030945,-34.21371078491211,-3.8744170665740967,19.559053421020508,0.3381248116493225,1.790164589881897,-0.06351034343242645,0.0,0.0,0.0,0.0,0.0,0.0,0.0,-0.46142218238373817,-0.10118139076040862,-0.2765378333551685,0.5238758588316423,0.28536265183339504,-0.11563911444990187,-0.06461334528514703,1.0544983859271333,0.3242365694465565,-0.39248782602982146,-2.153502056322772,0.8645859771768252,2.4659342104991278,0.5444839830315775,1.0544104758940245,0.3238615046091247,-0.39250456234122666,-2.153291787532338,0.8647539153680389,2.46587817577521,0.5445020185570556,0.00029579493683268185,0.0011015066396178493,0.000511854774196771,-7.621171049898658e-05,0.0002644851862365949,-4.0663167913654965e-05,-0.00046983376043315683,0.0,0.0,0.0,0.0,0.0,0.0,0.0,-8.791003310881784e-05,-0.0003750648374317711,-1.6736311405196602e-05,0.00021026879043395397,0.00016793819121374565,-5.603472391779718e-05,1.8035525478077297e-05,-0.00029579493683268185,-0.0011015066396178493,-0.000511854774196771,7.621171049898658e-05,-0.0002644851862365949,4.0663167913654965e-05,0.00046983376043315683,0.4783565402030945,34.21371078491211,3.8744170665740967,-19.559053421020508,-0.3381248116493225,-1.790164589881897,0.06351034343242645,0
58,0.2849135398864746,-0.4783565402030945,-34.21371078491211,-3.8744170665740967,19.559053421020508,0.3381248116493225,1.790164589881897,-0.06351034343242645,0.0,0.0,0.0,0.0,0.0,0.0,0.0,-0.46142218238373817,-0.10118139076040862,-0.2765378333551685,0.5238758588316423,0.28536265183339504,-0.11563911444990187,-0.06461334528514703,1.0544983859271333,0.3242365694465565,-0.39248782602982146,-2.153502056322772,0.8645859771768252,2.4659342104991278,0.5444839830315775,1.0544104758940245,0.3238615046091247,-0.39250456234122666,-2.153291787532338,0.8647539153680389,2.46587817577521,0.5445020185570556,0.00029579493683268185,0.0011015066396178493,0.000511854774196771,-7.621171049898658e-05,0.0002644851862365949,-4.0663167913654965e-05,-0.00046983376043315683,0.0,0.0,0.0,0.0,0.0,0.0,0.0,-8.791003310881784e-05,-0.0003750648374317711,-1.6736311405196602e-05,0.00021026879043395397,0.00016793819121374565,-5.603472391779718e-05,1.8035525478077297e-05,-0.00029579493683268185,-0.0011015066396178493,-0.000511854774196771,7.621171049898658e-05,-0.0002644851862365949,4.0663167913654965e-05,0.00046983376043315683,0.4783565402030945,34.21371078491211,3.8744170665740967,-19.559053421020508,-0.3381248116493225,-1.790164589881897,0.06351034343242645,0
59,0.28990983963012695,-0.4029781222343445,-34.18990707397461,-3.7990386486053467,19.535249710083008,0.3317161202430725,1.802981972694397,-0.02231161668896675,0.0,0.0,0.0,0.0,0.0,0.0,0.0,-0.45937085179428067,-0.10741812484542974,-0.27252781216977945,0.5253990275913313,0.28550675235507667,-0.11584645058232819,-0.06597196957280836,1.0544930962135917,0.32423418343197125,-0.3924924923286605,-2.153498188131334,0.8645866892536481,2.465932786345482,0.5444794058797894,1.0544104758940245,0.3238615046091247,-0.39250456234122666,-2.153291787532338,0.8647539153680389,2.46587817577521,0.5445020185570556,-0.0012093995133063268,-5.627170649730697e-05,-0.0010953770607267232,-4.0033030500965605e-05,0.00020131422006157965,-0.000546240109753903,-0.0018151124793135168,0.0,0.0,0.0,0.0,0.0,0.0,0.0,-8.262031956718374e-05,-0.0003726788228465283,-1.2070012566145483e-05,0.00020640059899612595,0.00016722611439079493,-5.46105702721178e-05,2.2612677266220516e-05,0.0012093995133063268,5.627170649730697e-05,0.0010953770607267232,4.0033030500965605e-05,-0.00020131422006157965,0.000546240109753903,0.0018151124793135168,0.4029781222343445,34.18990707397461,3.7990386486053467,-19.535249710083008,-0.3317161202430725,-1.802981972694397,0.02231161668896675,0
60,0.29491257667541504,-0.4029781222343445,-34.18990707397461,-3.7990386486053467,19.535249710083008,0.3317161202430725,1.802981972694397,-0.02231161668896675,0.0,0.0,0.0,0.0,0.0,0.0,0.0,-0.45937085179428067,-0.10741812484542974,-0.27252781216977945,0.5253990275913313,0.28550675235507667,-0.11584645058232819,-0.06597196957280836,1.0544930962135917,0.32423418343197125,-0.3924924923286605,-2.153498188131334,0.8645866892536481,2.465932786345482,0.5444794058797894,1.0544104758940245,0.3238615046091247,-0.39250456234122666,-2.153291787532338,0.8647539153680389,2.46587817577521,0.5445020185570556,-0.0012093995133063268,-5.627170649730697e-05,-0.0010953770607267232,-4.0033030500965605e-05,0.00020131422006157965,-0.000546240109753903,-0.0018151124793135168,0.0,0.0,0.0,0.0,0.0,0.0,0.0,-8.262031956718374e-05,-0.0003726788228465283,-1.2070012566145483e-05,0.00020640059899612595,0.00016722611439079493,-5.46105702721178e-05,2.2612677266220516e-05,0.0012093995133063268,5.627170649730697e-05,0.0010953770607267232,4.0033030500965605e-05,-0.00020131422006157965,0.000546240109753903,0.0018151124793135168,0.4029781222343445,34.18990707397461,3.7990386486053467,-19.535249710083008,-0.3317161202430725,-1.802981972694397,0.02231161668896675,0
61,0.2999246120452881,-0.4267818331718445,-34.18990707397461,-3.8228423595428467,19.559053421020508,0.3381248116493225,1.790164589881897,-0.08365194499492645,0.0,0.0,0.0,0.0,0.0,0.0,0.0,-0.46536648065838393,-0.11716345373500993,-0.27764375516305834,0.5307173165466927,0.2856195253162504,-0.11381726408220559,-0.06587722687323472,1.054494766649447,0.3242347926108399,-0.39249152119769287,-2.1534999134989823,0.8645859771768252,2.4659342104991278,0.5444862209873094,1.0544104758940245,0.3238615046091247,-0.39250456234122666,-2.153291787532338,0.8647539153680389,2.46587817577521,0.5445020185570556,-0.0006527328680982165,-0.00023014017660161315,-0.000363055670986042,5.494585535775565e-05,0.00019131448347749097,-4.246420550878979e-05,0.0007620822895720208,0.0,0.0,0.0,0.0,0.0,0.0,0.0,-8.429075542260023e-05,-0.0003732880017151552,-1.304114353378738e-05,0.0002081259666444346,0.00016793819121374565,-5.603472391779718e-05,1.5797569746234252e-05,0.0006527328680982165,0.00023014017660161315,0.000363055670986042,-5.494585535775565e-05,-0.00019131448347749097,4.246420550878979e-05,-0.0007620822895720208,0.4267818331718445,34.18990707397461,3.8228423595428467,-19.559053421020508,-0.3381248116493225,-1.790164589881897,0.08365194499492645,0
62,0.30490779876708984,-0.4267818331718445,-34.18990707397461,-3.8228423595428467,19.559053421020508,0.3381248116493225,1.790164589881897,-0.08365194499492645,0.0,0.0,0.0,0.0,0.0,0.0,0.0,-0.46536648065838393,-0.11716345373500993,-0.27764375516305834,0.5307173165466927,0.2856195253162504,-0.11381726408220559,-0.06587722687323472,1.054494766649447,0.3242347926108399,-0.39249152119769287,-2.1534999134989823,0.8645859771768252,2.4659342104991278,0.5444862209873094,1.0544104758940245,0.3238615046091247,-0.39250456234122666,-2.153291787532338,0.8647539153680389,2.46587817577521,0.5445020185570556,-0.0006527328680982165,-0.00023014017660161315,-0.000363055670986042,5.494585535775565e-05,0.00019131448347749097,-4.246420550878979e-05,0.0007620822895720208,0.0,0.0,0.0,0.0,0.0,0.0,0.0,-8.429075542260023e-05,-0.0003732880017151552,-1.304114353378738e-05,0.0002081259666444346,0.00016793819121374565,-5.603472391779718e-05,1.5797569746234252e-05,0.0006527328680982165,0.00023014017660161315,0.000363055670986042,-5.494585535775565e-05,-0.00019131448347749097,4.246420550878979e-05,-0.0007620822895720208,0.4267818331718445,34.18990707397461,3.8228423595428467,-19.559053421020508,-0.3381248116493225,-1.790164589881897,0.08365194499492645,0
63,0.30992603302001953,-0.4505855441093445,-34.13833236694336,-3.8506133556365967,19.586824417114258,0.3500266671180725,1.790164589881897,-0.01590292528271675,0.0,0.0,0.0,0.0,0.0,0.0,0.0,-0.4689426762154876,-0.10694542275671891,-0.28213722853651774,0.523706172418382,0.2860047048443,-0.11418897639184016,-0.06561324232291127,1.0544964370853023,0.32422904225023785,-0.39248652851052146,-2.153501789082191,0.8645846547484398,2.4659342104991278,0.544478706400402,1.0544104758940245,0.3238615046091247,-0.39250456234122666,-2.153291787532338,0.8647539153680389,2.46587817577521,0.5445020185570556,-0.0002306802856213046,-0.0012712374350576658,0.00010001615746378577,-0.0009858532919242787,-0.0004907187529562629,7.180729588475767e-05,-0.002081870470807247,0.0,0.0,0.0,0.0,0.0,0.0,0.0,-8.596119127779467e-05,-0.0003675376411131359,-1.8033830705199705e-05,0.0002100015498531782,0.00016926061959909866,-5.603472391779718e-05,2.3312156653632066e-05,0.0002306802856213046,0.0012712374350576658,-0.00010001615746378577,0.0009858532919242787,0.0004907187529562629,-7.180729588475767e-05,0.002081870470807247,0.4505855441093445,34.13833236694336,3.8506133556365967,-19.586824417114258,-0.3500266671180725,-1.790164589881897,0.01590292528271675,0
64,0.3149580955505371,-0.4505855441093445,-34.13833236694336,-3.8506133556365967,19.586824417114258,0.3500266671180725,1.790164589881897,-0.01590292528271675,0.0,0.0,0.0,0.0,0.0,0.0,0.0,-0.4689426762154876,-0.10694542275671891,-0.28213722853651774,0.523706172418382,0.2860047048443,-0.11418897639184016,-0.06561324232291127,1.0544964370853023,0.32422904225023785,-0.39248652851052146,-2.153501789082191,0.8645846547484398,2.4659342104991278,0.544478706400402,1.0544104758940245,0.3238615046091247,-0.39250456234122666,-2.153291787532338,0.8647539153680389,2.46587817577521,0.5445020185570556,-0.0002306802856213046,-0.0012712374350576658,0.00010001615746378577,-0.0009858532919242787,-0.0004907187529562629,7.180729588475767e-05,-0.002081870470807247,0.0,0.0,0.0,0.0,0.0,0.0,0.0,-8.596119127779467e-05,-0.0003675376411131359,-1.8033830705199705e-05,0.0002100015498531782,0.00016926061959909866,-5.603472391779718e-05,2.3312156653632066e-05,0.0002306802856213046,0.0012712374350576658,-0.00010001615746378577,0.0009858532919242787,0.0004907187529562629,-7.180729588475767e-05,0.002081870470807247,0.4505855441093445,34.13833236694336,3.8506133556365967,-19.586824417114258,-0.3500266671180725,-1.790164589881897,0.01590292528271675,0
65,0.3199188709259033,-0.4505855441093445,-34.23751449584961,-3.8506133556365967,19.559053421020508,0.3381248116493225,1.790164589881897,-0.02963583543896675,0.0,0.0,0.0,0.0,0.0,0.0,0.0,-0.45257079717171006,-0.11396427085271682,-0.2728290562718843,0.5288464164366823,0.28535264899934676,-0.11495837011705683,-0.06404901473928276,1.0544964370853023,0.32423812166386345,-0.3924865277732931,-2.1534998310825797,0.8645859771768252,2.4659342104991278,0.5444805724101396,1.0544104758940245,0.3238615046091247,-0.39250456234122666,-2.153291787532338,0.8647539153680389,2.46587817577521,0.5445020185570556,0.00045612374399239765,0.0011158596270440435,0.0003082661475645875,-6.927514671707846e-05,-2.4605396177908902e-05,-0.00027416115537141526,-0.0011907480453344568,0.0,0.0,0.0,0.0,0.0,0.0,0.0,-8.596119127779467e-05,-0.0003766170547387371,-1.803456793353364e-05,0.00020804355024184318,0.00016793819121374565,-5.603472391779718e-05,2.144614691601543e-05,-0.00045612374399239765,-0.0011158596270440435,-0.0003082661475645875,6.927514671707846e-05,2.4605396177908902e-05,0.00027416115537141526,0.0011907480453344568,0.4505855441093445,34.23751449584961,3.8506133556365967,-19.559053421020508,-0.3381248116493225,-1.790164589881897,0.02963583543896675,0
66,0.3249225616455078,-0.4505855441093445,-34.23751449584961,-3.8506133556365967,19.559053421020508,0.3381248116493225,1.790164589881897,-0.02963583543896675,0.0,0.0,0.0,0.0,0.0,0.0,0.0,-0.45257079717171006,-0.11396427085271682,-0.2728290562718843,0.5288464164366823,0.28535264899934676,-0.11495837011705683,-0.06404901473928276,1.0544964370853023,0.32423812166386345,-0.3924865277732931,-2.1534998310825797,0.8645859771768252,2.4659342104991278,0.5444805724101396,1.0544104758940245,0.3238615046091247,-0.39250456234122666,-2.153291787532338,0.8647539153680389,2.46587817577521,0.5445020185570556,0.00045612374399239765,0.0011158596270440435,0.0003082661475645875,-6.927514671707846e-05,-2.4605396177908902e-05,-0.00027416115537141526,-0.0011907480453344568,0.0,0.0,0.0,0.0,0.0,0.0,0.0,-8.596119127779467e-05,-0.0003766170547387371,-1.803456793353364e-05,0.00020804355024184318,0.00016793819121374565,-5.603472391779718e-05,2.144614691601543e-05,-0.00045612374399239765,-0.0011158596270440435,-0.0003082661475645875,6.927514671707846e-05,2.4605396177908902e-05,0.00027416115537141526,0.0011907480453344568,0.4505855441093445,34.23751449584961,3.8506133556365967,-19.559053421020508,-0.3381248116493225,-1.790164589881897,0.02963583543896675,0
67,0.32993245124816895,-0.4783565402030945,-34.16213607788086,-3.8506133556365967,19.559053421020508,0.3381248116493225,1.783755898475647,-0.05710165575146675,0.0,0.0,0.0,0.0,0.0,0.0,0.0,-0.46124141608771807,-0.11097692576125022,-0.2824987359839659,0.5279334839292013,0.2856358494085984,-0.11516984674099517,-0.0634402410491211,1.0544983859271333,0.3242322309923808,-0.39248720983620433,-2.1535005819865853,0.8645859773562757,2.4659349225759506,0.5444832709558332,1.0544104758940245,0.3238615046091247,-0.39250456234122666,-2.153291787532338,0.8647539153680389,2.46587817577521,0.5445020185570556,0.00040390198071783915,-0.0004439777525738907,8.50761215568647e-05,1.9560676390689073e-05,2.478299693146677e-05,0.00023888772913927404,-0.0002609996104255089,0.0,0.0,0.0,0.0,0.0,0.0,0.0,-8.791003310881784e-05,-0.0003707263832560814,-1.735250502232777e-05,0.0002087944542474851,0.00016793801176318013,-5.674680074063687e-05,1.8747601222446342e-05,-0.00040390198071783915,0.0004439777525738907,-8.50761215568647e-05,-1.9560676390689073e-05,-2.478299693146677e-05,-0.00023888772913927404,0.0002609996104255089,0.4783565402030945,34.16213607788086,3.8506133556365967,-19.559053421020508,-0.3381248116493225,-1.783755898475647,0.05710165575146675,0
68,0.33490967750549316,-0.4783565402030945,-34.16213607788086,-3.8506133556365967,19.559053421020508,0.3381248116493225,1.783755898475647,-0.05710165575146675,0.0,0.0,0.0,0.0,0.0,0.0,0.0,-0.46124141608771807,-0.11097692576125022,-0.2824987359839659,0.5279334839292013,0.2856358494085984,-0.11516984674099517,-0.0634402410491211,1.0544983859271333,0.3242322309923808,-0.39248720983620433,-2.1535005819865853,0.8645859773562757,2.4659349225759506,0.5444832709558332,1.0544104758940245,0.3238615046091247,-0.39250456234122666,-2.153291787532338,0.8647539153680389,2.46587817577521,0.5445020185570556,0.00040390198071783915,-0.0004439777525738907,8.50761215568647e-05,1.9560676390689073e-05,2.478299693146677e-05,0.00023888772913927404,-0.0002609996104255089,0.0,0.0,0.0,0.0,0.0,0.0,0.0,-8.791003310881784e-05,-0.0003707263832560814,-1.735250502232777e-05,0.0002087944542474851,0.00016793801176318013,-5.674680074063687e-05,1.8747601222446342e-05,-0.00040390198071783915,0.0004439777525738907,-8.50761215568647e-05,-1.9560676390689073e-05,-2.478299693146677e-05,-0.00023888772913927404,0.0002609996104255089,0.4783565402030945,34.16213607788086,3.8506133556365967,-19.559053421020508,-0.3381248116493225,-1.783755898475647,0.05710165575146675,0
69,0.3399193286895752,-0.4505855441093445,-34.18990707397461,-3.8744170665740967,19.559053421020508,0.3317161202430725,1.796573281288147,-0.04977743700146675,0.0,0.0,0.0,0.0,0.0,0.0,0.0,-0.45441829926635663,-0.11633036719256215,-0.2769321619555678,0.5308502289779391,0.2852715873491687,-0.11629014752500262,-0.0650162677827844,1.0544964370853023,0.32423415417521273,-0.3924876683277848,-2.1534998314259286,0.8645866936142999,2.465933498422305,0.5444824571530852,1.0544104758940245,0.3238615046091247,-0.39250456234122666,-2.153291787532338,0.8647539153680389,2.46587817577521,0.5445020185570556,-0.00014335884438001654,-9.022570111643864e-06,0.0005802318211767937,-0.0003037923607644475,0.0002607833935211472,-0.0004154713489243976,-0.00063062948049147,0.0,0.0,0.0,0.0,0.0,0.0,0.0,-8.596119127779467e-05,-0.0003726495660880125,-1.6894013441848266e-05,0.00020804389359074804,0.00016722175373906634,-5.532264709495749e-05,1.956140397041395e-05,0.00014335884438001654,9.022570111643864e-06,-0.0005802318211767937,0.0003037923607644475,-0.0002607833935211472,0.0004154713489243976,0.00063062948049147,0.4505855441093445,34.18990707397461,3.8744170665740967,-19.559053421020508,-0.3317161202430725,-1.796573281288147,0.04977743700146675,0
70,0.34491610527038574,-0.4505855441093445,-34.18990707397461,-3.8744170665740967,19.559053421020508,0.3317161202430725,1.796573281288147,-0.04977743700146675,0.0,0.0,0.0,0.0,0.0,0.0,0.0,-0.45441829926635663,-0.11633036719256215,-0.2769321619555678,0.5308502289779391,0.2852715873491687,-0.11629014752500262,-0.0650162677827844,1.0544964370853023,0.32423415417521273,-0.3924876683277848,-2.1534998314259286,0.8645866936142999,2.465933498422305,0.5444824571530852,1.0544104758940245,0.3238615046091247,-0.39250456234122666,-2.153291787532338,0.8647539153680389,2.46587817577521,0.5445020185570556,-0.00014335884438001654,-9.022570111643864e-06,0.0005802318211767937,-0.0003037923607644475,0.0002607833935211472,-0.0004154713489243976,-0.00063062948049147,0.0,0.0,0.0,0.0,0.0,0.0,0.0,-8.596119127779467e-05,-0.0003726495660880125,-1.6894013441848266e-05,0.00020804389359074804,0.00016722175373906634,-5.532264709495749e-05,1.956140397041395e-05,0.00014335884438001654,9.022570111643864e-06,-0.0005802318211767937,0.0003037923607644475,-0.0002607833935211472,0.0004154713489243976,0.00063062948049147,0.4505855441093445,34.18990707397461,3.8744170665740967,-19.559053421020508,-0.3317161202430725,-1.796573281288147,0.04977743700146675,0
71,0.3499267101287842,-0.4505855441093445,-34.18990707397461,-3.8744170665740967,19.559053421020508,0.3317161202430725,1.796573281288147,-0.04977743700146675,0.0,0.0,0.0,0.0,0.0,0.0,0.0,-0.45441829926635663,-0.11633036719256215,-0.2769321619555678,0.5308502289779391,0.2852715873491687,-0.11629014752500262,-0.0650162677827844,1.0544964370853023,0.32423415417521273,-0.3924876683277848,-2.1534998314259286,0.8645866936142999,2.465933498422305,0.5444824571530852,1.0544104758940245,0.3238615046091247,-0.39250456234122666,-2.153291787532338,0.8647539153680389,2.46587817577521,0.5445020185570556,-0.00014335884438001654,-9.022570111643864e-06,0.0005802318211767937,-0.0003037923607644475,0.0002607833935211472,-0.0004154713489243976,-0.00063062948049147,0.0,0.0,0.0,0.0,0.0,0.0,0.0,-8.596119127779467e-05,-0.0003726495660880125,-1.6894013441848266e-05,0.00020804389359074804,0.00016722175373906634,-5.532264709495749e-05,1.956140397041395e-05,0.00014335884438001654,9.022570111643864e-06,-0.0005802318211767937,0.0003037923607644475,-0.0002607833935211472,0.0004154713489243976,0.00063062948049147,0.4505855441093445,34.18990707397461,3.8744170665740967,-19.559053421020508,-0.3317161202430725,-1.796573281288147,0.04977743700146675,0
72,0.3549175262451172,-0.4505855441093445,-34.18990707397461,-3.8744170665740967,19.559053421020508,0.3317161202430725,1.796573281288147,-0.04977743700146675,0.0,0.0,0.0,0.0,0.0,0.0,0.0,-0.45441829926635663,-0.11633036719256215,-0.2769321619555678,0.5308502289779391,0.2852715873491687,-0.11629014752500262,-0.0650162677827844,1.0544964370853023,0.32423415417521273,-0.3924876683277848,-2.1534998314259286,0.8645866936142999,2.465933498422305,0.5444824571530852,1.0544104758940245,0.3238615046091247,-0.39250456234122666,-2.153291787532338,0.8647539153680389,2.46587817577521,0.5445020185570556,-0.00014335884438001654,-9.022570111643864e-06,0.0005802318211767937,-0.0003037923607644475,0.0002607833935211472,-0.0004154713489243976,-0.00063062948049147,0.0,0.0,0.0,0.0,0.0,0.0,0.0,-8.596119127779467e-05,-0.0003726495660880125,-1.6894013441848266e-05,0.00020804389359074804,0.00016722175373906634,-5.532264709495749e-05,1.956140397041395e-05,0.00014335884438001654,9.022570111643864e-06,-0.0005802318211767937,0.0003037923607644475,-0.0002607833935211472,0.0004154713489243976,0.00063062948049147,0.4505855441093445,34.18990707397461,3.8744170665740967,-19.559053421020508,-0.3317161202430725,-1.796573281288147,0.04977743700146675,0
73,0.3599224090576172,-0.4783565402030945,-34.18990707397461,-3.8228423595428467,19.535249710083008,0.3381248116493225,1.783755898475647,-0.09738485515117645,0.0,0.0,0.0,0.0,0.0,0.0,0.0,-0.4546254971670865,-0.11575986539965775,-0.2773374720386753,0.5299715004018433,0.28519715853228705,-0.11628150439724631,-0.06629748325058224,1.0544983859271333,0.3242346306851773,-0.3924886902325522,-2.1534981607597286,0.8645859771768497,2.4659349225759506,0.5444877468662129,1.0544104758940245,0.3238615046091247,-0.39250456234122666,-2.153291787532338,0.8647539153680389,2.46587817577521,0.5445020185570556,0.000520561872168939,7.321546582392495e-06,-0.0006385682287807044,0.0002917964906232154,-4.500205160454043e-05,0.00023158290235038273,0.0015789851627610828,0.0,0.0,0.0,0.0,0.0,0.0,0.0,-8.791003310881784e-05,-0.00037312607605261006,-1.5872108674486185e-05,0.0002063732273906993,0.00016793819118920972,-5.674680074063687e-05,1.4271690842670992e-05,-0.000520561872168939,-7.321546582392495e-06,0.0006385682287807044,-0.0002917964906232154,4.500205160454043e-05,-0.00023158290235038273,-0.0015789851627610828,0.4783565402030945,34.18990707397461,3.8228423595428467,-19.535249710083008,-0.3381248116493225,-1.783755898475647,0.09738485515117645,0
74,0.36487293243408203,-0.4783565402030945,-34.18990707397461,-3.8228423595428467,19.535249710083008,0.3381248116493225,1.783755898475647,-0.09738485515117645,0.0,0.0,0.0,0.0,0.0,0.0,0.0,-0.4546254971670865,-0.11575986539965775,-0.2773374720386753,0.5299715004018433,0.28519715853228705,-0.11628150439724631,-0.06629748325058224,1.0544983859271333,0.3242346306851773,-0.3924886902325522,-2.1534981607597286,0.8645859771768497,2.4659349225759506,0.5444877468662129,1.0544104758940245,0.3238615046091247,-0.39250456234122666,-2.153291787532338,0.8647539153680389,2.46587817577521,0.5445020185570556,0.000520561872168939,7.321546582392495e-06,-0.0006385682287807044,0.0002917964906232154,-4.500205160454043e-05,0.00023158290235038273,0.0015789851627610828,0.0,0.0,0.0,0.0,0.0,0.0,0.0,-8.791003310881784e-05,-0.00037312607605261006,-1.5872108674486185e-05,0.0002063732273906993,0.00016793819118920972,-5.674680074063687e-05,1.4271690842670992e-05,-0.000520561872168939,-7.321546582392495e-06,0.0006385682287807044,-0.0002917964906232154,4.500205160454043e-05,-0.00023158290235038273,-0.0015789851627610828,0.4783565402030945,34.18990707397461,3.8228423595428467,-19.535249710083008,-0.3381248116493225,-1.783755898475647,0.09738485515117645,0
75,0.369856595993042,-0.4783565402030945,-34.16213607788086,-3.8228423595428467,19.535249710083008,0.3381248116493225,1.790164589881897,-0.04336874559521675,0.0,0.0,0.0,0.0,0.0,0.0,0.0,-0.46345727458191877,-0.11217684781203653,-0.2848529896081765,0.5274332001238755,0.28512260989146493,-0.11586053286922723,-0.06706231484778105,1.0544983859271333,0.3242297709299747,-0.3924905234543025,-2.1534981609858352,0.8645859771768252,2.4659342104991278,0.5444849239906502,1.0544104758940245,0.3238615046091247,-0.39250456234122666,-2.153291787532338,0.8647539153680389,2.46587817577521,0.5445020185570556,-5.969392622610159e-05,-0.0003322259786952542,-0.0009688101308940487,0.0006642401355206897,-0.0001735353863650237,-7.025600259099174e-05,-0.0009789843370734167,0.0,0.0,0.0,0.0,0.0,0.0,0.0,-8.791003310881784e-05,-0.0003682663208499637,-1.4038886924139238e-05,0.00020637345349738823,0.00016793819121374565,-5.603472391779718e-05,1.7094566405417844e-05,5.969392622610159e-05,0.0003322259786952542,0.0009688101308940487,-0.0006642401355206897,0.0001735353863650237,7.025600259099174e-05,0.0009789843370734167,0.4783565402030945,34.16213607788086,3.8228423595428467,-19.535249710083008,-0.3381248116493225,-1.790164589881897,0.04336874559521675,0
76,0.3749105930328369,-0.4783565402030945,-34.16213607788086,-3.8228423595428467,19.535249710083008,0.3381248116493225,1.790164589881897,-0.04336874559521675,0.0,0.0,0.0,0.0,0.0,0.0,0.0,-0.46345727458191877,-0.11217684781203653,-0.2848529896081765,0.5274332001238755,0.28512260989146493,-0.11586053286922723,-0.06706231484778105,1.0544983859271333,0.3242297709299747,-0.3924905234543025,-2.1534981609858352,0.8645859771768252,2.4659342104991278,0.5444849239906502,1.0544104758940245,0.3238615046091247,-0.39250456234122666,-2.153291787532338,0.8647539153680389,2.46587817577521,0.5445020185570556,-5.969392622610159e-05,-0.0003322259786952542,-0.0009688101308940487,0.0006642401355206897,-0.0001735353863650237,-7.025600259099174e-05,-0.0009789843370734167,0.0,0.0,0.0,0.0,0.0,0.0,0.0,-8.791003310881784e-05,-0.0003682663208499637,-1.4038886924139238e-05,0.00020637345349738823,0.00016793819121374565,-5.603472391779718e-05,1.7094566405417844e-05,5.969392622610159e-05,0.0003322259786952542,0.0009688101308940487,-0.0006642401355206897,0.0001735353863650237,7.025600259099174e-05,0.0009789843370734167,0.4783565402030945,34.16213607788086,3.8228423595428467,-19.535249710083008,-0.3381248116493225,-1.790164589881897,0.04336874559521675,0
77,0.38004374504089355,-0.4783565402030945,-34.18990707397461,-3.8506133556365967,19.535249710083008,0.3436179757118225,1.783755898475647,-0.07724325358867645,0.0,0.0,0.0,0.0,0.0,0.0,0.0,-0.45453243753294065,-0.11067149890608845,-0.27666036852784404,0.5281775482932768,0.2840800449711892,-0.11689752990552482,-0.06668498393993544,1.0544983860361494,0.32423415677771605,-0.3924864341428971,-2.1534981606466745,0.8645853668252627,2.4659349225759506,0.5444855089284287,1.0544104758940245,0.3238615046091247,-0.39250456234122666,-2.153291787532338,0.8647539153680389,2.46587817577521,0.5445020185570556,0.0002661629489583949,0.00017688483567689016,-1.3464392810547903e-06,0.0006139875268520319,-0.0003671328996814472,0.00019335911213671828,0.0001939946747009436,0.0,0.0,0.0,0.0,0.0,0.0,0.0,-8.79101421249473e-05,-0.00037265216859133643,-1.8128198329581124e-05,0.0002063731143366887,0.00016854854277625897,-5.674680074063687e-05,1.6509628626870665e-05,-0.0002661629489583949,-0.00017688483567689016,1.3464392810547903e-06,-0.0006139875268520319,0.0003671328996814472,-0.00019335911213671828,-0.0001939946747009436,0.4783565402030945,34.18990707397461,3.8506133556365967,-19.535249710083008,-0.3436179757118225,-1.783755898475647,0.07724325358867645,0
78,0.38491153717041016,-0.4783565402030945,-34.18990707397461,-3.8506133556365967,19.535249710083008,0.3436179757118225,1.783755898475647,-0.07724325358867645,0.0,0.0,0.0,0.0,0.0,0.0,0.0,-0.45453243753294065,-0.11067149890608845,-0.27666036852784404,0.5281775482932768,0.2840800449711892,-0.11689752990552482,-0.06668498393993544,1.0544983860361494,0.32423415677771605,-0.3924864341428971,-2.1534981606466745,0.8645853668252627,2.4659349225759506,0.5444855089284287,1.0544104758940245,0.3238615046091247,-0.39250456234122666,-2.153291787532338,0.8647539153680389,2.46587817577521,0.5445020185570556,0.0002661629489583949,0.00017688483567689016,-1.3464392810547903e-06,0.0006139875268520319,-0.0003671328996814472,0.00019335911213671828,0.0001939946747009436,0.0,0.0,0.0,0.0,0.0,0.0,0.0,-8.79101421249473e-05,-0.00037265216859133643,-1.8128198329581124e-05,0.0002063731143366887,0.00016854854277625897,-5.674680074063687e-05,1.6509628626870665e-05,-0.0002661629489583949,-0.00017688483567689016,1.3464392810547903e-06,-0.0006139875268520319,0.0003671328996814472,-0.00019335911213671828,-0.0001939946747009436,0.4783565402030945,34.18990707397461,3.8506133556365967,-19.535249710083008,-0.3436179757118225,-1.783755898475647,0.07724325358867645,0
79,0.3899209499359131,-0.4267818331718445,-34.23751449584961,-3.8228423595428467,19.559053421020508,0.3262229561805725,1.790164589881897,-0.07724325358867645,0.0,0.0,0.0,0.0,0.0,0.0,0.0,-0.4676474076287832,-0.11633563124306663,-0.2888249977939529,0.5305038614540593,0.2840513649580731,-0.11595783407116073,-0.06651532115485242,1.0544948461223074,0.3242360027594331,-0.3924891586419011,-2.153499831082528,0.8645872996052106,2.465935270137257,0.5444855089104838,1.0544104758940245,0.3238615046091247,-0.39250456234122666,-2.153291787532338,0.8647539153680389,2.46587817577521,0.5445020185570556,-0.001215406171326095,0.0010200364112641336,-0.0011807267807797236,-0.000324624519101977,0.0002979475886660296,-8.268865730779759e-05,0.000366965128145513,0.0,0.0,0.0,0.0,0.0,0.0,0.0,-8.437022828289287e-05,-0.00037449815030837774,-1.5403699325566844e-05,0.00020804355019032883,0.0001666157628282816,-5.709436204703877e-05,1.65096465718495e-05,0.001215406171326095,-0.0010200364112641336,0.0011807267807797236,0.000324624519101977,-0.0002979475886660296,8.268865730779759e-05,-0.000366965128145513,0.4267818331718445,34.23751449584961,3.8228423595428467,-19.559053421020508,-0.3262229561805725,-1.790164589881897,0.07724325358867645,0
80,0.39492201805114746,-0.4267818331718445,-34.23751449584961,-3.8228423595428467,19.559053421020508,0.3262229561805725,1.790164589881897,-0.07724325358867645,0.0,0.0,0.0,0.0,0.0,0.0,0.0,-0.4676474076287832,-0.11633563124306663,-0.2888249977939529,0.5305038614540593,0.2840513649580731,-0.11595783407116073,-0.06651532115485242,1.0544948461223074,0.3242360027594331,-0.3924891586419011,-2.153499831082528,0.8645872996052106,2.465935270137257,0.5444855089104838,1.0544104758940245,0.3238615046091247,-0.39250456234122666,-2.153291787532338,0.8647539153680389,2.46587817577521,0.5445020185570556,-0.001215406171326095,0.0010200364112641336,-0.0011807267807797236,-0.000324624519101977,0.0002979475886660296,-8.268865730779759e-05,0.000366965128145513,0.0,0.0,0.0,0.0,0.0,0.0,0.0,-8.437022828289287e-05,-0.00037449815030837774,-1.5403699325566844e-05,0.00020804355019032883,0.0001666157628282816,-5.709436204703877e-05,1.65096465718495e-05,0.001215406171326095,-0.0010200364112641336,0.0011807267807797236,0.000324624519101977,-0.0002979475886660296,8.268865730779759e-05,-0.000366965128145513,0.4267818331718445,34.23751449584961,3.8228423595428467,-19.559053421020508,-0.3262229561805725,-1.790164589881897,0.07724325358867645,0
