rezayati/contactInterpretation/dataset/franka_main/labeled_data/link5/c4_5.csv
index,time,tau_J0,tau_J1,tau_J2,tau_J3,tau_J4,tau_J5,tau_J6,tau_J_d0,tau_J_d1,tau_J_d2,tau_J_d3,tau_J_d4,tau_J_d5,tau_J_d6,tau_ext0,tau_ext1,tau_ext2,tau_ext3,tau_ext4,tau_ext5,tau_ext6,q0,q1,q2,q3,q4,q5,q6,q_d0,q_d1,q_d2,q_d3,q_d4,q_d5,q_d6,dq0,dq1,dq2,dq3,dq4,dq5,dq6,dq_d0,dq_d1,dq_d2,dq_d3,dq_d4,dq_d5,dq_d6,e0,e1,e2,e3,e4,e5,e6,de0,de1,de2,de3,de4,de5,de6,etau_J0,etau_J1,etau_J2,etau_J3,etau_J4,etau_J5,etau_J6,label
1,0.0,-0.6053096652030945,-46.32583236694336,-5.612087726593018,19.511445999145508,0.7308860421180725,2.4108920097351074,-0.18710653483867645,0.0,0.0,0.0,0.0,0.0,0.0,0.0,-0.6478966204888257,-0.003734011482157139,-0.4088381698765286,0.3471459207124938,0.13925601575484925,0.1426926938144951,-0.14661108444493678,0.8781379255451134,0.7553745298887554,-0.2826160560118696,-1.669119582757206,0.14142373381058376,2.403446541521287,1.0273468966421722,0.878092876070424,0.7554597494309409,-0.2825552651693207,-1.6690993614607135,0.1414185955172306,2.4034451173676383,1.0273381002308042,-0.0009287892616825869,6.953507594172657e-05,0.00044629823997124787,0.0009884767950677034,-0.0001251134529418134,-3.361280546768988e-05,0.005540784012087124,0.0,0.0,0.0,0.0,0.0,0.0,0.0,-4.504947468941811e-05,8.521954218543293e-05,6.079084254889677e-05,2.0221296492595187e-05,-5.138293353162959e-06,-1.4241536487880069e-06,-8.796411367972823e-06,0.0009287892616825869,-6.953507594172657e-05,-0.00044629823997124787,-0.0009884767950677034,0.0001251134529418134,3.361280546768988e-05,-0.005540784012087124,0.6053096652030945,46.32583236694336,5.612087726593018,-19.511445999145508,-0.7308860421180725,-2.4108920097351074,0.18710653483867645,0
2,0.004392862319946289,-0.5815059542655945,-46.34963607788086,-5.564480304718018,19.610628128051758,0.7308860421180725,2.4044833183288574,-0.15964071452617645,0.0,0.0,0.0,0.0,0.0,0.0,0.0,-0.6317395387869945,-0.009503064278640833,-0.39929672441254765,0.3494191976151236,0.13976645206420563,0.143520686882233,-0.14686385686588949,0.8781362289615482,0.7553762003246106,-0.2826193968956928,-1.669126517501773,0.14142373381058376,2.4034472535981073,1.027343844882316,0.878092876070424,0.7554597494309409,-0.2825552651693207,-1.6690993614607135,0.1414185955172306,2.4034451173676383,1.0273381002308042,-0.0009949524099616758,0.00039201807411175216,-0.00012414372063043044,-0.0019460709319942915,2.216729458744153e-05,0.0002660072619590482,0.004803152054304578,0.0,0.0,0.0,0.0,0.0,0.0,0.0,-4.335289112422647e-05,8.354910633023849e-05,6.413172637209641e-05,2.7156041059628322e-05,-5.138293353162959e-06,-2.136230468963163e-06,-5.744651511818688e-06,0.0009949524099616758,-0.00039201807411175216,0.00012414372063043044,0.0019460709319942915,-2.216729458744153e-05,-0.0002660072619590482,-0.004803152054304578,0.5815059542655945,46.34963607788086,5.564480304718018,-19.610628128051758,-0.7308860421180725,-2.4044833183288574,0.15964071452617645,0
3,0.009392499923706055,-0.5815059542655945,-46.34963607788086,-5.564480304718018,19.610628128051758,0.7308860421180725,2.4044833183288574,-0.15964071452617645,0.0,0.0,0.0,0.0,0.0,0.0,0.0,-0.6317395387869945,-0.009503064278640833,-0.39929672441254765,0.3494191976151236,0.13976645206420563,0.143520686882233,-0.14686385686588949,0.8781362289615482,0.7553762003246106,-0.2826193968956928,-1.669126517501773,0.14142373381058376,2.4034472535981073,1.027343844882316,0.878092876070424,0.7554597494309409,-0.2825552651693207,-1.6690993614607135,0.1414185955172306,2.4034451173676383,1.0273381002308042,-0.0009949524099616758,0.00039201807411175216,-0.00012414372063043044,-0.0019460709319942915,2.216729458744153e-05,0.0002660072619590482,0.004803152054304578,0.0,0.0,0.0,0.0,0.0,0.0,0.0,-4.335289112422647e-05,8.354910633023849e-05,6.413172637209641e-05,2.7156041059628322e-05,-5.138293353162959e-06,-2.136230468963163e-06,-5.744651511818688e-06,0.0009949524099616758,-0.00039201807411175216,0.00012414372063043044,0.0019460709319942915,-2.216729458744153e-05,-0.0002660072619590482,-0.004803152054304578,0.5815059542655945,46.34963607788086,5.564480304718018,-19.610628128051758,-0.7308860421180725,-2.4044833183288574,0.15964071452617645,0
4,0.014395713806152344,-0.5815059542655945,-46.34963607788086,-5.564480304718018,19.586824417114258,0.7253928780555725,2.4044833183288574,-0.15231649577617645,0.0,0.0,0.0,0.0,0.0,0.0,0.0,-0.6405346964375156,-0.004425246706186517,-0.40295229927850873,0.3466791543199294,0.1403588817530224,0.14369845570022063,-0.14801186973864916,0.8781355400755909,0.7553762003246106,-0.28261939689569304,-1.6691248725756784,0.14142434416214625,2.4034472535981073,1.0273430310802327,0.878092876070424,0.7554597494309409,-0.2825552651693207,-1.6690993614607135,0.1414185955172306,2.4034451173676383,1.0273381002308042,-0.001220527461690568,0.000587264249827819,-0.0004756270083159048,-0.0008162733406246708,-1.8784114133818568e-05,5.0822503531249806e-05,0.0004153983921782045,0.0,0.0,0.0,0.0,0.0,0.0,0.0,-4.2664005166948016e-05,8.354910633023849e-05,6.413172637231845e-05,2.5511114964960058e-05,-5.748644915648526e-06,-2.136230468963163e-06,-4.930849428541606e-06,0.001220527461690568,-0.000587264249827819,0.0004756270083159048,0.0008162733406246708,1.8784114133818568e-05,-5.0822503531249806e-05,-0.0004153983921782045,0.5815059542655945,46.34963607788086,5.564480304718018,-19.586824417114258,-0.7253928780555725,-2.4044833183288574,0.15231649577617645,0
5,0.019394874572753906,-0.5815059542655945,-46.34963607788086,-5.564480304718018,19.586824417114258,0.7253928780555725,2.4044833183288574,-0.15231649577617645,0.0,0.0,0.0,0.0,0.0,0.0,0.0,-0.6405346964375156,-0.004425246706186517,-0.40295229927850873,0.3466791543199294,0.1403588817530224,0.14369845570022063,-0.14801186973864916,0.8781355400755909,0.7553762003246106,-0.28261939689569304,-1.6691248725756784,0.14142434416214625,2.4034472535981073,1.0273430310802327,0.878092876070424,0.7554597494309409,-0.2825552651693207,-1.6690993614607135,0.1414185955172306,2.4034451173676383,1.0273381002308042,-0.001220527461690568,0.000587264249827819,-0.0004756270083159048,-0.0008162733406246708,-1.8784114133818568e-05,5.0822503531249806e-05,0.0004153983921782045,0.0,0.0,0.0,0.0,0.0,0.0,0.0,-4.2664005166948016e-05,8.354910633023849e-05,6.413172637231845e-05,2.5511114964960058e-05,-5.748644915648526e-06,-2.136230468963163e-06,-4.930849428541606e-06,0.001220527461690568,-0.000587264249827819,0.0004756270083159048,0.0008162733406246708,1.8784114133818568e-05,-5.0822503531249806e-05,-0.0004153983921782045,0.5815059542655945,46.34963607788086,5.564480304718018,-19.586824417114258,-0.7253928780555725,-2.4044833183288574,0.15231649577617645,0
6,0.0243985652923584,-0.5815059542655945,-46.34963607788086,-5.564480304718018,19.586824417114258,0.7253928780555725,2.4044833183288574,-0.15231649577617645,0.0,0.0,0.0,0.0,0.0,0.0,0.0,-0.6405346964375156,-0.004425246706186517,-0.40295229927850873,0.3466791543199294,0.1403588817530224,0.14369845570022063,-0.14801186973864916,0.8781355400755909,0.7553762003246106,-0.28261939689569304,-1.6691248725756784,0.14142434416214625,2.4034472535981073,1.0273430310802327,0.878092876070424,0.7554597494309409,-0.2825552651693207,-1.6690993614607135,0.1414185955172306,2.4034451173676383,1.0273381002308042,-0.001220527461690568,0.000587264249827819,-0.0004756270083159048,-0.0008162733406246708,-1.8784114133818568e-05,5.0822503531249806e-05,0.0004153983921782045,0.0,0.0,0.0,0.0,0.0,0.0,0.0,-4.2664005166948016e-05,8.354910633023849e-05,6.413172637231845e-05,2.5511114964960058e-05,-5.748644915648526e-06,-2.136230468963163e-06,-4.930849428541606e-06,0.001220527461690568,-0.000587264249827819,0.0004756270083159048,0.0008162733406246708,1.8784114133818568e-05,-5.0822503531249806e-05,-0.0004153983921782045,0.5815059542655945,46.34963607788086,5.564480304718018,-19.586824417114258,-0.7253928780555725,-2.4044833183288574,0.15231649577617645,0
7,0.029351472854614258,-0.5815059542655945,-46.34963607788086,-5.564480304718018,19.586824417114258,0.7253928780555725,2.4044833183288574,-0.15231649577617645,0.0,0.0,0.0,0.0,0.0,0.0,0.0,-0.6405346964375156,-0.004425246706186517,-0.40295229927850873,0.3466791543199294,0.1403588817530224,0.14369845570022063,-0.14801186973864916,0.8781355400755909,0.7553762003246106,-0.28261939689569304,-1.6691248725756784,0.14142434416214625,2.4034472535981073,1.0273430310802327,0.878092876070424,0.7554597494309409,-0.2825552651693207,-1.6690993614607135,0.1414185955172306,2.4034451173676383,1.0273381002308042,-0.001220527461690568,0.000587264249827819,-0.0004756270083159048,-0.0008162733406246708,-1.8784114133818568e-05,5.0822503531249806e-05,0.0004153983921782045,0.0,0.0,0.0,0.0,0.0,0.0,0.0,-4.2664005166948016e-05,8.354910633023849e-05,6.413172637231845e-05,2.5511114964960058e-05,-5.748644915648526e-06,-2.136230468963163e-06,-4.930849428541606e-06,0.001220527461690568,-0.000587264249827819,0.0004756270083159048,0.0008162733406246708,1.8784114133818568e-05,-5.0822503531249806e-05,-0.0004153983921782045,0.5815059542655945,46.34963607788086,5.564480304718018,-19.586824417114258,-0.7253928780555725,-2.4044833183288574,0.15231649577617645,0
8,0.0343477725982666,-0.6568843722343445,-46.32583236694336,-5.588284015655518,19.559053421020508,0.7253928780555725,2.4173007011413574,-0.16604940593242645,0.0,0.0,0.0,0.0,0.0,0.0,0.0,-0.6389557266597693,-0.010660201163273863,-0.4038972923684237,0.3513293051277842,0.1407196675533871,0.14395313993623904,-0.1487601470470849,0.8781415451620107,0.7553745298887554,-0.2826177264598378,-1.6691229237338954,0.14142434416214625,2.4034458294444616,1.027344556959139,0.878092876070424,0.7554597494309409,-0.2825552651693207,-1.6690993614607135,0.1414185955172306,2.4034451173676383,1.0273381002308042,0.0005730884865082527,0.00030279109382764325,0.00046333764041586777,0.0005068101767033517,-0.0001721492597183073,-0.00035888568043805245,0.0005821974240648685,0.0,0.0,0.0,0.0,0.0,0.0,0.0,-4.866909158673938e-05,8.521954218543293e-05,6.24612905170685e-05,2.356227318189852e-05,-5.748644915648526e-06,-7.120768232837804e-07,-6.456728334880424e-06,-0.0005730884865082527,-0.00030279109382764325,-0.00046333764041586777,-0.0005068101767033517,0.0001721492597183073,0.00035888568043805245,-0.0005821974240648685,0.6568843722343445,46.32583236694336,5.588284015655518,-19.559053421020508,-0.7253928780555725,-2.4173007011413574,0.16604940593242645,0
9,0.039399147033691406,-0.6568843722343445,-46.32583236694336,-5.588284015655518,19.559053421020508,0.7253928780555725,2.4173007011413574,-0.16604940593242645,0.0,0.0,0.0,0.0,0.0,0.0,0.0,-0.6389557266597693,-0.010660201163273863,-0.4038972923684237,0.3513293051277842,0.1407196675533871,0.14395313993623904,-0.1487601470470849,0.8781415451620107,0.7553745298887554,-0.2826177264598378,-1.6691229237338954,0.14142434416214625,2.4034458294444616,1.027344556959139,0.878092876070424,0.7554597494309409,-0.2825552651693207,-1.6690993614607135,0.1414185955172306,2.4034451173676383,1.0273381002308042,0.0005730884865082527,0.00030279109382764325,0.00046333764041586777,0.0005068101767033517,-0.0001721492597183073,-0.00035888568043805245,0.0005821974240648685,0.0,0.0,0.0,0.0,0.0,0.0,0.0,-4.866909158673938e-05,8.521954218543293e-05,6.24612905170685e-05,2.356227318189852e-05,-5.748644915648526e-06,-7.120768232837804e-07,-6.456728334880424e-06,-0.0005730884865082527,-0.00030279109382764325,-0.00046333764041586777,-0.0005068101767033517,0.0001721492597183073,0.00035888568043805245,-0.0005821974240648685,0.6568843722343445,46.32583236694336,5.588284015655518,-19.559053421020508,-0.7253928780555725,-2.4173007011413574,0.16604940593242645,0
10,0.04435873031616211,-0.6291133761405945,-46.27822494506836,-5.612087726593018,19.559053421020508,0.7253928780555725,2.4108920097351074,-0.11844198405742645,0.0,0.0,0.0,0.0,0.0,0.0,0.0,-0.6386900481174232,0.0017920574492412892,-0.4049050882412961,0.344438946102075,0.1402297030884005,0.14264681418439276,-0.14811989921351013,0.8781386334925348,0.7553711890170449,-0.28261605602398254,-1.6691229237338954,0.14142434416214625,2.4034497204356726,1.0273392672455972,0.878092876070424,0.7554597494309409,-0.2825552651693207,-1.6690993614607135,0.1414185955172306,2.4034451173676383,1.0273381002308042,-5.350430668705934e-05,-0.0009583812522470866,0.0007556274975674713,-0.00014854671357752657,-5.157978817831735e-08,-3.052631986720803e-05,-0.000963161351092423,0.0,0.0,0.0,0.0,0.0,0.0,0.0,-4.575742211088141e-05,8.856041389593283e-05,6.079085466181855e-05,2.356227318189852e-05,-5.748644915648526e-06,-4.603068034292335e-06,-1.1670147930242791e-06,5.350430668705934e-05,0.0009583812522470866,-0.0007556274975674713,0.00014854671357752657,5.157978817831735e-08,3.052631986720803e-05,0.000963161351092423,0.6291133761405945,46.27822494506836,5.612087726593018,-19.559053421020508,-0.7253928780555725,-2.4108920097351074,0.11844198405742645,0
11,0.049391746520996094,-0.6291133761405945,-46.27822494506836,-5.612087726593018,19.559053421020508,0.7253928780555725,2.4108920097351074,-0.11844198405742645,0.0,0.0,0.0,0.0,0.0,0.0,0.0,-0.6386900481174232,0.0017920574492412892,-0.4049050882412961,0.344438946102075,0.1402297030884005,0.14264681418439276,-0.14811989921351013,0.8781386334925348,0.7553711890170449,-0.28261605602398254,-1.6691229237338954,0.14142434416214625,2.4034497204356726,1.0273392672455972,0.878092876070424,0.7554597494309409,-0.2825552651693207,-1.6690993614607135,0.1414185955172306,2.4034451173676383,1.0273381002308042,-5.350430668705934e-05,-0.0009583812522470866,0.0007556274975674713,-0.00014854671357752657,-5.157978817831735e-08,-3.052631986720803e-05,-0.000963161351092423,0.0,0.0,0.0,0.0,0.0,0.0,0.0,-4.575742211088141e-05,8.856041389593283e-05,6.079085466181855e-05,2.356227318189852e-05,-5.748644915648526e-06,-4.603068034292335e-06,-1.1670147930242791e-06,5.350430668705934e-05,0.0009583812522470866,-0.0007556274975674713,0.00014854671357752657,5.157978817831735e-08,3.052631986720803e-05,0.000963161351092423,0.6291133761405945,46.27822494506836,5.612087726593018,-19.559053421020508,-0.7253928780555725,-2.4108920097351074,0.11844198405742645,0
12,0.054395437240600586,-0.6806880831718445,-46.32583236694336,-5.564480304718018,19.559053421020508,0.7308860421180725,2.4044833183288574,-0.17337362468242645,0.0,0.0,0.0,0.0,0.0,0.0,0.0,-0.6333528473949397,-0.005128556084957328,-0.40338090939640603,0.35056007028819447,0.14039511606831206,0.14357706544037158,-0.14723395292965197,0.8781432152694202,0.7553745298887554,-0.28261939689569304,-1.6691226601325582,0.14142373381058376,2.403447253616052,1.0273453707612223,0.878092876070424,0.7554597494309409,-0.2825552651693207,-1.6690993614607135,0.1414185955172306,2.4034451173676383,1.0273381002308042,0.001435051778249975,0.0003363370726620179,-0.00033064704314359335,3.2615085898839006e-06,-0.00015296834807091675,0.0003725863016222373,0.0009557039949332414,0.0,0.0,0.0,0.0,0.0,0.0,0.0,-5.033919899621875e-05,8.521954218543293e-05,6.413172637231845e-05,2.3298671844695917e-05,-5.138293353162959e-06,-2.1362484137199544e-06,-7.270530418157506e-06,-0.001435051778249975,-0.0003363370726620179,0.00033064704314359335,-3.2615085898839006e-06,0.00015296834807091675,-0.0003725863016222373,-0.0009557039949332414,0.6806880831718445,46.32583236694336,5.564480304718018,-19.559053421020508,-0.7308860421180725,-2.4044833183288574,0.17337362468242645,0
13,0.05934309959411621,-0.6806880831718445,-46.32583236694336,-5.564480304718018,19.559053421020508,0.7308860421180725,2.4044833183288574,-0.17337362468242645,0.0,0.0,0.0,0.0,0.0,0.0,0.0,-0.6333528473949397,-0.005128556084957328,-0.40338090939640603,0.35056007028819447,0.14039511606831206,0.14357706544037158,-0.14723395292965197,0.8781432152694202,0.7553745298887554,-0.28261939689569304,-1.6691226601325582,0.14142373381058376,2.403447253616052,1.0273453707612223,0.878092876070424,0.7554597494309409,-0.2825552651693207,-1.6690993614607135,0.1414185955172306,2.4034451173676383,1.0273381002308042,0.001435051778249975,0.0003363370726620179,-0.00033064704314359335,3.2615085898839006e-06,-0.00015296834807091675,0.0003725863016222373,0.0009557039949332414,0.0,0.0,0.0,0.0,0.0,0.0,0.0,-5.033919899621875e-05,8.521954218543293e-05,6.413172637231845e-05,2.3298671844695917e-05,-5.138293353162959e-06,-2.1362484137199544e-06,-7.270530418157506e-06,-0.001435051778249975,-0.0003363370726620179,0.00033064704314359335,-3.2615085898839006e-06,0.00015296834807091675,-0.0003725863016222373,-0.0009557039949332414,0.6806880831718445,46.32583236694336,5.564480304718018,-19.559053421020508,-0.7308860421180725,-2.4044833183288574,0.17337362468242645,0
14,0.06439661979675293,-0.6568843722343445,-46.30202865600586,-5.564480304718018,19.559053421020508,0.7253928780555725,2.4108920097351074,-0.14590780436992645,0.0,0.0,0.0,0.0,0.0,0.0,0.0,-0.6248137315058275,-0.010376330748763242,-0.3970816695263466,0.354165421607969,0.14037871634788668,0.1445532360284096,-0.1469621424879562,0.8781415186387551,0.7553728594529001,-0.28261939689569304,-1.6691229232775,0.14142434416214625,2.4034465429748346,1.0273423190034099,0.878092876070424,0.7554597494309409,-0.2825552651693207,-1.6690993614607135,0.1414185955172306,2.4034451173676383,1.0273381002308042,0.0008689611401193977,-0.0008222000462185015,-0.00012908621114483379,0.00020808427940785412,-0.00010193121786023326,-4.864395808316773e-05,-8.034255435678027e-05,0.0,0.0,0.0,0.0,0.0,0.0,0.0,-4.864256833114755e-05,8.688997804073839e-05,6.413172637231845e-05,2.3561816786532574e-05,-5.748644915648526e-06,-1.4256071962925887e-06,-4.218772605701915e-06,-0.0008689611401193977,0.0008222000462185015,0.00012908621114483379,-0.00020808427940785412,0.00010193121786023326,4.864395808316773e-05,8.034255435678027e-05,0.6568843722343445,46.30202865600586,5.564480304718018,-19.559053421020508,-0.7253928780555725,-2.4108920097351074,0.14590780436992645,0
15,0.06940150260925293,-0.6568843722343445,-46.30202865600586,-5.564480304718018,19.559053421020508,0.7253928780555725,2.4108920097351074,-0.14590780436992645,0.0,0.0,0.0,0.0,0.0,0.0,0.0,-0.6248137315058275,-0.010376330748763242,-0.3970816695263466,0.354165421607969,0.14037871634788668,0.1445532360284096,-0.1469621424879562,0.8781415186387551,0.7553728594529001,-0.28261939689569304,-1.6691229232775,0.14142434416214625,2.4034465429748346,1.0273423190034099,0.878092876070424,0.7554597494309409,-0.2825552651693207,-1.6690993614607135,0.1414185955172306,2.4034451173676383,1.0273381002308042,0.0008689611401193977,-0.0008222000462185015,-0.00012908621114483379,0.00020808427940785412,-0.00010193121786023326,-4.864395808316773e-05,-8.034255435678027e-05,0.0,0.0,0.0,0.0,0.0,0.0,0.0,-4.864256833114755e-05,8.688997804073839e-05,6.413172637231845e-05,2.3561816786532574e-05,-5.748644915648526e-06,-1.4256071962925887e-06,-4.218772605701915e-06,-0.0008689611401193977,0.0008222000462185015,0.00012908621114483379,-0.00020808427940785412,0.00010193121786023326,4.864395808316773e-05,8.034255435678027e-05,0.6568843722343445,46.30202865600586,5.564480304718018,-19.559053421020508,-0.7253928780555725,-2.4108920097351074,0.14590780436992645,0
16,0.07440519332885742,-0.6291133761405945,-46.32583236694336,-5.564480304718018,19.586824417114258,0.7308860421180725,2.4237093925476074,-0.15231649577617645,0.0,0.0,0.0,0.0,0.0,0.0,0.0,-0.6410322627729786,-0.008982630025232087,-0.40840218131467176,0.35206832280282063,0.14022805330589935,0.14477149044784013,-0.14742293175449123,0.8781395168512084,0.7553745298887554,-0.28261939689569304,-1.6691248469609383,0.14142373381058376,2.4034451173676463,1.0273430310802327,0.878092876070424,0.7554597494309409,-0.2825552651693207,-1.6690993614607135,0.1414185955172306,2.4034451173676383,1.0273381002308042,-0.0006587257911112523,-0.00045596212014849225,-0.000469297765923385,-0.00027823985345568823,-0.00034737002436277406,-0.0003730433456107319,-0.00010112086298935383,0.0,0.0,0.0,0.0,0.0,0.0,0.0,-4.6640780784423796e-05,8.521954218543293e-05,6.413172637231845e-05,2.5485500224853297e-05,-5.138293353162959e-06,-7.993605777301127e-15,-4.930849428541606e-06,0.0006587257911112523,0.00045596212014849225,0.000469297765923385,0.00027823985345568823,0.00034737002436277406,0.0003730433456107319,0.00010112086298935383,0.6291133761405945,46.32583236694336,5.564480304718018,-19.586824417114258,-0.7308860421180725,-2.4237093925476074,0.15231649577617645,0
17,0.0793905258178711,-0.6291133761405945,-46.32583236694336,-5.564480304718018,19.586824417114258,0.7308860421180725,2.4237093925476074,-0.15231649577617645,0.0,0.0,0.0,0.0,0.0,0.0,0.0,-0.6410322627729786,-0.008982630025232087,-0.40840218131467176,0.35206832280282063,0.14022805330589935,0.14477149044784013,-0.14742293175449123,0.8781395168512084,0.7553745298887554,-0.28261939689569304,-1.6691248469609383,0.14142373381058376,2.4034451173676463,1.0273430310802327,0.878092876070424,0.7554597494309409,-0.2825552651693207,-1.6690993614607135,0.1414185955172306,2.4034451173676383,1.0273381002308042,-0.0006587257911112523,-0.00045596212014849225,-0.000469297765923385,-0.00027823985345568823,-0.00034737002436277406,-0.0003730433456107319,-0.00010112086298935383,0.0,0.0,0.0,0.0,0.0,0.0,0.0,-4.6640780784423796e-05,8.521954218543293e-05,6.413172637231845e-05,2.5485500224853297e-05,-5.138293353162959e-06,-7.993605777301127e-15,-4.930849428541606e-06,0.0006587257911112523,0.00045596212014849225,0.000469297765923385,0.00027823985345568823,0.00034737002436277406,0.0003730433456107319,0.00010112086298935383,0.6291133761405945,46.32583236694336,5.564480304718018,-19.586824417114258,-0.7308860421180725,-2.4237093925476074,0.15231649577617645,0
18,0.08440208435058594,-0.6568843722343445,-46.32583236694336,-5.588284015655518,19.559053421020508,0.7308860421180725,2.4108920097351074,-0.14590780436992645,0.0,0.0,0.0,0.0,0.0,0.0,0.0,-0.6305307257760019,0.003267499322275416,-0.3978015775838397,0.3460517249224393,0.1397494615110734,0.1441391905382295,-0.14854574214632757,0.8781415186383084,0.7553745298887554,-0.2826177264598378,-1.6691229237337508,0.14142373381058376,2.4034465429748346,1.0273423190034099,0.878092876070424,0.7554597494309409,-0.2825552651693207,-1.6690993614607135,0.1414185955172306,2.4034451173676383,1.0273381002308042,0.0004809775395707353,2.8307629587449996e-05,0.00014638252417071966,-0.00021601900104180533,8.1017044342695e-06,-7.85813211413843e-06,0.00033187468926219085,0.0,0.0,0.0,0.0,0.0,0.0,0.0,-4.8642567884393806e-05,8.521954218543293e-05,6.24612905170685e-05,2.356227303734748e-05,-5.138293353162959e-06,-1.4256071962925887e-06,-4.218772605701915e-06,-0.0004809775395707353,-2.8307629587449996e-05,-0.00014638252417071966,0.00021601900104180533,-8.1017044342695e-06,7.85813211413843e-06,-0.00033187468926219085,0.6568843722343445,46.32583236694336,5.588284015655518,-19.559053421020508,-0.7308860421180725,-2.4108920097351074,0.14590780436992645,0
19,0.08940553665161133,-0.6568843722343445,-46.32583236694336,-5.588284015655518,19.559053421020508,0.7308860421180725,2.4108920097351074,-0.14590780436992645,0.0,0.0,0.0,0.0,0.0,0.0,0.0,-0.6305307257760019,0.003267499322275416,-0.3978015775838397,0.3460517249224393,0.1397494615110734,0.1441391905382295,-0.14854574214632757,0.8781415186383084,0.7553745298887554,-0.2826177264598378,-1.6691229237337508,0.14142373381058376,2.4034465429748346,1.0273423190034099,0.878092876070424,0.7554597494309409,-0.2825552651693207,-1.6690993614607135,0.1414185955172306,2.4034451173676383,1.0273381002308042,0.0004809775395707353,2.8307629587449996e-05,0.00014638252417071966,-0.00021601900104180533,8.1017044342695e-06,-7.85813211413843e-06,0.00033187468926219085,0.0,0.0,0.0,0.0,0.0,0.0,0.0,-4.8642567884393806e-05,8.521954218543293e-05,6.24612905170685e-05,2.356227303734748e-05,-5.138293353162959e-06,-1.4256071962925887e-06,-4.218772605701915e-06,-0.0004809775395707353,-2.8307629587449996e-05,-0.00014638252417071966,0.00021601900104180533,-8.1017044342695e-06,7.85813211413843e-06,-0.00033187468926219085,0.6568843722343445,46.32583236694336,5.588284015655518,-19.559053421020508,-0.7308860421180725,-2.4108920097351074,0.14590780436992645,0
20,0.09439229965209961,-0.6568843722343445,-46.34963607788086,-5.588284015655518,19.511445999145508,0.7308860421180725,2.4173007011413574,-0.11844198405742645,0.0,0.0,0.0,0.0,0.0,0.0,0.0,-0.6317614250570214,0.0036526495129359238,-0.39953178930477046,0.3460651581449125,0.14020095021385154,0.1441899629939797,-0.1489001271078274,0.8781391576976071,0.7553762003246106,-0.2826177264598378,-1.6691194978294954,0.14142373381058376,2.4034468890825935,1.0273392672455972,0.878092876070424,0.7554597494309409,-0.2825552651693207,-1.6690993614607135,0.1414185955172306,2.4034451173676383,1.0273381002308042,0.00035207167881067723,0.0008335863195132136,3.101081116246228e-05,0.0008435552434750235,-0.0003361392549546143,-0.0002884991043250096,-0.0013695705892635334,0.0,0.0,0.0,0.0,0.0,0.0,0.0,-4.628162718312012e-05,8.354910633023849e-05,6.24612905170685e-05,2.013636878195335e-05,-5.138293353162959e-06,-1.771714955189907e-06,-1.1670147930242791e-06,-0.00035207167881067723,-0.0008335863195132136,-3.101081116246228e-05,-0.0008435552434750235,0.0003361392549546143,0.0002884991043250096,0.0013695705892635334,0.6568843722343445,46.34963607788086,5.588284015655518,-19.511445999145508,-0.7308860421180725,-2.4173007011413574,0.11844198405742645,0
21,0.09962296485900879,-0.6568843722343445,-46.34963607788086,-5.588284015655518,19.511445999145508,0.7308860421180725,2.4173007011413574,-0.11844198405742645,0.0,0.0,0.0,0.0,0.0,0.0,0.0,-0.6317614250570214,0.0036526495129359238,-0.39953178930477046,0.3460651581449125,0.14020095021385154,0.1441899629939797,-0.1489001271078274,0.8781391576976071,0.7553762003246106,-0.2826177264598378,-1.6691194978294954,0.14142373381058376,2.4034468890825935,1.0273392672455972,0.878092876070424,0.7554597494309409,-0.2825552651693207,-1.6690993614607135,0.1414185955172306,2.4034451173676383,1.0273381002308042,0.00035207167881067723,0.0008335863195132136,3.101081116246228e-05,0.0008435552434750235,-0.0003361392549546143,-0.0002884991043250096,-0.0013695705892635334,0.0,0.0,0.0,0.0,0.0,0.0,0.0,-4.628162718312012e-05,8.354910633023849e-05,6.24612905170685e-05,2.013636878195335e-05,-5.138293353162959e-06,-1.771714955189907e-06,-1.1670147930242791e-06,-0.00035207167881067723,-0.0008335863195132136,-3.101081116246228e-05,-0.0008435552434750235,0.0003361392549546143,0.0002884991043250096,0.0013695705892635334,0.6568843722343445,46.34963607788086,5.588284015655518,-19.511445999145508,-0.7308860421180725,-2.4173007011413574,0.11844198405742645,0
22,0.10440444946289062,-0.5815059542655945,-46.32583236694336,-5.588284015655518,19.535249710083008,0.7189841866493225,2.4237093925476074,-0.15964071452617645,0.0,0.0,0.0,0.0,0.0,0.0,0.0,-0.6246492806205222,-0.010886894546057374,-0.39729307773085126,0.3546474449660336,0.14022425870458533,0.14510612591287864,-0.14900442751674428,0.8781362524955907,0.7553745298887554,-0.2826177264598378,-1.6691212520378165,0.14142505623896917,2.4034454705863295,1.027343844882316,0.878092876070424,0.7554597494309409,-0.2825552651693207,-1.6690993614607135,0.1414185955172306,2.4034451173676383,1.0273381002308042,-0.000915563501556553,-0.00016728215964190363,0.0004220245913341087,0.000725091027998372,0.00019276308509622207,-0.0003700158965657836,0.00024881673681341953,0.0,0.0,0.0,0.0,0.0,0.0,0.0,-4.3376425166719024e-05,8.521954218543293e-05,6.24612905170685e-05,2.1890577103000908e-05,-6.460721738571484e-06,-3.5321869118476457e-07,-5.744651511818688e-06,0.000915563501556553,0.00016728215964190363,-0.0004220245913341087,-0.000725091027998372,-0.00019276308509622207,0.0003700158965657836,-0.00024881673681341953,0.5815059542655945,46.32583236694336,5.588284015655518,-19.535249710083008,-0.7189841866493225,-2.4237093925476074,0.15964071452617645,0
23,0.10941147804260254,-0.5815059542655945,-46.32583236694336,-5.588284015655518,19.535249710083008,0.7189841866493225,2.4237093925476074,-0.15964071452617645,0.0,0.0,0.0,0.0,0.0,0.0,0.0,-0.6246492806205222,-0.010886894546057374,-0.39729307773085126,0.3546474449660336,0.14022425870458533,0.14510612591287864,-0.14900442751674428,0.8781362524955907,0.7553745298887554,-0.2826177264598378,-1.6691212520378165,0.14142505623896917,2.4034454705863295,1.027343844882316,0.878092876070424,0.7554597494309409,-0.2825552651693207,-1.6690993614607135,0.1414185955172306,2.4034451173676383,1.0273381002308042,-0.000915563501556553,-0.00016728215964190363,0.0004220245913341087,0.000725091027998372,0.00019276308509622207,-0.0003700158965657836,0.00024881673681341953,0.0,0.0,0.0,0.0,0.0,0.0,0.0,-4.3376425166719024e-05,8.521954218543293e-05,6.24612905170685e-05,2.1890577103000908e-05,-6.460721738571484e-06,-3.5321869118476457e-07,-5.744651511818688e-06,0.000915563501556553,0.00016728215964190363,-0.0004220245913341087,-0.000725091027998372,-0.00019276308509622207,0.0003700158965657836,-0.00024881673681341953,0.5815059542655945,46.32583236694336,5.588284015655518,-19.535249710083008,-0.7189841866493225,-2.4237093925476074,0.15964071452617645,0
24,0.11440467834472656,-0.6053096652030945,-46.34963607788086,-5.588284015655518,19.559053421020508,0.7308860421180725,2.4044833183288574,-0.16604940593242645,0.0,0.0,0.0,0.0,0.0,0.0,0.0,-0.6314909298870309,-0.007315063858325522,-0.4014049997614226,0.35204625074263707,0.1404422534417772,0.14476483803763412,-0.14889591864142682,0.8781371840326391,0.7553762003246106,-0.2826177264598378,-1.6691229237338883,0.14142373381058376,2.40344726716657,1.027344556959139,0.878092876070424,0.7554597494309409,-0.2825552651693207,-1.6690993614607135,0.1414185955172306,2.4034451173676383,1.0273381002308042,-0.00021395745315246713,0.00022865893603424642,0.000592771143510383,-8.345266004542688e-05,-0.00019621114663747965,0.00033513720366289455,0.0005526725884856539,0.0,0.0,0.0,0.0,0.0,0.0,0.0,-4.430796221510658e-05,8.354910633023849e-05,6.24612905170685e-05,2.356227317479309e-05,-5.138293353162959e-06,-2.1497989317609267e-06,-6.456728334880424e-06,0.00021395745315246713,-0.00022865893603424642,-0.000592771143510383,8.345266004542688e-05,0.00019621114663747965,-0.00033513720366289455,-0.0005526725884856539,0.6053096652030945,46.34963607788086,5.588284015655518,-19.559053421020508,-0.7308860421180725,-2.4044833183288574,0.16604940593242645,0
25,0.11939501762390137,-0.6053096652030945,-46.34963607788086,-5.588284015655518,19.559053421020508,0.7308860421180725,2.4044833183288574,-0.16604940593242645,0.0,0.0,0.0,0.0,0.0,0.0,0.0,-0.6314909298870309,-0.007315063858325522,-0.4014049997614226,0.35204625074263707,0.1404422534417772,0.14476483803763412,-0.14889591864142682,0.8781371840326391,0.7553762003246106,-0.2826177264598378,-1.6691229237338883,0.14142373381058376,2.40344726716657,1.027344556959139,0.878092876070424,0.7554597494309409,-0.2825552651693207,-1.6690993614607135,0.1414185955172306,2.4034451173676383,1.0273381002308042,-0.00021395745315246713,0.00022865893603424642,0.000592771143510383,-8.345266004542688e-05,-0.00019621114663747965,0.00033513720366289455,0.0005526725884856539,0.0,0.0,0.0,0.0,0.0,0.0,0.0,-4.430796221510658e-05,8.354910633023849e-05,6.24612905170685e-05,2.356227317479309e-05,-5.138293353162959e-06,-2.1497989317609267e-06,-6.456728334880424e-06,0.00021395745315246713,-0.00022865893603424642,-0.000592771143510383,8.345266004542688e-05,0.00019621114663747965,-0.00033513720366289455,-0.0005526725884856539,0.6053096652030945,46.34963607788086,5.588284015655518,-19.559053421020508,-0.7308860421180725,-2.4044833183288574,0.16604940593242645,0
26,0.12439203262329102,-0.6291133761405945,-46.37740707397461,-5.536709308624268,19.559053421020508,0.7134910225868225,2.4108920097351074,-0.13217489421367645,0.0,0.0,0.0,0.0,0.0,0.0,0.0,-0.6363507482263862,-0.004647066827523905,-0.4020538487431717,0.3505256847451086,0.14022769679160532,0.1447500404497877,-0.1483093804441328,0.8781388544643232,0.7553781491664417,-0.28262142447452404,-1.6691222349691113,0.14142566675304666,2.403446541521361,1.0273407931245035,0.878092876070424,0.7554597494309409,-0.2825552651693207,-1.6690993614607135,0.1414185955172306,2.4034451173676383,1.0273381002308042,-6.973846935934625e-05,0.0012435631196915078,-0.0006032569186915285,4.660783327987258e-05,0.00042808755813832696,6.253794953765766e-05,-0.00018903143511568023,0.0,0.0,0.0,0.0,0.0,0.0,0.0,-4.5978393899193115e-05,8.160026449910429e-05,6.615930520331714e-05,2.2873508397802667e-05,-7.071235816058508e-06,-1.4241537225068157e-06,-2.692893699363097e-06,6.973846935934625e-05,-0.0012435631196915078,0.0006032569186915285,-4.660783327987258e-05,-0.00042808755813832696,-6.253794953765766e-05,0.00018903143511568023,0.6291133761405945,46.37740707397461,5.536709308624268,-19.559053421020508,-0.7134910225868225,-2.4108920097351074,0.13217489421367645,0
27,0.12939143180847168,-0.6291133761405945,-46.37740707397461,-5.536709308624268,19.559053421020508,0.7134910225868225,2.4108920097351074,-0.13217489421367645,0.0,0.0,0.0,0.0,0.0,0.0,0.0,-0.6363507482263862,-0.004647066827523905,-0.4020538487431717,0.3505256847451086,0.14022769679160532,0.1447500404497877,-0.1483093804441328,0.8781388544643232,0.7553781491664417,-0.28262142447452404,-1.6691222349691113,0.14142566675304666,2.403446541521361,1.0273407931245035,0.878092876070424,0.7554597494309409,-0.2825552651693207,-1.6690993614607135,0.1414185955172306,2.4034451173676383,1.0273381002308042,-6.973846935934625e-05,0.0012435631196915078,-0.0006032569186915285,4.660783327987258e-05,0.00042808755813832696,6.253794953765766e-05,-0.00018903143511568023,0.0,0.0,0.0,0.0,0.0,0.0,0.0,-4.5978393899193115e-05,8.160026449910429e-05,6.615930520331714e-05,2.2873508397802667e-05,-7.071235816058508e-06,-1.4241537225068157e-06,-2.692893699363097e-06,6.973846935934625e-05,-0.0012435631196915078,0.0006032569186915285,-4.660783327987258e-05,-0.00042808755813832696,-6.253794953765766e-05,0.00018903143511568023,0.6291133761405945,46.37740707397461,5.536709308624268,-19.559053421020508,-0.7134910225868225,-2.4108920097351074,0.13217489421367645,0
28,0.13435864448547363,-0.6291133761405945,-46.37740707397461,-5.536709308624268,19.559053421020508,0.7134910225868225,2.4108920097351074,-0.13217489421367645,0.0,0.0,0.0,0.0,0.0,0.0,0.0,-0.6363507482263862,-0.004647066827523905,-0.4020538487431717,0.3505256847451086,0.14022769679160532,0.1447500404497877,-0.1483093804441328,0.8781388544643232,0.7553781491664417,-0.28262142447452404,-1.6691222349691113,0.14142566675304666,2.403446541521361,1.0273407931245035,0.878092876070424,0.7554597494309409,-0.2825552651693207,-1.6690993614607135,0.1414185955172306,2.4034451173676383,1.0273381002308042,-6.973846935934625e-05,0.0012435631196915078,-0.0006032569186915285,4.660783327987258e-05,0.00042808755813832696,6.253794953765766e-05,-0.00018903143511568023,0.0,0.0,0.0,0.0,0.0,0.0,0.0,-4.5978393899193115e-05,8.160026449910429e-05,6.615930520331714e-05,2.2873508397802667e-05,-7.071235816058508e-06,-1.4241537225068157e-06,-2.692893699363097e-06,6.973846935934625e-05,-0.0012435631196915078,0.0006032569186915285,-4.660783327987258e-05,-0.00042808755813832696,-6.253794953765766e-05,0.00018903143511568023,0.6291133761405945,46.37740707397461,5.536709308624268,-19.559053421020508,-0.7134910225868225,-2.4108920097351074,0.13217489421367645,0
29,0.13939619064331055,-0.6291133761405945,-46.37740707397461,-5.536709308624268,19.559053421020508,0.7134910225868225,2.4108920097351074,-0.13217489421367645,0.0,0.0,0.0,0.0,0.0,0.0,0.0,-0.6363507482263862,-0.004647066827523905,-0.4020538487431717,0.3505256847451086,0.14022769679160532,0.1447500404497877,-0.1483093804441328,0.8781388544643232,0.7553781491664417,-0.28262142447452404,-1.6691222349691113,0.14142566675304666,2.403446541521361,1.0273407931245035,0.878092876070424,0.7554597494309409,-0.2825552651693207,-1.6690993614607135,0.1414185955172306,2.4034451173676383,1.0273381002308042,-6.973846935934625e-05,0.0012435631196915078,-0.0006032569186915285,4.660783327987258e-05,0.00042808755813832696,6.253794953765766e-05,-0.00018903143511568023,0.0,0.0,0.0,0.0,0.0,0.0,0.0,-4.5978393899193115e-05,8.160026449910429e-05,6.615930520331714e-05,2.2873508397802667e-05,-7.071235816058508e-06,-1.4241537225068157e-06,-2.692893699363097e-06,6.973846935934625e-05,-0.0012435631196915078,0.0006032569186915285,-4.660783327987258e-05,-0.00042808755813832696,-6.253794953765766e-05,0.00018903143511568023,0.6291133761405945,46.37740707397461,5.536709308624268,-19.559053421020508,-0.7134910225868225,-2.4108920097351074,0.13217489421367645,0
30,0.14438223838806152,-0.6806880831718445,-46.34963607788086,-5.536709308624268,19.535249710083008,0.7134910225868225,2.4044833183288574,-0.15964071452617645,0.0,0.0,0.0,0.0,0.0,0.0,0.0,-0.628990296557151,-0.006740488490745719,-0.39390496210444476,0.35261283918973463,0.13941313808721886,0.14480460527064237,-0.14786666772712667,0.8781421814693939,0.7553762003246106,-0.28262134573796865,-1.6691203349411063,0.14142566659053257,2.4034472535981073,1.027343844882316,0.878092876070424,0.7554597494309409,-0.2825552651693207,-1.6690993614607135,0.1414185955172306,2.4034451173676383,1.0273381002308042,0.0012603415321358012,0.00030210719533903875,-0.000758560544605907,0.0004121057437121315,0.00037854413025919506,0.00016083949379832967,0.0003606402694428201,0.0,0.0,0.0,0.0,0.0,0.0,0.0,-4.930539896996766e-05,8.354910633023849e-05,6.608056864793044e-05,2.0973480392871835e-05,-7.0710733019729854e-06,-2.136230468963163e-06,-5.744651511818688e-06,-0.0012603415321358012,-0.00030210719533903875,0.000758560544605907,-0.0004121057437121315,-0.00037854413025919506,-0.00016083949379832967,-0.0003606402694428201,0.6806880831718445,46.34963607788086,5.536709308624268,-19.535249710083008,-0.7134910225868225,-2.4044833183288574,0.15964071452617645,0
31,0.1493515968322754,-0.6806880831718445,-46.34963607788086,-5.536709308624268,19.535249710083008,0.7134910225868225,2.4044833183288574,-0.15964071452617645,0.0,0.0,0.0,0.0,0.0,0.0,0.0,-0.628990296557151,-0.006740488490745719,-0.39390496210444476,0.35261283918973463,0.13941313808721886,0.14480460527064237,-0.14786666772712667,0.8781421814693939,0.7553762003246106,-0.28262134573796865,-1.6691203349411063,0.14142566659053257,2.4034472535981073,1.027343844882316,0.878092876070424,0.7554597494309409,-0.2825552651693207,-1.6690993614607135,0.1414185955172306,2.4034451173676383,1.0273381002308042,0.0012603415321358012,0.00030210719533903875,-0.000758560544605907,0.0004121057437121315,0.00037854413025919506,0.00016083949379832967,0.0003606402694428201,0.0,0.0,0.0,0.0,0.0,0.0,0.0,-4.930539896996766e-05,8.354910633023849e-05,6.608056864793044e-05,2.0973480392871835e-05,-7.0710733019729854e-06,-2.136230468963163e-06,-5.744651511818688e-06,-0.0012603415321358012,-0.00030210719533903875,0.000758560544605907,-0.0004121057437121315,-0.00037854413025919506,-0.00016083949379832967,-0.0003606402694428201,0.6806880831718445,46.34963607788086,5.536709308624268,-19.535249710083008,-0.7134910225868225,-2.4044833183288574,0.15964071452617645,0
32,0.1543893814086914,-0.6291133761405945,-46.32583236694336,-5.536709308624268,19.535249710083008,0.7134910225868225,2.4108920097351074,-0.12485067546367645,0.0,0.0,0.0,0.0,0.0,0.0,0.0,-0.6271074172953911,0.00021519398220716773,-0.3909178950658829,0.34682994698529385,0.13846001985857365,0.14418968888345052,-0.14714064989178707,0.8781395698274268,0.7553745298887554,-0.2826213457375242,-1.6691212532928559,0.14142246634529376,2.4034465415212845,1.0273399793224203,0.878092876070424,0.7554597494309409,-0.2825552651693207,-1.6690993614607135,0.1414185955172306,2.4034451173676383,1.0273381002308042,0.0001886171984304446,0.00010000523020244646,-0.0008294031215056639,-1.4981343843241014e-05,0.0004178220348064861,-2.522925269034441e-05,-0.0007441329404704843,0.0,0.0,0.0,0.0,0.0,0.0,0.0,-4.6693757002835845e-05,8.521954218543293e-05,6.608056820345265e-05,2.1891832142406642e-05,-3.870828063162746e-06,-1.4241536461234716e-06,-1.879091616086015e-06,-0.0001886171984304446,-0.00010000523020244646,0.0008294031215056639,1.4981343843241014e-05,-0.0004178220348064861,2.522925269034441e-05,0.0007441329404704843,0.6291133761405945,46.32583236694336,5.536709308624268,-19.535249710083008,-0.7134910225868225,-2.4108920097351074,0.12485067546367645,0
33,0.15941190719604492,-0.6291133761405945,-46.32583236694336,-5.536709308624268,19.535249710083008,0.7134910225868225,2.4108920097351074,-0.12485067546367645,0.0,0.0,0.0,0.0,0.0,0.0,0.0,-0.6271074172953911,0.00021519398220716773,-0.3909178950658829,0.34682994698529385,0.13846001985857365,0.14418968888345052,-0.14714064989178707,0.8781395698274268,0.7553745298887554,-0.2826213457375242,-1.6691212532928559,0.14142246634529376,2.4034465415212845,1.0273399793224203,0.878092876070424,0.7554597494309409,-0.2825552651693207,-1.6690993614607135,0.1414185955172306,2.4034451173676383,1.0273381002308042,0.0001886171984304446,0.00010000523020244646,-0.0008294031215056639,-1.4981343843241014e-05,0.0004178220348064861,-2.522925269034441e-05,-0.0007441329404704843,0.0,0.0,0.0,0.0,0.0,0.0,0.0,-4.6693757002835845e-05,8.521954218543293e-05,6.608056820345265e-05,2.1891832142406642e-05,-3.870828063162746e-06,-1.4241536461234716e-06,-1.879091616086015e-06,-0.0001886171984304446,-0.00010000523020244646,0.0008294031215056639,1.4981343843241014e-05,-0.0004178220348064861,2.522925269034441e-05,0.0007441329404704843,0.6291133761405945,46.32583236694336,5.536709308624268,-19.535249710083008,-0.7134910225868225,-2.4108920097351074,0.12485067546367645,0
34,0.16443133354187012,-0.6053096652030945,-46.32583236694336,-5.536709308624268,19.586824417114258,0.7189841866493225,2.3980746269226074,-0.11111776530742645,0.0,0.0,0.0,0.0,0.0,0.0,0.0,-0.6259589484692182,-0.015404224718960656,-0.3931939524850829,0.352724789716208,0.13754326992849183,0.1457454669277364,-0.1473283860500105,0.8781379249070665,0.7553745298887554,-0.2826213457375242,-1.6691248640724574,0.1414250562209037,2.40344796567493,1.0273384532820085,0.878092876070424,0.7554597494309409,-0.2825552651693207,-1.6690993614607135,0.1414185955172306,2.4034451173676383,1.0273381002308042,-0.0005034848725414559,-0.00040020785580318285,-0.0005198731872085527,-0.0007254884481546408,0.0007258712988371625,0.000387600804689341,-0.0016491017081702757,0.0,0.0,0.0,0.0,0.0,0.0,0.0,-4.5048836642580525e-05,8.521954218543293e-05,6.608056820345265e-05,2.550261174394386e-05,-6.460703673105694e-06,-2.848307291802854e-06,-3.5305120427153724e-07,0.0005034848725414559,0.00040020785580318285,0.0005198731872085527,0.0007254884481546408,-0.0007258712988371625,-0.000387600804689341,0.0016491017081702757,0.6053096652030945,46.32583236694336,5.536709308624268,-19.586824417114258,-0.7189841866493225,-2.3980746269226074,0.11111776530742645,0
35,0.1694025993347168,-0.6053096652030945,-46.32583236694336,-5.536709308624268,19.586824417114258,0.7189841866493225,2.3980746269226074,-0.11111776530742645,0.0,0.0,0.0,0.0,0.0,0.0,0.0,-0.6259589484692182,-0.015404224718960656,-0.3931939524850829,0.352724789716208,0.13754326992849183,0.1457454669277364,-0.1473283860500105,0.8781379249070665,0.7553745298887554,-0.2826213457375242,-1.6691248640724574,0.1414250562209037,2.40344796567493,1.0273384532820085,0.878092876070424,0.7554597494309409,-0.2825552651693207,-1.6690993614607135,0.1414185955172306,2.4034451173676383,1.0273381002308042,-0.0005034848725414559,-0.00040020785580318285,-0.0005198731872085527,-0.0007254884481546408,0.0007258712988371625,0.000387600804689341,-0.0016491017081702757,0.0,0.0,0.0,0.0,0.0,0.0,0.0,-4.5048836642580525e-05,8.521954218543293e-05,6.608056820345265e-05,2.550261174394386e-05,-6.460703673105694e-06,-2.848307291802854e-06,-3.5305120427153724e-07,0.0005034848725414559,0.00040020785580318285,0.0005198731872085527,0.0007254884481546408,-0.0007258712988371625,-0.000387600804689341,0.0016491017081702757,0.6053096652030945,46.32583236694336,5.536709308624268,-19.586824417114258,-0.7189841866493225,-2.3980746269226074,0.11111776530742645,0
36,0.1744239330291748,-0.6291133761405945,-46.40121078491211,-5.564480304718018,19.535249710083008,0.7308860421180725,2.4237093925476074,-0.16604940593242645,0.0,0.0,0.0,0.0,0.0,0.0,0.0,-0.6301399331703738,-0.0041222619519453866,-0.39464270633324555,0.34841016777491174,0.13771368454031063,0.14452447491753398,-0.14734472443511315,0.8781388722381572,0.755379819602297,-0.28261939689569304,-1.6691205389184225,0.14142373375641198,2.403445121728289,1.0273445569591382,0.878092876070424,0.7554597494309409,-0.2825552651693207,-1.6690993614607135,0.1414185955172306,2.4034451173676383,1.0273381002308042,-2.291991417584681e-05,0.0016596467619107477,-0.00010345007700829867,0.0005459037030844804,-0.0002236561137591978,-0.0002763548961318518,0.000685500438870746,0.0,0.0,0.0,0.0,0.0,0.0,0.0,-4.5996167733264315e-05,7.992982864379883e-05,6.413172637231845e-05,2.1177457709020686e-05,-5.138239181384785e-06,-4.360650507351238e-09,-6.4567283339922454e-06,2.291991417584681e-05,-0.0016596467619107477,0.00010345007700829867,-0.0005459037030844804,0.0002236561137591978,0.0002763548961318518,-0.000685500438870746,0.6291133761405945,46.40121078491211,5.564480304718018,-19.535249710083008,-0.7308860421180725,-2.4237093925476074,0.16604940593242645,0
37,0.17939209938049316,-0.6291133761405945,-46.40121078491211,-5.564480304718018,19.535249710083008,0.7308860421180725,2.4237093925476074,-0.16604940593242645,0.0,0.0,0.0,0.0,0.0,0.0,0.0,-0.6301399331703738,-0.0041222619519453866,-0.39464270633324555,0.34841016777491174,0.13771368454031063,0.14452447491753398,-0.14734472443511315,0.8781388722381572,0.755379819602297,-0.28261939689569304,-1.6691205389184225,0.14142373375641198,2.403445121728289,1.0273445569591382,0.878092876070424,0.7554597494309409,-0.2825552651693207,-1.6690993614607135,0.1414185955172306,2.4034451173676383,1.0273381002308042,-2.291991417584681e-05,0.0016596467619107477,-0.00010345007700829867,0.0005459037030844804,-0.0002236561137591978,-0.0002763548961318518,0.000685500438870746,0.0,0.0,0.0,0.0,0.0,0.0,0.0,-4.5996167733264315e-05,7.992982864379883e-05,6.413172637231845e-05,2.1177457709020686e-05,-5.138239181384785e-06,-4.360650507351238e-09,-6.4567283339922454e-06,2.291991417584681e-05,-0.0016596467619107477,0.00010345007700829867,-0.0005459037030844804,0.0002236561137591978,0.0002763548961318518,-0.000685500438870746,0.6291133761405945,46.40121078491211,5.564480304718018,-19.535249710083008,-0.7308860421180725,-2.4237093925476074,0.16604940593242645,0
38,0.18440890312194824,-0.6291133761405945,-46.32583236694336,-5.588284015655518,19.586824417114258,0.7189841866493225,2.4237093925476074,-0.13217489421367645,0.0,0.0,0.0,0.0,0.0,0.0,0.0,-0.6382893206483107,-0.01073494593966357,-0.40147128959571765,0.35147695584956756,0.13957398042106403,0.14555531356125542,-0.14837429947715397,0.8781395657592364,0.7553745298887554,-0.2826177264598378,-1.6691248640684249,0.14142505623896887,2.4034451173676628,1.0273407931245035,0.878092876070424,0.7554597494309409,-0.2825552651693207,-1.6690993614607135,0.1414185955172306,2.4034451173676383,1.0273381002308042,-0.0004741792228605171,0.00012251112943749204,-1.3374332929258912e-06,-0.00044956567505394007,-0.0012487269746692844,-0.0004530711143539859,-0.0004922615820985125,0.0,0.0,0.0,0.0,0.0,0.0,0.0,-4.6689688812384667e-05,8.521954218543293e-05,6.24612905170685e-05,2.550260771139179e-05,-6.460721738266173e-06,-2.4424906541753444e-14,-2.692893699363097e-06,0.0004741792228605171,-0.00012251112943749204,1.3374332929258912e-06,0.00044956567505394007,0.0012487269746692844,0.0004530711143539859,0.0004922615820985125,0.6291133761405945,46.32583236694336,5.588284015655518,-19.586824417114258,-0.7189841866493225,-2.4237093925476074,0.13217489421367645,0
39,0.18939614295959473,-0.6291133761405945,-46.32583236694336,-5.588284015655518,19.586824417114258,0.7189841866493225,2.4237093925476074,-0.13217489421367645,0.0,0.0,0.0,0.0,0.0,0.0,0.0,-0.6382893206483107,-0.01073494593966357,-0.40147128959571765,0.35147695584956756,0.13957398042106403,0.14555531356125542,-0.14837429947715397,0.8781395657592364,0.7553745298887554,-0.2826177264598378,-1.6691248640684249,0.14142505623896887,2.4034451173676628,1.0273407931245035,0.878092876070424,0.7554597494309409,-0.2825552651693207,-1.6690993614607135,0.1414185955172306,2.4034451173676383,1.0273381002308042,-0.0004741792228605171,0.00012251112943749204,-1.3374332929258912e-06,-0.00044956567505394007,-0.0012487269746692844,-0.0004530711143539859,-0.0004922615820985125,0.0,0.0,0.0,0.0,0.0,0.0,0.0,-4.6689688812384667e-05,8.521954218543293e-05,6.24612905170685e-05,2.550260771139179e-05,-6.460721738266173e-06,-2.4424906541753444e-14,-2.692893699363097e-06,0.0004741792228605171,-0.00012251112943749204,1.3374332929258912e-06,0.00044956567505394007,0.0012487269746692844,0.0004530711143539859,0.0004922615820985125,0.6291133761405945,46.32583236694336,5.588284015655518,-19.586824417114258,-0.7189841866493225,-2.4237093925476074,0.13217489421367645,0
40,0.19439291954040527,-0.5815059542655945,-46.32583236694336,-5.564480304718018,19.586824417114258,0.7189841866493225,2.4173007011413574,-0.15964071452617645,0.0,0.0,0.0,0.0,0.0,0.0,0.0,-0.6274532094262456,-0.007704434817192795,-0.3930849572836561,0.3494165150340354,0.13891154384905635,0.14558524841563308,-0.1478804866281239,0.878136227980235,0.7553745298887554,-0.28261939689569304,-1.6691248470658715,0.14142505623896917,2.4034458294444616,1.027343844882316,0.878092876070424,0.7554597494309409,-0.2825552651693207,-1.6690993614607135,0.1414185955172306,2.4034451173676383,1.0273381002308042,-0.0016162359654229793,-0.00024659311552658713,0.00011484250295883641,-0.0007159894393497407,0.0004225400867305925,-0.000248907825538013,0.0006210166534826876,0.0,0.0,0.0,0.0,0.0,0.0,0.0,-4.335190981108461e-05,8.521954218543293e-05,6.413172637231845e-05,2.548560515802656e-05,-6.460721738571484e-06,-7.120768232837804e-07,-5.744651511818688e-06,0.0016162359654229793,0.00024659311552658713,-0.00011484250295883641,0.0007159894393497407,-0.0004225400867305925,0.000248907825538013,-0.0006210166534826876,0.5815059542655945,46.32583236694336,5.564480304718018,-19.586824417114258,-0.7189841866493225,-2.4173007011413574,0.15964071452617645,0
41,0.19939064979553223,-0.5815059542655945,-46.32583236694336,-5.564480304718018,19.586824417114258,0.7189841866493225,2.4173007011413574,-0.15964071452617645,0.0,0.0,0.0,0.0,0.0,0.0,0.0,-0.6274532094262456,-0.007704434817192795,-0.3930849572836561,0.3494165150340354,0.13891154384905635,0.14558524841563308,-0.1478804866281239,0.878136227980235,0.7553745298887554,-0.28261939689569304,-1.6691248470658715,0.14142505623896917,2.4034458294444616,1.027343844882316,0.878092876070424,0.7554597494309409,-0.2825552651693207,-1.6690993614607135,0.1414185955172306,2.4034451173676383,1.0273381002308042,-0.0016162359654229793,-0.00024659311552658713,0.00011484250295883641,-0.0007159894393497407,0.0004225400867305925,-0.000248907825538013,0.0006210166534826876,0.0,0.0,0.0,0.0,0.0,0.0,0.0,-4.335190981108461e-05,8.521954218543293e-05,6.413172637231845e-05,2.548560515802656e-05,-6.460721738571484e-06,-7.120768232837804e-07,-5.744651511818688e-06,0.0016162359654229793,0.00024659311552658713,-0.00011484250295883641,0.0007159894393497407,-0.0004225400867305925,0.000248907825538013,-0.0006210166534826876,0.5815059542655945,46.32583236694336,5.564480304718018,-19.586824417114258,-0.7189841866493225,-2.4173007011413574,0.15964071452617645,0
42,0.2043931484222412,-0.5815059542655945,-46.32583236694336,-5.564480304718018,19.586824417114258,0.7189841866493225,2.4173007011413574,-0.15964071452617645,0.0,0.0,0.0,0.0,0.0,0.0,0.0,-0.6274532094262456,-0.007704434817192795,-0.3930849572836561,0.3494165150340354,0.13891154384905635,0.14558524841563308,-0.1478804866281239,0.878136227980235,0.7553745298887554,-0.28261939689569304,-1.6691248470658715,0.14142505623896917,2.4034458294444616,1.027343844882316,0.878092876070424,0.7554597494309409,-0.2825552651693207,-1.6690993614607135,0.1414185955172306,2.4034451173676383,1.0273381002308042,-0.0016162359654229793,-0.00024659311552658713,0.00011484250295883641,-0.0007159894393497407,0.0004225400867305925,-0.000248907825538013,0.0006210166534826876,0.0,0.0,0.0,0.0,0.0,0.0,0.0,-4.335190981108461e-05,8.521954218543293e-05,6.413172637231845e-05,2.548560515802656e-05,-6.460721738571484e-06,-7.120768232837804e-07,-5.744651511818688e-06,0.0016162359654229793,0.00024659311552658713,-0.00011484250295883641,0.0007159894393497407,-0.0004225400867305925,0.000248907825538013,-0.0006210166534826876,0.5815059542655945,46.32583236694336,5.564480304718018,-19.586824417114258,-0.7189841866493225,-2.4173007011413574,0.15964071452617645,0
43,0.2093517780303955,-0.6806880831718445,-46.32583236694336,-5.588284015655518,19.610628128051758,0.7253928780555725,2.4108920097351074,-0.17978231608867645,0.0,0.0,0.0,0.0,0.0,0.0,0.0,-0.6472101820734009,-0.004972254901786943,-0.40566112690191314,0.3476576398937331,0.14030380965428993,0.1447927229064122,-0.14633057345688552,0.8781410697942987,0.7553745298887554,-0.2826177264598378,-1.6691265426966297,0.14142434416214625,2.4034465415212845,1.0273460830035883,0.878092876070424,0.7554597494309409,-0.2825552651693207,-1.6690993614607135,0.1414185955172306,2.4034451173676383,1.0273381002308042,0.000230140057511586,5.773642128147876e-05,0.0005026827739198224,-0.0015670554868902071,-0.002234091263579858,-2.27476876585019e-05,0.0010526127635559414,0.0,0.0,0.0,0.0,0.0,0.0,0.0,-4.819372387476761e-05,8.521954218543293e-05,6.24612905170685e-05,2.718123591627375e-05,-5.748644915648526e-06,-1.4241536461234716e-06,-7.982772784131953e-06,-0.000230140057511586,-5.773642128147876e-05,-0.0005026827739198224,0.0015670554868902071,0.002234091263579858,2.27476876585019e-05,-0.0010526127635559414,0.6806880831718445,46.32583236694336,5.588284015655518,-19.610628128051758,-0.7253928780555725,-2.4108920097351074,0.17978231608867645,0
44,0.21440434455871582,-0.6806880831718445,-46.32583236694336,-5.588284015655518,19.610628128051758,0.7253928780555725,2.4108920097351074,-0.17978231608867645,0.0,0.0,0.0,0.0,0.0,0.0,0.0,-0.6472101820734009,-0.004972254901786943,-0.40566112690191314,0.3476576398937331,0.14030380965428993,0.1447927229064122,-0.14633057345688552,0.8781410697942987,0.7553745298887554,-0.2826177264598378,-1.6691265426966297,0.14142434416214625,2.4034465415212845,1.0273460830035883,0.878092876070424,0.7554597494309409,-0.2825552651693207,-1.6690993614607135,0.1414185955172306,2.4034451173676383,1.0273381002308042,0.000230140057511586,5.773642128147876e-05,0.0005026827739198224,-0.0015670554868902071,-0.002234091263579858,-2.27476876585019e-05,0.0010526127635559414,0.0,0.0,0.0,0.0,0.0,0.0,0.0,-4.819372387476761e-05,8.521954218543293e-05,6.24612905170685e-05,2.718123591627375e-05,-5.748644915648526e-06,-1.4241536461234716e-06,-7.982772784131953e-06,-0.000230140057511586,-5.773642128147876e-05,-0.0005026827739198224,0.0015670554868902071,0.002234091263579858,2.27476876585019e-05,-0.0010526127635559414,0.6806880831718445,46.32583236694336,5.588284015655518,-19.610628128051758,-0.7253928780555725,-2.4108920097351074,0.17978231608867645,0
45,0.21939420700073242,-0.6291133761405945,-46.37740707397461,-5.564480304718018,19.559053421020508,0.7372947335243225,2.4173007011413574,-0.11844198405742645,0.0,0.0,0.0,0.0,0.0,0.0,0.0,-0.6268857939863489,-0.013667077937866031,-0.39101235983422955,0.3552746362549134,0.13933776521863372,0.14512831144352437,-0.14606540118773337,0.8781393549500863,0.7553781491664417,-0.28261939689569304,-1.6691229237338936,0.14142302173376084,2.4034458294444616,1.027339267245598,0.878092876070424,0.7554597494309409,-0.2825552651693207,-1.6690993614607135,0.1414185955172306,2.4034451173676383,1.0273381002308042,-4.516657815323435e-05,0.0008373847353775261,-9.03144212860778e-05,-0.00014107323051408842,-0.00044949988841068076,-0.00032476488467059157,-0.001048453533781431,0.0,0.0,0.0,0.0,0.0,0.0,0.0,-4.647887966235942e-05,8.160026449910429e-05,6.413172637231845e-05,2.3562273180122162e-05,-4.426216530240001e-06,-7.120768232837804e-07,-1.1670147939124575e-06,4.516657815323435e-05,-0.0008373847353775261,9.03144212860778e-05,0.00014107323051408842,0.00044949988841068076,0.00032476488467059157,0.001048453533781431,0.6291133761405945,46.37740707397461,5.564480304718018,-19.559053421020508,-0.7372947335243225,-2.4173007011413574,0.11844198405742645,0
46,0.22440505027770996,-0.6291133761405945,-46.37740707397461,-5.564480304718018,19.559053421020508,0.7372947335243225,2.4173007011413574,-0.11844198405742645,0.0,0.0,0.0,0.0,0.0,0.0,0.0,-0.6268857939863489,-0.013667077937866031,-0.39101235983422955,0.3552746362549134,0.13933776521863372,0.14512831144352437,-0.14606540118773337,0.8781393549500863,0.7553781491664417,-0.28261939689569304,-1.6691229237338936,0.14142302173376084,2.4034458294444616,1.027339267245598,0.878092876070424,0.7554597494309409,-0.2825552651693207,-1.6690993614607135,0.1414185955172306,2.4034451173676383,1.0273381002308042,-4.516657815323435e-05,0.0008373847353775261,-9.03144212860778e-05,-0.00014107323051408842,-0.00044949988841068076,-0.00032476488467059157,-0.001048453533781431,0.0,0.0,0.0,0.0,0.0,0.0,0.0,-4.647887966235942e-05,8.160026449910429e-05,6.413172637231845e-05,2.3562273180122162e-05,-4.426216530240001e-06,-7.120768232837804e-07,-1.1670147939124575e-06,4.516657815323435e-05,-0.0008373847353775261,9.03144212860778e-05,0.00014107323051408842,0.00044949988841068076,0.00032476488467059157,0.001048453533781431,0.6291133761405945,46.37740707397461,5.564480304718018,-19.559053421020508,-0.7372947335243225,-2.4173007011413574,0.11844198405742645,0
47,0.22939705848693848,-0.6291133761405945,-46.34963607788086,-5.588284015655518,19.559053421020508,0.7189841866493225,2.4108920097351074,-0.18710653483867645,0.0,0.0,0.0,0.0,0.0,0.0,0.0,-0.6358722394285445,0.00013126729987512084,-0.3960043263318406,0.34753301770762224,0.13945180495176454,0.14385012869370112,-0.14586735644093454,0.8781395959594677,0.7553762003246106,-0.2826177264598378,-1.6691229237338954,0.14142505623896917,2.403446547335485,1.0273468966401285,0.878092876070424,0.7554597494309409,-0.2825552651693207,-1.6690993614607135,0.1414185955172306,2.4034451173676383,1.0273381002308042,-8.252248894661625e-05,0.0005810649402124829,0.00031399136058580135,-5.8667816291712304e-05,0.00012127979497171721,-0.000141654253082381,0.0020543463298742415,0.0,0.0,0.0,0.0,0.0,0.0,0.0,-4.671988904370039e-05,8.354910633023849e-05,6.24612905170685e-05,2.356227318189852e-05,-6.460721738571484e-06,-1.42996784679994e-06,-8.796409324274279e-06,8.252248894661625e-05,-0.0005810649402124829,-0.00031399136058580135,5.8667816291712304e-05,-0.00012127979497171721,0.000141654253082381,-0.0020543463298742415,0.6291133761405945,46.34963607788086,5.588284015655518,-19.559053421020508,-0.7189841866493225,-2.4108920097351074,0.18710653483867645,0
48,0.2344646453857422,-0.6291133761405945,-46.34963607788086,-5.588284015655518,19.559053421020508,0.7189841866493225,2.4108920097351074,-0.18710653483867645,0.0,0.0,0.0,0.0,0.0,0.0,0.0,-0.6358722394285445,0.00013126729987512084,-0.3960043263318406,0.34753301770762224,0.13945180495176454,0.14385012869370112,-0.14586735644093454,0.8781395959594677,0.7553762003246106,-0.2826177264598378,-1.6691229237338954,0.14142505623896917,2.403446547335485,1.0273468966401285,0.878092876070424,0.7554597494309409,-0.2825552651693207,-1.6690993614607135,0.1414185955172306,2.4034451173676383,1.0273381002308042,-8.252248894661625e-05,0.0005810649402124829,0.00031399136058580135,-5.8667816291712304e-05,0.00012127979497171721,-0.000141654253082381,0.0020543463298742415,0.0,0.0,0.0,0.0,0.0,0.0,0.0,-4.671988904370039e-05,8.354910633023849e-05,6.24612905170685e-05,2.356227318189852e-05,-6.460721738571484e-06,-1.42996784679994e-06,-8.796409324274279e-06,8.252248894661625e-05,-0.0005810649402124829,-0.00031399136058580135,5.8667816291712304e-05,-0.00012127979497171721,0.000141654253082381,-0.0020543463298742415,0.6291133761405945,46.34963607788086,5.588284015655518,-19.559053421020508,-0.7189841866493225,-2.4108920097351074,0.18710653483867645,0
49,0.23944568634033203,-0.6291133761405945,-46.34963607788086,-5.588284015655518,19.559053421020508,0.7189841866493225,2.4108920097351074,-0.18710653483867645,0.0,0.0,0.0,0.0,0.0,0.0,0.0,-0.6358722394285445,0.00013126729987512084,-0.3960043263318406,0.34753301770762224,0.13945180495176454,0.14385012869370112,-0.14586735644093454,0.8781395959594677,0.7553762003246106,-0.2826177264598378,-1.6691229237338954,0.14142505623896917,2.403446547335485,1.0273468966401285,0.878092876070424,0.7554597494309409,-0.2825552651693207,-1.6690993614607135,0.1414185955172306,2.4034451173676383,1.0273381002308042,-8.252248894661625e-05,0.0005810649402124829,0.00031399136058580135,-5.8667816291712304e-05,0.00012127979497171721,-0.000141654253082381,0.0020543463298742415,0.0,0.0,0.0,0.0,0.0,0.0,0.0,-4.671988904370039e-05,8.354910633023849e-05,6.24612905170685e-05,2.356227318189852e-05,-6.460721738571484e-06,-1.42996784679994e-06,-8.796409324274279e-06,8.252248894661625e-05,-0.0005810649402124829,-0.00031399136058580135,5.8667816291712304e-05,-0.00012127979497171721,0.000141654253082381,-0.0020543463298742415,0.6291133761405945,46.34963607788086,5.588284015655518,-19.559053421020508,-0.7189841866493225,-2.4108920097351074,0.18710653483867645,0
50,0.24439072608947754,-0.6291133761405945,-46.34963607788086,-5.588284015655518,19.559053421020508,0.7189841866493225,2.4108920097351074,-0.18710653483867645,0.0,0.0,0.0,0.0,0.0,0.0,0.0,-0.6358722394285445,0.00013126729987512084,-0.3960043263318406,0.34753301770762224,0.13945180495176454,0.14385012869370112,-0.14586735644093454,0.8781395959594677,0.7553762003246106,-0.2826177264598378,-1.6691229237338954,0.14142505623896917,2.403446547335485,1.0273468966401285,0.878092876070424,0.7554597494309409,-0.2825552651693207,-1.6690993614607135,0.1414185955172306,2.4034451173676383,1.0273381002308042,-8.252248894661625e-05,0.0005810649402124829,0.00031399136058580135,-5.8667816291712304e-05,0.00012127979497171721,-0.000141654253082381,0.0020543463298742415,0.0,0.0,0.0,0.0,0.0,0.0,0.0,-4.671988904370039e-05,8.354910633023849e-05,6.24612905170685e-05,2.356227318189852e-05,-6.460721738571484e-06,-1.42996784679994e-06,-8.796409324274279e-06,8.252248894661625e-05,-0.0005810649402124829,-0.00031399136058580135,5.8667816291712304e-05,-0.00012127979497171721,0.000141654253082381,-0.0020543463298742415,0.6291133761405945,46.34963607788086,5.588284015655518,-19.559053421020508,-0.7189841866493225,-2.4108920097351074,0.18710653483867645,0
51,0.24940013885498047,-0.6291133761405945,-46.32583236694336,-5.536709308624268,19.535249710083008,0.7308860421180725,2.3980746269226074,-0.15964071452617645,0.0,0.0,0.0,0.0,0.0,0.0,0.0,-0.6351786248635922,-0.006273333902135482,-0.39834815911341337,0.35012906647452896,0.13927171464077368,0.14381555133895293,-0.14530398515699874,0.8781393314146793,0.7553745298887554,-0.2826213457375242,-1.66912125329804,0.14142373381058376,2.4034479656750283,1.027343844882316,0.878092876070424,0.7554597494309409,-0.2825552651693207,-1.6690993614607135,0.1414185955172306,2.4034451173676383,1.0273381002308042,-6.559046805903871e-05,-7.439433292753823e-05,-0.0007292903876032193,0.00021030127512630317,-0.00014776419002447783,0.0005308082309783664,0.00026616589894038514,0.0,0.0,0.0,0.0,0.0,0.0,0.0,-4.645534425529174e-05,8.521954218543293e-05,6.608056820345265e-05,2.1891837326482033e-05,-5.138293353162959e-06,-2.8483073899465694e-06,-5.744651511818688e-06,6.559046805903871e-05,7.439433292753823e-05,0.0007292903876032193,-0.00021030127512630317,0.00014776419002447783,-0.0005308082309783664,-0.00026616589894038514,0.6291133761405945,46.32583236694336,5.536709308624268,-19.535249710083008,-0.7308860421180725,-2.3980746269226074,0.15964071452617645,0
52,0.25440478324890137,-0.6291133761405945,-46.32583236694336,-5.536709308624268,19.535249710083008,0.7308860421180725,2.3980746269226074,-0.15964071452617645,0.0,0.0,0.0,0.0,0.0,0.0,0.0,-0.6351786248635922,-0.006273333902135482,-0.39834815911341337,0.35012906647452896,0.13927171464077368,0.14381555133895293,-0.14530398515699874,0.8781393314146793,0.7553745298887554,-0.2826213457375242,-1.66912125329804,0.14142373381058376,2.4034479656750283,1.027343844882316,0.878092876070424,0.7554597494309409,-0.2825552651693207,-1.6690993614607135,0.1414185955172306,2.4034451173676383,1.0273381002308042,-6.559046805903871e-05,-7.439433292753823e-05,-0.0007292903876032193,0.00021030127512630317,-0.00014776419002447783,0.0005308082309783664,0.00026616589894038514,0.0,0.0,0.0,0.0,0.0,0.0,0.0,-4.645534425529174e-05,8.521954218543293e-05,6.608056820345265e-05,2.1891837326482033e-05,-5.138293353162959e-06,-2.8483073899465694e-06,-5.744651511818688e-06,6.559046805903871e-05,7.439433292753823e-05,0.0007292903876032193,-0.00021030127512630317,0.00014776419002447783,-0.0005308082309783664,-0.00026616589894038514,0.6291133761405945,46.32583236694336,5.536709308624268,-19.535249710083008,-0.7308860421180725,-2.3980746269226074,0.15964071452617645,0
53,0.2594013214111328,-0.6291133761405945,-46.34963607788086,-5.564480304718018,19.559053421020508,0.7308860421180725,2.4044833183288574,-0.13858358561992645,0.0,0.0,0.0,0.0,0.0,0.0,0.0,-0.6294344850454856,-0.002312005332433006,-0.39508970642934277,0.34754381938303114,0.13933950258755917,0.14403755388845668,-0.1465597979094269,0.8781395923994659,0.7553762003246106,-0.28261939693169535,-1.669122691307323,0.14142373381058376,2.4034472535981073,1.0273415052013264,0.878092876070424,0.7554597494309409,-0.2825552651693207,-1.6690993614607135,0.1414185955172306,2.4034451173676383,1.0273381002308042,0.00023520329734668597,0.0008860497236025638,-0.00043346556781349724,-0.0002587578763045965,-0.0002302776519798631,0.0004167872139143254,-0.000919763303606763,0.0,0.0,0.0,0.0,0.0,0.0,0.0,-4.6716329041962545e-05,8.354910633023849e-05,6.41317623746307e-05,2.3329846609465577e-05,-5.138293353162959e-06,-2.136230468963163e-06,-3.404970522202788e-06,-0.00023520329734668597,-0.0008860497236025638,0.00043346556781349724,0.0002587578763045965,0.0002302776519798631,-0.0004167872139143254,0.000919763303606763,0.6291133761405945,46.34963607788086,5.564480304718018,-19.559053421020508,-0.7308860421180725,-2.4044833183288574,0.13858358561992645,0
54,0.2643899917602539,-0.6291133761405945,-46.34963607788086,-5.564480304718018,19.559053421020508,0.7308860421180725,2.4044833183288574,-0.13858358561992645,0.0,0.0,0.0,0.0,0.0,0.0,0.0,-0.6294344850454856,-0.002312005332433006,-0.39508970642934277,0.34754381938303114,0.13933950258755917,0.14403755388845668,-0.1465597979094269,0.8781395923994659,0.7553762003246106,-0.28261939693169535,-1.669122691307323,0.14142373381058376,2.4034472535981073,1.0273415052013264,0.878092876070424,0.7554597494309409,-0.2825552651693207,-1.6690993614607135,0.1414185955172306,2.4034451173676383,1.0273381002308042,0.00023520329734668597,0.0008860497236025638,-0.00043346556781349724,-0.0002587578763045965,-0.0002302776519798631,0.0004167872139143254,-0.000919763303606763,0.0,0.0,0.0,0.0,0.0,0.0,0.0,-4.6716329041962545e-05,8.354910633023849e-05,6.41317623746307e-05,2.3329846609465577e-05,-5.138293353162959e-06,-2.136230468963163e-06,-3.404970522202788e-06,-0.00023520329734668597,-0.0008860497236025638,0.00043346556781349724,0.0002587578763045965,0.0002302776519798631,-0.0004167872139143254,0.000919763303606763,0.6291133761405945,46.34963607788086,5.564480304718018,-19.559053421020508,-0.7308860421180725,-2.4044833183288574,0.13858358561992645,0
55,0.2693955898284912,-0.6291133761405945,-46.40121078491211,-5.588284015655518,19.586824417114258,0.7253928780555725,2.4237093925476074,-0.19351522624492645,0.0,0.0,0.0,0.0,0.0,0.0,0.0,-0.6275942231790395,-0.014308354474040668,-0.3966913660767425,0.3522735881897684,0.13979954791504068,0.1451516692509496,-0.14748290726516686,0.8781388810684583,0.755379819602297,-0.282617726459838,-1.6691248725394214,0.14142434416214625,2.4034451173676383,1.0273476087169515,0.878092876070424,0.7554597494309409,-0.2825552651693207,-1.6690993614607135,0.1414185955172306,2.4034451173676383,1.0273381002308042,0.0005608041457708047,0.0013276754832231802,0.0005696368482378047,-0.0006578106206132965,0.00010323357224884344,-0.0004268082715318312,0.0014614947236413873,0.0,0.0,0.0,0.0,0.0,0.0,0.0,-4.600499803431024e-05,7.992982864379883e-05,6.246129051729055e-05,2.5511078707962653e-05,-5.748644915648526e-06,0.0,-9.508486147336015e-06,-0.0005608041457708047,-0.0013276754832231802,-0.0005696368482378047,0.0006578106206132965,-0.00010323357224884344,0.0004268082715318312,-0.0014614947236413873,0.6291133761405945,46.40121078491211,5.588284015655518,-19.586824417114258,-0.7253928780555725,-2.4237093925476074,0.19351522624492645,0
56,0.27439332008361816,-0.6291133761405945,-46.40121078491211,-5.588284015655518,19.586824417114258,0.7253928780555725,2.4237093925476074,-0.19351522624492645,0.0,0.0,0.0,0.0,0.0,0.0,0.0,-0.6275942231790395,-0.014308354474040668,-0.3966913660767425,0.3522735881897684,0.13979954791504068,0.1451516692509496,-0.14748290726516686,0.8781388810684583,0.755379819602297,-0.282617726459838,-1.6691248725394214,0.14142434416214625,2.4034451173676383,1.0273476087169515,0.878092876070424,0.7554597494309409,-0.2825552651693207,-1.6690993614607135,0.1414185955172306,2.4034451173676383,1.0273381002308042,0.0005608041457708047,0.0013276754832231802,0.0005696368482378047,-0.0006578106206132965,0.00010323357224884344,-0.0004268082715318312,0.0014614947236413873,0.0,0.0,0.0,0.0,0.0,0.0,0.0,-4.600499803431024e-05,7.992982864379883e-05,6.246129051729055e-05,2.5511078707962653e-05,-5.748644915648526e-06,0.0,-9.508486147336015e-06,-0.0005608041457708047,-0.0013276754832231802,-0.0005696368482378047,0.0006578106206132965,-0.00010323357224884344,0.0004268082715318312,-0.0014614947236413873,0.6291133761405945,46.40121078491211,5.588284015655518,-19.586824417114258,-0.7253928780555725,-2.4237093925476074,0.19351522624492645,0
57,0.279390811920166,-0.6053096652030945,-46.32583236694336,-5.536709308624268,19.535249710083008,0.7253928780555725,2.4108920097351074,-0.12485067546367645,0.0,0.0,0.0,0.0,0.0,0.0,0.0,-0.6327208071528729,0.0017412220482101667,-0.3996090110587306,0.34234059089799246,0.14028205025090557,0.14377865881619106,-0.14865125192286058,0.8781379229408857,0.7553745298887554,-0.2826213457375242,-1.6691205645332556,0.14142434416214625,2.4034465415212845,1.0273399793224203,0.878092876070424,0.7554597494309409,-0.2825552651693207,-1.6690993614607135,0.1414185955172306,2.4034451173676383,1.0273381002308042,-0.000162731768148254,-0.00019193977433801964,-0.000998300204376649,0.0002582611389195241,0.009505098246354335,-6.149948004866312e-05,-0.001150629642470561,0.0,0.0,0.0,0.0,0.0,0.0,0.0,-4.5046870461695754e-05,8.521954218543293e-05,6.608056820345265e-05,2.1203072542164136e-05,-5.748644915648526e-06,-1.4241536461234716e-06,-1.879091616086015e-06,0.000162731768148254,0.00019193977433801964,0.000998300204376649,-0.0002582611389195241,-0.009505098246354335,6.149948004866312e-05,0.001150629642470561,0.6053096652030945,46.32583236694336,5.536709308624268,-19.535249710083008,-0.7253928780555725,-2.4108920097351074,0.12485067546367645,0
58,0.2843594551086426,-0.6053096652030945,-46.32583236694336,-5.536709308624268,19.535249710083008,0.7253928780555725,2.4108920097351074,-0.12485067546367645,0.0,0.0,0.0,0.0,0.0,0.0,0.0,-0.6327208071528729,0.0017412220482101667,-0.3996090110587306,0.34234059089799246,0.14028205025090557,0.14377865881619106,-0.14865125192286058,0.8781379229408857,0.7553745298887554,-0.2826213457375242,-1.6691205645332556,0.14142434416214625,2.4034465415212845,1.0273399793224203,0.878092876070424,0.7554597494309409,-0.2825552651693207,-1.6690993614607135,0.1414185955172306,2.4034451173676383,1.0273381002308042,-0.000162731768148254,-0.00019193977433801964,-0.000998300204376649,0.0002582611389195241,0.009505098246354335,-6.149948004866312e-05,-0.001150629642470561,0.0,0.0,0.0,0.0,0.0,0.0,0.0,-4.5046870461695754e-05,8.521954218543293e-05,6.608056820345265e-05,2.1203072542164136e-05,-5.748644915648526e-06,-1.4241536461234716e-06,-1.879091616086015e-06,0.000162731768148254,0.00019193977433801964,0.000998300204376649,-0.0002582611389195241,-0.009505098246354335,6.149948004866312e-05,0.001150629642470561,0.6053096652030945,46.32583236694336,5.536709308624268,-19.535249710083008,-0.7253928780555725,-2.4108920097351074,0.12485067546367645,0
59,0.28941893577575684,-0.6291133761405945,-46.37740707397461,-5.588284015655518,19.586824417114258,0.7189841866493225,2.4044833183288574,-0.18710653483867645,0.0,0.0,0.0,0.0,0.0,0.0,0.0,-0.6384291178913406,-0.006640779014872876,-0.4076654328384411,0.3451846010728265,0.14001024676519686,0.14466567372933284,-0.15019692595960082,0.8781388780886858,0.7553781491664417,-0.2826177264598378,-1.6691248725718384,0.14142505428878926,2.4034472535981073,1.0273468966401285,0.878092876070424,0.7554597494309409,-0.2825552651693207,-1.6690993614607135,0.1414185955172306,2.4034451173676383,1.0273381002308042,-0.0002035581834047905,0.0013242747277213969,0.00016876943326066471,-0.00033560501415449864,0.0006245707203159925,0.0002342361275523525,0.0017545333512520762,0.0,0.0,0.0,0.0,0.0,0.0,0.0,-4.600201826188144e-05,8.160026449910429e-05,6.24612905170685e-05,2.551111112492066e-05,-6.458771558665033e-06,-2.136230468963163e-06,-8.796409324274279e-06,0.0002035581834047905,-0.0013242747277213969,-0.00016876943326066471,0.00033560501415449864,-0.0006245707203159925,-0.0002342361275523525,-0.0017545333512520762,0.6291133761405945,46.37740707397461,5.588284015655518,-19.586824417114258,-0.7189841866493225,-2.4044833183288574,0.18710653483867645,0
60,0.29442930221557617,-0.6291133761405945,-46.37740707397461,-5.588284015655518,19.586824417114258,0.7189841866493225,2.4044833183288574,-0.18710653483867645,0.0,0.0,0.0,0.0,0.0,0.0,0.0,-0.6384291178913406,-0.006640779014872876,-0.4076654328384411,0.3451846010728265,0.14001024676519686,0.14466567372933284,-0.15019692595960082,0.8781388780886858,0.7553781491664417,-0.2826177264598378,-1.6691248725718384,0.14142505428878926,2.4034472535981073,1.0273468966401285,0.878092876070424,0.7554597494309409,-0.2825552651693207,-1.6690993614607135,0.1414185955172306,2.4034451173676383,1.0273381002308042,-0.0002035581834047905,0.0013242747277213969,0.00016876943326066471,-0.00033560501415449864,0.0006245707203159925,0.0002342361275523525,0.0017545333512520762,0.0,0.0,0.0,0.0,0.0,0.0,0.0,-4.600201826188144e-05,8.160026449910429e-05,6.24612905170685e-05,2.551111112492066e-05,-6.458771558665033e-06,-2.136230468963163e-06,-8.796409324274279e-06,0.0002035581834047905,-0.0013242747277213969,-0.00016876943326066471,0.00033560501415449864,-0.0006245707203159925,-0.0002342361275523525,-0.0017545333512520762,0.6291133761405945,46.37740707397461,5.588284015655518,-19.586824417114258,-0.7189841866493225,-2.4044833183288574,0.18710653483867645,0
61,0.29941272735595703,-0.6568843722343445,-46.34963607788086,-5.588284015655518,19.535249710083008,0.7189841866493225,2.4044833183288574,-0.13217489421367645,0.0,0.0,0.0,0.0,0.0,0.0,0.0,-0.6326315295269256,0.0026559689235790616,-0.4047495798056892,0.34129538946222576,0.1391503805604765,0.1430892990128173,-0.151097273305372,0.8781413067434155,0.7553762003246106,-0.2826177264598378,-1.669121250463617,0.14142505623895815,2.4034472535981073,1.0273407931245035,0.878092876070424,0.7554597494309409,-0.2825552651693207,-1.6690993614607135,0.1414185955172306,2.4034451173676383,1.0273381002308042,0.000398048852797796,0.0009763934148396613,-6.392445305622213e-05,0.00024952015477285337,6.387987070151138e-05,7.04036837426928e-05,-0.0011591234597744641,0.0,0.0,0.0,0.0,0.0,0.0,0.0,-4.843067299153958e-05,8.354910633023849e-05,6.24612905170685e-05,2.1889002903563437e-05,-6.460721727552521e-06,-2.136230468963163e-06,-2.692893699363097e-06,-0.000398048852797796,-0.0009763934148396613,6.392445305622213e-05,-0.00024952015477285337,-6.387987070151138e-05,-7.04036837426928e-05,0.0011591234597744641,0.6568843722343445,46.34963607788086,5.588284015655518,-19.535249710083008,-0.7189841866493225,-2.4044833183288574,0.13217489421367645,0
62,0.3043968677520752,-0.6568843722343445,-46.34963607788086,-5.588284015655518,19.535249710083008,0.7189841866493225,2.4044833183288574,-0.13217489421367645,0.0,0.0,0.0,0.0,0.0,0.0,0.0,-0.6326315295269256,0.0026559689235790616,-0.4047495798056892,0.34129538946222576,0.1391503805604765,0.1430892990128173,-0.151097273305372,0.8781413067434155,0.7553762003246106,-0.2826177264598378,-1.669121250463617,0.14142505623895815,2.4034472535981073,1.0273407931245035,0.878092876070424,0.7554597494309409,-0.2825552651693207,-1.6690993614607135,0.1414185955172306,2.4034451173676383,1.0273381002308042,0.000398048852797796,0.0009763934148396613,-6.392445305622213e-05,0.00024952015477285337,6.387987070151138e-05,7.04036837426928e-05,-0.0011591234597744641,0.0,0.0,0.0,0.0,0.0,0.0,0.0,-4.843067299153958e-05,8.354910633023849e-05,6.24612905170685e-05,2.1889002903563437e-05,-6.460721727552521e-06,-2.136230468963163e-06,-2.692893699363097e-06,-0.000398048852797796,-0.0009763934148396613,6.392445305622213e-05,-0.00024952015477285337,-6.387987070151138e-05,-7.04036837426928e-05,0.0011591234597744641,0.6568843722343445,46.34963607788086,5.588284015655518,-19.535249710083008,-0.7189841866493225,-2.4044833183288574,0.13217489421367645,0
63,0.3093430995941162,-0.6291133761405945,-46.30202865600586,-5.536709308624268,19.559053421020508,0.7189841866493225,2.4108920097351074,-0.17978231608867645,0.0,0.0,0.0,0.0,0.0,0.0,0.0,-0.6293104453681123,-0.022118897418565573,-0.4068300447925272,0.3575181798359408,0.1386509628575856,0.1448596055678626,-0.15103522815128512,0.8781374504466437,0.7553728594529001,-0.2826213457375242,-1.6691208489362581,0.14142505623896917,2.4034465415212845,1.0273460828380452,0.878092876070424,0.7554597494309409,-0.2825552651693207,-1.6690993614607135,0.1414185955172306,2.4034451173676383,1.0273381002308042,-0.0001562932826176769,-0.000994172892814898,-0.0011537930557306102,-7.364640735852707e-05,0.00019325711509086878,-3.278110616742772e-06,0.0011066941159784591,0.0,0.0,0.0,0.0,0.0,0.0,0.0,-4.4574376219741474e-05,8.688997804073839e-05,6.608056820345265e-05,2.1487475544645918e-05,-6.460721738571484e-06,-1.4241536461234716e-06,-7.982607240997197e-06,0.0001562932826176769,0.000994172892814898,0.0011537930557306102,7.364640735852707e-05,-0.00019325711509086878,3.278110616742772e-06,-0.0011066941159784591,0.6291133761405945,46.30202865600586,5.536709308624268,-19.559053421020508,-0.7189841866493225,-2.4108920097351074,0.17978231608867645,0
64,0.3143923282623291,-0.6291133761405945,-46.30202865600586,-5.536709308624268,19.559053421020508,0.7189841866493225,2.4108920097351074,-0.17978231608867645,0.0,0.0,0.0,0.0,0.0,0.0,0.0,-0.6293104453681123,-0.022118897418565573,-0.4068300447925272,0.3575181798359408,0.1386509628575856,0.1448596055678626,-0.15103522815128512,0.8781374504466437,0.7553728594529001,-0.2826213457375242,-1.6691208489362581,0.14142505623896917,2.4034465415212845,1.0273460828380452,0.878092876070424,0.7554597494309409,-0.2825552651693207,-1.6690993614607135,0.1414185955172306,2.4034451173676383,1.0273381002308042,-0.0001562932826176769,-0.000994172892814898,-0.0011537930557306102,-7.364640735852707e-05,0.00019325711509086878,-3.278110616742772e-06,0.0011066941159784591,0.0,0.0,0.0,0.0,0.0,0.0,0.0,-4.4574376219741474e-05,8.688997804073839e-05,6.608056820345265e-05,2.1487475544645918e-05,-6.460721738571484e-06,-1.4241536461234716e-06,-7.982607240997197e-06,0.0001562932826176769,0.000994172892814898,0.0011537930557306102,7.364640735852707e-05,-0.00019325711509086878,3.278110616742772e-06,-0.0011066941159784591,0.6291133761405945,46.30202865600586,5.536709308624268,-19.559053421020508,-0.7189841866493225,-2.4108920097351074,0.17978231608867645,0
65,0.31959009170532227,-0.6806880831718445,-46.27822494506836,-5.564480304718018,19.559053421020508,0.7372947335243225,2.4108920097351074,-0.13858358561992645,0.0,0.0,0.0,0.0,0.0,0.0,0.0,-0.6386242348944839,0.000692363071751279,-0.41030682384491424,0.3470856146486616,0.13846699638100868,0.14382475721473603,-0.1508985042635816,0.8781409635074899,0.7553711890170449,-0.28261939689569304,-1.66912292359378,0.14141982295115788,2.4034465415212845,1.0273415052013264,0.878092876070424,0.7554597494309409,-0.2825552651693207,-1.6690993614607135,0.1414185955172306,2.4034451173676383,1.0273381002308042,0.00036001090983392957,-0.0008584698143948752,-0.00010042467126673691,-3.661950441684998e-05,-0.000550556683303359,-5.1512956843586905e-05,-8.809961970546592e-05,0.0,0.0,0.0,0.0,0.0,0.0,0.0,-4.808743706596896e-05,8.856041389593283e-05,6.413172637231845e-05,2.356213306642374e-05,-1.2274339272755341e-06,-1.4241536461234716e-06,-3.404970522202788e-06,-0.00036001090983392957,0.0008584698143948752,0.00010042467126673691,3.661950441684998e-05,0.000550556683303359,5.1512956843586905e-05,8.809961970546592e-05,0.6806880831718445,46.27822494506836,5.564480304718018,-19.559053421020508,-0.7372947335243225,-2.4108920097351074,0.13858358561992645,0
66,0.3244166374206543,-0.6806880831718445,-46.27822494506836,-5.564480304718018,19.559053421020508,0.7372947335243225,2.4108920097351074,-0.13858358561992645,0.0,0.0,0.0,0.0,0.0,0.0,0.0,-0.6386242348944839,0.000692363071751279,-0.41030682384491424,0.3470856146486616,0.13846699638100868,0.14382475721473603,-0.1508985042635816,0.8781409635074899,0.7553711890170449,-0.28261939689569304,-1.66912292359378,0.14141982295115788,2.4034465415212845,1.0273415052013264,0.878092876070424,0.7554597494309409,-0.2825552651693207,-1.6690993614607135,0.1414185955172306,2.4034451173676383,1.0273381002308042,0.00036001090983392957,-0.0008584698143948752,-0.00010042467126673691,-3.661950441684998e-05,-0.000550556683303359,-5.1512956843586905e-05,-8.809961970546592e-05,0.0,0.0,0.0,0.0,0.0,0.0,0.0,-4.808743706596896e-05,8.856041389593283e-05,6.413172637231845e-05,2.356213306642374e-05,-1.2274339272755341e-06,-1.4241536461234716e-06,-3.404970522202788e-06,-0.00036001090983392957,0.0008584698143948752,0.00010042467126673691,3.661950441684998e-05,0.000550556683303359,5.1512956843586905e-05,8.809961970546592e-05,0.6806880831718445,46.27822494506836,5.564480304718018,-19.559053421020508,-0.7372947335243225,-2.4108920097351074,0.13858358561992645,0
67,0.3294186592102051,-0.6291133761405945,-46.27822494506836,-5.612087726593018,19.559053421020508,0.7372947335243225,2.4173007011413574,-0.17978231608867645,0.0,0.0,0.0,0.0,0.0,0.0,0.0,-0.6315378145150609,-0.002410687259646707,-0.4017364394188636,0.3522515050877174,0.1385598141933892,0.14424457526700013,-0.15023158308574017,0.8781395962109638,0.7553711890170449,-0.2826160647725381,-1.6691228897208195,0.14142302172774177,2.4034458294444616,1.0273460828380452,0.878092876070424,0.7554597494309409,-0.2825552651693207,-1.6690993614607135,0.1414185955172306,2.4034451173676383,1.0273381002308042,-0.000571449088771572,-0.0010702758065506868,0.0006142964746117536,-5.6527013693279816e-05,-0.00033415382289933056,-0.00010858978567947038,0.0011220262555689368,0.0,0.0,0.0,0.0,0.0,0.0,0.0,-4.6720140539857624e-05,8.856041389593283e-05,6.079960321736522e-05,2.3528260105987187e-05,-4.426210511165873e-06,-7.120768232837804e-07,-7.982607240997197e-06,0.000571449088771572,0.0010702758065506868,-0.0006142964746117536,5.6527013693279816e-05,0.00033415382289933056,0.00010858978567947038,-0.0011220262555689368,0.6291133761405945,46.27822494506836,5.612087726593018,-19.559053421020508,-0.7372947335243225,-2.4173007011413574,0.17978231608867645,0
68,0.33439207077026367,-0.6291133761405945,-46.27822494506836,-5.612087726593018,19.559053421020508,0.7372947335243225,2.4173007011413574,-0.17978231608867645,0.0,0.0,0.0,0.0,0.0,0.0,0.0,-0.6315378145150609,-0.002410687259646707,-0.4017364394188636,0.3522515050877174,0.1385598141933892,0.14424457526700013,-0.15023158308574017,0.8781395962109638,0.7553711890170449,-0.2826160647725381,-1.6691228897208195,0.14142302172774177,2.4034458294444616,1.0273460828380452,0.878092876070424,0.7554597494309409,-0.2825552651693207,-1.6690993614607135,0.1414185955172306,2.4034451173676383,1.0273381002308042,-0.000571449088771572,-0.0010702758065506868,0.0006142964746117536,-5.6527013693279816e-05,-0.00033415382289933056,-0.00010858978567947038,0.0011220262555689368,0.0,0.0,0.0,0.0,0.0,0.0,0.0,-4.6720140539857624e-05,8.856041389593283e-05,6.079960321736522e-05,2.3528260105987187e-05,-4.426210511165873e-06,-7.120768232837804e-07,-7.982607240997197e-06,0.000571449088771572,0.0010702758065506868,-0.0006142964746117536,5.6527013693279816e-05,0.00033415382289933056,0.00010858978567947038,-0.0011220262555689368,0.6291133761405945,46.27822494506836,5.612087726593018,-19.559053421020508,-0.7372947335243225,-2.4173007011413574,0.17978231608867645,0
69,0.3394303321838379,-0.6291133761405945,-46.32583236694336,-5.564480304718018,19.559053421020508,0.7308860421180725,2.4173007011413574,-0.12485067546367645,0.0,0.0,0.0,0.0,0.0,0.0,0.0,-0.6401324182210052,0.006124549084711958,-0.4057767492665089,0.34689036391637046,0.139409478673063,0.14351063610572518,-0.1504379647759713,0.8781374417266875,0.7553745298887554,-0.28261939689574245,-1.6691229142856268,0.14142373381058373,2.403445829605967,1.0273399793224203,0.878092876070424,0.7554597494309409,-0.2825552651693207,-1.6690993614607135,0.1414185955172306,2.4034451173676383,1.0273381002308042,-0.0006132715231533067,-0.00013992219479899197,-0.0002142687878324387,-0.00041933666910323953,-0.00031603948652221515,-0.0003011808946591007,-0.0008596223672815458,0.0,0.0,0.0,0.0,0.0,0.0,0.0,-4.456565626353992e-05,8.521954218543293e-05,6.413172642172338e-05,2.3552824913286585e-05,-5.138293353135204e-06,-7.122383287594403e-07,-1.879091616086015e-06,0.0006132715231533067,0.00013992219479899197,0.0002142687878324387,0.00041933666910323953,0.00031603948652221515,0.0003011808946591007,0.0008596223672815458,0.6291133761405945,46.32583236694336,5.564480304718018,-19.559053421020508,-0.7308860421180725,-2.4173007011413574,0.12485067546367645,0
70,0.3443934917449951,-0.6291133761405945,-46.32583236694336,-5.564480304718018,19.559053421020508,0.7308860421180725,2.4173007011413574,-0.12485067546367645,0.0,0.0,0.0,0.0,0.0,0.0,0.0,-0.6401324182210052,0.006124549084711958,-0.4057767492665089,0.34689036391637046,0.139409478673063,0.14351063610572518,-0.1504379647759713,0.8781374417266875,0.7553745298887554,-0.28261939689574245,-1.6691229142856268,0.14142373381058373,2.403445829605967,1.0273399793224203,0.878092876070424,0.7554597494309409,-0.2825552651693207,-1.6690993614607135,0.1414185955172306,2.4034451173676383,1.0273381002308042,-0.0006132715231533067,-0.00013992219479899197,-0.0002142687878324387,-0.00041933666910323953,-0.00031603948652221515,-0.0003011808946591007,-0.0008596223672815458,0.0,0.0,0.0,0.0,0.0,0.0,0.0,-4.456565626353992e-05,8.521954218543293e-05,6.413172642172338e-05,2.3552824913286585e-05,-5.138293353135204e-06,-7.122383287594403e-07,-1.879091616086015e-06,0.0006132715231533067,0.00013992219479899197,0.0002142687878324387,0.00041933666910323953,0.00031603948652221515,0.0003011808946591007,0.0008596223672815458,0.6291133761405945,46.32583236694336,5.564480304718018,-19.559053421020508,-0.7308860421180725,-2.4173007011413574,0.12485067546367645,0
71,0.34934425354003906,-0.6291133761405945,-46.32583236694336,-5.564480304718018,19.559053421020508,0.7308860421180725,2.4173007011413574,-0.12485067546367645,0.0,0.0,0.0,0.0,0.0,0.0,0.0,-0.6401324182210052,0.006124549084711958,-0.4057767492665089,0.34689036391637046,0.139409478673063,0.14351063610572518,-0.1504379647759713,0.8781374417266875,0.7553745298887554,-0.28261939689574245,-1.6691229142856268,0.14142373381058373,2.403445829605967,1.0273399793224203,0.878092876070424,0.7554597494309409,-0.2825552651693207,-1.6690993614607135,0.1414185955172306,2.4034451173676383,1.0273381002308042,-0.0006132715231533067,-0.00013992219479899197,-0.0002142687878324387,-0.00041933666910323953,-0.00031603948652221515,-0.0003011808946591007,-0.0008596223672815458,0.0,0.0,0.0,0.0,0.0,0.0,0.0,-4.456565626353992e-05,8.521954218543293e-05,6.413172642172338e-05,2.3552824913286585e-05,-5.138293353135204e-06,-7.122383287594403e-07,-1.879091616086015e-06,0.0006132715231533067,0.00013992219479899197,0.0002142687878324387,0.00041933666910323953,0.00031603948652221515,0.0003011808946591007,0.0008596223672815458,0.6291133761405945,46.32583236694336,5.564480304718018,-19.559053421020508,-0.7308860421180725,-2.4173007011413574,0.12485067546367645,0
72,0.35439372062683105,-0.6291133761405945,-46.32583236694336,-5.564480304718018,19.559053421020508,0.7308860421180725,2.4173007011413574,-0.12485067546367645,0.0,0.0,0.0,0.0,0.0,0.0,0.0,-0.6401324182210052,0.006124549084711958,-0.4057767492665089,0.34689036391637046,0.139409478673063,0.14351063610572518,-0.1504379647759713,0.8781374417266875,0.7553745298887554,-0.28261939689574245,-1.6691229142856268,0.14142373381058373,2.403445829605967,1.0273399793224203,0.878092876070424,0.7554597494309409,-0.2825552651693207,-1.6690993614607135,0.1414185955172306,2.4034451173676383,1.0273381002308042,-0.0006132715231533067,-0.00013992219479899197,-0.0002142687878324387,-0.00041933666910323953,-0.00031603948652221515,-0.0003011808946591007,-0.0008596223672815458,0.0,0.0,0.0,0.0,0.0,0.0,0.0,-4.456565626353992e-05,8.521954218543293e-05,6.413172642172338e-05,2.3552824913286585e-05,-5.138293353135204e-06,-7.122383287594403e-07,-1.879091616086015e-06,0.0006132715231533067,0.00013992219479899197,0.0002142687878324387,0.00041933666910323953,0.00031603948652221515,0.0003011808946591007,0.0008596223672815458,0.6291133761405945,46.32583236694336,5.564480304718018,-19.559053421020508,-0.7308860421180725,-2.4173007011413574,0.12485067546367645,0
73,0.3595411777496338,-0.6568843722343445,-46.30202865600586,-5.588284015655518,19.559053421020508,0.7253928780555725,2.4044833183288574,-0.17337362468242645,0.0,0.0,0.0,0.0,0.0,0.0,0.0,-0.642417164971158,-0.0063017578154500676,-0.40893655211449964,0.3538782664011136,0.13960422059622077,0.14445422351289813,-0.15077228796139538,0.8781415451538863,0.7553728594529001,-0.2826177267838584,-1.669122923733842,0.14142434416214625,2.403447253598108,1.0273453707612223,0.878092876070424,0.7554597494309409,-0.2825552651693207,-1.6690993614607135,0.1414185955172306,2.4034451173676383,1.0273381002308042,0.0005967334738631232,-0.000816085605635958,-9.437862522580443e-05,-3.419934576259214e-05,-0.00015327423188150896,0.0002915515594356819,0.0009448995477325158,0.0,0.0,0.0,0.0,0.0,0.0,0.0,-4.866908346234933e-05,8.688997804073839e-05,6.246161453765664e-05,2.3562273128607814e-05,-5.748644915648526e-06,-2.1362304698513412e-06,-7.270530418157506e-06,-0.0005967334738631232,0.000816085605635958,9.437862522580443e-05,3.419934576259214e-05,0.00015327423188150896,-0.0002915515594356819,-0.0009448995477325158,0.6568843722343445,46.30202865600586,5.588284015655518,-19.559053421020508,-0.7253928780555725,-2.4044833183288574,0.17337362468242645,0
74,0.364391565322876,-0.6568843722343445,-46.30202865600586,-5.588284015655518,19.559053421020508,0.7253928780555725,2.4044833183288574,-0.17337362468242645,0.0,0.0,0.0,0.0,0.0,0.0,0.0,-0.642417164971158,-0.0063017578154500676,-0.40893655211449964,0.3538782664011136,0.13960422059622077,0.14445422351289813,-0.15077228796139538,0.8781415451538863,0.7553728594529001,-0.2826177267838584,-1.669122923733842,0.14142434416214625,2.403447253598108,1.0273453707612223,0.878092876070424,0.7554597494309409,-0.2825552651693207,-1.6690993614607135,0.1414185955172306,2.4034451173676383,1.0273381002308042,0.0005967334738631232,-0.000816085605635958,-9.437862522580443e-05,-3.419934576259214e-05,-0.00015327423188150896,0.0002915515594356819,0.0009448995477325158,0.0,0.0,0.0,0.0,0.0,0.0,0.0,-4.866908346234933e-05,8.688997804073839e-05,6.246161453765664e-05,2.3562273128607814e-05,-5.748644915648526e-06,-2.1362304698513412e-06,-7.270530418157506e-06,-0.0005967334738631232,0.000816085605635958,9.437862522580443e-05,3.419934576259214e-05,0.00015327423188150896,-0.0002915515594356819,-0.0009448995477325158,0.6568843722343445,46.30202865600586,5.588284015655518,-19.559053421020508,-0.7253928780555725,-2.4044833183288574,0.17337362468242645,0
75,0.36939215660095215,-0.7084590792655945,-46.37740707397461,-5.588284015655518,19.535249710083008,0.7308860421180725,2.4108920097351074,-0.17337362468242645,0.0,0.0,0.0,0.0,0.0,0.0,0.0,-0.6337163962268543,-0.0006349173783938254,-0.4032003374131492,0.3509664364881357,0.13892199014904474,0.1441534969476902,-0.149878404929844,0.8781451641166863,0.7553781491664417,-0.2826177264598433,-1.66912125329804,0.14142373381058376,2.4034465415212845,1.0273453707612223,0.878092876070424,0.7554597494309409,-0.2825552651693207,-1.6690993614607135,0.1414185955172306,2.4034451173676383,1.0273381002308042,0.002023637108985889,0.001027150958596047,0.00020130845761023338,0.0005936499153511977,-0.00037550247666253756,2.7799381613286794e-05,0.0010753354733092956,0.0,0.0,0.0,0.0,0.0,0.0,0.0,-5.228804626233874e-05,8.160026449910429e-05,6.24612905225641e-05,2.1891837326482033e-05,-5.138293353162959e-06,-1.4241536461234716e-06,-7.270530418157506e-06,-0.002023637108985889,-0.001027150958596047,-0.00020130845761023338,-0.0005936499153511977,0.00037550247666253756,-2.7799381613286794e-05,-0.0010753354733092956,0.7084590792655945,46.37740707397461,5.588284015655518,-19.535249710083008,-0.7308860421180725,-2.4108920097351074,0.17337362468242645,0
76,0.3743901252746582,-0.7084590792655945,-46.37740707397461,-5.588284015655518,19.535249710083008,0.7308860421180725,2.4108920097351074,-0.17337362468242645,0.0,0.0,0.0,0.0,0.0,0.0,0.0,-0.6337163962268543,-0.0006349173783938254,-0.4032003374131492,0.3509664364881357,0.13892199014904474,0.1441534969476902,-0.149878404929844,0.8781451641166863,0.7553781491664417,-0.2826177264598433,-1.66912125329804,0.14142373381058376,2.4034465415212845,1.0273453707612223,0.878092876070424,0.7554597494309409,-0.2825552651693207,-1.6690993614607135,0.1414185955172306,2.4034451173676383,1.0273381002308042,0.002023637108985889,0.001027150958596047,0.00020130845761023338,0.0005936499153511977,-0.00037550247666253756,2.7799381613286794e-05,0.0010753354733092956,0.0,0.0,0.0,0.0,0.0,0.0,0.0,-5.228804626233874e-05,8.160026449910429e-05,6.24612905225641e-05,2.1891837326482033e-05,-5.138293353162959e-06,-1.4241536461234716e-06,-7.270530418157506e-06,-0.002023637108985889,-0.001027150958596047,-0.00020130845761023338,-0.0005936499153511977,0.00037550247666253756,-2.7799381613286794e-05,-0.0010753354733092956,0.7084590792655945,46.37740707397461,5.588284015655518,-19.535249710083008,-0.7308860421180725,-2.4108920097351074,0.17337362468242645,0
77,0.37938857078552246,-0.6291133761405945,-46.32583236694336,-5.588284015655518,19.559053421020508,0.7134910225868225,2.4173007011413574,-0.17978231608867645,0.0,0.0,0.0,0.0,0.0,0.0,0.0,-0.6356305821995564,-0.00257584351542378,-0.4048398899054806,0.34861806301206244,0.13929344716272052,0.14395760022023515,-0.14927248043866898,0.8781374505570052,0.7553745298887554,-0.2826177264598378,-1.6691229237338954,0.14142566659053166,2.4034458294444616,1.0273460828380452,0.878092876070424,0.7554597494309409,-0.2825552651693207,-1.6690993614607135,0.1414185955172306,2.4034451173676383,1.0273381002308042,-8.602237461976015e-05,-0.00013993206735941617,0.0004792816681328326,-0.0005136094583852115,0.00047119572478642233,-0.00031649211118154756,0.0013729415367270661,0.0,0.0,0.0,0.0,0.0,0.0,0.0,-4.457448658123919e-05,8.521954218543293e-05,6.24612905170685e-05,2.356227318189852e-05,-7.0710733010570515e-06,-7.120768232837804e-07,-7.982607240997197e-06,8.602237461976015e-05,0.00013993206735941617,-0.0004792816681328326,0.0005136094583852115,-0.00047119572478642233,0.00031649211118154756,-0.0013729415367270661,0.6291133761405945,46.32583236694336,5.588284015655518,-19.559053421020508,-0.7134910225868225,-2.4173007011413574,0.17978231608867645,0
78,0.38438963890075684,-0.6291133761405945,-46.32583236694336,-5.588284015655518,19.559053421020508,0.7134910225868225,2.4173007011413574,-0.17978231608867645,0.0,0.0,0.0,0.0,0.0,0.0,0.0,-0.6356305821995564,-0.00257584351542378,-0.4048398899054806,0.34861806301206244,0.13929344716272052,0.14395760022023515,-0.14927248043866898,0.8781374505570052,0.7553745298887554,-0.2826177264598378,-1.6691229237338954,0.14142566659053166,2.4034458294444616,1.0273460828380452,0.878092876070424,0.7554597494309409,-0.2825552651693207,-1.6690993614607135,0.1414185955172306,2.4034451173676383,1.0273381002308042,-8.602237461976015e-05,-0.00013993206735941617,0.0004792816681328326,-0.0005136094583852115,0.00047119572478642233,-0.00031649211118154756,0.0013729415367270661,0.0,0.0,0.0,0.0,0.0,0.0,0.0,-4.457448658123919e-05,8.521954218543293e-05,6.24612905170685e-05,2.356227318189852e-05,-7.0710733010570515e-06,-7.120768232837804e-07,-7.982607240997197e-06,8.602237461976015e-05,0.00013993206735941617,-0.0004792816681328326,0.0005136094583852115,-0.00047119572478642233,0.00031649211118154756,-0.0013729415367270661,0.6291133761405945,46.32583236694336,5.588284015655518,-19.559053421020508,-0.7134910225868225,-2.4173007011413574,0.17978231608867645,0
79,0.39008522033691406,-0.6053096652030945,-46.27822494506836,-5.536709308624268,19.535249710083008,0.7189841866493225,2.4108920097351074,-0.16604940593242645,0.0,0.0,0.0,0.0,0.0,0.0,0.0,-0.6262554514659993,-0.011955202301146479,-0.40234689379081273,0.3514905671636099,0.13963940897270935,0.14427746464823404,-0.14893281478073322,0.8781379258843249,0.7553711890170449,-0.2826213457375242,-1.6691211767686196,0.14142505623896917,2.4034466592588544,1.027344556959139,0.878092876070424,0.7554597494309409,-0.2825552651693207,-1.6690993614607135,0.1414185955172306,2.4034451173676383,1.0273381002308042,-0.0003771295787625837,-0.0011070140929106632,-0.0005776413624135014,0.0004818056176627622,0.00012865488714925048,-4.0899751453876564e-05,0.0005060688055477871,0.0,0.0,0.0,0.0,0.0,0.0,0.0,-4.504981390096585e-05,8.856041389593283e-05,6.608056820345265e-05,2.1815307906125625e-05,-6.460721738571484e-06,-1.541891216039204e-06,-6.456728334880424e-06,0.0003771295787625837,0.0011070140929106632,0.0005776413624135014,-0.0004818056176627622,-0.00012865488714925048,4.0899751453876564e-05,-0.0005060688055477871,0.6053096652030945,46.27822494506836,5.536709308624268,-19.535249710083008,-0.7189841866493225,-2.4108920097351074,0.16604940593242645,0
80,0.3943929672241211,-0.6053096652030945,-46.27822494506836,-5.536709308624268,19.535249710083008,0.7189841866493225,2.4108920097351074,-0.16604940593242645,0.0,0.0,0.0,0.0,0.0,0.0,0.0,-0.6262554514659993,-0.011955202301146479,-0.40234689379081273,0.3514905671636099,0.13963940897270935,0.14427746464823404,-0.14893281478073322,0.8781379258843249,0.7553711890170449,-0.2826213457375242,-1.6691211767686196,0.14142505623896917,2.4034466592588544,1.027344556959139,0.878092876070424,0.7554597494309409,-0.2825552651693207,-1.6690993614607135,0.1414185955172306,2.4034451173676383,1.0273381002308042,-0.0003771295787625837,-0.0011070140929106632,-0.0005776413624135014,0.0004818056176627622,0.00012865488714925048,-4.0899751453876564e-05,0.0005060688055477871,0.0,0.0,0.0,0.0,0.0,0.0,0.0,-4.504981390096585e-05,8.856041389593283e-05,6.608056820345265e-05,2.1815307906125625e-05,-6.460721738571484e-06,-1.541891216039204e-06,-6.456728334880424e-06,0.0003771295787625837,0.0011070140929106632,0.0005776413624135014,-0.0004818056176627622,-0.00012865488714925048,4.0899751453876564e-05,-0.0005060688055477871,0.6053096652030945,46.27822494506836,5.536709308624268,-19.535249710083008,-0.7189841866493225,-2.4108920097351074,0.16604940593242645,0
