rezayati/contactInterpretation/dataset/franka_main/labeled_data/link5/c4_6.csv
index,time,tau_J0,tau_J1,tau_J2,tau_J3,tau_J4,tau_J5,tau_J6,tau_J_d0,tau_J_d1,tau_J_d2,tau_J_d3,tau_J_d4,tau_J_d5,tau_J_d6,tau_ext0,tau_ext1,tau_ext2,tau_ext3,tau_ext4,tau_ext5,tau_ext6,q0,q1,q2,q3,q4,q5,q6,q_d0,q_d1,q_d2,q_d3,q_d4,q_d5,q_d6,dq0,dq1,dq2,dq3,dq4,dq5,dq6,dq_d0,dq_d1,dq_d2,dq_d3,dq_d4,dq_d5,dq_d6,e0,e1,e2,e3,e4,e5,e6,de0,de1,de2,de3,de4,de5,de6,etau_J0,etau_J1,etau_J2,etau_J3,etau_J4,etau_J5,etau_J6,label
1,0.0,0.13260537385940552,-18.130334854125977,1.1441986560821533,18.245882034301758,0.7189841866493225,2.2360262870788574,-0.20724813640117645,0.0,0.0,0.0,0.0,0.0,0.0,0.0,0.12520693133103383,0.5432653280168007,0.3098208133381718,0.6196386816624248,0.30081862151798605,0.06687317828877858,-0.19556974125337673,-0.609290547534039,-0.05750792638147086,-0.6666014266348722,-2.594705209832442,-0.055691368079111896,2.507958873801761,0.8763191901757753,-0.6090851748156966,-0.05753196718556838,-0.666603097082616,-2.5945565370258534,-0.05562143941554,2.507976027223799,0.8763108487046415,-0.000583451321216368,-0.0007824555280028217,-0.0011834932588347653,1.003728255957477e-05,0.0002651736451584854,0.0004255690316182202,0.0003098302968746671,0.0,0.0,0.0,0.0,0.0,0.0,0.0,0.00020537271834242254,-2.4040804097520685e-05,-1.6704477437956555e-06,0.00014867280658847903,6.99286635718957e-05,1.7153422037896604e-05,-8.341471133821443e-06,0.000583451321216368,0.0007824555280028217,0.0011834932588347653,-1.003728255957477e-05,-0.0002651736451584854,-0.0004255690316182202,-0.0003098302968746671,-0.13260537385940552,18.130334854125977,-1.1441986560821533,-18.245882034301758,-0.7189841866493225,-2.2360262870788574,0.20724813640117645,0
2,0.005167484283447266,0.13260537385940552,-18.130334854125977,1.1441986560821533,18.245882034301758,0.7189841866493225,2.2360262870788574,-0.20724813640117645,0.0,0.0,0.0,0.0,0.0,0.0,0.0,0.12520693133103383,0.5432653280168007,0.3098208133381718,0.6196386816624248,0.30081862151798605,0.06687317828877858,-0.19556974125337673,-0.609290547534039,-0.05750792638147086,-0.6666014266348722,-2.594705209832442,-0.055691368079111896,2.507958873801761,0.8763191901757753,-0.6090851748156966,-0.05753196718556838,-0.666603097082616,-2.5945565370258534,-0.05562143941554,2.507976027223799,0.8763108487046415,-0.000583451321216368,-0.0007824555280028217,-0.0011834932588347653,1.003728255957477e-05,0.0002651736451584854,0.0004255690316182202,0.0003098302968746671,0.0,0.0,0.0,0.0,0.0,0.0,0.0,0.00020537271834242254,-2.4040804097520685e-05,-1.6704477437956555e-06,0.00014867280658847903,6.99286635718957e-05,1.7153422037896604e-05,-8.341471133821443e-06,0.000583451321216368,0.0007824555280028217,0.0011834932588347653,-1.003728255957477e-05,-0.0002651736451584854,-0.0004255690316182202,-0.0003098302968746671,-0.13260537385940552,18.130334854125977,-1.1441986560821533,-18.245882034301758,-0.7189841866493225,-2.2360262870788574,0.20724813640117645,0
3,0.010000228881835938,0.18418008089065552,-18.130334854125977,1.0926239490509033,18.245882034301758,0.7189841866493225,2.2689852714538574,-0.21457235515117645,0.0,0.0,0.0,0.0,0.0,0.0,0.0,0.13066537036159492,0.544650093956898,0.31299530369558415,0.6125215195831687,0.2999736231086038,0.06519962461967414,-0.19431097548865725,-0.6092941668117254,-0.05750792638147086,-0.6665978073571858,-2.594705209832442,-0.05569148636790893,2.507955211692386,0.8763200039780801,-0.6090851748156966,-0.05753196718556838,-0.666603097082616,-2.5945565370258534,-0.05562143941554,2.507976027223799,0.8763108487046415,-0.0012173013786002424,-0.00013750623255036654,0.0009550563708707019,-0.0003522231768551989,8.246268371202773e-05,-0.0005326509616855167,0.001049431239376345,0.0,0.0,0.0,0.0,0.0,0.0,0.0,0.0002089919960288622,-2.4040804097520685e-05,-5.289725430235315e-06,0.00014867280658847903,7.004695236893094e-05,2.0815531412754495e-05,-9.155273438588019e-06,0.0012173013786002424,0.00013750623255036654,-0.0009550563708707019,0.0003522231768551989,-8.246268371202773e-05,0.0005326509616855167,-0.001049431239376345,-0.18418008089065552,18.130334854125977,-1.0926239490509033,-18.245882034301758,-0.7189841866493225,-2.2689852714538574,0.21457235515117645,0
4,0.014997482299804688,0.18418008089065552,-18.130334854125977,1.0926239490509033,18.245882034301758,0.7189841866493225,2.2689852714538574,-0.21457235515117645,0.0,0.0,0.0,0.0,0.0,0.0,0.0,0.13066537036159492,0.544650093956898,0.31299530369558415,0.6125215195831687,0.2999736231086038,0.06519962461967414,-0.19431097548865725,-0.6092941668117254,-0.05750792638147086,-0.6665978073571858,-2.594705209832442,-0.05569148636790893,2.507955211692386,0.8763200039780801,-0.6090851748156966,-0.05753196718556838,-0.666603097082616,-2.5945565370258534,-0.05562143941554,2.507976027223799,0.8763108487046415,-0.0012173013786002424,-0.00013750623255036654,0.0009550563708707019,-0.0003522231768551989,8.246268371202773e-05,-0.0005326509616855167,0.001049431239376345,0.0,0.0,0.0,0.0,0.0,0.0,0.0,0.0002089919960288622,-2.4040804097520685e-05,-5.289725430235315e-06,0.00014867280658847903,7.004695236893094e-05,2.0815531412754495e-05,-9.155273438588019e-06,0.0012173013786002424,0.00013750623255036654,-0.0009550563708707019,0.0003522231768551989,-8.246268371202773e-05,0.0005326509616855167,-0.001049431239376345,-0.18418008089065552,18.130334854125977,-1.0926239490509033,-18.245882034301758,-0.7189841866493225,-2.2689852714538574,0.21457235515117645,0
5,0.019999027252197266,0.18418008089065552,-18.078760147094727,1.1441986560821533,18.222078323364258,0.7253928780555725,2.2360262870788574,-0.17978231608867645,0.0,0.0,0.0,0.0,0.0,0.0,0.0,0.13938289940939227,0.5406156726314,0.3186425196161689,0.6147191434272654,0.2996968377322677,0.06648753555871081,-0.19303418089325577,-0.6092941668117254,-0.05751154565915727,-0.6666014266348722,-2.5947032921476905,-0.05569219844539959,2.507958873801761,0.8763161383643491,-0.6090851748156966,-0.05753196718556838,-0.666603097082616,-2.5945565370258534,-0.05562143941554,2.507976027223799,0.8763108487046415,-0.00026181868419280173,-0.0008774086096362109,0.0005564277736588834,0.0004208566777354119,2.9757335087482315e-05,0.0003316083274413301,-0.0006677167138358078,0.0,0.0,0.0,0.0,0.0,0.0,0.0,0.0002089919960288622,-2.042152641111572e-05,-1.6704477437956555e-06,0.00014675512183703887,7.07590298595906e-05,1.7153422037896604e-05,-5.28965970758577e-06,0.00026181868419280173,0.0008774086096362109,-0.0005564277736588834,-0.0004208566777354119,-2.9757335087482315e-05,-0.0003316083274413301,0.0006677167138358078,-0.18418008089065552,18.078760147094727,-1.1441986560821533,-18.222078323364258,-0.7253928780555725,-2.2360262870788574,0.17978231608867645,0
6,0.025002717971801758,0.18418008089065552,-18.078760147094727,1.1441986560821533,18.222078323364258,0.7253928780555725,2.2360262870788574,-0.17978231608867645,0.0,0.0,0.0,0.0,0.0,0.0,0.0,0.13938289940939227,0.5406156726314,0.3186425196161689,0.6147191434272654,0.2996968377322677,0.06648753555871081,-0.19303418089325577,-0.6092941668117254,-0.05751154565915727,-0.6666014266348722,-2.5947032921476905,-0.05569219844539959,2.507958873801761,0.8763161383643491,-0.6090851748156966,-0.05753196718556838,-0.666603097082616,-2.5945565370258534,-0.05562143941554,2.507976027223799,0.8763108487046415,-0.00026181868419280173,-0.0008774086096362109,0.0005564277736588834,0.0004208566777354119,2.9757335087482315e-05,0.0003316083274413301,-0.0006677167138358078,0.0,0.0,0.0,0.0,0.0,0.0,0.0,0.0002089919960288622,-2.042152641111572e-05,-1.6704477437956555e-06,0.00014675512183703887,7.07590298595906e-05,1.7153422037896604e-05,-5.28965970758577e-06,0.00026181868419280173,0.0008774086096362109,-0.0005564277736588834,-0.0004208566777354119,-2.9757335087482315e-05,-0.0003316083274413301,0.0006677167138358078,-0.18418008089065552,18.078760147094727,-1.1441986560821533,-18.222078323364258,-0.7253928780555725,-2.2360262870788574,0.17978231608867645,0
7,0.030007600784301758,0.13260537385940552,-18.106531143188477,1.1164276599884033,18.245882034301758,0.7189841866493225,2.2424349784851074,-0.21457235515117645,0.0,0.0,0.0,0.0,0.0,0.0,0.0,0.1359925954844858,0.543801204688383,0.3126695631685062,0.6123302984424369,0.3006359685814944,0.0650673743774744,-0.19417350902877453,-0.609290547534039,-0.05750959681732613,-0.666599239374462,-2.5947052098310466,-0.05569042176339361,2.5079581617249382,0.8763200039780799,-0.6090851748156966,-0.05753196718556838,-0.666603097082616,-2.5945565370258534,-0.05562143941554,2.507976027223799,0.8763108487046415,0.00060837807321746,0.0004776635382030705,0.000666909783810751,-0.0004871080819893455,0.0002470832103708878,5.678114653964321e-05,0.000500697791723421,0.0,0.0,0.0,0.0,0.0,0.0,0.0,0.00020537271834242254,-2.2370368242256855e-05,-3.857708154031414e-06,0.00014867280519315074,6.898234785360918e-05,1.7865498860736295e-05,-9.155273438365974e-06,-0.00060837807321746,-0.0004776635382030705,-0.000666909783810751,0.0004871080819893455,-0.0002470832103708878,-5.678114653964321e-05,-0.000500697791723421,-0.13260537385940552,18.106531143188477,-1.1164276599884033,-18.245882034301758,-0.7189841866493225,-2.2424349784851074,0.21457235515117645,0
8,0.03500509262084961,0.13260537385940552,-18.106531143188477,1.1164276599884033,18.245882034301758,0.7189841866493225,2.2424349784851074,-0.21457235515117645,0.0,0.0,0.0,0.0,0.0,0.0,0.0,0.1359925954844858,0.543801204688383,0.3126695631685062,0.6123302984424369,0.3006359685814944,0.0650673743774744,-0.19417350902877453,-0.609290547534039,-0.05750959681732613,-0.666599239374462,-2.5947052098310466,-0.05569042176339361,2.5079581617249382,0.8763200039780799,-0.6090851748156966,-0.05753196718556838,-0.666603097082616,-2.5945565370258534,-0.05562143941554,2.507976027223799,0.8763108487046415,0.00060837807321746,0.0004776635382030705,0.000666909783810751,-0.0004871080819893455,0.0002470832103708878,5.678114653964321e-05,0.000500697791723421,0.0,0.0,0.0,0.0,0.0,0.0,0.0,0.00020537271834242254,-2.2370368242256855e-05,-3.857708154031414e-06,0.00014867280519315074,6.898234785360918e-05,1.7865498860736295e-05,-9.155273438365974e-06,-0.00060837807321746,-0.0004776635382030705,-0.000666909783810751,0.0004871080819893455,-0.0002470832103708878,-5.678114653964321e-05,-0.000500697791723421,-0.13260537385940552,18.106531143188477,-1.1164276599884033,-18.245882034301758,-0.7189841866493225,-2.2424349784851074,0.21457235515117645,0
9,0.04000115394592285,0.18418008089065552,-18.054956436157227,1.1164276599884033,18.269685745239258,0.7189841866493225,2.2625765800476074,-0.20083944499492645,0.0,0.0,0.0,0.0,0.0,0.0,0.0,0.1493038132170132,0.5481777457116642,0.3225099331858794,0.6165091618391948,0.3003148360170312,0.06557456769759097,-0.19547644616788476,-0.6092941668117254,-0.05751321609501253,-0.6665994777916951,-2.5947068802682973,-0.055691486362566954,2.507955923769209,0.8763184780991738,-0.6090851748156966,-0.05753196718556838,-0.666603097082616,-2.5945565370258534,-0.05562143941554,2.507976027223799,0.8763108487046415,-0.00039586443847159606,-0.000347304140957453,0.0009626470393617547,-0.0002034327144677679,-7.91348976724016e-05,-0.0004555484438016246,0.0004995925428640102,0.0,0.0,0.0,0.0,0.0,0.0,0.0,0.0002089919960288622,-1.875109055585189e-05,-3.6192909208532242e-06,0.00015034324244389552,7.004694702695408e-05,2.0103454589914804e-05,-7.629394532360223e-06,0.00039586443847159606,0.000347304140957453,-0.0009626470393617547,0.0002034327144677679,7.91348976724016e-05,0.0004555484438016246,-0.0004995925428640102,-0.18418008089065552,18.054956436157227,-1.1164276599884033,-18.269685745239258,-0.7189841866493225,-2.2625765800476074,0.20083944499492645,0
10,0.0449981689453125,0.18418008089065552,-18.054956436157227,1.1164276599884033,18.269685745239258,0.7189841866493225,2.2625765800476074,-0.20083944499492645,0.0,0.0,0.0,0.0,0.0,0.0,0.0,0.1493038132170132,0.5481777457116642,0.3225099331858794,0.6165091618391948,0.3003148360170312,0.06557456769759097,-0.19547644616788476,-0.6092941668117254,-0.05751321609501253,-0.6665994777916951,-2.5947068802682973,-0.055691486362566954,2.507955923769209,0.8763184780991738,-0.6090851748156966,-0.05753196718556838,-0.666603097082616,-2.5945565370258534,-0.05562143941554,2.507976027223799,0.8763108487046415,-0.00039586443847159606,-0.000347304140957453,0.0009626470393617547,-0.0002034327144677679,-7.91348976724016e-05,-0.0004555484438016246,0.0004995925428640102,0.0,0.0,0.0,0.0,0.0,0.0,0.0,0.0002089919960288622,-1.875109055585189e-05,-3.6192909208532242e-06,0.00015034324244389552,7.004694702695408e-05,2.0103454589914804e-05,-7.629394532360223e-06,0.00039586443847159606,0.000347304140957453,-0.0009626470393617547,0.0002034327144677679,7.91348976724016e-05,0.0004555484438016246,-0.0004995925428640102,-0.18418008089065552,18.054956436157227,-1.1164276599884033,-18.269685745239258,-0.7189841866493225,-2.2625765800476074,0.20083944499492645,0
11,0.04999852180480957,0.18418008089065552,-18.054956436157227,1.1164276599884033,18.269685745239258,0.7189841866493225,2.2625765800476074,-0.20083944499492645,0.0,0.0,0.0,0.0,0.0,0.0,0.0,0.1493038132170132,0.5481777457116642,0.3225099331858794,0.6165091618391948,0.3003148360170312,0.06557456769759097,-0.19547644616788476,-0.6092941668117254,-0.05751321609501253,-0.6665994777916951,-2.5947068802682973,-0.055691486362566954,2.507955923769209,0.8763184780991738,-0.6090851748156966,-0.05753196718556838,-0.666603097082616,-2.5945565370258534,-0.05562143941554,2.507976027223799,0.8763108487046415,-0.00039586443847159606,-0.000347304140957453,0.0009626470393617547,-0.0002034327144677679,-7.91348976724016e-05,-0.0004555484438016246,0.0004995925428640102,0.0,0.0,0.0,0.0,0.0,0.0,0.0,0.0002089919960288622,-1.875109055585189e-05,-3.6192909208532242e-06,0.00015034324244389552,7.004694702695408e-05,2.0103454589914804e-05,-7.629394532360223e-06,0.00039586443847159606,0.000347304140957453,-0.0009626470393617547,0.0002034327144677679,7.91348976724016e-05,0.0004555484438016246,-0.0004995925428640102,-0.18418008089065552,18.054956436157227,-1.1164276599884033,-18.269685745239258,-0.7189841866493225,-2.2625765800476074,0.20083944499492645,0
12,0.054999351501464844,0.18418008089065552,-18.054956436157227,1.1164276599884033,18.269685745239258,0.7189841866493225,2.2625765800476074,-0.20083944499492645,0.0,0.0,0.0,0.0,0.0,0.0,0.0,0.1493038132170132,0.5481777457116642,0.3225099331858794,0.6165091618391948,0.3003148360170312,0.06557456769759097,-0.19547644616788476,-0.6092941668117254,-0.05751321609501253,-0.6665994777916951,-2.5947068802682973,-0.055691486362566954,2.507955923769209,0.8763184780991738,-0.6090851748156966,-0.05753196718556838,-0.666603097082616,-2.5945565370258534,-0.05562143941554,2.507976027223799,0.8763108487046415,-0.00039586443847159606,-0.000347304140957453,0.0009626470393617547,-0.0002034327144677679,-7.91348976724016e-05,-0.0004555484438016246,0.0004995925428640102,0.0,0.0,0.0,0.0,0.0,0.0,0.0,0.0002089919960288622,-1.875109055585189e-05,-3.6192909208532242e-06,0.00015034324244389552,7.004694702695408e-05,2.0103454589914804e-05,-7.629394532360223e-06,0.00039586443847159606,0.000347304140957453,-0.0009626470393617547,0.0002034327144677679,7.91348976724016e-05,0.0004555484438016246,-0.0004995925428640102,-0.18418008089065552,18.054956436157227,-1.1164276599884033,-18.269685745239258,-0.7189841866493225,-2.2625765800476074,0.20083944499492645,0
13,0.0599977970123291,0.18418008089065552,-18.078760147094727,1.1441986560821533,18.222078323364258,0.7189841866493225,2.2552523612976074,-0.22098104655742645,0.0,0.0,0.0,0.0,0.0,0.0,0.0,0.14407341504219645,0.555161857990691,0.31651481853198266,0.6142409190336131,0.300065686724924,0.06570725079687847,-0.19570950228572595,-0.6092919945535603,-0.05751154565915727,-0.6666014266348721,-2.594703539396587,-0.05568829255302744,2.5079567375712926,0.876320716054903,-0.6090851748156966,-0.05753196718556838,-0.666603097082616,-2.5945565370258534,-0.05562143941554,2.507976027223799,0.8763108487046415,-0.0009246080232255115,-0.0003808102310691897,-0.0003260817212343486,0.000472384307575034,0.00015334261932053748,-0.00045441750679484826,0.0005445032966334343,0.0,0.0,0.0,0.0,0.0,0.0,0.0,0.0002068197378637393,-2.042152641111572e-05,-1.6704477439066778e-06,0.00014700237073350664,6.685313748743676e-05,1.9289652506415678e-05,-9.867350261538732e-06,0.0009246080232255115,0.0003808102310691897,0.0003260817212343486,-0.000472384307575034,-0.00015334261932053748,0.00045441750679484826,-0.0005445032966334343,-0.18418008089065552,18.078760147094727,-1.1441986560821533,-18.222078323364258,-0.7189841866493225,-2.2552523612976074,0.22098104655742645,0
14,0.06500363349914551,0.18418008089065552,-18.078760147094727,1.1441986560821533,18.222078323364258,0.7189841866493225,2.2552523612976074,-0.22098104655742645,0.0,0.0,0.0,0.0,0.0,0.0,0.0,0.14407341504219645,0.555161857990691,0.31651481853198266,0.6142409190336131,0.300065686724924,0.06570725079687847,-0.19570950228572595,-0.6092919945535603,-0.05751154565915727,-0.6666014266348721,-2.594703539396587,-0.05568829255302744,2.5079567375712926,0.876320716054903,-0.6090851748156966,-0.05753196718556838,-0.666603097082616,-2.5945565370258534,-0.05562143941554,2.507976027223799,0.8763108487046415,-0.0009246080232255115,-0.0003808102310691897,-0.0003260817212343486,0.000472384307575034,0.00015334261932053748,-0.00045441750679484826,0.0005445032966334343,0.0,0.0,0.0,0.0,0.0,0.0,0.0,0.0002068197378637393,-2.042152641111572e-05,-1.6704477439066778e-06,0.00014700237073350664,6.685313748743676e-05,1.9289652506415678e-05,-9.867350261538732e-06,0.0009246080232255115,0.0003808102310691897,0.0003260817212343486,-0.000472384307575034,-0.00015334261932053748,0.00045441750679484826,-0.0005445032966334343,-0.18418008089065552,18.078760147094727,-1.1441986560821533,-18.222078323364258,-0.7189841866493225,-2.2552523612976074,0.22098104655742645,0
15,0.06999826431274414,0.16037636995315552,-18.106531143188477,1.1164276599884033,18.222078323364258,0.7253928780555725,2.2552523612976074,-0.20724813640117645,0.0,0.0,0.0,0.0,0.0,0.0,0.0,0.14379389166892076,0.5563491418609767,0.3160110222936066,0.6156843746492707,0.29982327467721076,0.06539772033843261,-0.19831241375722253,-0.6092924963636077,-0.05750959681732613,-0.666599477793041,-2.594703539396587,-0.055692198427370415,2.5079567375712926,0.8763191901759968,-0.6090851748156966,-0.05753196718556838,-0.666603097082616,-2.5945565370258534,-0.05562143941554,2.507976027223799,0.8763108487046415,-0.0007025702316935294,-0.00036946552787142515,0.0001865725504317122,0.0004818570616813364,4.836048217984054e-05,-0.00027225771782379897,0.00028245606552482466,0.0,0.0,0.0,0.0,0.0,0.0,0.0,0.00020732154791114343,-2.2370368242256855e-05,-3.6192895750408738e-06,0.00014700237073350664,7.075901183041522e-05,1.9289652506415678e-05,-8.341471355310937e-06,0.0007025702316935294,0.00036946552787142515,-0.0001865725504317122,-0.0004818570616813364,-4.836048217984054e-05,0.00027225771782379897,-0.00028245606552482466,-0.16037636995315552,18.106531143188477,-1.1164276599884033,-18.222078323364258,-0.7253928780555725,-2.2552523612976074,0.20724813640117645,0
16,0.07501006126403809,0.16037636995315552,-18.106531143188477,1.1164276599884033,18.222078323364258,0.7253928780555725,2.2552523612976074,-0.20724813640117645,0.0,0.0,0.0,0.0,0.0,0.0,0.0,0.14379389166892076,0.5563491418609767,0.3160110222936066,0.6156843746492707,0.29982327467721076,0.06539772033843261,-0.19831241375722253,-0.6092924963636077,-0.05750959681732613,-0.666599477793041,-2.594703539396587,-0.055692198427370415,2.5079567375712926,0.8763191901759968,-0.6090851748156966,-0.05753196718556838,-0.666603097082616,-2.5945565370258534,-0.05562143941554,2.507976027223799,0.8763108487046415,-0.0007025702316935294,-0.00036946552787142515,0.0001865725504317122,0.0004818570616813364,4.836048217984054e-05,-0.00027225771782379897,0.00028245606552482466,0.0,0.0,0.0,0.0,0.0,0.0,0.0,0.00020732154791114343,-2.2370368242256855e-05,-3.6192895750408738e-06,0.00014700237073350664,7.075901183041522e-05,1.9289652506415678e-05,-8.341471355310937e-06,0.0007025702316935294,0.00036946552787142515,-0.0001865725504317122,-0.0004818570616813364,-4.836048217984054e-05,0.00027225771782379897,-0.00028245606552482466,-0.16037636995315552,18.106531143188477,-1.1164276599884033,-18.222078323364258,-0.7253928780555725,-2.2552523612976074,0.20724813640117645,0
17,0.08000659942626953,0.13260537385940552,-18.154138565063477,1.1441986560821533,18.245882034301758,0.7189841866493225,2.2552523612976074,-0.15231649577617645,0.0,0.0,0.0,0.0,0.0,0.0,0.0,0.14418522464400038,0.5542766213461001,0.31658714919645947,0.6126755851298524,0.29967896370373887,0.06501025291569607,-0.19864369031079074,-0.609290547534039,-0.0575062559456156,-0.6666014266348721,-2.594705209832442,-0.05569148636857658,2.5079567375712926,0.8763130864988663,-0.6090851748156966,-0.05753196718556838,-0.666603097082616,-2.5945565370258534,-0.05562143941554,2.507976027223799,0.8763108487046415,9.423024269022919e-06,0.00039243436823564813,-0.0008010818407634226,-0.00021953406760779874,8.372542737460591e-05,-0.00013495967646872498,-0.0014346751435451147,0.0,0.0,0.0,0.0,0.0,0.0,0.0,0.00020537271834242254,-2.5711239952784515e-05,-1.6704477439066778e-06,0.00014867280658847903,7.004695303657743e-05,1.9289652506415678e-05,-2.2377942248130722e-06,-9.423024269022919e-06,-0.00039243436823564813,0.0008010818407634226,0.00021953406760779874,-8.372542737460591e-05,0.00013495967646872498,0.0014346751435451147,-0.13260537385940552,18.154138565063477,-1.1441986560821533,-18.245882034301758,-0.7189841866493225,-2.2552523612976074,0.15231649577617645,0
18,0.08500862121582031,0.13260537385940552,-18.154138565063477,1.1441986560821533,18.245882034301758,0.7189841866493225,2.2552523612976074,-0.15231649577617645,0.0,0.0,0.0,0.0,0.0,0.0,0.0,0.14418522464400038,0.5542766213461001,0.31658714919645947,0.6126755851298524,0.29967896370373887,0.06501025291569607,-0.19864369031079074,-0.609290547534039,-0.0575062559456156,-0.6666014266348721,-2.594705209832442,-0.05569148636857658,2.5079567375712926,0.8763130864988663,-0.6090851748156966,-0.05753196718556838,-0.666603097082616,-2.5945565370258534,-0.05562143941554,2.507976027223799,0.8763108487046415,9.423024269022919e-06,0.00039243436823564813,-0.0008010818407634226,-0.00021953406760779874,8.372542737460591e-05,-0.00013495967646872498,-0.0014346751435451147,0.0,0.0,0.0,0.0,0.0,0.0,0.0,0.00020537271834242254,-2.5711239952784515e-05,-1.6704477439066778e-06,0.00014867280658847903,7.004695303657743e-05,1.9289652506415678e-05,-2.2377942248130722e-06,-9.423024269022919e-06,-0.00039243436823564813,0.0008010818407634226,0.00021953406760779874,-8.372542737460591e-05,0.00013495967646872498,0.0014346751435451147,-0.13260537385940552,18.154138565063477,-1.1441986560821533,-18.245882034301758,-0.7189841866493225,-2.2552523612976074,0.15231649577617645,0
19,0.09000444412231445,0.08103066682815552,-18.130334854125977,1.1441986560821533,18.222078323364258,0.7253928780555725,2.2552523612976074,-0.21457235515117645,0.0,0.0,0.0,0.0,0.0,0.0,0.0,0.13223954247967432,0.5496917622457855,0.3059122524874403,0.6122300300314352,0.2998971244394426,0.06517892694394703,-0.1946030829190237,-0.6092869282563527,-0.05750792638147086,-0.6666014266348721,-2.594703539396587,-0.0556921984453996,2.5079567375712926,0.8763196506038639,-0.6090851748156966,-0.05753196718556838,-0.666603097082616,-2.5945565370258534,-0.05562143941554,2.507976027223799,0.8763108487046415,0.00042724893172046855,-3.74439016268126e-05,-0.0009499264158439884,0.0002625768333658651,-3.646861209662347e-05,-0.00024354588086160803,0.0012156567857413783,0.0,0.0,0.0,0.0,0.0,0.0,0.0,0.0002017534406560939,-2.4040804097520685e-05,-1.6704477439066778e-06,0.00014700237073350664,7.075902985959753e-05,1.9289652506415678e-05,-8.801899222365961e-06,-0.00042724893172046855,3.74439016268126e-05,0.0009499264158439884,-0.0002625768333658651,3.646861209662347e-05,0.00024354588086160803,-0.0012156567857413783,-0.08103066682815552,18.130334854125977,-1.1441986560821533,-18.222078323364258,-0.7253928780555725,-2.2552523612976074,0.21457235515117645,0
20,0.09502935409545898,0.08103066682815552,-18.130334854125977,1.1441986560821533,18.222078323364258,0.7253928780555725,2.2552523612976074,-0.21457235515117645,0.0,0.0,0.0,0.0,0.0,0.0,0.0,0.13223954247967432,0.5496917622457855,0.3059122524874403,0.6122300300314352,0.2998971244394426,0.06517892694394703,-0.1946030829190237,-0.6092869282563527,-0.05750792638147086,-0.6666014266348721,-2.594703539396587,-0.0556921984453996,2.5079567375712926,0.8763196506038639,-0.6090851748156966,-0.05753196718556838,-0.666603097082616,-2.5945565370258534,-0.05562143941554,2.507976027223799,0.8763108487046415,0.00042724893172046855,-3.74439016268126e-05,-0.0009499264158439884,0.0002625768333658651,-3.646861209662347e-05,-0.00024354588086160803,0.0012156567857413783,0.0,0.0,0.0,0.0,0.0,0.0,0.0,0.0002017534406560939,-2.4040804097520685e-05,-1.6704477439066778e-06,0.00014700237073350664,7.075902985959753e-05,1.9289652506415678e-05,-8.801899222365961e-06,-0.00042724893172046855,3.74439016268126e-05,0.0009499264158439884,-0.0002625768333658651,3.646861209662347e-05,0.00024354588086160803,-0.0012156567857413783,-0.08103066682815552,18.130334854125977,-1.1441986560821533,-18.222078323364258,-0.7253928780555725,-2.2552523612976074,0.21457235515117645,0
21,0.10004639625549316,0.10880166292190552,-18.106531143188477,1.1164276599884033,18.222078323364258,0.7308860421180725,2.2625765800476074,-0.18710653483867645,0.0,0.0,0.0,0.0,0.0,0.0,0.0,0.13781523447339858,0.5498093376552042,0.31650461780462447,0.6105165743087997,0.29916922422234893,0.06441991682338942,-0.1933888150548261,-0.6092888770981838,-0.05750959681732613,-0.666599477793041,-2.594703539396587,-0.05569245392856774,2.507955923769209,0.8763169522182729,-0.6090851748156966,-0.05753196718556838,-0.666603097082616,-2.5945565370258534,-0.05562143941554,2.507976027223799,0.8763108487046415,0.00035237523017231213,-0.00032257834021398596,4.865995817581632e-06,0.00038667505801515893,-0.00025385646214355715,-0.0007173622768563701,-0.0008986920570480166,0.0,0.0,0.0,0.0,0.0,0.0,0.0,0.0002037022824872281,-2.2370368242256855e-05,-3.6192895750408738e-06,0.00014700237073350664,7.101451302773953e-05,2.0103454589914804e-05,-6.103513631394719e-06,-0.00035237523017231213,0.00032257834021398596,-4.865995817581632e-06,-0.00038667505801515893,0.00025385646214355715,0.0007173622768563701,0.0008986920570480166,-0.10880166292190552,18.106531143188477,-1.1164276599884033,-18.222078323364258,-0.7308860421180725,-2.2625765800476074,0.18710653483867645,0
22,0.10500049591064453,0.10880166292190552,-18.106531143188477,1.1164276599884033,18.222078323364258,0.7308860421180725,2.2625765800476074,-0.18710653483867645,0.0,0.0,0.0,0.0,0.0,0.0,0.0,0.13781523447339858,0.5498093376552042,0.31650461780462447,0.6105165743087997,0.29916922422234893,0.06441991682338942,-0.1933888150548261,-0.6092888770981838,-0.05750959681732613,-0.666599477793041,-2.594703539396587,-0.05569245392856774,2.507955923769209,0.8763169522182729,-0.6090851748156966,-0.05753196718556838,-0.666603097082616,-2.5945565370258534,-0.05562143941554,2.507976027223799,0.8763108487046415,0.00035237523017231213,-0.00032257834021398596,4.865995817581632e-06,0.00038667505801515893,-0.00025385646214355715,-0.0007173622768563701,-0.0008986920570480166,0.0,0.0,0.0,0.0,0.0,0.0,0.0,0.0002037022824872281,-2.2370368242256855e-05,-3.6192895750408738e-06,0.00014700237073350664,7.101451302773953e-05,2.0103454589914804e-05,-6.103513631394719e-06,-0.00035237523017231213,0.00032257834021398596,-4.865995817581632e-06,-0.00038667505801515893,0.00025385646214355715,0.0007173622768563701,0.0008986920570480166,-0.10880166292190552,18.106531143188477,-1.1164276599884033,-18.222078323364258,-0.7308860421180725,-2.2625765800476074,0.18710653483867645,0
23,0.1100003719329834,0.10880166292190552,-18.106531143188477,1.1441986560821533,18.222078323364258,0.7308860421180725,2.2488436698913574,-0.22098104655742645,0.0,0.0,0.0,0.0,0.0,0.0,0.0,0.13106174969858478,0.5441530800517888,0.3094922493581837,0.6148402475445607,0.299465369378669,0.0652167374077912,-0.1961880764568339,-0.6092888770981838,-0.05750959681732613,-0.6666014266348721,-2.594703539396587,-0.05569280879495885,2.5079574496481154,0.876320716054903,-0.6090851748156966,-0.05753196718556838,-0.666603097082616,-2.5945565370258534,-0.05562143941554,2.507976027223799,0.8763108487046415,0.0003842116722530812,-0.00010424007305801529,-0.0004971791084491814,0.0002276546774889511,-0.00022895594511456358,0.0001357884903364051,0.0010225137750576325,0.0,0.0,0.0,0.0,0.0,0.0,0.0,0.0002037022824872281,-2.2370368242256855e-05,-1.6704477439066778e-06,0.00014700237073350664,7.136937941885219e-05,1.8577575683575986e-05,-9.867350261538732e-06,-0.0003842116722530812,0.00010424007305801529,0.0004971791084491814,-0.0002276546774889511,0.00022895594511456358,-0.0001357884903364051,-0.0010225137750576325,-0.10880166292190552,18.106531143188477,-1.1441986560821533,-18.222078323364258,-0.7308860421180725,-2.2488436698913574,0.22098104655742645,0
24,0.11500096321105957,0.10880166292190552,-18.106531143188477,1.1441986560821533,18.222078323364258,0.7308860421180725,2.2488436698913574,-0.22098104655742645,0.0,0.0,0.0,0.0,0.0,0.0,0.0,0.13106174969858478,0.5441530800517888,0.3094922493581837,0.6148402475445607,0.299465369378669,0.0652167374077912,-0.1961880764568339,-0.6092888770981838,-0.05750959681732613,-0.6666014266348721,-2.594703539396587,-0.05569280879495885,2.5079574496481154,0.876320716054903,-0.6090851748156966,-0.05753196718556838,-0.666603097082616,-2.5945565370258534,-0.05562143941554,2.507976027223799,0.8763108487046415,0.0003842116722530812,-0.00010424007305801529,-0.0004971791084491814,0.0002276546774889511,-0.00022895594511456358,0.0001357884903364051,0.0010225137750576325,0.0,0.0,0.0,0.0,0.0,0.0,0.0,0.0002037022824872281,-2.2370368242256855e-05,-1.6704477439066778e-06,0.00014700237073350664,7.136937941885219e-05,1.8577575683575986e-05,-9.867350261538732e-06,-0.0003842116722530812,0.00010424007305801529,0.0004971791084491814,-0.0002276546774889511,0.00022895594511456358,-0.0001357884903364051,-0.0010225137750576325,-0.10880166292190552,18.106531143188477,-1.1441986560821533,-18.222078323364258,-0.7308860421180725,-2.2488436698913574,0.22098104655742645,0
25,0.11999917030334473,0.16037636995315552,-18.106531143188477,1.1441986560821533,18.222078323364258,0.7372947335243225,2.2424349784851074,-0.20724813640117645,0.0,0.0,0.0,0.0,0.0,0.0,0.0,0.13804603838030624,0.547666051775829,0.31474448525757237,0.6126804771120169,0.2993786409418734,0.06588995483431623,-0.19633676603050873,-0.6092924963758701,-0.05750959681732613,-0.6666014263078234,-2.594703539396587,-0.055693520873785,2.5079581617249382,0.8763191901759968,-0.6090851748156966,-0.05753196718556838,-0.666603097082616,-2.5945565370258534,-0.05562143941554,2.507976027223799,0.8763108487046415,0.0002160088579846697,-0.00013477624548778946,-0.0001937501581874783,0.00015343103172430687,-0.0005636872114982592,0.0002562037186840861,0.0008057528870450537,0.0,0.0,0.0,0.0,0.0,0.0,0.0,0.00020732156017355674,-2.2370368242256855e-05,-1.6707747926281158e-06,0.00014700237073350664,7.208145824499912e-05,1.7865498860736295e-05,-8.341471355310937e-06,-0.0002160088579846697,0.00013477624548778946,0.0001937501581874783,-0.00015343103172430687,0.0005636872114982592,-0.0002562037186840861,-0.0008057528870450537,-0.16037636995315552,18.106531143188477,-1.1441986560821533,-18.222078323364258,-0.7372947335243225,-2.2424349784851074,0.20724813640117645,0
26,0.12499880790710449,0.16037636995315552,-18.106531143188477,1.1441986560821533,18.222078323364258,0.7372947335243225,2.2424349784851074,-0.20724813640117645,0.0,0.0,0.0,0.0,0.0,0.0,0.0,0.13804603838030624,0.547666051775829,0.31474448525757237,0.6126804771120169,0.2993786409418734,0.06588995483431623,-0.19633676603050873,-0.6092924963758701,-0.05750959681732613,-0.6666014263078234,-2.594703539396587,-0.055693520873785,2.5079581617249382,0.8763191901759968,-0.6090851748156966,-0.05753196718556838,-0.666603097082616,-2.5945565370258534,-0.05562143941554,2.507976027223799,0.8763108487046415,0.0002160088579846697,-0.00013477624548778946,-0.0001937501581874783,0.00015343103172430687,-0.0005636872114982592,0.0002562037186840861,0.0008057528870450537,0.0,0.0,0.0,0.0,0.0,0.0,0.0,0.00020732156017355674,-2.2370368242256855e-05,-1.6707747926281158e-06,0.00014700237073350664,7.208145824499912e-05,1.7865498860736295e-05,-8.341471355310937e-06,-0.0002160088579846697,0.00013477624548778946,0.0001937501581874783,-0.00015343103172430687,0.0005636872114982592,-0.0002562037186840861,-0.0008057528870450537,-0.16037636995315552,18.106531143188477,-1.1441986560821533,-18.222078323364258,-0.7372947335243225,-2.2424349784851074,0.20724813640117645,0
27,0.13000011444091797,0.16037636995315552,-18.078760147094727,1.1441986560821533,18.245882034301758,0.7189841866493225,2.2488436698913574,-0.19351522624492645,0.0,0.0,0.0,0.0,0.0,0.0,0.0,0.14350456126221775,0.5477761654990799,0.3155023573523672,0.6147154522653443,0.2997111351930194,0.06651716646149478,-0.1962447221923965,-0.6092924962668539,-0.05751154565915727,-0.6666014266348703,-2.594705209832442,-0.05569148636857668,2.5079574496481154,0.8763176642970906,-0.6090851748156966,-0.05753196718556838,-0.666603097082616,-2.5945565370258534,-0.05562143941554,2.507976027223799,0.8763108487046415,0.00040502743551217084,-0.00039614695892210123,0.000542517754511723,-0.00016984597996476424,0.0001411707968050987,-3.230280361272226e-05,0.00036627223685026624,0.0,0.0,0.0,0.0,0.0,0.0,0.0,0.00020732145115731626,-2.042152641111572e-05,-1.6704477456830347e-06,0.00014867280658847903,7.004695303668151e-05,1.8577575683575986e-05,-6.815592449083141e-06,-0.00040502743551217084,0.00039614695892210123,-0.000542517754511723,0.00016984597996476424,-0.0001411707968050987,3.230280361272226e-05,-0.00036627223685026624,-0.16037636995315552,18.078760147094727,-1.1441986560821533,-18.245882034301758,-0.7189841866493225,-2.2488436698913574,0.19351522624492645,0
28,0.13499665260314941,0.16037636995315552,-18.078760147094727,1.1441986560821533,18.245882034301758,0.7189841866493225,2.2488436698913574,-0.19351522624492645,0.0,0.0,0.0,0.0,0.0,0.0,0.0,0.14350456126221775,0.5477761654990799,0.3155023573523672,0.6147154522653443,0.2997111351930194,0.06651716646149478,-0.1962447221923965,-0.6092924962668539,-0.05751154565915727,-0.6666014266348703,-2.594705209832442,-0.05569148636857668,2.5079574496481154,0.8763176642970906,-0.6090851748156966,-0.05753196718556838,-0.666603097082616,-2.5945565370258534,-0.05562143941554,2.507976027223799,0.8763108487046415,0.00040502743551217084,-0.00039614695892210123,0.000542517754511723,-0.00016984597996476424,0.0001411707968050987,-3.230280361272226e-05,0.00036627223685026624,0.0,0.0,0.0,0.0,0.0,0.0,0.0,0.00020732145115731626,-2.042152641111572e-05,-1.6704477456830347e-06,0.00014867280658847903,7.004695303668151e-05,1.8577575683575986e-05,-6.815592449083141e-06,-0.00040502743551217084,0.00039614695892210123,-0.000542517754511723,0.00016984597996476424,-0.0001411707968050987,3.230280361272226e-05,-0.00036627223685026624,-0.16037636995315552,18.078760147094727,-1.1441986560821533,-18.245882034301758,-0.7189841866493225,-2.2488436698913574,0.19351522624492645,0
29,0.139998197555542,0.10880166292190552,-18.078760147094727,1.1441986560821533,18.245882034301758,0.7189841866493225,2.2360262870788574,-0.17337362468242645,0.0,0.0,0.0,0.0,0.0,0.0,0.0,0.14320127151562517,0.554782574244968,0.3127872068738697,0.6121076189318297,0.29957234076373507,0.06593556246661723,-0.19390176672398843,-0.6092888770981832,-0.05751154565915727,-0.6666014266348721,-2.5947052099374206,-0.05569148636857668,2.507958873801761,0.8763154261798559,-0.6090851748156966,-0.05753196718556838,-0.666603097082616,-2.5945565370258534,-0.05562143941554,2.507976027223799,0.8763108487046415,0.0014466613149352987,-0.00017243565640646502,-0.00016104310113420966,-0.0001691608817345983,0.00017809953848611939,0.0006011887599815472,-0.001166270125113391,0.0,0.0,0.0,0.0,0.0,0.0,0.0,0.000203702282486673,-2.042152641111572e-05,-1.6704477439066778e-06,0.00014867291156717144,7.004695303668151e-05,1.7153422037896604e-05,-4.577475214428972e-06,-0.0014466613149352987,0.00017243565640646502,0.00016104310113420966,0.0001691608817345983,-0.00017809953848611939,-0.0006011887599815472,0.001166270125113391,-0.10880166292190552,18.078760147094727,-1.1441986560821533,-18.245882034301758,-0.7189841866493225,-2.2360262870788574,0.17337362468242645,0
30,0.14511704444885254,0.10880166292190552,-18.078760147094727,1.1441986560821533,18.245882034301758,0.7189841866493225,2.2360262870788574,-0.17337362468242645,0.0,0.0,0.0,0.0,0.0,0.0,0.0,0.14320127151562517,0.554782574244968,0.3127872068738697,0.6121076189318297,0.29957234076373507,0.06593556246661723,-0.19390176672398843,-0.6092888770981832,-0.05751154565915727,-0.6666014266348721,-2.5947052099374206,-0.05569148636857668,2.507958873801761,0.8763154261798559,-0.6090851748156966,-0.05753196718556838,-0.666603097082616,-2.5945565370258534,-0.05562143941554,2.507976027223799,0.8763108487046415,0.0014466613149352987,-0.00017243565640646502,-0.00016104310113420966,-0.0001691608817345983,0.00017809953848611939,0.0006011887599815472,-0.001166270125113391,0.0,0.0,0.0,0.0,0.0,0.0,0.0,0.000203702282486673,-2.042152641111572e-05,-1.6704477439066778e-06,0.00014867291156717144,7.004695303668151e-05,1.7153422037896604e-05,-4.577475214428972e-06,-0.0014466613149352987,0.00017243565640646502,0.00016104310113420966,0.0001691608817345983,-0.00017809953848611939,-0.0006011887599815472,0.001166270125113391,-0.10880166292190552,18.078760147094727,-1.1441986560821533,-18.245882034301758,-0.7189841866493225,-2.2360262870788574,0.17337362468242645,0
31,0.1500089168548584,0.16037636995315552,-18.154138565063477,1.1164276599884033,18.222078323364258,0.7253928780555725,2.2424349784851074,-0.23471395671367645,0.0,0.0,0.0,0.0,0.0,0.0,0.0,0.14301460936773358,0.5501899109581454,0.31415739717059293,0.6142984574938742,0.29953184762579216,0.0659616513173946,-0.19526412128249884,-0.6092924963758701,-0.0575062559456156,-0.666599477793041,-2.594703539396588,-0.0556921984453996,2.5079581617249382,0.8763221241962385,-0.6090851748156966,-0.05753196718556838,-0.666603097082616,-2.5945565370258534,-0.05562143941554,2.507976027223799,0.8763108487046415,-0.0007995818655999456,0.0006464275597497859,0.000777567097514154,-3.466716042439532e-05,0.0001902375652317049,0.00028611239636799126,0.0010056798353654678,0.0,0.0,0.0,0.0,0.0,0.0,0.0,0.00020732156017355674,-2.5711239952784515e-05,-3.6192895750408738e-06,0.00014700237073439482,7.075902985959753e-05,1.7865498860736295e-05,-1.1275491596962617e-05,0.0007995818655999456,-0.0006464275597497859,-0.000777567097514154,3.466716042439532e-05,-0.0001902375652317049,-0.00028611239636799126,-0.0010056798353654678,-0.16037636995315552,18.154138565063477,-1.1164276599884033,-18.222078323364258,-0.7253928780555725,-2.2424349784851074,0.23471395671367645,0
32,0.15500617027282715,0.16037636995315552,-18.154138565063477,1.1164276599884033,18.222078323364258,0.7253928780555725,2.2424349784851074,-0.23471395671367645,0.0,0.0,0.0,0.0,0.0,0.0,0.0,0.14301460936773358,0.5501899109581454,0.31415739717059293,0.6142984574938742,0.29953184762579216,0.0659616513173946,-0.19526412128249884,-0.6092924963758701,-0.0575062559456156,-0.666599477793041,-2.594703539396588,-0.0556921984453996,2.5079581617249382,0.8763221241962385,-0.6090851748156966,-0.05753196718556838,-0.666603097082616,-2.5945565370258534,-0.05562143941554,2.507976027223799,0.8763108487046415,-0.0007995818655999456,0.0006464275597497859,0.000777567097514154,-3.466716042439532e-05,0.0001902375652317049,0.00028611239636799126,0.0010056798353654678,0.0,0.0,0.0,0.0,0.0,0.0,0.0,0.00020732156017355674,-2.5711239952784515e-05,-3.6192895750408738e-06,0.00014700237073439482,7.075902985959753e-05,1.7865498860736295e-05,-1.1275491596962617e-05,0.0007995818655999456,-0.0006464275597497859,-0.000777567097514154,3.466716042439532e-05,-0.0001902375652317049,-0.00028611239636799126,-0.0010056798353654678,-0.16037636995315552,18.154138565063477,-1.1164276599884033,-18.222078323364258,-0.7253928780555725,-2.2424349784851074,0.23471395671367645,0
33,0.16000795364379883,0.13260537385940552,-18.130334854125977,1.1441986560821533,18.269685745239258,0.7134910225868225,2.2488436698913574,-0.19351522624492645,0.0,0.0,0.0,0.0,0.0,0.0,0.0,0.14539686644377167,0.5508158205236169,0.31986662394530085,0.6166725959793784,0.29996901594943626,0.06608693017327255,-0.19820756114216068,-0.609290547534039,-0.05750792638147086,-0.6666014266348721,-2.5947068802682978,-0.05569087601701418,2.5079574496481154,0.8763176642425908,-0.6090851748156966,-0.05753196718556838,-0.666603097082616,-2.5945565370258534,-0.05562143941554,2.507976027223799,0.8763108487046415,0.00015214149373192024,-0.0001618361707445367,-0.00043983873960710127,-0.0002553599157713899,0.00023118985153544057,7.146559375248016e-06,-0.0002690214949735992,0.0,0.0,0.0,0.0,0.0,0.0,0.0,0.00020537271834242254,-2.4040804097520685e-05,-1.6704477439066778e-06,0.0001503432424443396,6.943660147418207e-05,1.8577575683575986e-05,-6.815537949345085e-06,-0.00015214149373192024,0.0001618361707445367,0.00043983873960710127,0.0002553599157713899,-0.00023118985153544057,-7.146559375248016e-06,0.0002690214949735992,-0.13260537385940552,18.130334854125977,-1.1441986560821533,-18.269685745239258,-0.7134910225868225,-2.2488436698913574,0.19351522624492645,0
34,0.16499948501586914,0.13260537385940552,-18.130334854125977,1.1441986560821533,18.269685745239258,0.7134910225868225,2.2488436698913574,-0.19351522624492645,0.0,0.0,0.0,0.0,0.0,0.0,0.0,0.14539686644377167,0.5508158205236169,0.31986662394530085,0.6166725959793784,0.29996901594943626,0.06608693017327255,-0.19820756114216068,-0.609290547534039,-0.05750792638147086,-0.6666014266348721,-2.5947068802682978,-0.05569087601701418,2.5079574496481154,0.8763176642425908,-0.6090851748156966,-0.05753196718556838,-0.666603097082616,-2.5945565370258534,-0.05562143941554,2.507976027223799,0.8763108487046415,0.00015214149373192024,-0.0001618361707445367,-0.00043983873960710127,-0.0002553599157713899,0.00023118985153544057,7.146559375248016e-06,-0.0002690214949735992,0.0,0.0,0.0,0.0,0.0,0.0,0.0,0.00020537271834242254,-2.4040804097520685e-05,-1.6704477439066778e-06,0.0001503432424443396,6.943660147418207e-05,1.8577575683575986e-05,-6.815537949345085e-06,-0.00015214149373192024,0.0001618361707445367,0.00043983873960710127,0.0002553599157713899,-0.00023118985153544057,-7.146559375248016e-06,0.0002690214949735992,-0.13260537385940552,18.130334854125977,-1.1441986560821533,-18.269685745239258,-0.7134910225868225,-2.2488436698913574,0.19351522624492645,0
35,0.17000222206115723,0.13260537385940552,-18.130334854125977,1.1441986560821533,18.269685745239258,0.7134910225868225,2.2488436698913574,-0.19351522624492645,0.0,0.0,0.0,0.0,0.0,0.0,0.0,0.14539686644377167,0.5508158205236169,0.31986662394530085,0.6166725959793784,0.29996901594943626,0.06608693017327255,-0.19820756114216068,-0.609290547534039,-0.05750792638147086,-0.6666014266348721,-2.5947068802682978,-0.05569087601701418,2.5079574496481154,0.8763176642425908,-0.6090851748156966,-0.05753196718556838,-0.666603097082616,-2.5945565370258534,-0.05562143941554,2.507976027223799,0.8763108487046415,0.00015214149373192024,-0.0001618361707445367,-0.00043983873960710127,-0.0002553599157713899,0.00023118985153544057,7.146559375248016e-06,-0.0002690214949735992,0.0,0.0,0.0,0.0,0.0,0.0,0.0,0.00020537271834242254,-2.4040804097520685e-05,-1.6704477439066778e-06,0.0001503432424443396,6.943660147418207e-05,1.8577575683575986e-05,-6.815537949345085e-06,-0.00015214149373192024,0.0001618361707445367,0.00043983873960710127,0.0002553599157713899,-0.00023118985153544057,-7.146559375248016e-06,0.0002690214949735992,-0.13260537385940552,18.130334854125977,-1.1441986560821533,-18.269685745239258,-0.7134910225868225,-2.2488436698913574,0.19351522624492645,0
36,0.1750032901763916,0.13260537385940552,-18.130334854125977,1.1441986560821533,18.269685745239258,0.7134910225868225,2.2488436698913574,-0.19351522624492645,0.0,0.0,0.0,0.0,0.0,0.0,0.0,0.14539686644377167,0.5508158205236169,0.31986662394530085,0.6166725959793784,0.29996901594943626,0.06608693017327255,-0.19820756114216068,-0.609290547534039,-0.05750792638147086,-0.6666014266348721,-2.5947068802682978,-0.05569087601701418,2.5079574496481154,0.8763176642425908,-0.6090851748156966,-0.05753196718556838,-0.666603097082616,-2.5945565370258534,-0.05562143941554,2.507976027223799,0.8763108487046415,0.00015214149373192024,-0.0001618361707445367,-0.00043983873960710127,-0.0002553599157713899,0.00023118985153544057,7.146559375248016e-06,-0.0002690214949735992,0.0,0.0,0.0,0.0,0.0,0.0,0.0,0.00020537271834242254,-2.4040804097520685e-05,-1.6704477439066778e-06,0.0001503432424443396,6.943660147418207e-05,1.8577575683575986e-05,-6.815537949345085e-06,-0.00015214149373192024,0.0001618361707445367,0.00043983873960710127,0.0002553599157713899,-0.00023118985153544057,-7.146559375248016e-06,0.0002690214949735992,-0.13260537385940552,18.130334854125977,-1.1441986560821533,-18.269685745239258,-0.7134910225868225,-2.2488436698913574,0.19351522624492645,0
37,0.18000006675720215,0.10880166292190552,-18.130334854125977,1.1441986560821533,18.245882034301758,0.7253928780555725,2.2552523612976074,-0.17337362468242645,0.0,0.0,0.0,0.0,0.0,0.0,0.0,0.13954469650762485,0.5496284970787111,0.3154822594923479,0.6161466098821257,0.2995358329481622,0.06615201393963067,-0.19804410795324476,-0.6092888770981838,-0.05750792638147086,-0.6666014266348721,-2.5947044680857516,-0.0556921984453996,2.5079567375712926,0.8763154263413612,-0.6090851748156966,-0.05753196718556838,-0.666603097082616,-2.5945565370258534,-0.05562143941554,2.507976027223799,0.8763108487046415,0.0002250060946700663,0.00019722683517271815,-0.0008311875747530521,0.00017805008910270275,-0.00013948370577262579,-1.990789351230612e-05,-0.000674720721178584,0.0,0.0,0.0,0.0,0.0,0.0,0.0,0.0002037022824872281,-2.4040804097520685e-05,-1.6704477439066778e-06,0.00014793105989818756,7.075902985959753e-05,1.9289652506415678e-05,-4.577636719682587e-06,-0.0002250060946700663,-0.00019722683517271815,0.0008311875747530521,-0.00017805008910270275,0.00013948370577262579,1.990789351230612e-05,0.000674720721178584,-0.10880166292190552,18.130334854125977,-1.1441986560821533,-18.245882034301758,-0.7253928780555725,-2.2552523612976074,0.17337362468242645,0
38,0.18500089645385742,0.10880166292190552,-18.130334854125977,1.1441986560821533,18.245882034301758,0.7253928780555725,2.2552523612976074,-0.17337362468242645,0.0,0.0,0.0,0.0,0.0,0.0,0.0,0.13954469650762485,0.5496284970787111,0.3154822594923479,0.6161466098821257,0.2995358329481622,0.06615201393963067,-0.19804410795324476,-0.6092888770981838,-0.05750792638147086,-0.6666014266348721,-2.5947044680857516,-0.0556921984453996,2.5079567375712926,0.8763154263413612,-0.6090851748156966,-0.05753196718556838,-0.666603097082616,-2.5945565370258534,-0.05562143941554,2.507976027223799,0.8763108487046415,0.0002250060946700663,0.00019722683517271815,-0.0008311875747530521,0.00017805008910270275,-0.00013948370577262579,-1.990789351230612e-05,-0.000674720721178584,0.0,0.0,0.0,0.0,0.0,0.0,0.0,0.0002037022824872281,-2.4040804097520685e-05,-1.6704477439066778e-06,0.00014793105989818756,7.075902985959753e-05,1.9289652506415678e-05,-4.577636719682587e-06,-0.0002250060946700663,-0.00019722683517271815,0.0008311875747530521,-0.00017805008910270275,0.00013948370577262579,1.990789351230612e-05,0.000674720721178584,-0.10880166292190552,18.130334854125977,-1.1441986560821533,-18.245882034301758,-0.7253928780555725,-2.2552523612976074,0.17337362468242645,0
39,0.18999838829040527,0.13260537385940552,-18.078760147094727,1.1441986560821533,18.245882034301758,0.7189841866493225,2.2488436698913574,-0.21457235515117645,0.0,0.0,0.0,0.0,0.0,0.0,0.0,0.13730027999873154,0.5462982253621461,0.31525360532262864,0.6159360560909924,0.29950234214414057,0.06658622762094228,-0.19685771529316407,-0.609290547534039,-0.05751154565915727,-0.6666014266348721,-2.594705209828255,-0.05569148636857668,2.5079574496481154,0.8763199647322235,-0.6090851748156966,-0.05753196718556838,-0.666603097082616,-2.5945565370258534,-0.05562143941554,2.507976027223799,0.8763108487046415,-0.0007485197828643917,-0.0011034841391108674,-0.00032915538390347355,-0.00010357260279979659,0.00030277649570639405,-0.0001637875053688149,0.0010368423428265391,0.0,0.0,0.0,0.0,0.0,0.0,0.0,0.00020537271834242254,-2.042152641111572e-05,-1.6704477439066778e-06,0.00014867280240160596,7.004695303668151e-05,1.8577575683575986e-05,-9.116027582023456e-06,0.0007485197828643917,0.0011034841391108674,0.00032915538390347355,0.00010357260279979659,-0.00030277649570639405,0.0001637875053688149,-0.0010368423428265391,-0.13260537385940552,18.078760147094727,-1.1441986560821533,-18.245882034301758,-0.7189841866493225,-2.2488436698913574,0.21457235515117645,0
40,0.19499444961547852,0.13260537385940552,-18.078760147094727,1.1441986560821533,18.245882034301758,0.7189841866493225,2.2488436698913574,-0.21457235515117645,0.0,0.0,0.0,0.0,0.0,0.0,0.0,0.13730027999873154,0.5462982253621461,0.31525360532262864,0.6159360560909924,0.29950234214414057,0.06658622762094228,-0.19685771529316407,-0.609290547534039,-0.05751154565915727,-0.6666014266348721,-2.594705209828255,-0.05569148636857668,2.5079574496481154,0.8763199647322235,-0.6090851748156966,-0.05753196718556838,-0.666603097082616,-2.5945565370258534,-0.05562143941554,2.507976027223799,0.8763108487046415,-0.0007485197828643917,-0.0011034841391108674,-0.00032915538390347355,-0.00010357260279979659,0.00030277649570639405,-0.0001637875053688149,0.0010368423428265391,0.0,0.0,0.0,0.0,0.0,0.0,0.0,0.00020537271834242254,-2.042152641111572e-05,-1.6704477439066778e-06,0.00014867280240160596,7.004695303668151e-05,1.8577575683575986e-05,-9.116027582023456e-06,0.0007485197828643917,0.0011034841391108674,0.00032915538390347355,0.00010357260279979659,-0.00030277649570639405,0.0001637875053688149,-0.0010368423428265391,-0.13260537385940552,18.078760147094727,-1.1441986560821533,-18.245882034301758,-0.7189841866493225,-2.2488436698913574,0.21457235515117645,0
41,0.1999974250793457,0.10880166292190552,-18.106531143188477,1.1164276599884033,18.269685745239258,0.7253928780555725,2.2488436698913574,-0.15964071452617645,0.0,0.0,0.0,0.0,0.0,0.0,0.0,0.13319055035459457,0.5443840795441915,0.3106628272528872,0.6168844471007514,0.2998598398930449,0.06584787885580502,-0.19604166542895962,-0.6092881618303336,-0.05750959681732613,-0.666599477793041,-2.5947068802682973,-0.0556921984453996,2.5079574496481154,0.8763139004623812,-0.6090851748156966,-0.05753196718556838,-0.666603097082616,-2.5945565370258534,-0.05562143941554,2.507976027223799,0.8763108487046415,0.00017832142217576814,-0.0003850238962596215,-0.0003596810695052469,-0.0010889998119985186,0.00010323597493037966,4.779551600406756e-05,-0.001172976758629449,0.0,0.0,0.0,0.0,0.0,0.0,0.0,0.00020298701463705715,-2.2370368242256855e-05,-3.6192895750408738e-06,0.00015034324244389552,7.075902985959753e-05,1.8577575683575986e-05,-3.051757739735983e-06,-0.00017832142217576814,0.0003850238962596215,0.0003596810695052469,0.0010889998119985186,-0.00010323597493037966,-4.779551600406756e-05,0.001172976758629449,-0.10880166292190552,18.106531143188477,-1.1164276599884033,-18.269685745239258,-0.7253928780555725,-2.2488436698913574,0.15964071452617645,0
42,0.20500540733337402,0.10880166292190552,-18.106531143188477,1.1164276599884033,18.269685745239258,0.7253928780555725,2.2488436698913574,-0.15964071452617645,0.0,0.0,0.0,0.0,0.0,0.0,0.0,0.13319055035459457,0.5443840795441915,0.3106628272528872,0.6168844471007514,0.2998598398930449,0.06584787885580502,-0.19604166542895962,-0.6092881618303336,-0.05750959681732613,-0.666599477793041,-2.5947068802682973,-0.0556921984453996,2.5079574496481154,0.8763139004623812,-0.6090851748156966,-0.05753196718556838,-0.666603097082616,-2.5945565370258534,-0.05562143941554,2.507976027223799,0.8763108487046415,0.00017832142217576814,-0.0003850238962596215,-0.0003596810695052469,-0.0010889998119985186,0.00010323597493037966,4.779551600406756e-05,-0.001172976758629449,0.0,0.0,0.0,0.0,0.0,0.0,0.0,0.00020298701463705715,-2.2370368242256855e-05,-3.6192895750408738e-06,0.00015034324244389552,7.075902985959753e-05,1.8577575683575986e-05,-3.051757739735983e-06,-0.00017832142217576814,0.0003850238962596215,0.0003596810695052469,0.0010889998119985186,-0.00010323597493037966,-4.779551600406756e-05,0.001172976758629449,-0.10880166292190552,18.106531143188477,-1.1164276599884033,-18.269685745239258,-0.7253928780555725,-2.2488436698913574,0.15964071452617645,0
43,0.2100048065185547,0.13260537385940552,-18.078760147094727,1.0688202381134033,18.269685745239258,0.7308860421180725,2.2424349784851074,-0.22830526530742645,0.0,0.0,0.0,0.0,0.0,0.0,0.0,0.09995462779294846,0.5477534328537307,0.27478657567777837,0.6177372923262145,0.3022835175317892,0.0660730386990282,-0.1953626940811022,-0.6092905474209851,-0.05751154565915727,-0.6665961369213304,-2.5947068802682973,-0.05569280874287455,2.5079581617249382,0.8763215298569863,-0.6090851748156966,-0.05753196718556838,-0.666603097082616,-2.5945565370258534,-0.05562143941554,2.507976027223799,0.8763108487046415,0.00030564474371502597,2.0012410489394047e-05,0.003048621698091328,-0.0007484617006666737,-0.00017904384612960848,0.0003513093849102915,0.000836764794170142,0.0,0.0,0.0,0.0,0.0,0.0,0.0,0.00020537260528852297,-2.042152641111572e-05,-6.9601612856518e-06,0.00015034324244389552,7.136932733455004e-05,1.7865498860736295e-05,-1.0681152344815814e-05,-0.00030564474371502597,-2.0012410489394047e-05,-0.003048621698091328,0.0007484617006666737,0.00017904384612960848,-0.0003513093849102915,-0.000836764794170142,-0.13260537385940552,18.078760147094727,-1.0688202381134033,-18.269685745239258,-0.7308860421180725,-2.2424349784851074,0.22830526530742645,0
44,0.21500253677368164,0.13260537385940552,-18.078760147094727,1.0688202381134033,18.269685745239258,0.7308860421180725,2.2424349784851074,-0.22830526530742645,0.0,0.0,0.0,0.0,0.0,0.0,0.0,0.09995462779294846,0.5477534328537307,0.27478657567777837,0.6177372923262145,0.3022835175317892,0.0660730386990282,-0.1953626940811022,-0.6092905474209851,-0.05751154565915727,-0.6665961369213304,-2.5947068802682973,-0.05569280874287455,2.5079581617249382,0.8763215298569863,-0.6090851748156966,-0.05753196718556838,-0.666603097082616,-2.5945565370258534,-0.05562143941554,2.507976027223799,0.8763108487046415,0.00030564474371502597,2.0012410489394047e-05,0.003048621698091328,-0.0007484617006666737,-0.00017904384612960848,0.0003513093849102915,0.000836764794170142,0.0,0.0,0.0,0.0,0.0,0.0,0.0,0.00020537260528852297,-2.042152641111572e-05,-6.9601612856518e-06,0.00015034324244389552,7.136932733455004e-05,1.7865498860736295e-05,-1.0681152344815814e-05,-0.00030564474371502597,-2.0012410489394047e-05,-0.003048621698091328,0.0007484617006666737,0.00017904384612960848,-0.0003513093849102915,-0.000836764794170142,-0.13260537385940552,18.078760147094727,-1.0688202381134033,-18.269685745239258,-0.7308860421180725,-2.2424349784851074,0.22830526530742645,0
45,0.22000408172607422,0.13260537385940552,-18.130334854125977,1.1680023670196533,18.245882034301758,0.7189841866493225,2.2424349784851074,-0.17978231608867645,0.0,0.0,0.0,0.0,0.0,0.0,0.0,0.12879019477020962,0.5516499953388149,0.30425027483037753,0.6158198395828788,0.301261369366188,0.06647932497861402,-0.1961965821078018,-0.6092905475340384,-0.05750792638147086,-0.6666030970707273,-2.594705209832442,-0.055691485881788454,2.5079581617249382,0.8763161384181842,-0.6090851748156966,-0.05753196718556838,-0.666603097082616,-2.5945565370258534,-0.05562143941554,2.507976027223799,0.8763108487046415,0.0006837781853036259,0.0006702463754765855,-0.00037813466774243163,-0.0005494533709188567,0.00011727192924080177,0.00015747141295720281,5.139828346139347e-05,0.0,0.0,0.0,0.0,0.0,0.0,0.0,0.00020537271834186743,-2.4040804097520685e-05,-1.1888712236896026e-11,0.00014867280658847903,7.004646624845373e-05,1.7865498860736295e-05,-5.289713542744323e-06,-0.0006837781853036259,-0.0006702463754765855,0.00037813466774243163,0.0005494533709188567,-0.00011727192924080177,-0.00015747141295720281,-5.139828346139347e-05,-0.13260537385940552,18.130334854125977,-1.1680023670196533,-18.245882034301758,-0.7189841866493225,-2.2424349784851074,0.17978231608867645,0
46,0.2250077724456787,0.13260537385940552,-18.130334854125977,1.1680023670196533,18.245882034301758,0.7189841866493225,2.2424349784851074,-0.17978231608867645,0.0,0.0,0.0,0.0,0.0,0.0,0.0,0.12879019477020962,0.5516499953388149,0.30425027483037753,0.6158198395828788,0.301261369366188,0.06647932497861402,-0.1961965821078018,-0.6092905475340384,-0.05750792638147086,-0.6666030970707273,-2.594705209832442,-0.055691485881788454,2.5079581617249382,0.8763161384181842,-0.6090851748156966,-0.05753196718556838,-0.666603097082616,-2.5945565370258534,-0.05562143941554,2.507976027223799,0.8763108487046415,0.0006837781853036259,0.0006702463754765855,-0.00037813466774243163,-0.0005494533709188567,0.00011727192924080177,0.00015747141295720281,5.139828346139347e-05,0.0,0.0,0.0,0.0,0.0,0.0,0.0,0.00020537271834186743,-2.4040804097520685e-05,-1.1888712236896026e-11,0.00014867280658847903,7.004646624845373e-05,1.7865498860736295e-05,-5.289713542744323e-06,-0.0006837781853036259,-0.0006702463754765855,0.00037813466774243163,0.0005494533709188567,-0.00011727192924080177,-0.00015747141295720281,-5.139828346139347e-05,-0.13260537385940552,18.130334854125977,-1.1680023670196533,-18.245882034301758,-0.7189841866493225,-2.2424349784851074,0.17978231608867645,0
47,0.23000764846801758,0.21195107698440552,-18.106531143188477,1.1441986560821533,18.245882034301758,0.7308860421180725,2.2552523612976074,-0.21457235515117645,0.0,0.0,0.0,0.0,0.0,0.0,0.0,0.14666632992326217,0.5528722905299772,0.32235488882199304,0.617482594298637,0.30042584134526074,0.06663132436303959,-0.19372516918566632,-0.6092961156535566,-0.05750959681732613,-0.6666014266348721,-2.594705209832442,-0.05569280879695935,2.5079567375712926,0.8763200039780801,-0.6090851748156966,-0.05753196718556838,-0.666603097082616,-2.5945565370258534,-0.05562143941554,2.507976027223799,0.8763108487046415,-0.0009900183823223847,-0.0002298661096594834,0.00024259528256539872,-0.00013848062743139418,-0.0001896244968741723,-0.0001706525020866798,0.000820527482521565,0.0,0.0,0.0,0.0,0.0,0.0,0.0,0.0002109408378599964,-2.2370368242256855e-05,-1.6704477439066778e-06,0.00014867280658847903,7.136938141934918e-05,1.9289652506415678e-05,-9.155273438588019e-06,0.0009900183823223847,0.0002298661096594834,-0.00024259528256539872,0.00013848062743139418,0.0001896244968741723,0.0001706525020866798,-0.000820527482521565,-0.21195107698440552,18.106531143188477,-1.1441986560821533,-18.245882034301758,-0.7308860421180725,-2.2552523612976074,0.21457235515117645,0
48,0.23500442504882812,0.21195107698440552,-18.106531143188477,1.1441986560821533,18.245882034301758,0.7308860421180725,2.2552523612976074,-0.21457235515117645,0.0,0.0,0.0,0.0,0.0,0.0,0.0,0.14666632992326217,0.5528722905299772,0.32235488882199304,0.617482594298637,0.30042584134526074,0.06663132436303959,-0.19372516918566632,-0.6092961156535566,-0.05750959681732613,-0.6666014266348721,-2.594705209832442,-0.05569280879695935,2.5079567375712926,0.8763200039780801,-0.6090851748156966,-0.05753196718556838,-0.666603097082616,-2.5945565370258534,-0.05562143941554,2.507976027223799,0.8763108487046415,-0.0009900183823223847,-0.0002298661096594834,0.00024259528256539872,-0.00013848062743139418,-0.0001896244968741723,-0.0001706525020866798,0.000820527482521565,0.0,0.0,0.0,0.0,0.0,0.0,0.0,0.0002109408378599964,-2.2370368242256855e-05,-1.6704477439066778e-06,0.00014867280658847903,7.136938141934918e-05,1.9289652506415678e-05,-9.155273438588019e-06,0.0009900183823223847,0.0002298661096594834,-0.00024259528256539872,0.00013848062743139418,0.0001896244968741723,0.0001706525020866798,-0.000820527482521565,-0.21195107698440552,18.106531143188477,-1.1441986560821533,-18.245882034301758,-0.7308860421180725,-2.2552523612976074,0.21457235515117645,0
49,0.2400038242340088,0.18418008089065552,-18.106531143188477,1.1441986560821533,18.269685745239258,0.7372947335243225,2.2488436698913574,-0.17337362468242645,0.0,0.0,0.0,0.0,0.0,0.0,0.0,0.1525768313375845,0.5509525617071174,0.3246974169084201,0.6167767678936626,0.3004767332349211,0.06679361544309174,-0.19469469319958718,-0.6092941668117254,-0.05750959681732613,-0.6666014266348721,-2.5947068802682973,-0.05569352087378501,2.5079574496481154,0.8763153086037915,-0.6090851748156966,-0.05753196718556838,-0.666603097082616,-2.5945565370258534,-0.05562143941554,2.507976027223799,0.8763108487046415,-0.0003087470637588265,-0.0004300096459613143,0.00021603872580501713,-0.0006832333291477255,-0.0005067919692611949,0.00030994102074858394,-0.0010635018308912348,0.0,0.0,0.0,0.0,0.0,0.0,0.0,0.0002089919960288622,-2.2370368242256855e-05,-1.6704477439066778e-06,0.00015034324244389552,7.2081458245013e-05,1.8577575683575986e-05,-4.4598991499889e-06,0.0003087470637588265,0.0004300096459613143,-0.00021603872580501713,0.0006832333291477255,0.0005067919692611949,-0.00030994102074858394,0.0010635018308912348,-0.18418008089065552,18.106531143188477,-1.1441986560821533,-18.269685745239258,-0.7372947335243225,-2.2488436698913574,0.17337362468242645,0
50,0.24500107765197754,0.18418008089065552,-18.106531143188477,1.1441986560821533,18.269685745239258,0.7372947335243225,2.2488436698913574,-0.17337362468242645,0.0,0.0,0.0,0.0,0.0,0.0,0.0,0.1525768313375845,0.5509525617071174,0.3246974169084201,0.6167767678936626,0.3004767332349211,0.06679361544309174,-0.19469469319958718,-0.6092941668117254,-0.05750959681732613,-0.6666014266348721,-2.5947068802682973,-0.05569352087378501,2.5079574496481154,0.8763153086037915,-0.6090851748156966,-0.05753196718556838,-0.666603097082616,-2.5945565370258534,-0.05562143941554,2.507976027223799,0.8763108487046415,-0.0003087470637588265,-0.0004300096459613143,0.00021603872580501713,-0.0006832333291477255,-0.0005067919692611949,0.00030994102074858394,-0.0010635018308912348,0.0,0.0,0.0,0.0,0.0,0.0,0.0,0.0002089919960288622,-2.2370368242256855e-05,-1.6704477439066778e-06,0.00015034324244389552,7.2081458245013e-05,1.8577575683575986e-05,-4.4598991499889e-06,0.0003087470637588265,0.0004300096459613143,-0.00021603872580501713,0.0006832333291477255,0.0005067919692611949,-0.00030994102074858394,0.0010635018308912348,-0.18418008089065552,18.106531143188477,-1.1441986560821533,-18.269685745239258,-0.7372947335243225,-2.2488436698913574,0.17337362468242645,0
51,0.2500016689300537,0.13260537385940552,-18.154138565063477,1.1441986560821533,18.245882034301758,0.7308860421180725,2.2424349784851074,-0.22098104655742645,0.0,0.0,0.0,0.0,0.0,0.0,0.0,0.15434667204038333,0.5531655687882763,0.32609346049937915,0.6128963728146956,0.3008262412244316,0.06653237364124323,-0.19543837530988403,-0.609290547534039,-0.0575062559456156,-0.6666014266348721,-2.594705209832442,-0.0556928087969621,2.5079581617249382,0.8763207160542384,-0.6090851748156966,-0.05753196718556838,-0.666603097082616,-2.5945565370258534,-0.05562143941554,2.507976027223799,0.8763108487046415,0.000576441054270066,0.0010325174842619118,-5.7074528207832775e-05,-0.00043024388434168286,-0.0002421975448734258,0.00011972828742144808,0.00023674098763915794,0.0,0.0,0.0,0.0,0.0,0.0,0.0,0.00020537271834242254,-2.5711239952784515e-05,-1.6704477439066778e-06,0.00014867280658847903,7.136938142209698e-05,1.7865498860736295e-05,-9.86734959695923e-06,-0.000576441054270066,-0.0010325174842619118,5.7074528207832775e-05,0.00043024388434168286,0.0002421975448734258,-0.00011972828742144808,-0.00023674098763915794,-0.13260537385940552,18.154138565063477,-1.1441986560821533,-18.245882034301758,-0.7308860421180725,-2.2424349784851074,0.22098104655742645,0
52,0.25499773025512695,0.13260537385940552,-18.154138565063477,1.1441986560821533,18.245882034301758,0.7308860421180725,2.2424349784851074,-0.22098104655742645,0.0,0.0,0.0,0.0,0.0,0.0,0.0,0.15434667204038333,0.5531655687882763,0.32609346049937915,0.6128963728146956,0.3008262412244316,0.06653237364124323,-0.19543837530988403,-0.609290547534039,-0.0575062559456156,-0.6666014266348721,-2.594705209832442,-0.0556928087969621,2.5079581617249382,0.8763207160542384,-0.6090851748156966,-0.05753196718556838,-0.666603097082616,-2.5945565370258534,-0.05562143941554,2.507976027223799,0.8763108487046415,0.000576441054270066,0.0010325174842619118,-5.7074528207832775e-05,-0.00043024388434168286,-0.0002421975448734258,0.00011972828742144808,0.00023674098763915794,0.0,0.0,0.0,0.0,0.0,0.0,0.0,0.00020537271834242254,-2.5711239952784515e-05,-1.6704477439066778e-06,0.00014867280658847903,7.136938142209698e-05,1.7865498860736295e-05,-9.86734959695923e-06,-0.000576441054270066,-0.0010325174842619118,5.7074528207832775e-05,0.00043024388434168286,0.0002421975448734258,-0.00011972828742144808,-0.00023674098763915794,-0.13260537385940552,18.154138565063477,-1.1441986560821533,-18.245882034301758,-0.7308860421180725,-2.2424349784851074,0.22098104655742645,0
53,0.26000118255615234,0.10880166292190552,-18.106531143188477,1.1441986560821533,18.269685745239258,0.7189841866493225,2.2488436698913574,-0.18710653483867645,0.0,0.0,0.0,0.0,0.0,0.0,0.0,0.14660698151508225,0.551652172228195,0.32083938430588527,0.6151525971924005,0.30163003032289254,0.06624731666629846,-0.19752260588816556,-0.6092888770981838,-0.05750959681732613,-0.6666014266348721,-2.5947068802682973,-0.05569148198748539,2.5079574496481154,0.8763169522202676,-0.6090851748156966,-0.05753196718556838,-0.666603097082616,-2.5945565370258534,-0.05562143941554,2.507976027223799,0.8763108487046415,0.00019535487225249442,0.0003396066144858901,-0.0006061742230133741,-0.0006708871679337538,0.000216995696538252,9.646833196696318e-05,-0.00012797201326218718,0.0,0.0,0.0,0.0,0.0,0.0,0.0,0.0002037022824872281,-2.2370368242256855e-05,-1.6704477439066778e-06,0.00015034324244389552,7.004257194539315e-05,1.8577575683575986e-05,-6.1035156261324275e-06,-0.00019535487225249442,-0.0003396066144858901,0.0006061742230133741,0.0006708871679337538,-0.000216995696538252,-9.646833196696318e-05,0.00012797201326218718,-0.10880166292190552,18.106531143188477,-1.1441986560821533,-18.269685745239258,-0.7189841866493225,-2.2488436698913574,0.18710653483867645,0
54,0.2650110721588135,0.10880166292190552,-18.106531143188477,1.1441986560821533,18.269685745239258,0.7189841866493225,2.2488436698913574,-0.18710653483867645,0.0,0.0,0.0,0.0,0.0,0.0,0.0,0.14660698151508225,0.551652172228195,0.32083938430588527,0.6151525971924005,0.30163003032289254,0.06624731666629846,-0.19752260588816556,-0.6092888770981838,-0.05750959681732613,-0.6666014266348721,-2.5947068802682973,-0.05569148198748539,2.5079574496481154,0.8763169522202676,-0.6090851748156966,-0.05753196718556838,-0.666603097082616,-2.5945565370258534,-0.05562143941554,2.507976027223799,0.8763108487046415,0.00019535487225249442,0.0003396066144858901,-0.0006061742230133741,-0.0006708871679337538,0.000216995696538252,9.646833196696318e-05,-0.00012797201326218718,0.0,0.0,0.0,0.0,0.0,0.0,0.0,0.0002037022824872281,-2.2370368242256855e-05,-1.6704477439066778e-06,0.00015034324244389552,7.004257194539315e-05,1.8577575683575986e-05,-6.1035156261324275e-06,-0.00019535487225249442,-0.0003396066144858901,0.0006061742230133741,0.0006708871679337538,-0.000216995696538252,-9.646833196696318e-05,0.00012797201326218718,-0.10880166292190552,18.106531143188477,-1.1441986560821533,-18.269685745239258,-0.7189841866493225,-2.2488436698913574,0.18710653483867645,0
55,0.2700202465057373,0.10880166292190552,-18.130334854125977,1.0926239490509033,18.222078323364258,0.7253928780555725,2.2552523612976074,-0.20724813640117645,0.0,0.0,0.0,0.0,0.0,0.0,0.0,0.13861216137613674,0.5496083703033902,0.3194882361948395,0.617092120571293,0.30143156016223904,0.06657446636836428,-0.19533963844044938,-0.6092888770981838,-0.05750792638147086,-0.6665978073571857,-2.594703539396587,-0.05569219844537487,2.5079567375712926,0.8763190724384269,-0.6090851748156966,-0.05753196718556838,-0.666603097082616,-2.5945565370258534,-0.05562143941554,2.507976027223799,0.8763108487046415,-0.0003915460731543781,0.0003419417659583863,0.0003458781554473112,0.0005871799243584977,1.259140825662704e-06,-4.908841512031902e-05,0.0006161563361920437,0.0,0.0,0.0,0.0,0.0,0.0,0.0,0.0002037022824872281,-2.4040804097520685e-05,-5.289725430346337e-06,0.00014700237073350664,7.075902983486732e-05,1.9289652506415678e-05,-8.223733785395204e-06,0.0003915460731543781,-0.0003419417659583863,-0.0003458781554473112,-0.0005871799243584977,-1.259140825662704e-06,4.908841512031902e-05,-0.0006161563361920437,-0.10880166292190552,18.130334854125977,-1.0926239490509033,-18.222078323364258,-0.7253928780555725,-2.2552523612976074,0.20724813640117645,0
56,0.27501964569091797,0.10880166292190552,-18.130334854125977,1.0926239490509033,18.222078323364258,0.7253928780555725,2.2552523612976074,-0.20724813640117645,0.0,0.0,0.0,0.0,0.0,0.0,0.0,0.13861216137613674,0.5496083703033902,0.3194882361948395,0.617092120571293,0.30143156016223904,0.06657446636836428,-0.19533963844044938,-0.6092888770981838,-0.05750792638147086,-0.6665978073571857,-2.594703539396587,-0.05569219844537487,2.5079567375712926,0.8763190724384269,-0.6090851748156966,-0.05753196718556838,-0.666603097082616,-2.5945565370258534,-0.05562143941554,2.507976027223799,0.8763108487046415,-0.0003915460731543781,0.0003419417659583863,0.0003458781554473112,0.0005871799243584977,1.259140825662704e-06,-4.908841512031902e-05,0.0006161563361920437,0.0,0.0,0.0,0.0,0.0,0.0,0.0,0.0002037022824872281,-2.4040804097520685e-05,-5.289725430346337e-06,0.00014700237073350664,7.075902983486732e-05,1.9289652506415678e-05,-8.223733785395204e-06,0.0003915460731543781,-0.0003419417659583863,-0.0003458781554473112,-0.0005871799243584977,-1.259140825662704e-06,4.908841512031902e-05,-0.0006161563361920437,-0.10880166292190552,18.130334854125977,-1.0926239490509033,-18.222078323364258,-0.7253928780555725,-2.2552523612976074,0.20724813640117645,0
57,0.279998779296875,0.10880166292190552,-18.130334854125977,1.0926239490509033,18.222078323364258,0.7253928780555725,2.2552523612976074,-0.20724813640117645,0.0,0.0,0.0,0.0,0.0,0.0,0.0,0.13861216137613674,0.5496083703033902,0.3194882361948395,0.617092120571293,0.30143156016223904,0.06657446636836428,-0.19533963844044938,-0.6092888770981838,-0.05750792638147086,-0.6665978073571857,-2.594703539396587,-0.05569219844537487,2.5079567375712926,0.8763190724384269,-0.6090851748156966,-0.05753196718556838,-0.666603097082616,-2.5945565370258534,-0.05562143941554,2.507976027223799,0.8763108487046415,-0.0003915460731543781,0.0003419417659583863,0.0003458781554473112,0.0005871799243584977,1.259140825662704e-06,-4.908841512031902e-05,0.0006161563361920437,0.0,0.0,0.0,0.0,0.0,0.0,0.0,0.0002037022824872281,-2.4040804097520685e-05,-5.289725430346337e-06,0.00014700237073350664,7.075902983486732e-05,1.9289652506415678e-05,-8.223733785395204e-06,0.0003915460731543781,-0.0003419417659583863,-0.0003458781554473112,-0.0005871799243584977,-1.259140825662704e-06,4.908841512031902e-05,-0.0006161563361920437,-0.10880166292190552,18.130334854125977,-1.0926239490509033,-18.222078323364258,-0.7253928780555725,-2.2552523612976074,0.20724813640117645,0
58,0.285097599029541,0.10880166292190552,-18.130334854125977,1.0926239490509033,18.222078323364258,0.7253928780555725,2.2552523612976074,-0.20724813640117645,0.0,0.0,0.0,0.0,0.0,0.0,0.0,0.13861216137613674,0.5496083703033902,0.3194882361948395,0.617092120571293,0.30143156016223904,0.06657446636836428,-0.19533963844044938,-0.6092888770981838,-0.05750792638147086,-0.6665978073571857,-2.594703539396587,-0.05569219844537487,2.5079567375712926,0.8763190724384269,-0.6090851748156966,-0.05753196718556838,-0.666603097082616,-2.5945565370258534,-0.05562143941554,2.507976027223799,0.8763108487046415,-0.0003915460731543781,0.0003419417659583863,0.0003458781554473112,0.0005871799243584977,1.259140825662704e-06,-4.908841512031902e-05,0.0006161563361920437,0.0,0.0,0.0,0.0,0.0,0.0,0.0,0.0002037022824872281,-2.4040804097520685e-05,-5.289725430346337e-06,0.00014700237073350664,7.075902983486732e-05,1.9289652506415678e-05,-8.223733785395204e-06,0.0003915460731543781,-0.0003419417659583863,-0.0003458781554473112,-0.0005871799243584977,-1.259140825662704e-06,4.908841512031902e-05,-0.0006161563361920437,-0.10880166292190552,18.130334854125977,-1.0926239490509033,-18.222078323364258,-0.7253928780555725,-2.2552523612976074,0.20724813640117645,0
59,0.285097599029541,0.10880166292190552,-18.130334854125977,1.0926239490509033,18.222078323364258,0.7253928780555725,2.2552523612976074,-0.20724813640117645,0.0,0.0,0.0,0.0,0.0,0.0,0.0,0.13861216137613674,0.5496083703033902,0.3194882361948395,0.617092120571293,0.30143156016223904,0.06657446636836428,-0.19533963844044938,-0.6092888770981838,-0.05750792638147086,-0.6665978073571857,-2.594703539396587,-0.05569219844537487,2.5079567375712926,0.8763190724384269,-0.6090851748156966,-0.05753196718556838,-0.666603097082616,-2.5945565370258534,-0.05562143941554,2.507976027223799,0.8763108487046415,-0.0003915460731543781,0.0003419417659583863,0.0003458781554473112,0.0005871799243584977,1.259140825662704e-06,-4.908841512031902e-05,0.0006161563361920437,0.0,0.0,0.0,0.0,0.0,0.0,0.0,0.0002037022824872281,-2.4040804097520685e-05,-5.289725430346337e-06,0.00014700237073350664,7.075902983486732e-05,1.9289652506415678e-05,-8.223733785395204e-06,0.0003915460731543781,-0.0003419417659583863,-0.0003458781554473112,-0.0005871799243584977,-1.259140825662704e-06,4.908841512031902e-05,-0.0006161563361920437,-0.10880166292190552,18.130334854125977,-1.0926239490509033,-18.222078323364258,-0.7253928780555725,-2.2552523612976074,0.20724813640117645,0
60,0.2949984073638916,0.16037636995315552,-18.106531143188477,1.0926239490509033,18.245882034301758,0.7253928780555725,2.2296175956726074,-0.20083944499492645,0.0,0.0,0.0,0.0,0.0,0.0,0.0,0.1340878450370991,0.5508162209536224,0.3187823993871609,0.6159497588018179,0.3012429274035342,0.06680749464066597,-0.19612745057213912,-0.6092924963395314,-0.05750959681732613,-0.6665978073571857,-2.594705209832442,-0.0556921984453996,2.507959585878584,0.8763184780985093,-0.6090851748156966,-0.05753196718556838,-0.666603097082616,-2.5945565370258534,-0.05562143941554,2.507976027223799,0.8763108487046415,-0.0014140752867082633,-0.0004071988090371354,0.00020857830622805643,-0.00013641983690830433,-0.0001432559689254986,0.0006789262413348816,-0.00023415015348916642,0.0,0.0,0.0,0.0,0.0,0.0,0.0,0.00020732152383484692,-2.2370368242256855e-05,-5.289725430346337e-06,0.00014867280658847903,7.075902985959753e-05,1.6441345215056913e-05,-7.6293938677807205e-06,0.0014140752867082633,0.0004071988090371354,-0.00020857830622805643,0.00013641983690830433,0.0001432559689254986,-0.0006789262413348816,0.00023415015348916642,-0.16037636995315552,18.106531143188477,-1.0926239490509033,-18.245882034301758,-0.7253928780555725,-2.2296175956726074,0.20083944499492645,0
61,0.30000829696655273,0.16037636995315552,-18.106531143188477,1.0926239490509033,18.245882034301758,0.7253928780555725,2.2296175956726074,-0.20083944499492645,0.0,0.0,0.0,0.0,0.0,0.0,0.0,0.1340878450370991,0.5508162209536224,0.3187823993871609,0.6159497588018179,0.3012429274035342,0.06680749464066597,-0.19612745057213912,-0.6092924963395314,-0.05750959681732613,-0.6665978073571857,-2.594705209832442,-0.0556921984453996,2.507959585878584,0.8763184780985093,-0.6090851748156966,-0.05753196718556838,-0.666603097082616,-2.5945565370258534,-0.05562143941554,2.507976027223799,0.8763108487046415,-0.0014140752867082633,-0.0004071988090371354,0.00020857830622805643,-0.00013641983690830433,-0.0001432559689254986,0.0006789262413348816,-0.00023415015348916642,0.0,0.0,0.0,0.0,0.0,0.0,0.0,0.00020732152383484692,-2.2370368242256855e-05,-5.289725430346337e-06,0.00014867280658847903,7.075902985959753e-05,1.6441345215056913e-05,-7.6293938677807205e-06,0.0014140752867082633,0.0004071988090371354,-0.00020857830622805643,0.00013641983690830433,0.0001432559689254986,-0.0006789262413348816,0.00023415015348916642,-0.16037636995315552,18.106531143188477,-1.0926239490509033,-18.245882034301758,-0.7253928780555725,-2.2296175956726074,0.20083944499492645,0
62,0.30501365661621094,0.10880166292190552,-18.078760147094727,1.1680023670196533,18.245882034301758,0.7308860421180725,2.2552523612976074,-0.24112264811992645,0.0,0.0,0.0,0.0,0.0,0.0,0.0,0.13519196324689134,0.5538027502746866,0.31473929753184643,0.6123584931151498,0.30059618302250796,0.06554747797303984,-0.1973238826349232,-0.6092888770981838,-0.05751154565915727,-0.6666030970707273,-2.594705209832442,-0.0556928087969621,2.5079567375712926,0.8763229540106322,-0.6090851748156966,-0.05753196718556838,-0.666603097082616,-2.5945565370258534,-0.05562143941554,2.507976027223799,0.8763108487046415,0.00038515320846624807,-0.000530070927034209,-0.0007934604246437225,-0.0005977131269083592,-0.00018378622262056938,-0.00018198053211373384,0.0015180831623114012,0.0,0.0,0.0,0.0,0.0,0.0,0.0,0.0002037022824872281,-2.042152641111572e-05,-1.1888712236896026e-11,0.00014867280658847903,7.136938142209698e-05,1.9289652506415678e-05,-1.2105305990717241e-05,-0.00038515320846624807,0.000530070927034209,0.0007934604246437225,0.0005977131269083592,0.00018378622262056938,0.00018198053211373384,-0.0015180831623114012,-0.10880166292190552,18.078760147094727,-1.1680023670196533,-18.245882034301758,-0.7308860421180725,-2.2552523612976074,0.24112264811992645,0
63,0.3100135326385498,0.10880166292190552,-18.078760147094727,1.1680023670196533,18.245882034301758,0.7308860421180725,2.2552523612976074,-0.24112264811992645,0.0,0.0,0.0,0.0,0.0,0.0,0.0,0.13519196324689134,0.5538027502746866,0.31473929753184643,0.6123584931151498,0.30059618302250796,0.06554747797303984,-0.1973238826349232,-0.6092888770981838,-0.05751154565915727,-0.6666030970707273,-2.594705209832442,-0.0556928087969621,2.5079567375712926,0.8763229540106322,-0.6090851748156966,-0.05753196718556838,-0.666603097082616,-2.5945565370258534,-0.05562143941554,2.507976027223799,0.8763108487046415,0.00038515320846624807,-0.000530070927034209,-0.0007934604246437225,-0.0005977131269083592,-0.00018378622262056938,-0.00018198053211373384,0.0015180831623114012,0.0,0.0,0.0,0.0,0.0,0.0,0.0,0.0002037022824872281,-2.042152641111572e-05,-1.1888712236896026e-11,0.00014867280658847903,7.136938142209698e-05,1.9289652506415678e-05,-1.2105305990717241e-05,-0.00038515320846624807,0.000530070927034209,0.0007934604246437225,0.0005977131269083592,0.00018378622262056938,0.00018198053211373384,-0.0015180831623114012,-0.10880166292190552,18.078760147094727,-1.1680023670196533,-18.245882034301758,-0.7308860421180725,-2.2552523612976074,0.24112264811992645,0
64,0.3150053024291992,0.10880166292190552,-18.106531143188477,1.1441986560821533,18.269685745239258,0.7253928780555725,2.2552523612976074,-0.18710653483867645,0.0,0.0,0.0,0.0,0.0,0.0,0.0,0.13066112741700364,0.5481469857583026,0.3109340926952949,0.6191618755317317,0.3012042417103407,0.06737154874550441,-0.19957414277699304,-0.6092888770981838,-0.0575093600544316,-0.6666014266348721,-2.5947068802682973,-0.0556921984453996,2.5079567375712926,0.8763169522202676,-0.6090851748156966,-0.05753196718556838,-0.666603097082616,-2.5945565370258534,-0.05562143941554,2.507976027223799,0.8763108487046415,0.0005579322478154406,-0.00020288361312546327,-0.00010557480595083877,-0.0006686056712230486,-3.5074554718699e-05,-0.00015086076266365557,0.0002601860399269283,0.0,0.0,0.0,0.0,0.0,0.0,0.0,0.0002037022824872281,-2.2607131136782865e-05,-1.6704477439066778e-06,0.00015034324244389552,7.075902985959753e-05,1.9289652506415678e-05,-6.1035156261324275e-06,-0.0005579322478154406,0.00020288361312546327,0.00010557480595083877,0.0006686056712230486,3.5074554718699e-05,0.00015086076266365557,-0.0002601860399269283,-0.10880166292190552,18.106531143188477,-1.1441986560821533,-18.269685745239258,-0.7253928780555725,-2.2552523612976074,0.18710653483867645,0
65,0.32000041007995605,0.10880166292190552,-18.106531143188477,1.1441986560821533,18.269685745239258,0.7253928780555725,2.2552523612976074,-0.18710653483867645,0.0,0.0,0.0,0.0,0.0,0.0,0.0,0.13066112741700364,0.5481469857583026,0.3109340926952949,0.6191618755317317,0.3012042417103407,0.06737154874550441,-0.19957414277699304,-0.6092888770981838,-0.0575093600544316,-0.6666014266348721,-2.5947068802682973,-0.0556921984453996,2.5079567375712926,0.8763169522202676,-0.6090851748156966,-0.05753196718556838,-0.666603097082616,-2.5945565370258534,-0.05562143941554,2.507976027223799,0.8763108487046415,0.0005579322478154406,-0.00020288361312546327,-0.00010557480595083877,-0.0006686056712230486,-3.5074554718699e-05,-0.00015086076266365557,0.0002601860399269283,0.0,0.0,0.0,0.0,0.0,0.0,0.0,0.0002037022824872281,-2.2607131136782865e-05,-1.6704477439066778e-06,0.00015034324244389552,7.075902985959753e-05,1.9289652506415678e-05,-6.1035156261324275e-06,-0.0005579322478154406,0.00020288361312546327,0.00010557480595083877,0.0006686056712230486,3.5074554718699e-05,0.00015086076266365557,-0.0002601860399269283,-0.10880166292190552,18.106531143188477,-1.1441986560821533,-18.269685745239258,-0.7253928780555725,-2.2552523612976074,0.18710653483867645,0
66,0.3250160217285156,0.13260537385940552,-18.130334854125977,1.1680023670196533,18.222078323364258,0.7308860421180725,2.2424349784851074,-0.17978231608867645,0.0,0.0,0.0,0.0,0.0,0.0,0.0,0.13266199641579712,0.5575243453504336,0.3119110367684247,0.6138851579104277,0.3012916133349213,0.06621698878513131,-0.1974933701293324,-0.609290547534039,-0.05750792638013433,-0.6666030970707273,-2.594703539396587,-0.0556928087969621,2.5079581617249382,0.8763161384181842,-0.6090851748156966,-0.05753196718556838,-0.666603097082616,-2.5945565370258534,-0.05562143941554,2.507976027223799,0.8763108487046415,0.0003621165835513215,0.0009182532362272611,-0.0005891833836750317,0.00033624534829054207,-7.985073987247256e-05,0.0001884236231684952,-0.0007317996051176805,0.0,0.0,0.0,0.0,0.0,0.0,0.0,0.00020537271834242254,-2.4040805434055734e-05,-1.1888712236896026e-11,0.00014700237073350664,7.136938142209698e-05,1.7865498860736295e-05,-5.289713542744323e-06,-0.0003621165835513215,-0.0009182532362272611,0.0005891833836750317,-0.00033624534829054207,7.985073987247256e-05,-0.0001884236231684952,0.0007317996051176805,-0.13260537385940552,18.130334854125977,-1.1680023670196533,-18.222078323364258,-0.7308860421180725,-2.2424349784851074,0.17978231608867645,0
67,0.3299977779388428,0.13260537385940552,-18.130334854125977,1.1680023670196533,18.222078323364258,0.7308860421180725,2.2424349784851074,-0.17978231608867645,0.0,0.0,0.0,0.0,0.0,0.0,0.0,0.13266199641579712,0.5575243453504336,0.3119110367684247,0.6138851579104277,0.3012916133349213,0.06621698878513131,-0.1974933701293324,-0.609290547534039,-0.05750792638013433,-0.6666030970707273,-2.594703539396587,-0.0556928087969621,2.5079581617249382,0.8763161384181842,-0.6090851748156966,-0.05753196718556838,-0.666603097082616,-2.5945565370258534,-0.05562143941554,2.507976027223799,0.8763108487046415,0.0003621165835513215,0.0009182532362272611,-0.0005891833836750317,0.00033624534829054207,-7.985073987247256e-05,0.0001884236231684952,-0.0007317996051176805,0.0,0.0,0.0,0.0,0.0,0.0,0.0,0.00020537271834242254,-2.4040805434055734e-05,-1.1888712236896026e-11,0.00014700237073350664,7.136938142209698e-05,1.7865498860736295e-05,-5.289713542744323e-06,-0.0003621165835513215,-0.0009182532362272611,0.0005891833836750317,-0.00033624534829054207,7.985073987247256e-05,-0.0001884236231684952,0.0007317996051176805,-0.13260537385940552,18.130334854125977,-1.1680023670196533,-18.222078323364258,-0.7308860421180725,-2.2424349784851074,0.17978231608867645,0
68,0.3349950313568115,0.16037636995315552,-18.130334854125977,1.1680023670196533,18.269685745239258,0.7253928780555725,2.2552523612976074,-0.22098104655742645,0.0,0.0,0.0,0.0,0.0,0.0,0.0,0.1387170612385786,0.5577189970361915,0.31786281303761416,0.6150222438392482,0.30155855575181045,0.06590153083899553,-0.19658975136210058,-0.6092924963758701,-0.05750792638147086,-0.6666030970707273,-2.5947068802682973,-0.05568900462985039,2.5079567375712926,0.876320716054903,-0.6090851748156966,-0.05753196718556838,-0.666603097082616,-2.5945565370258534,-0.05562143941554,2.507976027223799,0.8763108487046415,9.800537115852523e-05,0.0006474486019787807,-0.0007597734548314958,-0.0010306476417805686,5.489922361384555e-05,-0.0003311600556409205,0.0011283720544776109,0.0,0.0,0.0,0.0,0.0,0.0,0.0,0.00020732156017355674,-2.4040804097520685e-05,-1.1888712236896026e-11,0.00015034324244389552,6.756521431038748e-05,1.9289652506415678e-05,-9.867350261538732e-06,-9.800537115852523e-05,-0.0006474486019787807,0.0007597734548314958,0.0010306476417805686,-5.489922361384555e-05,0.0003311600556409205,-0.0011283720544776109,-0.16037636995315552,18.130334854125977,-1.1680023670196533,-18.269685745239258,-0.7253928780555725,-2.2552523612976074,0.22098104655742645,0
69,0.34000515937805176,0.16037636995315552,-18.130334854125977,1.1680023670196533,18.269685745239258,0.7253928780555725,2.2552523612976074,-0.22098104655742645,0.0,0.0,0.0,0.0,0.0,0.0,0.0,0.1387170612385786,0.5577189970361915,0.31786281303761416,0.6150222438392482,0.30155855575181045,0.06590153083899553,-0.19658975136210058,-0.6092924963758701,-0.05750792638147086,-0.6666030970707273,-2.5947068802682973,-0.05568900462985039,2.5079567375712926,0.876320716054903,-0.6090851748156966,-0.05753196718556838,-0.666603097082616,-2.5945565370258534,-0.05562143941554,2.507976027223799,0.8763108487046415,9.800537115852523e-05,0.0006474486019787807,-0.0007597734548314958,-0.0010306476417805686,5.489922361384555e-05,-0.0003311600556409205,0.0011283720544776109,0.0,0.0,0.0,0.0,0.0,0.0,0.0,0.00020732156017355674,-2.4040804097520685e-05,-1.1888712236896026e-11,0.00015034324244389552,6.756521431038748e-05,1.9289652506415678e-05,-9.867350261538732e-06,-9.800537115852523e-05,-0.0006474486019787807,0.0007597734548314958,0.0010306476417805686,-5.489922361384555e-05,0.0003311600556409205,-0.0011283720544776109,-0.16037636995315552,18.130334854125977,-1.1680023670196533,-18.269685745239258,-0.7253928780555725,-2.2552523612976074,0.22098104655742645,0
70,0.345003604888916,0.16037636995315552,-18.106531143188477,1.1164276599884033,18.245882034301758,0.7427878975868225,2.2488436698913574,-0.20083944499492645,0.0,0.0,0.0,0.0,0.0,0.0,0.0,0.13665458152041157,0.556014145732883,0.3140661358827828,0.6166181538571015,0.30225046447482273,0.06644477056346566,-0.19697350204084324,-0.6092924963758701,-0.05750959681732613,-0.666599477793041,-2.594705209832442,-0.05569413120731833,2.5079574496481154,0.8763183603616039,-0.6090851748156966,-0.05753196718556838,-0.666603097082616,-2.5945565370258534,-0.05562143941554,2.507976027223799,0.8763108487046415,-0.00042755655724265805,-1.732112418721781e-05,0.0003897089309443485,-0.00031931280132370453,-0.000567208602064289,0.00012705959606055457,0.0005511403885856881,0.0,0.0,0.0,0.0,0.0,0.0,0.0,0.00020732156017355674,-2.2370368242256855e-05,-3.6192895750408738e-06,0.00014867280658847903,7.269179177833013e-05,1.8577575683575986e-05,-7.511656962444491e-06,0.00042755655724265805,1.732112418721781e-05,-0.0003897089309443485,0.00031931280132370453,0.000567208602064289,-0.00012705959606055457,-0.0005511403885856881,-0.16037636995315552,18.106531143188477,-1.1164276599884033,-18.245882034301758,-0.7427878975868225,-2.2488436698913574,0.20083944499492645,0
71,0.3500101566314697,0.16037636995315552,-18.106531143188477,1.1164276599884033,18.245882034301758,0.7427878975868225,2.2488436698913574,-0.20083944499492645,0.0,0.0,0.0,0.0,0.0,0.0,0.0,0.13665458152041157,0.556014145732883,0.3140661358827828,0.6166181538571015,0.30225046447482273,0.06644477056346566,-0.19697350204084324,-0.6092924963758701,-0.05750959681732613,-0.666599477793041,-2.594705209832442,-0.05569413120731833,2.5079574496481154,0.8763183603616039,-0.6090851748156966,-0.05753196718556838,-0.666603097082616,-2.5945565370258534,-0.05562143941554,2.507976027223799,0.8763108487046415,-0.00042755655724265805,-1.732112418721781e-05,0.0003897089309443485,-0.00031931280132370453,-0.000567208602064289,0.00012705959606055457,0.0005511403885856881,0.0,0.0,0.0,0.0,0.0,0.0,0.0,0.00020732156017355674,-2.2370368242256855e-05,-3.6192895750408738e-06,0.00014867280658847903,7.269179177833013e-05,1.8577575683575986e-05,-7.511656962444491e-06,0.00042755655724265805,1.732112418721781e-05,-0.0003897089309443485,0.00031931280132370453,0.000567208602064289,-0.00012705959606055457,-0.0005511403885856881,-0.16037636995315552,18.106531143188477,-1.1164276599884033,-18.245882034301758,-0.7427878975868225,-2.2488436698913574,0.20083944499492645,0
72,0.3549954891204834,0.13260537385940552,-18.130334854125977,1.1164276599884033,18.245882034301758,0.7189841866493225,2.2424349784851074,-0.22098104655742645,0.0,0.0,0.0,0.0,0.0,0.0,0.0,0.14091171100100905,0.5521744067874726,0.3160051074149019,0.6179454745043417,0.3024250084399417,0.06748064652301172,-0.19615039717272434,-0.609290547534039,-0.05750792638147086,-0.666599477793041,-2.594705209832442,-0.05569148636857658,2.5079581617249382,0.8763207144391826,-0.6090851748156966,-0.05753196718556838,-0.666603097082616,-2.5945565370258534,-0.05562143941554,2.507976027223799,0.8763108487046415,0.00030401508210998085,-0.00024888865446883487,0.000243550439089834,-0.00022890013462469554,0.00035247298981626985,0.00026087188417536436,0.00035625571707066574,0.0,0.0,0.0,0.0,0.0,0.0,0.0,0.00020537271834242254,-2.4040804097520685e-05,-3.6192895750408738e-06,0.00014867280658847903,7.004695303657743e-05,1.7865498860736295e-05,-9.865734541092408e-06,-0.00030401508210998085,0.00024888865446883487,-0.000243550439089834,0.00022890013462469554,-0.00035247298981626985,-0.00026087188417536436,-0.00035625571707066574,-0.13260537385940552,18.130334854125977,-1.1164276599884033,-18.245882034301758,-0.7189841866493225,-2.2424349784851074,0.22098104655742645,0
73,0.3600025177001953,0.13260537385940552,-18.130334854125977,1.1164276599884033,18.245882034301758,0.7189841866493225,2.2424349784851074,-0.22098104655742645,0.0,0.0,0.0,0.0,0.0,0.0,0.0,0.14091171100100905,0.5521744067874726,0.3160051074149019,0.6179454745043417,0.3024250084399417,0.06748064652301172,-0.19615039717272434,-0.609290547534039,-0.05750792638147086,-0.666599477793041,-2.594705209832442,-0.05569148636857658,2.5079581617249382,0.8763207144391826,-0.6090851748156966,-0.05753196718556838,-0.666603097082616,-2.5945565370258534,-0.05562143941554,2.507976027223799,0.8763108487046415,0.00030401508210998085,-0.00024888865446883487,0.000243550439089834,-0.00022890013462469554,0.00035247298981626985,0.00026087188417536436,0.00035625571707066574,0.0,0.0,0.0,0.0,0.0,0.0,0.0,0.00020537271834242254,-2.4040804097520685e-05,-3.6192895750408738e-06,0.00014867280658847903,7.004695303657743e-05,1.7865498860736295e-05,-9.865734541092408e-06,-0.00030401508210998085,0.00024888865446883487,-0.000243550439089834,0.00022890013462469554,-0.00035247298981626985,-0.00026087188417536436,-0.00035625571707066574,-0.13260537385940552,18.130334854125977,-1.1164276599884033,-18.245882034301758,-0.7189841866493225,-2.2424349784851074,0.22098104655742645,0
74,0.3650076389312744,0.16037636995315552,-18.106531143188477,1.1441986560821533,18.222078323364258,0.7253928780555725,2.2488436698913574,-0.19351522624492645,0.0,0.0,0.0,0.0,0.0,0.0,0.0,0.1452922786890406,0.553798341740766,0.32079128928049455,0.6156952653625329,0.3022235304224864,0.06660023773613151,-0.19917881401457116,-0.6092924963758701,-0.05750959681732613,-0.6666014266348721,-2.594703539396587,-0.0556921984453996,2.5079574496481154,0.8763176642970815,-0.6090851748156966,-0.05753196718556838,-0.666603097082616,-2.5945565370258534,-0.05562143941554,2.507976027223799,0.8763108487046415,-0.00024182143629950241,-0.00042946576357828336,-0.0007098166653032468,0.0005527606134977652,-2.2729524195077805e-05,-5.465863173758058e-05,-0.0008611906208178667,0.0,0.0,0.0,0.0,0.0,0.0,0.0,0.00020732156017355674,-2.2370368242256855e-05,-1.6704477439066778e-06,0.00014700237073350664,7.075902985959753e-05,1.8577575683575986e-05,-6.815592439979312e-06,0.00024182143629950241,0.00042946576357828336,0.0007098166653032468,-0.0005527606134977652,2.2729524195077805e-05,5.465863173758058e-05,0.0008611906208178667,-0.16037636995315552,18.106531143188477,-1.1441986560821533,-18.222078323364258,-0.7253928780555725,-2.2488436698913574,0.19351522624492645,0
75,0.3699951171875,0.16037636995315552,-18.106531143188477,1.1441986560821533,18.222078323364258,0.7253928780555725,2.2488436698913574,-0.19351522624492645,0.0,0.0,0.0,0.0,0.0,0.0,0.0,0.1452922786890406,0.553798341740766,0.32079128928049455,0.6156952653625329,0.3022235304224864,0.06660023773613151,-0.19917881401457116,-0.6092924963758701,-0.05750959681732613,-0.6666014266348721,-2.594703539396587,-0.0556921984453996,2.5079574496481154,0.8763176642970815,-0.6090851748156966,-0.05753196718556838,-0.666603097082616,-2.5945565370258534,-0.05562143941554,2.507976027223799,0.8763108487046415,-0.00024182143629950241,-0.00042946576357828336,-0.0007098166653032468,0.0005527606134977652,-2.2729524195077805e-05,-5.465863173758058e-05,-0.0008611906208178667,0.0,0.0,0.0,0.0,0.0,0.0,0.0,0.00020732156017355674,-2.2370368242256855e-05,-1.6704477439066778e-06,0.00014700237073350664,7.075902985959753e-05,1.8577575683575986e-05,-6.815592439979312e-06,0.00024182143629950241,0.00042946576357828336,0.0007098166653032468,-0.0005527606134977652,2.2729524195077805e-05,5.465863173758058e-05,0.0008611906208178667,-0.16037636995315552,18.106531143188477,-1.1441986560821533,-18.222078323364258,-0.7253928780555725,-2.2488436698913574,0.19351522624492645,0
76,0.3749985694885254,0.16037636995315552,-18.106531143188477,1.1441986560821533,18.222078323364258,0.7253928780555725,2.2488436698913574,-0.19351522624492645,0.0,0.0,0.0,0.0,0.0,0.0,0.0,0.1452922786890406,0.553798341740766,0.32079128928049455,0.6156952653625329,0.3022235304224864,0.06660023773613151,-0.19917881401457116,-0.6092924963758701,-0.05750959681732613,-0.6666014266348721,-2.594703539396587,-0.0556921984453996,2.5079574496481154,0.8763176642970815,-0.6090851748156966,-0.05753196718556838,-0.666603097082616,-2.5945565370258534,-0.05562143941554,2.507976027223799,0.8763108487046415,-0.00024182143629950241,-0.00042946576357828336,-0.0007098166653032468,0.0005527606134977652,-2.2729524195077805e-05,-5.465863173758058e-05,-0.0008611906208178667,0.0,0.0,0.0,0.0,0.0,0.0,0.0,0.00020732156017355674,-2.2370368242256855e-05,-1.6704477439066778e-06,0.00014700237073350664,7.075902985959753e-05,1.8577575683575986e-05,-6.815592439979312e-06,0.00024182143629950241,0.00042946576357828336,0.0007098166653032468,-0.0005527606134977652,2.2729524195077805e-05,5.465863173758058e-05,0.0008611906208178667,-0.16037636995315552,18.106531143188477,-1.1441986560821533,-18.222078323364258,-0.7253928780555725,-2.2488436698913574,0.19351522624492645,0
77,0.3800082206726074,0.16037636995315552,-18.106531143188477,1.1441986560821533,18.222078323364258,0.7253928780555725,2.2488436698913574,-0.19351522624492645,0.0,0.0,0.0,0.0,0.0,0.0,0.0,0.1452922786890406,0.553798341740766,0.32079128928049455,0.6156952653625329,0.3022235304224864,0.06660023773613151,-0.19917881401457116,-0.6092924963758701,-0.05750959681732613,-0.6666014266348721,-2.594703539396587,-0.0556921984453996,2.5079574496481154,0.8763176642970815,-0.6090851748156966,-0.05753196718556838,-0.666603097082616,-2.5945565370258534,-0.05562143941554,2.507976027223799,0.8763108487046415,-0.00024182143629950241,-0.00042946576357828336,-0.0007098166653032468,0.0005527606134977652,-2.2729524195077805e-05,-5.465863173758058e-05,-0.0008611906208178667,0.0,0.0,0.0,0.0,0.0,0.0,0.0,0.00020732156017355674,-2.2370368242256855e-05,-1.6704477439066778e-06,0.00014700237073350664,7.075902985959753e-05,1.8577575683575986e-05,-6.815592439979312e-06,0.00024182143629950241,0.00042946576357828336,0.0007098166653032468,-0.0005527606134977652,2.2729524195077805e-05,5.465863173758058e-05,0.0008611906208178667,-0.16037636995315552,18.106531143188477,-1.1441986560821533,-18.222078323364258,-0.7253928780555725,-2.2488436698913574,0.19351522624492645,0
78,0.3849983215332031,0.08103066682815552,-18.106531143188477,1.1164276599884033,18.269685745239258,0.7189841866493225,2.2488436698913574,-0.20724813640117645,0.0,0.0,0.0,0.0,0.0,0.0,0.0,0.1315079928488204,0.5487714277242763,0.30607034774106473,0.6163425487380585,0.30244228328887296,0.06634300817961761,-0.20014228920907867,-0.609286927929304,-0.05750959681732613,-0.666599477793041,-2.5947068802682973,-0.05569148636857668,2.5079574496481154,0.8763191901759968,-0.6090851748156966,-0.05753196718556838,-0.666603097082616,-2.5945565370258534,-0.05562143941554,2.507976027223799,0.8763108487046415,0.0006703986759444224,-0.00028217818623422716,-0.00052127711012527,-0.0005306474797343671,0.00032332090864343685,5.82870498328094e-05,0.0006371359025976802,0.0,0.0,0.0,0.0,0.0,0.0,0.0,0.00020175311360737247,-2.2370368242256855e-05,-3.6192895750408738e-06,0.00015034324244389552,7.004695303668151e-05,1.8577575683575986e-05,-8.341471355310937e-06,-0.0006703986759444224,0.00028217818623422716,0.00052127711012527,0.0005306474797343671,-0.00032332090864343685,-5.82870498328094e-05,-0.0006371359025976802,-0.08103066682815552,18.106531143188477,-1.1164276599884033,-18.269685745239258,-0.7189841866493225,-2.2488436698913574,0.20724813640117645,0
79,0.3899970054626465,0.08103066682815552,-18.106531143188477,1.1164276599884033,18.269685745239258,0.7189841866493225,2.2488436698913574,-0.20724813640117645,0.0,0.0,0.0,0.0,0.0,0.0,0.0,0.1315079928488204,0.5487714277242763,0.30607034774106473,0.6163425487380585,0.30244228328887296,0.06634300817961761,-0.20014228920907867,-0.609286927929304,-0.05750959681732613,-0.666599477793041,-2.5947068802682973,-0.05569148636857668,2.5079574496481154,0.8763191901759968,-0.6090851748156966,-0.05753196718556838,-0.666603097082616,-2.5945565370258534,-0.05562143941554,2.507976027223799,0.8763108487046415,0.0006703986759444224,-0.00028217818623422716,-0.00052127711012527,-0.0005306474797343671,0.00032332090864343685,5.82870498328094e-05,0.0006371359025976802,0.0,0.0,0.0,0.0,0.0,0.0,0.0,0.00020175311360737247,-2.2370368242256855e-05,-3.6192895750408738e-06,0.00015034324244389552,7.004695303668151e-05,1.8577575683575986e-05,-8.341471355310937e-06,-0.0006703986759444224,0.00028217818623422716,0.00052127711012527,0.0005306474797343671,-0.00032332090864343685,-5.82870498328094e-05,-0.0006371359025976802,-0.08103066682815552,18.106531143188477,-1.1164276599884033,-18.269685745239258,-0.7189841866493225,-2.2488436698913574,0.20724813640117645,0
