rezayati/contactInterpretation/dataset/franka_main/labeled_data/link5/c4_7.csv
index,time,tau_J0,tau_J1,tau_J2,tau_J3,tau_J4,tau_J5,tau_J6,tau_J_d0,tau_J_d1,tau_J_d2,tau_J_d3,tau_J_d4,tau_J_d5,tau_J_d6,tau_ext0,tau_ext1,tau_ext2,tau_ext3,tau_ext4,tau_ext5,tau_ext6,q0,q1,q2,q3,q4,q5,q6,q_d0,q_d1,q_d2,q_d3,q_d4,q_d5,q_d6,dq0,dq1,dq2,dq3,dq4,dq5,dq6,dq_d0,dq_d1,dq_d2,dq_d3,dq_d4,dq_d5,dq_d6,e0,e1,e2,e3,e4,e5,e6,de0,de1,de2,de3,de4,de5,de6,etau_J0,etau_J1,etau_J2,etau_J3,etau_J4,etau_J5,etau_J6,label
1,0.0,-0.17287558317184448,-11.925500869750977,1.2909882068634033,21.693452835083008,0.4626365303993225,2.5207552909851074,-0.22098104655742645,0.0,0.0,0.0,0.0,0.0,0.0,0.0,-0.12537014742532923,0.4358839747333854,0.09983964139977516,0.43690384879635896,-0.06952682953516877,0.12446541486213038,-0.21993791757527661,0.17281724875785498,-0.4874123264190479,-0.11153759686943432,-1.9465558978298254,0.13375966745615006,2.595546303484175,0.9452502227276564,0.1728802376190821,-0.48752024683155326,-0.11147110072896137,-1.9463801863486305,0.1336059019074957,2.595550359778934,0.9452445589611904,0.0014297989432637877,-0.00015378985690283264,0.0004127267221045896,0.0004567745057479143,0.00023025608216426123,-0.00010788610369035393,0.0003624493305147064,0.0,0.0,0.0,0.0,0.0,0.0,0.0,6.298886122713121e-05,-0.00010792041250534679,6.649614047295194e-05,0.00017571148119488456,-0.00015376554865437209,4.056294759191559e-06,-5.66376646593536e-06,-0.0014297989432637877,0.00015378985690283264,-0.0004127267221045896,-0.0004567745057479143,-0.00023025608216426123,0.00010788610369035393,-0.0003624493305147064,0.17287558317184448,11.925500869750977,-1.2909882068634033,-21.693452835083008,-0.4626365303993225,-2.5207552909851074,0.22098104655742645,0
2,0.005001544952392578,-0.17287558317184448,-11.925500869750977,1.2909882068634033,21.693452835083008,0.4626365303993225,2.5207552909851074,-0.22098104655742645,0.0,0.0,0.0,0.0,0.0,0.0,0.0,-0.12537014742532923,0.4358839747333854,0.09983964139977516,0.43690384879635896,-0.06952682953516877,0.12446541486213038,-0.21993791757527661,0.17281724875785498,-0.4874123264190479,-0.11153759686943432,-1.9465558978298254,0.13375966745615006,2.595546303484175,0.9452502227276564,0.1728802376190821,-0.48752024683155326,-0.11147110072896137,-1.9463801863486305,0.1336059019074957,2.595550359778934,0.9452445589611904,0.0014297989432637877,-0.00015378985690283264,0.0004127267221045896,0.0004567745057479143,0.00023025608216426123,-0.00010788610369035393,0.0003624493305147064,0.0,0.0,0.0,0.0,0.0,0.0,0.0,6.298886122713121e-05,-0.00010792041250534679,6.649614047295194e-05,0.00017571148119488456,-0.00015376554865437209,4.056294759191559e-06,-5.66376646593536e-06,-0.0014297989432637877,0.00015378985690283264,-0.0004127267221045896,-0.0004567745057479143,-0.00023025608216426123,0.00010788610369035393,-0.0003624493305147064,0.17287558317184448,11.925500869750977,-1.2909882068634033,-21.693452835083008,-0.4626365303993225,-2.5207552909851074,0.22098104655742645,0
3,0.00999593734741211,-0.12130087614059448,-11.925500869750977,1.3147919178009033,21.741060256958008,0.4626365303993225,2.5335726737976074,-0.16604940593242645,0.0,0.0,0.0,0.0,0.0,0.0,0.0,-0.12499432068328002,0.43545709977392144,0.09890221072230265,0.43342894492352696,-0.06900145403675677,0.12354171182416801,-0.22003887480066597,0.17281221125382082,-0.48741233197349415,-0.11154225788229308,-1.946559238701536,0.13375966745615006,2.595544879330529,0.9452430331442611,0.1728802376190821,-0.48752024683155326,-0.11147110072896137,-1.9463801863486305,0.1336059019074957,2.595550359778934,0.9452445589611904,0.00029236789942780863,-5.45463410218047e-05,-0.0003149850616332861,-0.0004385827135391533,1.8066612994913292e-05,-0.0004935352400330747,-0.0018049267541965241,0.0,0.0,0.0,0.0,0.0,0.0,0.0,6.802636526129224e-05,-0.0001079148580591105,7.115715333171069e-05,0.00017905235290549548,-0.00015376554865437209,5.480448404870941e-06,1.5258169293597135e-06,-0.00029236789942780863,5.45463410218047e-05,0.0003149850616332861,0.0004385827135391533,-1.8066612994913292e-05,0.0004935352400330747,0.0018049267541965241,0.12130087614059448,11.925500869750977,-1.3147919178009033,-21.741060256958008,-0.4626365303993225,-2.5335726737976074,0.16604940593242645,0
4,0.014998674392700195,-0.12130087614059448,-11.925500869750977,1.3147919178009033,21.741060256958008,0.4626365303993225,2.5335726737976074,-0.16604940593242645,0.0,0.0,0.0,0.0,0.0,0.0,0.0,-0.12499432068328002,0.43545709977392144,0.09890221072230265,0.43342894492352696,-0.06900145403675677,0.12354171182416801,-0.22003887480066597,0.17281221125382082,-0.48741233197349415,-0.11154225788229308,-1.946559238701536,0.13375966745615006,2.595544879330529,0.9452430331442611,0.1728802376190821,-0.48752024683155326,-0.11147110072896137,-1.9463801863486305,0.1336059019074957,2.595550359778934,0.9452445589611904,0.00029236789942780863,-5.45463410218047e-05,-0.0003149850616332861,-0.0004385827135391533,1.8066612994913292e-05,-0.0004935352400330747,-0.0018049267541965241,0.0,0.0,0.0,0.0,0.0,0.0,0.0,6.802636526129224e-05,-0.0001079148580591105,7.115715333171069e-05,0.00017905235290549548,-0.00015376554865437209,5.480448404870941e-06,1.5258169293597135e-06,-0.00029236789942780863,5.45463410218047e-05,0.0003149850616332861,0.0004385827135391533,-1.8066612994913292e-05,0.0004935352400330747,0.0018049267541965241,0.12130087614059448,11.925500869750977,-1.3147919178009033,-21.741060256958008,-0.4626365303993225,-2.5335726737976074,0.16604940593242645,0
5,0.019997596740722656,-0.12130087614059448,-11.925500869750977,1.3425629138946533,21.693452835083008,0.4690452218055725,2.5207552909851074,-0.18710653483867645,0.0,0.0,0.0,0.0,0.0,0.0,0.0,-0.12122111103798966,0.44269767273363214,0.10401318244692206,0.42645216388067625,-0.06930546169085766,0.12311745162426821,-0.2194396095288386,0.17281178253059098,-0.48741304919155565,-0.11154184459719424,-1.9465558978298254,0.13375895537932714,2.595546303484175,0.9452453727639387,0.1728802376190821,-0.48752024683155326,-0.11147110072896137,-1.9463801863486305,0.1336059019074957,2.595550359778934,0.9452445589611904,0.00027707436056532395,0.00024272060610884547,-0.0006671359507763547,0.000760721597568393,-6.687409043597361e-05,0.0002939946123357049,-0.0005970446660699707,0.0,0.0,0.0,0.0,0.0,0.0,0.0,6.845508849112614e-05,-0.00010719763999761378,7.07438682328726e-05,0.00017571148119488456,-0.00015305347183144913,4.056294759191559e-06,-8.138027483006738e-07,-0.00027707436056532395,-0.00024272060610884547,0.0006671359507763547,-0.000760721597568393,6.687409043597361e-05,-0.0002939946123357049,0.0005970446660699707,0.12130087614059448,11.925500869750977,-1.3425629138946533,-21.693452835083008,-0.4690452218055725,-2.5207552909851074,0.18710653483867645,0
6,0.024995803833007812,-0.12130087614059448,-11.925500869750977,1.3425629138946533,21.693452835083008,0.4690452218055725,2.5207552909851074,-0.18710653483867645,0.0,0.0,0.0,0.0,0.0,0.0,0.0,-0.12122111103798966,0.44269767273363214,0.10401318244692206,0.42645216388067625,-0.06930546169085766,0.12311745162426821,-0.2194396095288386,0.17281178253059098,-0.48741304919155565,-0.11154184459719424,-1.9465558978298254,0.13375895537932714,2.595546303484175,0.9452453727639387,0.1728802376190821,-0.48752024683155326,-0.11147110072896137,-1.9463801863486305,0.1336059019074957,2.595550359778934,0.9452445589611904,0.00027707436056532395,0.00024272060610884547,-0.0006671359507763547,0.000760721597568393,-6.687409043597361e-05,0.0002939946123357049,-0.0005970446660699707,0.0,0.0,0.0,0.0,0.0,0.0,0.0,6.845508849112614e-05,-0.00010719763999761378,7.07438682328726e-05,0.00017571148119488456,-0.00015305347183144913,4.056294759191559e-06,-8.138027483006738e-07,-0.00027707436056532395,-0.00024272060610884547,0.0006671359507763547,-0.000760721597568393,6.687409043597361e-05,-0.0002939946123357049,0.0005970446660699707,0.12130087614059448,11.925500869750977,-1.3425629138946533,-21.693452835083008,-0.4690452218055725,-2.5207552909851074,0.18710653483867645,0
7,0.029996871948242188,-0.09352988004684448,-11.949304580688477,1.2909882068634033,21.741060256958008,0.4745383858680725,2.5207552909851074,-0.18710653483867645,0.0,0.0,0.0,0.0,0.0,0.0,0.0,-0.12188213477347995,0.4204821245862952,0.10340886420613742,0.43535389180374734,-0.0685874222670091,0.12516113742231708,-0.2189895558151039,0.17281167930753874,-0.48741086790951516,-0.11153762071456634,-1.946559238701536,0.13375834502776462,2.595546303484175,0.9452453727639384,0.1728802376190821,-0.48752024683155326,-0.11147110072896137,-1.9463801863486305,0.1336059019074957,2.595550359778934,0.9452445589611904,-0.00019357015314550152,0.0005210035947063315,0.00022385765773290478,6.30294030007063e-05,-0.0004133063406069792,0.00011225622453369107,-0.0011238779290077034,0.0,0.0,0.0,0.0,0.0,0.0,0.0,6.855831154337078e-05,-0.00010937892203810584,6.651998560497363e-05,0.00017905235290549548,-0.0001524431202689358,4.056294759191559e-06,-8.138027479676069e-07,0.00019357015314550152,-0.0005210035947063315,-0.00022385765773290478,-6.30294030007063e-05,0.0004133063406069792,-0.00011225622453369107,0.0011238779290077034,0.09352988004684448,11.949304580688477,-1.2909882068634033,-21.741060256958008,-0.4745383858680725,-2.5207552909851074,0.18710653483867645,0
8,0.0350041389465332,-0.09352988004684448,-11.949304580688477,1.2909882068634033,21.741060256958008,0.4745383858680725,2.5207552909851074,-0.18710653483867645,0.0,0.0,0.0,0.0,0.0,0.0,0.0,-0.12188213477347995,0.4204821245862952,0.10340886420613742,0.43535389180374734,-0.0685874222670091,0.12516113742231708,-0.2189895558151039,0.17281167930753874,-0.48741086790951516,-0.11153762071456634,-1.946559238701536,0.13375834502776462,2.595546303484175,0.9452453727639384,0.1728802376190821,-0.48752024683155326,-0.11147110072896137,-1.9463801863486305,0.1336059019074957,2.595550359778934,0.9452445589611904,-0.00019357015314550152,0.0005210035947063315,0.00022385765773290478,6.30294030007063e-05,-0.0004133063406069792,0.00011225622453369107,-0.0011238779290077034,0.0,0.0,0.0,0.0,0.0,0.0,0.0,6.855831154337078e-05,-0.00010937892203810584,6.651998560497363e-05,0.00017905235290549548,-0.0001524431202689358,4.056294759191559e-06,-8.138027479676069e-07,0.00019357015314550152,-0.0005210035947063315,-0.00022385765773290478,-6.30294030007063e-05,0.0004133063406069792,-0.00011225622453369107,0.0011238779290077034,0.09352988004684448,11.949304580688477,-1.2909882068634033,-21.741060256958008,-0.4745383858680725,-2.5207552909851074,0.18710653483867645,0
9,0.0400238037109375,-0.12130087614059448,-11.850122451782227,1.2909882068634033,21.717256546020508,0.4745383858680725,2.5335726737976074,-0.24844686686992645,0.0,0.0,0.0,0.0,0.0,0.0,0.0,-0.12142822371014265,0.4327856304460884,0.09707164084375829,0.4305204093738877,-0.0682368860705137,0.12416740025392652,-0.2196679750662576,0.17281217884362352,-0.4874178630167364,-0.1115375326598939,-1.9465575683006735,0.13375834502776462,2.595544879330529,0.9452521883563862,0.1728802376190821,-0.48752024683155326,-0.11147110072896137,-1.9463801863486305,0.1336059019074957,2.595550359778934,0.9452445589611904,-0.00017388808673192768,-0.0007328442155679861,-2.2552880903013996e-05,0.0004787130561202608,-0.0008118490052016663,-0.00021241845303497864,0.0018242919720530592,0.0,0.0,0.0,0.0,0.0,0.0,0.0,6.805877545859595e-05,-0.00010238381481686432,6.643193093253119e-05,0.00017738195204297647,-0.0001524431202689358,5.480448404870941e-06,-7.629395195829503e-06,0.00017388808673192768,0.0007328442155679861,2.2552880903013996e-05,-0.0004787130561202608,0.0008118490052016663,0.00021241845303497864,-0.0018242919720530592,0.12130087614059448,11.850122451782227,-1.2909882068634033,-21.717256546020508,-0.4745383858680725,-2.5335726737976074,0.24844686686992645,0
10,0.045005083084106445,-0.12130087614059448,-11.850122451782227,1.2909882068634033,21.717256546020508,0.4745383858680725,2.5335726737976074,-0.24844686686992645,0.0,0.0,0.0,0.0,0.0,0.0,0.0,-0.12142822371014265,0.4327856304460884,0.09707164084375829,0.4305204093738877,-0.0682368860705137,0.12416740025392652,-0.2196679750662576,0.17281217884362352,-0.4874178630167364,-0.1115375326598939,-1.9465575683006735,0.13375834502776462,2.595544879330529,0.9452521883563862,0.1728802376190821,-0.48752024683155326,-0.11147110072896137,-1.9463801863486305,0.1336059019074957,2.595550359778934,0.9452445589611904,-0.00017388808673192768,-0.0007328442155679861,-2.2552880903013996e-05,0.0004787130561202608,-0.0008118490052016663,-0.00021241845303497864,0.0018242919720530592,0.0,0.0,0.0,0.0,0.0,0.0,0.0,6.805877545859595e-05,-0.00010238381481686432,6.643193093253119e-05,0.00017738195204297647,-0.0001524431202689358,5.480448404870941e-06,-7.629395195829503e-06,0.00017388808673192768,0.0007328442155679861,2.2552880903013996e-05,-0.0004787130561202608,0.0008118490052016663,0.00021241845303497864,-0.0018242919720530592,0.12130087614059448,11.850122451782227,-1.2909882068634033,-21.717256546020508,-0.4745383858680725,-2.5335726737976074,0.24844686686992645,0
11,0.05045008659362793,-0.12130087614059448,-11.873926162719727,1.2909882068634033,21.768831253051758,0.4571433663368225,2.5271639823913574,-0.22830526530742645,0.0,0.0,0.0,0.0,0.0,0.0,0.0,-0.11498607287435272,0.4385193660353796,0.11056392152331358,0.42914524856848607,-0.0696983579965392,0.1245304087687999,-0.22019920348344266,0.17281171524213515,-0.4874169049268906,-0.111537777217389,-1.946561213053174,0.13376027780771255,2.595545591407352,0.9452499504006571,0.1728802376190821,-0.48752024683155326,-0.11147110072896137,-1.9463801863486305,0.1336059019074957,2.595550359778934,0.9452445589611904,0.0001704722893693885,0.0002932735276520973,0.00016522978633439484,-0.0015925240941494687,0.00023297110604920967,-9.181760256778864e-05,0.0003070988309828379,0.0,0.0,0.0,0.0,0.0,0.0,0.0,6.852237694696117e-05,-0.00010334190466265714,6.66764884276333e-05,0.00018102670454345215,-0.00015437590021685765,4.76837158203125e-06,-5.3914394666509935e-06,-0.0001704722893693885,-0.0002932735276520973,-0.00016522978633439484,0.0015925240941494687,-0.00023297110604920967,9.181760256778864e-05,-0.0003070988309828379,0.12130087614059448,11.873926162719727,-1.2909882068634033,-21.768831253051758,-0.4571433663368225,-2.5271639823913574,0.22830526530742645,0
12,0.05499386787414551,-0.12130087614059448,-11.873926162719727,1.2909882068634033,21.768831253051758,0.4571433663368225,2.5271639823913574,-0.22830526530742645,0.0,0.0,0.0,0.0,0.0,0.0,0.0,-0.11498607287435272,0.4385193660353796,0.11056392152331358,0.42914524856848607,-0.0696983579965392,0.1245304087687999,-0.22019920348344266,0.17281171524213515,-0.4874169049268906,-0.111537777217389,-1.946561213053174,0.13376027780771255,2.595545591407352,0.9452499504006571,0.1728802376190821,-0.48752024683155326,-0.11147110072896137,-1.9463801863486305,0.1336059019074957,2.595550359778934,0.9452445589611904,0.0001704722893693885,0.0002932735276520973,0.00016522978633439484,-0.0015925240941494687,0.00023297110604920967,-9.181760256778864e-05,0.0003070988309828379,0.0,0.0,0.0,0.0,0.0,0.0,0.0,6.852237694696117e-05,-0.00010334190466265714,6.66764884276333e-05,0.00018102670454345215,-0.00015437590021685765,4.76837158203125e-06,-5.3914394666509935e-06,-0.0001704722893693885,-0.0002932735276520973,-0.00016522978633439484,0.0015925240941494687,-0.00023297110604920967,9.181760256778864e-05,-0.0003070988309828379,0.12130087614059448,11.873926162719727,-1.2909882068634033,-21.768831253051758,-0.4571433663368225,-2.5271639823913574,0.22830526530742645,0
13,0.059996604919433594,-0.12130087614059448,-11.925500869750977,1.3147919178009033,21.693452835083008,0.4626365303993225,2.5207552909851074,-0.21457235515117645,0.0,0.0,0.0,0.0,0.0,0.0,0.0,-0.12076328747205829,0.42757739559992564,0.10472455244730644,0.43794550098700913,-0.06980745617430503,0.12595679426179615,-0.22047866539675706,0.17281147632834698,-0.4874132889237135,-0.11153950016034216,-1.9465559233397762,0.13375966745615006,2.595546303484175,0.9452484245217508,0.1728802376190821,-0.48752024683155326,-0.11147110072896137,-1.9463801863486305,0.1336059019074957,2.595550359778934,0.9452445589611904,0.0002918338454588018,0.0008989158547597096,-0.0006834374127595357,0.0009384367568540303,-6.1879766624615e-05,0.0002795654275162572,0.0004320084647778801,0.0,0.0,0.0,0.0,0.0,0.0,0.0,6.876129073513093e-05,-0.00010695790783976644,6.839943138078897e-05,0.00017573699114570296,-0.00015376554865437209,4.056294759191559e-06,-3.865560560423198e-06,-0.0002918338454588018,-0.0008989158547597096,0.0006834374127595357,-0.0009384367568540303,6.1879766624615e-05,-0.0002795654275162572,-0.0004320084647778801,0.12130087614059448,11.925500869750977,-1.3147919178009033,-21.693452835083008,-0.4626365303993225,-2.5207552909851074,0.21457235515117645,0
14,0.06499576568603516,-0.12130087614059448,-11.925500869750977,1.3147919178009033,21.693452835083008,0.4626365303993225,2.5207552909851074,-0.21457235515117645,0.0,0.0,0.0,0.0,0.0,0.0,0.0,-0.12076328747205829,0.42757739559992564,0.10472455244730644,0.43794550098700913,-0.06980745617430503,0.12595679426179615,-0.22047866539675706,0.17281147632834698,-0.4874132889237135,-0.11153950016034216,-1.9465559233397762,0.13375966745615006,2.595546303484175,0.9452484245217508,0.1728802376190821,-0.48752024683155326,-0.11147110072896137,-1.9463801863486305,0.1336059019074957,2.595550359778934,0.9452445589611904,0.0002918338454588018,0.0008989158547597096,-0.0006834374127595357,0.0009384367568540303,-6.1879766624615e-05,0.0002795654275162572,0.0004320084647778801,0.0,0.0,0.0,0.0,0.0,0.0,0.0,6.876129073513093e-05,-0.00010695790783976644,6.839943138078897e-05,0.00017573699114570296,-0.00015376554865437209,4.056294759191559e-06,-3.865560560423198e-06,-0.0002918338454588018,-0.0008989158547597096,0.0006834374127595357,-0.0009384367568540303,6.1879766624615e-05,-0.0002795654275162572,-0.0004320084647778801,0.12130087614059448,11.925500869750977,-1.3147919178009033,-21.693452835083008,-0.4626365303993225,-2.5207552909851074,0.21457235515117645,0
15,0.06999969482421875,-0.12130087614059448,-11.826318740844727,1.2671844959259033,21.717256546020508,0.4626365303993225,2.5143465995788574,-0.23471395671367645,0.0,0.0,0.0,0.0,0.0,0.0,0.0,-0.1263704859466067,0.4438734384399297,0.09468730233846841,0.4308160328443954,-0.06943788443421932,0.12498189943302293,-0.2205863660102613,0.17281170641760932,-0.48741738706903326,-0.11153607289807763,-1.9465575682658247,0.13375966745615006,2.5955470155609977,0.945247483563092,0.1728802376190821,-0.48752024683155326,-0.11147110072896137,-1.9463801863486305,0.1336059019074957,2.595550359778934,0.9452445589611904,-0.0007291456113339805,-0.0011414970768061465,0.0002915470270363332,-0.00010721947797994293,0.0001362044153769355,0.0004871470044606972,0.0012296546855988012,0.0,0.0,0.0,0.0,0.0,0.0,0.0,6.853120147279346e-05,-0.00010285976252000228,6.497216911625914e-05,0.00017738191719418595,-0.00015376554865437209,3.3442179363518676e-06,-2.9246019015438662e-06,0.0007291456113339805,0.0011414970768061465,-0.0002915470270363332,0.00010721947797994293,-0.0001362044153769355,-0.0004871470044606972,-0.0012296546855988012,0.12130087614059448,11.826318740844727,-1.2671844959259033,-21.717256546020508,-0.4626365303993225,-2.5143465995788574,0.23471395671367645,0
16,0.0749976634979248,-0.12130087614059448,-11.826318740844727,1.2671844959259033,21.717256546020508,0.4626365303993225,2.5143465995788574,-0.23471395671367645,0.0,0.0,0.0,0.0,0.0,0.0,0.0,-0.1263704859466067,0.4438734384399297,0.09468730233846841,0.4308160328443954,-0.06943788443421932,0.12498189943302293,-0.2205863660102613,0.17281170641760932,-0.48741738706903326,-0.11153607289807763,-1.9465575682658247,0.13375966745615006,2.5955470155609977,0.945247483563092,0.1728802376190821,-0.48752024683155326,-0.11147110072896137,-1.9463801863486305,0.1336059019074957,2.595550359778934,0.9452445589611904,-0.0007291456113339805,-0.0011414970768061465,0.0002915470270363332,-0.00010721947797994293,0.0001362044153769355,0.0004871470044606972,0.0012296546855988012,0.0,0.0,0.0,0.0,0.0,0.0,0.0,6.853120147279346e-05,-0.00010285976252000228,6.497216911625914e-05,0.00017738191719418595,-0.00015376554865437209,3.3442179363518676e-06,-2.9246019015438662e-06,0.0007291456113339805,0.0011414970768061465,-0.0002915470270363332,0.00010721947797994293,-0.0001362044153769355,-0.0004871470044606972,-0.0012296546855988012,0.12130087614059448,11.826318740844727,-1.2671844959259033,-21.717256546020508,-0.4626365303993225,-2.5143465995788574,0.23471395671367645,0
17,0.07999587059020996,-0.09352988004684448,-11.901697158813477,1.2671844959259033,21.741060256958008,0.4690452218055725,2.5335726737976074,-0.23471395671367645,0.0,0.0,0.0,0.0,0.0,0.0,0.0,-0.11708293313127999,0.4309871735478082,0.10875163203554684,0.439953428394641,-0.06957729156138671,0.1262479024588521,-0.22066258357967758,0.17281033606181148,-0.4874149328524779,-0.1115379920086239,-1.9465592473097837,0.13375895537932714,2.595544997068099,0.9452506624595349,0.1728802376190821,-0.48752024683155326,-0.11147110072896137,-1.9463801863486305,0.1336059019074957,2.595550359778934,0.9452445589611904,-0.00044234015427793764,-9.406147433957168e-06,0.0007812043169814774,-0.0004634908948599648,-0.00016093302062356979,-0.0004242261750067853,0.000697542123452298,0.0,0.0,0.0,0.0,0.0,0.0,0.0,6.990155727062963e-05,-0.0001053139790753721,6.689127966252872e-05,0.00017906096115316572,-0.00015305347183144913,5.362710834955209e-06,-6.1034983445118485e-06,0.00044234015427793764,9.406147433957168e-06,-0.0007812043169814774,0.0004634908948599648,0.00016093302062356979,0.0004242261750067853,-0.000697542123452298,0.09352988004684448,11.901697158813477,-1.2671844959259033,-21.741060256958008,-0.4690452218055725,-2.5335726737976074,0.23471395671367645,0
18,0.08499646186828613,-0.09352988004684448,-11.901697158813477,1.2671844959259033,21.741060256958008,0.4690452218055725,2.5335726737976074,-0.23471395671367645,0.0,0.0,0.0,0.0,0.0,0.0,0.0,-0.11708293313127999,0.4309871735478082,0.10875163203554684,0.439953428394641,-0.06957729156138671,0.1262479024588521,-0.22066258357967758,0.17281033606181148,-0.4874149328524779,-0.1115379920086239,-1.9465592473097837,0.13375895537932714,2.595544997068099,0.9452506624595349,0.1728802376190821,-0.48752024683155326,-0.11147110072896137,-1.9463801863486305,0.1336059019074957,2.595550359778934,0.9452445589611904,-0.00044234015427793764,-9.406147433957168e-06,0.0007812043169814774,-0.0004634908948599648,-0.00016093302062356979,-0.0004242261750067853,0.000697542123452298,0.0,0.0,0.0,0.0,0.0,0.0,0.0,6.990155727062963e-05,-0.0001053139790753721,6.689127966252872e-05,0.00017906096115316572,-0.00015305347183144913,5.362710834955209e-06,-6.1034983445118485e-06,0.00044234015427793764,9.406147433957168e-06,-0.0007812043169814774,0.0004634908948599648,0.00016093302062356979,0.0004242261750067853,-0.000697542123452298,0.09352988004684448,11.901697158813477,-1.2671844959259033,-21.741060256958008,-0.4690452218055725,-2.5335726737976074,0.23471395671367645,0
19,0.0899956226348877,-0.09352988004684448,-11.901697158813477,1.2671844959259033,21.768831253051758,0.4626365303993225,2.5143465995788574,-0.22098104655742645,0.0,0.0,0.0,0.0,0.0,0.0,0.0,-0.12273809958771101,0.434492933821838,0.0970750276157319,0.4360982611017774,-0.06866590307689283,0.12620935066244368,-0.22055024956473432,0.17281188063515898,-0.4874149505291199,-0.11153583488250474,-1.9465611875434157,0.13375966745615006,2.595547015561662,0.9452491365985737,0.1728802376190821,-0.48752024683155326,-0.11147110072896137,-1.9463801863486305,0.1336059019074957,2.595550359778934,0.9452445589611904,-0.000661039432347658,-0.00012302435357810184,0.0005440798167886834,-0.0009535908217703571,0.00014783971399913405,0.00041105350036412,0.000327295802859449,0.0,0.0,0.0,0.0,0.0,0.0,0.0,6.835698392312906e-05,-0.00010529630243338861,6.473415354336931e-05,0.00018100119478514642,-0.00015376554865437209,3.3442172719944097e-06,-4.577637383262889e-06,0.000661039432347658,0.00012302435357810184,-0.0005440798167886834,0.0009535908217703571,-0.00014783971399913405,-0.00041105350036412,-0.000327295802859449,0.09352988004684448,11.901697158813477,-1.2671844959259033,-21.768831253051758,-0.4626365303993225,-2.5143465995788574,0.22098104655742645,0
20,0.0950007438659668,-0.09352988004684448,-11.901697158813477,1.2671844959259033,21.768831253051758,0.4626365303993225,2.5143465995788574,-0.22098104655742645,0.0,0.0,0.0,0.0,0.0,0.0,0.0,-0.12273809958771101,0.434492933821838,0.0970750276157319,0.4360982611017774,-0.06866590307689283,0.12620935066244368,-0.22055024956473432,0.17281188063515898,-0.4874149505291199,-0.11153583488250474,-1.9465611875434157,0.13375966745615006,2.595547015561662,0.9452491365985737,0.1728802376190821,-0.48752024683155326,-0.11147110072896137,-1.9463801863486305,0.1336059019074957,2.595550359778934,0.9452445589611904,-0.000661039432347658,-0.00012302435357810184,0.0005440798167886834,-0.0009535908217703571,0.00014783971399913405,0.00041105350036412,0.000327295802859449,0.0,0.0,0.0,0.0,0.0,0.0,0.0,6.835698392312906e-05,-0.00010529630243338861,6.473415354336931e-05,0.00018100119478514642,-0.00015376554865437209,3.3442172719944097e-06,-4.577637383262889e-06,0.000661039432347658,0.00012302435357810184,-0.0005440798167886834,0.0009535908217703571,-0.00014783971399913405,-0.00041105350036412,-0.000327295802859449,0.09352988004684448,11.901697158813477,-1.2671844959259033,-21.768831253051758,-0.4626365303993225,-2.5143465995788574,0.22098104655742645,0
21,0.10000133514404297,-0.14510458707809448,-11.901697158813477,1.3425629138946533,21.717256546020508,0.4571433663368225,2.5399813652038574,-0.22830526530742645,0.0,0.0,0.0,0.0,0.0,0.0,0.0,-0.11954952940886104,0.43454356400922695,0.10167570134920617,0.43405402973203494,-0.06861180999289242,0.12601550385330176,-0.21997570495523894,0.17281338309514369,-0.48741412920065313,-0.11154334324814023,-1.946557644795101,0.13376027780771255,2.5955441672537063,0.9452499504006571,0.1728802376190821,-0.48752024683155326,-0.11147110072896137,-1.9463801863486305,0.1336059019074957,2.595550359778934,0.9452445589611904,0.0007095273044569748,-0.00017489658584933707,-0.0009471285892907684,0.00019039932648782577,0.0003677040833813575,-0.00045435721045618255,0.0011900703739313602,0.0,0.0,0.0,0.0,0.0,0.0,0.0,6.68545239384255e-05,-0.0001061176309001266,7.22425191788667e-05,0.0001774584464704354,-0.00015437590021685765,6.192525227710632e-06,-5.3914394666509935e-06,-0.0007095273044569748,0.00017489658584933707,0.0009471285892907684,-0.00019039932648782577,-0.0003677040833813575,0.00045435721045618255,-0.0011900703739313602,0.14510458707809448,11.901697158813477,-1.3425629138946533,-21.717256546020508,-0.4571433663368225,-2.5399813652038574,0.22830526530742645,0
22,0.10500144958496094,-0.14510458707809448,-11.901697158813477,1.3425629138946533,21.717256546020508,0.4571433663368225,2.5399813652038574,-0.22830526530742645,0.0,0.0,0.0,0.0,0.0,0.0,0.0,-0.11954952940886104,0.43454356400922695,0.10167570134920617,0.43405402973203494,-0.06861180999289242,0.12601550385330176,-0.21997570495523894,0.17281338309514369,-0.48741412920065313,-0.11154334324814023,-1.946557644795101,0.13376027780771255,2.5955441672537063,0.9452499504006571,0.1728802376190821,-0.48752024683155326,-0.11147110072896137,-1.9463801863486305,0.1336059019074957,2.595550359778934,0.9452445589611904,0.0007095273044569748,-0.00017489658584933707,-0.0009471285892907684,0.00019039932648782577,0.0003677040833813575,-0.00045435721045618255,0.0011900703739313602,0.0,0.0,0.0,0.0,0.0,0.0,0.0,6.68545239384255e-05,-0.0001061176309001266,7.22425191788667e-05,0.0001774584464704354,-0.00015437590021685765,6.192525227710632e-06,-5.3914394666509935e-06,-0.0007095273044569748,0.00017489658584933707,0.0009471285892907684,-0.00019039932648782577,-0.0003677040833813575,0.00045435721045618255,-0.0011900703739313602,0.14510458707809448,11.901697158813477,-1.3425629138946533,-21.717256546020508,-0.4571433663368225,-2.5399813652038574,0.22830526530742645,0
23,0.11000704765319824,-0.14510458707809448,-11.901697158813477,1.3425629138946533,21.717256546020508,0.4571433663368225,2.5399813652038574,-0.22830526530742645,0.0,0.0,0.0,0.0,0.0,0.0,0.0,-0.11954952940886104,0.43454356400922695,0.10167570134920617,0.43405402973203494,-0.06861180999289242,0.12601550385330176,-0.21997570495523894,0.17281338309514369,-0.48741412920065313,-0.11154334324814023,-1.946557644795101,0.13376027780771255,2.5955441672537063,0.9452499504006571,0.1728802376190821,-0.48752024683155326,-0.11147110072896137,-1.9463801863486305,0.1336059019074957,2.595550359778934,0.9452445589611904,0.0007095273044569748,-0.00017489658584933707,-0.0009471285892907684,0.00019039932648782577,0.0003677040833813575,-0.00045435721045618255,0.0011900703739313602,0.0,0.0,0.0,0.0,0.0,0.0,0.0,6.68545239384255e-05,-0.0001061176309001266,7.22425191788667e-05,0.0001774584464704354,-0.00015437590021685765,6.192525227710632e-06,-5.3914394666509935e-06,-0.0007095273044569748,0.00017489658584933707,0.0009471285892907684,-0.00019039932648782577,-0.0003677040833813575,0.00045435721045618255,-0.0011900703739313602,0.14510458707809448,11.901697158813477,-1.3425629138946533,-21.717256546020508,-0.4571433663368225,-2.5399813652038574,0.22830526530742645,0
24,0.11500310897827148,-0.14510458707809448,-11.901697158813477,1.3425629138946533,21.717256546020508,0.4571433663368225,2.5399813652038574,-0.22830526530742645,0.0,0.0,0.0,0.0,0.0,0.0,0.0,-0.11954952940886104,0.43454356400922695,0.10167570134920617,0.43405402973203494,-0.06861180999289242,0.12601550385330176,-0.21997570495523894,0.17281338309514369,-0.48741412920065313,-0.11154334324814023,-1.946557644795101,0.13376027780771255,2.5955441672537063,0.9452499504006571,0.1728802376190821,-0.48752024683155326,-0.11147110072896137,-1.9463801863486305,0.1336059019074957,2.595550359778934,0.9452445589611904,0.0007095273044569748,-0.00017489658584933707,-0.0009471285892907684,0.00019039932648782577,0.0003677040833813575,-0.00045435721045618255,0.0011900703739313602,0.0,0.0,0.0,0.0,0.0,0.0,0.0,6.68545239384255e-05,-0.0001061176309001266,7.22425191788667e-05,0.0001774584464704354,-0.00015437590021685765,6.192525227710632e-06,-5.3914394666509935e-06,-0.0007095273044569748,0.00017489658584933707,0.0009471285892907684,-0.00019039932648782577,-0.0003677040833813575,0.00045435721045618255,-0.0011900703739313602,0.14510458707809448,11.901697158813477,-1.3425629138946533,-21.717256546020508,-0.4571433663368225,-2.5399813652038574,0.22830526530742645,0
25,0.11999726295471191,-0.09352988004684448,-11.949304580688477,1.3147919178009033,21.792634963989258,0.4507346749305725,2.5207552909851074,-0.24844686686992645,0.0,0.0,0.0,0.0,0.0,0.0,0.0,-0.11704519400295936,0.42982382695598476,0.10899738422030757,0.4352918867912629,-0.06882080686529382,0.12682632511684996,-0.2194289326880787,0.1728102542646525,-0.48741152981662544,-0.11154133581451388,-1.9465635467444382,0.13376098988453547,2.595546303484175,0.9452521883563862,0.1728802376190821,-0.48752024683155326,-0.11147110072896137,-1.9463801863486305,0.1336059019074957,2.595550359778934,0.9452445589611904,-0.0003001045661864366,0.0007651468084067203,0.0005460523440399659,-0.0013106572495280694,0.00033824285684131653,0.00010499130879042964,0.0014381429184741285,0.0,0.0,0.0,0.0,0.0,0.0,0.0,6.998335442962023e-05,-0.00010871701492781716,7.023508555251134e-05,0.0001833603958076857,-0.0001550879770397806,4.056294759191559e-06,-7.629395195829503e-06,0.0003001045661864366,-0.0007651468084067203,-0.0005460523440399659,0.0013106572495280694,-0.00033824285684131653,-0.00010499130879042964,-0.0014381429184741285,0.09352988004684448,11.949304580688477,-1.3147919178009033,-21.792634963989258,-0.4507346749305725,-2.5207552909851074,0.24844686686992645,0
26,0.12499761581420898,-0.09352988004684448,-11.949304580688477,1.3147919178009033,21.792634963989258,0.4507346749305725,2.5207552909851074,-0.24844686686992645,0.0,0.0,0.0,0.0,0.0,0.0,0.0,-0.11704519400295936,0.42982382695598476,0.10899738422030757,0.4352918867912629,-0.06882080686529382,0.12682632511684996,-0.2194289326880787,0.1728102542646525,-0.48741152981662544,-0.11154133581451388,-1.9465635467444382,0.13376098988453547,2.595546303484175,0.9452521883563862,0.1728802376190821,-0.48752024683155326,-0.11147110072896137,-1.9463801863486305,0.1336059019074957,2.595550359778934,0.9452445589611904,-0.0003001045661864366,0.0007651468084067203,0.0005460523440399659,-0.0013106572495280694,0.00033824285684131653,0.00010499130879042964,0.0014381429184741285,0.0,0.0,0.0,0.0,0.0,0.0,0.0,6.998335442962023e-05,-0.00010871701492781716,7.023508555251134e-05,0.0001833603958076857,-0.0001550879770397806,4.056294759191559e-06,-7.629395195829503e-06,0.0003001045661864366,-0.0007651468084067203,-0.0005460523440399659,0.0013106572495280694,-0.00033824285684131653,-0.00010499130879042964,-0.0014381429184741285,0.09352988004684448,11.949304580688477,-1.3147919178009033,-21.792634963989258,-0.4507346749305725,-2.5207552909851074,0.24844686686992645,0
27,0.12995576858520508,-0.14510458707809448,-11.873926162719727,1.3663666248321533,21.741060256958008,0.4690452218055725,2.5335726737976074,-0.22098104655742645,0.0,0.0,0.0,0.0,0.0,0.0,0.0,-0.12238927364603668,0.42665928659464497,0.10201426540885275,0.4359464960791387,-0.06866673805484451,0.12681978434502864,-0.2199970215777669,0.17281553580666298,-0.48741468292450746,-0.11154375189899814,-1.946561304999776,0.13375895537932714,2.595544879330529,0.9452491365985738,0.1728802376190821,-0.48752024683155326,-0.11147110072896137,-1.9463801863486305,0.1336059019074957,2.595550359778934,0.9452445589611904,0.0004179796776890477,-0.001019544907232432,-0.0013327034127854388,-0.00025829001310262385,-0.00013543859435459726,-0.00026580646012806054,0.0005285545929628337,0.0,0.0,0.0,0.0,0.0,0.0,0.0,6.470181241913231e-05,-0.00010556390704580254,7.265117003676935e-05,0.00018111865114556203,-0.00015305347183144913,5.480448404870941e-06,-4.5776373833739115e-06,-0.0004179796776890477,0.001019544907232432,0.0013327034127854388,0.00025829001310262385,0.00013543859435459726,0.00026580646012806054,-0.0005285545929628337,0.14510458707809448,11.873926162719727,-1.3663666248321533,-21.741060256958008,-0.4690452218055725,-2.5335726737976074,0.22098104655742645,0
28,0.13500165939331055,-0.14510458707809448,-11.873926162719727,1.3663666248321533,21.741060256958008,0.4690452218055725,2.5335726737976074,-0.22098104655742645,0.0,0.0,0.0,0.0,0.0,0.0,0.0,-0.12238927364603668,0.42665928659464497,0.10201426540885275,0.4359464960791387,-0.06866673805484451,0.12681978434502864,-0.2199970215777669,0.17281553580666298,-0.48741468292450746,-0.11154375189899814,-1.946561304999776,0.13375895537932714,2.595544879330529,0.9452491365985738,0.1728802376190821,-0.48752024683155326,-0.11147110072896137,-1.9463801863486305,0.1336059019074957,2.595550359778934,0.9452445589611904,0.0004179796776890477,-0.001019544907232432,-0.0013327034127854388,-0.00025829001310262385,-0.00013543859435459726,-0.00026580646012806054,0.0005285545929628337,0.0,0.0,0.0,0.0,0.0,0.0,0.0,6.470181241913231e-05,-0.00010556390704580254,7.265117003676935e-05,0.00018111865114556203,-0.00015305347183144913,5.480448404870941e-06,-4.5776373833739115e-06,-0.0004179796776890477,0.001019544907232432,0.0013327034127854388,0.00025829001310262385,0.00013543859435459726,0.00026580646012806054,-0.0005285545929628337,0.14510458707809448,11.873926162719727,-1.3663666248321533,-21.741060256958008,-0.4690452218055725,-2.5335726737976074,0.22098104655742645,0
29,0.139998197555542,-0.12130087614059448,-11.901697158813477,1.2671844959259033,21.717256546020508,0.4626365303993225,2.5271639823913574,-0.24112264811992645,0.0,0.0,0.0,0.0,0.0,0.0,0.0,-0.12134602512932309,0.43146277412878975,0.1067125208329342,0.43230903458244135,-0.06825866973101893,0.12645666465960156,-0.21978707805408812,0.17281147601646393,-0.48741400469156265,-0.11153799201268183,-1.9465575682773448,0.13375966745615006,2.595545591407352,0.945251374554303,0.1728802376190821,-0.48752024683155326,-0.11147110072896137,-1.9463801863486305,0.1336059019074957,2.595550359778934,0.9452445589611904,-0.00011214893861333138,-0.0003122473563662595,0.0007507052587482185,8.082471582778578e-05,0.000141971740150741,0.0001502220759505255,0.001072634352661751,0.0,0.0,0.0,0.0,0.0,0.0,0.0,6.87616026181781e-05,-0.00010624213999060883,6.689128372046327e-05,0.00017738192871430414,-0.00015376554865437209,4.76837158203125e-06,-6.8155931125524205e-06,0.00011214893861333138,0.0003122473563662595,-0.0007507052587482185,-8.082471582778578e-05,-0.000141971740150741,-0.0001502220759505255,-0.001072634352661751,0.12130087614059448,11.901697158813477,-1.2671844959259033,-21.717256546020508,-0.4626365303993225,-2.5271639823913574,0.24112264811992645,0
30,0.14499759674072266,-0.12130087614059448,-11.901697158813477,1.2671844959259033,21.717256546020508,0.4626365303993225,2.5271639823913574,-0.24112264811992645,0.0,0.0,0.0,0.0,0.0,0.0,0.0,-0.12134602512932309,0.43146277412878975,0.1067125208329342,0.43230903458244135,-0.06825866973101893,0.12645666465960156,-0.21978707805408812,0.17281147601646393,-0.48741400469156265,-0.11153799201268183,-1.9465575682773448,0.13375966745615006,2.595545591407352,0.945251374554303,0.1728802376190821,-0.48752024683155326,-0.11147110072896137,-1.9463801863486305,0.1336059019074957,2.595550359778934,0.9452445589611904,-0.00011214893861333138,-0.0003122473563662595,0.0007507052587482185,8.082471582778578e-05,0.000141971740150741,0.0001502220759505255,0.001072634352661751,0.0,0.0,0.0,0.0,0.0,0.0,0.0,6.87616026181781e-05,-0.00010624213999060883,6.689128372046327e-05,0.00017738192871430414,-0.00015376554865437209,4.76837158203125e-06,-6.8155931125524205e-06,0.00011214893861333138,0.0003122473563662595,-0.0007507052587482185,-8.082471582778578e-05,-0.000141971740150741,-0.0001502220759505255,-0.001072634352661751,0.12130087614059448,11.901697158813477,-1.2671844959259033,-21.717256546020508,-0.4626365303993225,-2.5271639823913574,0.24112264811992645,0
31,0.1499958038330078,-0.12130087614059448,-11.901697158813477,1.2671844959259033,21.717256546020508,0.4626365303993225,2.5271639823913574,-0.23471395671367645,0.0,0.0,0.0,0.0,0.0,0.0,0.0,-0.11680236187143385,0.43081747371239554,0.11403667269585491,0.4311320621863422,-0.06838177258752612,0.1270885913123068,-0.22038160713965382,0.17281368067497513,-0.4874128126058398,-0.11153871497446861,-1.9465575682656806,0.13375966745615006,2.595545591407352,0.94525066247748,0.1728802376190821,-0.48752024683155326,-0.11147110072896137,-1.9463801863486305,0.1336059019074957,2.595550359778934,0.9452445589611904,6.379009556299554e-05,-0.00020154787619133848,0.0011046504997755092,5.2278911016970124e-05,1.9171800108539884e-05,0.00021090956350184456,0.0010813104454259223,0.0,0.0,0.0,0.0,0.0,0.0,0.0,6.655694410698243e-05,-0.00010743422571346528,6.761424550724704e-05,0.000177381917050079,-0.00015376554865437209,4.76837158203125e-06,-6.103516289601707e-06,-6.379009556299554e-05,0.00020154787619133848,-0.0011046504997755092,-5.2278911016970124e-05,-1.9171800108539884e-05,-0.00021090956350184456,-0.0010813104454259223,0.12130087614059448,11.901697158813477,-1.2671844959259033,-21.717256546020508,-0.4626365303993225,-2.5271639823913574,0.23471395671367645,0
32,0.15500116348266602,-0.12130087614059448,-11.901697158813477,1.2671844959259033,21.717256546020508,0.4626365303993225,2.5271639823913574,-0.23471395671367645,0.0,0.0,0.0,0.0,0.0,0.0,0.0,-0.11680236187143385,0.43081747371239554,0.11403667269585491,0.4311320621863422,-0.06838177258752612,0.1270885913123068,-0.22038160713965382,0.17281368067497513,-0.4874128126058398,-0.11153871497446861,-1.9465575682656806,0.13375966745615006,2.595545591407352,0.94525066247748,0.1728802376190821,-0.48752024683155326,-0.11147110072896137,-1.9463801863486305,0.1336059019074957,2.595550359778934,0.9452445589611904,6.379009556299554e-05,-0.00020154787619133848,0.0011046504997755092,5.2278911016970124e-05,1.9171800108539884e-05,0.00021090956350184456,0.0010813104454259223,0.0,0.0,0.0,0.0,0.0,0.0,0.0,6.655694410698243e-05,-0.00010743422571346528,6.761424550724704e-05,0.000177381917050079,-0.00015376554865437209,4.76837158203125e-06,-6.103516289601707e-06,-6.379009556299554e-05,0.00020154787619133848,-0.0011046504997755092,-5.2278911016970124e-05,-1.9171800108539884e-05,-0.00021090956350184456,-0.0010813104454259223,0.12130087614059448,11.901697158813477,-1.2671844959259033,-21.717256546020508,-0.4626365303993225,-2.5271639823913574,0.23471395671367645,0
33,0.16001009941101074,-0.17287558317184448,-11.850122451782227,1.2671844959259033,21.693452835083008,0.4571433663368225,2.5271639823913574,-0.22830526530742645,0.0,0.0,0.0,0.0,0.0,0.0,0.0,-0.11617263563141507,0.44828872055905056,0.11450539263776643,0.4164592363691277,-0.06876953885091985,0.12441704601698061,-0.22071925364357756,0.17281512542702127,-0.4874183392254296,-0.11153583531962274,-1.9465559006642483,0.13376027780771255,2.595545591407352,0.9452499504006571,0.1728802376190821,-0.48752024683155326,-0.11147110072896137,-1.9463801863486305,0.1336059019074957,2.595550359778934,0.9452445589611904,0.0014070391472970996,-0.0007518292804297973,0.0009753442209289453,0.000719361318032405,0.00022464808082092692,0.0017408469083276675,0.0012098692757671066,0.0,0.0,0.0,0.0,0.0,0.0,0.0,6.511219206084551e-05,-0.00010190760612366345,6.473459066137777e-05,0.00017571431561780315,-0.00015437590021685765,4.76837158203125e-06,-5.3914394666509935e-06,-0.0014070391472970996,0.0007518292804297973,-0.0009753442209289453,-0.000719361318032405,-0.00022464808082092692,-0.0017408469083276675,-0.0012098692757671066,0.17287558317184448,11.850122451782227,-1.2671844959259033,-21.693452835083008,-0.4571433663368225,-2.5271639823913574,0.22830526530742645,0
34,0.16499829292297363,-0.17287558317184448,-11.850122451782227,1.2671844959259033,21.693452835083008,0.4571433663368225,2.5271639823913574,-0.22830526530742645,0.0,0.0,0.0,0.0,0.0,0.0,0.0,-0.11617263563141507,0.44828872055905056,0.11450539263776643,0.4164592363691277,-0.06876953885091985,0.12441704601698061,-0.22071925364357756,0.17281512542702127,-0.4874183392254296,-0.11153583531962274,-1.9465559006642483,0.13376027780771255,2.595545591407352,0.9452499504006571,0.1728802376190821,-0.48752024683155326,-0.11147110072896137,-1.9463801863486305,0.1336059019074957,2.595550359778934,0.9452445589611904,0.0014070391472970996,-0.0007518292804297973,0.0009753442209289453,0.000719361318032405,0.00022464808082092692,0.0017408469083276675,0.0012098692757671066,0.0,0.0,0.0,0.0,0.0,0.0,0.0,6.511219206084551e-05,-0.00010190760612366345,6.473459066137777e-05,0.00017571431561780315,-0.00015437590021685765,4.76837158203125e-06,-5.3914394666509935e-06,-0.0014070391472970996,0.0007518292804297973,-0.0009753442209289453,-0.000719361318032405,-0.00022464808082092692,-0.0017408469083276675,-0.0012098692757671066,0.17287558317184448,11.850122451782227,-1.2671844959259033,-21.693452835083008,-0.4571433663368225,-2.5271639823913574,0.22830526530742645,0
35,0.1699962615966797,-0.14510458707809448,-11.901697158813477,1.2433807849884033,21.741060256958008,0.4745383858680725,2.5143465995788574,-0.23471395671367645,0.0,0.0,0.0,0.0,0.0,0.0,0.0,-0.1221474704427456,0.42467445810191073,0.10773707753831788,0.4339511937672429,-0.06887997499107573,0.12877417257957238,-0.2198862295341199,0.172814091283,-0.4874146061091872,-0.11153488637906687,-1.946559238701552,0.13375834502776462,2.5955470155609977,0.94525066247748,0.1728802376190821,-0.48752024683155326,-0.11147110072896137,-1.9463801863486305,0.1336059019074957,2.595550359778934,0.9452445589611904,0.0007703645195737922,0.00038413826329595005,0.0007579918343016895,-0.0003181193949554304,-0.0005755520546157734,0.0005101743043664914,0.0014046856255162863,0.0,0.0,0.0,0.0,0.0,0.0,0.0,6.61463360821235e-05,-0.0001056407223660738,6.378565010550785e-05,0.0001790523529214827,-0.0001524431202689358,3.3442179363518676e-06,-6.103516289601707e-06,-0.0007703645195737922,-0.00038413826329595005,-0.0007579918343016895,0.0003181193949554304,0.0005755520546157734,-0.0005101743043664914,-0.0014046856255162863,0.14510458707809448,11.901697158813477,-1.2433807849884033,-21.741060256958008,-0.4745383858680725,-2.5143465995788574,0.23471395671367645,0
36,0.1750013828277588,-0.14510458707809448,-11.901697158813477,1.2433807849884033,21.741060256958008,0.4745383858680725,2.5143465995788574,-0.23471395671367645,0.0,0.0,0.0,0.0,0.0,0.0,0.0,-0.1221474704427456,0.42467445810191073,0.10773707753831788,0.4339511937672429,-0.06887997499107573,0.12877417257957238,-0.2198862295341199,0.172814091283,-0.4874146061091872,-0.11153488637906687,-1.946559238701552,0.13375834502776462,2.5955470155609977,0.94525066247748,0.1728802376190821,-0.48752024683155326,-0.11147110072896137,-1.9463801863486305,0.1336059019074957,2.595550359778934,0.9452445589611904,0.0007703645195737922,0.00038413826329595005,0.0007579918343016895,-0.0003181193949554304,-0.0005755520546157734,0.0005101743043664914,0.0014046856255162863,0.0,0.0,0.0,0.0,0.0,0.0,0.0,6.61463360821235e-05,-0.0001056407223660738,6.378565010550785e-05,0.0001790523529214827,-0.0001524431202689358,3.3442179363518676e-06,-6.103516289601707e-06,-0.0007703645195737922,-0.00038413826329595005,-0.0007579918343016895,0.0003181193949554304,0.0005755520546157734,-0.0005101743043664914,-0.0014046856255162863,0.14510458707809448,11.901697158813477,-1.2433807849884033,-21.741060256958008,-0.4745383858680725,-2.5143465995788574,0.23471395671367645,0
37,0.1800079345703125,-0.14510458707809448,-11.901697158813477,1.2909882068634033,21.741060256958008,0.4626365303993225,2.5271639823913574,-0.20083944499492645,0.0,0.0,0.0,0.0,0.0,0.0,0.0,-0.12157059688538226,0.42129893532460083,0.10464576531499692,0.43716705809089557,-0.06995464824206883,0.12928857619250275,-0.21881779117279737,0.17281395141928166,-0.48741493283030113,-0.11154037273589446,-1.9465593152309564,0.13375966745615006,2.595545591407352,0.9452468986428446,0.1728802376190821,-0.48752024683155326,-0.11147110072896137,-1.9463801863486305,0.1336059019074957,2.595550359778934,0.9452445589611904,0.0005502377939853963,-8.831538514929322e-05,-0.00013303062811643575,-0.0005379528507071752,-0.00015407224514950258,9.599434724482396e-05,-6.008808350277202e-05,0.0,0.0,0.0,0.0,0.0,0.0,0.0,6.62861998004527e-05,-0.00010531400125213253,6.927200693308821e-05,0.0001791288823258519,-0.00015376554865437209,4.76837158203125e-06,-2.3396816541954024e-06,-0.0005502377939853963,8.831538514929322e-05,0.00013303062811643575,0.0005379528507071752,0.00015407224514950258,-9.599434724482396e-05,6.008808350277202e-05,0.14510458707809448,11.901697158813477,-1.2909882068634033,-21.741060256958008,-0.4626365303993225,-2.5271639823913574,0.20083944499492645,0
38,0.18500423431396484,-0.14510458707809448,-11.901697158813477,1.2909882068634033,21.741060256958008,0.4626365303993225,2.5271639823913574,-0.20083944499492645,0.0,0.0,0.0,0.0,0.0,0.0,0.0,-0.12157059688538226,0.42129893532460083,0.10464576531499692,0.43716705809089557,-0.06995464824206883,0.12928857619250275,-0.21881779117279737,0.17281395141928166,-0.48741493283030113,-0.11154037273589446,-1.9465593152309564,0.13375966745615006,2.595545591407352,0.9452468986428446,0.1728802376190821,-0.48752024683155326,-0.11147110072896137,-1.9463801863486305,0.1336059019074957,2.595550359778934,0.9452445589611904,0.0005502377939853963,-8.831538514929322e-05,-0.00013303062811643575,-0.0005379528507071752,-0.00015407224514950258,9.599434724482396e-05,-6.008808350277202e-05,0.0,0.0,0.0,0.0,0.0,0.0,0.0,6.62861998004527e-05,-0.00010531400125213253,6.927200693308821e-05,0.0001791288823258519,-0.00015376554865437209,4.76837158203125e-06,-2.3396816541954024e-06,-0.0005502377939853963,8.831538514929322e-05,0.00013303062811643575,0.0005379528507071752,0.00015407224514950258,-9.599434724482396e-05,6.008808350277202e-05,0.14510458707809448,11.901697158813477,-1.2909882068634033,-21.741060256958008,-0.4626365303993225,-2.5271639823913574,0.20083944499492645,0
39,0.18999671936035156,-0.17287558317184448,-11.901697158813477,1.2909882068634033,21.717256546020508,0.4690452218055725,2.5399813652038574,-0.23471395671367645,0.0,0.0,0.0,0.0,0.0,0.0,0.0,-0.12589278818992167,0.4319260912457136,0.09540426865258622,0.4309903682932989,-0.07084381554226107,0.12843469149217743,-0.2175925789978677,0.1728153228556574,-0.4874149582692748,-0.11153759308450335,-1.9465575682661127,0.13375895537932714,2.5955441672537063,0.94525066247748,0.1728802376190821,-0.48752024683155326,-0.11147110072896137,-1.9463801863486305,0.1336059019074957,2.595550359778934,0.9452445589611904,0.0008618247162496873,0.00013065003164705775,-0.0002929993089169526,-2.2928639907955676e-05,-0.0002624589953511628,-0.0005874711831002852,0.0010410051323873257,0.0,0.0,0.0,0.0,0.0,0.0,0.0,6.491476342471159e-05,-0.00010528856227848271,6.649235554198607e-05,0.0001773819174821778,-0.00015305347183144913,6.192525227710632e-06,-6.103516289601707e-06,-0.0008618247162496873,-0.00013065003164705775,0.0002929993089169526,2.2928639907955676e-05,0.0002624589953511628,0.0005874711831002852,-0.0010410051323873257,0.17287558317184448,11.901697158813477,-1.2909882068634033,-21.717256546020508,-0.4690452218055725,-2.5399813652038574,0.23471395671367645,0
40,0.19499540328979492,-0.17287558317184448,-11.901697158813477,1.2909882068634033,21.717256546020508,0.4690452218055725,2.5399813652038574,-0.23471395671367645,0.0,0.0,0.0,0.0,0.0,0.0,0.0,-0.12589278818992167,0.4319260912457136,0.09540426865258622,0.4309903682932989,-0.07084381554226107,0.12843469149217743,-0.2175925789978677,0.1728153228556574,-0.4874149582692748,-0.11153759308450335,-1.9465575682661127,0.13375895537932714,2.5955441672537063,0.94525066247748,0.1728802376190821,-0.48752024683155326,-0.11147110072896137,-1.9463801863486305,0.1336059019074957,2.595550359778934,0.9452445589611904,0.0008618247162496873,0.00013065003164705775,-0.0002929993089169526,-2.2928639907955676e-05,-0.0002624589953511628,-0.0005874711831002852,0.0010410051323873257,0.0,0.0,0.0,0.0,0.0,0.0,0.0,6.491476342471159e-05,-0.00010528856227848271,6.649235554198607e-05,0.0001773819174821778,-0.00015305347183144913,6.192525227710632e-06,-6.103516289601707e-06,-0.0008618247162496873,-0.00013065003164705775,0.0002929993089169526,2.2928639907955676e-05,0.0002624589953511628,0.0005874711831002852,-0.0010410051323873257,0.17287558317184448,11.901697158813477,-1.2909882068634033,-21.717256546020508,-0.4690452218055725,-2.5399813652038574,0.23471395671367645,0
41,0.19999957084655762,-0.09352988004684448,-11.901697158813477,1.3147919178009033,21.741060256958008,0.4626365303993225,2.5271639823913574,-0.23471395671367645,0.0,0.0,0.0,0.0,0.0,0.0,0.0,-0.1232589388265649,0.431637115331596,0.10342486949171173,0.43206616655461694,-0.07135576447743543,0.12860605460661362,-0.21876208251472706,0.1728096088156145,-0.4874149240383101,-0.11153917581470647,-1.946561304995888,0.13375966745615006,2.595545591407352,0.94525066247748,0.1728802376190821,-0.48752024683155326,-0.11147110072896137,-1.9463801863486305,0.1336059019074957,2.595550359778934,0.9452445589611904,-0.0008027426149401741,9.431243958060568e-05,-0.0001540733263999231,-0.00016366221473991364,-0.00013034490963648846,-3.298478749913698e-06,0.0011174303979397766,0.0,0.0,0.0,0.0,0.0,0.0,0.0,7.062880346761502e-05,-0.00010532279324315663,6.807508574510623e-05,0.000181118647257561,-0.00015376554865437209,4.76837158203125e-06,-6.103516289601707e-06,0.0008027426149401741,-9.431243958060568e-05,0.0001540733263999231,0.00016366221473991364,0.00013034490963648846,3.298478749913698e-06,-0.0011174303979397766,0.09352988004684448,11.901697158813477,-1.3147919178009033,-21.741060256958008,-0.4626365303993225,-2.5271639823913574,0.23471395671367645,0
42,0.20499539375305176,-0.09352988004684448,-11.901697158813477,1.3147919178009033,21.741060256958008,0.4626365303993225,2.5271639823913574,-0.23471395671367645,0.0,0.0,0.0,0.0,0.0,0.0,0.0,-0.1232589388265649,0.431637115331596,0.10342486949171173,0.43206616655461694,-0.07135576447743543,0.12860605460661362,-0.21876208251472706,0.1728096088156145,-0.4874149240383101,-0.11153917581470647,-1.946561304995888,0.13375966745615006,2.595545591407352,0.94525066247748,0.1728802376190821,-0.48752024683155326,-0.11147110072896137,-1.9463801863486305,0.1336059019074957,2.595550359778934,0.9452445589611904,-0.0008027426149401741,9.431243958060568e-05,-0.0001540733263999231,-0.00016366221473991364,-0.00013034490963648846,-3.298478749913698e-06,0.0011174303979397766,0.0,0.0,0.0,0.0,0.0,0.0,0.0,7.062880346761502e-05,-0.00010532279324315663,6.807508574510623e-05,0.000181118647257561,-0.00015376554865437209,4.76837158203125e-06,-6.103516289601707e-06,0.0008027426149401741,-9.431243958060568e-05,0.0001540733263999231,0.00016366221473991364,0.00013034490963648846,3.298478749913698e-06,-0.0011174303979397766,0.09352988004684448,11.901697158813477,-1.3147919178009033,-21.741060256958008,-0.4626365303993225,-2.5271639823913574,0.23471395671367645,0
43,0.20999574661254883,-0.12130087614059448,-11.901697158813477,1.3147919178009033,21.741060256958008,0.4507346749305725,2.5271639823913574,-0.22098104655742645,0.0,0.0,0.0,0.0,0.0,0.0,0.0,-0.12618655347819993,0.4387716351455862,0.10120504287244123,0.42805656372058226,-0.07138839040462604,0.12759226447957758,-0.21977132338887584,0.17281359416194228,-0.4874142163045021,-0.11154225394835861,-1.9465619937723364,0.13376098988453547,2.595545591407352,0.9452491365985738,0.1728802376190821,-0.48752024683155326,-0.11147110072896137,-1.9463801863486305,0.1336059019074957,2.595550359778934,0.9452445589611904,0.0002611825361492788,0.0005030829754335265,-9.962338965197025e-05,-0.0003993428117849818,0.00046236927151580503,-6.981181396941827e-05,7.807903156689452e-05,0.0,0.0,0.0,0.0,0.0,0.0,0.0,6.664345713983111e-05,-0.00010603052705115967,7.115321939724084e-05,0.000181807423705882,-0.0001550879770397806,4.76837158203125e-06,-4.5776373833739115e-06,-0.0002611825361492788,-0.0005030829754335265,9.962338965197025e-05,0.0003993428117849818,-0.00046236927151580503,6.981181396941827e-05,-7.807903156689452e-05,0.12130087614059448,11.901697158813477,-1.3147919178009033,-21.741060256958008,-0.4507346749305725,-2.5271639823913574,0.22098104655742645,0
44,0.215012788772583,-0.12130087614059448,-11.901697158813477,1.3147919178009033,21.741060256958008,0.4507346749305725,2.5271639823913574,-0.22098104655742645,0.0,0.0,0.0,0.0,0.0,0.0,0.0,-0.12618655347819993,0.4387716351455862,0.10120504287244123,0.42805656372058226,-0.07138839040462604,0.12759226447957758,-0.21977132338887584,0.17281359416194228,-0.4874142163045021,-0.11154225394835861,-1.9465619937723364,0.13376098988453547,2.595545591407352,0.9452491365985738,0.1728802376190821,-0.48752024683155326,-0.11147110072896137,-1.9463801863486305,0.1336059019074957,2.595550359778934,0.9452445589611904,0.0002611825361492788,0.0005030829754335265,-9.962338965197025e-05,-0.0003993428117849818,0.00046236927151580503,-6.981181396941827e-05,7.807903156689452e-05,0.0,0.0,0.0,0.0,0.0,0.0,0.0,6.664345713983111e-05,-0.00010603052705115967,7.115321939724084e-05,0.000181807423705882,-0.0001550879770397806,4.76837158203125e-06,-4.5776373833739115e-06,-0.0002611825361492788,-0.0005030829754335265,9.962338965197025e-05,0.0003993428117849818,-0.00046236927151580503,6.981181396941827e-05,-7.807903156689452e-05,0.12130087614059448,11.901697158813477,-1.3147919178009033,-21.741060256958008,-0.4507346749305725,-2.5271639823913574,0.22098104655742645,0
45,0.22000980377197266,-0.12130087614059448,-11.901697158813477,1.2909882068634033,21.693452835083008,0.4690452218055725,2.5207552909851074,-0.20724813640117645,0.0,0.0,0.0,0.0,0.0,0.0,0.0,-0.126520974941534,0.4305858746262813,0.10262534935878026,0.43275537442637957,-0.07192213562847309,0.12750762994507855,-0.22103689458728037,0.17281150226059958,-0.48741470901770156,-0.11153845558682748,-1.9465558987901854,0.13375895537932714,2.595546303484175,0.9452476107196676,0.1728802376190821,-0.48752024683155326,-0.11147110072896137,-1.9463801863486305,0.1336059019074957,2.595550359778934,0.9452445589611904,3.474876842971301e-05,0.00012761434660589483,0.0006059485767839443,0.0010005660113962215,-0.00038372249373582986,0.0001674050677594987,-0.0003450294466244753,0.0,0.0,0.0,0.0,0.0,0.0,0.0,6.873535848253565e-05,-0.00010553781385169714,6.735485786611706e-05,0.0001757124415548983,-0.00015305347183144913,4.056294759191559e-06,-3.051758477146116e-06,-3.474876842971301e-05,-0.00012761434660589483,-0.0006059485767839443,-0.0010005660113962215,0.00038372249373582986,-0.0001674050677594987,0.0003450294466244753,0.12130087614059448,11.901697158813477,-1.2909882068634033,-21.693452835083008,-0.4690452218055725,-2.5207552909851074,0.20724813640117645,0
46,0.22515034675598145,-0.12130087614059448,-11.901697158813477,1.2909882068634033,21.693452835083008,0.4690452218055725,2.5207552909851074,-0.20724813640117645,0.0,0.0,0.0,0.0,0.0,0.0,0.0,-0.126520974941534,0.4305858746262813,0.10262534935878026,0.43275537442637957,-0.07192213562847309,0.12750762994507855,-0.22103689458728037,0.17281150226059958,-0.48741470901770156,-0.11153845558682748,-1.9465558987901854,0.13375895537932714,2.595546303484175,0.9452476107196676,0.1728802376190821,-0.48752024683155326,-0.11147110072896137,-1.9463801863486305,0.1336059019074957,2.595550359778934,0.9452445589611904,3.474876842971301e-05,0.00012761434660589483,0.0006059485767839443,0.0010005660113962215,-0.00038372249373582986,0.0001674050677594987,-0.0003450294466244753,0.0,0.0,0.0,0.0,0.0,0.0,0.0,6.873535848253565e-05,-0.00010553781385169714,6.735485786611706e-05,0.0001757124415548983,-0.00015305347183144913,4.056294759191559e-06,-3.051758477146116e-06,-3.474876842971301e-05,-0.00012761434660589483,-0.0006059485767839443,-0.0010005660113962215,0.00038372249373582986,-0.0001674050677594987,0.0003450294466244753,0.12130087614059448,11.901697158813477,-1.2909882068634033,-21.693452835083008,-0.4690452218055725,-2.5207552909851074,0.20724813640117645,0
47,0.23010683059692383,-0.12130087614059448,-11.901697158813477,1.2909882068634033,21.693452835083008,0.4690452218055725,2.5207552909851074,-0.20724813640117645,0.0,0.0,0.0,0.0,0.0,0.0,0.0,-0.126520974941534,0.4305858746262813,0.10262534935878026,0.43275537442637957,-0.07192213562847309,0.12750762994507855,-0.22103689458728037,0.17281150226059958,-0.48741470901770156,-0.11153845558682748,-1.9465558987901854,0.13375895537932714,2.595546303484175,0.9452476107196676,0.1728802376190821,-0.48752024683155326,-0.11147110072896137,-1.9463801863486305,0.1336059019074957,2.595550359778934,0.9452445589611904,3.474876842971301e-05,0.00012761434660589483,0.0006059485767839443,0.0010005660113962215,-0.00038372249373582986,0.0001674050677594987,-0.0003450294466244753,0.0,0.0,0.0,0.0,0.0,0.0,0.0,6.873535848253565e-05,-0.00010553781385169714,6.735485786611706e-05,0.0001757124415548983,-0.00015305347183144913,4.056294759191559e-06,-3.051758477146116e-06,-3.474876842971301e-05,-0.00012761434660589483,-0.0006059485767839443,-0.0010005660113962215,0.00038372249373582986,-0.0001674050677594987,0.0003450294466244753,0.12130087614059448,11.901697158813477,-1.2909882068634033,-21.693452835083008,-0.4690452218055725,-2.5207552909851074,0.20724813640117645,0
48,0.23501920700073242,-0.12130087614059448,-11.901697158813477,1.2909882068634033,21.693452835083008,0.4690452218055725,2.5207552909851074,-0.20724813640117645,0.0,0.0,0.0,0.0,0.0,0.0,0.0,-0.126520974941534,0.4305858746262813,0.10262534935878026,0.43275537442637957,-0.07192213562847309,0.12750762994507855,-0.22103689458728037,0.17281150226059958,-0.48741470901770156,-0.11153845558682748,-1.9465558987901854,0.13375895537932714,2.595546303484175,0.9452476107196676,0.1728802376190821,-0.48752024683155326,-0.11147110072896137,-1.9463801863486305,0.1336059019074957,2.595550359778934,0.9452445589611904,3.474876842971301e-05,0.00012761434660589483,0.0006059485767839443,0.0010005660113962215,-0.00038372249373582986,0.0001674050677594987,-0.0003450294466244753,0.0,0.0,0.0,0.0,0.0,0.0,0.0,6.873535848253565e-05,-0.00010553781385169714,6.735485786611706e-05,0.0001757124415548983,-0.00015305347183144913,4.056294759191559e-06,-3.051758477146116e-06,-3.474876842971301e-05,-0.00012761434660589483,-0.0006059485767839443,-0.0010005660113962215,0.00038372249373582986,-0.0001674050677594987,0.0003450294466244753,0.12130087614059448,11.901697158813477,-1.2909882068634033,-21.693452835083008,-0.4690452218055725,-2.5207552909851074,0.20724813640117645,0
49,0.24142241477966309,-0.09352988004684448,-11.925500869750977,1.3425629138946533,21.693452835083008,0.4571433663368225,2.5271639823913574,-0.22830526530742645,0.0,0.0,0.0,0.0,0.0,0.0,0.0,-0.1181062600178973,0.42927077778986766,0.11449728263300972,0.43275965552499335,-0.07325893074262196,0.12714218172818947,-0.22157925341961354,0.17281245922387747,-0.4874132856490044,-0.11154325542992712,-1.9465565865946257,0.13376027797022755,2.595545591407352,0.9452499504006571,0.1728802376190821,-0.48752024683155326,-0.11147110072896137,-1.9463801863486305,0.1336059019074957,2.595550359778934,0.9452445589611904,-0.0003858908487473961,8.204452360712401e-05,-0.0007124308990254002,0.0007291303180400352,0.0023230948286547346,-1.1729098386681349e-06,0.0008366692408271852,0.0,0.0,0.0,0.0,0.0,0.0,0.0,6.777839520463735e-05,-0.00010696118254888143,7.215470096574861e-05,0.00017640024599518966,-0.0001543760627318591,4.76837158203125e-06,-5.3914394666509935e-06,0.0003858908487473961,-8.204452360712401e-05,0.0007124308990254002,-0.0007291303180400352,-0.0023230948286547346,1.1729098386681349e-06,-0.0008366692408271852,0.09352988004684448,11.925500869750977,-1.3425629138946533,-21.693452835083008,-0.4571433663368225,-2.5271639823913574,0.22830526530742645,0
50,0.24500322341918945,-0.09352988004684448,-11.925500869750977,1.3425629138946533,21.693452835083008,0.4571433663368225,2.5271639823913574,-0.22830526530742645,0.0,0.0,0.0,0.0,0.0,0.0,0.0,-0.1181062600178973,0.42927077778986766,0.11449728263300972,0.43275965552499335,-0.07325893074262196,0.12714218172818947,-0.22157925341961354,0.17281245922387747,-0.4874132856490044,-0.11154325542992712,-1.9465565865946257,0.13376027797022755,2.595545591407352,0.9452499504006571,0.1728802376190821,-0.48752024683155326,-0.11147110072896137,-1.9463801863486305,0.1336059019074957,2.595550359778934,0.9452445589611904,-0.0003858908487473961,8.204452360712401e-05,-0.0007124308990254002,0.0007291303180400352,0.0023230948286547346,-1.1729098386681349e-06,0.0008366692408271852,0.0,0.0,0.0,0.0,0.0,0.0,0.0,6.777839520463735e-05,-0.00010696118254888143,7.215470096574861e-05,0.00017640024599518966,-0.0001543760627318591,4.76837158203125e-06,-5.3914394666509935e-06,0.0003858908487473961,-8.204452360712401e-05,0.0007124308990254002,-0.0007291303180400352,-0.0023230948286547346,1.1729098386681349e-06,-0.0008366692408271852,0.09352988004684448,11.925500869750977,-1.3425629138946533,-21.693452835083008,-0.4571433663368225,-2.5271639823913574,0.22830526530742645,0
51,0.24999427795410156,-0.09352988004684448,-11.901697158813477,1.2909882068634033,21.693452835083008,0.4690452218055725,2.5207552909851074,-0.21457235515117645,0.0,0.0,0.0,0.0,0.0,0.0,0.0,-0.11823900238532264,0.43826817362839454,0.11176485684283918,0.4285783811082657,-0.07276765711335992,0.12646350039761803,-0.22127532466006433,0.17281175849098496,-0.4874142441033508,-0.11153761179716239,-1.9465581966518404,0.1337589553793519,2.595546303484175,0.9452484114397987,0.1728802376190821,-0.48752024683155326,-0.11147110072896137,-1.9463801863486305,0.1336059019074957,2.595550359778934,0.9452445589611904,-0.0002509869353995619,-7.699800279903536e-05,0.00041198250630097914,0.0008346853990374813,-0.00013545758403268052,7.777150089086845e-05,0.0002731673968138256,0.0,0.0,0.0,0.0,0.0,0.0,0.0,6.847912809715417e-05,-0.00010600272820243672,6.651106820101949e-05,0.00017801030320985234,-0.0001530534718562071,4.056294759191559e-06,-3.8524786082350104e-06,0.0002509869353995619,7.699800279903536e-05,-0.00041198250630097914,-0.0008346853990374813,0.00013545758403268052,-7.777150089086845e-05,-0.0002731673968138256,0.09352988004684448,11.901697158813477,-1.2909882068634033,-21.693452835083008,-0.4690452218055725,-2.5207552909851074,0.21457235515117645,0
52,0.255007266998291,-0.09352988004684448,-11.901697158813477,1.2909882068634033,21.693452835083008,0.4690452218055725,2.5207552909851074,-0.21457235515117645,0.0,0.0,0.0,0.0,0.0,0.0,0.0,-0.11823900238532264,0.43826817362839454,0.11176485684283918,0.4285783811082657,-0.07276765711335992,0.12646350039761803,-0.22127532466006433,0.17281175849098496,-0.4874142441033508,-0.11153761179716239,-1.9465581966518404,0.1337589553793519,2.595546303484175,0.9452484114397987,0.1728802376190821,-0.48752024683155326,-0.11147110072896137,-1.9463801863486305,0.1336059019074957,2.595550359778934,0.9452445589611904,-0.0002509869353995619,-7.699800279903536e-05,0.00041198250630097914,0.0008346853990374813,-0.00013545758403268052,7.777150089086845e-05,0.0002731673968138256,0.0,0.0,0.0,0.0,0.0,0.0,0.0,6.847912809715417e-05,-0.00010600272820243672,6.651106820101949e-05,0.00017801030320985234,-0.0001530534718562071,4.056294759191559e-06,-3.8524786082350104e-06,0.0002509869353995619,7.699800279903536e-05,-0.00041198250630097914,-0.0008346853990374813,0.00013545758403268052,-7.777150089086845e-05,-0.0002731673968138256,0.09352988004684448,11.901697158813477,-1.2909882068634033,-21.693452835083008,-0.4690452218055725,-2.5207552909851074,0.21457235515117645,0
53,0.26000261306762695,-0.12130087614059448,-11.901697158813477,1.3147919178009033,21.741060256958008,0.4690452218055725,2.5399813652038574,-0.22830526530742645,0.0,0.0,0.0,0.0,0.0,0.0,0.0,-0.12131642842556534,0.4338391547696698,0.10519539033267826,0.43101488786202746,-0.0721058031057979,0.126911731151458,-0.22021728469182605,0.17281362080359208,-0.48741280341602816,-0.11153988631943502,-1.9465592473102642,0.1337589539166922,2.5955441672537063,0.9452498326630844,0.1728802376190821,-0.48752024683155326,-0.11147110072896137,-1.9463801863486305,0.1336059019074957,2.595550359778934,0.9452445589611904,-0.0001767887314398372,0.00025158381761412017,-0.00010165889335051828,-0.00044126971584713525,1.0379335578464956e-05,-0.00035210701247524495,0.00042764153149145825,0.0,0.0,0.0,0.0,0.0,0.0,0.0,6.661681549002818e-05,-0.00010744341552509917,6.878559047365784e-05,0.00017906096163367025,-0.0001530520091965193,6.192525227710632e-06,-5.2737018939597036e-06,0.0001767887314398372,-0.00025158381761412017,0.00010165889335051828,0.00044126971584713525,-1.0379335578464956e-05,0.00035210701247524495,-0.00042764153149145825,0.12130087614059448,11.901697158813477,-1.3147919178009033,-21.741060256958008,-0.4690452218055725,-2.5399813652038574,0.22830526530742645,0
54,0.26500678062438965,-0.12130087614059448,-11.901697158813477,1.3147919178009033,21.741060256958008,0.4690452218055725,2.5399813652038574,-0.22830526530742645,0.0,0.0,0.0,0.0,0.0,0.0,0.0,-0.12131642842556534,0.4338391547696698,0.10519539033267826,0.43101488786202746,-0.0721058031057979,0.126911731151458,-0.22021728469182605,0.17281362080359208,-0.48741280341602816,-0.11153988631943502,-1.9465592473102642,0.1337589539166922,2.5955441672537063,0.9452498326630844,0.1728802376190821,-0.48752024683155326,-0.11147110072896137,-1.9463801863486305,0.1336059019074957,2.595550359778934,0.9452445589611904,-0.0001767887314398372,0.00025158381761412017,-0.00010165889335051828,-0.00044126971584713525,1.0379335578464956e-05,-0.00035210701247524495,0.00042764153149145825,0.0,0.0,0.0,0.0,0.0,0.0,0.0,6.661681549002818e-05,-0.00010744341552509917,6.878559047365784e-05,0.00017906096163367025,-0.0001530520091965193,6.192525227710632e-06,-5.2737018939597036e-06,0.0001767887314398372,-0.00025158381761412017,0.00010165889335051828,0.00044126971584713525,-1.0379335578464956e-05,0.00035210701247524495,-0.00042764153149145825,0.12130087614059448,11.901697158813477,-1.3147919178009033,-21.741060256958008,-0.4690452218055725,-2.5399813652038574,0.22830526530742645,0
55,0.26997971534729004,-0.14510458707809448,-11.873926162719727,1.2909882068634033,21.717256546020508,0.4571433663368225,2.5271639823913574,-0.23471395671367645,0.0,0.0,0.0,0.0,0.0,0.0,0.0,-0.11976067729714533,0.42920809075066746,0.10778778648170413,0.43568919666783645,-0.0714831610625791,0.12817109283762107,-0.2200189898398393,0.17281384633538208,-0.48741380874771967,-0.11153845654779504,-1.9465576447951496,0.1337602778077043,2.595545591407352,0.9452506624768154,0.1728802376190821,-0.48752024683155326,-0.11147110072896137,-1.9463801863486305,0.1336059019074957,2.595550359778934,0.9452445589611904,0.00025629108801617125,-0.00012420952821316281,0.00021562201637495077,0.0005798202381294561,0.0003348750022016545,6.836015913671547e-05,0.0014419853329407965,0.0,0.0,0.0,0.0,0.0,0.0,0.0,6.639128370003466e-05,-0.00010643808383359321,6.735581883367259e-05,0.00017745844651906317,-0.00015437590020861425,4.76837158203125e-06,-6.1035156250222045e-06,-0.00025629108801617125,0.00012420952821316281,-0.00021562201637495077,-0.0005798202381294561,-0.0003348750022016545,-6.836015913671547e-05,-0.0014419853329407965,0.14510458707809448,11.873926162719727,-1.2909882068634033,-21.717256546020508,-0.4571433663368225,-2.5271639823913574,0.23471395671367645,0
56,0.27500247955322266,-0.14510458707809448,-11.873926162719727,1.2909882068634033,21.717256546020508,0.4571433663368225,2.5271639823913574,-0.23471395671367645,0.0,0.0,0.0,0.0,0.0,0.0,0.0,-0.11976067729714533,0.42920809075066746,0.10778778648170413,0.43568919666783645,-0.0714831610625791,0.12817109283762107,-0.2200189898398393,0.17281384633538208,-0.48741380874771967,-0.11153845654779504,-1.9465576447951496,0.1337602778077043,2.595545591407352,0.9452506624768154,0.1728802376190821,-0.48752024683155326,-0.11147110072896137,-1.9463801863486305,0.1336059019074957,2.595550359778934,0.9452445589611904,0.00025629108801617125,-0.00012420952821316281,0.00021562201637495077,0.0005798202381294561,0.0003348750022016545,6.836015913671547e-05,0.0014419853329407965,0.0,0.0,0.0,0.0,0.0,0.0,0.0,6.639128370003466e-05,-0.00010643808383359321,6.735581883367259e-05,0.00017745844651906317,-0.00015437590020861425,4.76837158203125e-06,-6.1035156250222045e-06,-0.00025629108801617125,0.00012420952821316281,-0.00021562201637495077,-0.0005798202381294561,-0.0003348750022016545,-6.836015913671547e-05,-0.0014419853329407965,0.14510458707809448,11.873926162719727,-1.2909882068634033,-21.717256546020508,-0.4571433663368225,-2.5271639823913574,0.23471395671367645,0
57,0.2800028324127197,-0.17287558317184448,-11.850122451782227,1.2909882068634033,21.717256546020508,0.4626365303993225,2.5335726737976074,-0.24844686686992645,0.0,0.0,0.0,0.0,0.0,0.0,0.0,-0.11537928866047081,0.4575177134865702,0.11108742468979958,0.4197015303449562,-0.0716120857014213,0.12445015251893536,-0.2194281467466207,0.17281508945224286,-0.48741855114767746,-0.11153853157278684,-1.9465582570308966,0.13375966745615006,2.595544879330529,0.9452521883563862,0.1728802376190821,-0.48752024683155326,-0.11147110072896137,-1.9463801863486305,0.1336059019074957,2.595550359778934,0.9452445589611904,0.001710844018706553,-0.00023682857383255018,-0.00018469535624816142,6.669480577640794e-05,0.0001669560738269203,0.004129440216044659,0.0045046333807870495,0.0,0.0,0.0,0.0,0.0,0.0,0.0,6.514816683925173e-05,-0.00010169568387580208,6.743084382547504e-05,0.0001780706822660516,-0.00015376554865437209,5.480448404870941e-06,-7.629395195829503e-06,-0.001710844018706553,0.00023682857383255018,0.00018469535624816142,-6.669480577640794e-05,-0.0001669560738269203,-0.004129440216044659,-0.0045046333807870495,0.17287558317184448,11.850122451782227,-1.2909882068634033,-21.717256546020508,-0.4626365303993225,-2.5335726737976074,0.24844686686992645,0
58,0.28501152992248535,-0.17287558317184448,-11.850122451782227,1.2909882068634033,21.717256546020508,0.4626365303993225,2.5335726737976074,-0.24844686686992645,0.0,0.0,0.0,0.0,0.0,0.0,0.0,-0.11537928866047081,0.4575177134865702,0.11108742468979958,0.4197015303449562,-0.0716120857014213,0.12445015251893536,-0.2194281467466207,0.17281508945224286,-0.48741855114767746,-0.11153853157278684,-1.9465582570308966,0.13375966745615006,2.595544879330529,0.9452521883563862,0.1728802376190821,-0.48752024683155326,-0.11147110072896137,-1.9463801863486305,0.1336059019074957,2.595550359778934,0.9452445589611904,0.001710844018706553,-0.00023682857383255018,-0.00018469535624816142,6.669480577640794e-05,0.0001669560738269203,0.004129440216044659,0.0045046333807870495,0.0,0.0,0.0,0.0,0.0,0.0,0.0,6.514816683925173e-05,-0.00010169568387580208,6.743084382547504e-05,0.0001780706822660516,-0.00015376554865437209,5.480448404870941e-06,-7.629395195829503e-06,-0.001710844018706553,0.00023682857383255018,0.00018469535624816142,-6.669480577640794e-05,-0.0001669560738269203,-0.004129440216044659,-0.0045046333807870495,0.17287558317184448,11.850122451782227,-1.2909882068634033,-21.717256546020508,-0.4626365303993225,-2.5335726737976074,0.24844686686992645,0
59,0.2899966239929199,-0.14510458707809448,-11.873926162719727,1.2671844959259033,21.741060256958008,0.4626365303993225,2.5399813652038574,-0.22830526530742645,0.0,0.0,0.0,0.0,0.0,0.0,0.0,-0.12216866975182462,0.4377018748107873,0.10070057961895947,0.43471795105974587,-0.07064806591407032,0.12841517975943162,-0.22013309898564765,0.17281416235130986,-0.48741690689306794,-0.11153594396531924,-1.946559264215231,0.13375966745615006,2.5955441672537063,0.9452499504006571,0.1728802376190821,-0.48752024683155326,-0.11147110072896137,-1.9463801863486305,0.1336059019074957,2.595550359778934,0.9452445589611904,0.0003579864053420673,-0.00043768887293096464,0.0005772230004333813,-0.0003783861106428347,7.219695050041602e-05,-0.0001726129916896972,0.0012628955498046707,0.0,0.0,0.0,0.0,0.0,0.0,0.0,6.607526777224759e-05,-0.00010333993848532508,6.48432363578727e-05,0.00017907786660043,-0.00015376554865437209,6.192525227710632e-06,-5.3914394666509935e-06,-0.0003579864053420673,0.00043768887293096464,-0.0005772230004333813,0.0003783861106428347,-7.219695050041602e-05,0.0001726129916896972,-0.0012628955498046707,0.14510458707809448,11.873926162719727,-1.2671844959259033,-21.741060256958008,-0.4626365303993225,-2.5399813652038574,0.22830526530742645,0
60,0.2950100898742676,-0.14510458707809448,-11.873926162719727,1.2671844959259033,21.741060256958008,0.4626365303993225,2.5399813652038574,-0.22830526530742645,0.0,0.0,0.0,0.0,0.0,0.0,0.0,-0.12216866975182462,0.4377018748107873,0.10070057961895947,0.43471795105974587,-0.07064806591407032,0.12841517975943162,-0.22013309898564765,0.17281416235130986,-0.48741690689306794,-0.11153594396531924,-1.946559264215231,0.13375966745615006,2.5955441672537063,0.9452499504006571,0.1728802376190821,-0.48752024683155326,-0.11147110072896137,-1.9463801863486305,0.1336059019074957,2.595550359778934,0.9452445589611904,0.0003579864053420673,-0.00043768887293096464,0.0005772230004333813,-0.0003783861106428347,7.219695050041602e-05,-0.0001726129916896972,0.0012628955498046707,0.0,0.0,0.0,0.0,0.0,0.0,0.0,6.607526777224759e-05,-0.00010333993848532508,6.48432363578727e-05,0.00017907786660043,-0.00015376554865437209,6.192525227710632e-06,-5.3914394666509935e-06,-0.0003579864053420673,0.00043768887293096464,-0.0005772230004333813,0.0003783861106428347,-7.219695050041602e-05,0.0001726129916896972,-0.0012628955498046707,0.14510458707809448,11.873926162719727,-1.2671844959259033,-21.741060256958008,-0.4626365303993225,-2.5399813652038574,0.22830526530742645,0
61,0.29999494552612305,-0.12130087614059448,-11.873926162719727,1.2671844959259033,21.717256546020508,0.4864402413368225,2.5335726737976074,-0.22830526530742645,0.0,0.0,0.0,0.0,0.0,0.0,0.0,-0.12253010297483205,0.435465561353626,0.10346493026844857,0.43708909040160393,-0.07061444657596151,0.1302440134193557,-0.21997411681080825,0.1728124940813595,-0.48741611249166755,-0.11153607195861563,-1.9465596355399772,0.13375702259937922,2.595544879330529,0.9452499504006571,0.1728802376190821,-0.48752024683155326,-0.11147110072896137,-1.9463801863486305,0.1336059019074957,2.595550359778934,0.9452445589611904,0.00020061978388756992,-0.0008747277460478696,0.000808684669041698,0.00020170124487755664,-0.0006807429986641789,-0.00026307430996833303,0.004044641269139945,0.0,0.0,0.0,0.0,0.0,0.0,0.0,6.774353772259767e-05,-0.00010413433988570864,6.497122965426483e-05,0.00017944919134671444,-0.00015112069188352728,5.480448404870941e-06,-5.3914394666509935e-06,-0.00020061978388756992,0.0008747277460478696,-0.000808684669041698,-0.00020170124487755664,0.0006807429986641789,0.00026307430996833303,-0.004044641269139945,0.12130087614059448,11.873926162719727,-1.2671844959259033,-21.717256546020508,-0.4864402413368225,-2.5335726737976074,0.22830526530742645,0
62,0.30499911308288574,-0.12130087614059448,-11.873926162719727,1.2671844959259033,21.717256546020508,0.4864402413368225,2.5335726737976074,-0.22830526530742645,0.0,0.0,0.0,0.0,0.0,0.0,0.0,-0.12253010297483205,0.435465561353626,0.10346493026844857,0.43708909040160393,-0.07061444657596151,0.1302440134193557,-0.21997411681080825,0.1728124940813595,-0.48741611249166755,-0.11153607195861563,-1.9465596355399772,0.13375702259937922,2.595544879330529,0.9452499504006571,0.1728802376190821,-0.48752024683155326,-0.11147110072896137,-1.9463801863486305,0.1336059019074957,2.595550359778934,0.9452445589611904,0.00020061978388756992,-0.0008747277460478696,0.000808684669041698,0.00020170124487755664,-0.0006807429986641789,-0.00026307430996833303,0.004044641269139945,0.0,0.0,0.0,0.0,0.0,0.0,0.0,6.774353772259767e-05,-0.00010413433988570864,6.497122965426483e-05,0.00017944919134671444,-0.00015112069188352728,5.480448404870941e-06,-5.3914394666509935e-06,-0.00020061978388756992,0.0008747277460478696,-0.000808684669041698,-0.00020170124487755664,0.0006807429986641789,0.00026307430996833303,-0.004044641269139945,0.12130087614059448,11.873926162719727,-1.2671844959259033,-21.717256546020508,-0.4864402413368225,-2.5335726737976074,0.22830526530742645,0
63,0.3099982738494873,-0.12130087614059448,-11.873926162719727,1.2671844959259033,21.717256546020508,0.4864402413368225,2.5335726737976074,-0.22830526530742645,0.0,0.0,0.0,0.0,0.0,0.0,0.0,-0.12253010297483205,0.435465561353626,0.10346493026844857,0.43708909040160393,-0.07061444657596151,0.1302440134193557,-0.21997411681080825,0.1728124940813595,-0.48741611249166755,-0.11153607195861563,-1.9465596355399772,0.13375702259937922,2.595544879330529,0.9452499504006571,0.1728802376190821,-0.48752024683155326,-0.11147110072896137,-1.9463801863486305,0.1336059019074957,2.595550359778934,0.9452445589611904,0.00020061978388756992,-0.0008747277460478696,0.000808684669041698,0.00020170124487755664,-0.0006807429986641789,-0.00026307430996833303,0.004044641269139945,0.0,0.0,0.0,0.0,0.0,0.0,0.0,6.774353772259767e-05,-0.00010413433988570864,6.497122965426483e-05,0.00017944919134671444,-0.00015112069188352728,5.480448404870941e-06,-5.3914394666509935e-06,-0.00020061978388756992,0.0008747277460478696,-0.000808684669041698,-0.00020170124487755664,0.0006807429986641789,0.00026307430996833303,-0.004044641269139945,0.12130087614059448,11.873926162719727,-1.2671844959259033,-21.717256546020508,-0.4864402413368225,-2.5335726737976074,0.22830526530742645,0
64,0.3150007724761963,-0.14510458707809448,-11.850122451782227,1.3147919178009033,21.717256546020508,0.4571433663368225,2.5335726737976074,-0.20083944499492645,0.0,0.0,0.0,0.0,0.0,0.0,0.0,-0.12573858834457596,0.43672859277699483,0.0991784801851692,0.43487003914132205,-0.06944447836051314,0.12994327427124056,-0.2197667899436611,0.17281313866808443,-0.4874185776516354,-0.111541543661013,-1.9465575682773504,0.13376027780771255,2.595544879330529,0.9452468986428446,0.1728802376190821,-0.48752024683155326,-0.11147110072896137,-1.9463801863486305,0.1336059019074957,2.595550359778934,0.9452445589611904,0.0005775521605112846,-0.0012859535056811045,-0.0004914316966319674,0.0002475973103970373,0.0001953880667312861,-0.00016736767904381816,-0.010007972528567943,0.0,0.0,0.0,0.0,0.0,0.0,0.0,6.709895099768493e-05,-0.00010166917991788482,7.044293205163421e-05,0.00017738192871985525,-0.00015437590021685765,5.480448404870941e-06,-2.3396816541954024e-06,-0.0005775521605112846,0.0012859535056811045,0.0004914316966319674,-0.0002475973103970373,-0.0001953880667312861,0.00016736767904381816,0.010007972528567943,0.14510458707809448,11.850122451782227,-1.3147919178009033,-21.717256546020508,-0.4571433663368225,-2.5335726737976074,0.20083944499492645,0
65,0.31999778747558594,-0.14510458707809448,-11.850122451782227,1.3147919178009033,21.717256546020508,0.4571433663368225,2.5335726737976074,-0.20083944499492645,0.0,0.0,0.0,0.0,0.0,0.0,0.0,-0.12573858834457596,0.43672859277699483,0.0991784801851692,0.43487003914132205,-0.06944447836051314,0.12994327427124056,-0.2197667899436611,0.17281313866808443,-0.4874185776516354,-0.111541543661013,-1.9465575682773504,0.13376027780771255,2.595544879330529,0.9452468986428446,0.1728802376190821,-0.48752024683155326,-0.11147110072896137,-1.9463801863486305,0.1336059019074957,2.595550359778934,0.9452445589611904,0.0005775521605112846,-0.0012859535056811045,-0.0004914316966319674,0.0002475973103970373,0.0001953880667312861,-0.00016736767904381816,-0.010007972528567943,0.0,0.0,0.0,0.0,0.0,0.0,0.0,6.709895099768493e-05,-0.00010166917991788482,7.044293205163421e-05,0.00017738192871985525,-0.00015437590021685765,5.480448404870941e-06,-2.3396816541954024e-06,-0.0005775521605112846,0.0012859535056811045,0.0004914316966319674,-0.0002475973103970373,-0.0001953880667312861,0.00016736767904381816,0.010007972528567943,0.14510458707809448,11.850122451782227,-1.3147919178009033,-21.717256546020508,-0.4571433663368225,-2.5335726737976074,0.20083944499492645,0
66,0.3250126838684082,-0.09352988004684448,-11.901697158813477,1.2909882068634033,21.741060256958008,0.4626365303993225,2.5207552909851074,-0.17978231608867645,0.0,0.0,0.0,0.0,0.0,0.0,0.0,-0.12401687620995906,0.44002696912848543,0.10451101439331614,0.43212601900998093,-0.07033565059725973,0.1292758443346286,-0.2201268522688861,0.17280975559560674,-0.4874127781620825,-0.11153855897036442,-1.946559238701536,0.13375966745615006,2.595546303484175,0.945244558961855,0.1728802376190821,-0.48752024683155326,-0.11147110072896137,-1.9463801863486305,0.1336059019074957,2.595550359778934,0.9452445589611904,-0.0010439708318558387,0.0003381339332199658,0.0004470019157254294,-0.0004479318148487832,0.0009563592307210572,0.0002523568813390133,-0.0017433922396205435,0.0,0.0,0.0,0.0,0.0,0.0,0.0,7.048202347537114e-05,-0.00010746866947075606,6.745824140305667e-05,0.00017905235290549548,-0.00015376554865437209,4.056294759191559e-06,-6.645795025406187e-13,0.0010439708318558387,-0.0003381339332199658,-0.0004470019157254294,0.0004479318148487832,-0.0009563592307210572,-0.0002523568813390133,0.0017433922396205435,0.09352988004684448,11.901697158813477,-1.2909882068634033,-21.741060256958008,-0.4626365303993225,-2.5207552909851074,0.17978231608867645,0
67,0.33005762100219727,-0.09352988004684448,-11.901697158813477,1.2909882068634033,21.741060256958008,0.4626365303993225,2.5207552909851074,-0.17978231608867645,0.0,0.0,0.0,0.0,0.0,0.0,0.0,-0.12401687620995906,0.44002696912848543,0.10451101439331614,0.43212601900998093,-0.07033565059725973,0.1292758443346286,-0.2201268522688861,0.17280975559560674,-0.4874127781620825,-0.11153855897036442,-1.946559238701536,0.13375966745615006,2.595546303484175,0.945244558961855,0.1728802376190821,-0.48752024683155326,-0.11147110072896137,-1.9463801863486305,0.1336059019074957,2.595550359778934,0.9452445589611904,-0.0010439708318558387,0.0003381339332199658,0.0004470019157254294,-0.0004479318148487832,0.0009563592307210572,0.0002523568813390133,-0.0017433922396205435,0.0,0.0,0.0,0.0,0.0,0.0,0.0,7.048202347537114e-05,-0.00010746866947075606,6.745824140305667e-05,0.00017905235290549548,-0.00015376554865437209,4.056294759191559e-06,-6.645795025406187e-13,0.0010439708318558387,-0.0003381339332199658,-0.0004470019157254294,0.0004479318148487832,-0.0009563592307210572,-0.0002523568813390133,0.0017433922396205435,0.09352988004684448,11.901697158813477,-1.2909882068634033,-21.741060256958008,-0.4626365303993225,-2.5207552909851074,0.17978231608867645,0
68,0.33501386642456055,-0.12130087614059448,-11.925500869750977,1.3663666248321533,21.741060256958008,0.4626365303993225,2.5207552909851074,-0.20724813640117645,0.0,0.0,0.0,0.0,0.0,0.0,0.0,-0.12055754418763877,0.4326826378175564,0.1104016836305021,0.4339011635219777,-0.06978501598119753,0.12823185677121102,-0.22045255817146747,0.1728136757910618,-0.48741305002864477,-0.1115457530723317,-1.946559238701536,0.13375966745615006,2.595546303484175,0.9452476107196676,0.1728802376190821,-0.48752024683155326,-0.11147110072896137,-1.9463801863486305,0.1336059019074957,2.595550359778934,0.9452445589611904,0.00043812699029551226,0.0004196783744713143,-0.0010950299571417204,-0.0004243200626707229,0.00013146701774056552,8.736517909927485e-05,-0.0001432990613989902,0.0,0.0,0.0,0.0,0.0,0.0,0.0,6.656182802031174e-05,-0.00010719680290849354,7.465234337032667e-05,0.00017905235290549548,-0.00015376554865437209,4.056294759191559e-06,-3.051758477146116e-06,-0.00043812699029551226,-0.0004196783744713143,0.0010950299571417204,0.0004243200626707229,-0.00013146701774056552,-8.736517909927485e-05,0.0001432990613989902,0.12130087614059448,11.925500869750977,-1.3663666248321533,-21.741060256958008,-0.4626365303993225,-2.5207552909851074,0.20724813640117645,0
69,0.3400113582611084,-0.12130087614059448,-11.925500869750977,1.3663666248321533,21.741060256958008,0.4626365303993225,2.5207552909851074,-0.20724813640117645,0.0,0.0,0.0,0.0,0.0,0.0,0.0,-0.12055754418763877,0.4326826378175564,0.1104016836305021,0.4339011635219777,-0.06978501598119753,0.12823185677121102,-0.22045255817146747,0.1728136757910618,-0.48741305002864477,-0.1115457530723317,-1.946559238701536,0.13375966745615006,2.595546303484175,0.9452476107196676,0.1728802376190821,-0.48752024683155326,-0.11147110072896137,-1.9463801863486305,0.1336059019074957,2.595550359778934,0.9452445589611904,0.00043812699029551226,0.0004196783744713143,-0.0010950299571417204,-0.0004243200626707229,0.00013146701774056552,8.736517909927485e-05,-0.0001432990613989902,0.0,0.0,0.0,0.0,0.0,0.0,0.0,6.656182802031174e-05,-0.00010719680290849354,7.465234337032667e-05,0.00017905235290549548,-0.00015376554865437209,4.056294759191559e-06,-3.051758477146116e-06,-0.00043812699029551226,-0.0004196783744713143,0.0010950299571417204,0.0004243200626707229,-0.00013146701774056552,-8.736517909927485e-05,0.0001432990613989902,0.12130087614059448,11.925500869750977,-1.3663666248321533,-21.741060256958008,-0.4626365303993225,-2.5207552909851074,0.20724813640117645,0
70,0.34500598907470703,-0.09352988004684448,-11.873926162719727,1.3147919178009033,21.792634963989258,0.4626365303993225,2.5271639823913574,-0.22830526530742645,0.0,0.0,0.0,0.0,0.0,0.0,0.0,-0.125870505641173,0.4279547564203627,0.10158912101847163,0.43535421942325214,-0.06910958655024421,0.1275313369832449,-0.220812450344369,0.1728096059105625,-0.4874161651088453,-0.11153989903852535,-1.9465628579792222,0.13375966745615006,2.595545591407352,0.9452499504006571,0.1728802376190821,-0.48752024683155326,-0.11147110072896137,-1.9463801863486305,0.1336059019074957,2.595550359778934,0.9452445589611904,-0.00047217929174413604,-0.0010044941061295054,-0.0003291221723586037,-0.0014501281601803845,-0.00010527450823970398,-0.00017081179780913239,0.0009128572150196839,0.0,0.0,0.0,0.0,0.0,0.0,0.0,7.063170851961953e-05,-0.00010408172270798266,6.879830956398048e-05,0.0001826716305917131,-0.00015376554865437209,4.76837158203125e-06,-5.3914394666509935e-06,0.00047217929174413604,0.0010044941061295054,0.0003291221723586037,0.0014501281601803845,0.00010527450823970398,0.00017081179780913239,-0.0009128572150196839,0.09352988004684448,11.873926162719727,-1.3147919178009033,-21.792634963989258,-0.4626365303993225,-2.5271639823913574,0.22830526530742645,0
71,0.35001087188720703,-0.09352988004684448,-11.873926162719727,1.3147919178009033,21.792634963989258,0.4626365303993225,2.5271639823913574,-0.22830526530742645,0.0,0.0,0.0,0.0,0.0,0.0,0.0,-0.125870505641173,0.4279547564203627,0.10158912101847163,0.43535421942325214,-0.06910958655024421,0.1275313369832449,-0.220812450344369,0.1728096059105625,-0.4874161651088453,-0.11153989903852535,-1.9465628579792222,0.13375966745615006,2.595545591407352,0.9452499504006571,0.1728802376190821,-0.48752024683155326,-0.11147110072896137,-1.9463801863486305,0.1336059019074957,2.595550359778934,0.9452445589611904,-0.00047217929174413604,-0.0010044941061295054,-0.0003291221723586037,-0.0014501281601803845,-0.00010527450823970398,-0.00017081179780913239,0.0009128572150196839,0.0,0.0,0.0,0.0,0.0,0.0,0.0,7.063170851961953e-05,-0.00010408172270798266,6.879830956398048e-05,0.0001826716305917131,-0.00015376554865437209,4.76837158203125e-06,-5.3914394666509935e-06,0.00047217929174413604,0.0010044941061295054,0.0003291221723586037,0.0014501281601803845,0.00010527450823970398,0.00017081179780913239,-0.0009128572150196839,0.09352988004684448,11.873926162719727,-1.3147919178009033,-21.792634963989258,-0.4626365303993225,-2.5271639823913574,0.22830526530742645,0
72,0.35500669479370117,-0.09352988004684448,-11.873926162719727,1.3147919178009033,21.792634963989258,0.4626365303993225,2.5271639823913574,-0.22830526530742645,0.0,0.0,0.0,0.0,0.0,0.0,0.0,-0.125870505641173,0.4279547564203627,0.10158912101847163,0.43535421942325214,-0.06910958655024421,0.1275313369832449,-0.220812450344369,0.1728096059105625,-0.4874161651088453,-0.11153989903852535,-1.9465628579792222,0.13375966745615006,2.595545591407352,0.9452499504006571,0.1728802376190821,-0.48752024683155326,-0.11147110072896137,-1.9463801863486305,0.1336059019074957,2.595550359778934,0.9452445589611904,-0.00047217929174413604,-0.0010044941061295054,-0.0003291221723586037,-0.0014501281601803845,-0.00010527450823970398,-0.00017081179780913239,0.0009128572150196839,0.0,0.0,0.0,0.0,0.0,0.0,0.0,7.063170851961953e-05,-0.00010408172270798266,6.879830956398048e-05,0.0001826716305917131,-0.00015376554865437209,4.76837158203125e-06,-5.3914394666509935e-06,0.00047217929174413604,0.0010044941061295054,0.0003291221723586037,0.0014501281601803845,0.00010527450823970398,0.00017081179780913239,-0.0009128572150196839,0.09352988004684448,11.873926162719727,-1.3147919178009033,-21.792634963989258,-0.4626365303993225,-2.5271639823913574,0.22830526530742645,0
73,0.36000943183898926,-0.09352988004684448,-11.873926162719727,1.3147919178009033,21.792634963989258,0.4626365303993225,2.5271639823913574,-0.22830526530742645,0.0,0.0,0.0,0.0,0.0,0.0,0.0,-0.125870505641173,0.4279547564203627,0.10158912101847163,0.43535421942325214,-0.06910958655024421,0.1275313369832449,-0.220812450344369,0.1728096059105625,-0.4874161651088453,-0.11153989903852535,-1.9465628579792222,0.13375966745615006,2.595545591407352,0.9452499504006571,0.1728802376190821,-0.48752024683155326,-0.11147110072896137,-1.9463801863486305,0.1336059019074957,2.595550359778934,0.9452445589611904,-0.00047217929174413604,-0.0010044941061295054,-0.0003291221723586037,-0.0014501281601803845,-0.00010527450823970398,-0.00017081179780913239,0.0009128572150196839,0.0,0.0,0.0,0.0,0.0,0.0,0.0,7.063170851961953e-05,-0.00010408172270798266,6.879830956398048e-05,0.0001826716305917131,-0.00015376554865437209,4.76837158203125e-06,-5.3914394666509935e-06,0.00047217929174413604,0.0010044941061295054,0.0003291221723586037,0.0014501281601803845,0.00010527450823970398,0.00017081179780913239,-0.0009128572150196839,0.09352988004684448,11.873926162719727,-1.3147919178009033,-21.792634963989258,-0.4626365303993225,-2.5271639823913574,0.22830526530742645,0
74,0.3650178909301758,-0.12130087614059448,-11.901697158813477,1.2909882068634033,21.741060256958008,0.4809470772743225,2.5335726737976074,-0.22830526530742645,0.0,0.0,0.0,0.0,0.0,0.0,0.0,-0.12176286631773903,0.42924261701312844,0.10413296214560752,0.43578845910611885,-0.0694529606708013,0.12638024998825861,-0.22199455447251448,0.1728115469639265,-0.4874148676727107,-0.11153963743934077,-1.9465619947404726,0.13375763295094173,2.595544879330529,0.9452499504006571,0.1728802376190821,-0.48752024683155326,-0.11147110072896137,-1.9463801863486305,0.1336059019074957,2.595550359778934,0.9452445589611904,0.00041905967245580073,-0.00025508677941059104,-2.4531379130658945e-05,-0.0003634118091716492,-0.0004506119274451677,-0.0003711997773280341,0.000841862491897087,0.0,0.0,0.0,0.0,0.0,0.0,0.0,6.869065515560657e-05,-0.00010537915884256677,6.853671037940212e-05,0.00018180839184211983,-0.0001517310434460406,5.480448404870941e-06,-5.3914394666509935e-06,-0.00041905967245580073,0.00025508677941059104,2.4531379130658945e-05,0.0003634118091716492,0.0004506119274451677,0.0003711997773280341,-0.000841862491897087,0.12130087614059448,11.901697158813477,-1.2909882068634033,-21.741060256958008,-0.4809470772743225,-2.5335726737976074,0.22830526530742645,0
75,0.37000584602355957,-0.12130087614059448,-11.901697158813477,1.2909882068634033,21.741060256958008,0.4809470772743225,2.5335726737976074,-0.22830526530742645,0.0,0.0,0.0,0.0,0.0,0.0,0.0,-0.12176286631773903,0.42924261701312844,0.10413296214560752,0.43578845910611885,-0.0694529606708013,0.12638024998825861,-0.22199455447251448,0.1728115469639265,-0.4874148676727107,-0.11153963743934077,-1.9465619947404726,0.13375763295094173,2.595544879330529,0.9452499504006571,0.1728802376190821,-0.48752024683155326,-0.11147110072896137,-1.9463801863486305,0.1336059019074957,2.595550359778934,0.9452445589611904,0.00041905967245580073,-0.00025508677941059104,-2.4531379130658945e-05,-0.0003634118091716492,-0.0004506119274451677,-0.0003711997773280341,0.000841862491897087,0.0,0.0,0.0,0.0,0.0,0.0,0.0,6.869065515560657e-05,-0.00010537915884256677,6.853671037940212e-05,0.00018180839184211983,-0.0001517310434460406,5.480448404870941e-06,-5.3914394666509935e-06,-0.00041905967245580073,0.00025508677941059104,2.4531379130658945e-05,0.0003634118091716492,0.0004506119274451677,0.0003711997773280341,-0.000841862491897087,0.12130087614059448,11.901697158813477,-1.2909882068634033,-21.741060256958008,-0.4809470772743225,-2.5335726737976074,0.22830526530742645,0
76,0.3750030994415283,-0.12130087614059448,-11.925500869750977,1.3147919178009033,21.741060256958008,0.4690452218055725,2.5207552909851074,-0.21457235515117645,0.0,0.0,0.0,0.0,0.0,0.0,0.0,-0.12023352325568594,0.4215895285098144,0.1043066312926577,0.4429330864223399,-0.0689721829281874,0.1269334725639296,-0.22161419441087335,0.17281157266951486,-0.48741297099543685,-0.11154162371135394,-1.946559238717094,0.13375895537932714,2.595546303484175,0.9452484245217508,0.1728802376190821,-0.48752024683155326,-0.11147110072896137,-1.9463801863486305,0.1336059019074957,2.595550359778934,0.9452445589611904,-6.712240251417715e-05,0.0002557253504566606,-0.0007241985518976455,-4.276848448044019e-06,-0.00030027707322367707,0.0003819810956912798,0.00020711863156205903,0.0,0.0,0.0,0.0,0.0,0.0,0.0,6.866494956725422e-05,-0.00010727583611641611,7.052298239257349e-05,0.00017905236846349482,-0.00015305347183144913,4.056294759191559e-06,-3.865560560423198e-06,6.712240251417715e-05,-0.0002557253504566606,0.0007241985518976455,4.276848448044019e-06,0.00030027707322367707,-0.0003819810956912798,-0.00020711863156205903,0.12130087614059448,11.925500869750977,-1.3147919178009033,-21.741060256958008,-0.4690452218055725,-2.5207552909851074,0.21457235515117645,0
77,0.37999701499938965,-0.12130087614059448,-11.925500869750977,1.3147919178009033,21.741060256958008,0.4690452218055725,2.5207552909851074,-0.21457235515117645,0.0,0.0,0.0,0.0,0.0,0.0,0.0,-0.12023352325568594,0.4215895285098144,0.1043066312926577,0.4429330864223399,-0.0689721829281874,0.1269334725639296,-0.22161419441087335,0.17281157266951486,-0.48741297099543685,-0.11154162371135394,-1.946559238717094,0.13375895537932714,2.595546303484175,0.9452484245217508,0.1728802376190821,-0.48752024683155326,-0.11147110072896137,-1.9463801863486305,0.1336059019074957,2.595550359778934,0.9452445589611904,-6.712240251417715e-05,0.0002557253504566606,-0.0007241985518976455,-4.276848448044019e-06,-0.00030027707322367707,0.0003819810956912798,0.00020711863156205903,0.0,0.0,0.0,0.0,0.0,0.0,0.0,6.866494956725422e-05,-0.00010727583611641611,7.052298239257349e-05,0.00017905236846349482,-0.00015305347183144913,4.056294759191559e-06,-3.865560560423198e-06,6.712240251417715e-05,-0.0002557253504566606,0.0007241985518976455,4.276848448044019e-06,0.00030027707322367707,-0.0003819810956912798,-0.00020711863156205903,0.12130087614059448,11.925500869750977,-1.3147919178009033,-21.741060256958008,-0.4690452218055725,-2.5207552909851074,0.21457235515117645,0
78,0.38500189781188965,-0.14510458707809448,-11.826318740844727,1.2909882068634033,21.741060256958008,0.4690452218055725,2.5335726737976074,-0.17978231608867645,0.0,0.0,0.0,0.0,0.0,0.0,0.0,-0.12098058910316435,0.4374021379057923,0.09647026405521911,0.4346607717446319,-0.06912902268148799,0.1252886869840682,-0.22035444798102977,0.17281316393648793,-0.4874199802372162,-0.11153829741656246,-1.9465593155458925,0.13375895537932714,2.595544879330529,0.945244558961855,0.1728802376190821,-0.48752024683155326,-0.11147110072896137,-1.9463801863486305,0.1336059019074957,2.595550359778934,0.9452445589611904,0.0006076350439865488,-0.0013810487934484993,-0.0005732845029912538,-0.0003889757423831651,-0.00019620488349150986,-0.00031631935337990506,-0.0013414979862866063,0.0,0.0,0.0,0.0,0.0,0.0,0.0,6.707368259417645e-05,-0.00010026659433703955,6.719668760109265e-05,0.0001791291972619291,-0.00015305347183144913,5.480448404870941e-06,-6.645795025406187e-13,-0.0006076350439865488,0.0013810487934484993,0.0005732845029912538,0.0003889757423831651,0.00019620488349150986,0.00031631935337990506,0.0013414979862866063,0.14510458707809448,11.826318740844727,-1.2909882068634033,-21.741060256958008,-0.4690452218055725,-2.5335726737976074,0.17978231608867645,0
79,0.3899970054626465,-0.14510458707809448,-11.826318740844727,1.2909882068634033,21.741060256958008,0.4690452218055725,2.5335726737976074,-0.17978231608867645,0.0,0.0,0.0,0.0,0.0,0.0,0.0,-0.12098058910316435,0.4374021379057923,0.09647026405521911,0.4346607717446319,-0.06912902268148799,0.1252886869840682,-0.22035444798102977,0.17281316393648793,-0.4874199802372162,-0.11153829741656246,-1.9465593155458925,0.13375895537932714,2.595544879330529,0.945244558961855,0.1728802376190821,-0.48752024683155326,-0.11147110072896137,-1.9463801863486305,0.1336059019074957,2.595550359778934,0.9452445589611904,0.0006076350439865488,-0.0013810487934484993,-0.0005732845029912538,-0.0003889757423831651,-0.00019620488349150986,-0.00031631935337990506,-0.0013414979862866063,0.0,0.0,0.0,0.0,0.0,0.0,0.0,6.707368259417645e-05,-0.00010026659433703955,6.719668760109265e-05,0.0001791291972619291,-0.00015305347183144913,5.480448404870941e-06,-6.645795025406187e-13,-0.0006076350439865488,0.0013810487934484993,0.0005732845029912538,0.0003889757423831651,0.00019620488349150986,0.00031631935337990506,0.0013414979862866063,0.14510458707809448,11.826318740844727,-1.2909882068634033,-21.741060256958008,-0.4690452218055725,-2.5335726737976074,0.17978231608867645,0
