rezayati/contactInterpretation/dataset/franka_main/labeled_data/link5/c4_8.csv
index,time,tau_J0,tau_J1,tau_J2,tau_J3,tau_J4,tau_J5,tau_J6,tau_J_d0,tau_J_d1,tau_J_d2,tau_J_d3,tau_J_d4,tau_J_d5,tau_J_d6,tau_ext0,tau_ext1,tau_ext2,tau_ext3,tau_ext4,tau_ext5,tau_ext6,q0,q1,q2,q3,q4,q5,q6,q_d0,q_d1,q_d2,q_d3,q_d4,q_d5,q_d6,dq0,dq1,dq2,dq3,dq4,dq5,dq6,dq_d0,dq_d1,dq_d2,dq_d3,dq_d4,dq_d5,dq_d6,e0,e1,e2,e3,e4,e5,e6,de0,de1,de2,de3,de4,de5,de6,etau_J0,etau_J1,etau_J2,etau_J3,etau_J4,etau_J5,etau_J6,label
1,0.0,-0.24825400114059448,-22.720483779907227,0.001620553433895111,14.207185745239258,0.2191062569618225,2.1453890800476074,-0.25485557317733765,0.0,0.0,0.0,0.0,0.0,0.0,0.0,-0.27616229190014346,0.103114471049574,-0.052366123221311386,0.37715793384709734,-0.006384790883434225,-0.05680508724078261,-0.2622743764168395,1.675389545271953,0.05226053335348659,0.029823033037415722,-2.7525400405348392,0.03423242979248365,2.7663679543071322,0.769166355444101,1.6754973547542302,0.052104326824870026,0.029969505109285054,-2.752394845125968,0.0342448039870148,2.7663679543071322,0.7691630533470046,-0.0002156372655969357,0.00025824649170735523,0.0008266371408267641,0.0007506658542790653,0.00026011551291869173,-0.0005200840426956506,0.00021934039891010574,0.0,0.0,0.0,0.0,0.0,0.0,0.0,0.00010780948227728793,-0.0001562065286165662,0.0001464720718693316,0.00014519540887114601,1.2374194531150629e-05,0.0,-3.302097096313794e-06,0.0002156372655969357,-0.00025824649170735523,-0.0008266371408267641,-0.0007506658542790653,-0.00026011551291869173,0.0005200840426956506,-0.00021934039891010574,0.24825400114059448,22.720483779907227,-0.001620553433895111,-14.207185745239258,-0.2191062569618225,-2.1453890800476074,0.25485557317733765,0
2,0.0050013065338134766,-0.24825400114059448,-22.720483779907227,0.001620553433895111,14.207185745239258,0.2191062569618225,2.1453890800476074,-0.25485557317733765,0.0,0.0,0.0,0.0,0.0,0.0,0.0,-0.27616229190014346,0.103114471049574,-0.052366123221311386,0.37715793384709734,-0.006384790883434225,-0.05680508724078261,-0.2622743764168395,1.675389545271953,0.05226053335348659,0.029823033037415722,-2.7525400405348392,0.03423242979248365,2.7663679543071322,0.769166355444101,1.6754973547542302,0.052104326824870026,0.029969505109285054,-2.752394845125968,0.0342448039870148,2.7663679543071322,0.7691630533470046,-0.0002156372655969357,0.00025824649170735523,0.0008266371408267641,0.0007506658542790653,0.00026011551291869173,-0.0005200840426956506,0.00021934039891010574,0.0,0.0,0.0,0.0,0.0,0.0,0.0,0.00010780948227728793,-0.0001562065286165662,0.0001464720718693316,0.00014519540887114601,1.2374194531150629e-05,0.0,-3.302097096313794e-06,0.0002156372655969357,-0.00025824649170735523,-0.0008266371408267641,-0.0007506658542790653,-0.00026011551291869173,0.0005200840426956506,-0.00021934039891010574,0.24825400114059448,22.720483779907227,-0.001620553433895111,-14.207185745239258,-0.2191062569618225,-2.1453890800476074,0.25485557317733765,0
3,0.010000467300415039,-0.2720577120780945,-22.672876358032227,0.04922797530889511,14.254793167114258,0.2245994210243225,2.1261630058288574,-0.26858848333358765,0.0,0.0,0.0,0.0,0.0,0.0,0.0,-0.2774505468354934,0.1038873824525958,-0.054168519888258784,0.3741838070288694,-0.005844375214424784,-0.05628171570823654,-0.2609604372722374,1.6753907534873527,0.05225719149541993,0.029819692165705194,-2.7525433814065496,0.03423075401391019,2.766370090537601,0.7691678813232314,1.6754973547542302,0.052104326824870026,0.029969505109285054,-2.752394845125968,0.0342448039870148,2.7663679543071322,0.7691630533470046,-0.00013523430063439967,-0.0005589560935702027,-0.00023023003776001638,-0.00041569392403314543,-2.572672419104862e-05,0.00014203666641491566,0.0001419350290618249,0.0,0.0,0.0,0.0,0.0,0.0,0.0,0.00010660126687755955,-0.00015286467054990288,0.00014981294357985925,0.0001485362805815349,1.4049973104612867e-05,-2.136230468963163e-06,-4.827976226806641e-06,0.00013523430063439967,0.0005589560935702027,0.00023023003776001638,0.00041569392403314543,2.572672419104862e-05,-0.00014203666641491566,-0.0001419350290618249,0.2720577120780945,22.672876358032227,-0.04922797530889511,-14.254793167114258,-0.2245994210243225,-2.1261630058288574,0.26858848333358765,0
4,0.015000581741333008,-0.2720577120780945,-22.672876358032227,0.04922797530889511,14.254793167114258,0.2245994210243225,2.1261630058288574,-0.26858848333358765,0.0,0.0,0.0,0.0,0.0,0.0,0.0,-0.2774505468354934,0.1038873824525958,-0.054168519888258784,0.3741838070288694,-0.005844375214424784,-0.05628171570823654,-0.2609604372722374,1.6753907534873527,0.05225719149541993,0.029819692165705194,-2.7525433814065496,0.03423075401391019,2.766370090537601,0.7691678813232314,1.6754973547542302,0.052104326824870026,0.029969505109285054,-2.752394845125968,0.0342448039870148,2.7663679543071322,0.7691630533470046,-0.00013523430063439967,-0.0005589560935702027,-0.00023023003776001638,-0.00041569392403314543,-2.572672419104862e-05,0.00014203666641491566,0.0001419350290618249,0.0,0.0,0.0,0.0,0.0,0.0,0.0,0.00010660126687755955,-0.00015286467054990288,0.00014981294357985925,0.0001485362805815349,1.4049973104612867e-05,-2.136230468963163e-06,-4.827976226806641e-06,0.00013523430063439967,0.0005589560935702027,0.00023023003776001638,0.00041569392403314543,2.572672419104862e-05,-0.00014203666641491566,-0.0001419350290618249,0.2720577120780945,22.672876358032227,-0.04922797530889511,-14.254793167114258,-0.2245994210243225,-2.1261630058288574,0.26858848333358765,0
5,0.019999027252197266,-0.2720577120780945,-22.672876358032227,-0.02615044265985489,14.230989456176758,0.2365012764930725,2.1197543144226074,-0.28232139348983765,0.0,0.0,0.0,0.0,0.0,0.0,0.0,-0.27798451448974754,0.10355631336670351,-0.053142851301669194,0.3755453369125588,-0.005518597668836049,-0.05610626603477347,-0.2625381753871905,1.6753886209138837,0.052257217802402646,0.029824981879246863,-2.7525417109706947,0.034229471039992826,2.766370802614424,0.7691694072021378,1.6754973547542302,0.052104326824870026,0.029969505109285054,-2.752394845125968,0.0342448039870148,2.7663679543071322,0.7691630533470046,8.882926756226965e-05,-8.719884543568294e-05,0.001436950246134063,0.000444885176408434,-0.0002469355457931686,0.0002159721998720521,0.0011148749806352725,0.0,0.0,0.0,0.0,0.0,0.0,0.0,0.00010873384034648659,-0.0001528909775326201,0.00014452323003819045,0.0001468658447265625,1.5332947021974574e-05,-2.848307291802854e-06,-6.3538551331454585e-06,-8.882926756226965e-05,8.719884543568294e-05,-0.001436950246134063,-0.000444885176408434,0.0002469355457931686,-0.0002159721998720521,-0.0011148749806352725,0.2720577120780945,22.672876358032227,0.02615044265985489,-14.230989456176758,-0.2365012764930725,-2.1197543144226074,0.28232139348983765,0
6,0.02500128746032715,-0.2720577120780945,-22.672876358032227,-0.02615044265985489,14.230989456176758,0.2365012764930725,2.1197543144226074,-0.28232139348983765,0.0,0.0,0.0,0.0,0.0,0.0,0.0,-0.27798451448974754,0.10355631336670351,-0.053142851301669194,0.3755453369125588,-0.005518597668836049,-0.05610626603477347,-0.2625381753871905,1.6753886209138837,0.052257217802402646,0.029824981879246863,-2.7525417109706947,0.034229471039992826,2.766370802614424,0.7691694072021378,1.6754973547542302,0.052104326824870026,0.029969505109285054,-2.752394845125968,0.0342448039870148,2.7663679543071322,0.7691630533470046,8.882926756226965e-05,-8.719884543568294e-05,0.001436950246134063,0.000444885176408434,-0.0002469355457931686,0.0002159721998720521,0.0011148749806352725,0.0,0.0,0.0,0.0,0.0,0.0,0.0,0.00010873384034648659,-0.0001528909775326201,0.00014452323003819045,0.0001468658447265625,1.5332947021974574e-05,-2.848307291802854e-06,-6.3538551331454585e-06,-8.882926756226965e-05,8.719884543568294e-05,-0.001436950246134063,-0.000444885176408434,0.0002469355457931686,-0.0002159721998720521,-0.0011148749806352725,0.2720577120780945,22.672876358032227,0.02615044265985489,-14.230989456176758,-0.2365012764930725,-2.1197543144226074,0.28232139348983765,0
7,0.029999494552612305,-0.2998287081718445,-22.720483779907227,0.04922797530889511,14.254793167114258,0.2245994210243225,2.1389803886413574,-0.27591270208358765,0.0,0.0,0.0,0.0,0.0,0.0,0.0,-0.2749247646357411,0.1024526961919407,-0.052552754995422,0.37430490742397643,-0.005310688001728612,-0.056324179255138954,-0.2623069008041091,1.6753923708970049,0.05226076913016792,0.029819718457363063,-2.752543372903281,0.03423075406224815,2.766368666383955,0.7691686951253148,1.6754973547542302,0.052104326824870026,0.029969505109285054,-2.752394845125968,0.0342448039870148,2.7663679543071322,0.7691630533470046,0.00034141879819165434,0.0006736180074042451,-3.6312923953314405e-05,-0.00045290237389356523,1.9053656780144487e-05,-0.00016440889642956342,0.001089429105598269,0.0,0.0,0.0,0.0,0.0,0.0,0.0,0.0001049838572253492,-0.00015644230529789083,0.00014978665192199106,0.0001485277773127791,1.4049924766647293e-05,-7.120768228396912e-07,-5.641778310194745e-06,-0.00034141879819165434,-0.0006736180074042451,3.6312923953314405e-05,0.00045290237389356523,-1.9053656780144487e-05,0.00016440889642956342,-0.001089429105598269,0.2998287081718445,22.720483779907227,-0.04922797530889511,-14.254793167114258,-0.2245994210243225,-2.1389803886413574,0.27591270208358765,0
8,0.03503561019897461,-0.2998287081718445,-22.720483779907227,0.04922797530889511,14.254793167114258,0.2245994210243225,2.1389803886413574,-0.27591270208358765,0.0,0.0,0.0,0.0,0.0,0.0,0.0,-0.2749247646357411,0.1024526961919407,-0.052552754995422,0.37430490742397643,-0.005310688001728612,-0.056324179255138954,-0.2623069008041091,1.6753923708970049,0.05226076913016792,0.029819718457363063,-2.752543372903281,0.03423075406224815,2.766368666383955,0.7691686951253148,1.6754973547542302,0.052104326824870026,0.029969505109285054,-2.752394845125968,0.0342448039870148,2.7663679543071322,0.7691630533470046,0.00034141879819165434,0.0006736180074042451,-3.6312923953314405e-05,-0.00045290237389356523,1.9053656780144487e-05,-0.00016440889642956342,0.001089429105598269,0.0,0.0,0.0,0.0,0.0,0.0,0.0,0.0001049838572253492,-0.00015644230529789083,0.00014978665192199106,0.0001485277773127791,1.4049924766647293e-05,-7.120768228396912e-07,-5.641778310194745e-06,-0.00034141879819165434,-0.0006736180074042451,3.6312923953314405e-05,0.00045290237389356523,-1.9053656780144487e-05,0.00016440889642956342,-0.001089429105598269,0.2998287081718445,22.720483779907227,-0.04922797530889511,-14.254793167114258,-0.2245994210243225,-2.1389803886413574,0.27591270208358765,0
9,0.04001951217651367,-0.24825400114059448,-22.696680068969727,0.04922797530889511,14.254793167114258,0.2310081124305725,2.1261630058288574,-0.26858848333358765,0.0,0.0,0.0,0.0,0.0,0.0,0.0,-0.27544438554622946,0.10461550954521184,-0.05259471044257973,0.37326449785357335,-0.005158469135581537,-0.05527743419225487,-0.2608729875157387,1.6753897720917443,0.05225886193260616,0.02981969216585361,-2.7525433729032325,0.03423004631557123,2.766370090537601,0.7691678813232314,1.6754973547542302,0.052104326824870026,0.029969505109285054,-2.752394845125968,0.0342448039870148,2.7663679543071322,0.7691630533470046,-0.0009078081793802552,0.0004866446695746333,-0.00019104352032127484,-0.00041410604044067665,-0.00011340959311556745,0.0001684217611403933,0.00011438755951447491,0.0,0.0,0.0,0.0,0.0,0.0,0.0,0.00010758266248589443,-0.00015453510773613677,0.00014981294343144325,0.00014852777726437338,1.475767144357154e-05,-2.136230468963163e-06,-4.827976226806641e-06,0.0009078081793802552,-0.0004866446695746333,0.00019104352032127484,0.00041410604044067665,0.00011340959311556745,-0.0001684217611403933,-0.00011438755951447491,0.24825400114059448,22.696680068969727,-0.04922797530889511,-14.254793167114258,-0.2310081124305725,-2.1261630058288574,0.26858848333358765,0
10,0.04525923728942871,-0.24825400114059448,-22.696680068969727,0.04922797530889511,14.254793167114258,0.2310081124305725,2.1261630058288574,-0.26858848333358765,0.0,0.0,0.0,0.0,0.0,0.0,0.0,-0.27544438554622946,0.10461550954521184,-0.05259471044257973,0.37326449785357335,-0.005158469135581537,-0.05527743419225487,-0.2608729875157387,1.6753897720917443,0.05225886193260616,0.02981969216585361,-2.7525433729032325,0.03423004631557123,2.766370090537601,0.7691678813232314,1.6754973547542302,0.052104326824870026,0.029969505109285054,-2.752394845125968,0.0342448039870148,2.7663679543071322,0.7691630533470046,-0.0009078081793802552,0.0004866446695746333,-0.00019104352032127484,-0.00041410604044067665,-0.00011340959311556745,0.0001684217611403933,0.00011438755951447491,0.0,0.0,0.0,0.0,0.0,0.0,0.0,0.00010758266248589443,-0.00015453510773613677,0.00014981294343144325,0.00014852777726437338,1.475767144357154e-05,-2.136230468963163e-06,-4.827976226806641e-06,0.0009078081793802552,-0.0004866446695746333,0.00019104352032127484,0.00041410604044067665,0.00011340959311556745,-0.0001684217611403933,-0.00011438755951447491,0.24825400114059448,22.696680068969727,-0.04922797530889511,-14.254793167114258,-0.2310081124305725,-2.1261630058288574,0.26858848333358765,0
11,0.05002331733703613,-0.2720577120780945,-22.720483779907227,0.001620553433895111,14.254793167114258,0.2310081124305725,2.1389803886413574,-0.28232139348983765,0.0,0.0,0.0,0.0,0.0,0.0,0.0,-0.28180848994729185,0.10460171896820675,-0.05541968839694048,0.3772752793014567,-0.004213227048987531,-0.055115083488142466,-0.26172942684324074,1.6753884607203857,0.05226266420750852,0.029823033037415722,-2.7525433810915656,0.03423004339259697,2.766368666383955,0.7691694072021378,1.6754973547542302,0.052104326824870026,0.029969505109285054,-2.752394845125968,0.0342448039870148,2.7663679543071322,0.7691630533470046,-0.0007864194184469808,0.0007312855398345169,0.0007006592866375795,8.28800542801124e-05,-8.900593442717923e-05,-0.000269884713728847,0.0009526243330138466,0.0,0.0,0.0,0.0,0.0,0.0,0.0,0.0001088940338445088,-0.00015833738263849179,0.0001464720718693316,0.00014853596559749604,1.4760594417830009e-05,-7.120768228396912e-07,-6.3538551331454585e-06,0.0007864194184469808,-0.0007312855398345169,-0.0007006592866375795,-8.28800542801124e-05,8.900593442717923e-05,0.000269884713728847,-0.0009526243330138466,0.2720577120780945,22.720483779907227,-0.001620553433895111,-14.254793167114258,-0.2310081124305725,-2.1389803886413574,0.28232139348983765,0
12,0.05496048927307129,-0.2720577120780945,-22.720483779907227,0.001620553433895111,14.254793167114258,0.2310081124305725,2.1389803886413574,-0.28232139348983765,0.0,0.0,0.0,0.0,0.0,0.0,0.0,-0.28180848994729185,0.10460171896820675,-0.05541968839694048,0.3772752793014567,-0.004213227048987531,-0.055115083488142466,-0.26172942684324074,1.6753884607203857,0.05226266420750852,0.029823033037415722,-2.7525433810915656,0.03423004339259697,2.766368666383955,0.7691694072021378,1.6754973547542302,0.052104326824870026,0.029969505109285054,-2.752394845125968,0.0342448039870148,2.7663679543071322,0.7691630533470046,-0.0007864194184469808,0.0007312855398345169,0.0007006592866375795,8.28800542801124e-05,-8.900593442717923e-05,-0.000269884713728847,0.0009526243330138466,0.0,0.0,0.0,0.0,0.0,0.0,0.0,0.0001088940338445088,-0.00015833738263849179,0.0001464720718693316,0.00014853596559749604,1.4760594417830009e-05,-7.120768228396912e-07,-6.3538551331454585e-06,0.0007864194184469808,-0.0007312855398345169,-0.0007006592866375795,-8.28800542801124e-05,8.900593442717923e-05,0.000269884713728847,-0.0009526243330138466,0.2720577120780945,22.720483779907227,-0.001620553433895111,-14.254793167114258,-0.2310081124305725,-2.1389803886413574,0.28232139348983765,0
13,0.0599517822265625,-0.2998287081718445,-22.720483779907227,0.02542426437139511,14.254793167114258,0.2310081124305725,2.1261630058288574,-0.28964561223983765,0.0,0.0,0.0,0.0,0.0,0.0,0.0,-0.2763015960257149,0.10336806621492883,-0.04641827166195591,0.37732384052632495,-0.004864196136073684,-0.054908619918396566,-0.2621553414573376,1.6753905613794748,0.05226155835170213,0.029821362601560458,-2.752543381406548,0.034230041931081125,2.766370094898252,0.769170221004221,1.6754973547542302,0.052104326824870026,0.029969505109285054,-2.752394845125968,0.0342448039870148,2.7663679543071322,0.7691630533470046,0.0008540190492474628,0.00045478847015615356,0.00016836682537715224,6.040764320888955e-06,-4.115244147256343e-05,0.00028544166705054034,0.0017654375343387975,0.0,0.0,0.0,0.0,0.0,0.0,0.0,0.0001067933747553873,-0.00015723152683210645,0.00014814250772459542,0.00014853628057975854,1.4762055933675855e-05,-2.1405911199146033e-06,-7.1676572164225405e-06,-0.0008540190492474628,-0.00045478847015615356,-0.00016836682537715224,-6.040764320888955e-06,4.115244147256343e-05,-0.00028544166705054034,-0.0017654375343387975,0.2998287081718445,22.720483779907227,-0.02542426437139511,-14.254793167114258,-0.2310081124305725,-2.1261630058288574,0.28964561223983765,0
14,0.06500673294067383,-0.2998287081718445,-22.720483779907227,0.02542426437139511,14.254793167114258,0.2310081124305725,2.1261630058288574,-0.28964561223983765,0.0,0.0,0.0,0.0,0.0,0.0,0.0,-0.2763015960257149,0.10336806621492883,-0.04641827166195591,0.37732384052632495,-0.004864196136073684,-0.054908619918396566,-0.2621553414573376,1.6753905613794748,0.05226155835170213,0.029821362601560458,-2.752543381406548,0.034230041931081125,2.766370094898252,0.769170221004221,1.6754973547542302,0.052104326824870026,0.029969505109285054,-2.752394845125968,0.0342448039870148,2.7663679543071322,0.7691630533470046,0.0008540190492474628,0.00045478847015615356,0.00016836682537715224,6.040764320888955e-06,-4.115244147256343e-05,0.00028544166705054034,0.0017654375343387975,0.0,0.0,0.0,0.0,0.0,0.0,0.0,0.0001067933747553873,-0.00015723152683210645,0.00014814250772459542,0.00014853628057975854,1.4762055933675855e-05,-2.1405911199146033e-06,-7.1676572164225405e-06,-0.0008540190492474628,-0.00045478847015615356,-0.00016836682537715224,-6.040764320888955e-06,4.115244147256343e-05,-0.00028544166705054034,-0.0017654375343387975,0.2998287081718445,22.720483779907227,-0.02542426437139511,-14.254793167114258,-0.2310081124305725,-2.1261630058288574,0.28964561223983765,0
15,0.06999874114990234,-0.2720577120780945,-22.696680068969727,0.04922797530889511,14.278596878051758,0.2245994210243225,2.1389803886413574,-0.22098104655742645,0.0,0.0,0.0,0.0,0.0,0.0,0.0,-0.2791773998153512,0.101110302863184,-0.05000763159680326,0.37861509789135084,-0.004314789379860902,-0.054840497413466305,-0.2605991873546246,1.6753914252066042,0.05225957222188377,0.029819692165705194,-2.752545040504713,0.03423075400789579,2.766368666383963,0.7691625916080341,1.6754973547542302,0.052104326824870026,0.029969505109285054,-2.752394845125968,0.0342448039870148,2.7663679543071322,0.7691630533470046,-0.00018595884909949054,-0.00015468046552338658,-0.0002676739402677515,-0.0006262556960599618,0.0002223538011108188,-0.0003538792804821007,-0.0018807523773983698,0.0,0.0,0.0,0.0,0.0,0.0,0.0,0.0001059295476260047,-0.00015524539701374657,0.00014981294357985925,0.0001501953787448329,1.404997911901018e-05,-7.12076830833297e-07,4.617389705030561e-07,0.00018595884909949054,0.00015468046552338658,0.0002676739402677515,0.0006262556960599618,-0.0002223538011108188,0.0003538792804821007,0.0018807523773983698,0.2720577120780945,22.696680068969727,-0.04922797530889511,-14.278596878051758,-0.2245994210243225,-2.1389803886413574,0.22098104655742645,0
16,0.07500123977661133,-0.2720577120780945,-22.696680068969727,0.04922797530889511,14.278596878051758,0.2245994210243225,2.1389803886413574,-0.22098104655742645,0.0,0.0,0.0,0.0,0.0,0.0,0.0,-0.2791773998153512,0.101110302863184,-0.05000763159680326,0.37861509789135084,-0.004314789379860902,-0.054840497413466305,-0.2605991873546246,1.6753914252066042,0.05225957222188377,0.029819692165705194,-2.752545040504713,0.03423075400789579,2.766368666383963,0.7691625916080341,1.6754973547542302,0.052104326824870026,0.029969505109285054,-2.752394845125968,0.0342448039870148,2.7663679543071322,0.7691630533470046,-0.00018595884909949054,-0.00015468046552338658,-0.0002676739402677515,-0.0006262556960599618,0.0002223538011108188,-0.0003538792804821007,-0.0018807523773983698,0.0,0.0,0.0,0.0,0.0,0.0,0.0,0.0001059295476260047,-0.00015524539701374657,0.00014981294357985925,0.0001501953787448329,1.404997911901018e-05,-7.12076830833297e-07,4.617389705030561e-07,0.00018595884909949054,0.00015468046552338658,0.0002676739402677515,0.0006262556960599618,-0.0002223538011108188,0.0003538792804821007,0.0018807523773983698,0.2720577120780945,22.696680068969727,-0.04922797530889511,-14.278596878051758,-0.2245994210243225,-2.1389803886413574,0.22098104655742645,0
17,0.07999730110168457,-0.2720577120780945,-22.696680068969727,0.001620553433895111,14.278596878051758,0.2245994210243225,2.1261630058288574,-0.23471395671367645,0.0,0.0,0.0,0.0,0.0,0.0,0.0,-0.278613188270328,0.10734880244120437,-0.05125961959127636,0.37607945124041137,-0.004154799986679647,-0.05581222599026118,-0.2608971069511429,1.675389146370706,0.05225886193527924,0.029823269662336532,-2.7525450253877266,0.03423075400789579,2.766370090537601,0.7691641160152207,1.6754973547542302,0.052104326824870026,0.029969505109285054,-2.752394845125968,0.0342448039870148,2.7663679543071322,0.7691630533470046,-0.0002062501345899122,0.0005383143315354818,0.0009481600163334617,-0.0005219958258874907,4.00106456139884e-05,2.748751463138518e-05,-0.0011298960748310559,0.0,0.0,0.0,0.0,0.0,0.0,0.0,0.00010820838352421092,-0.0001545351104092138,0.00014623544694852136,0.00015018026175850352,1.404997911901018e-05,-2.136230468963163e-06,-1.0626682160896905e-06,0.0002062501345899122,-0.0005383143315354818,-0.0009481600163334617,0.0005219958258874907,-4.00106456139884e-05,-2.748751463138518e-05,0.0011298960748310559,0.2720577120780945,22.696680068969727,-0.001620553433895111,-14.278596878051758,-0.2245994210243225,-2.1261630058288574,0.23471395671367645,0
18,0.08499646186828613,-0.2720577120780945,-22.696680068969727,0.001620553433895111,14.278596878051758,0.2245994210243225,2.1261630058288574,-0.23471395671367645,0.0,0.0,0.0,0.0,0.0,0.0,0.0,-0.278613188270328,0.10734880244120437,-0.05125961959127636,0.37607945124041137,-0.004154799986679647,-0.05581222599026118,-0.2608971069511429,1.675389146370706,0.05225886193527924,0.029823269662336532,-2.7525450253877266,0.03423075400789579,2.766370090537601,0.7691641160152207,1.6754973547542302,0.052104326824870026,0.029969505109285054,-2.752394845125968,0.0342448039870148,2.7663679543071322,0.7691630533470046,-0.0002062501345899122,0.0005383143315354818,0.0009481600163334617,-0.0005219958258874907,4.00106456139884e-05,2.748751463138518e-05,-0.0011298960748310559,0.0,0.0,0.0,0.0,0.0,0.0,0.0,0.00010820838352421092,-0.0001545351104092138,0.00014623544694852136,0.00015018026175850352,1.404997911901018e-05,-2.136230468963163e-06,-1.0626682160896905e-06,0.0002062501345899122,-0.0005383143315354818,-0.0009481600163334617,0.0005219958258874907,-4.00106456139884e-05,-2.748751463138518e-05,0.0011298960748310559,0.2720577120780945,22.696680068969727,-0.001620553433895111,-14.278596878051758,-0.2245994210243225,-2.1261630058288574,0.23471395671367645,0
19,0.0899970531463623,-0.2720577120780945,-22.672876358032227,0.04922797530889511,14.230989456176758,0.2310081124305725,2.1389803886413574,-0.23471395671367645,0.0,0.0,0.0,0.0,0.0,0.0,0.0,-0.2730369643646122,0.10318872988792398,-0.047641887418340224,0.3796265211579359,-0.0046362406207042335,-0.055631643101850384,-0.26080820814848127,1.6753913508740552,0.052257191495414385,0.02981969216704095,-2.7525417108655668,0.034230041931072874,2.766368666383955,0.769164117486932,1.6754973547542302,0.052104326824870026,0.029969505109285054,-2.752394845125968,0.0342448039870148,2.7663679543071322,0.7691630533470046,-0.00015526595647143807,-0.0004036932565223236,8.849235558843574e-05,0.000452001466477756,-0.00014519451205908352,-0.0003778590952534214,-0.0010232227417024944,0.0,0.0,0.0,0.0,0.0,0.0,0.0,0.00010600388017500961,-0.0001528646705443587,0.00014981294224410482,0.00014686573959865612,1.47620559419262e-05,-7.120768228396912e-07,-1.0641399273980667e-06,0.00015526595647143807,0.0004036932565223236,-8.849235558843574e-05,-0.000452001466477756,0.00014519451205908352,0.0003778590952534214,0.0010232227417024944,0.2720577120780945,22.672876358032227,-0.04922797530889511,-14.230989456176758,-0.2310081124305725,-2.1389803886413574,0.23471395671367645,0
20,0.09502410888671875,-0.2720577120780945,-22.672876358032227,0.04922797530889511,14.230989456176758,0.2310081124305725,2.1389803886413574,-0.23471395671367645,0.0,0.0,0.0,0.0,0.0,0.0,0.0,-0.2730369643646122,0.10318872988792398,-0.047641887418340224,0.3796265211579359,-0.0046362406207042335,-0.055631643101850384,-0.26080820814848127,1.6753913508740552,0.052257191495414385,0.02981969216704095,-2.7525417108655668,0.034230041931072874,2.766368666383955,0.769164117486932,1.6754973547542302,0.052104326824870026,0.029969505109285054,-2.752394845125968,0.0342448039870148,2.7663679543071322,0.7691630533470046,-0.00015526595647143807,-0.0004036932565223236,8.849235558843574e-05,0.000452001466477756,-0.00014519451205908352,-0.0003778590952534214,-0.0010232227417024944,0.0,0.0,0.0,0.0,0.0,0.0,0.0,0.00010600388017500961,-0.0001528646705443587,0.00014981294224410482,0.00014686573959865612,1.47620559419262e-05,-7.120768228396912e-07,-1.0641399273980667e-06,0.00015526595647143807,0.0004036932565223236,-8.849235558843574e-05,-0.000452001466477756,0.00014519451205908352,0.0003778590952534214,0.0010232227417024944,0.2720577120780945,22.672876358032227,-0.04922797530889511,-14.230989456176758,-0.2310081124305725,-2.1389803886413574,0.23471395671367645,0
21,0.10001039505004883,-0.2998287081718445,-22.672876358032227,0.04922797530889511,14.254793167114258,0.2245994210243225,2.1261630058288574,-0.26217979192733765,0.0,0.0,0.0,0.0,0.0,0.0,0.0,-0.27438857410834655,0.10654693705577407,-0.04772196700479762,0.3785438027780264,-0.004812078184893752,-0.055646227020865656,-0.2596404062640156,1.6753933173647406,0.05225719246974726,0.0298196921657052,-2.752543381406549,0.034233989767454294,2.766370090537601,0.7691671648312497,1.6754973547542302,0.052104326824870026,0.029969505109285054,-2.752394845125968,0.0342448039870148,2.7663679543071322,0.7691630533470046,0.0010111719725369795,-0.0002579760434514382,-0.00033193820784488013,-0.00022263268925374122,-1.1318972562741691e-05,0.00020319652874657156,0.0003013193074801639,0.0,0.0,0.0,0.0,0.0,0.0,0.0,0.0001040373894896085,-0.00015286564487723697,0.0001498129435798523,0.0001485362805810908,1.0814219560506544e-05,-2.136230468963163e-06,-4.111484245061803e-06,-0.0010111719725369795,0.0002579760434514382,0.00033193820784488013,0.00022263268925374122,1.1318972562741691e-05,-0.00020319652874657156,-0.0003013193074801639,0.2998287081718445,22.672876358032227,-0.04922797530889511,-14.254793167114258,-0.2245994210243225,-2.1261630058288574,0.26217979192733765,0
22,0.10503244400024414,-0.2998287081718445,-22.672876358032227,0.04922797530889511,14.254793167114258,0.2245994210243225,2.1261630058288574,-0.26217979192733765,0.0,0.0,0.0,0.0,0.0,0.0,0.0,-0.27438857410834655,0.10654693705577407,-0.04772196700479762,0.3785438027780264,-0.004812078184893752,-0.055646227020865656,-0.2596404062640156,1.6753933173647406,0.05225719246974726,0.0298196921657052,-2.752543381406549,0.034233989767454294,2.766370090537601,0.7691671648312497,1.6754973547542302,0.052104326824870026,0.029969505109285054,-2.752394845125968,0.0342448039870148,2.7663679543071322,0.7691630533470046,0.0010111719725369795,-0.0002579760434514382,-0.00033193820784488013,-0.00022263268925374122,-1.1318972562741691e-05,0.00020319652874657156,0.0003013193074801639,0.0,0.0,0.0,0.0,0.0,0.0,0.0,0.0001040373894896085,-0.00015286564487723697,0.0001498129435798523,0.0001485362805810908,1.0814219560506544e-05,-2.136230468963163e-06,-4.111484245061803e-06,-0.0010111719725369795,0.0002579760434514382,0.00033193820784488013,0.00022263268925374122,1.1318972562741691e-05,-0.00020319652874657156,-0.0003013193074801639,0.2998287081718445,22.672876358032227,-0.04922797530889511,-14.254793167114258,-0.2245994210243225,-2.1261630058288574,0.26217979192733765,0
23,0.11003994941711426,-0.2998287081718445,-22.672876358032227,0.04922797530889511,14.254793167114258,0.2245994210243225,2.1261630058288574,-0.26217979192733765,0.0,0.0,0.0,0.0,0.0,0.0,0.0,-0.27438857410834655,0.10654693705577407,-0.04772196700479762,0.3785438027780264,-0.004812078184893752,-0.055646227020865656,-0.2596404062640156,1.6753933173647406,0.05225719246974726,0.0298196921657052,-2.752543381406549,0.034233989767454294,2.766370090537601,0.7691671648312497,1.6754973547542302,0.052104326824870026,0.029969505109285054,-2.752394845125968,0.0342448039870148,2.7663679543071322,0.7691630533470046,0.0010111719725369795,-0.0002579760434514382,-0.00033193820784488013,-0.00022263268925374122,-1.1318972562741691e-05,0.00020319652874657156,0.0003013193074801639,0.0,0.0,0.0,0.0,0.0,0.0,0.0,0.0001040373894896085,-0.00015286564487723697,0.0001498129435798523,0.0001485362805810908,1.0814219560506544e-05,-2.136230468963163e-06,-4.111484245061803e-06,-0.0010111719725369795,0.0002579760434514382,0.00033193820784488013,0.00022263268925374122,1.1318972562741691e-05,-0.00020319652874657156,-0.0003013193074801639,0.2998287081718445,22.672876358032227,-0.04922797530889511,-14.254793167114258,-0.2245994210243225,-2.1261630058288574,0.26217979192733765,0
24,0.11529684066772461,-0.2998287081718445,-22.672876358032227,0.04922797530889511,14.254793167114258,0.2245994210243225,2.1261630058288574,-0.26217979192733765,0.0,0.0,0.0,0.0,0.0,0.0,0.0,-0.27438857410834655,0.10654693705577407,-0.04772196700479762,0.3785438027780264,-0.004812078184893752,-0.055646227020865656,-0.2596404062640156,1.6753933173647406,0.05225719246974726,0.0298196921657052,-2.752543381406549,0.034233989767454294,2.766370090537601,0.7691671648312497,1.6754973547542302,0.052104326824870026,0.029969505109285054,-2.752394845125968,0.0342448039870148,2.7663679543071322,0.7691630533470046,0.0010111719725369795,-0.0002579760434514382,-0.00033193820784488013,-0.00022263268925374122,-1.1318972562741691e-05,0.00020319652874657156,0.0003013193074801639,0.0,0.0,0.0,0.0,0.0,0.0,0.0,0.0001040373894896085,-0.00015286564487723697,0.0001498129435798523,0.0001485362805810908,1.0814219560506544e-05,-2.136230468963163e-06,-4.111484245061803e-06,-0.0010111719725369795,0.0002579760434514382,0.00033193820784488013,0.00022263268925374122,1.1318972562741691e-05,-0.00020319652874657156,-0.0003013193074801639,0.2998287081718445,22.672876358032227,-0.04922797530889511,-14.254793167114258,-0.2245994210243225,-2.1261630058288574,0.26217979192733765,0
25,0.11999988555908203,-0.2720577120780945,-22.649072647094727,0.001620553433895111,14.207185745239258,0.2191062569618225,2.1261630058288574,-0.28232139348983765,0.0,0.0,0.0,0.0,0.0,0.0,0.0,-0.2762615887663622,0.1023003228452289,-0.05096807202077563,0.37982132895562226,-0.0048067379986994835,-0.05484823168915377,-0.26021554242303124,1.6753913423833304,0.0522555210595646,0.029823033037415722,-2.7525400405348392,0.03423175898254845,2.766370090537601,0.7691693542202064,1.6754973547542302,0.052104326824870026,0.029969505109285054,-2.752394845125968,0.0342448039870148,2.7663679543071322,0.7691630533470046,9.880451513504906e-05,-0.0013785151566314481,0.0006772195983940753,0.0008180233799329039,0.0003393564604562398,9.178736191281145e-05,-0.00444488118801273,0.0,0.0,0.0,0.0,0.0,0.0,0.0,0.00010601237089979954,-0.0001511942346945766,0.0001464720718693316,0.00014519540887114601,1.3045004466347154e-05,-2.136230468963163e-06,-6.30087320174777e-06,-9.880451513504906e-05,0.0013785151566314481,-0.0006772195983940753,-0.0008180233799329039,-0.0003393564604562398,-9.178736191281145e-05,0.00444488118801273,0.2720577120780945,22.649072647094727,-0.001620553433895111,-14.207185745239258,-0.2191062569618225,-2.1261630058288574,0.28232139348983765,0
26,0.1250171661376953,-0.2720577120780945,-22.649072647094727,0.001620553433895111,14.207185745239258,0.2191062569618225,2.1261630058288574,-0.28232139348983765,0.0,0.0,0.0,0.0,0.0,0.0,0.0,-0.2762615887663622,0.1023003228452289,-0.05096807202077563,0.37982132895562226,-0.0048067379986994835,-0.05484823168915377,-0.26021554242303124,1.6753913423833304,0.0522555210595646,0.029823033037415722,-2.7525400405348392,0.03423175898254845,2.766370090537601,0.7691693542202064,1.6754973547542302,0.052104326824870026,0.029969505109285054,-2.752394845125968,0.0342448039870148,2.7663679543071322,0.7691630533470046,9.880451513504906e-05,-0.0013785151566314481,0.0006772195983940753,0.0008180233799329039,0.0003393564604562398,9.178736191281145e-05,-0.00444488118801273,0.0,0.0,0.0,0.0,0.0,0.0,0.0,0.00010601237089979954,-0.0001511942346945766,0.0001464720718693316,0.00014519540887114601,1.3045004466347154e-05,-2.136230468963163e-06,-6.30087320174777e-06,-9.880451513504906e-05,0.0013785151566314481,-0.0006772195983940753,-0.0008180233799329039,-0.0003393564604562398,-9.178736191281145e-05,0.00444488118801273,0.2720577120780945,22.649072647094727,-0.001620553433895111,-14.207185745239258,-0.2191062569618225,-2.1261630058288574,0.28232139348983765,0
27,0.12999868392944336,-0.24825400114059448,-22.720483779907227,0.001620553433895111,14.230989456176758,0.2245994210243225,2.1133456230163574,-0.24844686686992645,0.0,0.0,0.0,0.0,0.0,0.0,0.0,-0.272664828255674,0.10588673579663002,-0.04947887725871784,0.376050874057201,-0.005102414819056982,-0.0552593996704488,-0.2618040689425761,1.6753897579248247,0.0522605589988908,0.029823033037415722,-2.7525417109706947,0.034230754010123446,2.766371514691247,0.7691656433655475,1.6754973547542302,0.052104326824870026,0.029969505109285054,-2.752394845125968,0.0342448039870148,2.7663679543071322,0.7691630533470046,-0.0007076459180439862,0.00048711642289058085,0.0010173356696782407,-7.555119394116061e-05,3.536420876079026e-05,0.0007278098633906419,-0.00012053582246647315,0.0,0.0,0.0,0.0,0.0,0.0,0.0,0.00010759682940553184,-0.00015623217402077616,0.0001464720718693316,0.0001468658447265625,1.404997689135462e-05,-3.5603841146425452e-06,-2.590018542858452e-06,0.0007076459180439862,-0.00048711642289058085,-0.0010173356696782407,7.555119394116061e-05,-3.536420876079026e-05,-0.0007278098633906419,0.00012053582246647315,0.24825400114059448,22.720483779907227,-0.001620553433895111,-14.230989456176758,-0.2245994210243225,-2.1133456230163574,0.24844686686992645,0
28,0.13500308990478516,-0.24825400114059448,-22.720483779907227,0.001620553433895111,14.230989456176758,0.2245994210243225,2.1133456230163574,-0.24844686686992645,0.0,0.0,0.0,0.0,0.0,0.0,0.0,-0.272664828255674,0.10588673579663002,-0.04947887725871784,0.376050874057201,-0.005102414819056982,-0.0552593996704488,-0.2618040689425761,1.6753897579248247,0.0522605589988908,0.029823033037415722,-2.7525417109706947,0.034230754010123446,2.766371514691247,0.7691656433655475,1.6754973547542302,0.052104326824870026,0.029969505109285054,-2.752394845125968,0.0342448039870148,2.7663679543071322,0.7691630533470046,-0.0007076459180439862,0.00048711642289058085,0.0010173356696782407,-7.555119394116061e-05,3.536420876079026e-05,0.0007278098633906419,-0.00012053582246647315,0.0,0.0,0.0,0.0,0.0,0.0,0.0,0.00010759682940553184,-0.00015623217402077616,0.0001464720718693316,0.0001468658447265625,1.404997689135462e-05,-3.5603841146425452e-06,-2.590018542858452e-06,0.0007076459180439862,-0.00048711642289058085,-0.0010173356696782407,7.555119394116061e-05,-3.536420876079026e-05,-0.0007278098633906419,0.00012053582246647315,0.24825400114059448,22.720483779907227,-0.001620553433895111,-14.230989456176758,-0.2245994210243225,-2.1133456230163574,0.24844686686992645,0
29,0.14000201225280762,-0.2998287081718445,-22.720483779907227,0.04922797530889511,14.230989456176758,0.2245994210243225,2.1261630058288574,-0.26858848333358765,0.0,0.0,0.0,0.0,0.0,0.0,0.0,-0.2747554748370014,0.0975626941486961,-0.052588940093601835,0.38005613236062685,-0.004900062446270398,-0.05449378626167341,-0.26008441880016725,1.6753934027128035,0.05226053247553444,0.029819692165705194,-2.7525417109706947,0.034230754007895804,2.7663700905914363,0.7691678813232314,1.6754973547542302,0.052104326824870026,0.029969505109285054,-2.752394845125968,0.0342448039870148,2.7663679543071322,0.7691630533470046,0.0004894518730524615,0.00013830686897115134,-0.00046661460776560836,0.0003051567139241366,7.755539755242358e-05,0.00010856491299989719,0.0007230885795362342,0.0,0.0,0.0,0.0,0.0,0.0,0.0,0.00010395204142676917,-0.00015620565066441078,0.00014981294357985925,0.0001468658447265625,1.4049979118996303e-05,-2.136284304121716e-06,-4.827976226806641e-06,-0.0004894518730524615,-0.00013830686897115134,0.00046661460776560836,-0.0003051567139241366,-7.755539755242358e-05,-0.00010856491299989719,-0.0007230885795362342,0.2998287081718445,22.720483779907227,-0.04922797530889511,-14.230989456176758,-0.2245994210243225,-2.1261630058288574,0.26858848333358765,0
30,0.14500188827514648,-0.2998287081718445,-22.720483779907227,0.04922797530889511,14.230989456176758,0.2245994210243225,2.1261630058288574,-0.26858848333358765,0.0,0.0,0.0,0.0,0.0,0.0,0.0,-0.2747554748370014,0.0975626941486961,-0.052588940093601835,0.38005613236062685,-0.004900062446270398,-0.05449378626167341,-0.26008441880016725,1.6753934027128035,0.05226053247553444,0.029819692165705194,-2.7525417109706947,0.034230754007895804,2.7663700905914363,0.7691678813232314,1.6754973547542302,0.052104326824870026,0.029969505109285054,-2.752394845125968,0.0342448039870148,2.7663679543071322,0.7691630533470046,0.0004894518730524615,0.00013830686897115134,-0.00046661460776560836,0.0003051567139241366,7.755539755242358e-05,0.00010856491299989719,0.0007230885795362342,0.0,0.0,0.0,0.0,0.0,0.0,0.0,0.00010395204142676917,-0.00015620565066441078,0.00014981294357985925,0.0001468658447265625,1.4049979118996303e-05,-2.136284304121716e-06,-4.827976226806641e-06,-0.0004894518730524615,-0.00013830686897115134,0.00046661460776560836,-0.0003051567139241366,-7.755539755242358e-05,-0.00010856491299989719,-0.0007230885795362342,0.2998287081718445,22.720483779907227,-0.04922797530889511,-14.230989456176758,-0.2245994210243225,-2.1261630058288574,0.26858848333358765,0
31,0.15002202987670898,-0.2720577120780945,-22.720483779907227,0.02542426437139511,14.254793167114258,0.2245994210243225,2.1325716972351074,-0.29605430364608765,0.0,0.0,0.0,0.0,0.0,0.0,0.0,-0.2760859888049604,0.09890826671031136,-0.052306823030331,0.37781593656424983,-0.00510250678098007,-0.05539563847838017,-0.25979499950716767,1.6753911987030623,0.052260541136121594,0.029821362601560458,-2.752541315112197,0.03423110915223758,2.766369378460779,0.7691709329175196,1.6754973547542302,0.052104326824870026,0.029969505109285054,-2.752394845125968,0.0342448039870148,2.7663679543071322,0.7691630533470046,-0.00041613952709199065,0.0005227008004719558,0.0002636713575582707,-0.00011363559389393051,0.000187483373388167,-6.538337442061514e-05,0.0011912640499825416,0.0,0.0,0.0,0.0,0.0,0.0,0.0,0.00010615605116792715,-0.00015621431125156793,0.00014814250772459542,0.0001464699862290253,1.3694834777221165e-05,-1.4241536465675608e-06,-7.879570514957024e-06,0.00041613952709199065,-0.0005227008004719558,-0.0002636713575582707,0.00011363559389393051,-0.000187483373388167,6.538337442061514e-05,-0.0011912640499825416,0.2720577120780945,22.720483779907227,-0.02542426437139511,-14.254793167114258,-0.2245994210243225,-2.1325716972351074,0.29605430364608765,0
32,0.1550130844116211,-0.2720577120780945,-22.720483779907227,0.02542426437139511,14.254793167114258,0.2245994210243225,2.1325716972351074,-0.29605430364608765,0.0,0.0,0.0,0.0,0.0,0.0,0.0,-0.2760859888049604,0.09890826671031136,-0.052306823030331,0.37781593656424983,-0.00510250678098007,-0.05539563847838017,-0.25979499950716767,1.6753911987030623,0.052260541136121594,0.029821362601560458,-2.752541315112197,0.03423110915223758,2.766369378460779,0.7691709329175196,1.6754973547542302,0.052104326824870026,0.029969505109285054,-2.752394845125968,0.0342448039870148,2.7663679543071322,0.7691630533470046,-0.00041613952709199065,0.0005227008004719558,0.0002636713575582707,-0.00011363559389393051,0.000187483373388167,-6.538337442061514e-05,0.0011912640499825416,0.0,0.0,0.0,0.0,0.0,0.0,0.0,0.00010615605116792715,-0.00015621431125156793,0.00014814250772459542,0.0001464699862290253,1.3694834777221165e-05,-1.4241536465675608e-06,-7.879570514957024e-06,0.00041613952709199065,-0.0005227008004719558,-0.0002636713575582707,0.00011363559389393051,-0.000187483373388167,6.538337442061514e-05,-0.0011912640499825416,0.2720577120780945,22.720483779907227,-0.02542426437139511,-14.254793167114258,-0.2245994210243225,-2.1325716972351074,0.29605430364608765,0
33,0.1600484848022461,-0.2720577120780945,-22.672876358032227,0.04922797530889511,14.254793167114258,0.2245994210243225,2.1325716972351074,-0.29605430364608765,0.0,0.0,0.0,0.0,0.0,0.0,0.0,-0.2756439799497503,0.10353877800192353,-0.05074746904428217,0.37358527441173656,-0.005371087103412175,-0.05569268369050946,-0.2618619967855981,1.6753890462198153,0.052257191495463866,0.029819692165705194,-2.752543381394885,0.03423075417228941,2.7663693784607783,0.7691709330810431,1.6754973547542302,0.052104326824870026,0.029969505109285054,-2.752394845125968,0.0342448039870148,2.7663679543071322,0.7691630533470046,-0.00013880174113502485,-0.0004140672265650429,-0.0005581201445256564,-0.0005705917047107028,-0.00010355506046443181,4.4296837544167156e-05,0.0015208612104047135,0.0,0.0,0.0,0.0,0.0,0.0,0.0,0.00010830853441490262,-0.00015286467059383996,0.00014981294357985925,0.0001485362689170877,1.4049814725393406e-05,-1.4241536461234716e-06,-7.879734038485076e-06,0.00013880174113502485,0.0004140672265650429,0.0005581201445256564,0.0005705917047107028,0.00010355506046443181,-4.4296837544167156e-05,-0.0015208612104047135,0.2720577120780945,22.672876358032227,-0.04922797530889511,-14.254793167114258,-0.2245994210243225,-2.1325716972351074,0.29605430364608765,0
34,0.16506409645080566,-0.2720577120780945,-22.672876358032227,0.04922797530889511,14.254793167114258,0.2245994210243225,2.1325716972351074,-0.29605430364608765,0.0,0.0,0.0,0.0,0.0,0.0,0.0,-0.2756439799497503,0.10353877800192353,-0.05074746904428217,0.37358527441173656,-0.005371087103412175,-0.05569268369050946,-0.2618619967855981,1.6753890462198153,0.052257191495463866,0.029819692165705194,-2.752543381394885,0.03423075417228941,2.7663693784607783,0.7691709330810431,1.6754973547542302,0.052104326824870026,0.029969505109285054,-2.752394845125968,0.0342448039870148,2.7663679543071322,0.7691630533470046,-0.00013880174113502485,-0.0004140672265650429,-0.0005581201445256564,-0.0005705917047107028,-0.00010355506046443181,4.4296837544167156e-05,0.0015208612104047135,0.0,0.0,0.0,0.0,0.0,0.0,0.0,0.00010830853441490262,-0.00015286467059383996,0.00014981294357985925,0.0001485362689170877,1.4049814725393406e-05,-1.4241536461234716e-06,-7.879734038485076e-06,0.00013880174113502485,0.0004140672265650429,0.0005581201445256564,0.0005705917047107028,0.00010355506046443181,-4.4296837544167156e-05,-0.0015208612104047135,0.2720577120780945,22.672876358032227,-0.04922797530889511,-14.254793167114258,-0.2245994210243225,-2.1325716972351074,0.29605430364608765,0
35,0.17005395889282227,-0.22445029020309448,-22.696680068969727,0.001620553433895111,14.254793167114258,0.2310081124305725,2.1389803886413574,-0.27591270208358765,0.0,0.0,0.0,0.0,0.0,0.0,0.0,-0.2790218537149246,0.10210814348659357,-0.05383879561172057,0.3795363586125077,-0.005642334036337603,-0.05403206773939201,-0.2625960213459659,1.6753873381735473,0.052259098694164154,0.029823033037415722,-2.7525433038973284,0.034230041931073804,2.766368666383955,0.7691686951253148,1.6754973547542302,0.052104326824870026,0.029969505109285054,-2.752394845125968,0.0342448039870148,2.7663679543071322,0.7691630533470046,-0.0017468821791811035,0.0006779580121846178,0.0009015577444431276,0.0001316846166644597,-0.0004236360857836166,-0.00021886271112345472,0.00046972688260376135,0.0,0.0,0.0,0.0,0.0,0.0,0.0,0.00011001658068288123,-0.00015477186929412773,0.0001464720718693316,0.0001484587713602714,1.4762055940996388e-05,-7.120768228396912e-07,-5.641778310194745e-06,0.0017468821791811035,-0.0006779580121846178,-0.0009015577444431276,-0.0001316846166644597,0.0004236360857836166,0.00021886271112345472,-0.00046972688260376135,0.22445029020309448,22.696680068969727,-0.001620553433895111,-14.254793167114258,-0.2310081124305725,-2.1389803886413574,0.27591270208358765,0
36,0.17501592636108398,-0.22445029020309448,-22.696680068969727,0.001620553433895111,14.254793167114258,0.2310081124305725,2.1389803886413574,-0.27591270208358765,0.0,0.0,0.0,0.0,0.0,0.0,0.0,-0.2790218537149246,0.10210814348659357,-0.05383879561172057,0.3795363586125077,-0.005642334036337603,-0.05403206773939201,-0.2625960213459659,1.6753873381735473,0.052259098694164154,0.029823033037415722,-2.7525433038973284,0.034230041931073804,2.766368666383955,0.7691686951253148,1.6754973547542302,0.052104326824870026,0.029969505109285054,-2.752394845125968,0.0342448039870148,2.7663679543071322,0.7691630533470046,-0.0017468821791811035,0.0006779580121846178,0.0009015577444431276,0.0001316846166644597,-0.0004236360857836166,-0.00021886271112345472,0.00046972688260376135,0.0,0.0,0.0,0.0,0.0,0.0,0.0,0.00011001658068288123,-0.00015477186929412773,0.0001464720718693316,0.0001484587713602714,1.4762055940996388e-05,-7.120768228396912e-07,-5.641778310194745e-06,0.0017468821791811035,-0.0006779580121846178,-0.0009015577444431276,-0.0001316846166644597,0.0004236360857836166,0.00021886271112345472,-0.00046972688260376135,0.22445029020309448,22.696680068969727,-0.001620553433895111,-14.254793167114258,-0.2310081124305725,-2.1389803886413574,0.27591270208358765,0
37,0.1800684928894043,-0.2720577120780945,-22.720483779907227,0.04922797530889511,14.207185745239258,0.2245994210243225,2.1389803886413574,-0.26858848333358765,0.0,0.0,0.0,0.0,0.0,0.0,0.0,-0.27921583531673416,0.10895344734738403,-0.05148504519144874,0.37516967684359154,-0.0062148837106437175,-0.05427853828228327,-0.26355237460522085,1.6753907536592876,0.052260532368461426,0.029819692165705194,-2.752540040534402,0.03423183259441529,2.766368666383955,0.7691678813232314,1.6754973547542302,0.052104326824870026,0.029969505109285054,-2.752394845125968,0.0342448039870148,2.7663679543071322,0.7691630533470046,-0.0004883877534061201,0.0010337848174769297,-5.23534580874588e-05,0.0007477102078703733,-4.206376065286091e-05,-0.00040313303078378884,0.000595203201712944,0.0,0.0,0.0,0.0,0.0,0.0,0.0,0.0001066010949426488,-0.0001562055435914006,0.00014981294357985925,0.00014519540843371814,1.2971392599508969e-05,-7.120768228396912e-07,-4.827976226806641e-06,0.0004883877534061201,-0.0010337848174769297,5.23534580874588e-05,-0.0007477102078703733,4.206376065286091e-05,0.00040313303078378884,-0.000595203201712944,0.2720577120780945,22.720483779907227,-0.04922797530889511,-14.207185745239258,-0.2245994210243225,-2.1389803886413574,0.26858848333358765,0
38,0.1850278377532959,-0.2720577120780945,-22.720483779907227,0.04922797530889511,14.207185745239258,0.2245994210243225,2.1389803886413574,-0.26858848333358765,0.0,0.0,0.0,0.0,0.0,0.0,0.0,-0.27921583531673416,0.10895344734738403,-0.05148504519144874,0.37516967684359154,-0.0062148837106437175,-0.05427853828228327,-0.26355237460522085,1.6753907536592876,0.052260532368461426,0.029819692165705194,-2.752540040534402,0.03423183259441529,2.766368666383955,0.7691678813232314,1.6754973547542302,0.052104326824870026,0.029969505109285054,-2.752394845125968,0.0342448039870148,2.7663679543071322,0.7691630533470046,-0.0004883877534061201,0.0010337848174769297,-5.23534580874588e-05,0.0007477102078703733,-4.206376065286091e-05,-0.00040313303078378884,0.000595203201712944,0.0,0.0,0.0,0.0,0.0,0.0,0.0,0.0001066010949426488,-0.0001562055435914006,0.00014981294357985925,0.00014519540843371814,1.2971392599508969e-05,-7.120768228396912e-07,-4.827976226806641e-06,0.0004883877534061201,-0.0010337848174769297,5.23534580874588e-05,-0.0007477102078703733,4.206376065286091e-05,0.00040313303078378884,-0.000595203201712944,0.2720577120780945,22.720483779907227,-0.04922797530889511,-14.207185745239258,-0.2245994210243225,-2.1389803886413574,0.26858848333358765,0
39,0.1900184154510498,-0.2720577120780945,-22.696680068969727,0.07303168624639511,14.254793167114258,0.2191062569618225,2.1261630058288574,-0.26858848333358765,0.0,0.0,0.0,0.0,0.0,0.0,0.0,-0.2766093239874521,0.11034881190636296,-0.04783667758694407,0.37326143182414323,-0.006587814078269926,-0.0553879352687988,-0.2635149132061561,1.6753911861016741,0.05225886225604727,0.029818021729849934,-2.7525433814065496,0.03423136436554694,2.766370090537601,0.769167881159707,1.6754973547542302,0.052104326824870026,0.029969505109285054,-2.752394845125968,0.0342448039870148,2.7663679543071322,0.7691630533470046,0.0004297493981049075,0.00013219862223186706,-0.000793818769671768,-0.0003587069445588597,0.00030207897681260493,0.005393521627818122,0.0004134045972807991,0.0,0.0,0.0,0.0,0.0,0.0,0.0,0.00010616865255608232,-0.000154535431177244,0.0001514833794351196,0.0001485362805815349,1.3439621467860319e-05,-2.136230468963163e-06,-4.8278127023904105e-06,-0.0004297493981049075,-0.00013219862223186706,0.000793818769671768,0.0003587069445588597,-0.00030207897681260493,-0.005393521627818122,-0.0004134045972807991,0.2720577120780945,22.696680068969727,-0.07303168624639511,-14.254793167114258,-0.2191062569618225,-2.1261630058288574,0.26858848333358765,0
40,0.19500160217285156,-0.2720577120780945,-22.696680068969727,0.07303168624639511,14.254793167114258,0.2191062569618225,2.1261630058288574,-0.26858848333358765,0.0,0.0,0.0,0.0,0.0,0.0,0.0,-0.2766093239874521,0.11034881190636296,-0.04783667758694407,0.37326143182414323,-0.006587814078269926,-0.0553879352687988,-0.2635149132061561,1.6753911861016741,0.05225886225604727,0.029818021729849934,-2.7525433814065496,0.03423136436554694,2.766370090537601,0.769167881159707,1.6754973547542302,0.052104326824870026,0.029969505109285054,-2.752394845125968,0.0342448039870148,2.7663679543071322,0.7691630533470046,0.0004297493981049075,0.00013219862223186706,-0.000793818769671768,-0.0003587069445588597,0.00030207897681260493,0.005393521627818122,0.0004134045972807991,0.0,0.0,0.0,0.0,0.0,0.0,0.0,0.00010616865255608232,-0.000154535431177244,0.0001514833794351196,0.0001485362805815349,1.3439621467860319e-05,-2.136230468963163e-06,-4.8278127023904105e-06,-0.0004297493981049075,-0.00013219862223186706,0.000793818769671768,0.0003587069445588597,-0.00030207897681260493,-0.005393521627818122,-0.0004134045972807991,0.2720577120780945,22.696680068969727,-0.07303168624639511,-14.254793167114258,-0.2191062569618225,-2.1261630058288574,0.26858848333358765,0
41,0.20002388954162598,-0.3236324191093445,-22.696680068969727,0.02542426437139511,14.207185745239258,0.2191062569618225,2.1261630058288574,-0.28964561223983765,0.0,0.0,0.0,0.0,0.0,0.0,0.0,-0.2756154031724458,0.1099318083886553,-0.04825520231647549,0.371909699282766,-0.006483341966077686,-0.0556402109584795,-0.2641477290866613,1.6753940524400825,0.05225886193127146,0.029821362601560458,-2.7525400405348392,0.034231364359458324,2.766370090537601,0.7691698633763515,1.6754973547542302,0.052104326824870026,0.029969505109285054,-2.752394845125968,0.0342448039870148,2.7663679543071322,0.7691630533470046,0.0015492494997374118,-0.00012873296260323006,0.0004893404433600884,0.0007977134897328283,0.00020384540016984322,0.0005982642506066936,0.0010068973886814985,0.0,0.0,0.0,0.0,0.0,0.0,0.0,0.00010330231414767965,-0.00015453510640143359,0.00014814250772459542,0.00014519540887114601,1.3439627556476041e-05,-2.136230468963163e-06,-6.810029346882018e-06,-0.0015492494997374118,0.00012873296260323006,-0.0004893404433600884,-0.0007977134897328283,-0.00020384540016984322,-0.0005982642506066936,-0.0010068973886814985,0.3236324191093445,22.696680068969727,-0.02542426437139511,-14.207185745239258,-0.2191062569618225,-2.1261630058288574,0.28964561223983765,0
42,0.205047607421875,-0.3236324191093445,-22.696680068969727,0.02542426437139511,14.207185745239258,0.2191062569618225,2.1261630058288574,-0.28964561223983765,0.0,0.0,0.0,0.0,0.0,0.0,0.0,-0.2756154031724458,0.1099318083886553,-0.04825520231647549,0.371909699282766,-0.006483341966077686,-0.0556402109584795,-0.2641477290866613,1.6753940524400825,0.05225886193127146,0.029821362601560458,-2.7525400405348392,0.034231364359458324,2.766370090537601,0.7691698633763515,1.6754973547542302,0.052104326824870026,0.029969505109285054,-2.752394845125968,0.0342448039870148,2.7663679543071322,0.7691630533470046,0.0015492494997374118,-0.00012873296260323006,0.0004893404433600884,0.0007977134897328283,0.00020384540016984322,0.0005982642506066936,0.0010068973886814985,0.0,0.0,0.0,0.0,0.0,0.0,0.0,0.00010330231414767965,-0.00015453510640143359,0.00014814250772459542,0.00014519540887114601,1.3439627556476041e-05,-2.136230468963163e-06,-6.810029346882018e-06,-0.0015492494997374118,0.00012873296260323006,-0.0004893404433600884,-0.0007977134897328283,-0.00020384540016984322,-0.0005982642506066936,-0.0010068973886814985,0.3236324191093445,22.696680068969727,-0.02542426437139511,-14.207185745239258,-0.2191062569618225,-2.1261630058288574,0.28964561223983765,0
43,0.21003222465515137,-0.24825400114059448,-22.748254776000977,0.02542426437139511,14.230989456176758,0.2245994210243225,2.1325716972351074,-0.30337852239608765,0.0,0.0,0.0,0.0,0.0,0.0,0.0,-0.27594052355122267,0.09583338761085139,-0.0472074516998678,0.3819034538534322,-0.006958229371387753,-0.052877440761262176,-0.2658092407105803,1.6753867704728647,0.052262489977952124,0.029821362601560458,-2.7525417109706947,0.03423075400789579,2.7663693784607783,0.7691717468811085,1.6754973547542302,0.052104326824870026,0.029969505109285054,-2.752394845125968,0.0342448039870148,2.7663679543071322,0.7691630533470046,-0.0005974403722978411,0.0005293591005354631,0.0002994571693025322,0.0003709346824897532,0.00010320505350879685,-0.00012107577259936478,0.002408945888888163,0.0,0.0,0.0,0.0,0.0,0.0,0.0,0.00011058428136556664,-0.00015816315308209844,0.00014814250772459542,0.0001468658447265625,1.404997911901018e-05,-1.4241536461234716e-06,-8.693534103820788e-06,0.0005974403722978411,-0.0005293591005354631,-0.0002994571693025322,-0.0003709346824897532,-0.00010320505350879685,0.00012107577259936478,-0.002408945888888163,0.24825400114059448,22.748254776000977,-0.02542426437139511,-14.230989456176758,-0.2245994210243225,-2.1325716972351074,0.30337852239608765,0
44,0.21506261825561523,-0.24825400114059448,-22.748254776000977,0.02542426437139511,14.230989456176758,0.2245994210243225,2.1325716972351074,-0.30337852239608765,0.0,0.0,0.0,0.0,0.0,0.0,0.0,-0.27594052355122267,0.09583338761085139,-0.0472074516998678,0.3819034538534322,-0.006958229371387753,-0.052877440761262176,-0.2658092407105803,1.6753867704728647,0.052262489977952124,0.029821362601560458,-2.7525417109706947,0.03423075400789579,2.7663693784607783,0.7691717468811085,1.6754973547542302,0.052104326824870026,0.029969505109285054,-2.752394845125968,0.0342448039870148,2.7663679543071322,0.7691630533470046,-0.0005974403722978411,0.0005293591005354631,0.0002994571693025322,0.0003709346824897532,0.00010320505350879685,-0.00012107577259936478,0.002408945888888163,0.0,0.0,0.0,0.0,0.0,0.0,0.0,0.00011058428136556664,-0.00015816315308209844,0.00014814250772459542,0.0001468658447265625,1.404997911901018e-05,-1.4241536461234716e-06,-8.693534103820788e-06,0.0005974403722978411,-0.0005293591005354631,-0.0002994571693025322,-0.0003709346824897532,-0.00010320505350879685,0.00012107577259936478,-0.002408945888888163,0.24825400114059448,22.748254776000977,-0.02542426437139511,-14.230989456176758,-0.2245994210243225,-2.1325716972351074,0.30337852239608765,0
45,0.22004079818725586,-0.2720577120780945,-22.720483779907227,0.02542426437139511,14.230989456176758,0.2245994210243225,2.1325716972351074,-0.26217979192733765,0.0,0.0,0.0,0.0,0.0,0.0,0.0,-0.2750607001599826,0.09941050384316612,-0.049995690040303714,0.3779524873690972,-0.006145360288851153,-0.05353080422247067,-0.26575894479992607,1.675391444441024,0.052260532367174393,0.029821362601560458,-2.7525417109706947,0.03423075400789579,2.7663693784607783,0.7691671295099788,1.6754973547542302,0.052104326824870026,0.029969505109285054,-2.752394845125968,0.0342448039870148,2.7663679543071322,0.7691630533470046,3.0057244379896928e-05,0.000585198451690172,0.00017650570804284466,0.00025932294857483547,0.00013640476831419538,-6.948586219013797e-05,-0.006421100283571555,0.0,0.0,0.0,0.0,0.0,0.0,0.0,0.00010591031320617006,-0.00015620554230436762,0.00014814250772459542,0.0001468658447265625,1.404997911901018e-05,-1.4241536461234716e-06,-4.0761629741536964e-06,-3.0057244379896928e-05,-0.000585198451690172,-0.00017650570804284466,-0.00025932294857483547,-0.00013640476831419538,6.948586219013797e-05,0.006421100283571555,0.2720577120780945,22.720483779907227,-0.02542426437139511,-14.230989456176758,-0.2245994210243225,-2.1325716972351074,0.26217979192733765,0
46,0.2256326675415039,-0.2720577120780945,-22.720483779907227,0.02542426437139511,14.230989456176758,0.2245994210243225,2.1325716972351074,-0.26217979192733765,0.0,0.0,0.0,0.0,0.0,0.0,0.0,-0.2750607001599826,0.09941050384316612,-0.049995690040303714,0.3779524873690972,-0.006145360288851153,-0.05353080422247067,-0.26575894479992607,1.675391444441024,0.052260532367174393,0.029821362601560458,-2.7525417109706947,0.03423075400789579,2.7663693784607783,0.7691671295099788,1.6754973547542302,0.052104326824870026,0.029969505109285054,-2.752394845125968,0.0342448039870148,2.7663679543071322,0.7691630533470046,3.0057244379896928e-05,0.000585198451690172,0.00017650570804284466,0.00025932294857483547,0.00013640476831419538,-6.948586219013797e-05,-0.006421100283571555,0.0,0.0,0.0,0.0,0.0,0.0,0.0,0.00010591031320617006,-0.00015620554230436762,0.00014814250772459542,0.0001468658447265625,1.404997911901018e-05,-1.4241536461234716e-06,-4.0761629741536964e-06,-3.0057244379896928e-05,-0.000585198451690172,-0.00017650570804284466,-0.00025932294857483547,-0.00013640476831419538,6.948586219013797e-05,0.006421100283571555,0.2720577120780945,22.720483779907227,-0.02542426437139511,-14.230989456176758,-0.2245994210243225,-2.1325716972351074,0.26217979192733765,0
47,0.23000144958496094,-0.2720577120780945,-22.720483779907227,0.02542426437139511,14.230989456176758,0.2245994210243225,2.1325716972351074,-0.26217979192733765,0.0,0.0,0.0,0.0,0.0,0.0,0.0,-0.2750607001599826,0.09941050384316612,-0.049995690040303714,0.3779524873690972,-0.006145360288851153,-0.05353080422247067,-0.26575894479992607,1.675391444441024,0.052260532367174393,0.029821362601560458,-2.7525417109706947,0.03423075400789579,2.7663693784607783,0.7691671295099788,1.6754973547542302,0.052104326824870026,0.029969505109285054,-2.752394845125968,0.0342448039870148,2.7663679543071322,0.7691630533470046,3.0057244379896928e-05,0.000585198451690172,0.00017650570804284466,0.00025932294857483547,0.00013640476831419538,-6.948586219013797e-05,-0.006421100283571555,0.0,0.0,0.0,0.0,0.0,0.0,0.0,0.00010591031320617006,-0.00015620554230436762,0.00014814250772459542,0.0001468658447265625,1.404997911901018e-05,-1.4241536461234716e-06,-4.0761629741536964e-06,-3.0057244379896928e-05,-0.000585198451690172,-0.00017650570804284466,-0.00025932294857483547,-0.00013640476831419538,6.948586219013797e-05,0.006421100283571555,0.2720577120780945,22.720483779907227,-0.02542426437139511,-14.230989456176758,-0.2245994210243225,-2.1325716972351074,0.26217979192733765,0
48,0.23500323295593262,-0.2720577120780945,-22.720483779907227,0.02542426437139511,14.230989456176758,0.2245994210243225,2.1325716972351074,-0.26217979192733765,0.0,0.0,0.0,0.0,0.0,0.0,0.0,-0.2750607001599826,0.09941050384316612,-0.049995690040303714,0.3779524873690972,-0.006145360288851153,-0.05353080422247067,-0.26575894479992607,1.675391444441024,0.052260532367174393,0.029821362601560458,-2.7525417109706947,0.03423075400789579,2.7663693784607783,0.7691671295099788,1.6754973547542302,0.052104326824870026,0.029969505109285054,-2.752394845125968,0.0342448039870148,2.7663679543071322,0.7691630533470046,3.0057244379896928e-05,0.000585198451690172,0.00017650570804284466,0.00025932294857483547,0.00013640476831419538,-6.948586219013797e-05,-0.006421100283571555,0.0,0.0,0.0,0.0,0.0,0.0,0.0,0.00010591031320617006,-0.00015620554230436762,0.00014814250772459542,0.0001468658447265625,1.404997911901018e-05,-1.4241536461234716e-06,-4.0761629741536964e-06,-3.0057244379896928e-05,-0.000585198451690172,-0.00017650570804284466,-0.00025932294857483547,-0.00013640476831419538,6.948586219013797e-05,0.006421100283571555,0.2720577120780945,22.720483779907227,-0.02542426437139511,-14.230989456176758,-0.2245994210243225,-2.1325716972351074,0.26217979192733765,0
49,0.23999786376953125,-0.2720577120780945,-22.720483779907227,0.02542426437139511,14.230989456176758,0.2245994210243225,2.1325716972351074,-0.26217979192733765,0.0,0.0,0.0,0.0,0.0,0.0,0.0,-0.2750607001599826,0.09941050384316612,-0.049995690040303714,0.3779524873690972,-0.006145360288851153,-0.05353080422247067,-0.26575894479992607,1.675391444441024,0.052260532367174393,0.029821362601560458,-2.7525417109706947,0.03423075400789579,2.7663693784607783,0.7691671295099788,1.6754973547542302,0.052104326824870026,0.029969505109285054,-2.752394845125968,0.0342448039870148,2.7663679543071322,0.7691630533470046,3.0057244379896928e-05,0.000585198451690172,0.00017650570804284466,0.00025932294857483547,0.00013640476831419538,-6.948586219013797e-05,-0.006421100283571555,0.0,0.0,0.0,0.0,0.0,0.0,0.0,0.00010591031320617006,-0.00015620554230436762,0.00014814250772459542,0.0001468658447265625,1.404997911901018e-05,-1.4241536461234716e-06,-4.0761629741536964e-06,-3.0057244379896928e-05,-0.000585198451690172,-0.00017650570804284466,-0.00025932294857483547,-0.00013640476831419538,6.948586219013797e-05,0.006421100283571555,0.2720577120780945,22.720483779907227,-0.02542426437139511,-14.230989456176758,-0.2245994210243225,-2.1325716972351074,0.26217979192733765,0
50,0.24502325057983398,-0.2998287081718445,-22.672876358032227,0.02542426437139511,14.230989456176758,0.2365012764930725,2.1261630058288574,-0.28964561223983765,0.0,0.0,0.0,0.0,0.0,0.0,0.0,-0.277040203554033,0.10154687903455674,-0.053765415689195226,0.3796747381220811,-0.005279604237665574,-0.05379029522593395,-0.2632764423030256,1.6753933233840437,0.05225790470709663,0.029821362601560458,-2.7525417109706947,0.03422943304100972,2.766370090537601,0.7691702209494886,1.6754973547542302,0.052104326824870026,0.029969505109285054,-2.752394845125968,0.0342448039870148,2.7663679543071322,0.7691630533470046,0.00043240505167342744,5.133006080280876e-05,-0.00016291244404955583,0.0008100071396287424,-0.0001809941008304122,0.00016494891825859223,0.0004594257734812927,0.0,0.0,0.0,0.0,0.0,0.0,0.0,0.00010403137018655251,-0.00015357788222660623,0.00014814250772459542,0.0001468658447265625,1.5370946005080488e-05,-2.136230468963163e-06,-7.167602483981739e-06,-0.00043240505167342744,-5.133006080280876e-05,0.00016291244404955583,-0.0008100071396287424,0.0001809941008304122,-0.00016494891825859223,-0.0004594257734812927,0.2998287081718445,22.672876358032227,-0.02542426437139511,-14.230989456176758,-0.2365012764930725,-2.1261630058288574,0.28964561223983765,0
51,0.2500460147857666,-0.2998287081718445,-22.672876358032227,0.02542426437139511,14.230989456176758,0.2365012764930725,2.1261630058288574,-0.28964561223983765,0.0,0.0,0.0,0.0,0.0,0.0,0.0,-0.277040203554033,0.10154687903455674,-0.053765415689195226,0.3796747381220811,-0.005279604237665574,-0.05379029522593395,-0.2632764423030256,1.6753933233840437,0.05225790470709663,0.029821362601560458,-2.7525417109706947,0.03422943304100972,2.766370090537601,0.7691702209494886,1.6754973547542302,0.052104326824870026,0.029969505109285054,-2.752394845125968,0.0342448039870148,2.7663679543071322,0.7691630533470046,0.00043240505167342744,5.133006080280876e-05,-0.00016291244404955583,0.0008100071396287424,-0.0001809941008304122,0.00016494891825859223,0.0004594257734812927,0.0,0.0,0.0,0.0,0.0,0.0,0.0,0.00010403137018655251,-0.00015357788222660623,0.00014814250772459542,0.0001468658447265625,1.5370946005080488e-05,-2.136230468963163e-06,-7.167602483981739e-06,-0.00043240505167342744,-5.133006080280876e-05,0.00016291244404955583,-0.0008100071396287424,0.0001809941008304122,-0.00016494891825859223,-0.0004594257734812927,0.2998287081718445,22.672876358032227,-0.02542426437139511,-14.230989456176758,-0.2365012764930725,-2.1261630058288574,0.28964561223983765,0
52,0.2550501823425293,-0.3236324191093445,-22.672876358032227,0.001620553433895111,14.254793167114258,0.2245994210243225,2.1325716972351074,-0.30337852239608765,0.0,0.0,0.0,0.0,0.0,0.0,0.0,-0.27508024997368563,0.10316362630989614,-0.05173511992218774,0.3789809869220517,-0.005078215378781481,-0.05441505471159149,-0.2642914965590659,1.6753950476735409,0.05225932236549118,0.029823033037415722,-2.752543372903281,0.03423110931463464,2.7663693784607783,0.769171746883127,1.6754973547542302,0.052104326824870026,0.029969505109285054,-2.752394845125968,0.0342448039870148,2.7663679543071322,0.7691630533470046,0.0011674481511584859,-0.00012316142074068163,0.0008959804351480895,-0.0004407697074456945,-0.00017448109505723976,2.4554451932050196e-05,0.0017830031412483615,0.0,0.0,0.0,0.0,0.0,0.0,0.0,0.00010230708068936778,-0.000154995540621157,0.0001464720718693316,0.0001485277773127791,1.3694672380160089e-05,-1.4241536461234716e-06,-8.693536122317269e-06,-0.0011674481511584859,0.00012316142074068163,-0.0008959804351480895,0.0004407697074456945,0.00017448109505723976,-2.4554451932050196e-05,-0.0017830031412483615,0.3236324191093445,22.672876358032227,-0.001620553433895111,-14.254793167114258,-0.2245994210243225,-2.1325716972351074,0.30337852239608765,0
53,0.260051965713501,-0.3236324191093445,-22.672876358032227,0.001620553433895111,14.254793167114258,0.2245994210243225,2.1325716972351074,-0.30337852239608765,0.0,0.0,0.0,0.0,0.0,0.0,0.0,-0.27508024997368563,0.10316362630989614,-0.05173511992218774,0.3789809869220517,-0.005078215378781481,-0.05441505471159149,-0.2642914965590659,1.6753950476735409,0.05225932236549118,0.029823033037415722,-2.752543372903281,0.03423110931463464,2.7663693784607783,0.769171746883127,1.6754973547542302,0.052104326824870026,0.029969505109285054,-2.752394845125968,0.0342448039870148,2.7663679543071322,0.7691630533470046,0.0011674481511584859,-0.00012316142074068163,0.0008959804351480895,-0.0004407697074456945,-0.00017448109505723976,2.4554451932050196e-05,0.0017830031412483615,0.0,0.0,0.0,0.0,0.0,0.0,0.0,0.00010230708068936778,-0.000154995540621157,0.0001464720718693316,0.0001485277773127791,1.3694672380160089e-05,-1.4241536461234716e-06,-8.693536122317269e-06,-0.0011674481511584859,0.00012316142074068163,-0.0008959804351480895,0.0004407697074456945,0.00017448109505723976,-2.4554451932050196e-05,-0.0017830031412483615,0.3236324191093445,22.672876358032227,-0.001620553433895111,-14.254793167114258,-0.2245994210243225,-2.1325716972351074,0.30337852239608765,0
54,0.2650294303894043,-0.24825400114059448,-22.720483779907227,0.04922797530889511,14.230989456176758,0.2429099678993225,2.1261630058288574,-0.28964561223983765,0.0,0.0,0.0,0.0,0.0,0.0,0.0,-0.2808668043182761,0.10804612174452669,-0.05570956475443717,0.3735287701462037,-0.00494265259736555,-0.05476317622984349,-0.2643430447260441,1.6753888651170648,0.052260532379153714,0.029819692165705194,-2.752541634441226,0.03422871950469317,2.766370090537601,0.7691701812677912,1.6754973547542302,0.052104326824870026,0.029969505109285054,-2.752394845125968,0.0342448039870148,2.7663679543071322,0.7691630533470046,-0.0007221736946972933,0.0009703779560592819,-0.0009897087837596942,-0.00035354994733406865,-0.0005195557184682786,-5.722986560057957e-07,0.0016653436241140422,0.0,0.0,0.0,0.0,0.0,0.0,0.0,0.00010848963716547644,-0.00015620555428368793,0.00014981294357985925,0.0001467893152580224,1.6084482321633564e-05,-2.136230468963163e-06,-7.1279207866092875e-06,0.0007221736946972933,-0.0009703779560592819,0.0009897087837596942,0.00035354994733406865,0.0005195557184682786,5.722986560057957e-07,-0.0016653436241140422,0.24825400114059448,22.720483779907227,-0.04922797530889511,-14.230989456176758,-0.2429099678993225,-2.1261630058288574,0.28964561223983765,0
55,0.270003080368042,-0.24825400114059448,-22.720483779907227,0.04922797530889511,14.230989456176758,0.2429099678993225,2.1261630058288574,-0.28964561223983765,0.0,0.0,0.0,0.0,0.0,0.0,0.0,-0.2808668043182761,0.10804612174452669,-0.05570956475443717,0.3735287701462037,-0.00494265259736555,-0.05476317622984349,-0.2643430447260441,1.6753888651170648,0.052260532379153714,0.029819692165705194,-2.752541634441226,0.03422871950469317,2.766370090537601,0.7691701812677912,1.6754973547542302,0.052104326824870026,0.029969505109285054,-2.752394845125968,0.0342448039870148,2.7663679543071322,0.7691630533470046,-0.0007221736946972933,0.0009703779560592819,-0.0009897087837596942,-0.00035354994733406865,-0.0005195557184682786,-5.722986560057957e-07,0.0016653436241140422,0.0,0.0,0.0,0.0,0.0,0.0,0.0,0.00010848963716547644,-0.00015620555428368793,0.00014981294357985925,0.0001467893152580224,1.6084482321633564e-05,-2.136230468963163e-06,-7.1279207866092875e-06,0.0007221736946972933,-0.0009703779560592819,0.0009897087837596942,0.00035354994733406865,0.0005195557184682786,5.722986560057957e-07,-0.0016653436241140422,0.24825400114059448,22.720483779907227,-0.04922797530889511,-14.230989456176758,-0.2429099678993225,-2.1261630058288574,0.28964561223983765,0
56,0.27502894401550293,-0.2720577120780945,-22.696680068969727,0.04922797530889511,14.254793167114258,0.2191062569618225,2.1325716972351074,-0.25485557317733765,0.0,0.0,0.0,0.0,0.0,0.0,0.0,-0.2772878038837361,0.1025980289152332,-0.052894948094328174,0.378004594096594,-0.004739410219370439,-0.0544479741737552,-0.2624752006110127,1.6753893838169742,0.05225957221995341,0.029819692165705194,-2.7525433558954466,0.03423172096529946,2.7663693784607783,0.7691663554436523,1.6754973547542302,0.052104326824870026,0.029969505109285054,-2.752394845125968,0.0342448039870148,2.7663679543071322,0.7691630533470046,-7.528740900349225e-05,4.986936452695341e-05,-0.0005216686961224252,-0.000258412201786769,0.0004199472143944532,-0.00023929831770212536,0.00018702134826479723,0.0,0.0,0.0,0.0,0.0,0.0,0.0,0.00010797093725600782,-0.00015524539508338098,0.00014981294357985925,0.00014851076947852704,1.308302171534187e-05,-1.4241536461234716e-06,-3.30209664767267e-06,7.528740900349225e-05,-4.986936452695341e-05,0.0005216686961224252,0.000258412201786769,-0.0004199472143944532,0.00023929831770212536,-0.00018702134826479723,0.2720577120780945,22.696680068969727,-0.04922797530889511,-14.254793167114258,-0.2191062569618225,-2.1325716972351074,0.25485557317733765,0
57,0.28000974655151367,-0.2720577120780945,-22.696680068969727,0.04922797530889511,14.254793167114258,0.2191062569618225,2.1325716972351074,-0.25485557317733765,0.0,0.0,0.0,0.0,0.0,0.0,0.0,-0.2772878038837361,0.1025980289152332,-0.052894948094328174,0.378004594096594,-0.004739410219370439,-0.0544479741737552,-0.2624752006110127,1.6753893838169742,0.05225957221995341,0.029819692165705194,-2.7525433558954466,0.03423172096529946,2.7663693784607783,0.7691663554436523,1.6754973547542302,0.052104326824870026,0.029969505109285054,-2.752394845125968,0.0342448039870148,2.7663679543071322,0.7691630533470046,-7.528740900349225e-05,4.986936452695341e-05,-0.0005216686961224252,-0.000258412201786769,0.0004199472143944532,-0.00023929831770212536,0.00018702134826479723,0.0,0.0,0.0,0.0,0.0,0.0,0.0,0.00010797093725600782,-0.00015524539508338098,0.00014981294357985925,0.00014851076947852704,1.308302171534187e-05,-1.4241536461234716e-06,-3.30209664767267e-06,7.528740900349225e-05,-4.986936452695341e-05,0.0005216686961224252,0.000258412201786769,-0.0004199472143944532,0.00023929831770212536,-0.00018702134826479723,0.2720577120780945,22.696680068969727,-0.04922797530889511,-14.254793167114258,-0.2191062569618225,-2.1325716972351074,0.25485557317733765,0
58,0.28500843048095703,-0.2998287081718445,-22.649072647094727,0.04922797530889511,14.254793167114258,0.2245994210243225,2.1325716972351074,-0.23471395671367645,0.0,0.0,0.0,0.0,0.0,0.0,0.0,-0.280711582563988,0.10232771529013762,-0.05628158353206498,0.3769320463521584,-0.004499700161600085,-0.055860573354370495,-0.26202085439018713,1.6753933743635312,0.05225552106000461,0.029819692165705194,-2.752543355896727,0.034230754008119466,2.7663693784607783,0.7691641174869404,1.6754973547542302,0.052104326824870026,0.029969505109285054,-2.752394845125968,0.0342448039870148,2.7663679543071322,0.7691630533470046,0.0004416925221412066,-0.0011320394363352065,-0.0007175198752431717,-9.846794071333453e-05,9.394234173122031e-05,-0.0002934649337790877,-0.0014007171625803581,0.0,0.0,0.0,0.0,0.0,0.0,0.0,0.0001039803906990322,-0.00015119423513458574,0.00014981294357985925,0.00014851077075883623,1.4049978895334936e-05,-1.4241536461234716e-06,-1.0641399357247394e-06,-0.0004416925221412066,0.0011320394363352065,0.0007175198752431717,9.846794071333453e-05,-9.394234173122031e-05,0.0002934649337790877,0.0014007171625803581,0.2998287081718445,22.649072647094727,-0.04922797530889511,-14.254793167114258,-0.2245994210243225,-2.1325716972351074,0.23471395671367645,0
59,0.29001450538635254,-0.2998287081718445,-22.649072647094727,0.04922797530889511,14.254793167114258,0.2245994210243225,2.1325716972351074,-0.23471395671367645,0.0,0.0,0.0,0.0,0.0,0.0,0.0,-0.280711582563988,0.10232771529013762,-0.05628158353206498,0.3769320463521584,-0.004499700161600085,-0.055860573354370495,-0.26202085439018713,1.6753933743635312,0.05225552106000461,0.029819692165705194,-2.752543355896727,0.034230754008119466,2.7663693784607783,0.7691641174869404,1.6754973547542302,0.052104326824870026,0.029969505109285054,-2.752394845125968,0.0342448039870148,2.7663679543071322,0.7691630533470046,0.0004416925221412066,-0.0011320394363352065,-0.0007175198752431717,-9.846794071333453e-05,9.394234173122031e-05,-0.0002934649337790877,-0.0014007171625803581,0.0,0.0,0.0,0.0,0.0,0.0,0.0,0.0001039803906990322,-0.00015119423513458574,0.00014981294357985925,0.00014851077075883623,1.4049978895334936e-05,-1.4241536461234716e-06,-1.0641399357247394e-06,-0.0004416925221412066,0.0011320394363352065,0.0007175198752431717,9.846794071333453e-05,-9.394234173122031e-05,0.0002934649337790877,0.0014007171625803581,0.2998287081718445,22.649072647094727,-0.04922797530889511,-14.254793167114258,-0.2245994210243225,-2.1325716972351074,0.23471395671367645,0
60,0.29502129554748535,-0.2720577120780945,-22.720483779907227,0.04922797530889511,14.230989456176758,0.2310081124305725,2.1197543144226074,-0.23471395671367645,0.0,0.0,0.0,0.0,0.0,0.0,0.0,-0.2850368870620925,0.1045829068383303,-0.06151779050900892,0.376772426883332,-0.003620790716239738,-0.05688922897264507,-0.26256080907421314,1.675391453591013,0.05226061128808974,0.029819692165705194,-2.752541710935558,0.03423004241823933,2.766370802614424,0.7691640777505105,1.6754973547542302,0.052104326824870026,0.029969505109285054,-2.752394845125968,0.0342448039870148,2.7663679543071322,0.7691630533470046,-0.00042506678296488616,0.0010130102754249367,-0.000503691842349028,0.0004196224376089714,-0.002220825981579089,0.00024258843173974605,-0.0009641441352127039,0.0,0.0,0.0,0.0,0.0,0.0,0.0,0.00010590116321718135,-0.00015628446321971218,0.00014981294357985925,0.00014686580958978013,1.4761568775473188e-05,-2.848307291802854e-06,-1.0244035059114864e-06,0.00042506678296488616,-0.0010130102754249367,0.000503691842349028,-0.0004196224376089714,0.002220825981579089,-0.00024258843173974605,0.0009641441352127039,0.2720577120780945,22.720483779907227,-0.04922797530889511,-14.230989456176758,-0.2310081124305725,-2.1197543144226074,0.23471395671367645,0
61,0.30005431175231934,-0.2720577120780945,-22.720483779907227,0.04922797530889511,14.230989456176758,0.2310081124305725,2.1197543144226074,-0.23471395671367645,0.0,0.0,0.0,0.0,0.0,0.0,0.0,-0.2850368870620925,0.1045829068383303,-0.06151779050900892,0.376772426883332,-0.003620790716239738,-0.05688922897264507,-0.26256080907421314,1.675391453591013,0.05226061128808974,0.029819692165705194,-2.752541710935558,0.03423004241823933,2.766370802614424,0.7691640777505105,1.6754973547542302,0.052104326824870026,0.029969505109285054,-2.752394845125968,0.0342448039870148,2.7663679543071322,0.7691630533470046,-0.00042506678296488616,0.0010130102754249367,-0.000503691842349028,0.0004196224376089714,-0.002220825981579089,0.00024258843173974605,-0.0009641441352127039,0.0,0.0,0.0,0.0,0.0,0.0,0.0,0.00010590116321718135,-0.00015628446321971218,0.00014981294357985925,0.00014686580958978013,1.4761568775473188e-05,-2.848307291802854e-06,-1.0244035059114864e-06,0.00042506678296488616,-0.0010130102754249367,0.000503691842349028,-0.0004196224376089714,0.002220825981579089,-0.00024258843173974605,0.0009641441352127039,0.2720577120780945,22.720483779907227,-0.04922797530889511,-14.230989456176758,-0.2310081124305725,-2.1197543144226074,0.23471395671367645,0
62,0.3050682544708252,-0.2998287081718445,-22.720483779907227,0.02542426437139511,14.230989456176758,0.2245994210243225,2.1261630058288574,-0.26858848333358765,0.0,0.0,0.0,0.0,0.0,0.0,0.0,-0.27745220540798343,0.10208056478036441,-0.052598040918108255,0.37798273569868596,-0.005363927825604274,-0.056745849840811144,-0.26160910788423053,1.6753933942446697,0.0522605323675704,0.029821362601560458,-2.75254170215249,0.03423075839239659,2.766370090537601,0.7691678813230072,1.6754973547542302,0.052104326824870026,0.029969505109285054,-2.752394845125968,0.0342448039870148,2.7663679543071322,0.7691630533470046,0.000652130309683155,0.0009938387366271737,0.000574298878098494,0.0003431120016270283,-5.461737856425548e-05,0.00018664931769168472,0.0007988641384401383,0.0,0.0,0.0,0.0,0.0,0.0,0.0,0.00010396050956051894,-0.00015620554270037723,0.00014814250772459542,0.0001468570265217295,1.4045594618213031e-05,-2.136230468963163e-06,-4.82797600254159e-06,-0.000652130309683155,-0.0009938387366271737,-0.000574298878098494,-0.0003431120016270283,5.461737856425548e-05,-0.00018664931769168472,-0.0007988641384401383,0.2998287081718445,22.720483779907227,-0.02542426437139511,-14.230989456176758,-0.2245994210243225,-2.1261630058288574,0.26858848333358765,0
63,0.3100011348724365,-0.2998287081718445,-22.720483779907227,0.02542426437139511,14.230989456176758,0.2245994210243225,2.1261630058288574,-0.26858848333358765,0.0,0.0,0.0,0.0,0.0,0.0,0.0,-0.27745220540798343,0.10208056478036441,-0.052598040918108255,0.37798273569868596,-0.005363927825604274,-0.056745849840811144,-0.26160910788423053,1.6753933942446697,0.0522605323675704,0.029821362601560458,-2.75254170215249,0.03423075839239659,2.766370090537601,0.7691678813230072,1.6754973547542302,0.052104326824870026,0.029969505109285054,-2.752394845125968,0.0342448039870148,2.7663679543071322,0.7691630533470046,0.000652130309683155,0.0009938387366271737,0.000574298878098494,0.0003431120016270283,-5.461737856425548e-05,0.00018664931769168472,0.0007988641384401383,0.0,0.0,0.0,0.0,0.0,0.0,0.0,0.00010396050956051894,-0.00015620554270037723,0.00014814250772459542,0.0001468570265217295,1.4045594618213031e-05,-2.136230468963163e-06,-4.82797600254159e-06,-0.000652130309683155,-0.0009938387366271737,-0.000574298878098494,-0.0003431120016270283,5.461737856425548e-05,-0.00018664931769168472,-0.0007988641384401383,0.2998287081718445,22.720483779907227,-0.02542426437139511,-14.230989456176758,-0.2245994210243225,-2.1261630058288574,0.26858848333358765,0
64,0.3150053024291992,-0.2998287081718445,-22.649072647094727,0.02542426437139511,14.254793167114258,0.2245994210243225,2.1389803886413574,-0.26217979192733765,0.0,0.0,0.0,0.0,0.0,0.0,0.0,-0.2821361133051322,0.10215000858623688,-0.05391863523530471,0.37676674586143033,-0.005987664590046882,-0.0565512813949011,-0.2614114389454152,1.675391327495364,0.05225559998052395,0.029821388893218326,-2.7525433814065,0.03423075400792054,2.766368666383955,0.7691671295099788,1.6754973547542302,0.052104326824870026,0.029969505109285054,-2.752394845125968,0.0342448039870148,2.7663679543071322,0.7691630533470046,7.699187544918067e-05,-0.0009708072490417898,0.00026771845770471285,-0.000377029229491442,-0.0001787950701393134,-0.00031005583560617713,-0.00016905607767901754,0.0,0.0,0.0,0.0,0.0,0.0,0.0,0.00010602725886621478,-0.0001512731556539207,0.00014811621606672723,0.0001485362805317969,1.4049979094259146e-05,-7.120768228396912e-07,-4.0761629741536964e-06,-7.699187544918067e-05,0.0009708072490417898,-0.00026771845770471285,0.000377029229491442,0.0001787950701393134,0.00031005583560617713,0.00016905607767901754,0.2998287081718445,22.649072647094727,-0.02542426437139511,-14.254793167114258,-0.2245994210243225,-2.1389803886413574,0.26217979192733765,0
65,0.32000064849853516,-0.2998287081718445,-22.649072647094727,0.02542426437139511,14.254793167114258,0.2245994210243225,2.1389803886413574,-0.26217979192733765,0.0,0.0,0.0,0.0,0.0,0.0,0.0,-0.2821361133051322,0.10215000858623688,-0.05391863523530471,0.37676674586143033,-0.005987664590046882,-0.0565512813949011,-0.2614114389454152,1.675391327495364,0.05225559998052395,0.029821388893218326,-2.7525433814065,0.03423075400792054,2.766368666383955,0.7691671295099788,1.6754973547542302,0.052104326824870026,0.029969505109285054,-2.752394845125968,0.0342448039870148,2.7663679543071322,0.7691630533470046,7.699187544918067e-05,-0.0009708072490417898,0.00026771845770471285,-0.000377029229491442,-0.0001787950701393134,-0.00031005583560617713,-0.00016905607767901754,0.0,0.0,0.0,0.0,0.0,0.0,0.0,0.00010602725886621478,-0.0001512731556539207,0.00014811621606672723,0.0001485362805317969,1.4049979094259146e-05,-7.120768228396912e-07,-4.0761629741536964e-06,-7.699187544918067e-05,0.0009708072490417898,-0.00026771845770471285,0.000377029229491442,0.0001787950701393134,0.00031005583560617713,0.00016905607767901754,0.2998287081718445,22.649072647094727,-0.02542426437139511,-14.254793167114258,-0.2245994210243225,-2.1389803886413574,0.26217979192733765,0
66,0.3250119686126709,-0.24825400114059448,-22.672876358032227,0.04922797530889511,14.254793167114258,0.2245994210243225,2.1261630058288574,-0.23471395671367645,0.0,0.0,0.0,0.0,0.0,0.0,0.0,-0.28370522409559906,0.10433099350620713,-0.05171899884519415,0.3779855926631389,-0.006682883702892285,-0.0561160067988542,-0.2620524282396327,1.675386710815621,0.052257191605010106,0.029819692166150446,-2.752543372903281,0.03423075400789579,2.766370090537601,0.7691641174862675,1.6754973547542302,0.052104326824870026,0.029969505109285054,-2.752394845125968,0.0342448039870148,2.7663679543071322,0.7691630533470046,-0.0012682694558379425,-0.00015154739565076378,-0.0004546289083559034,1.3716644504888922e-05,0.00024996866480136423,0.00019295890414485763,-0.001019600690483469,0.0,0.0,0.0,0.0,0.0,0.0,0.0,0.00011064393860915622,-0.0001528647801400801,0.00014981294313460777,0.0001485277773127791,1.404997911901018e-05,-2.136230468963163e-06,-1.0641392628185642e-06,0.0012682694558379425,0.00015154739565076378,0.0004546289083559034,-1.3716644504888922e-05,-0.00024996866480136423,-0.00019295890414485763,0.001019600690483469,0.24825400114059448,22.672876358032227,-0.04922797530889511,-14.254793167114258,-0.2245994210243225,-2.1261630058288574,0.23471395671367645,0
67,0.3300325870513916,-0.24825400114059448,-22.672876358032227,0.04922797530889511,14.254793167114258,0.2245994210243225,2.1261630058288574,-0.23471395671367645,0.0,0.0,0.0,0.0,0.0,0.0,0.0,-0.28370522409559906,0.10433099350620713,-0.05171899884519415,0.3779855926631389,-0.006682883702892285,-0.0561160067988542,-0.2620524282396327,1.675386710815621,0.052257191605010106,0.029819692166150446,-2.752543372903281,0.03423075400789579,2.766370090537601,0.7691641174862675,1.6754973547542302,0.052104326824870026,0.029969505109285054,-2.752394845125968,0.0342448039870148,2.7663679543071322,0.7691630533470046,-0.0012682694558379425,-0.00015154739565076378,-0.0004546289083559034,1.3716644504888922e-05,0.00024996866480136423,0.00019295890414485763,-0.001019600690483469,0.0,0.0,0.0,0.0,0.0,0.0,0.0,0.00011064393860915622,-0.0001528647801400801,0.00014981294313460777,0.0001485277773127791,1.404997911901018e-05,-2.136230468963163e-06,-1.0641392628185642e-06,0.0012682694558379425,0.00015154739565076378,0.0004546289083559034,-1.3716644504888922e-05,-0.00024996866480136423,-0.00019295890414485763,0.001019600690483469,0.24825400114059448,22.672876358032227,-0.04922797530889511,-14.254793167114258,-0.2245994210243225,-2.1261630058288574,0.23471395671367645,0
68,0.3350555896759033,-0.24825400114059448,-22.672876358032227,0.04922797530889511,14.254793167114258,0.2245994210243225,2.1261630058288574,-0.23471395671367645,0.0,0.0,0.0,0.0,0.0,0.0,0.0,-0.28370522409559906,0.10433099350620713,-0.05171899884519415,0.3779855926631389,-0.006682883702892285,-0.0561160067988542,-0.2620524282396327,1.675386710815621,0.052257191605010106,0.029819692166150446,-2.752543372903281,0.03423075400789579,2.766370090537601,0.7691641174862675,1.6754973547542302,0.052104326824870026,0.029969505109285054,-2.752394845125968,0.0342448039870148,2.7663679543071322,0.7691630533470046,-0.0012682694558379425,-0.00015154739565076378,-0.0004546289083559034,1.3716644504888922e-05,0.00024996866480136423,0.00019295890414485763,-0.001019600690483469,0.0,0.0,0.0,0.0,0.0,0.0,0.0,0.00011064393860915622,-0.0001528647801400801,0.00014981294313460777,0.0001485277773127791,1.404997911901018e-05,-2.136230468963163e-06,-1.0641392628185642e-06,0.0012682694558379425,0.00015154739565076378,0.0004546289083559034,-1.3716644504888922e-05,-0.00024996866480136423,-0.00019295890414485763,0.001019600690483469,0.24825400114059448,22.672876358032227,-0.04922797530889511,-14.254793167114258,-0.2245994210243225,-2.1261630058288574,0.23471395671367645,0
69,0.3400411605834961,-0.24825400114059448,-22.672876358032227,0.04922797530889511,14.254793167114258,0.2245994210243225,2.1261630058288574,-0.23471395671367645,0.0,0.0,0.0,0.0,0.0,0.0,0.0,-0.28370522409559906,0.10433099350620713,-0.05171899884519415,0.3779855926631389,-0.006682883702892285,-0.0561160067988542,-0.2620524282396327,1.675386710815621,0.052257191605010106,0.029819692166150446,-2.752543372903281,0.03423075400789579,2.766370090537601,0.7691641174862675,1.6754973547542302,0.052104326824870026,0.029969505109285054,-2.752394845125968,0.0342448039870148,2.7663679543071322,0.7691630533470046,-0.0012682694558379425,-0.00015154739565076378,-0.0004546289083559034,1.3716644504888922e-05,0.00024996866480136423,0.00019295890414485763,-0.001019600690483469,0.0,0.0,0.0,0.0,0.0,0.0,0.0,0.00011064393860915622,-0.0001528647801400801,0.00014981294313460777,0.0001485277773127791,1.404997911901018e-05,-2.136230468963163e-06,-1.0641392628185642e-06,0.0012682694558379425,0.00015154739565076378,0.0004546289083559034,-1.3716644504888922e-05,-0.00024996866480136423,-0.00019295890414485763,0.001019600690483469,0.24825400114059448,22.672876358032227,-0.04922797530889511,-14.254793167114258,-0.2245994210243225,-2.1261630058288574,0.23471395671367645,0
70,0.34502148628234863,-0.24825400114059448,-22.649072647094727,0.04922797530889511,14.254793167114258,0.2191062569618225,2.1389803886413574,-0.27591270208358765,0.0,0.0,0.0,0.0,0.0,0.0,0.0,-0.2814689004488475,0.10765502566646806,-0.050068784897313194,0.3753613472214955,-0.006753386318483159,-0.05657909775703629,-0.26038933854517515,1.6753876065109812,0.05225552203389221,0.029819692165705194,-2.7525431263084656,0.03423136435945829,2.766368666383955,0.7691686818798382,1.6754973547542302,0.052104326824870026,0.029969505109285054,-2.752394845125968,0.0342448039870148,2.7663679543071322,0.7691630533470046,-0.0011140431021929558,-0.0009150591750548954,-0.0002461794077801169,-0.00037629170473489225,0.0002883594544150603,-0.00027591459659812847,0.00098325612778037,0.0,0.0,0.0,0.0,0.0,0.0,0.0,0.00010974824324905263,-0.0001511952090221813,0.00014981294357985925,0.00014828118249754496,1.3439627556510736e-05,-7.120768228396912e-07,-5.628532833590327e-06,0.0011140431021929558,0.0009150591750548954,0.0002461794077801169,0.00037629170473489225,-0.0002883594544150603,0.00027591459659812847,-0.00098325612778037,0.24825400114059448,22.649072647094727,-0.04922797530889511,-14.254793167114258,-0.2191062569618225,-2.1389803886413574,0.27591270208358765,0
71,0.35002732276916504,-0.24825400114059448,-22.649072647094727,0.04922797530889511,14.254793167114258,0.2191062569618225,2.1389803886413574,-0.27591270208358765,0.0,0.0,0.0,0.0,0.0,0.0,0.0,-0.2814689004488475,0.10765502566646806,-0.050068784897313194,0.3753613472214955,-0.006753386318483159,-0.05657909775703629,-0.26038933854517515,1.6753876065109812,0.05225552203389221,0.029819692165705194,-2.7525431263084656,0.03423136435945829,2.766368666383955,0.7691686818798382,1.6754973547542302,0.052104326824870026,0.029969505109285054,-2.752394845125968,0.0342448039870148,2.7663679543071322,0.7691630533470046,-0.0011140431021929558,-0.0009150591750548954,-0.0002461794077801169,-0.00037629170473489225,0.0002883594544150603,-0.00027591459659812847,0.00098325612778037,0.0,0.0,0.0,0.0,0.0,0.0,0.0,0.00010974824324905263,-0.0001511952090221813,0.00014981294357985925,0.00014828118249754496,1.3439627556510736e-05,-7.120768228396912e-07,-5.628532833590327e-06,0.0011140431021929558,0.0009150591750548954,0.0002461794077801169,0.00037629170473489225,-0.0002883594544150603,0.00027591459659812847,-0.00098325612778037,0.24825400114059448,22.649072647094727,-0.04922797530889511,-14.254793167114258,-0.2191062569618225,-2.1389803886413574,0.27591270208358765,0
72,0.3549981117248535,-0.2720577120780945,-22.696680068969727,0.02542426437139511,14.254793167114258,0.2245994210243225,2.1325716972351074,-0.28964561223983765,0.0,0.0,0.0,0.0,0.0,0.0,0.0,-0.28096825148563626,0.10450806799276584,-0.05121774020073965,0.37693923495224096,-0.006458529968658634,-0.055816629364335874,-0.25997559798160647,1.6753891495044662,0.05225886193127146,0.029821362601560458,-2.752541315111717,0.034230754062025394,2.7663693784607783,0.7691702210041962,1.6754973547542302,0.052104326824870026,0.029969505109285054,-2.752394845125968,0.0342448039870148,2.7663679543071322,0.7691630533470046,-0.00063882073859935,7.77828232156115e-05,0.0003656990182972403,-0.0003513261215798464,8.173952903568032e-05,-0.00013821868657948644,0.000685726221036584,0.0,0.0,0.0,0.0,0.0,0.0,0.0,0.00010820524976407064,-0.00015453510640143359,0.00014814250772459542,0.00014646998574896486,1.4049924989406604e-05,-1.4241536461234716e-06,-7.167657191553545e-06,0.00063882073859935,-7.77828232156115e-05,-0.0003656990182972403,0.0003513261215798464,-8.173952903568032e-05,0.00013821868657948644,-0.000685726221036584,0.2720577120780945,22.696680068969727,-0.02542426437139511,-14.254793167114258,-0.2245994210243225,-2.1325716972351074,0.28964561223983765,0
73,0.360013484954834,-0.2720577120780945,-22.696680068969727,0.02542426437139511,14.254793167114258,0.2245994210243225,2.1325716972351074,-0.28964561223983765,0.0,0.0,0.0,0.0,0.0,0.0,0.0,-0.28096825148563626,0.10450806799276584,-0.05121774020073965,0.37693923495224096,-0.006458529968658634,-0.055816629364335874,-0.25997559798160647,1.6753891495044662,0.05225886193127146,0.029821362601560458,-2.752541315111717,0.034230754062025394,2.7663693784607783,0.7691702210041962,1.6754973547542302,0.052104326824870026,0.029969505109285054,-2.752394845125968,0.0342448039870148,2.7663679543071322,0.7691630533470046,-0.00063882073859935,7.77828232156115e-05,0.0003656990182972403,-0.0003513261215798464,8.173952903568032e-05,-0.00013821868657948644,0.000685726221036584,0.0,0.0,0.0,0.0,0.0,0.0,0.0,0.00010820524976407064,-0.00015453510640143359,0.00014814250772459542,0.00014646998574896486,1.4049924989406604e-05,-1.4241536461234716e-06,-7.167657191553545e-06,0.00063882073859935,-7.77828232156115e-05,-0.0003656990182972403,0.0003513261215798464,-8.173952903568032e-05,0.00013821868657948644,-0.000685726221036584,0.2720577120780945,22.696680068969727,-0.02542426437139511,-14.254793167114258,-0.2245994210243225,-2.1325716972351074,0.28964561223983765,0
74,0.36500072479248047,-0.24825400114059448,-22.672876358032227,-0.02615044265985489,14.278596878051758,0.2191062569618225,2.1389803886413574,-0.24112264811992645,0.0,0.0,0.0,0.0,0.0,0.0,0.0,-0.27996226467228014,0.10523951393005897,-0.048412673148859095,0.3763816985428176,-0.006302496262316411,-0.055283159637362675,-0.2628765736112607,1.6753874080794895,0.052257191495414364,0.029824981879246863,-2.752545051838517,0.034231368743956436,2.766368666383955,0.7691648295637633,1.6754973547542302,0.052104326824870026,0.029969505109285054,-2.752394845125968,0.0342448039870148,2.7663679543071322,0.7691630533470046,-0.0006137762826640587,-0.000506819897182954,0.001420739149688309,-0.0007727557728277388,0.00041547567020177727,-7.71996531979608e-05,-0.0007570084370676983,0.0,0.0,0.0,0.0,0.0,0.0,0.0,0.00010994667474073516,-0.0001528646705443379,0.00014452323003819045,0.00015020671254895035,1.3435243058364243e-05,-7.120768228396912e-07,-1.776216758675453e-06,0.0006137762826640587,0.000506819897182954,-0.001420739149688309,0.0007727557728277388,-0.00041547567020177727,7.71996531979608e-05,0.0007570084370676983,0.24825400114059448,22.672876358032227,0.02615044265985489,-14.278596878051758,-0.2191062569618225,-2.1389803886413574,0.24112264811992645,0
75,0.37001729011535645,-0.24825400114059448,-22.672876358032227,-0.02615044265985489,14.278596878051758,0.2191062569618225,2.1389803886413574,-0.24112264811992645,0.0,0.0,0.0,0.0,0.0,0.0,0.0,-0.27996226467228014,0.10523951393005897,-0.048412673148859095,0.3763816985428176,-0.006302496262316411,-0.055283159637362675,-0.2628765736112607,1.6753874080794895,0.052257191495414364,0.029824981879246863,-2.752545051838517,0.034231368743956436,2.766368666383955,0.7691648295637633,1.6754973547542302,0.052104326824870026,0.029969505109285054,-2.752394845125968,0.0342448039870148,2.7663679543071322,0.7691630533470046,-0.0006137762826640587,-0.000506819897182954,0.001420739149688309,-0.0007727557728277388,0.00041547567020177727,-7.71996531979608e-05,-0.0007570084370676983,0.0,0.0,0.0,0.0,0.0,0.0,0.0,0.00010994667474073516,-0.0001528646705443379,0.00014452323003819045,0.00015020671254895035,1.3435243058364243e-05,-7.120768228396912e-07,-1.776216758675453e-06,0.0006137762826640587,0.000506819897182954,-0.001420739149688309,0.0007727557728277388,-0.00041547567020177727,7.71996531979608e-05,0.0007570084370676983,0.24825400114059448,22.672876358032227,0.02615044265985489,-14.278596878051758,-0.2191062569618225,-2.1389803886413574,0.24112264811992645,0
76,0.3750283718109131,-0.2998287081718445,-22.672876358032227,0.001620553433895111,14.230989456176758,0.2310081124305725,2.1261630058288574,-0.26858848333358765,0.0,0.0,0.0,0.0,0.0,0.0,0.0,-0.27843124130122227,0.1066038387387564,-0.05147521307072581,0.37419198226427525,-0.006139199213025138,-0.055002544570232965,-0.26272491160712597,1.675392475878217,0.05225790210887557,0.029823033037415722,-2.7525414813824334,0.034230041931097625,2.766370090537601,0.7691675236953628,1.6754973547542302,0.052104326824870026,0.029969505109285054,-2.752394845125968,0.0342448039870148,2.7663679543071322,0.7691630533470046,0.0003817424076545684,-0.00036718503983360914,0.0006856198248856722,0.0002828292433681979,-0.00024052035622812898,8.968326960677757e-05,0.0005363914042712199,0.0,0.0,0.0,0.0,0.0,0.0,0.0,0.00010487887601318135,-0.00015357528400554432,0.0001464720718693316,0.00014663625646527123,1.4762055917175165e-05,-2.136230468963163e-06,-4.470348358154297e-06,-0.0003817424076545684,0.00036718503983360914,-0.0006856198248856722,-0.0002828292433681979,0.00024052035622812898,-8.968326960677757e-05,-0.0005363914042712199,0.2998287081718445,22.672876358032227,-0.001620553433895111,-14.230989456176758,-0.2310081124305725,-2.1261630058288574,0.26858848333358765,0
77,0.38001537322998047,-0.2998287081718445,-22.672876358032227,0.001620553433895111,14.230989456176758,0.2310081124305725,2.1261630058288574,-0.26858848333358765,0.0,0.0,0.0,0.0,0.0,0.0,0.0,-0.27843124130122227,0.1066038387387564,-0.05147521307072581,0.37419198226427525,-0.006139199213025138,-0.055002544570232965,-0.26272491160712597,1.675392475878217,0.05225790210887557,0.029823033037415722,-2.7525414813824334,0.034230041931097625,2.766370090537601,0.7691675236953628,1.6754973547542302,0.052104326824870026,0.029969505109285054,-2.752394845125968,0.0342448039870148,2.7663679543071322,0.7691630533470046,0.0003817424076545684,-0.00036718503983360914,0.0006856198248856722,0.0002828292433681979,-0.00024052035622812898,8.968326960677757e-05,0.0005363914042712199,0.0,0.0,0.0,0.0,0.0,0.0,0.0,0.00010487887601318135,-0.00015357528400554432,0.0001464720718693316,0.00014663625646527123,1.4762055917175165e-05,-2.136230468963163e-06,-4.470348358154297e-06,-0.0003817424076545684,0.00036718503983360914,-0.0006856198248856722,-0.0002828292433681979,0.00024052035622812898,-8.968326960677757e-05,-0.0005363914042712199,0.2998287081718445,22.672876358032227,-0.001620553433895111,-14.230989456176758,-0.2310081124305725,-2.1261630058288574,0.26858848333358765,0
78,0.3850083351135254,-0.2720577120780945,-22.672876358032227,0.02542426437139511,14.254793167114258,0.2429099678993225,2.1261630058288574,-0.29605430364608765,0.0,0.0,0.0,0.0,0.0,0.0,0.0,-0.27772203282374397,0.10864960104265763,-0.05029018200406412,0.37382097832860783,-0.006199511490642818,-0.05517573712314275,-0.26243423959406975,1.6753912213421553,0.05225719160372307,0.029821362601560458,-2.752543304842136,0.03422871950268746,2.766370090537601,0.7691709330265358,1.6754973547542302,0.052104326824870026,0.029969505109285054,-2.752394845125968,0.0342448039870148,2.7663679543071322,0.7691630533470046,-0.0002616014757592165,7.91115056674554e-05,0.000367153088501383,-0.000532027951985072,-0.000627271496637814,4.528402588664102e-05,0.0013123021954305023,0.0,0.0,0.0,0.0,0.0,0.0,0.0,0.00010613341207488247,-0.0001528647788530471,0.00014814250772459542,0.00014845971616805897,1.6084484327341664e-05,-2.136230468963163e-06,-7.879679531197503e-06,0.0002616014757592165,-7.91115056674554e-05,-0.000367153088501383,0.000532027951985072,0.000627271496637814,-4.528402588664102e-05,-0.0013123021954305023,0.2720577120780945,22.672876358032227,-0.02542426437139511,-14.254793167114258,-0.2429099678993225,-2.1261630058288574,0.29605430364608765,0
79,0.3900339603424072,-0.2720577120780945,-22.672876358032227,0.02542426437139511,14.254793167114258,0.2429099678993225,2.1261630058288574,-0.29605430364608765,0.0,0.0,0.0,0.0,0.0,0.0,0.0,-0.27772203282374397,0.10864960104265763,-0.05029018200406412,0.37382097832860783,-0.006199511490642818,-0.05517573712314275,-0.26243423959406975,1.6753912213421553,0.05225719160372307,0.029821362601560458,-2.752543304842136,0.03422871950268746,2.766370090537601,0.7691709330265358,1.6754973547542302,0.052104326824870026,0.029969505109285054,-2.752394845125968,0.0342448039870148,2.7663679543071322,0.7691630533470046,-0.0002616014757592165,7.91115056674554e-05,0.000367153088501383,-0.000532027951985072,-0.000627271496637814,4.528402588664102e-05,0.0013123021954305023,0.0,0.0,0.0,0.0,0.0,0.0,0.0,0.00010613341207488247,-0.0001528647788530471,0.00014814250772459542,0.00014845971616805897,1.6084484327341664e-05,-2.136230468963163e-06,-7.879679531197503e-06,0.0002616014757592165,-7.91115056674554e-05,-0.000367153088501383,0.000532027951985072,0.000627271496637814,-4.528402588664102e-05,-0.0013123021954305023,0.2720577120780945,22.672876358032227,-0.02542426437139511,-14.254793167114258,-0.2429099678993225,-2.1261630058288574,0.29605430364608765,0
