rezayati/contactInterpretation/dataset/franka_main/labeled_data/link5/c5_1.csv
index,time,tau_J0,tau_J1,tau_J2,tau_J3,tau_J4,tau_J5,tau_J6,tau_J_d0,tau_J_d1,tau_J_d2,tau_J_d3,tau_J_d4,tau_J_d5,tau_J_d6,tau_ext0,tau_ext1,tau_ext2,tau_ext3,tau_ext4,tau_ext5,tau_ext6,q0,q1,q2,q3,q4,q5,q6,q_d0,q_d1,q_d2,q_d3,q_d4,q_d5,q_d6,dq0,dq1,dq2,dq3,dq4,dq5,dq6,dq_d0,dq_d1,dq_d2,dq_d3,dq_d4,dq_d5,dq_d6,e0,e1,e2,e3,e4,e5,e6,de0,de1,de2,de3,de4,de5,de6,etau_J0,etau_J1,etau_J2,etau_J3,etau_J4,etau_J5,etau_J6,label
1,0.0,-0.4783565402030945,-47.24624252319336,-1.0933501720428467,21.074556350708008,0.8022971749305725,2.3394808769226074,-0.31711143255233765,0.0,0.0,0.0,0.0,0.0,0.0,0.0,-0.42925558581661943,-0.4467014088751242,-0.2188274029142471,0.6304924744172574,0.22284956138912818,0.10856907267639902,-0.2924650768247972,0.06236113264267292,0.6882600193446273,-0.07872515150487368,-1.6210656223966362,0.028136102686325704,2.287864142152997,0.8466344165873134,0.06226373270833701,0.6884179775783729,-0.07863937525950354,-1.6210372792796082,0.028167345702647853,2.2878312372101677,0.8466366937888992,0.0010241742747088202,-1.1304155761344568e-05,0.0002859473401126064,-0.000598676521473552,0.0001231194911583992,4.387700489255643e-05,0.0006832828877110754,0.0,0.0,0.0,0.0,0.0,0.0,0.0,-9.739993433591221e-05,0.00015795823374553652,8.577624537013662e-05,2.8343117028040155e-05,3.124301632214874e-05,-3.2904942829148354e-05,2.2772015857430716e-06,-0.0010241742747088202,1.1304155761344568e-05,-0.0002859473401126064,0.000598676521473552,-0.0001231194911583992,-4.387700489255643e-05,-0.0006832828877110754,0.4783565402030945,47.24624252319336,1.0933501720428467,-21.074556350708008,-0.8022971749305725,-2.3394808769226074,0.31711143255233765,0
2,0.005021810531616211,-0.4783565402030945,-47.24624252319336,-1.0933501720428467,21.074556350708008,0.8022971749305725,2.3394808769226074,-0.31711143255233765,0.0,0.0,0.0,0.0,0.0,0.0,0.0,-0.42925558581661943,-0.4467014088751242,-0.2188274029142471,0.6304924744172574,0.22284956138912818,0.10856907267639902,-0.2924650768247972,0.06236113264267292,0.6882600193446273,-0.07872515150487368,-1.6210656223966362,0.028136102686325704,2.287864142152997,0.8466344165873134,0.06226373270833701,0.6884179775783729,-0.07863937525950354,-1.6210372792796082,0.028167345702647853,2.2878312372101677,0.8466366937888992,0.0010241742747088202,-1.1304155761344568e-05,0.0002859473401126064,-0.000598676521473552,0.0001231194911583992,4.387700489255643e-05,0.0006832828877110754,0.0,0.0,0.0,0.0,0.0,0.0,0.0,-9.739993433591221e-05,0.00015795823374553652,8.577624537013662e-05,2.8343117028040155e-05,3.124301632214874e-05,-3.2904942829148354e-05,2.2772015857430716e-06,-0.0010241742747088202,1.1304155761344568e-05,-0.0002859473401126064,0.000598676521473552,-0.0001231194911583992,-4.387700489255643e-05,-0.0006832828877110754,0.4783565402030945,47.24624252319336,1.0933501720428467,-21.074556350708008,-0.8022971749305725,-2.3394808769226074,0.31711143255233765,0
3,0.010497331619262695,-0.3236324191093445,-47.21847152709961,-1.0417754650115967,21.098360061645508,0.8022971749305725,2.3138461112976074,-0.31711143255233765,0.0,0.0,0.0,0.0,0.0,0.0,0.0,-0.4212189867864291,-0.4429333570290635,-0.20996698672820613,0.6300538297466617,0.2228093828214912,0.10983955996297415,-0.29405222325521885,0.062350274809619834,0.6882583821850269,-0.07872877074647387,-1.6210672928324914,0.028136102686325704,2.287866951214433,0.8466344509877811,0.06226373270833701,0.6884179775783729,-0.07863937525950354,-1.6210372792796082,0.028167345702647853,2.2878312372101677,0.8466366937888992,-0.002442036596095763,-0.0009071146088819266,-0.0006269254361291047,-0.0010048853513873563,-4.4637143984311615e-05,0.0006553315769752614,0.0010249039786834934,0.0,0.0,0.0,0.0,0.0,0.0,0.0,-8.654210128282436e-05,0.00015959539334597928,8.939548697033117e-05,3.0013552883234595e-05,3.124301632214874e-05,-3.571400426549687e-05,2.2428011180464225e-06,0.002442036596095763,0.0009071146088819266,0.0006269254361291047,0.0010048853513873563,4.4637143984311615e-05,-0.0006553315769752614,-0.0010249039786834934,0.3236324191093445,47.21847152709961,1.0417754650115967,-21.098360061645508,-0.8022971749305725,-2.3138461112976074,0.31711143255233765,0
4,0.01500844955444336,-0.3236324191093445,-47.21847152709961,-1.0417754650115967,21.098360061645508,0.8022971749305725,2.3138461112976074,-0.31711143255233765,0.0,0.0,0.0,0.0,0.0,0.0,0.0,-0.4212189867864291,-0.4429333570290635,-0.20996698672820613,0.6300538297466617,0.2228093828214912,0.10983955996297415,-0.29405222325521885,0.062350274809619834,0.6882583821850269,-0.07872877074647387,-1.6210672928324914,0.028136102686325704,2.287866951214433,0.8466344509877811,0.06226373270833701,0.6884179775783729,-0.07863937525950354,-1.6210372792796082,0.028167345702647853,2.2878312372101677,0.8466366937888992,-0.002442036596095763,-0.0009071146088819266,-0.0006269254361291047,-0.0010048853513873563,-4.4637143984311615e-05,0.0006553315769752614,0.0010249039786834934,0.0,0.0,0.0,0.0,0.0,0.0,0.0,-8.654210128282436e-05,0.00015959539334597928,8.939548697033117e-05,3.0013552883234595e-05,3.124301632214874e-05,-3.571400426549687e-05,2.2428011180464225e-06,0.002442036596095763,0.0009071146088819266,0.0006269254361291047,0.0010048853513873563,4.4637143984311615e-05,-0.0006553315769752614,-0.0010249039786834934,0.3236324191093445,47.21847152709961,1.0417754650115967,-21.098360061645508,-0.8022971749305725,-2.3138461112976074,0.31711143255233765,0
5,0.020001888275146484,-0.4029781222343445,-47.21847152709961,-1.0933501720428467,21.022981643676758,0.8022971749305725,2.3266634941101074,-0.32352012395858765,0.0,0.0,0.0,0.0,0.0,0.0,0.0,-0.43071434016656795,-0.45114739076321464,-0.21903159941990363,0.6335481655428855,0.2224780839426187,0.11043633701582138,-0.2955150538852352,0.06235584289300892,0.6882583812238093,-0.07872515146878728,-1.6210620031189498,0.02813290762901306,2.2878655661449163,0.8466351677484601,0.06226373270833701,0.6884179775783729,-0.07863937525950354,-1.6210372792796082,0.028167345702647853,2.2878312372101677,0.8466366937888992,-0.000204658215994773,-0.001583381057982776,-0.00015721091247040118,0.0008395708780940006,-0.000293126841373529,0.0004728921179227182,0.0011463950767489361,0.0,0.0,0.0,0.0,0.0,0.0,0.0,-9.211018467190912e-05,0.00015959635456352927,8.577620928373886e-05,2.4723839341600495e-05,3.4438073634793925e-05,-3.432893474863974e-05,1.5260404390149418e-06,0.000204658215994773,0.001583381057982776,0.00015721091247040118,-0.0008395708780940006,0.000293126841373529,-0.0004728921179227182,-0.0011463950767489361,0.4029781222343445,47.21847152709961,1.0933501720428467,-21.022981643676758,-0.8022971749305725,-2.3266634941101074,0.32352012395858765,0
6,0.02500629425048828,-0.4029781222343445,-47.21847152709961,-1.0933501720428467,21.022981643676758,0.8022971749305725,2.3266634941101074,-0.32352012395858765,0.0,0.0,0.0,0.0,0.0,0.0,0.0,-0.43071434016656795,-0.45114739076321464,-0.21903159941990363,0.6335481655428855,0.2224780839426187,0.11043633701582138,-0.2955150538852352,0.06235584289300892,0.6882583812238093,-0.07872515146878728,-1.6210620031189498,0.02813290762901306,2.2878655661449163,0.8466351677484601,0.06226373270833701,0.6884179775783729,-0.07863937525950354,-1.6210372792796082,0.028167345702647853,2.2878312372101677,0.8466366937888992,-0.000204658215994773,-0.001583381057982776,-0.00015721091247040118,0.0008395708780940006,-0.000293126841373529,0.0004728921179227182,0.0011463950767489361,0.0,0.0,0.0,0.0,0.0,0.0,0.0,-9.211018467190912e-05,0.00015959635456352927,8.577620928373886e-05,2.4723839341600495e-05,3.4438073634793925e-05,-3.432893474863974e-05,1.5260404390149418e-06,0.000204658215994773,0.001583381057982776,0.00015721091247040118,-0.0008395708780940006,0.000293126841373529,-0.0004728921179227182,-0.0011463950767489361,0.4029781222343445,47.21847152709961,1.0933501720428467,-21.022981643676758,-0.8022971749305725,-2.3266634941101074,0.32352012395858765,0
7,0.030905961990356445,-0.4505855441093445,-47.27004623413086,-1.0417754650115967,21.046785354614258,0.8087058663368225,2.3202548027038574,-0.28232139348983765,0.0,0.0,0.0,0.0,0.0,0.0,0.0,-0.41969106506130693,-0.43462092014277304,-0.2131913960114661,0.6258583107846303,0.22156890349121797,0.11030493205850703,-0.2966964289267481,0.062359157463198596,0.6882619700428833,-0.07872884966743851,-1.621063673554805,0.028135390591466598,2.287865925170756,0.8466305902732735,0.06226373270833701,0.6884179775783729,-0.07863937525950354,-1.6210372792796082,0.028167345702647853,2.2878312372101677,0.8466366937888992,0.000925006358602206,0.0011379608944638946,-0.0005149952934676805,0.00019636639088432443,-0.0003186219021669249,0.00016992889628567363,-0.0009427337953481398,0.0,0.0,0.0,0.0,0.0,0.0,0.0,-9.542475486158664e-05,0.00015600753548961066,8.947440793496964e-05,2.6394275196794936e-05,3.195511118125535e-05,-3.468796058836432e-05,6.103515625688338e-06,-0.000925006358602206,-0.0011379608944638946,0.0005149952934676805,-0.00019636639088432443,0.0003186219021669249,-0.00016992889628567363,0.0009427337953481398,0.4505855441093445,47.27004623413086,1.0417754650115967,-21.046785354614258,-0.8087058663368225,-2.3202548027038574,0.28232139348983765,0
8,0.03500723838806152,-0.4505855441093445,-47.27004623413086,-1.0417754650115967,21.046785354614258,0.8087058663368225,2.3202548027038574,-0.28232139348983765,0.0,0.0,0.0,0.0,0.0,0.0,0.0,-0.41969106506130693,-0.43462092014277304,-0.2131913960114661,0.6258583107846303,0.22156890349121797,0.11030493205850703,-0.2966964289267481,0.062359157463198596,0.6882619700428833,-0.07872884966743851,-1.621063673554805,0.028135390591466598,2.287865925170756,0.8466305902732735,0.06226373270833701,0.6884179775783729,-0.07863937525950354,-1.6210372792796082,0.028167345702647853,2.2878312372101677,0.8466366937888992,0.000925006358602206,0.0011379608944638946,-0.0005149952934676805,0.00019636639088432443,-0.0003186219021669249,0.00016992889628567363,-0.0009427337953481398,0.0,0.0,0.0,0.0,0.0,0.0,0.0,-9.542475486158664e-05,0.00015600753548961066,8.947440793496964e-05,2.6394275196794936e-05,3.195511118125535e-05,-3.468796058836432e-05,6.103515625688338e-06,-0.000925006358602206,-0.0011379608944638946,0.0005149952934676805,-0.00019636639088432443,0.0003186219021669249,-0.00016992889628567363,0.0009427337953481398,0.4505855441093445,47.27004623413086,1.0417754650115967,-21.046785354614258,-0.8087058663368225,-2.3202548027038574,0.28232139348983765,0
9,0.04000377655029297,-0.3752071261405945,-47.24624252319336,-1.0417754650115967,21.022981643676758,0.7903953194618225,2.3266634941101074,-0.26858848333358765,0.0,0.0,0.0,0.0,0.0,0.0,0.0,-0.4262869520682228,-0.43349970203948446,-0.21696631275324557,0.6278272271187645,0.22094159613983141,0.10935243702178857,-0.29623544195699164,0.062353893111689075,0.688257205561633,-0.07872877172125207,-1.6210620031189498,0.028137425114711023,2.28786556630465,0.846629064394368,0.06226373270833701,0.6884179775783729,-0.07863937525950354,-1.6210372792796082,0.028167345702647853,2.2878312372101677,0.8466366937888992,-0.0012797312835142996,0.0009361671874909827,-0.0010274390017789633,0.00040093733102159113,0.003289038703455505,-1.4230797811637725e-05,-0.0007754190186393461,0.0,0.0,0.0,0.0,0.0,0.0,0.0,-9.016040335206588e-05,0.00016077201673991848,8.939646174853377e-05,2.4723839341600495e-05,2.9920587936830417e-05,-3.432909448219945e-05,7.629394531138978e-06,0.0012797312835142996,-0.0009361671874909827,0.0010274390017789633,-0.00040093733102159113,-0.003289038703455505,1.4230797811637725e-05,0.0007754190186393461,0.3752071261405945,47.24624252319336,1.0417754650115967,-21.022981643676758,-0.7903953194618225,-2.3266634941101074,0.26858848333358765,0
10,0.04500412940979004,-0.3752071261405945,-47.24624252319336,-1.0417754650115967,21.022981643676758,0.7903953194618225,2.3266634941101074,-0.26858848333358765,0.0,0.0,0.0,0.0,0.0,0.0,0.0,-0.4262869520682228,-0.43349970203948446,-0.21696631275324557,0.6278272271187645,0.22094159613983141,0.10935243702178857,-0.29623544195699164,0.062353893111689075,0.688257205561633,-0.07872877172125207,-1.6210620031189498,0.028137425114711023,2.28786556630465,0.846629064394368,0.06226373270833701,0.6884179775783729,-0.07863937525950354,-1.6210372792796082,0.028167345702647853,2.2878312372101677,0.8466366937888992,-0.0012797312835142996,0.0009361671874909827,-0.0010274390017789633,0.00040093733102159113,0.003289038703455505,-1.4230797811637725e-05,-0.0007754190186393461,0.0,0.0,0.0,0.0,0.0,0.0,0.0,-9.016040335206588e-05,0.00016077201673991848,8.939646174853377e-05,2.4723839341600495e-05,2.9920587936830417e-05,-3.432909448219945e-05,7.629394531138978e-06,0.0012797312835142996,-0.0009361671874909827,0.0010274390017789633,-0.00040093733102159113,-0.003289038703455505,1.4230797811637725e-05,0.0007754190186393461,0.3752071261405945,47.24624252319336,1.0417754650115967,-21.022981643676758,-0.7903953194618225,-2.3266634941101074,0.26858848333358765,0
11,0.05002713203430176,-0.4029781222343445,-47.19466781616211,-1.0695464611053467,21.046785354614258,0.7968040108680725,2.3202548027038574,-0.26858848333358765,0.0,0.0,0.0,0.0,0.0,0.0,0.0,-0.4144790890780637,-0.44634157687841486,-0.2073628295034271,0.6369430397223187,0.2213617003745329,0.10966111562236992,-0.29475535588136414,0.06235584292913187,0.6882564694197323,-0.07872682190464804,-1.621063673554805,0.028136713037888207,2.2878662783834667,0.846629064394368,0.06226373270833701,0.6884179775783729,-0.07863937525950354,-1.6210372792796082,0.028167345702647853,2.2878312372101677,0.8466366937888992,-0.00044172596672610045,-0.00030851865096450303,0.00014180791602122256,-8.302286835184886e-05,0.00012325892283891597,0.00022301293621251287,-0.0010912524142458716,0.0,0.0,0.0,0.0,0.0,0.0,0.0,-9.211022079486098e-05,0.00016150815864057755,8.744664514449829e-05,2.6394275196794936e-05,3.063266475964582e-05,-3.5041173298999695e-05,7.629394531138978e-06,0.00044172596672610045,0.00030851865096450303,-0.00014180791602122256,8.302286835184886e-05,-0.00012325892283891597,-0.00022301293621251287,0.0010912524142458716,0.4029781222343445,47.19466781616211,1.0695464611053467,-21.046785354614258,-0.7968040108680725,-2.3202548027038574,0.26858848333358765,0
12,0.05501365661621094,-0.4029781222343445,-47.19466781616211,-1.0695464611053467,21.046785354614258,0.7968040108680725,2.3202548027038574,-0.26858848333358765,0.0,0.0,0.0,0.0,0.0,0.0,0.0,-0.4144790890780637,-0.44634157687841486,-0.2073628295034271,0.6369430397223187,0.2213617003745329,0.10966111562236992,-0.29475535588136414,0.06235584292913187,0.6882564694197323,-0.07872682190464804,-1.621063673554805,0.028136713037888207,2.2878662783834667,0.846629064394368,0.06226373270833701,0.6884179775783729,-0.07863937525950354,-1.6210372792796082,0.028167345702647853,2.2878312372101677,0.8466366937888992,-0.00044172596672610045,-0.00030851865096450303,0.00014180791602122256,-8.302286835184886e-05,0.00012325892283891597,0.00022301293621251287,-0.0010912524142458716,0.0,0.0,0.0,0.0,0.0,0.0,0.0,-9.211022079486098e-05,0.00016150815864057755,8.744664514449829e-05,2.6394275196794936e-05,3.063266475964582e-05,-3.5041173298999695e-05,7.629394531138978e-06,0.00044172596672610045,0.00030851865096450303,-0.00014180791602122256,8.302286835184886e-05,-0.00012325892283891597,-0.00022301293621251287,0.0010912524142458716,0.4029781222343445,47.19466781616211,1.0695464611053467,-21.046785354614258,-0.7968040108680725,-2.3202548027038574,0.26858848333358765,0
13,0.06093287467956543,-0.4505855441093445,-47.21847152709961,-1.0695464611053467,21.046785354614258,0.7968040108680725,2.3394808769226074,-0.27591270208358765,0.0,0.0,0.0,0.0,0.0,0.0,0.0,-0.436667221385074,-0.4507496009141668,-0.22244589670974851,0.6425247145056413,0.22190513420896918,0.10965724025107565,-0.2928283982320306,0.06235918380084791,0.6882580445371362,-0.07872682190464254,-1.621063673554805,0.028136713037888207,2.2878641421529977,0.8466298777119347,0.06226373270833701,0.6884179775783729,-0.07863937525950354,-1.6210372792796082,0.028167345702647853,2.2878312372101677,0.8466366937888992,0.0003433096786073902,-6.12694277565663e-06,-0.0008806654871795537,0.0003171387260351359,0.00025148239162871825,-0.0004906543378426022,-0.0007637923751378175,0.0,0.0,0.0,0.0,0.0,0.0,0.0,-9.545109251089812e-05,0.00015993304123662622,8.744664513900269e-05,2.6394275196794936e-05,3.063266475964582e-05,-3.290494283003653e-05,6.81607696451092e-06,-0.0003433096786073902,6.12694277565663e-06,0.0008806654871795537,-0.0003171387260351359,-0.00025148239162871825,0.0004906543378426022,0.0007637923751378175,0.4505855441093445,47.21847152709961,1.0695464611053467,-21.046785354614258,-0.7968040108680725,-2.3394808769226074,0.27591270208358765,0
14,0.06500625610351562,-0.4505855441093445,-47.21847152709961,-1.0695464611053467,21.046785354614258,0.7968040108680725,2.3394808769226074,-0.27591270208358765,0.0,0.0,0.0,0.0,0.0,0.0,0.0,-0.436667221385074,-0.4507496009141668,-0.22244589670974851,0.6425247145056413,0.22190513420896918,0.10965724025107565,-0.2928283982320306,0.06235918380084791,0.6882580445371362,-0.07872682190464254,-1.621063673554805,0.028136713037888207,2.2878641421529977,0.8466298777119347,0.06226373270833701,0.6884179775783729,-0.07863937525950354,-1.6210372792796082,0.028167345702647853,2.2878312372101677,0.8466366937888992,0.0003433096786073902,-6.12694277565663e-06,-0.0008806654871795537,0.0003171387260351359,0.00025148239162871825,-0.0004906543378426022,-0.0007637923751378175,0.0,0.0,0.0,0.0,0.0,0.0,0.0,-9.545109251089812e-05,0.00015993304123662622,8.744664513900269e-05,2.6394275196794936e-05,3.063266475964582e-05,-3.290494283003653e-05,6.81607696451092e-06,-0.0003433096786073902,6.12694277565663e-06,0.0008806654871795537,-0.0003171387260351359,-0.00025148239162871825,0.0004906543378426022,0.0007637923751378175,0.4505855441093445,47.21847152709961,1.0695464611053467,-21.046785354614258,-0.7968040108680725,-2.3394808769226074,0.27591270208358765,0
15,0.07000446319580078,-0.4505855441093445,-47.24624252319336,-1.0695464611053467,21.046785354614258,0.7849021553993225,2.3330721855163574,-0.28232139348983765,0.0,0.0,0.0,0.0,0.0,0.0,0.0,-0.4199184028428383,-0.4546120685555325,-0.21235764882839941,0.645299134399648,0.22247015442688664,0.11029339069483564,-0.29215567179889196,0.06235918380084791,0.6882593944067116,-0.07872682190464254,-1.621063673554805,0.028138035466273623,2.2878648542298206,0.8466305902194364,0.06226373270833701,0.6884179775783729,-0.07863937525950354,-1.6210372792796082,0.028167345702647853,2.2878312372101677,0.8466366937888992,0.0003142613788270612,-2.6455020417116172e-05,-0.00028956333687547945,0.00041399335656128915,0.0006309028863851201,1.46832684005281e-05,-0.0002092297915841138,0.0,0.0,0.0,0.0,0.0,0.0,0.0,-9.545109251089812e-05,0.00015858317166128622,8.744664513900269e-05,2.6394275196794936e-05,2.931023637423036e-05,-3.361701965287622e-05,6.103569462734271e-06,-0.0003142613788270612,2.6455020417116172e-05,0.00028956333687547945,-0.00041399335656128915,-0.0006309028863851201,-1.46832684005281e-05,0.0002092297915841138,0.4505855441093445,47.24624252319336,1.0695464611053467,-21.046785354614258,-0.7849021553993225,-2.3330721855163574,0.28232139348983765,0
16,0.07591533660888672,-0.4505855441093445,-47.24624252319336,-1.0695464611053467,21.046785354614258,0.7849021553993225,2.3330721855163574,-0.28232139348983765,0.0,0.0,0.0,0.0,0.0,0.0,0.0,-0.4199184028428383,-0.4546120685555325,-0.21235764882839941,0.645299134399648,0.22247015442688664,0.11029339069483564,-0.29215567179889196,0.06235918380084791,0.6882593944067116,-0.07872682190464254,-1.621063673554805,0.028138035466273623,2.2878648542298206,0.8466305902194364,0.06226373270833701,0.6884179775783729,-0.07863937525950354,-1.6210372792796082,0.028167345702647853,2.2878312372101677,0.8466366937888992,0.0003142613788270612,-2.6455020417116172e-05,-0.00028956333687547945,0.00041399335656128915,0.0006309028863851201,1.46832684005281e-05,-0.0002092297915841138,0.0,0.0,0.0,0.0,0.0,0.0,0.0,-9.545109251089812e-05,0.00015858317166128622,8.744664513900269e-05,2.6394275196794936e-05,2.931023637423036e-05,-3.361701965287622e-05,6.103569462734271e-06,-0.0003142613788270612,2.6455020417116172e-05,0.00028956333687547945,-0.00041399335656128915,-0.0006309028863851201,-1.46832684005281e-05,0.0002092297915841138,0.4505855441093445,47.24624252319336,1.0695464611053467,-21.046785354614258,-0.7849021553993225,-2.3330721855163574,0.28232139348983765,0
17,0.08000516891479492,-0.4267818331718445,-47.21847152709961,-1.0933501720428467,21.046785354614258,0.8022971749305725,2.3330721855163574,-0.32352012395858765,0.0,0.0,0.0,0.0,0.0,0.0,0.0,-0.42536393950070067,-0.4467699663424016,-0.21513148678694263,0.6387839556037167,0.22171944012718106,0.11040686357745147,-0.29249179599616076,0.062357513364992644,0.6882562696238727,-0.07872515146878728,-1.621063673554805,0.028136102686325704,2.2878648542298206,0.8466341039112126,0.06226373270833701,0.6884179775783729,-0.07863937525950354,-1.6210372792796082,0.028167345702647853,2.2878312372101677,0.8466366937888992,-8.800424696782642e-05,-0.0007910927916585742,0.00019275626203130327,0.00010655106857150988,0.0005566807257603067,0.00011497222869246606,0.001527873230748735,0.0,0.0,0.0,0.0,0.0,0.0,0.0,-9.378065665563429e-05,0.00016170795450021203,8.577620928373886e-05,2.6394275196794936e-05,3.124301632214874e-05,-3.361701965287622e-05,2.5898776865318496e-06,8.800424696782642e-05,0.0007910927916585742,-0.00019275626203130327,-0.00010655106857150988,-0.0005566807257603067,-0.00011497222869246606,-0.001527873230748735,0.4267818331718445,47.21847152709961,1.0933501720428467,-21.046785354614258,-0.8022971749305725,-2.3330721855163574,0.32352012395858765,0
18,0.08500432968139648,-0.4267818331718445,-47.21847152709961,-1.0933501720428467,21.046785354614258,0.8022971749305725,2.3330721855163574,-0.32352012395858765,0.0,0.0,0.0,0.0,0.0,0.0,0.0,-0.42536393950070067,-0.4467699663424016,-0.21513148678694263,0.6387839556037167,0.22171944012718106,0.11040686357745147,-0.29249179599616076,0.062357513364992644,0.6882562696238727,-0.07872515146878728,-1.621063673554805,0.028136102686325704,2.2878648542298206,0.8466341039112126,0.06226373270833701,0.6884179775783729,-0.07863937525950354,-1.6210372792796082,0.028167345702647853,2.2878312372101677,0.8466366937888992,-8.800424696782642e-05,-0.0007910927916585742,0.00019275626203130327,0.00010655106857150988,0.0005566807257603067,0.00011497222869246606,0.001527873230748735,0.0,0.0,0.0,0.0,0.0,0.0,0.0,-9.378065665563429e-05,0.00016170795450021203,8.577620928373886e-05,2.6394275196794936e-05,3.124301632214874e-05,-3.361701965287622e-05,2.5898776865318496e-06,8.800424696782642e-05,0.0007910927916585742,-0.00019275626203130327,-0.00010655106857150988,-0.0005566807257603067,-0.00011497222869246606,-0.001527873230748735,0.4267818331718445,47.21847152709961,1.0933501720428467,-21.046785354614258,-0.8022971749305725,-2.3330721855163574,0.32352012395858765,0
19,0.09000468254089355,-0.4267818331718445,-47.21847152709961,-1.0933501720428467,21.046785354614258,0.8022971749305725,2.3330721855163574,-0.32352012395858765,0.0,0.0,0.0,0.0,0.0,0.0,0.0,-0.42536393950070067,-0.4467699663424016,-0.21513148678694263,0.6387839556037167,0.22171944012718106,0.11040686357745147,-0.29249179599616076,0.062357513364992644,0.6882562696238727,-0.07872515146878728,-1.621063673554805,0.028136102686325704,2.2878648542298206,0.8466341039112126,0.06226373270833701,0.6884179775783729,-0.07863937525950354,-1.6210372792796082,0.028167345702647853,2.2878312372101677,0.8466366937888992,-8.800424696782642e-05,-0.0007910927916585742,0.00019275626203130327,0.00010655106857150988,0.0005566807257603067,0.00011497222869246606,0.001527873230748735,0.0,0.0,0.0,0.0,0.0,0.0,0.0,-9.378065665563429e-05,0.00016170795450021203,8.577620928373886e-05,2.6394275196794936e-05,3.124301632214874e-05,-3.361701965287622e-05,2.5898776865318496e-06,8.800424696782642e-05,0.0007910927916585742,-0.00019275626203130327,-0.00010655106857150988,-0.0005566807257603067,-0.00011497222869246606,-0.001527873230748735,0.4267818331718445,47.21847152709961,1.0933501720428467,-21.046785354614258,-0.8022971749305725,-2.3330721855163574,0.32352012395858765,0
20,0.09501957893371582,-0.4267818331718445,-47.21847152709961,-1.0933501720428467,21.046785354614258,0.8022971749305725,2.3330721855163574,-0.32352012395858765,0.0,0.0,0.0,0.0,0.0,0.0,0.0,-0.42536393950070067,-0.4467699663424016,-0.21513148678694263,0.6387839556037167,0.22171944012718106,0.11040686357745147,-0.29249179599616076,0.062357513364992644,0.6882562696238727,-0.07872515146878728,-1.621063673554805,0.028136102686325704,2.2878648542298206,0.8466341039112126,0.06226373270833701,0.6884179775783729,-0.07863937525950354,-1.6210372792796082,0.028167345702647853,2.2878312372101677,0.8466366937888992,-8.800424696782642e-05,-0.0007910927916585742,0.00019275626203130327,0.00010655106857150988,0.0005566807257603067,0.00011497222869246606,0.001527873230748735,0.0,0.0,0.0,0.0,0.0,0.0,0.0,-9.378065665563429e-05,0.00016170795450021203,8.577620928373886e-05,2.6394275196794936e-05,3.124301632214874e-05,-3.361701965287622e-05,2.5898776865318496e-06,8.800424696782642e-05,0.0007910927916585742,-0.00019275626203130327,-0.00010655106857150988,-0.0005566807257603067,-0.00011497222869246606,-0.001527873230748735,0.4267818331718445,47.21847152709961,1.0933501720428467,-21.046785354614258,-0.8022971749305725,-2.3330721855163574,0.32352012395858765,0
21,0.10001659393310547,-0.4267818331718445,-47.21847152709961,-1.0933501720428467,21.046785354614258,0.8022971749305725,2.3330721855163574,-0.32352012395858765,0.0,0.0,0.0,0.0,0.0,0.0,0.0,-0.42536393950070067,-0.4467699663424016,-0.21513148678694263,0.6387839556037167,0.22171944012718106,0.11040686357745147,-0.29249179599616076,0.062357513364992644,0.6882562696238727,-0.07872515146878728,-1.621063673554805,0.028136102686325704,2.2878648542298206,0.8466341039112126,0.06226373270833701,0.6884179775783729,-0.07863937525950354,-1.6210372792796082,0.028167345702647853,2.2878312372101677,0.8466366937888992,-8.800424696782642e-05,-0.0007910927916585742,0.00019275626203130327,0.00010655106857150988,0.0005566807257603067,0.00011497222869246606,0.001527873230748735,0.0,0.0,0.0,0.0,0.0,0.0,0.0,-9.378065665563429e-05,0.00016170795450021203,8.577620928373886e-05,2.6394275196794936e-05,3.124301632214874e-05,-3.361701965287622e-05,2.5898776865318496e-06,8.800424696782642e-05,0.0007910927916585742,-0.00019275626203130327,-0.00010655106857150988,-0.0005566807257603067,-0.00011497222869246606,-0.001527873230748735,0.4267818331718445,47.21847152709961,1.0933501720428467,-21.046785354614258,-0.8022971749305725,-2.3330721855163574,0.32352012395858765,0
22,0.10502505302429199,-0.4505855441093445,-47.24624252319336,-1.1171538829803467,21.046785354614258,0.7903953194618225,2.3202548027038574,-0.32352012395858765,0.0,0.0,0.0,0.0,0.0,0.0,0.0,-0.42751155710017297,-0.4426453296353176,-0.21371746883368667,0.637744940536509,0.22233771376140612,0.1104291306176604,-0.29292119129715355,0.06235918380084791,0.6882593866928759,-0.07872561189898274,-1.621063673554805,0.028137425114711123,2.287866278221961,0.8466351679039867,0.06226373270833701,0.6884179775783729,-0.07863937525950354,-1.6210372792796082,0.028167345702647853,2.2878312372101677,0.8466366937888992,0.0004577260762243067,0.00025426226322548096,0.0008775271534577918,0.0005138139738564965,0.0002524495834870641,0.0005061706688124111,0.0009048660593524472,0.0,0.0,0.0,0.0,0.0,0.0,0.0,-9.545109251089812e-05,0.00015859088549696754,8.623663947919524e-05,2.6394275196794936e-05,2.9920587936729803e-05,-3.5041011793524035e-05,1.5258849124233365e-06,-0.0004577260762243067,-0.00025426226322548096,-0.0008775271534577918,-0.0005138139738564965,-0.0002524495834870641,-0.0005061706688124111,-0.0009048660593524472,0.4505855441093445,47.24624252319336,1.1171538829803467,-21.046785354614258,-0.7903953194618225,-2.3202548027038574,0.32352012395858765,0
23,0.11000943183898926,-0.4505855441093445,-47.24624252319336,-1.1171538829803467,21.046785354614258,0.7903953194618225,2.3202548027038574,-0.32352012395858765,0.0,0.0,0.0,0.0,0.0,0.0,0.0,-0.42751155710017297,-0.4426453296353176,-0.21371746883368667,0.637744940536509,0.22233771376140612,0.1104291306176604,-0.29292119129715355,0.06235918380084791,0.6882593866928759,-0.07872561189898274,-1.621063673554805,0.028137425114711123,2.287866278221961,0.8466351679039867,0.06226373270833701,0.6884179775783729,-0.07863937525950354,-1.6210372792796082,0.028167345702647853,2.2878312372101677,0.8466366937888992,0.0004577260762243067,0.00025426226322548096,0.0008775271534577918,0.0005138139738564965,0.0002524495834870641,0.0005061706688124111,0.0009048660593524472,0.0,0.0,0.0,0.0,0.0,0.0,0.0,-9.545109251089812e-05,0.00015859088549696754,8.623663947919524e-05,2.6394275196794936e-05,2.9920587936729803e-05,-3.5041011793524035e-05,1.5258849124233365e-06,-0.0004577260762243067,-0.00025426226322548096,-0.0008775271534577918,-0.0005138139738564965,-0.0002524495834870641,-0.0005061706688124111,-0.0009048660593524472,0.4505855441093445,47.24624252319336,1.1171538829803467,-21.046785354614258,-0.7903953194618225,-2.3202548027038574,0.32352012395858765,0
24,0.11500811576843262,-0.4029781222343445,-47.21847152709961,-1.1171538829803467,21.046785354614258,0.7784934639930725,2.3330721855163574,-0.32352012395858765,0.0,0.0,0.0,0.0,0.0,0.0,0.0,-0.4229176253629862,-0.445813317843969,-0.21052674144457117,0.6378735299998504,0.22164148252065152,0.11026297194056918,-0.29391809905242683,0.06235513051198687,0.6882562012881251,-0.07872348104496081,-1.621063673554805,0.02813874754309654,2.2878648542298197,0.846635167909993,0.06226373270833701,0.6884179775783729,-0.07863937525950354,-1.6210372792796082,0.028167345702647853,2.2878312372101677,0.8466366937888992,-0.00046163665905128736,-0.0003815784008360719,0.0007026309986239794,-0.00011151562258858342,0.0005660831558827677,-0.00019346470295627418,0.00098171009781349,0.0,0.0,0.0,0.0,0.0,0.0,0.0,-9.139780364986194e-05,0.00016177629024771711,8.410578545726966e-05,2.6394275196794936e-05,2.859815955131434e-05,-3.3617019651988045e-05,1.5258789061167732e-06,0.00046163665905128736,0.0003815784008360719,-0.0007026309986239794,0.00011151562258858342,-0.0005660831558827677,0.00019346470295627418,-0.00098171009781349,0.4029781222343445,47.21847152709961,1.1171538829803467,-21.046785354614258,-0.7784934639930725,-2.3330721855163574,0.32352012395858765,0
25,0.11996674537658691,-0.4029781222343445,-47.21847152709961,-1.1171538829803467,21.046785354614258,0.7784934639930725,2.3330721855163574,-0.32352012395858765,0.0,0.0,0.0,0.0,0.0,0.0,0.0,-0.4229176253629862,-0.445813317843969,-0.21052674144457117,0.6378735299998504,0.22164148252065152,0.11026297194056918,-0.29391809905242683,0.06235513051198687,0.6882562012881251,-0.07872348104496081,-1.621063673554805,0.02813874754309654,2.2878648542298197,0.846635167909993,0.06226373270833701,0.6884179775783729,-0.07863937525950354,-1.6210372792796082,0.028167345702647853,2.2878312372101677,0.8466366937888992,-0.00046163665905128736,-0.0003815784008360719,0.0007026309986239794,-0.00011151562258858342,0.0005660831558827677,-0.00019346470295627418,0.00098171009781349,0.0,0.0,0.0,0.0,0.0,0.0,0.0,-9.139780364986194e-05,0.00016177629024771711,8.410578545726966e-05,2.6394275196794936e-05,2.859815955131434e-05,-3.3617019651988045e-05,1.5258789061167732e-06,0.00046163665905128736,0.0003815784008360719,-0.0007026309986239794,0.00011151562258858342,-0.0005660831558827677,0.00019346470295627418,-0.00098171009781349,0.4029781222343445,47.21847152709961,1.1171538829803467,-21.046785354614258,-0.7784934639930725,-2.3330721855163574,0.32352012395858765,0
26,0.12501025199890137,-0.4029781222343445,-47.21847152709961,-1.0417754650115967,21.022981643676758,0.8022971749305725,2.3394808769226074,-0.25485557317733765,0.0,0.0,0.0,0.0,0.0,0.0,0.0,-0.41985424794052195,-0.44255533754818316,-0.21095500054085223,0.6354176620140397,0.21998676732047018,0.10993503377266793,-0.29489258198848456,0.06235581658746666,0.6882583824954674,-0.07872877074647373,-1.6210620031189498,0.028136102686325704,2.2878641421529977,0.8466275385154618,0.06226373270833701,0.6884179775783729,-0.07863937525950354,-1.6210372792796082,0.028167345702647853,2.2878312372101677,0.8466366937888992,-0.0005487493965172557,0.00018131513398675047,-0.0005880105000293522,0.00045649243549368096,-0.00032421456321187815,-0.0006510595594362679,-0.001890952479898938,0.0,0.0,0.0,0.0,0.0,0.0,0.0,-9.208387912965077e-05,0.00015959508290541713,8.93954869701924e-05,2.4723839341600495e-05,3.124301632214874e-05,-3.290494283003653e-05,9.155273437366773e-06,0.0005487493965172557,-0.00018131513398675047,0.0005880105000293522,-0.00045649243549368096,0.00032421456321187815,0.0006510595594362679,0.001890952479898938,0.4029781222343445,47.21847152709961,1.0417754650115967,-21.022981643676758,-0.8022971749305725,-2.3394808769226074,0.25485557317733765,0
27,0.1300055980682373,-0.4029781222343445,-47.21847152709961,-1.0417754650115967,21.022981643676758,0.8022971749305725,2.3394808769226074,-0.25485557317733765,0.0,0.0,0.0,0.0,0.0,0.0,0.0,-0.41985424794052195,-0.44255533754818316,-0.21095500054085223,0.6354176620140397,0.21998676732047018,0.10993503377266793,-0.29489258198848456,0.06235581658746666,0.6882583824954674,-0.07872877074647373,-1.6210620031189498,0.028136102686325704,2.2878641421529977,0.8466275385154618,0.06226373270833701,0.6884179775783729,-0.07863937525950354,-1.6210372792796082,0.028167345702647853,2.2878312372101677,0.8466366937888992,-0.0005487493965172557,0.00018131513398675047,-0.0005880105000293522,0.00045649243549368096,-0.00032421456321187815,-0.0006510595594362679,-0.001890952479898938,0.0,0.0,0.0,0.0,0.0,0.0,0.0,-9.208387912965077e-05,0.00015959508290541713,8.93954869701924e-05,2.4723839341600495e-05,3.124301632214874e-05,-3.290494283003653e-05,9.155273437366773e-06,0.0005487493965172557,-0.00018131513398675047,0.0005880105000293522,-0.00045649243549368096,0.00032421456321187815,0.0006510595594362679,0.001890952479898938,0.4029781222343445,47.21847152709961,1.0417754650115967,-21.022981643676758,-0.8022971749305725,-2.3394808769226074,0.25485557317733765,0
28,0.13500547409057617,-0.4267818331718445,-47.19466781616211,-1.1171538829803467,21.046785354614258,0.7903953194618225,2.3330721855163574,-0.25485557317733765,0.0,0.0,0.0,0.0,0.0,0.0,0.0,-0.43031654455056195,-0.45297423376160073,-0.21927854215922102,0.6403005188907904,0.21947993092855664,0.11022089434666137,-0.29408575194458225,0.06235748702719484,0.6882566860715451,-0.07872348200726491,-1.621063673554805,0.028137425114711123,2.2878648542298206,0.846624359116557,0.06226373270833701,0.6884179775783729,-0.07863937525950354,-1.6210372792796082,0.028167345702647853,2.2878312372101677,0.8466366937888992,0.00039006934441644816,-0.0006220812498830311,0.0009581594655438999,-0.00020079825609821227,0.00022061107695418218,-0.0001474404192731793,-0.0014453867643390785,0.0,0.0,0.0,0.0,0.0,0.0,0.0,-9.375431885783048e-05,0.00016129150682775428,8.410674776136717e-05,2.6394275196794936e-05,2.9920587936729803e-05,-3.361701965287622e-05,1.233467234218466e-05,-0.00039006934441644816,0.0006220812498830311,-0.0009581594655438999,0.00020079825609821227,-0.00022061107695418218,0.0001474404192731793,0.0014453867643390785,0.4267818331718445,47.19466781616211,1.1171538829803467,-21.046785354614258,-0.7903953194618225,-2.3330721855163574,0.25485557317733765,0
29,0.14002513885498047,-0.4267818331718445,-47.19466781616211,-1.1171538829803467,21.046785354614258,0.7903953194618225,2.3330721855163574,-0.25485557317733765,0.0,0.0,0.0,0.0,0.0,0.0,0.0,-0.43031654455056195,-0.45297423376160073,-0.21927854215922102,0.6403005188907904,0.21947993092855664,0.11022089434666137,-0.29408575194458225,0.06235748702719484,0.6882566860715451,-0.07872348200726491,-1.621063673554805,0.028137425114711123,2.2878648542298206,0.846624359116557,0.06226373270833701,0.6884179775783729,-0.07863937525950354,-1.6210372792796082,0.028167345702647853,2.2878312372101677,0.8466366937888992,0.00039006934441644816,-0.0006220812498830311,0.0009581594655438999,-0.00020079825609821227,0.00022061107695418218,-0.0001474404192731793,-0.0014453867643390785,0.0,0.0,0.0,0.0,0.0,0.0,0.0,-9.375431885783048e-05,0.00016129150682775428,8.410674776136717e-05,2.6394275196794936e-05,2.9920587936729803e-05,-3.361701965287622e-05,1.233467234218466e-05,-0.00039006934441644816,0.0006220812498830311,-0.0009581594655438999,0.00020079825609821227,-0.00022061107695418218,0.0001474404192731793,0.0014453867643390785,0.4267818331718445,47.19466781616211,1.1171538829803467,-21.046785354614258,-0.7903953194618225,-2.3330721855163574,0.25485557317733765,0
30,0.14503788948059082,-0.4505855441093445,-47.27004623413086,-1.0695464611053467,21.046785354614258,0.7968040108680725,2.3330721855163574,-0.27591270208358765,0.0,0.0,0.0,0.0,0.0,0.0,0.0,-0.4218948921610282,-0.45588609394321367,-0.21742539522948293,0.6422431557326975,0.21869841546477345,0.11050478500223834,-0.29342027001646215,0.06235918380069923,0.6882598973594998,-0.07872682190464804,-1.6210636706113657,0.028136713037888207,2.2878648411478686,0.8466295249657938,0.06226373270833701,0.6884179775783729,-0.07863937525950354,-1.6210372792796082,0.028167345702647853,2.2878312372101677,0.8466366937888992,0.0007180047700827658,0.0006294578400550681,-0.00022514037949745573,0.00027646172960557337,-0.00014940941601311976,-0.00011023229363522129,-0.0009419852481397971,0.0,0.0,0.0,0.0,0.0,0.0,0.0,-9.545109236221844e-05,0.0001580802188730912,8.744664514449829e-05,2.639133175752484e-05,3.063266475964582e-05,-3.360393770091008e-05,7.1688231053634865e-06,-0.0007180047700827658,-0.0006294578400550681,0.00022514037949745573,-0.00027646172960557337,0.00014940941601311976,0.00011023229363522129,0.0009419852481397971,0.4505855441093445,47.27004623413086,1.0695464611053467,-21.046785354614258,-0.7968040108680725,-2.3330721855163574,0.27591270208358765,0
31,0.15001964569091797,-0.4505855441093445,-47.27004623413086,-1.0695464611053467,21.046785354614258,0.7968040108680725,2.3330721855163574,-0.27591270208358765,0.0,0.0,0.0,0.0,0.0,0.0,0.0,-0.4218948921610282,-0.45588609394321367,-0.21742539522948293,0.6422431557326975,0.21869841546477345,0.11050478500223834,-0.29342027001646215,0.06235918380069923,0.6882598973594998,-0.07872682190464804,-1.6210636706113657,0.028136713037888207,2.2878648411478686,0.8466295249657938,0.06226373270833701,0.6884179775783729,-0.07863937525950354,-1.6210372792796082,0.028167345702647853,2.2878312372101677,0.8466366937888992,0.0007180047700827658,0.0006294578400550681,-0.00022514037949745573,0.00027646172960557337,-0.00014940941601311976,-0.00011023229363522129,-0.0009419852481397971,0.0,0.0,0.0,0.0,0.0,0.0,0.0,-9.545109236221844e-05,0.0001580802188730912,8.744664514449829e-05,2.639133175752484e-05,3.063266475964582e-05,-3.360393770091008e-05,7.1688231053634865e-06,-0.0007180047700827658,-0.0006294578400550681,0.00022514037949745573,-0.00027646172960557337,0.00014940941601311976,0.00011023229363522129,0.0009419852481397971,0.4505855441093445,47.27004623413086,1.0695464611053467,-21.046785354614258,-0.7968040108680725,-2.3330721855163574,0.27591270208358765,0
32,0.15790772438049316,-0.4267818331718445,-47.21847152709961,-1.0933501720428467,21.046785354614258,0.7903953194618225,2.3394808769226074,-0.26858848333358765,0.0,0.0,0.0,0.0,0.0,0.0,0.0,-0.4287469636220351,-0.4336921447305841,-0.22191744304376682,0.6291006643833916,0.21813879180521814,0.10897248676904421,-0.29341797231380756,0.062357513364992644,0.6882553404871037,-0.07872515146878728,-1.6210636735547883,0.028137423653779567,2.287864142152924,0.8466290643923741,0.06226373270833701,0.6884179775783729,-0.07863937525950354,-1.6210372792796082,0.028167345702647853,2.2878312372101677,0.8466366937888992,-0.00036186040818769576,-0.00023077457427834298,4.665768774342183e-05,-0.0002655208213811242,0.0002366974112101293,-0.0004713133552829144,-0.0009442082476386295,0.0,0.0,0.0,0.0,0.0,0.0,0.0,-9.378065665563429e-05,0.0001626370912691799,8.577620928373886e-05,2.639427518014159e-05,2.992204886828609e-05,-3.290494275631772e-05,7.62939652509953e-06,0.00036186040818769576,0.00023077457427834298,-4.665768774342183e-05,0.0002655208213811242,-0.0002366974112101293,0.0004713133552829144,0.0009442082476386295,0.4267818331718445,47.21847152709961,1.0933501720428467,-21.046785354614258,-0.7903953194618225,-2.3394808769226074,0.26858848333358765,0
33,0.1600031852722168,-0.4267818331718445,-47.21847152709961,-1.0933501720428467,21.046785354614258,0.7903953194618225,2.3394808769226074,-0.26858848333358765,0.0,0.0,0.0,0.0,0.0,0.0,0.0,-0.4287469636220351,-0.4336921447305841,-0.22191744304376682,0.6291006643833916,0.21813879180521814,0.10897248676904421,-0.29341797231380756,0.062357513364992644,0.6882553404871037,-0.07872515146878728,-1.6210636735547883,0.028137423653779567,2.287864142152924,0.8466290643923741,0.06226373270833701,0.6884179775783729,-0.07863937525950354,-1.6210372792796082,0.028167345702647853,2.2878312372101677,0.8466366937888992,-0.00036186040818769576,-0.00023077457427834298,4.665768774342183e-05,-0.0002655208213811242,0.0002366974112101293,-0.0004713133552829144,-0.0009442082476386295,0.0,0.0,0.0,0.0,0.0,0.0,0.0,-9.378065665563429e-05,0.0001626370912691799,8.577620928373886e-05,2.639427518014159e-05,2.992204886828609e-05,-3.290494275631772e-05,7.62939652509953e-06,0.00036186040818769576,0.00023077457427834298,-4.665768774342183e-05,0.0002655208213811242,-0.0002366974112101293,0.0004713133552829144,0.0009442082476386295,0.4267818331718445,47.21847152709961,1.0933501720428467,-21.046785354614258,-0.7903953194618225,-2.3394808769226074,0.26858848333358765,0
34,0.16501331329345703,-0.4267818331718445,-47.27004623413086,-1.0695464611053467,21.074556350708008,0.8022971749305725,2.3394808769226074,-0.30337852239608765,0.0,0.0,0.0,0.0,0.0,0.0,0.0,-0.4174813227669114,-0.4550326660722321,-0.21355567741731,0.6401286264686383,0.2181863077217577,0.11094055221133131,-0.2929060293045744,0.062357513364992644,0.6882612930528604,-0.07872682190464254,-1.6210656223966362,0.028136102686317457,2.2878641421529977,0.8466325767415541,0.06226373270833701,0.6884179775783729,-0.07863937525950354,-1.6210372792796082,0.028167345702647853,2.2878312372101677,0.8466366937888992,-4.687154302779458e-05,0.000516620204741081,-0.00045195222050703287,-0.00022496843405895195,-0.00014739912627025192,-0.00022061909039117604,0.0008092251311894962,0.0,0.0,0.0,0.0,0.0,0.0,0.0,-9.378065665563429e-05,0.0001566845255124294,8.744664513900269e-05,2.8343117028040155e-05,3.124301633039561e-05,-3.290494283003653e-05,4.117047345042479e-06,4.687154302779458e-05,-0.000516620204741081,0.00045195222050703287,0.00022496843405895195,0.00014739912627025192,0.00022061909039117604,-0.0008092251311894962,0.4267818331718445,47.27004623413086,1.0695464611053467,-21.074556350708008,-0.8022971749305725,-2.3394808769226074,0.30337852239608765,0
35,0.1699991226196289,-0.4267818331718445,-47.27004623413086,-1.0695464611053467,21.074556350708008,0.8022971749305725,2.3394808769226074,-0.30337852239608765,0.0,0.0,0.0,0.0,0.0,0.0,0.0,-0.4174813227669114,-0.4550326660722321,-0.21355567741731,0.6401286264686383,0.2181863077217577,0.11094055221133131,-0.2929060293045744,0.062357513364992644,0.6882612930528604,-0.07872682190464254,-1.6210656223966362,0.028136102686317457,2.2878641421529977,0.8466325767415541,0.06226373270833701,0.6884179775783729,-0.07863937525950354,-1.6210372792796082,0.028167345702647853,2.2878312372101677,0.8466366937888992,-4.687154302779458e-05,0.000516620204741081,-0.00045195222050703287,-0.00022496843405895195,-0.00014739912627025192,-0.00022061909039117604,0.0008092251311894962,0.0,0.0,0.0,0.0,0.0,0.0,0.0,-9.378065665563429e-05,0.0001566845255124294,8.744664513900269e-05,2.8343117028040155e-05,3.124301633039561e-05,-3.290494283003653e-05,4.117047345042479e-06,4.687154302779458e-05,-0.000516620204741081,0.00045195222050703287,0.00022496843405895195,0.00014739912627025192,0.00022061909039117604,-0.0008092251311894962,0.4267818331718445,47.27004623413086,1.0695464611053467,-21.074556350708008,-0.8022971749305725,-2.3394808769226074,0.30337852239608765,0
36,0.17502140998840332,-0.4029781222343445,-47.21847152709961,-1.0933501720428467,21.074556350708008,0.8022971749305725,2.3202548027038574,-0.28964561223983765,0.0,0.0,0.0,0.0,0.0,0.0,0.0,-0.4351196707292295,-0.4378624146130369,-0.22582457631559683,0.6328202014855339,0.21867835039203398,0.11054722821686479,-0.29258073971290866,0.06235370925440363,0.688257578301745,-0.07872515146878728,-1.6210656223966362,0.028136102686325704,2.2878662783834667,0.8466314040746931,0.06226373270833701,0.6884179775783729,-0.07863937525950354,-1.6210372792796082,0.028167345702647853,2.2878312372101677,0.8466366937888992,-0.0009762115499875853,0.00011346849733657982,-0.0002019431051813039,-0.0003316640678410328,-0.0001549961800925802,0.0001256917705283987,-0.0003270406783786361,0.0,0.0,0.0,0.0,0.0,0.0,0.0,-8.997654606662103e-05,0.0001603992766278095,8.577620928373886e-05,2.8343117028040155e-05,3.124301632214874e-05,-3.5041173298999695e-05,5.28971420610258e-06,0.0009762115499875853,-0.00011346849733657982,0.0002019431051813039,0.0003316640678410328,0.0001549961800925802,-0.0001256917705283987,0.0003270406783786361,0.4029781222343445,47.21847152709961,1.0933501720428467,-21.074556350708008,-0.8022971749305725,-2.3202548027038574,0.28964561223983765,0
37,0.18001866340637207,-0.4029781222343445,-47.21847152709961,-1.0933501720428467,21.074556350708008,0.8022971749305725,2.3202548027038574,-0.28964561223983765,0.0,0.0,0.0,0.0,0.0,0.0,0.0,-0.4351196707292295,-0.4378624146130369,-0.22582457631559683,0.6328202014855339,0.21867835039203398,0.11054722821686479,-0.29258073971290866,0.06235370925440363,0.688257578301745,-0.07872515146878728,-1.6210656223966362,0.028136102686325704,2.2878662783834667,0.8466314040746931,0.06226373270833701,0.6884179775783729,-0.07863937525950354,-1.6210372792796082,0.028167345702647853,2.2878312372101677,0.8466366937888992,-0.0009762115499875853,0.00011346849733657982,-0.0002019431051813039,-0.0003316640678410328,-0.0001549961800925802,0.0001256917705283987,-0.0003270406783786361,0.0,0.0,0.0,0.0,0.0,0.0,0.0,-8.997654606662103e-05,0.0001603992766278095,8.577620928373886e-05,2.8343117028040155e-05,3.124301632214874e-05,-3.5041173298999695e-05,5.28971420610258e-06,0.0009762115499875853,-0.00011346849733657982,0.0002019431051813039,0.0003316640678410328,0.0001549961800925802,-0.0001256917705283987,0.0003270406783786361,0.4029781222343445,47.21847152709961,1.0933501720428467,-21.074556350708008,-0.8022971749305725,-2.3202548027038574,0.28964561223983765,0
38,0.18499970436096191,-0.4267818331718445,-47.21847152709961,-1.0695464611053467,21.022981643676758,0.7968040108680725,2.3138461112976074,-0.28232139348983765,0.0,0.0,0.0,0.0,0.0,0.0,0.0,-0.4208358684613776,-0.4421861376960226,-0.21550683329550302,0.6393584119073883,0.21874560681098312,0.10964501912594767,-0.29353938121600776,0.06235751335294799,0.6882561725066043,-0.07872682190464254,-1.6210620031189498,0.028139909336964287,2.287863811545902,0.8466305902732744,0.06226373270833701,0.6884179775783729,-0.07863937525950354,-1.6210372792796082,0.028167345702647853,2.2878312372101677,0.8466366937888992,-1.8270235517241736e-05,7.61455877317354e-05,-0.00031679494646100193,0.0007606532499611046,5.5311866244116374e-05,0.0004125151247898431,-0.00042085638651237077,0.0,0.0,0.0,0.0,0.0,0.0,0.0,-9.378064461097735e-05,0.0001618050717685504,8.744664513900269e-05,2.4723839341600495e-05,2.74363656835655e-05,-3.257433573411461e-05,6.10351562480016e-06,1.8270235517241736e-05,-7.61455877317354e-05,0.00031679494646100193,-0.0007606532499611046,-5.5311866244116374e-05,-0.0004125151247898431,0.00042085638651237077,0.4267818331718445,47.21847152709961,1.0695464611053467,-21.022981643676758,-0.7968040108680725,-2.3138461112976074,0.28232139348983765,0
39,0.18998146057128906,-0.4267818331718445,-47.21847152709961,-1.0695464611053467,21.022981643676758,0.7968040108680725,2.3138461112976074,-0.28232139348983765,0.0,0.0,0.0,0.0,0.0,0.0,0.0,-0.4208358684613776,-0.4421861376960226,-0.21550683329550302,0.6393584119073883,0.21874560681098312,0.10964501912594767,-0.29353938121600776,0.06235751335294799,0.6882561725066043,-0.07872682190464254,-1.6210620031189498,0.028139909336964287,2.287863811545902,0.8466305902732744,0.06226373270833701,0.6884179775783729,-0.07863937525950354,-1.6210372792796082,0.028167345702647853,2.2878312372101677,0.8466366937888992,-1.8270235517241736e-05,7.61455877317354e-05,-0.00031679494646100193,0.0007606532499611046,5.5311866244116374e-05,0.0004125151247898431,-0.00042085638651237077,0.0,0.0,0.0,0.0,0.0,0.0,0.0,-9.378064461097735e-05,0.0001618050717685504,8.744664513900269e-05,2.4723839341600495e-05,2.74363656835655e-05,-3.257433573411461e-05,6.10351562480016e-06,1.8270235517241736e-05,-7.61455877317354e-05,0.00031679494646100193,-0.0007606532499611046,-5.5311866244116374e-05,-0.0004125151247898431,0.00042085638651237077,0.4267818331718445,47.21847152709961,1.0695464611053467,-21.022981643676758,-0.7968040108680725,-2.3138461112976074,0.28232139348983765,0
40,0.19500350952148438,-0.4267818331718445,-47.21847152709961,-1.0695464611053467,21.022981643676758,0.7968040108680725,2.3138461112976074,-0.28232139348983765,0.0,0.0,0.0,0.0,0.0,0.0,0.0,-0.4208358684613776,-0.4421861376960226,-0.21550683329550302,0.6393584119073883,0.21874560681098312,0.10964501912594767,-0.29353938121600776,0.06235751335294799,0.6882561725066043,-0.07872682190464254,-1.6210620031189498,0.028139909336964287,2.287863811545902,0.8466305902732744,0.06226373270833701,0.6884179775783729,-0.07863937525950354,-1.6210372792796082,0.028167345702647853,2.2878312372101677,0.8466366937888992,-1.8270235517241736e-05,7.61455877317354e-05,-0.00031679494646100193,0.0007606532499611046,5.5311866244116374e-05,0.0004125151247898431,-0.00042085638651237077,0.0,0.0,0.0,0.0,0.0,0.0,0.0,-9.378064461097735e-05,0.0001618050717685504,8.744664513900269e-05,2.4723839341600495e-05,2.74363656835655e-05,-3.257433573411461e-05,6.10351562480016e-06,1.8270235517241736e-05,-7.61455877317354e-05,0.00031679494646100193,-0.0007606532499611046,-5.5311866244116374e-05,-0.0004125151247898431,0.00042085638651237077,0.4267818331718445,47.21847152709961,1.0695464611053467,-21.022981643676758,-0.7968040108680725,-2.3138461112976074,0.28232139348983765,0
41,0.20003247261047363,-0.4267818331718445,-47.21847152709961,-1.0695464611053467,21.022981643676758,0.7968040108680725,2.3138461112976074,-0.28232139348983765,0.0,0.0,0.0,0.0,0.0,0.0,0.0,-0.4208358684613776,-0.4421861376960226,-0.21550683329550302,0.6393584119073883,0.21874560681098312,0.10964501912594767,-0.29353938121600776,0.06235751335294799,0.6882561725066043,-0.07872682190464254,-1.6210620031189498,0.028139909336964287,2.287863811545902,0.8466305902732744,0.06226373270833701,0.6884179775783729,-0.07863937525950354,-1.6210372792796082,0.028167345702647853,2.2878312372101677,0.8466366937888992,-1.8270235517241736e-05,7.61455877317354e-05,-0.00031679494646100193,0.0007606532499611046,5.5311866244116374e-05,0.0004125151247898431,-0.00042085638651237077,0.0,0.0,0.0,0.0,0.0,0.0,0.0,-9.378064461097735e-05,0.0001618050717685504,8.744664513900269e-05,2.4723839341600495e-05,2.74363656835655e-05,-3.257433573411461e-05,6.10351562480016e-06,1.8270235517241736e-05,-7.61455877317354e-05,0.00031679494646100193,-0.0007606532499611046,-5.5311866244116374e-05,-0.0004125151247898431,0.00042085638651237077,0.4267818331718445,47.21847152709961,1.0695464611053467,-21.022981643676758,-0.7968040108680725,-2.3138461112976074,0.28232139348983765,0
42,0.20501708984375,-0.4783565402030945,-47.14706039428711,-1.1171538829803467,21.046785354614258,0.8022971749305725,2.3266634941101074,-0.30337852239608765,0.0,0.0,0.0,0.0,0.0,0.0,0.0,-0.4302891255924335,-0.4448705964563864,-0.22197233076098632,0.6428121665032229,0.21911171754273936,0.10895380920882167,-0.29487131263391875,0.06236042152615312,0.6882533740053386,-0.07872348103293202,-1.621063673554805,0.028136102704368907,2.287865527042842,0.8466329255936131,0.06226373270833701,0.6884179775783729,-0.07863937525950354,-1.6210372792796082,0.028167345702647853,2.2878312372101677,0.8466366937888992,0.000916342231329824,-0.0016715546223754498,0.0006645137553429636,-0.0003081463511960669,-0.00025786766642936303,0.00023107789635600905,0.0003815901978394931,0.0,0.0,0.0,0.0,0.0,0.0,0.0,-9.6688817816111e-05,0.0001646035730342721,8.410577342847503e-05,2.6394275196794936e-05,3.124299827894639e-05,-3.4289832674172516e-05,3.768195286024678e-06,-0.000916342231329824,0.0016715546223754498,-0.0006645137553429636,0.0003081463511960669,0.00025786766642936303,-0.00023107789635600905,-0.0003815901978394931,0.4783565402030945,47.14706039428711,1.1171538829803467,-21.046785354614258,-0.8022971749305725,-2.3266634941101074,0.30337852239608765,0
43,0.21000313758850098,-0.4783565402030945,-47.14706039428711,-1.1171538829803467,21.046785354614258,0.8022971749305725,2.3266634941101074,-0.30337852239608765,0.0,0.0,0.0,0.0,0.0,0.0,0.0,-0.4302891255924335,-0.4448705964563864,-0.22197233076098632,0.6428121665032229,0.21911171754273936,0.10895380920882167,-0.29487131263391875,0.06236042152615312,0.6882533740053386,-0.07872348103293202,-1.621063673554805,0.028136102704368907,2.287865527042842,0.8466329255936131,0.06226373270833701,0.6884179775783729,-0.07863937525950354,-1.6210372792796082,0.028167345702647853,2.2878312372101677,0.8466366937888992,0.000916342231329824,-0.0016715546223754498,0.0006645137553429636,-0.0003081463511960669,-0.00025786766642936303,0.00023107789635600905,0.0003815901978394931,0.0,0.0,0.0,0.0,0.0,0.0,0.0,-9.6688817816111e-05,0.0001646035730342721,8.410577342847503e-05,2.6394275196794936e-05,3.124299827894639e-05,-3.4289832674172516e-05,3.768195286024678e-06,-0.000916342231329824,0.0016715546223754498,-0.0006645137553429636,0.0003081463511960669,0.00025786766642936303,-0.00023107789635600905,-0.0003815901978394931,0.4783565402030945,47.14706039428711,1.1171538829803467,-21.046785354614258,-0.8022971749305725,-2.3266634941101074,0.30337852239608765,0
44,0.21500325202941895,-0.4029781222343445,-47.24624252319336,-1.0933501720428467,21.046785354614258,0.8022971749305725,2.3394808769226074,-0.28964561223983765,0.0,0.0,0.0,0.0,0.0,0.0,0.0,-0.441423089026089,-0.4492387800901016,-0.2284950038714344,0.6444406973826994,0.2193007174100667,0.10961528282165353,-0.29542553483458295,0.06235584292779929,0.6882599957937403,-0.07872515146878728,-1.621063673554805,0.028136457830667524,2.287864142152924,0.8466313992301819,0.06226373270833701,0.6884179775783729,-0.07863937525950354,-1.6210372792796082,0.028167345702647853,2.2878312372101677,0.8466366937888992,-0.0007048997598990609,0.0002578296946173608,-0.0009174840856926648,-0.00025115140550129223,-0.0001337871331411648,-0.00047571047370903035,-0.0002311940980521463,0.0,0.0,0.0,0.0,0.0,0.0,0.0,-9.21102194622811e-05,0.00015798178463255486,8.577620928373886e-05,2.6394275196794936e-05,3.0887871980328496e-05,-3.290494275631772e-05,5.2945587172281705e-06,0.0007048997598990609,-0.0002578296946173608,0.0009174840856926648,0.00025115140550129223,0.0001337871331411648,0.00047571047370903035,0.0002311940980521463,0.4029781222343445,47.24624252319336,1.0933501720428467,-21.046785354614258,-0.8022971749305725,-2.3394808769226074,0.28964561223983765,0
45,0.22002196311950684,-0.4029781222343445,-47.24624252319336,-1.0933501720428467,21.046785354614258,0.8022971749305725,2.3394808769226074,-0.28964561223983765,0.0,0.0,0.0,0.0,0.0,0.0,0.0,-0.441423089026089,-0.4492387800901016,-0.2284950038714344,0.6444406973826994,0.2193007174100667,0.10961528282165353,-0.29542553483458295,0.06235584292779929,0.6882599957937403,-0.07872515146878728,-1.621063673554805,0.028136457830667524,2.287864142152924,0.8466313992301819,0.06226373270833701,0.6884179775783729,-0.07863937525950354,-1.6210372792796082,0.028167345702647853,2.2878312372101677,0.8466366937888992,-0.0007048997598990609,0.0002578296946173608,-0.0009174840856926648,-0.00025115140550129223,-0.0001337871331411648,-0.00047571047370903035,-0.0002311940980521463,0.0,0.0,0.0,0.0,0.0,0.0,0.0,-9.21102194622811e-05,0.00015798178463255486,8.577620928373886e-05,2.6394275196794936e-05,3.0887871980328496e-05,-3.290494275631772e-05,5.2945587172281705e-06,0.0007048997598990609,-0.0002578296946173608,0.0009174840856926648,0.00025115140550129223,0.0001337871331411648,0.00047571047370903035,0.0002311940980521463,0.4029781222343445,47.24624252319336,1.0933501720428467,-21.046785354614258,-0.8022971749305725,-2.3394808769226074,0.28964561223983765,0
46,0.22500967979431152,-0.4505855441093445,-47.27004623413086,-1.0933501720428467,21.074556350708008,0.7968040108680725,2.3394808769226074,-0.30978721380233765,0.0,0.0,0.0,0.0,0.0,0.0,0.0,-0.42650003658569563,-0.39911429607840265,-0.21698925173943254,0.6033850922948287,0.21871679877608644,0.10444276248046042,-0.2955726667438782,0.062359183475691735,0.6882618891509251,-0.07872515244312017,-1.6210656223966362,0.028136713039893006,2.2878641029071414,0.8466325823929302,0.06226373270833701,0.6884179775783729,-0.07863937525950354,-1.6210372792796082,0.028167345702647853,2.2878312372101677,0.8466366937888992,0.00026078137971221764,0.00037486767754714873,0.00035222737856874345,0.0003493326413700732,3.996409522219904e-05,-0.00018667938880974,0.0010020193677364446,0.0,0.0,0.0,0.0,0.0,0.0,0.0,-9.54507673547253e-05,0.00015608842744774254,8.5777183616631e-05,2.8343117028040155e-05,3.063266275484672e-05,-3.2865696973694014e-05,4.111395969008669e-06,-0.00026078137971221764,-0.00037486767754714873,-0.00035222737856874345,-0.0003493326413700732,-3.996409522219904e-05,0.00018667938880974,-0.0010020193677364446,0.4505855441093445,47.27004623413086,1.0933501720428467,-21.074556350708008,-0.7968040108680725,-2.3394808769226074,0.30978721380233765,0
47,0.2300252914428711,-0.4505855441093445,-47.27004623413086,-1.0933501720428467,21.074556350708008,0.7968040108680725,2.3394808769226074,-0.30978721380233765,0.0,0.0,0.0,0.0,0.0,0.0,0.0,-0.42650003658569563,-0.39911429607840265,-0.21698925173943254,0.6033850922948287,0.21871679877608644,0.10444276248046042,-0.2955726667438782,0.062359183475691735,0.6882618891509251,-0.07872515244312017,-1.6210656223966362,0.028136713039893006,2.2878641029071414,0.8466325823929302,0.06226373270833701,0.6884179775783729,-0.07863937525950354,-1.6210372792796082,0.028167345702647853,2.2878312372101677,0.8466366937888992,0.00026078137971221764,0.00037486767754714873,0.00035222737856874345,0.0003493326413700732,3.996409522219904e-05,-0.00018667938880974,0.0010020193677364446,0.0,0.0,0.0,0.0,0.0,0.0,0.0,-9.54507673547253e-05,0.00015608842744774254,8.5777183616631e-05,2.8343117028040155e-05,3.063266275484672e-05,-3.2865696973694014e-05,4.111395969008669e-06,-0.00026078137971221764,-0.00037486767754714873,-0.00035222737856874345,-0.0003493326413700732,-3.996409522219904e-05,0.00018667938880974,-0.0010020193677364446,0.4505855441093445,47.27004623413086,1.0933501720428467,-21.074556350708008,-0.7968040108680725,-2.3394808769226074,0.30978721380233765,0
48,0.23502302169799805,-0.4267818331718445,-47.29384994506836,-1.1171538829803467,21.074556350708008,0.7968040108680725,2.3330721855163574,-0.30978721380233765,0.0,0.0,0.0,0.0,0.0,0.0,0.0,-0.42421238003210454,-0.44252674830105176,-0.21443992257840644,0.6363778334232459,0.21966421285819596,0.11087661356528114,-0.2941090879663915,0.062357513364990805,0.6882635971441432,-0.07872348103293751,-1.6210656223966362,0.028136699889504214,2.2878648537450825,0.8466336026177429,0.06226373270833701,0.6884179775783729,-0.07863937525950354,-1.6210372792796082,0.028167345702647853,2.2878312372101677,0.8466366937888992,-9.537730957971017e-05,0.0009229052536727495,0.0006214130425221833,-0.0006344521092357408,-0.00012127442245714685,-0.00029144355875699896,0.0001932073713102045,0.0,0.0,0.0,0.0,0.0,0.0,0.0,-9.378065665379548e-05,0.00015438043422966174,8.410577343397063e-05,2.8343117028040155e-05,3.064581314363851e-05,-3.361653491484873e-05,3.091171156266448e-06,9.537730957971017e-05,-0.0009229052536727495,-0.0006214130425221833,0.0006344521092357408,0.00012127442245714685,0.00029144355875699896,-0.0001932073713102045,0.4267818331718445,47.29384994506836,1.1171538829803467,-21.074556350708008,-0.7968040108680725,-2.3330721855163574,0.30978721380233765,0
49,0.24003243446350098,-0.4267818331718445,-47.29384994506836,-1.1171538829803467,21.074556350708008,0.7968040108680725,2.3330721855163574,-0.30978721380233765,0.0,0.0,0.0,0.0,0.0,0.0,0.0,-0.42421238003210454,-0.44252674830105176,-0.21443992257840644,0.6363778334232459,0.21966421285819596,0.11087661356528114,-0.2941090879663915,0.062357513364990805,0.6882635971441432,-0.07872348103293751,-1.6210656223966362,0.028136699889504214,2.2878648537450825,0.8466336026177429,0.06226373270833701,0.6884179775783729,-0.07863937525950354,-1.6210372792796082,0.028167345702647853,2.2878312372101677,0.8466366937888992,-9.537730957971017e-05,0.0009229052536727495,0.0006214130425221833,-0.0006344521092357408,-0.00012127442245714685,-0.00029144355875699896,0.0001932073713102045,0.0,0.0,0.0,0.0,0.0,0.0,0.0,-9.378065665379548e-05,0.00015438043422966174,8.410577343397063e-05,2.8343117028040155e-05,3.064581314363851e-05,-3.361653491484873e-05,3.091171156266448e-06,9.537730957971017e-05,-0.0009229052536727495,-0.0006214130425221833,0.0006344521092357408,0.00012127442245714685,0.00029144355875699896,-0.0001932073713102045,0.4267818331718445,47.29384994506836,1.1171538829803467,-21.074556350708008,-0.7968040108680725,-2.3330721855163574,0.30978721380233765,0
50,0.2450103759765625,-0.4505855441093445,-47.21847152709961,-1.1171538829803467,21.022981643676758,0.7968040108680725,2.3330721855163574,-0.24112264811992645,0.0,0.0,0.0,0.0,0.0,0.0,0.0,-0.4384292749795938,-0.4544258934292829,-0.22594900374538457,0.6421214116555861,0.2198748683807824,0.11241547710033983,-0.294219735717793,0.062359183764719446,0.6882576574213128,-0.07872348103293202,-1.6210620031189498,0.028136713037813985,2.287864854229818,0.8466258948971075,0.06226373270833701,0.6884179775783729,-0.07863937525950354,-1.6210372792796082,0.028167345702647853,2.2878312372101677,0.8466366937888992,0.00044842805896846125,-0.00021015403534370213,0.0005805546020557036,0.00045221894116225143,9.930392472127347e-05,-6.784126500078892e-05,-0.002176867957750838,0.0,0.0,0.0,0.0,0.0,0.0,0.0,-9.545105638243678e-05,0.00016032015706002323,8.410577342847503e-05,2.4723839341600495e-05,3.06326648338677e-05,-3.361701965021169e-05,1.0798891791674592e-05,-0.00044842805896846125,0.00021015403534370213,-0.0005805546020557036,-0.00045221894116225143,-9.930392472127347e-05,6.784126500078892e-05,0.002176867957750838,0.4505855441093445,47.21847152709961,1.1171538829803467,-21.022981643676758,-0.7968040108680725,-2.3330721855163574,0.24112264811992645,0
51,0.2500178813934326,-0.4505855441093445,-47.21847152709961,-1.1171538829803467,21.022981643676758,0.7968040108680725,2.3330721855163574,-0.24112264811992645,0.0,0.0,0.0,0.0,0.0,0.0,0.0,-0.4384292749795938,-0.4544258934292829,-0.22594900374538457,0.6421214116555861,0.2198748683807824,0.11241547710033983,-0.294219735717793,0.062359183764719446,0.6882576574213128,-0.07872348103293202,-1.6210620031189498,0.028136713037813985,2.287864854229818,0.8466258948971075,0.06226373270833701,0.6884179775783729,-0.07863937525950354,-1.6210372792796082,0.028167345702647853,2.2878312372101677,0.8466366937888992,0.00044842805896846125,-0.00021015403534370213,0.0005805546020557036,0.00045221894116225143,9.930392472127347e-05,-6.784126500078892e-05,-0.002176867957750838,0.0,0.0,0.0,0.0,0.0,0.0,0.0,-9.545105638243678e-05,0.00016032015706002323,8.410577342847503e-05,2.4723839341600495e-05,3.06326648338677e-05,-3.361701965021169e-05,1.0798891791674592e-05,-0.00044842805896846125,0.00021015403534370213,-0.0005805546020557036,-0.00045221894116225143,-9.930392472127347e-05,6.784126500078892e-05,0.002176867957750838,0.4505855441093445,47.21847152709961,1.1171538829803467,-21.022981643676758,-0.7968040108680725,-2.3330721855163574,0.24112264811992645,0
52,0.2550029754638672,-0.4029781222343445,-47.19466781616211,-1.0933501720428467,21.046785354614258,0.7849021553993225,2.3266634941101074,-0.26858848333358765,0.0,0.0,0.0,0.0,0.0,0.0,0.0,-0.41548771131002726,-0.4657180201923661,-0.21037357891958125,0.6491542673650995,0.22011586469606098,0.11390401449245788,-0.2940658832475367,0.06235584292913718,0.6882559231043114,-0.07872515146878728,-1.621063673554805,0.028138035466273623,2.2878655663066434,0.8466258462334587,0.06226373270833701,0.6884179775783729,-0.07863937525950354,-1.6210372792796082,0.028167345702647853,2.2878312372101677,0.8466366937888992,-0.0002296142307308914,-0.0006144364858260376,0.0005332734080665215,0.00033820682944391434,0.0004963474285984121,0.00023501900498013452,-0.001147309891191006,0.0,0.0,0.0,0.0,0.0,0.0,0.0,-9.211022080016923e-05,0.00016205447406147933,8.577620928373886e-05,2.6394275196794936e-05,2.931023637423036e-05,-3.4329096475715914e-05,1.0847555440451906e-05,0.0002296142307308914,0.0006144364858260376,-0.0005332734080665215,-0.00033820682944391434,-0.0004963474285984121,-0.00023501900498013452,0.001147309891191006,0.4029781222343445,47.19466781616211,1.0933501720428467,-21.046785354614258,-0.7849021553993225,-2.3266634941101074,0.26858848333358765,0
53,0.2600066661834717,-0.4029781222343445,-47.19466781616211,-1.0933501720428467,21.046785354614258,0.7849021553993225,2.3266634941101074,-0.26858848333358765,0.0,0.0,0.0,0.0,0.0,0.0,0.0,-0.41548771131002726,-0.4657180201923661,-0.21037357891958125,0.6491542673650995,0.22011586469606098,0.11390401449245788,-0.2940658832475367,0.06235584292913718,0.6882559231043114,-0.07872515146878728,-1.621063673554805,0.028138035466273623,2.2878655663066434,0.8466258462334587,0.06226373270833701,0.6884179775783729,-0.07863937525950354,-1.6210372792796082,0.028167345702647853,2.2878312372101677,0.8466366937888992,-0.0002296142307308914,-0.0006144364858260376,0.0005332734080665215,0.00033820682944391434,0.0004963474285984121,0.00023501900498013452,-0.001147309891191006,0.0,0.0,0.0,0.0,0.0,0.0,0.0,-9.211022080016923e-05,0.00016205447406147933,8.577620928373886e-05,2.6394275196794936e-05,2.931023637423036e-05,-3.4329096475715914e-05,1.0847555440451906e-05,0.0002296142307308914,0.0006144364858260376,-0.0005332734080665215,-0.00033820682944391434,-0.0004963474285984121,-0.00023501900498013452,0.001147309891191006,0.4029781222343445,47.19466781616211,1.0933501720428467,-21.046785354614258,-0.7849021553993225,-2.3266634941101074,0.26858848333358765,0
54,0.2650258541107178,-0.4029781222343445,-47.21847152709961,-1.1171538829803467,21.046785354614258,0.8022971749305725,2.3330721855163574,-0.26217979192733765,0.0,0.0,0.0,0.0,0.0,0.0,0.0,-0.43661145774546206,-0.45130798927439236,-0.22496639842951469,0.6438246994745765,0.2199492350111495,0.11256498210924686,-0.29442759751154457,0.06235584292913738,0.688256041185155,-0.07872348103293202,-1.621063673554805,0.028136102686325704,2.287864814983964,0.8466283522993786,0.06226373270833701,0.6884179775783729,-0.07863937525950354,-1.6210372792796082,0.028167345702647853,2.2878312372101677,0.8466366937888992,-0.0006729336167609536,0.0001910702072924678,0.0007293917635118779,-1.3967217454696008e-05,-0.00018385462861870622,-0.0003631113180275342,-0.001564813896392796,0.0,0.0,0.0,0.0,0.0,0.0,0.0,-9.211022080037046e-05,0.00016193639321782083,8.410577342847503e-05,2.6394275196794936e-05,3.124301632214874e-05,-3.3577773796533705e-05,8.34148952055802e-06,0.0006729336167609536,-0.0001910702072924678,-0.0007293917635118779,1.3967217454696008e-05,0.00018385462861870622,0.0003631113180275342,0.001564813896392796,0.4029781222343445,47.21847152709961,1.1171538829803467,-21.046785354614258,-0.8022971749305725,-2.3330721855163574,0.26217979192733765,0
55,0.27001309394836426,-0.4029781222343445,-47.21847152709961,-1.1171538829803467,21.046785354614258,0.8022971749305725,2.3330721855163574,-0.26217979192733765,0.0,0.0,0.0,0.0,0.0,0.0,0.0,-0.43661145774546206,-0.45130798927439236,-0.22496639842951469,0.6438246994745765,0.2199492350111495,0.11256498210924686,-0.29442759751154457,0.06235584292913738,0.688256041185155,-0.07872348103293202,-1.621063673554805,0.028136102686325704,2.287864814983964,0.8466283522993786,0.06226373270833701,0.6884179775783729,-0.07863937525950354,-1.6210372792796082,0.028167345702647853,2.2878312372101677,0.8466366937888992,-0.0006729336167609536,0.0001910702072924678,0.0007293917635118779,-1.3967217454696008e-05,-0.00018385462861870622,-0.0003631113180275342,-0.001564813896392796,0.0,0.0,0.0,0.0,0.0,0.0,0.0,-9.211022080037046e-05,0.00016193639321782083,8.410577342847503e-05,2.6394275196794936e-05,3.124301632214874e-05,-3.3577773796533705e-05,8.34148952055802e-06,0.0006729336167609536,-0.0001910702072924678,-0.0007293917635118779,1.3967217454696008e-05,0.00018385462861870622,0.0003631113180275342,0.001564813896392796,0.4029781222343445,47.21847152709961,1.1171538829803467,-21.046785354614258,-0.8022971749305725,-2.3330721855163574,0.26217979192733765,0
56,0.2750239372253418,-0.4783565402030945,-47.21847152709961,-1.1409575939178467,21.046785354614258,0.7903953194618225,2.3330721855163574,-0.31711143255233765,0.0,0.0,0.0,0.0,0.0,0.0,0.0,-0.43644089105355005,-0.4457307962141222,-0.2247958148306889,0.6430201376891983,0.21930209115007812,0.11136831262396289,-0.2946317650556363,0.06236113260655059,0.6882562523981778,-0.07872188951804159,-1.621063673554805,0.028137425114711123,2.287864854229747,0.8466344558331701,0.06226373270833701,0.6884179775783729,-0.07863937525950354,-1.6210372792796082,0.028167345702647853,2.2878312372101677,0.8466366937888992,0.001160392174235659,0.000311800636261218,0.0009385638768929339,-0.0001150865829730065,0.00012138693281966443,-0.00012774278916906495,0.00138698243396337,0.0,0.0,0.0,0.0,0.0,0.0,0.0,-9.739989821357792e-05,0.00016172518019508253,8.251425853804395e-05,2.6394275196794936e-05,2.9920587936729803e-05,-3.3617019579157414e-05,2.2379557290674867e-06,-0.001160392174235659,-0.000311800636261218,-0.0009385638768929339,0.0001150865829730065,-0.00012138693281966443,0.00012774278916906495,-0.00138698243396337,0.4783565402030945,47.21847152709961,1.1409575939178467,-21.046785354614258,-0.7903953194618225,-2.3330721855163574,0.31711143255233765,0
57,0.28006482124328613,-0.4783565402030945,-47.21847152709961,-1.1409575939178467,21.046785354614258,0.7903953194618225,2.3330721855163574,-0.31711143255233765,0.0,0.0,0.0,0.0,0.0,0.0,0.0,-0.43644089105355005,-0.4457307962141222,-0.2247958148306889,0.6430201376891983,0.21930209115007812,0.11136831262396289,-0.2946317650556363,0.06236113260655059,0.6882562523981778,-0.07872188951804159,-1.621063673554805,0.028137425114711123,2.287864854229747,0.8466344558331701,0.06226373270833701,0.6884179775783729,-0.07863937525950354,-1.6210372792796082,0.028167345702647853,2.2878312372101677,0.8466366937888992,0.001160392174235659,0.000311800636261218,0.0009385638768929339,-0.0001150865829730065,0.00012138693281966443,-0.00012774278916906495,0.00138698243396337,0.0,0.0,0.0,0.0,0.0,0.0,0.0,-9.739989821357792e-05,0.00016172518019508253,8.251425853804395e-05,2.6394275196794936e-05,2.9920587936729803e-05,-3.3617019579157414e-05,2.2379557290674867e-06,-0.001160392174235659,-0.000311800636261218,-0.0009385638768929339,0.0001150865829730065,-0.00012138693281966443,0.00012774278916906495,-0.00138698243396337,0.4783565402030945,47.21847152709961,1.1409575939178467,-21.046785354614258,-0.7903953194618225,-2.3330721855163574,0.31711143255233765,0
58,0.2850213050842285,-0.4029781222343445,-47.21847152709961,-1.0933501720428467,21.046785354614258,0.7968040108680725,2.3394808769226074,-0.30337852239608765,0.0,0.0,0.0,0.0,0.0,0.0,0.0,-0.4264835393362264,-0.4510366273495854,-0.2182901897498065,0.6449053714954182,0.21871390434127794,0.11199984941416316,-0.2938756581757821,0.06235581655535961,0.6882583504321872,-0.07872515146923278,-1.621063673554805,0.028136713037888207,2.2878641419914922,0.8466297510398758,0.06226373270833701,0.6884179775783729,-0.07863937525950354,-1.6210372792796082,0.028167345702647853,2.2878312372101677,0.8466366937888992,-0.0007070075099060039,-2.6862495810215717e-05,-0.00013144280307340417,-0.00014847092005792093,-8.775289318259175e-05,-0.0002202969468369932,0.00041396815744465293,0.0,0.0,0.0,0.0,0.0,0.0,0.0,-9.208384702259764e-05,0.0001596271461856702,8.57762097292436e-05,2.6394275196794936e-05,3.063266475964582e-05,-3.290478132456087e-05,6.942749023353123e-06,0.0007070075099060039,2.6862495810215717e-05,0.00013144280307340417,0.00014847092005792093,8.775289318259175e-05,0.0002202969468369932,-0.00041396815744465293,0.4029781222343445,47.21847152709961,1.0933501720428467,-21.046785354614258,-0.7968040108680725,-2.3394808769226074,0.30337852239608765,0
59,0.2902824878692627,-0.4029781222343445,-47.21847152709961,-1.0933501720428467,21.046785354614258,0.7968040108680725,2.3394808769226074,-0.30337852239608765,0.0,0.0,0.0,0.0,0.0,0.0,0.0,-0.4264835393362264,-0.4510366273495854,-0.2182901897498065,0.6449053714954182,0.21871390434127794,0.11199984941416316,-0.2938756581757821,0.06235581655535961,0.6882583504321872,-0.07872515146923278,-1.621063673554805,0.028136713037888207,2.2878641419914922,0.8466297510398758,0.06226373270833701,0.6884179775783729,-0.07863937525950354,-1.6210372792796082,0.028167345702647853,2.2878312372101677,0.8466366937888992,-0.0007070075099060039,-2.6862495810215717e-05,-0.00013144280307340417,-0.00014847092005792093,-8.775289318259175e-05,-0.0002202969468369932,0.00041396815744465293,0.0,0.0,0.0,0.0,0.0,0.0,0.0,-9.208384702259764e-05,0.0001596271461856702,8.57762097292436e-05,2.6394275196794936e-05,3.063266475964582e-05,-3.290478132456087e-05,6.942749023353123e-06,0.0007070075099060039,2.6862495810215717e-05,0.00013144280307340417,0.00014847092005792093,8.775289318259175e-05,0.0002202969468369932,-0.00041396815744465293,0.4029781222343445,47.21847152709961,1.0933501720428467,-21.046785354614258,-0.7968040108680725,-2.3394808769226074,0.30337852239608765,0
60,0.29501819610595703,-0.4267818331718445,-47.21847152709961,-1.1171538829803467,21.046785354614258,0.7968040108680725,2.3330721855163574,-0.27591270208358765,0.0,0.0,0.0,0.0,0.0,0.0,0.0,-0.42690900046603786,-0.4466968828265876,-0.21779991583817848,0.6401190212253857,0.21907871871998302,0.11201090554277425,-0.2935173941378145,0.06235751336484376,0.6882562524380572,-0.07872348103293202,-1.6210657398491573,0.028136713037888207,2.2878648542298197,0.8466298781785063,0.06226373270833701,0.6884179775783729,-0.07863937525950354,-1.6210372792796082,0.028167345702647853,2.2878312372101677,0.8466366937888992,0.00024462129330745026,-0.0006497736270145229,0.0005378286098708558,-7.63239395366593e-05,0.00015311665324661844,2.5860323688405215e-05,-0.0009482968811669664,0.0,0.0,0.0,0.0,0.0,0.0,0.0,-9.378065650675338e-05,0.00016172514031564944,8.410577342847503e-05,2.8460569549082493e-05,3.063266475964582e-05,-3.3617019651988045e-05,6.815610392840732e-06,-0.00024462129330745026,0.0006497736270145229,-0.0005378286098708558,7.63239395366593e-05,-0.00015311665324661844,-2.5860323688405215e-05,0.0009482968811669664,0.4267818331718445,47.21847152709961,1.1171538829803467,-21.046785354614258,-0.7968040108680725,-2.3330721855163574,0.27591270208358765,0
61,0.3000330924987793,-0.4267818331718445,-47.21847152709961,-1.1171538829803467,21.046785354614258,0.7968040108680725,2.3330721855163574,-0.27591270208358765,0.0,0.0,0.0,0.0,0.0,0.0,0.0,-0.42690900046603786,-0.4466968828265876,-0.21779991583817848,0.6401190212253857,0.21907871871998302,0.11201090554277425,-0.2935173941378145,0.06235751336484376,0.6882562524380572,-0.07872348103293202,-1.6210657398491573,0.028136713037888207,2.2878648542298197,0.8466298781785063,0.06226373270833701,0.6884179775783729,-0.07863937525950354,-1.6210372792796082,0.028167345702647853,2.2878312372101677,0.8466366937888992,0.00024462129330745026,-0.0006497736270145229,0.0005378286098708558,-7.63239395366593e-05,0.00015311665324661844,2.5860323688405215e-05,-0.0009482968811669664,0.0,0.0,0.0,0.0,0.0,0.0,0.0,-9.378065650675338e-05,0.00016172514031564944,8.410577342847503e-05,2.8460569549082493e-05,3.063266475964582e-05,-3.3617019651988045e-05,6.815610392840732e-06,-0.00024462129330745026,0.0006497736270145229,-0.0005378286098708558,7.63239395366593e-05,-0.00015311665324661844,-2.5860323688405215e-05,0.0009482968811669664,0.4267818331718445,47.21847152709961,1.1171538829803467,-21.046785354614258,-0.7968040108680725,-2.3330721855163574,0.27591270208358765,0
62,0.3050239086151123,-0.4267818331718445,-47.21847152709961,-1.1171538829803467,21.046785354614258,0.7968040108680725,2.3330721855163574,-0.27591270208358765,0.0,0.0,0.0,0.0,0.0,0.0,0.0,-0.42690900046603786,-0.4466968828265876,-0.21779991583817848,0.6401190212253857,0.21907871871998302,0.11201090554277425,-0.2935173941378145,0.06235751336484376,0.6882562524380572,-0.07872348103293202,-1.6210657398491573,0.028136713037888207,2.2878648542298197,0.8466298781785063,0.06226373270833701,0.6884179775783729,-0.07863937525950354,-1.6210372792796082,0.028167345702647853,2.2878312372101677,0.8466366937888992,0.00024462129330745026,-0.0006497736270145229,0.0005378286098708558,-7.63239395366593e-05,0.00015311665324661844,2.5860323688405215e-05,-0.0009482968811669664,0.0,0.0,0.0,0.0,0.0,0.0,0.0,-9.378065650675338e-05,0.00016172514031564944,8.410577342847503e-05,2.8460569549082493e-05,3.063266475964582e-05,-3.3617019651988045e-05,6.815610392840732e-06,-0.00024462129330745026,0.0006497736270145229,-0.0005378286098708558,7.63239395366593e-05,-0.00015311665324661844,-2.5860323688405215e-05,0.0009482968811669664,0.4267818331718445,47.21847152709961,1.1171538829803467,-21.046785354614258,-0.7968040108680725,-2.3330721855163574,0.27591270208358765,0
63,0.31000304222106934,-0.4267818331718445,-47.21847152709961,-1.1171538829803467,21.046785354614258,0.7968040108680725,2.3330721855163574,-0.27591270208358765,0.0,0.0,0.0,0.0,0.0,0.0,0.0,-0.42690900046603786,-0.4466968828265876,-0.21779991583817848,0.6401190212253857,0.21907871871998302,0.11201090554277425,-0.2935173941378145,0.06235751336484376,0.6882562524380572,-0.07872348103293202,-1.6210657398491573,0.028136713037888207,2.2878648542298197,0.8466298781785063,0.06226373270833701,0.6884179775783729,-0.07863937525950354,-1.6210372792796082,0.028167345702647853,2.2878312372101677,0.8466366937888992,0.00024462129330745026,-0.0006497736270145229,0.0005378286098708558,-7.63239395366593e-05,0.00015311665324661844,2.5860323688405215e-05,-0.0009482968811669664,0.0,0.0,0.0,0.0,0.0,0.0,0.0,-9.378065650675338e-05,0.00016172514031564944,8.410577342847503e-05,2.8460569549082493e-05,3.063266475964582e-05,-3.3617019651988045e-05,6.815610392840732e-06,-0.00024462129330745026,0.0006497736270145229,-0.0005378286098708558,7.63239395366593e-05,-0.00015311665324661844,-2.5860323688405215e-05,0.0009482968811669664,0.4267818331718445,47.21847152709961,1.1171538829803467,-21.046785354614258,-0.7968040108680725,-2.3330721855163574,0.27591270208358765,0
64,0.31502628326416016,-0.4029781222343445,-47.24624252319336,-1.1171538829803467,21.046785354614258,0.8022971749305725,2.3330721855163574,-0.29605430364608765,0.0,0.0,0.0,0.0,0.0,0.0,0.0,-0.43247488016252267,-0.43178740121130343,-0.22267920835645158,0.6272603227979738,0.2200013835936824,0.11148422976300647,-0.29317588721626764,0.062355131812611514,0.6882600212589811,-0.07872348103293202,-1.6210636735664692,0.028136155300302265,2.2878648542298206,0.8466321161521805,0.06226373270833701,0.6884179775783729,-0.07863937525950354,-1.6210372792796082,0.028167345702647853,2.2878312372101677,0.8466366937888992,-0.0007837469585038564,0.00045594785047547564,0.00039818992489059626,-0.0004981366062263038,-5.199265511355499e-05,-5.1137039199804754e-05,0.00010856177354900371,0.0,0.0,0.0,0.0,0.0,0.0,0.0,-9.139910427450465e-05,0.00015795631939174992,8.410577342847503e-05,2.6394286861020078e-05,3.1190402345587787e-05,-3.361701965287622e-05,4.577636718683387e-06,0.0007837469585038564,-0.00045594785047547564,-0.00039818992489059626,0.0004981366062263038,5.199265511355499e-05,5.1137039199804754e-05,-0.00010856177354900371,0.4029781222343445,47.24624252319336,1.1171538829803467,-21.046785354614258,-0.8022971749305725,-2.3330721855163574,0.29605430364608765,0
65,0.320249080657959,-0.4029781222343445,-47.24624252319336,-1.1171538829803467,21.046785354614258,0.8022971749305725,2.3330721855163574,-0.29605430364608765,0.0,0.0,0.0,0.0,0.0,0.0,0.0,-0.43247488016252267,-0.43178740121130343,-0.22267920835645158,0.6272603227979738,0.2200013835936824,0.11148422976300647,-0.29317588721626764,0.062355131812611514,0.6882600212589811,-0.07872348103293202,-1.6210636735664692,0.028136155300302265,2.2878648542298206,0.8466321161521805,0.06226373270833701,0.6884179775783729,-0.07863937525950354,-1.6210372792796082,0.028167345702647853,2.2878312372101677,0.8466366937888992,-0.0007837469585038564,0.00045594785047547564,0.00039818992489059626,-0.0004981366062263038,-5.199265511355499e-05,-5.1137039199804754e-05,0.00010856177354900371,0.0,0.0,0.0,0.0,0.0,0.0,0.0,-9.139910427450465e-05,0.00015795631939174992,8.410577342847503e-05,2.6394286861020078e-05,3.1190402345587787e-05,-3.361701965287622e-05,4.577636718683387e-06,0.0007837469585038564,-0.00045594785047547564,-0.00039818992489059626,0.0004981366062263038,5.199265511355499e-05,5.1137039199804754e-05,-0.00010856177354900371,0.4029781222343445,47.24624252319336,1.1171538829803467,-21.046785354614258,-0.8022971749305725,-2.3330721855163574,0.29605430364608765,0
66,0.3250257968902588,-0.4783565402030945,-47.24624252319336,-1.0933501720428467,21.046785354614258,0.8141990303993225,2.3266634941101074,-0.33084434270858765,0.0,0.0,0.0,0.0,0.0,0.0,0.0,-0.42880483445103895,-0.4504209034992594,-0.21995596271170664,0.6357327791813066,0.2211220832348466,0.11280214724447127,-0.2934000124617948,0.062361132638664774,0.6882599962675178,-0.07872515146878728,-1.621063673554805,0.028134780258237298,2.2878655663066434,0.8466359773514257,0.06226373270833701,0.6884179775783729,-0.07863937525950354,-1.6210372792796082,0.028167345702647853,2.2878312372101677,0.8466366937888992,0.0009345320876993394,0.00027710472554077944,0.00013216791261594008,0.000172922075145948,-0.00040295585530140965,-0.00014997912300606956,0.0014473866975031637,0.0,0.0,0.0,0.0,0.0,0.0,0.0,-9.739993032776423e-05,0.00015798131085509315,8.577620928373886e-05,2.6394275196794936e-05,3.2565444410555255e-05,-3.4329096475715914e-05,7.164374734580647e-07,-0.0009345320876993394,-0.00027710472554077944,-0.00013216791261594008,-0.000172922075145948,0.00040295585530140965,0.00014997912300606956,-0.0014473866975031637,0.4783565402030945,47.24624252319336,1.0933501720428467,-21.046785354614258,-0.8141990303993225,-2.3266634941101074,0.33084434270858765,0
67,0.3300333023071289,-0.4783565402030945,-47.24624252319336,-1.0933501720428467,21.046785354614258,0.8141990303993225,2.3266634941101074,-0.33084434270858765,0.0,0.0,0.0,0.0,0.0,0.0,0.0,-0.42880483445103895,-0.4504209034992594,-0.21995596271170664,0.6357327791813066,0.2211220832348466,0.11280214724447127,-0.2934000124617948,0.062361132638664774,0.6882599962675178,-0.07872515146878728,-1.621063673554805,0.028134780258237298,2.2878655663066434,0.8466359773514257,0.06226373270833701,0.6884179775783729,-0.07863937525950354,-1.6210372792796082,0.028167345702647853,2.2878312372101677,0.8466366937888992,0.0009345320876993394,0.00027710472554077944,0.00013216791261594008,0.000172922075145948,-0.00040295585530140965,-0.00014997912300606956,0.0014473866975031637,0.0,0.0,0.0,0.0,0.0,0.0,0.0,-9.739993032776423e-05,0.00015798131085509315,8.577620928373886e-05,2.6394275196794936e-05,3.2565444410555255e-05,-3.4329096475715914e-05,7.164374734580647e-07,-0.0009345320876993394,-0.00027710472554077944,-0.00013216791261594008,-0.000172922075145948,0.00040295585530140965,0.00014997912300606956,-0.0014473866975031637,0.4783565402030945,47.24624252319336,1.0933501720428467,-21.046785354614258,-0.8141990303993225,-2.3266634941101074,0.33084434270858765,0
68,0.335019588470459,-0.4267818331718445,-47.21847152709961,-1.1171538829803467,21.046785354614258,0.7968040108680725,2.3202548027038574,-0.24844686686992645,0.0,0.0,0.0,0.0,0.0,0.0,0.0,-0.4335579676625157,-0.44530938531148756,-0.22239334264784744,0.6335016081937551,0.2224014852146854,0.11110154688143836,-0.2933344492484988,0.06235680224846676,0.6882583074293458,-0.07872348103293202,-1.621063673554805,0.028136713037888207,2.2878662783834667,0.8466268259524418,0.06226373270833701,0.6884179775783729,-0.07863937525950354,-1.6210372792796082,0.028167345702647853,2.2878312372101677,0.8466366937888992,-9.538639244504238e-05,-0.00037127173152370994,0.0004935016103105453,-0.000332546296934898,0.00025488620276350646,0.0002102285994417197,-0.002073665771636285,0.0,0.0,0.0,0.0,0.0,0.0,0.0,-9.306954012974766e-05,0.0001596701490270691,8.410577342847503e-05,2.6394275196794936e-05,3.063266475964582e-05,-3.5041173298999695e-05,9.867836457400081e-06,9.538639244504238e-05,0.00037127173152370994,-0.0004935016103105453,0.000332546296934898,-0.00025488620276350646,-0.0002102285994417197,0.002073665771636285,0.4267818331718445,47.21847152709961,1.1171538829803467,-21.046785354614258,-0.7968040108680725,-2.3202548027038574,0.24844686686992645,0
69,0.34000492095947266,-0.4267818331718445,-47.21847152709961,-1.1171538829803467,21.046785354614258,0.7968040108680725,2.3202548027038574,-0.24844686686992645,0.0,0.0,0.0,0.0,0.0,0.0,0.0,-0.4335579676625157,-0.44530938531148756,-0.22239334264784744,0.6335016081937551,0.2224014852146854,0.11110154688143836,-0.2933344492484988,0.06235680224846676,0.6882583074293458,-0.07872348103293202,-1.621063673554805,0.028136713037888207,2.2878662783834667,0.8466268259524418,0.06226373270833701,0.6884179775783729,-0.07863937525950354,-1.6210372792796082,0.028167345702647853,2.2878312372101677,0.8466366937888992,-9.538639244504238e-05,-0.00037127173152370994,0.0004935016103105453,-0.000332546296934898,0.00025488620276350646,0.0002102285994417197,-0.002073665771636285,0.0,0.0,0.0,0.0,0.0,0.0,0.0,-9.306954012974766e-05,0.0001596701490270691,8.410577342847503e-05,2.6394275196794936e-05,3.063266475964582e-05,-3.5041173298999695e-05,9.867836457400081e-06,9.538639244504238e-05,0.00037127173152370994,-0.0004935016103105453,0.000332546296934898,-0.00025488620276350646,-0.0002102285994417197,0.002073665771636285,0.4267818331718445,47.21847152709961,1.1171538829803467,-21.046785354614258,-0.7968040108680725,-2.3202548027038574,0.24844686686992645,0
70,0.3450143337249756,-0.4029781222343445,-47.19466781616211,-1.0695464611053467,21.046785354614258,0.8022971749305725,2.3266634941101074,-0.30337852239608765,0.0,0.0,0.0,0.0,0.0,0.0,0.0,-0.43638997368906846,-0.449198092882378,-0.22383779591034342,0.6354563434267445,0.22312563206244135,0.11005007347654999,-0.2923651335462011,0.06235584291709456,0.6882538285250449,-0.07872682190464254,-1.621063673554805,0.028136102686325704,2.2878655663066434,0.8466329255936049,0.06226373270833701,0.6884179775783729,-0.07863937525950354,-1.6210372792796082,0.028167345702647853,2.2878312372101677,0.8466366937888992,-0.000879885464487264,-0.0010427909802489192,-0.0005035101454573689,-0.000400652703884566,-7.110764611691425e-05,-2.819029495286421e-05,0.0004524719898817048,0.0,0.0,0.0,0.0,0.0,0.0,0.0,-9.211020875755233e-05,0.00016414905332795549,8.744664513900269e-05,2.6394275196794936e-05,3.124301632214874e-05,-3.4329096475715914e-05,3.7681952942403285e-06,0.000879885464487264,0.0010427909802489192,0.0005035101454573689,0.000400652703884566,7.110764611691425e-05,2.819029495286421e-05,-0.0004524719898817048,0.4029781222343445,47.19466781616211,1.0695464611053467,-21.046785354614258,-0.8022971749305725,-2.3266634941101074,0.30337852239608765,0
71,0.35001516342163086,-0.4029781222343445,-47.19466781616211,-1.0695464611053467,21.046785354614258,0.8022971749305725,2.3266634941101074,-0.30337852239608765,0.0,0.0,0.0,0.0,0.0,0.0,0.0,-0.43638997368906846,-0.449198092882378,-0.22383779591034342,0.6354563434267445,0.22312563206244135,0.11005007347654999,-0.2923651335462011,0.06235584291709456,0.6882538285250449,-0.07872682190464254,-1.621063673554805,0.028136102686325704,2.2878655663066434,0.8466329255936049,0.06226373270833701,0.6884179775783729,-0.07863937525950354,-1.6210372792796082,0.028167345702647853,2.2878312372101677,0.8466366937888992,-0.000879885464487264,-0.0010427909802489192,-0.0005035101454573689,-0.000400652703884566,-7.110764611691425e-05,-2.819029495286421e-05,0.0004524719898817048,0.0,0.0,0.0,0.0,0.0,0.0,0.0,-9.211020875755233e-05,0.00016414905332795549,8.744664513900269e-05,2.6394275196794936e-05,3.124301632214874e-05,-3.4329096475715914e-05,3.7681952942403285e-06,0.000879885464487264,0.0010427909802489192,0.0005035101454573689,0.000400652703884566,7.110764611691425e-05,2.819029495286421e-05,-0.0004524719898817048,0.4029781222343445,47.19466781616211,1.0695464611053467,-21.046785354614258,-0.8022971749305725,-2.3266634941101074,0.30337852239608765,0
72,0.3550260066986084,-0.4029781222343445,-47.24624252319336,-1.0695464611053467,21.074556350708008,0.8022971749305725,2.3458895683288574,-0.28964561223983765,0.0,0.0,0.0,0.0,0.0,0.0,0.0,-0.4227021646957719,-0.4484054448036567,-0.21417937242280283,0.637822773897918,0.22232814172580775,0.10943034691238226,-0.29211587899684754,0.06235584195366887,0.6882581377062814,-0.07872682190464254,-1.6210656223966362,0.028136102686325704,2.287863425069502,0.8466310377806875,0.06226373270833701,0.6884179775783729,-0.07863937525950354,-1.6210372792796082,0.028167345702647853,2.2878312372101677,0.8466366937888992,-0.00031061149121725125,0.0006194893868764095,-0.00041501387251682576,-0.0005591502631071625,-0.00017011216458383724,-0.0006074256251839571,-0.0005264728022666532,0.0,0.0,0.0,0.0,0.0,0.0,0.0,-9.210924533185894e-05,0.00015983987209144956,8.744664513900269e-05,2.8343117028040155e-05,3.124301632214874e-05,-3.218785933434276e-05,5.656008211674113e-06,0.00031061149121725125,-0.0006194893868764095,0.00041501387251682576,0.0005591502631071625,0.00017011216458383724,0.0006074256251839571,0.0005264728022666532,0.4029781222343445,47.24624252319336,1.0695464611053467,-21.074556350708008,-0.8022971749305725,-2.3458895683288574,0.28964561223983765,0
73,0.3600280284881592,-0.4029781222343445,-47.24624252319336,-1.0695464611053467,21.074556350708008,0.8022971749305725,2.3458895683288574,-0.28964561223983765,0.0,0.0,0.0,0.0,0.0,0.0,0.0,-0.4227021646957719,-0.4484054448036567,-0.21417937242280283,0.637822773897918,0.22232814172580775,0.10943034691238226,-0.29211587899684754,0.06235584195366887,0.6882581377062814,-0.07872682190464254,-1.6210656223966362,0.028136102686325704,2.287863425069502,0.8466310377806875,0.06226373270833701,0.6884179775783729,-0.07863937525950354,-1.6210372792796082,0.028167345702647853,2.2878312372101677,0.8466366937888992,-0.00031061149121725125,0.0006194893868764095,-0.00041501387251682576,-0.0005591502631071625,-0.00017011216458383724,-0.0006074256251839571,-0.0005264728022666532,0.0,0.0,0.0,0.0,0.0,0.0,0.0,-9.210924533185894e-05,0.00015983987209144956,8.744664513900269e-05,2.8343117028040155e-05,3.124301632214874e-05,-3.218785933434276e-05,5.656008211674113e-06,0.00031061149121725125,-0.0006194893868764095,0.00041501387251682576,0.0005591502631071625,0.00017011216458383724,0.0006074256251839571,0.0005264728022666532,0.4029781222343445,47.24624252319336,1.0695464611053467,-21.074556350708008,-0.8022971749305725,-2.3458895683288574,0.28964561223983765,0
74,0.36504173278808594,-0.4029781222343445,-47.24624252319336,-1.0695464611053467,21.022981643676758,0.7968040108680725,2.3330721855163574,-0.31711143255233765,0.0,0.0,0.0,0.0,0.0,0.0,0.0,-0.4333616215736011,-0.4496354832561204,-0.22680859369433262,0.6366376346852466,0.2220343099894053,0.11015269189107067,-0.2933434799045832,0.06235370957955795,0.6882596293709,-0.07872682190464254,-1.6210620031189498,0.028136713037888207,2.2878648542118665,0.8466344558324809,0.06226373270833701,0.6884179775783729,-0.07863937525950354,-1.6210372792796082,0.028167345702647853,2.2878312372101677,0.8466366937888992,-0.0006071557597030865,2.2212772485003943e-06,-0.0006611499899122088,0.0004500517579603237,0.00014034311243933952,-8.597862136041315e-05,0.0011610134188805945,0.0,0.0,0.0,0.0,0.0,0.0,0.0,-8.997687122094117e-05,0.00015834820747284706,8.744664513900269e-05,2.4723839341600495e-05,3.063266475964582e-05,-3.361700169879356e-05,2.2379564182939404e-06,0.0006071557597030865,-2.2212772485003943e-06,0.0006611499899122088,-0.0004500517579603237,-0.00014034311243933952,8.597862136041315e-05,-0.0011610134188805945,0.4029781222343445,47.24624252319336,1.0695464611053467,-21.022981643676758,-0.7968040108680725,-2.3330721855163574,0.31711143255233765,0
75,0.3700063228607178,-0.4029781222343445,-47.24624252319336,-1.0695464611053467,21.022981643676758,0.7968040108680725,2.3330721855163574,-0.31711143255233765,0.0,0.0,0.0,0.0,0.0,0.0,0.0,-0.4333616215736011,-0.4496354832561204,-0.22680859369433262,0.6366376346852466,0.2220343099894053,0.11015269189107067,-0.2933434799045832,0.06235370957955795,0.6882596293709,-0.07872682190464254,-1.6210620031189498,0.028136713037888207,2.2878648542118665,0.8466344558324809,0.06226373270833701,0.6884179775783729,-0.07863937525950354,-1.6210372792796082,0.028167345702647853,2.2878312372101677,0.8466366937888992,-0.0006071557597030865,2.2212772485003943e-06,-0.0006611499899122088,0.0004500517579603237,0.00014034311243933952,-8.597862136041315e-05,0.0011610134188805945,0.0,0.0,0.0,0.0,0.0,0.0,0.0,-8.997687122094117e-05,0.00015834820747284706,8.744664513900269e-05,2.4723839341600495e-05,3.063266475964582e-05,-3.361700169879356e-05,2.2379564182939404e-06,0.0006071557597030865,-2.2212772485003943e-06,0.0006611499899122088,-0.0004500517579603237,-0.00014034311243933952,8.597862136041315e-05,-0.0011610134188805945,0.4029781222343445,47.24624252319336,1.0695464611053467,-21.022981643676758,-0.7968040108680725,-2.3330721855163574,0.31711143255233765,0
76,0.37500429153442383,-0.4267818331718445,-47.24624252319336,-1.1171538829803467,21.074556350708008,0.8022971749305725,2.3394808769226074,-0.31711143255233765,0.0,0.0,0.0,0.0,0.0,0.0,0.0,-0.42952114603554814,-0.4528708059960944,-0.22450921519027506,0.637329547398392,0.2215765674985091,0.11125069549890318,-0.2933682763154255,0.062357513352949825,0.6882603227145214,-0.07872348103293202,-1.6210656223966362,0.028136102686325704,2.2878630810613183,0.8466344151337633,0.06226373270833701,0.6884179775783729,-0.07863937525950354,-1.6210372792796082,0.028167345702647853,2.2878312372101677,0.8466366937888992,-3.055739722996416e-06,0.0002698820983462892,0.0007374912525501774,-0.0005837498881143679,-0.00024145358552410607,-0.00039372619332616584,0.0011172024731834222,0.0,0.0,0.0,0.0,0.0,0.0,0.0,-9.378064461281616e-05,0.0001576548638514419,8.410577342847503e-05,2.8343117028040155e-05,3.124301632214874e-05,-3.1843851150625824e-05,2.2786551359121887e-06,3.055739722996416e-06,-0.0002698820983462892,-0.0007374912525501774,0.0005837498881143679,0.00024145358552410607,0.00039372619332616584,-0.0011172024731834222,0.4267818331718445,47.24624252319336,1.1171538829803467,-21.074556350708008,-0.8022971749305725,-2.3394808769226074,0.31711143255233765,0
77,0.38002586364746094,-0.4267818331718445,-47.24624252319336,-1.1171538829803467,21.074556350708008,0.8022971749305725,2.3394808769226074,-0.31711143255233765,0.0,0.0,0.0,0.0,0.0,0.0,0.0,-0.42952114603554814,-0.4528708059960944,-0.22450921519027506,0.637329547398392,0.2215765674985091,0.11125069549890318,-0.2933682763154255,0.062357513352949825,0.6882603227145214,-0.07872348103293202,-1.6210656223966362,0.028136102686325704,2.2878630810613183,0.8466344151337633,0.06226373270833701,0.6884179775783729,-0.07863937525950354,-1.6210372792796082,0.028167345702647853,2.2878312372101677,0.8466366937888992,-3.055739722996416e-06,0.0002698820983462892,0.0007374912525501774,-0.0005837498881143679,-0.00024145358552410607,-0.00039372619332616584,0.0011172024731834222,0.0,0.0,0.0,0.0,0.0,0.0,0.0,-9.378064461281616e-05,0.0001576548638514419,8.410577342847503e-05,2.8343117028040155e-05,3.124301632214874e-05,-3.1843851150625824e-05,2.2786551359121887e-06,3.055739722996416e-06,-0.0002698820983462892,-0.0007374912525501774,0.0005837498881143679,0.00024145358552410607,0.00039372619332616584,-0.0011172024731834222,0.4267818331718445,47.24624252319336,1.1171538829803467,-21.074556350708008,-0.8022971749305725,-2.3394808769226074,0.31711143255233765,0
78,0.38501930236816406,-0.4029781222343445,-47.21847152709961,-1.0695464611053467,21.074556350708008,0.8022971749305725,2.3266634941101074,-0.31711143255233765,0.0,0.0,0.0,0.0,0.0,0.0,0.0,-0.42251338527712023,-0.4370788827178222,-0.21678487444140004,0.62883457442279,0.22124644583143854,0.11000794796334909,-0.2926429893732722,0.06235584292913731,0.6882576795701598,-0.07872682190464254,-1.6210656223966362,0.028136102686325704,2.2878655662468184,0.8466344558329404,0.06226373270833701,0.6884179775783729,-0.07863937525950354,-1.6210372792796082,0.028167345702647853,2.2878312372101677,0.8466366937888992,-0.0005524059096939714,-0.00013716492902130317,-0.0002480643080173136,-0.0011117712267199036,-3.822792801157158e-05,0.0001834130584908255,0.0006566918966456087,0.0,0.0,0.0,0.0,0.0,0.0,0.0,-9.211022080030107e-05,0.00016029800821304452,8.744664513900269e-05,2.8343117028040155e-05,3.124301632214874e-05,-3.43290366506821e-05,2.2379559587726305e-06,0.0005524059096939714,0.00013716492902130317,0.0002480643080173136,0.0011117712267199036,3.822792801157158e-05,-0.0001834130584908255,-0.0006566918966456087,0.4029781222343445,47.21847152709961,1.0695464611053467,-21.074556350708008,-0.8022971749305725,-2.3266634941101074,0.31711143255233765,0
79,0.3900027275085449,-0.4029781222343445,-47.21847152709961,-1.0695464611053467,21.074556350708008,0.8022971749305725,2.3266634941101074,-0.31711143255233765,0.0,0.0,0.0,0.0,0.0,0.0,0.0,-0.42251338527712023,-0.4370788827178222,-0.21678487444140004,0.62883457442279,0.22124644583143854,0.11000794796334909,-0.2926429893732722,0.06235584292913731,0.6882576795701598,-0.07872682190464254,-1.6210656223966362,0.028136102686325704,2.2878655662468184,0.8466344558329404,0.06226373270833701,0.6884179775783729,-0.07863937525950354,-1.6210372792796082,0.028167345702647853,2.2878312372101677,0.8466366937888992,-0.0005524059096939714,-0.00013716492902130317,-0.0002480643080173136,-0.0011117712267199036,-3.822792801157158e-05,0.0001834130584908255,0.0006566918966456087,0.0,0.0,0.0,0.0,0.0,0.0,0.0,-9.211022080030107e-05,0.00016029800821304452,8.744664513900269e-05,2.8343117028040155e-05,3.124301632214874e-05,-3.43290366506821e-05,2.2379559587726305e-06,0.0005524059096939714,0.00013716492902130317,0.0002480643080173136,0.0011117712267199036,3.822792801157158e-05,-0.0001834130584908255,-0.0006566918966456087,0.4029781222343445,47.21847152709961,1.0695464611053467,-21.074556350708008,-0.8022971749305725,-2.3266634941101074,0.31711143255233765,0
