rezayati/contactInterpretation/dataset/franka_main/labeled_data/link5/c5_3.csv
index,time,tau_J0,tau_J1,tau_J2,tau_J3,tau_J4,tau_J5,tau_J6,tau_J_d0,tau_J_d1,tau_J_d2,tau_J_d3,tau_J_d4,tau_J_d5,tau_J_d6,tau_ext0,tau_ext1,tau_ext2,tau_ext3,tau_ext4,tau_ext5,tau_ext6,q0,q1,q2,q3,q4,q5,q6,q_d0,q_d1,q_d2,q_d3,q_d4,q_d5,q_d6,dq0,dq1,dq2,dq3,dq4,dq5,dq6,dq_d0,dq_d1,dq_d2,dq_d3,dq_d4,dq_d5,dq_d6,e0,e1,e2,e3,e4,e5,e6,de0,de1,de2,de3,de4,de5,de6,etau_J0,etau_J1,etau_J2,etau_J3,etau_J4,etau_J5,etau_J6,label
1,0.0,-0.4029781222343445,-34.06295394897461,-3.8228423595428467,19.388460159301758,0.2603049874305725,1.790164589881897,-0.09097616374492645,0.0,0.0,0.0,0.0,0.0,0.0,0.0,-0.365142960485896,-0.009413217818974657,-0.23399353878687973,0.3657098612278525,0.20244791070602008,-0.12242860237981446,-0.09696106274632574,1.0544323391988917,0.3240051045263742,-0.3925842453549581,-2.1531821229556165,0.864744336492964,2.465991669376691,0.54448703478939,1.0544104758940245,0.3238615046091247,-0.39250456234122666,-2.153291787532338,0.8647539153680389,2.46587817577521,0.5445020185570556,0.0011297201131938973,4.310541318938243e-05,0.00045729042470689087,0.0005195871515824187,-0.00015419198022042284,-0.00028632590990118893,-0.0001236597745405084,0.0,0.0,0.0,0.0,0.0,0.0,0.0,-2.1863304867197897e-05,-0.00014359991724949284,7.968301373145747e-05,-0.00010966457672134666,9.578875074911508e-06,-0.00011349360148082965,1.4983767665621706e-05,-0.0011297201131938973,-4.310541318938243e-05,-0.00045729042470689087,-0.0005195871515824187,0.00015419198022042284,0.00028632590990118893,0.0001236597745405084,0.4029781222343445,34.06295394897461,3.8228423595428467,-19.388460159301758,-0.2603049874305725,-1.790164589881897,0.09097616374492645,0
2,0.01005101203918457,-0.3514034152030945,-34.03915023803711,-3.7752349376678467,19.360689163208008,0.2484031319618225,1.777347207069397,-0.09097616374492645,0.0,0.0,0.0,0.0,0.0,0.0,0.0,-0.35598585262523913,-0.004862111719303666,-0.226284605156755,0.36528395690178467,0.20198923251344172,-0.12350634086971458,-0.09758583047169919,1.0544277659328503,0.3240016361604231,-0.39258758621466794,-2.153182363220543,0.8647481253083313,2.465993093368831,0.54448703478939,1.0544104758940245,0.3238615046091247,-0.39250456234122666,-2.153291787532338,0.8647539153680389,2.46587817577521,0.5445020185570556,3.9674358512001336e-05,-0.0005677077808618377,-0.0004396517301494938,0.0007608936175131684,0.0002456646091433376,5.042705631725055e-06,-0.0007628602651992331,0.0,0.0,0.0,0.0,0.0,0.0,0.0,-1.7290038825779064e-05,-0.00014013155129838362,8.302387344127915e-05,-0.00010942431179472578,5.790059707577733e-06,-0.00011491759362103338,1.4983767665621706e-05,-3.9674358512001336e-05,0.0005677077808618377,0.0004396517301494938,-0.0007608936175131684,-0.0002456646091433376,-5.042705631725055e-06,0.0007628602651992331,0.3514034152030945,34.03915023803711,3.7752349376678467,-19.360689163208008,-0.2484031319618225,-1.777347207069397,0.09097616374492645,0
3,0.015076160430908203,-0.3514034152030945,-34.03915023803711,-3.7752349376678467,19.360689163208008,0.2484031319618225,1.777347207069397,-0.09097616374492645,0.0,0.0,0.0,0.0,0.0,0.0,0.0,-0.35598585262523913,-0.004862111719303666,-0.226284605156755,0.36528395690178467,0.20198923251344172,-0.12350634086971458,-0.09758583047169919,1.0544277659328503,0.3240016361604231,-0.39258758621466794,-2.153182363220543,0.8647481253083313,2.465993093368831,0.54448703478939,1.0544104758940245,0.3238615046091247,-0.39250456234122666,-2.153291787532338,0.8647539153680389,2.46587817577521,0.5445020185570556,3.9674358512001336e-05,-0.0005677077808618377,-0.0004396517301494938,0.0007608936175131684,0.0002456646091433376,5.042705631725055e-06,-0.0007628602651992331,0.0,0.0,0.0,0.0,0.0,0.0,0.0,-1.7290038825779064e-05,-0.00014013155129838362,8.302387344127915e-05,-0.00010942431179472578,5.790059707577733e-06,-0.00011491759362103338,1.4983767665621706e-05,-3.9674358512001336e-05,0.0005677077808618377,0.0004396517301494938,-0.0007608936175131684,-0.0002456646091433376,-5.042705631725055e-06,0.0007628602651992331,0.3514034152030945,34.03915023803711,3.7752349376678467,-19.360689163208008,-0.2484031319618225,-1.777347207069397,0.09097616374492645,0
4,0.020050764083862305,-0.4029781222343445,-34.11452865600586,-3.7990386486053467,19.360689163208008,0.2548118233680725,1.777347207069397,-0.05710165575146675,0.0,0.0,0.0,0.0,0.0,0.0,0.0,-0.36645083608629003,-0.01929169258260476,-0.23739810859144347,0.37473736042857964,0.2024460436406343,-0.12194229818648566,-0.09913446076519336,1.0544324098127198,0.3240089808568145,-0.39258591577881263,-2.1531793235147916,0.8647449456016302,2.4659930935303356,0.5444832709551686,1.0544104758940245,0.3238615046091247,-0.39250456234122666,-2.153291787532338,0.8647539153680389,2.46587817577521,0.5445020185570556,0.0009534530482854393,0.0006132765135102942,-0.00015277014631056549,0.001336742621099336,7.91563306386229e-05,6.757308776802378e-05,-0.0020879270433549917,0.0,0.0,0.0,0.0,0.0,0.0,0.0,-2.1933918695316024e-05,-0.00014747624768979284,8.135343758597369e-05,-0.00011246401754627655,8.969766408739588e-06,-0.00011491775512562086,1.8747601887025844e-05,-0.0009534530482854393,-0.0006132765135102942,0.00015277014631056549,-0.001336742621099336,-7.91563306386229e-05,-6.757308776802378e-05,0.0020879270433549917,0.4029781222343445,34.11452865600586,3.7990386486053467,-19.360689163208008,-0.2548118233680725,-1.777347207069397,0.05710165575146675,0
5,0.025046586990356445,-0.4029781222343445,-34.11452865600586,-3.7990386486053467,19.360689163208008,0.2548118233680725,1.777347207069397,-0.05710165575146675,0.0,0.0,0.0,0.0,0.0,0.0,0.0,-0.36645083608629003,-0.01929169258260476,-0.23739810859144347,0.37473736042857964,0.2024460436406343,-0.12194229818648566,-0.09913446076519336,1.0544324098127198,0.3240089808568145,-0.39258591577881263,-2.1531793235147916,0.8647449456016302,2.4659930935303356,0.5444832709551686,1.0544104758940245,0.3238615046091247,-0.39250456234122666,-2.153291787532338,0.8647539153680389,2.46587817577521,0.5445020185570556,0.0009534530482854393,0.0006132765135102942,-0.00015277014631056549,0.001336742621099336,7.91563306386229e-05,6.757308776802378e-05,-0.0020879270433549917,0.0,0.0,0.0,0.0,0.0,0.0,0.0,-2.1933918695316024e-05,-0.00014747624768979284,8.135343758597369e-05,-0.00011246401754627655,8.969766408739588e-06,-0.00011491775512562086,1.8747601887025844e-05,-0.0009534530482854393,-0.0006132765135102942,0.00015277014631056549,-0.001336742621099336,-7.91563306386229e-05,-6.757308776802378e-05,0.0020879270433549917,0.4029781222343445,34.11452865600586,3.7990386486053467,-19.360689163208008,-0.2548118233680725,-1.777347207069397,0.05710165575146675,0
6,0.030442476272583008,-0.4029781222343445,-34.11452865600586,-3.7990386486053467,19.336885452270508,0.2548118233680725,1.783755898475647,-0.08365194499492645,0.0,0.0,0.0,0.0,0.0,0.0,0.0,-0.37067179161477115,-0.011241053397238849,-0.23941875693021966,0.3675351900612085,0.2029734521487558,-0.12315361051506246,-0.09897301788534225,1.054432408873696,0.3240083568592943,-0.39258686937136683,-2.1531774877015946,0.8647484748076977,2.4659923814535136,0.5444863387248766,1.0544104758940245,0.3238615046091247,-0.39250456234122666,-2.153291787532338,0.8647539153680389,2.46587817577521,0.5445020185570556,0.00039617103720192113,0.00040380529823505555,-0.0003967085989919719,0.0013940970145081485,6.988619476069537e-05,0.00010306234055820024,-0.0012090497594456067,0.0,0.0,0.0,0.0,0.0,0.0,0.0,-2.1932979671568376e-05,-0.00014685225016958237,8.230703014017182e-05,-0.00011429983074329186,5.440560341241074e-06,-0.00011420567830366934,1.5679832178983055e-05,-0.00039617103720192113,-0.00040380529823505555,0.0003967085989919719,-0.0013940970145081485,-6.988619476069537e-05,-0.00010306234055820024,0.0012090497594456067,0.4029781222343445,34.11452865600586,3.7990386486053467,-19.336885452270508,-0.2548118233680725,-1.783755898475647,0.08365194499492645,0
7,0.035044193267822266,-0.4029781222343445,-34.11452865600586,-3.7990386486053467,19.336885452270508,0.2548118233680725,1.783755898475647,-0.08365194499492645,0.0,0.0,0.0,0.0,0.0,0.0,0.0,-0.37067179161477115,-0.011241053397238849,-0.23941875693021966,0.3675351900612085,0.2029734521487558,-0.12315361051506246,-0.09897301788534225,1.054432408873696,0.3240083568592943,-0.39258686937136683,-2.1531774877015946,0.8647484748076977,2.4659923814535136,0.5444863387248766,1.0544104758940245,0.3238615046091247,-0.39250456234122666,-2.153291787532338,0.8647539153680389,2.46587817577521,0.5445020185570556,0.00039617103720192113,0.00040380529823505555,-0.0003967085989919719,0.0013940970145081485,6.988619476069537e-05,0.00010306234055820024,-0.0012090497594456067,0.0,0.0,0.0,0.0,0.0,0.0,0.0,-2.1932979671568376e-05,-0.00014685225016958237,8.230703014017182e-05,-0.00011429983074329186,5.440560341241074e-06,-0.00011420567830366934,1.5679832178983055e-05,-0.00039617103720192113,-0.00040380529823505555,0.0003967085989919719,-0.0013940970145081485,-6.988619476069537e-05,-0.00010306234055820024,0.0012090497594456067,0.4029781222343445,34.11452865600586,3.7990386486053467,-19.336885452270508,-0.2548118233680725,-1.783755898475647,0.08365194499492645,0
8,0.04004955291748047,-0.3514034152030945,-34.13833236694336,-3.8228423595428467,19.412263870239258,0.2603049874305725,1.790164589881897,-0.10470907390117645,0.0,0.0,0.0,0.0,0.0,0.0,0.0,-0.3646553614801419,-0.005846140650387114,-0.23079622065066524,0.3655039567761391,0.20275481027824982,-0.12415944075311074,-0.09942569848261436,1.0544278339230562,0.3240106277532337,-0.3925842453483404,-2.1531834641036394,0.8647446855078343,2.465991669376691,0.5444886129967698,1.0544104758940245,0.3238615046091247,-0.39250456234122666,-2.153291787532338,0.8647539153680389,2.46587817577521,0.5445020185570556,-0.0007712230747566964,0.0012434616021068205,0.000556450083094021,-0.0002841954626426449,-4.166758192704418e-05,-0.00022104534446042303,-0.0003825246904763681,0.0,0.0,0.0,0.0,0.0,0.0,0.0,-1.7358029031688815e-05,-0.00014912314410897576,7.968300711375109e-05,-0.00010832342869848688,9.229860204573725e-06,-0.00011349360148082965,1.3405560285839613e-05,0.0007712230747566964,-0.0012434616021068205,-0.000556450083094021,0.0002841954626426449,4.166758192704418e-05,0.00022104534446042303,0.0003825246904763681,0.3514034152030945,34.13833236694336,3.8228423595428467,-19.412263870239258,-0.2603049874305725,-1.790164589881897,0.10470907390117645,0
9,0.04504799842834473,-0.3514034152030945,-34.13833236694336,-3.8228423595428467,19.412263870239258,0.2603049874305725,1.790164589881897,-0.10470907390117645,0.0,0.0,0.0,0.0,0.0,0.0,0.0,-0.3646553614801419,-0.005846140650387114,-0.23079622065066524,0.3655039567761391,0.20275481027824982,-0.12415944075311074,-0.09942569848261436,1.0544278339230562,0.3240106277532337,-0.3925842453483404,-2.1531834641036394,0.8647446855078343,2.465991669376691,0.5444886129967698,1.0544104758940245,0.3238615046091247,-0.39250456234122666,-2.153291787532338,0.8647539153680389,2.46587817577521,0.5445020185570556,-0.0007712230747566964,0.0012434616021068205,0.000556450083094021,-0.0002841954626426449,-4.166758192704418e-05,-0.00022104534446042303,-0.0003825246904763681,0.0,0.0,0.0,0.0,0.0,0.0,0.0,-1.7358029031688815e-05,-0.00014912314410897576,7.968300711375109e-05,-0.00010832342869848688,9.229860204573725e-06,-0.00011349360148082965,1.3405560285839613e-05,0.0007712230747566964,-0.0012434616021068205,-0.000556450083094021,0.0002841954626426449,4.166758192704418e-05,0.00022104534446042303,0.0003825246904763681,0.3514034152030945,34.13833236694336,3.8228423595428467,-19.412263870239258,-0.2603049874305725,-1.790164589881897,0.10470907390117645,0
10,0.05005693435668945,-0.3752071261405945,-34.09072494506836,-3.7990386486053467,19.360689163208008,0.2548118233680725,1.777347207069397,-0.07724325358867645,0.0,0.0,0.0,0.0,0.0,0.0,0.0,-0.368110379755905,-0.010469351897891822,-0.23162758614550596,0.36701134654201795,0.20323272721932267,-0.12384425940358179,-0.10009280125813444,1.0544297535901448,0.32400668642201,-0.39258591577881274,-2.1531815701166273,0.8647474786059703,2.4659930935303365,0.5444858621240797,1.0544104758940245,0.3238615046091247,-0.39250456234122666,-2.153291787532338,0.8647539153680389,2.46587817577521,0.5445020185570556,0.0003104497418524702,0.00011074452936162331,-0.0002437912571290683,0.0011025992446567119,-3.3721325410104766e-06,0.00023459893495200363,-0.001176972787395071,0.0,0.0,0.0,0.0,0.0,0.0,0.0,-1.927769612031227e-05,-0.00014518181288530885,8.135343758608471e-05,-0.00011021741571060062,6.436762068573465e-06,-0.00011491775512650904,1.6156432975922286e-05,-0.0003104497418524702,-0.00011074452936162331,0.0002437912571290683,-0.0011025992446567119,3.3721325410104766e-06,-0.00023459893495200363,0.001176972787395071,0.3752071261405945,34.09072494506836,3.7990386486053467,-19.360689163208008,-0.2548118233680725,-1.777347207069397,0.07724325358867645,0
11,0.0550534725189209,-0.3752071261405945,-34.09072494506836,-3.7990386486053467,19.360689163208008,0.2548118233680725,1.777347207069397,-0.07724325358867645,0.0,0.0,0.0,0.0,0.0,0.0,0.0,-0.368110379755905,-0.010469351897891822,-0.23162758614550596,0.36701134654201795,0.20323272721932267,-0.12384425940358179,-0.10009280125813444,1.0544297535901448,0.32400668642201,-0.39258591577881274,-2.1531815701166273,0.8647474786059703,2.4659930935303365,0.5444858621240797,1.0544104758940245,0.3238615046091247,-0.39250456234122666,-2.153291787532338,0.8647539153680389,2.46587817577521,0.5445020185570556,0.0003104497418524702,0.00011074452936162331,-0.0002437912571290683,0.0011025992446567119,-3.3721325410104766e-06,0.00023459893495200363,-0.001176972787395071,0.0,0.0,0.0,0.0,0.0,0.0,0.0,-1.927769612031227e-05,-0.00014518181288530885,8.135343758608471e-05,-0.00011021741571060062,6.436762068573465e-06,-0.00011491775512650904,1.6156432975922286e-05,-0.0003104497418524702,-0.00011074452936162331,0.0002437912571290683,-0.0011025992446567119,3.3721325410104766e-06,-0.00023459893495200363,0.001176972787395071,0.3752071261405945,34.09072494506836,3.7990386486053467,-19.360689163208008,-0.2548118233680725,-1.777347207069397,0.07724325358867645,0
12,0.0599980354309082,-0.3752071261405945,-34.09072494506836,-3.7990386486053467,19.360689163208008,0.2603049874305725,1.783755898475647,-0.11844198405742645,0.0,0.0,0.0,0.0,0.0,0.0,0.0,-0.36609273693231936,-0.014571799752385036,-0.2324445947460546,0.36775437626747753,0.20336902778773308,-0.1234761343562142,-0.1002656912804392,1.0544283240748196,0.32400522515643304,-0.39258591577881263,-2.1531821551998096,0.8647479674972595,2.4659923814535136,0.5444900865478671,1.0544104758940245,0.3238615046091247,-0.39250456234122666,-2.153291787532338,0.8647539153680389,2.46587817577521,0.5445020185570556,0.0002618000516475333,-0.00011315522537014744,0.0001426651204008176,0.0007238011604191746,-0.00019225084416648255,-2.0080441180870988e-05,0.0010258845717363854,0.0,0.0,0.0,0.0,0.0,0.0,0.0,-1.7848180795088098e-05,-0.00014372054730832362,8.135343758597369e-05,-0.00010963233252825333,5.947870779454689e-06,-0.00011420567830366934,1.193200918847559e-05,-0.0002618000516475333,0.00011315522537014744,-0.0001426651204008176,-0.0007238011604191746,0.00019225084416648255,2.0080441180870988e-05,-0.0010258845717363854,0.3752071261405945,34.09072494506836,3.7990386486053467,-19.360689163208008,-0.2603049874305725,-1.783755898475647,0.11844198405742645,0
13,0.0650486946105957,-0.3752071261405945,-34.09072494506836,-3.7990386486053467,19.360689163208008,0.2603049874305725,1.783755898475647,-0.11844198405742645,0.0,0.0,0.0,0.0,0.0,0.0,0.0,-0.36609273693231936,-0.014571799752385036,-0.2324445947460546,0.36775437626747753,0.20336902778773308,-0.1234761343562142,-0.1002656912804392,1.0544283240748196,0.32400522515643304,-0.39258591577881263,-2.1531821551998096,0.8647479674972595,2.4659923814535136,0.5444900865478671,1.0544104758940245,0.3238615046091247,-0.39250456234122666,-2.153291787532338,0.8647539153680389,2.46587817577521,0.5445020185570556,0.0002618000516475333,-0.00011315522537014744,0.0001426651204008176,0.0007238011604191746,-0.00019225084416648255,-2.0080441180870988e-05,0.0010258845717363854,0.0,0.0,0.0,0.0,0.0,0.0,0.0,-1.7848180795088098e-05,-0.00014372054730832362,8.135343758597369e-05,-0.00010963233252825333,5.947870779454689e-06,-0.00011420567830366934,1.193200918847559e-05,-0.0002618000516475333,0.00011315522537014744,-0.0001426651204008176,-0.0007238011604191746,0.00019225084416648255,2.0080441180870988e-05,-0.0010258845717363854,0.3752071261405945,34.09072494506836,3.7990386486053467,-19.360689163208008,-0.2603049874305725,-1.783755898475647,0.11844198405742645,0
14,0.07004737854003906,-0.3514034152030945,-34.06295394897461,-3.8228423595428467,19.388460159301758,0.2603049874305725,1.777347207069397,-0.13217489421367645,0.0,0.0,0.0,0.0,0.0,0.0,0.0,-0.3568594305857004,-0.010818162921868752,-0.22474761973920002,0.3657769812337694,0.20299642232709333,-0.12413955058589367,-0.10021151402121667,1.0544266271372458,0.3240052144069947,-0.39258495397595633,-2.153183350173224,0.8647476195803404,2.4659930935303365,0.5444947918250135,1.0544104758940245,0.3238615046091247,-0.39250456234122666,-2.153291787532338,0.8647539153680389,2.46587817577521,0.5445020185570556,0.0002793927018679552,-0.0006107769306889623,0.0009608342978653281,0.00024255661148058253,-0.00022349588788106797,0.00022931250446870587,0.0013705658260985787,0.0,0.0,0.0,0.0,0.0,0.0,0.0,-1.615124322129624e-05,-0.00014370979786998417,8.03916347296707e-05,-0.00010843735911381103,6.295787698507027e-06,-0.00011491775512650904,7.226732042120432e-06,-0.0002793927018679552,0.0006107769306889623,-0.0009608342978653281,-0.00024255661148058253,0.00022349588788106797,-0.00022931250446870587,-0.0013705658260985787,0.3514034152030945,34.06295394897461,3.8228423595428467,-19.388460159301758,-0.2603049874305725,-1.777347207069397,0.13217489421367645,0
15,0.07504439353942871,-0.3514034152030945,-34.06295394897461,-3.8228423595428467,19.388460159301758,0.2603049874305725,1.777347207069397,-0.13217489421367645,0.0,0.0,0.0,0.0,0.0,0.0,0.0,-0.3568594305857004,-0.010818162921868752,-0.22474761973920002,0.3657769812337694,0.20299642232709333,-0.12413955058589367,-0.10021151402121667,1.0544266271372458,0.3240052144069947,-0.39258495397595633,-2.153183350173224,0.8647476195803404,2.4659930935303365,0.5444947918250135,1.0544104758940245,0.3238615046091247,-0.39250456234122666,-2.153291787532338,0.8647539153680389,2.46587817577521,0.5445020185570556,0.0002793927018679552,-0.0006107769306889623,0.0009608342978653281,0.00024255661148058253,-0.00022349588788106797,0.00022931250446870587,0.0013705658260985787,0.0,0.0,0.0,0.0,0.0,0.0,0.0,-1.615124322129624e-05,-0.00014370979786998417,8.03916347296707e-05,-0.00010843735911381103,6.295787698507027e-06,-0.00011491775512650904,7.226732042120432e-06,-0.0002793927018679552,0.0006107769306889623,-0.0009608342978653281,-0.00024255661148058253,0.00022349588788106797,-0.00022931250446870587,-0.0013705658260985787,0.3514034152030945,34.06295394897461,3.8228423595428467,-19.388460159301758,-0.2603049874305725,-1.777347207069397,0.13217489421367645,0
16,0.08070802688598633,-0.3752071261405945,-34.11452865600586,-3.7990386486053467,19.388460159301758,0.2603049874305725,1.770938515663147,-0.13217489421367645,0.0,0.0,0.0,0.0,0.0,0.0,0.0,-0.3725374677544989,-0.020040160356813712,-0.24135920917669015,0.3696984983764795,0.20378151395312247,-0.122458413639877,-0.0996241187189436,1.0544297545753794,0.3240088323874265,-0.3925859157828129,-2.1531843401820407,0.8647479851193457,2.4659938056071593,0.5444916124440565,1.0544104758940245,0.3238615046091247,-0.39250456234122666,-2.153291787532338,0.8647539153680389,2.46587817577521,0.5445020185570556,0.0003525455067697773,0.0006725783462440195,-0.0003137906865544656,0.0004593285837472325,-0.0001606732572177298,0.0006472332188791056,0.0013346299583166094,0.0,0.0,0.0,0.0,0.0,0.0,0.0,-1.9278681354872873e-05,-0.00014732777830178678,8.135344158621827e-05,-0.00010744735029710739,5.930248693220008e-06,-0.00011562983194934873,1.0406112999072903e-05,-0.0003525455067697773,-0.0006725783462440195,0.0003137906865544656,-0.0004593285837472325,0.0001606732572177298,-0.0006472332188791056,-0.0013346299583166094,0.3752071261405945,34.11452865600586,3.7990386486053467,-19.388460159301758,-0.2603049874305725,-1.770938515663147,0.13217489421367645,0
17,0.08504867553710938,-0.3752071261405945,-34.11452865600586,-3.7990386486053467,19.388460159301758,0.2603049874305725,1.770938515663147,-0.13217489421367645,0.0,0.0,0.0,0.0,0.0,0.0,0.0,-0.3725374677544989,-0.020040160356813712,-0.24135920917669015,0.3696984983764795,0.20378151395312247,-0.122458413639877,-0.0996241187189436,1.0544297545753794,0.3240088323874265,-0.3925859157828129,-2.1531843401820407,0.8647479851193457,2.4659938056071593,0.5444916124440565,1.0544104758940245,0.3238615046091247,-0.39250456234122666,-2.153291787532338,0.8647539153680389,2.46587817577521,0.5445020185570556,0.0003525455067697773,0.0006725783462440195,-0.0003137906865544656,0.0004593285837472325,-0.0001606732572177298,0.0006472332188791056,0.0013346299583166094,0.0,0.0,0.0,0.0,0.0,0.0,0.0,-1.9278681354872873e-05,-0.00014732777830178678,8.135344158621827e-05,-0.00010744735029710739,5.930248693220008e-06,-0.00011562983194934873,1.0406112999072903e-05,-0.0003525455067697773,-0.0006725783462440195,0.0003137906865544656,-0.0004593285837472325,0.0001606732572177298,-0.0006472332188791056,-0.0013346299583166094,0.3752071261405945,34.11452865600586,3.7990386486053467,-19.388460159301758,-0.2603049874305725,-1.770938515663147,0.13217489421367645,0
18,0.09000635147094727,-0.4029781222343445,-34.09072494506836,-3.8228423595428467,19.412263870239258,0.2603049874305725,1.777347207069397,-0.07724325358867645,0.0,0.0,0.0,0.0,0.0,0.0,0.0,-0.3677507721384792,-0.010884493325349645,-0.23721032465554842,0.3645873146631606,0.20379829010343758,-0.12319969036582099,-0.09982209100841195,1.054432180254518,0.32400739764202974,-0.3925842453429574,-2.153183540093975,0.8647469225761629,2.4659930935303365,0.544485508910484,1.0544104758940245,0.3238615046091247,-0.39250456234122666,-2.153291787532338,0.8647539153680389,2.46587817577521,0.5445020185570556,0.0005823554431856068,0.0005471503147691927,0.0003457377609139032,-0.00046360237134461074,4.097693868381263e-06,0.0003261590394998031,-0.0013329442136879822,0.0,0.0,0.0,0.0,0.0,0.0,0.0,-2.170436049353519e-05,-0.0001458930329050201,7.968300173072373e-05,-0.00010824743836268524,6.9927918759926655e-06,-0.00011491775512650904,1.6509646571627457e-05,-0.0005823554431856068,-0.0005471503147691927,-0.0003457377609139032,0.00046360237134461074,-4.097693868381263e-06,-0.0003261590394998031,0.0013329442136879822,0.4029781222343445,34.09072494506836,3.8228423595428467,-19.412263870239258,-0.2603049874305725,-1.777347207069397,0.07724325358867645,0
19,0.09504532814025879,-0.4029781222343445,-34.09072494506836,-3.8228423595428467,19.412263870239258,0.2603049874305725,1.777347207069397,-0.07724325358867645,0.0,0.0,0.0,0.0,0.0,0.0,0.0,-0.3677507721384792,-0.010884493325349645,-0.23721032465554842,0.3645873146631606,0.20379829010343758,-0.12319969036582099,-0.09982209100841195,1.054432180254518,0.32400739764202974,-0.3925842453429574,-2.153183540093975,0.8647469225761629,2.4659930935303365,0.544485508910484,1.0544104758940245,0.3238615046091247,-0.39250456234122666,-2.153291787532338,0.8647539153680389,2.46587817577521,0.5445020185570556,0.0005823554431856068,0.0005471503147691927,0.0003457377609139032,-0.00046360237134461074,4.097693868381263e-06,0.0003261590394998031,-0.0013329442136879822,0.0,0.0,0.0,0.0,0.0,0.0,0.0,-2.170436049353519e-05,-0.0001458930329050201,7.968300173072373e-05,-0.00010824743836268524,6.9927918759926655e-06,-0.00011491775512650904,1.6509646571627457e-05,-0.0005823554431856068,-0.0005471503147691927,-0.0003457377609139032,0.00046360237134461074,-4.097693868381263e-06,-0.0003261590394998031,0.0013329442136879822,0.4029781222343445,34.09072494506836,3.8228423595428467,-19.412263870239258,-0.2603049874305725,-1.777347207069397,0.07724325358867645,0
20,0.10004448890686035,-0.3752071261405945,-34.09072494506836,-3.8228423595428467,19.436067581176758,0.2548118233680725,1.790164589881897,-0.13217489421367645,0.0,0.0,0.0,0.0,0.0,0.0,0.0,-0.3584348726840973,-0.01664705496295593,-0.2273558238129348,0.3693151670828775,0.20377767919300727,-0.12345273077254101,-0.10080387740946979,1.0544297545871932,0.3240071279398338,-0.3925842453429573,-2.153185101654458,0.8647452995547675,2.465991669376691,0.5444916124261088,1.0544104758940245,0.3238615046091247,-0.39250456234122666,-2.153291787532338,0.8647539153680389,2.46587817577521,0.5445020185570556,0.00028961511886732116,-8.817891560515214e-05,0.0008944653190018779,-0.0006915736592706406,8.883007946970573e-05,-0.0001487580027281573,0.001062922378019061,0.0,0.0,0.0,0.0,0.0,0.0,0.0,-1.9278693168756078e-05,-0.00014562333070905487,7.968300173066822e-05,-0.00010668587787998618,8.615813271384276e-06,-0.00011349360148082965,1.0406130946827297e-05,-0.00028961511886732116,8.817891560515214e-05,-0.0008944653190018779,0.0006915736592706406,-8.883007946970573e-05,0.0001487580027281573,-0.001062922378019061,0.3752071261405945,34.09072494506836,3.8228423595428467,-19.436067581176758,-0.2548118233680725,-1.790164589881897,0.13217489421367645,0
21,0.10506844520568848,-0.3752071261405945,-34.09072494506836,-3.8228423595428467,19.436067581176758,0.2548118233680725,1.790164589881897,-0.13217489421367645,0.0,0.0,0.0,0.0,0.0,0.0,0.0,-0.3584348726840973,-0.01664705496295593,-0.2273558238129348,0.3693151670828775,0.20377767919300727,-0.12345273077254101,-0.10080387740946979,1.0544297545871932,0.3240071279398338,-0.3925842453429573,-2.153185101654458,0.8647452995547675,2.465991669376691,0.5444916124261088,1.0544104758940245,0.3238615046091247,-0.39250456234122666,-2.153291787532338,0.8647539153680389,2.46587817577521,0.5445020185570556,0.00028961511886732116,-8.817891560515214e-05,0.0008944653190018779,-0.0006915736592706406,8.883007946970573e-05,-0.0001487580027281573,0.001062922378019061,0.0,0.0,0.0,0.0,0.0,0.0,0.0,-1.9278693168756078e-05,-0.00014562333070905487,7.968300173066822e-05,-0.00010668587787998618,8.615813271384276e-06,-0.00011349360148082965,1.0406130946827297e-05,-0.00028961511886732116,8.817891560515214e-05,-0.0008944653190018779,0.0006915736592706406,-8.883007946970573e-05,0.0001487580027281573,-0.001062922378019061,0.3752071261405945,34.09072494506836,3.8228423595428467,-19.436067581176758,-0.2548118233680725,-1.790164589881897,0.13217489421367645,0
22,0.11046648025512695,-0.3514034152030945,-34.09072494506836,-3.7752349376678467,19.388460159301758,0.2484031319618225,1.777347207069397,-0.07724325358867645,0.0,0.0,0.0,0.0,0.0,0.0,0.0,-0.3738977890241484,-0.01639651405929556,-0.24007822207814397,0.3670870819014767,0.20387567316844943,-0.12263324912304734,-0.10201229301425838,1.0544286931126243,0.3240073222052865,-0.3925875862146679,-2.153181382268304,0.8647481170197024,2.4659930935303365,0.5444855132711345,1.0544104758940245,0.3238615046091247,-0.39250456234122666,-2.153291787532338,0.8647539153680389,2.46587817577521,0.5445020185570556,-0.0010590678925379573,-7.753798016713872e-05,-0.0005137689619246485,0.00043228492531008616,0.0002496577049336368,0.00020880366620392848,-0.0007953221649935943,0.0,0.0,0.0,0.0,0.0,0.0,0.0,-1.8217218599847484e-05,-0.00014581759616177914,8.302387344122364e-05,-0.00011040526403371942,5.798348336472081e-06,-0.00011491775512650904,1.6505285921120105e-05,0.0010590678925379573,7.753798016713872e-05,0.0005137689619246485,-0.00043228492531008616,-0.0002496577049336368,-0.00020880366620392848,0.0007953221649935943,0.3514034152030945,34.09072494506836,3.7752349376678467,-19.388460159301758,-0.2484031319618225,-1.777347207069397,0.07724325358867645,0
23,0.11504936218261719,-0.3514034152030945,-34.09072494506836,-3.7752349376678467,19.388460159301758,0.2484031319618225,1.777347207069397,-0.07724325358867645,0.0,0.0,0.0,0.0,0.0,0.0,0.0,-0.3738977890241484,-0.01639651405929556,-0.24007822207814397,0.3670870819014767,0.20387567316844943,-0.12263324912304734,-0.10201229301425838,1.0544286931126243,0.3240073222052865,-0.3925875862146679,-2.153181382268304,0.8647481170197024,2.4659930935303365,0.5444855132711345,1.0544104758940245,0.3238615046091247,-0.39250456234122666,-2.153291787532338,0.8647539153680389,2.46587817577521,0.5445020185570556,-0.0010590678925379573,-7.753798016713872e-05,-0.0005137689619246485,0.00043228492531008616,0.0002496577049336368,0.00020880366620392848,-0.0007953221649935943,0.0,0.0,0.0,0.0,0.0,0.0,0.0,-1.8217218599847484e-05,-0.00014581759616177914,8.302387344122364e-05,-0.00011040526403371942,5.798348336472081e-06,-0.00011491775512650904,1.6505285921120105e-05,0.0010590678925379573,7.753798016713872e-05,0.0005137689619246485,-0.00043228492531008616,-0.0002496577049336368,-0.00020880366620392848,0.0007953221649935943,0.3514034152030945,34.09072494506836,3.7752349376678467,-19.388460159301758,-0.2484031319618225,-1.777347207069397,0.07724325358867645,0
24,0.11999750137329102,-0.3752071261405945,-34.11452865600586,-3.7990386486053467,19.388460159301758,0.2548118233680725,1.783755898475647,-0.09097616374492645,0.0,0.0,0.0,0.0,0.0,0.0,0.0,-0.3711390700476246,-0.022855616892088166,-0.23431094357669388,0.369372912195814,0.20300879655355103,-0.12294748560168922,-0.10058722250519676,1.0544302270635493,0.3240083470115579,-0.39258591577881263,-2.15318399151268,0.8647453782750399,2.4659923814535136,0.5444871569414704,1.0544104758940245,0.3238615046091247,-0.39250456234122666,-2.153291787532338,0.8647539153680389,2.46587817577521,0.5445020185570556,0.000504746595520896,0.00013685204485710682,-0.00021571189390848212,0.0003902086665333893,4.4322457173138234e-05,-0.00016193926597801885,-0.00038038481107351645,0.0,0.0,0.0,0.0,0.0,0.0,0.0,-1.9751169524795387e-05,-0.00014684240243317825,8.135343758597369e-05,-0.0001077960196580463,8.53709299897254e-06,-0.00011420567830366934,1.4861615585171073e-05,-0.000504746595520896,-0.00013685204485710682,0.00021571189390848212,-0.0003902086665333893,-4.4322457173138234e-05,0.00016193926597801885,0.00038038481107351645,0.3752071261405945,34.11452865600586,3.7990386486053467,-19.388460159301758,-0.2548118233680725,-1.783755898475647,0.09097616374492645,0
25,0.12504363059997559,-0.3752071261405945,-34.11452865600586,-3.7990386486053467,19.388460159301758,0.2548118233680725,1.783755898475647,-0.09097616374492645,0.0,0.0,0.0,0.0,0.0,0.0,0.0,-0.3711390700476246,-0.022855616892088166,-0.23431094357669388,0.369372912195814,0.20300879655355103,-0.12294748560168922,-0.10058722250519676,1.0544302270635493,0.3240083470115579,-0.39258591577881263,-2.15318399151268,0.8647453782750399,2.4659923814535136,0.5444871569414704,1.0544104758940245,0.3238615046091247,-0.39250456234122666,-2.153291787532338,0.8647539153680389,2.46587817577521,0.5445020185570556,0.000504746595520896,0.00013685204485710682,-0.00021571189390848212,0.0003902086665333893,4.4322457173138234e-05,-0.00016193926597801885,-0.00038038481107351645,0.0,0.0,0.0,0.0,0.0,0.0,0.0,-1.9751169524795387e-05,-0.00014684240243317825,8.135343758597369e-05,-0.0001077960196580463,8.53709299897254e-06,-0.00011420567830366934,1.4861615585171073e-05,-0.000504746595520896,-0.00013685204485710682,0.00021571189390848212,-0.0003902086665333893,-4.4322457173138234e-05,0.00016193926597801885,0.00038038481107351645,0.3752071261405945,34.11452865600586,3.7990386486053467,-19.388460159301758,-0.2548118233680725,-1.783755898475647,0.09097616374492645,0
26,0.13004422187805176,-0.4267818331718445,-34.09072494506836,-3.8228423595428467,19.412263870239258,0.2603049874305725,1.777347207069397,-0.09738485515117645,0.0,0.0,0.0,0.0,0.0,0.0,0.0,-0.37331055957948917,-0.014421173417663264,-0.23644701644060123,0.3640451917577692,0.20332921460931375,-0.12348786597571408,-0.10024429591759391,1.0544340881385488,0.32400517610847784,-0.3925842453429573,-2.153184919764358,0.8647465677302526,2.4659930935303365,0.5444909272348407,1.0544104758940245,0.3238615046091247,-0.39250456234122666,-2.153291787532338,0.8647539153680389,2.46587817577521,0.5445020185570556,0.0013808353001552778,0.0003318606808830355,0.0005867561302241352,-0.0003757586602433966,-9.566739191122014e-05,0.0001988633212308959,-0.000519232069516274,0.0,0.0,0.0,0.0,0.0,0.0,0.0,-2.361224452429589e-05,-0.00014367149935312629,7.968300173066822e-05,-0.00010686776797985686,7.3476377863146425e-06,-0.00011491775512650904,1.1091322214884514e-05,-0.0013808353001552778,-0.0003318606808830355,-0.0005867561302241352,0.0003757586602433966,9.566739191122014e-05,-0.0001988633212308959,0.000519232069516274,0.4267818331718445,34.09072494506836,3.8228423595428467,-19.412263870239258,-0.2603049874305725,-1.777347207069397,0.09738485515117645,0
27,0.1350724697113037,-0.4267818331718445,-34.09072494506836,-3.8228423595428467,19.412263870239258,0.2603049874305725,1.777347207069397,-0.09738485515117645,0.0,0.0,0.0,0.0,0.0,0.0,0.0,-0.37331055957948917,-0.014421173417663264,-0.23644701644060123,0.3640451917577692,0.20332921460931375,-0.12348786597571408,-0.10024429591759391,1.0544340881385488,0.32400517610847784,-0.3925842453429573,-2.153184919764358,0.8647465677302526,2.4659930935303365,0.5444909272348407,1.0544104758940245,0.3238615046091247,-0.39250456234122666,-2.153291787532338,0.8647539153680389,2.46587817577521,0.5445020185570556,0.0013808353001552778,0.0003318606808830355,0.0005867561302241352,-0.0003757586602433966,-9.566739191122014e-05,0.0001988633212308959,-0.000519232069516274,0.0,0.0,0.0,0.0,0.0,0.0,0.0,-2.361224452429589e-05,-0.00014367149935312629,7.968300173066822e-05,-0.00010686776797985686,7.3476377863146425e-06,-0.00011491775512650904,1.1091322214884514e-05,-0.0013808353001552778,-0.0003318606808830355,-0.0005867561302241352,0.0003757586602433966,9.566739191122014e-05,-0.0001988633212308959,0.000519232069516274,0.4267818331718445,34.09072494506836,3.8228423595428467,-19.412263870239258,-0.2603049874305725,-1.777347207069397,0.09738485515117645,0
28,0.14005637168884277,-0.4267818331718445,-34.09072494506836,-3.8228423595428467,19.412263870239258,0.2603049874305725,1.777347207069397,-0.09738485515117645,0.0,0.0,0.0,0.0,0.0,0.0,0.0,-0.37331055957948917,-0.014421173417663264,-0.23644701644060123,0.3640451917577692,0.20332921460931375,-0.12348786597571408,-0.10024429591759391,1.0544340881385488,0.32400517610847784,-0.3925842453429573,-2.153184919764358,0.8647465677302526,2.4659930935303365,0.5444909272348407,1.0544104758940245,0.3238615046091247,-0.39250456234122666,-2.153291787532338,0.8647539153680389,2.46587817577521,0.5445020185570556,0.0013808353001552778,0.0003318606808830355,0.0005867561302241352,-0.0003757586602433966,-9.566739191122014e-05,0.0001988633212308959,-0.000519232069516274,0.0,0.0,0.0,0.0,0.0,0.0,0.0,-2.361224452429589e-05,-0.00014367149935312629,7.968300173066822e-05,-0.00010686776797985686,7.3476377863146425e-06,-0.00011491775512650904,1.1091322214884514e-05,-0.0013808353001552778,-0.0003318606808830355,-0.0005867561302241352,0.0003757586602433966,9.566739191122014e-05,-0.0001988633212308959,0.000519232069516274,0.4267818331718445,34.09072494506836,3.8228423595428467,-19.412263870239258,-0.2603049874305725,-1.777347207069397,0.09738485515117645,0
29,0.14504742622375488,-0.4267818331718445,-34.09072494506836,-3.8228423595428467,19.412263870239258,0.2603049874305725,1.777347207069397,-0.09738485515117645,0.0,0.0,0.0,0.0,0.0,0.0,0.0,-0.37331055957948917,-0.014421173417663264,-0.23644701644060123,0.3640451917577692,0.20332921460931375,-0.12348786597571408,-0.10024429591759391,1.0544340881385488,0.32400517610847784,-0.3925842453429573,-2.153184919764358,0.8647465677302526,2.4659930935303365,0.5444909272348407,1.0544104758940245,0.3238615046091247,-0.39250456234122666,-2.153291787532338,0.8647539153680389,2.46587817577521,0.5445020185570556,0.0013808353001552778,0.0003318606808830355,0.0005867561302241352,-0.0003757586602433966,-9.566739191122014e-05,0.0001988633212308959,-0.000519232069516274,0.0,0.0,0.0,0.0,0.0,0.0,0.0,-2.361224452429589e-05,-0.00014367149935312629,7.968300173066822e-05,-0.00010686776797985686,7.3476377863146425e-06,-0.00011491775512650904,1.1091322214884514e-05,-0.0013808353001552778,-0.0003318606808830355,-0.0005867561302241352,0.0003757586602433966,9.566739191122014e-05,-0.0001988633212308959,0.000519232069516274,0.4267818331718445,34.09072494506836,3.8228423595428467,-19.412263870239258,-0.2603049874305725,-1.777347207069397,0.09738485515117645,0
30,0.15014982223510742,-0.3752071261405945,-34.06295394897461,-3.7990386486053467,19.388460159301758,0.2548118233680725,1.783755898475647,-0.06991903483867645,0.0,0.0,0.0,0.0,0.0,0.0,0.0,-0.3700633636972077,-0.009458016227166296,-0.23302982851046214,0.36105795813965247,0.20363988880177522,-0.1238599564864118,-0.10031165273075718,1.0544304668999345,0.324003307058085,-0.3925859186949978,-2.1531833531078006,0.8647485794220826,2.4659923814535136,0.5444848173860799,1.0544104758940245,0.3238615046091247,-0.39250456234122666,-2.153291787532338,0.8647539153680389,2.46587817577521,0.5445020185570556,0.0002797145781660446,-0.0001410846425462427,-0.00015498230589476786,-0.00041581519478436414,0.00016922279970790026,0.00013847827334728622,-0.0015795966869055834,0.0,0.0,0.0,0.0,0.0,0.0,0.0,-1.99910059099917e-05,-0.00014180244896028205,8.135635377115591e-05,-0.00010843442453722929,5.3359459563084854e-06,-0.00011420567830366934,1.7201170975700286e-05,-0.0002797145781660446,0.0001410846425462427,0.00015498230589476786,0.00041581519478436414,-0.00016922279970790026,-0.00013847827334728622,0.0015795966869055834,0.3752071261405945,34.06295394897461,3.7990386486053467,-19.388460159301758,-0.2548118233680725,-1.783755898475647,0.06991903483867645,0
31,0.1550438404083252,-0.3752071261405945,-34.06295394897461,-3.7990386486053467,19.388460159301758,0.2548118233680725,1.783755898475647,-0.06991903483867645,0.0,0.0,0.0,0.0,0.0,0.0,0.0,-0.3700633636972077,-0.009458016227166296,-0.23302982851046214,0.36105795813965247,0.20363988880177522,-0.1238599564864118,-0.10031165273075718,1.0544304668999345,0.324003307058085,-0.3925859186949978,-2.1531833531078006,0.8647485794220826,2.4659923814535136,0.5444848173860799,1.0544104758940245,0.3238615046091247,-0.39250456234122666,-2.153291787532338,0.8647539153680389,2.46587817577521,0.5445020185570556,0.0002797145781660446,-0.0001410846425462427,-0.00015498230589476786,-0.00041581519478436414,0.00016922279970790026,0.00013847827334728622,-0.0015795966869055834,0.0,0.0,0.0,0.0,0.0,0.0,0.0,-1.99910059099917e-05,-0.00014180244896028205,8.135635377115591e-05,-0.00010843442453722929,5.3359459563084854e-06,-0.00011420567830366934,1.7201170975700286e-05,-0.0002797145781660446,0.0001410846425462427,0.00015498230589476786,0.00041581519478436414,-0.00016922279970790026,-0.00013847827334728622,0.0015795966869055834,0.3752071261405945,34.06295394897461,3.7990386486053467,-19.388460159301758,-0.2548118233680725,-1.783755898475647,0.06991903483867645,0
32,0.16043972969055176,-0.3752071261405945,-34.06295394897461,-3.7752349376678467,19.412263870239258,0.2484031319618225,1.770938515663147,-0.09097616374492645,0.0,0.0,0.0,0.0,0.0,0.0,0.0,-0.36795383408936316,-0.017145541380970537,-0.2309159024725254,0.3683205907395191,0.20330053805083287,-0.12261396846376964,-0.09975326927781186,1.0544297545876253,0.3240047248151066,-0.39258758621468437,-2.1531849482880236,0.8647481309815327,2.4659938056071593,0.5444871573728176,1.0544104758940245,0.3238615046091247,-0.39250456234122666,-2.153291787532338,0.8647539153680389,2.46587817577521,0.5445020185570556,-4.085930105012477e-05,-8.929862483878503e-05,-0.00036725705885454847,-0.00047627606805812893,0.00012382204078774563,0.0004958585670252709,-0.0008210803100697539,0.0,0.0,0.0,0.0,0.0,0.0,0.0,-1.927869360085488e-05,-0.00014322020598189766,8.302387345771045e-05,-0.00010683924431420522,5.7843865062245925e-06,-0.00011562983194934873,1.4861184237990877e-05,4.085930105012477e-05,8.929862483878503e-05,0.00036725705885454847,0.00047627606805812893,-0.00012382204078774563,-0.0004958585670252709,0.0008210803100697539,0.3752071261405945,34.06295394897461,3.7752349376678467,-19.412263870239258,-0.2484031319618225,-1.770938515663147,0.09097616374492645,0
33,0.16504526138305664,-0.3752071261405945,-34.06295394897461,-3.7752349376678467,19.412263870239258,0.2484031319618225,1.770938515663147,-0.09097616374492645,0.0,0.0,0.0,0.0,0.0,0.0,0.0,-0.36795383408936316,-0.017145541380970537,-0.2309159024725254,0.3683205907395191,0.20330053805083287,-0.12261396846376964,-0.09975326927781186,1.0544297545876253,0.3240047248151066,-0.39258758621468437,-2.1531849482880236,0.8647481309815327,2.4659938056071593,0.5444871573728176,1.0544104758940245,0.3238615046091247,-0.39250456234122666,-2.153291787532338,0.8647539153680389,2.46587817577521,0.5445020185570556,-4.085930105012477e-05,-8.929862483878503e-05,-0.00036725705885454847,-0.00047627606805812893,0.00012382204078774563,0.0004958585670252709,-0.0008210803100697539,0.0,0.0,0.0,0.0,0.0,0.0,0.0,-1.927869360085488e-05,-0.00014322020598189766,8.302387345771045e-05,-0.00010683924431420522,5.7843865062245925e-06,-0.00011562983194934873,1.4861184237990877e-05,4.085930105012477e-05,8.929862483878503e-05,0.00036725705885454847,0.00047627606805812893,-0.00012382204078774563,-0.0004958585670252709,0.0008210803100697539,0.3752071261405945,34.06295394897461,3.7752349376678467,-19.412263870239258,-0.2484031319618225,-1.770938515663147,0.09097616374492645,0
34,0.17006754875183105,-0.3236324191093445,-34.09072494506836,-3.7752349376678467,19.412263870239258,0.2548118233680725,1.783755898475647,-0.06991903483867645,0.0,0.0,0.0,0.0,0.0,0.0,0.0,-0.3696257973455521,-0.0187370279070874,-0.22962658741489478,0.368607695111319,0.20207285649686402,-0.12294021799727632,-0.10021833258451461,1.0544261343247714,0.32400740120317795,-0.39258837358466675,-2.153182689432832,0.8647454004013836,2.4659923814535136,0.5444857595923892,1.0544104758940245,0.3238615046091247,-0.39250456234122666,-2.153291787532338,0.8647539153680389,2.46587817577521,0.5445020185570556,-0.0008035885993634349,-3.524633032744735e-05,-0.00037417140035398734,-0.0002699170269940431,-0.00010211639567173279,1.8840854571621382e-05,-0.001515213238377308,0.0,0.0,0.0,0.0,0.0,0.0,0.0,-1.565843074691209e-05,-0.00014589659405322974,8.381124344009061e-05,-0.0001090980995059887,8.514966655326361e-06,-0.00011420567830366934,1.625896466639354e-05,0.0008035885993634349,3.524633032744735e-05,0.00037417140035398734,0.0002699170269940431,0.00010211639567173279,-1.8840854571621382e-05,0.001515213238377308,0.3236324191093445,34.09072494506836,3.7752349376678467,-19.412263870239258,-0.2548118233680725,-1.783755898475647,0.06991903483867645,0
35,0.17505502700805664,-0.3236324191093445,-34.09072494506836,-3.7752349376678467,19.412263870239258,0.2548118233680725,1.783755898475647,-0.06991903483867645,0.0,0.0,0.0,0.0,0.0,0.0,0.0,-0.3696257973455521,-0.0187370279070874,-0.22962658741489478,0.368607695111319,0.20207285649686402,-0.12294021799727632,-0.10021833258451461,1.0544261343247714,0.32400740120317795,-0.39258837358466675,-2.153182689432832,0.8647454004013836,2.4659923814535136,0.5444857595923892,1.0544104758940245,0.3238615046091247,-0.39250456234122666,-2.153291787532338,0.8647539153680389,2.46587817577521,0.5445020185570556,-0.0008035885993634349,-3.524633032744735e-05,-0.00037417140035398734,-0.0002699170269940431,-0.00010211639567173279,1.8840854571621382e-05,-0.001515213238377308,0.0,0.0,0.0,0.0,0.0,0.0,0.0,-1.565843074691209e-05,-0.00014589659405322974,8.381124344009061e-05,-0.0001090980995059887,8.514966655326361e-06,-0.00011420567830366934,1.625896466639354e-05,0.0008035885993634349,3.524633032744735e-05,0.00037417140035398734,0.0002699170269940431,0.00010211639567173279,-1.8840854571621382e-05,0.001515213238377308,0.3236324191093445,34.09072494506836,3.7752349376678467,-19.412263870239258,-0.2548118233680725,-1.783755898475647,0.06991903483867645,0
36,0.18004179000854492,-0.3752071261405945,-34.11452865600586,-3.7990386486053467,19.436067581176758,0.2722068428993225,1.783755898475647,-0.11111776530742645,0.0,0.0,0.0,0.0,0.0,0.0,0.0,-0.3683731282042235,-0.015754906732255474,-0.2265911678800291,0.3668299833027,0.20159381055358735,-0.1233399877939833,-0.09995489586799702,1.0544283240721242,0.3240090690267498,-0.39258662441625636,-2.153187684130732,0.8647423020242495,2.4659923814535136,0.5444892727511281,1.0544104758940245,0.3238615046091247,-0.39250456234122666,-2.153291787532338,0.8647539153680389,2.46587817577521,0.5445020185570556,0.0002888126587121976,0.0006782168070089421,0.000423903314575696,-0.0006809087102115237,-0.0005435585238233894,4.4675640748197896e-05,0.0003872227555879761,0.0,0.0,0.0,0.0,0.0,0.0,0.0,-1.784817809968864e-05,-0.0001475644176250901,8.206207502969853e-05,-0.00010410340160582621,1.161334378940726e-05,-0.00011420567830366934,1.2745805927472098e-05,-0.0002888126587121976,-0.0006782168070089421,-0.000423903314575696,0.0006809087102115237,0.0005435585238233894,-4.4675640748197896e-05,-0.0003872227555879761,0.3752071261405945,34.11452865600586,3.7990386486053467,-19.436067581176758,-0.2722068428993225,-1.783755898475647,0.11111776530742645,0
37,0.18500709533691406,-0.3752071261405945,-34.11452865600586,-3.7990386486053467,19.436067581176758,0.2722068428993225,1.783755898475647,-0.11111776530742645,0.0,0.0,0.0,0.0,0.0,0.0,0.0,-0.3683731282042235,-0.015754906732255474,-0.2265911678800291,0.3668299833027,0.20159381055358735,-0.1233399877939833,-0.09995489586799702,1.0544283240721242,0.3240090690267498,-0.39258662441625636,-2.153187684130732,0.8647423020242495,2.4659923814535136,0.5444892727511281,1.0544104758940245,0.3238615046091247,-0.39250456234122666,-2.153291787532338,0.8647539153680389,2.46587817577521,0.5445020185570556,0.0002888126587121976,0.0006782168070089421,0.000423903314575696,-0.0006809087102115237,-0.0005435585238233894,4.4675640748197896e-05,0.0003872227555879761,0.0,0.0,0.0,0.0,0.0,0.0,0.0,-1.784817809968864e-05,-0.0001475644176250901,8.206207502969853e-05,-0.00010410340160582621,1.161334378940726e-05,-0.00011420567830366934,1.2745805927472098e-05,-0.0002888126587121976,-0.0006782168070089421,-0.000423903314575696,0.0006809087102115237,0.0005435585238233894,-4.4675640748197896e-05,-0.0003872227555879761,0.3752071261405945,34.11452865600586,3.7990386486053467,-19.436067581176758,-0.2722068428993225,-1.783755898475647,0.11111776530742645,0
38,0.18999910354614258,-0.3752071261405945,-34.09072494506836,-3.8228423595428467,19.388460159301758,0.2603049874305725,1.783755898475647,-0.12485067546367645,0.0,0.0,0.0,0.0,0.0,0.0,0.0,-0.3684203514444732,-0.017578517885899092,-0.22706630515638013,0.3688521871334797,0.20233310952190706,-0.12320331386375283,-0.09990220314124587,1.0544304697949274,0.324006677593619,-0.3925842453469576,-2.1531832768025883,0.864746520725673,2.4659923814535136,0.5444908378698822,1.0544104758940245,0.3238615046091247,-0.39250456234122666,-2.153291787532338,0.8647539153680389,2.46587817577521,0.5445020185570556,0.00046366821835763534,0.00016015659302638053,0.0005874368169872655,0.000725394023757155,-0.00021725258898105983,-2.2166640132017134e-05,0.001018051273692402,0.0,0.0,0.0,0.0,0.0,0.0,0.0,-1.999390090290376e-05,-0.0001451729844942906,7.968300573096831e-05,-0.00010851072974960019,7.394642365876614e-06,-0.00011420567830366934,1.1180687173428794e-05,-0.00046366821835763534,-0.00016015659302638053,-0.0005874368169872655,-0.000725394023757155,0.00021725258898105983,2.2166640132017134e-05,-0.001018051273692402,0.3752071261405945,34.09072494506836,3.8228423595428467,-19.388460159301758,-0.2603049874305725,-1.783755898475647,0.12485067546367645,0
39,0.19504380226135254,-0.3752071261405945,-34.09072494506836,-3.8228423595428467,19.388460159301758,0.2603049874305725,1.783755898475647,-0.12485067546367645,0.0,0.0,0.0,0.0,0.0,0.0,0.0,-0.3684203514444732,-0.017578517885899092,-0.22706630515638013,0.3688521871334797,0.20233310952190706,-0.12320331386375283,-0.09990220314124587,1.0544304697949274,0.324006677593619,-0.3925842453469576,-2.1531832768025883,0.864746520725673,2.4659923814535136,0.5444908378698822,1.0544104758940245,0.3238615046091247,-0.39250456234122666,-2.153291787532338,0.8647539153680389,2.46587817577521,0.5445020185570556,0.00046366821835763534,0.00016015659302638053,0.0005874368169872655,0.000725394023757155,-0.00021725258898105983,-2.2166640132017134e-05,0.001018051273692402,0.0,0.0,0.0,0.0,0.0,0.0,0.0,-1.999390090290376e-05,-0.0001451729844942906,7.968300573096831e-05,-0.00010851072974960019,7.394642365876614e-06,-0.00011420567830366934,1.1180687173428794e-05,-0.00046366821835763534,-0.00016015659302638053,-0.0005874368169872655,-0.000725394023757155,0.00021725258898105983,2.2166640132017134e-05,-0.001018051273692402,0.3752071261405945,34.09072494506836,3.8228423595428467,-19.388460159301758,-0.2603049874305725,-1.783755898475647,0.12485067546367645,0
40,0.2000572681427002,-0.3752071261405945,-34.16213607788086,-3.7990386486053467,19.388460159301758,0.2548118233680725,1.783755898475647,-0.13217489421367645,0.0,0.0,0.0,0.0,0.0,0.0,0.0,-0.3696646040214558,-0.021777536181844068,-0.23168388529840708,0.36960047334082424,0.20249252098551915,-0.1235657458262126,-0.09909784697028716,1.05443046951633,0.32401159132755447,-0.3925880420018302,-2.1531832779647915,0.8647452590823738,2.4659923814535136,0.5444916516721869,1.0544104758940245,0.3238615046091247,-0.39250456234122666,-2.153291787532338,0.8647539153680389,2.46587817577521,0.5445020185570556,0.0002636058418226722,0.0013172136080480416,-0.0005528950574727411,0.0003156108810707031,0.0003262964779874796,-0.00010034264251041482,0.001192997133813332,0.0,0.0,0.0,0.0,0.0,0.0,0.0,-1.9993622305536363e-05,-0.00015008671842975385,8.347966060351375e-05,-0.00010850956754637764,8.656285665153973e-06,-0.00011420567830366934,1.0366884868662218e-05,-0.0002636058418226722,-0.0013172136080480416,0.0005528950574727411,-0.0003156108810707031,-0.0003262964779874796,0.00010034264251041482,-0.001192997133813332,0.3752071261405945,34.16213607788086,3.7990386486053467,-19.388460159301758,-0.2548118233680725,-1.783755898475647,0.13217489421367645,0
41,0.20505881309509277,-0.3752071261405945,-34.16213607788086,-3.7990386486053467,19.388460159301758,0.2548118233680725,1.783755898475647,-0.13217489421367645,0.0,0.0,0.0,0.0,0.0,0.0,0.0,-0.3696646040214558,-0.021777536181844068,-0.23168388529840708,0.36960047334082424,0.20249252098551915,-0.1235657458262126,-0.09909784697028716,1.05443046951633,0.32401159132755447,-0.3925880420018302,-2.1531832779647915,0.8647452590823738,2.4659923814535136,0.5444916516721869,1.0544104758940245,0.3238615046091247,-0.39250456234122666,-2.153291787532338,0.8647539153680389,2.46587817577521,0.5445020185570556,0.0002636058418226722,0.0013172136080480416,-0.0005528950574727411,0.0003156108810707031,0.0003262964779874796,-0.00010034264251041482,0.001192997133813332,0.0,0.0,0.0,0.0,0.0,0.0,0.0,-1.9993622305536363e-05,-0.00015008671842975385,8.347966060351375e-05,-0.00010850956754637764,8.656285665153973e-06,-0.00011420567830366934,1.0366884868662218e-05,-0.0002636058418226722,-0.0013172136080480416,0.0005528950574727411,-0.0003156108810707031,-0.0003262964779874796,0.00010034264251041482,-0.001192997133813332,0.3752071261405945,34.16213607788086,3.7990386486053467,-19.388460159301758,-0.2548118233680725,-1.783755898475647,0.13217489421367645,0
42,0.2100517749786377,-0.4029781222343445,-34.06295394897461,-3.7990386486053467,19.412263870239258,0.2548118233680725,1.770938515663147,-0.11111776530742645,0.0,0.0,0.0,0.0,0.0,0.0,0.0,-0.3746748055641183,-0.01387006918929633,-0.23433145469435185,0.3642247263740566,0.203270339871123,-0.1236942041536447,-0.09833893092961764,1.0544321675117259,0.3240051864701395,-0.3925859157908152,-2.153182725195552,0.8647454130942972,2.4659938056071593,0.5444924516597287,1.0544104758940245,0.3238615046091247,-0.39250456234122666,-2.153291787532338,0.8647539153680389,2.46587817577521,0.5445020185570556,0.0002727640972308023,-0.0005529887918795836,-5.429470000869907e-05,-0.00017473522442678738,7.079326085493041e-05,0.0004115620702642857,0.0007639895546496672,0.0,0.0,0.0,0.0,0.0,0.0,0.0,-2.1691617701380395e-05,-0.0001436818610147661,8.13534495885393e-05,-0.00010906233678564803,8.502273741717303e-06,-0.00011562983194934873,9.566897326895862e-06,-0.0002727640972308023,0.0005529887918795836,5.429470000869907e-05,0.00017473522442678738,-7.079326085493041e-05,-0.0004115620702642857,-0.0007639895546496672,0.4029781222343445,34.06295394897461,3.7990386486053467,-19.412263870239258,-0.2548118233680725,-1.770938515663147,0.11111776530742645,0
43,0.21506166458129883,-0.4029781222343445,-34.06295394897461,-3.7990386486053467,19.412263870239258,0.2548118233680725,1.770938515663147,-0.11111776530742645,0.0,0.0,0.0,0.0,0.0,0.0,0.0,-0.3746748055641183,-0.01387006918929633,-0.23433145469435185,0.3642247263740566,0.203270339871123,-0.1236942041536447,-0.09833893092961764,1.0544321675117259,0.3240051864701395,-0.3925859157908152,-2.153182725195552,0.8647454130942972,2.4659938056071593,0.5444924516597287,1.0544104758940245,0.3238615046091247,-0.39250456234122666,-2.153291787532338,0.8647539153680389,2.46587817577521,0.5445020185570556,0.0002727640972308023,-0.0005529887918795836,-5.429470000869907e-05,-0.00017473522442678738,7.079326085493041e-05,0.0004115620702642857,0.0007639895546496672,0.0,0.0,0.0,0.0,0.0,0.0,0.0,-2.1691617701380395e-05,-0.0001436818610147661,8.13534495885393e-05,-0.00010906233678564803,8.502273741717303e-06,-0.00011562983194934873,9.566897326895862e-06,-0.0002727640972308023,0.0005529887918795836,5.429470000869907e-05,0.00017473522442678738,-7.079326085493041e-05,-0.0004115620702642857,-0.0007639895546496672,0.4029781222343445,34.06295394897461,3.7990386486053467,-19.412263870239258,-0.2548118233680725,-1.770938515663147,0.11111776530742645,0
44,0.22004389762878418,-0.3514034152030945,-34.09072494506836,-3.7990386486053467,19.412263870239258,0.2548118233680725,1.790164589881897,-0.10470907390117645,0.0,0.0,0.0,0.0,0.0,0.0,0.0,-0.369427169354951,-0.018374768584690806,-0.22755702654076915,0.36605013293737415,0.20315626018442431,-0.12441082484651228,-0.09671814316155171,1.0544287951544715,0.32400740124212274,-0.3925859157788127,-2.1531837852894973,0.864744227052001,2.465991669376691,0.5444885609015822,1.0544104758940245,0.3238615046091247,-0.39250456234122666,-2.153291787532338,0.8647539153680389,2.46587817577521,0.5445020185570556,-0.0003369995253875451,0.00019534973135112781,0.00024149765962717007,-0.000715020230913939,-0.006448849785282736,-0.0002276968363706225,0.00042504946928701646,0.0,0.0,0.0,0.0,0.0,0.0,0.0,-1.8319260447041685e-05,-0.00014589663299802158,8.13534375860292e-05,-0.00010800224284057691,9.688316037870237e-06,-0.00011349360148082965,1.3457655473447794e-05,0.0003369995253875451,-0.00019534973135112781,-0.00024149765962717007,0.000715020230913939,0.006448849785282736,0.0002276968363706225,-0.00042504946928701646,0.3514034152030945,34.09072494506836,3.7990386486053467,-19.412263870239258,-0.2548118233680725,-1.790164589881897,0.10470907390117645,0
45,0.22500109672546387,-0.3514034152030945,-34.09072494506836,-3.7990386486053467,19.412263870239258,0.2548118233680725,1.790164589881897,-0.10470907390117645,0.0,0.0,0.0,0.0,0.0,0.0,0.0,-0.369427169354951,-0.018374768584690806,-0.22755702654076915,0.36605013293737415,0.20315626018442431,-0.12441082484651228,-0.09671814316155171,1.0544287951544715,0.32400740124212274,-0.3925859157788127,-2.1531837852894973,0.864744227052001,2.465991669376691,0.5444885609015822,1.0544104758940245,0.3238615046091247,-0.39250456234122666,-2.153291787532338,0.8647539153680389,2.46587817577521,0.5445020185570556,-0.0003369995253875451,0.00019534973135112781,0.00024149765962717007,-0.000715020230913939,-0.006448849785282736,-0.0002276968363706225,0.00042504946928701646,0.0,0.0,0.0,0.0,0.0,0.0,0.0,-1.8319260447041685e-05,-0.00014589663299802158,8.13534375860292e-05,-0.00010800224284057691,9.688316037870237e-06,-0.00011349360148082965,1.3457655473447794e-05,0.0003369995253875451,-0.00019534973135112781,-0.00024149765962717007,0.000715020230913939,0.006448849785282736,0.0002276968363706225,-0.00042504946928701646,0.3514034152030945,34.09072494506836,3.7990386486053467,-19.412263870239258,-0.2548118233680725,-1.790164589881897,0.10470907390117645,0
46,0.23005294799804688,-0.3752071261405945,-34.09072494506836,-3.7752349376678467,19.388460159301758,0.2548118233680725,1.783755898475647,-0.07724325358867645,0.0,0.0,0.0,0.0,0.0,0.0,0.0,-0.37071142268109847,-0.01373587337131342,-0.23106406453383782,0.36418827395480335,0.2035753316739993,-0.12416069079329037,-0.0971731889681329,1.054430469843355,0.32400740069854256,-0.3925876124603345,-2.1531841050229388,0.8647484397030948,2.4659923814535136,0.5444855093950017,1.0544104758940245,0.3238615046091247,-0.39250456234122666,-2.153291787532338,0.8647539153680389,2.46587817577521,0.5445020185570556,0.0003722656239522017,0.00018438288177818272,-0.0001288272251906423,-0.000142577715328809,3.6148723644518663e-05,-0.00017226581285041255,-0.0008346118258213529,0.0,0.0,0.0,0.0,0.0,0.0,0.0,-1.999394933061005e-05,-0.0001458960894178407,8.305011910786364e-05,-0.00010768250939907631,5.475664944132319e-06,-0.00011420567830366934,1.650916205386821e-05,-0.0003722656239522017,-0.00018438288177818272,0.0001288272251906423,0.000142577715328809,-3.6148723644518663e-05,0.00017226581285041255,0.0008346118258213529,0.3752071261405945,34.09072494506836,3.7752349376678467,-19.388460159301758,-0.2548118233680725,-1.783755898475647,0.07724325358867645,0
47,0.23521089553833008,-0.3752071261405945,-34.09072494506836,-3.7752349376678467,19.388460159301758,0.2548118233680725,1.783755898475647,-0.07724325358867645,0.0,0.0,0.0,0.0,0.0,0.0,0.0,-0.37071142268109847,-0.01373587337131342,-0.23106406453383782,0.36418827395480335,0.2035753316739993,-0.12416069079329037,-0.0971731889681329,1.054430469843355,0.32400740069854256,-0.3925876124603345,-2.1531841050229388,0.8647484397030948,2.4659923814535136,0.5444855093950017,1.0544104758940245,0.3238615046091247,-0.39250456234122666,-2.153291787532338,0.8647539153680389,2.46587817577521,0.5445020185570556,0.0003722656239522017,0.00018438288177818272,-0.0001288272251906423,-0.000142577715328809,3.6148723644518663e-05,-0.00017226581285041255,-0.0008346118258213529,0.0,0.0,0.0,0.0,0.0,0.0,0.0,-1.999394933061005e-05,-0.0001458960894178407,8.305011910786364e-05,-0.00010768250939907631,5.475664944132319e-06,-0.00011420567830366934,1.650916205386821e-05,-0.0003722656239522017,-0.00018438288177818272,0.0001288272251906423,0.000142577715328809,-3.6148723644518663e-05,0.00017226581285041255,0.0008346118258213529,0.3752071261405945,34.09072494506836,3.7752349376678467,-19.388460159301758,-0.2548118233680725,-1.783755898475647,0.07724325358867645,0
48,0.23521089553833008,-0.3752071261405945,-34.09072494506836,-3.7752349376678467,19.388460159301758,0.2548118233680725,1.783755898475647,-0.07724325358867645,0.0,0.0,0.0,0.0,0.0,0.0,0.0,-0.37071142268109847,-0.01373587337131342,-0.23106406453383782,0.36418827395480335,0.2035753316739993,-0.12416069079329037,-0.0971731889681329,1.054430469843355,0.32400740069854256,-0.3925876124603345,-2.1531841050229388,0.8647484397030948,2.4659923814535136,0.5444855093950017,1.0544104758940245,0.3238615046091247,-0.39250456234122666,-2.153291787532338,0.8647539153680389,2.46587817577521,0.5445020185570556,0.0003722656239522017,0.00018438288177818272,-0.0001288272251906423,-0.000142577715328809,3.6148723644518663e-05,-0.00017226581285041255,-0.0008346118258213529,0.0,0.0,0.0,0.0,0.0,0.0,0.0,-1.999394933061005e-05,-0.0001458960894178407,8.305011910786364e-05,-0.00010768250939907631,5.475664944132319e-06,-0.00011420567830366934,1.650916205386821e-05,-0.0003722656239522017,-0.00018438288177818272,0.0001288272251906423,0.000142577715328809,-3.6148723644518663e-05,0.00017226581285041255,0.0008346118258213529,0.3752071261405945,34.09072494506836,3.7752349376678467,-19.388460159301758,-0.2548118233680725,-1.783755898475647,0.07724325358867645,0
49,0.24505996704101562,-0.3514034152030945,-34.09072494506836,-3.7990386486053467,19.360689163208008,0.2667136788368225,1.783755898475647,-0.07724325358867645,0.0,0.0,0.0,0.0,0.0,0.0,0.0,-0.37057217647866025,-0.015180841332299648,-0.23174385294486724,0.3660902815244757,0.20413104938476695,-0.12323713296369211,-0.09835186434845412,1.0544287895960596,0.3240073221704875,-0.3925859157789608,-2.1531823214771553,0.8647440820164003,2.4659923814535136,0.5444855089104864,1.0544104758940245,0.3238615046091247,-0.39250456234122666,-2.153291787532338,0.8647539153680389,2.46587817577521,0.5445020185570556,-0.0001843334206886575,0.00043307179881869667,0.00034732315288912055,0.0007592732982299417,-0.0003983658526169748,-0.00015832954697745692,-0.0008728651518775182,0.0,0.0,0.0,0.0,0.0,0.0,0.0,-1.8313702035088752e-05,-0.00014581756136278212,8.135343773413295e-05,-0.00010946605518258323,9.833351638621757e-06,-0.00011420567830366934,1.6509646569184966e-05,0.0001843334206886575,-0.00043307179881869667,-0.00034732315288912055,-0.0007592732982299417,0.0003983658526169748,0.00015832954697745692,0.0008728651518775182,0.3514034152030945,34.09072494506836,3.7990386486053467,-19.360689163208008,-0.2667136788368225,-1.783755898475647,0.07724325358867645,0
50,0.25006699562072754,-0.3514034152030945,-34.09072494506836,-3.7990386486053467,19.360689163208008,0.2667136788368225,1.783755898475647,-0.07724325358867645,0.0,0.0,0.0,0.0,0.0,0.0,0.0,-0.37057217647866025,-0.015180841332299648,-0.23174385294486724,0.3660902815244757,0.20413104938476695,-0.12323713296369211,-0.09835186434845412,1.0544287895960596,0.3240073221704875,-0.3925859157789608,-2.1531823214771553,0.8647440820164003,2.4659923814535136,0.5444855089104864,1.0544104758940245,0.3238615046091247,-0.39250456234122666,-2.153291787532338,0.8647539153680389,2.46587817577521,0.5445020185570556,-0.0001843334206886575,0.00043307179881869667,0.00034732315288912055,0.0007592732982299417,-0.0003983658526169748,-0.00015832954697745692,-0.0008728651518775182,0.0,0.0,0.0,0.0,0.0,0.0,0.0,-1.8313702035088752e-05,-0.00014581756136278212,8.135343773413295e-05,-0.00010946605518258323,9.833351638621757e-06,-0.00011420567830366934,1.6509646569184966e-05,0.0001843334206886575,-0.00043307179881869667,-0.00034732315288912055,-0.0007592732982299417,0.0003983658526169748,0.00015832954697745692,0.0008728651518775182,0.3514034152030945,34.09072494506836,3.7990386486053467,-19.360689163208008,-0.2667136788368225,-1.783755898475647,0.07724325358867645,0
51,0.2550690174102783,-0.3514034152030945,-34.09072494506836,-3.7990386486053467,19.360689163208008,0.2667136788368225,1.783755898475647,-0.07724325358867645,0.0,0.0,0.0,0.0,0.0,0.0,0.0,-0.37057217647866025,-0.015180841332299648,-0.23174385294486724,0.3660902815244757,0.20413104938476695,-0.12323713296369211,-0.09835186434845412,1.0544287895960596,0.3240073221704875,-0.3925859157789608,-2.1531823214771553,0.8647440820164003,2.4659923814535136,0.5444855089104864,1.0544104758940245,0.3238615046091247,-0.39250456234122666,-2.153291787532338,0.8647539153680389,2.46587817577521,0.5445020185570556,-0.0001843334206886575,0.00043307179881869667,0.00034732315288912055,0.0007592732982299417,-0.0003983658526169748,-0.00015832954697745692,-0.0008728651518775182,0.0,0.0,0.0,0.0,0.0,0.0,0.0,-1.8313702035088752e-05,-0.00014581756136278212,8.135343773413295e-05,-0.00010946605518258323,9.833351638621757e-06,-0.00011420567830366934,1.6509646569184966e-05,0.0001843334206886575,-0.00043307179881869667,-0.00034732315288912055,-0.0007592732982299417,0.0003983658526169748,0.00015832954697745692,0.0008728651518775182,0.3514034152030945,34.09072494506836,3.7990386486053467,-19.360689163208008,-0.2667136788368225,-1.783755898475647,0.07724325358867645,0
52,0.2600438594818115,-0.3514034152030945,-34.09072494506836,-3.7990386486053467,19.360689163208008,0.2667136788368225,1.783755898475647,-0.07724325358867645,0.0,0.0,0.0,0.0,0.0,0.0,0.0,-0.37057217647866025,-0.015180841332299648,-0.23174385294486724,0.3660902815244757,0.20413104938476695,-0.12323713296369211,-0.09835186434845412,1.0544287895960596,0.3240073221704875,-0.3925859157789608,-2.1531823214771553,0.8647440820164003,2.4659923814535136,0.5444855089104864,1.0544104758940245,0.3238615046091247,-0.39250456234122666,-2.153291787532338,0.8647539153680389,2.46587817577521,0.5445020185570556,-0.0001843334206886575,0.00043307179881869667,0.00034732315288912055,0.0007592732982299417,-0.0003983658526169748,-0.00015832954697745692,-0.0008728651518775182,0.0,0.0,0.0,0.0,0.0,0.0,0.0,-1.8313702035088752e-05,-0.00014581756136278212,8.135343773413295e-05,-0.00010946605518258323,9.833351638621757e-06,-0.00011420567830366934,1.6509646569184966e-05,0.0001843334206886575,-0.00043307179881869667,-0.00034732315288912055,-0.0007592732982299417,0.0003983658526169748,0.00015832954697745692,0.0008728651518775182,0.3514034152030945,34.09072494506836,3.7990386486053467,-19.360689163208008,-0.2667136788368225,-1.783755898475647,0.07724325358867645,0
53,0.2650601863861084,-0.3514034152030945,-34.11452865600586,-3.7990386486053467,19.360689163208008,0.2667136788368225,1.777347207069397,-0.08365194499492645,0.0,0.0,0.0,0.0,0.0,0.0,0.0,-0.3749462289236955,-0.015711011164892725,-0.2355159739613026,0.3664749642212978,0.2047347098747267,-0.12260134476994371,-0.09945017035351252,1.054428798426359,0.32400825078683065,-0.39258662441181164,-2.1531823640871606,0.8647469212794278,2.4659930935303365,0.5444904595936592,1.0544104758940245,0.3238615046091247,-0.39250456234122666,-2.153291787532338,0.8647539153680389,2.46587817577521,0.5445020185570556,-0.000699690135638211,0.0008694268950248144,-3.576778101706464e-05,0.0009296762275697969,-0.00028962664572478817,0.00017272125992566105,-0.0010431545954955425,0.0,0.0,0.0,0.0,0.0,0.0,0.0,-1.8322532334469344e-05,-0.00014674617770593645,8.206207058497617e-05,-0.00010942344517728131,6.994088611156357e-06,-0.00011491775512650904,1.1558963396440802e-05,0.000699690135638211,-0.0008694268950248144,3.576778101706464e-05,-0.0009296762275697969,0.00028962664572478817,-0.00017272125992566105,0.0010431545954955425,0.3514034152030945,34.11452865600586,3.7990386486053467,-19.360689163208008,-0.2667136788368225,-1.777347207069397,0.08365194499492645,0
54,0.27004313468933105,-0.3514034152030945,-34.11452865600586,-3.7990386486053467,19.360689163208008,0.2667136788368225,1.777347207069397,-0.08365194499492645,0.0,0.0,0.0,0.0,0.0,0.0,0.0,-0.3749462289236955,-0.015711011164892725,-0.2355159739613026,0.3664749642212978,0.2047347098747267,-0.12260134476994371,-0.09945017035351252,1.054428798426359,0.32400825078683065,-0.39258662441181164,-2.1531823640871606,0.8647469212794278,2.4659930935303365,0.5444904595936592,1.0544104758940245,0.3238615046091247,-0.39250456234122666,-2.153291787532338,0.8647539153680389,2.46587817577521,0.5445020185570556,-0.000699690135638211,0.0008694268950248144,-3.576778101706464e-05,0.0009296762275697969,-0.00028962664572478817,0.00017272125992566105,-0.0010431545954955425,0.0,0.0,0.0,0.0,0.0,0.0,0.0,-1.8322532334469344e-05,-0.00014674617770593645,8.206207058497617e-05,-0.00010942344517728131,6.994088611156357e-06,-0.00011491775512650904,1.1558963396440802e-05,0.000699690135638211,-0.0008694268950248144,3.576778101706464e-05,-0.0009296762275697969,0.00028962664572478817,-0.00017272125992566105,0.0010431545954955425,0.3514034152030945,34.11452865600586,3.7990386486053467,-19.360689163208008,-0.2667136788368225,-1.777347207069397,0.08365194499492645,0
55,0.2749967575073242,-0.4029781222343445,-34.06295394897461,-3.7990386486053467,19.360689163208008,0.2667136788368225,1.790164589881897,-0.05710165575146675,0.0,0.0,0.0,0.0,0.0,0.0,0.0,-0.366929873614882,-0.01832062676516195,-0.22936354153420968,0.36789850063416474,0.20506825869329248,-0.12293274526943813,-0.09994660494102356,1.0544302611442358,0.32400544988978464,-0.3925859157828129,-2.1531791488465086,0.8647472612526931,2.465991669376691,0.5444832724326458,1.0544104758940245,0.3238615046091247,-0.39250456234122666,-2.153291787532338,0.8647539153680389,2.46587817577521,0.5445020185570556,0.000491123317943561,-0.0008780259927506195,-3.386994321098654e-05,0.0009434057457625599,-0.00031884087395694363,-0.0002942787694376314,-0.0013067092182689813,0.0,0.0,0.0,0.0,0.0,0.0,0.0,-1.9785250211290517e-05,-0.0001439452806599184,8.135344158621827e-05,-0.00011263868582922498,6.654115345838818e-06,-0.00011349360148082965,1.874612440977419e-05,-0.000491123317943561,0.0008780259927506195,3.386994321098654e-05,-0.0009434057457625599,0.00031884087395694363,0.0002942787694376314,0.0013067092182689813,0.4029781222343445,34.06295394897461,3.7990386486053467,-19.360689163208008,-0.2667136788368225,-1.790164589881897,0.05710165575146675,0
56,0.2800416946411133,-0.4029781222343445,-34.06295394897461,-3.7990386486053467,19.360689163208008,0.2667136788368225,1.790164589881897,-0.05710165575146675,0.0,0.0,0.0,0.0,0.0,0.0,0.0,-0.366929873614882,-0.01832062676516195,-0.22936354153420968,0.36789850063416474,0.20506825869329248,-0.12293274526943813,-0.09994660494102356,1.0544302611442358,0.32400544988978464,-0.3925859157828129,-2.1531791488465086,0.8647472612526931,2.465991669376691,0.5444832724326458,1.0544104758940245,0.3238615046091247,-0.39250456234122666,-2.153291787532338,0.8647539153680389,2.46587817577521,0.5445020185570556,0.000491123317943561,-0.0008780259927506195,-3.386994321098654e-05,0.0009434057457625599,-0.00031884087395694363,-0.0002942787694376314,-0.0013067092182689813,0.0,0.0,0.0,0.0,0.0,0.0,0.0,-1.9785250211290517e-05,-0.0001439452806599184,8.135344158621827e-05,-0.00011263868582922498,6.654115345838818e-06,-0.00011349360148082965,1.874612440977419e-05,-0.000491123317943561,0.0008780259927506195,3.386994321098654e-05,-0.0009434057457625599,0.00031884087395694363,0.0002942787694376314,0.0013067092182689813,0.4029781222343445,34.06295394897461,3.7990386486053467,-19.360689163208008,-0.2667136788368225,-1.790164589881897,0.05710165575146675,0
57,0.2850501537322998,-0.3514034152030945,-34.11452865600586,-3.7990386486053467,19.360689163208008,0.2484031319618225,1.777347207069397,-0.08365194499492645,0.0,0.0,0.0,0.0,0.0,0.0,0.0,-0.369125042335326,-0.009941973726460983,-0.22878809455942684,0.36217214952139926,0.20525873247382675,-0.12341667937395064,-0.09907288753099253,1.0544287993953443,0.32400692598493064,-0.39258591577881263,-2.153182364194556,0.8647492959213261,2.4659930935303365,0.544486220987315,1.0544104758940245,0.3238615046091247,-0.39250456234122666,-2.153291787532338,0.8647539153680389,2.46587817577521,0.5445020185570556,-0.0009818856167399643,0.0003694180563983745,0.0001343771195658123,0.0006371382645217102,0.0004344124335163448,0.00027250966827093733,-0.0006444900074331994,0.0,0.0,0.0,0.0,0.0,0.0,0.0,-1.8323501319805757e-05,-0.00014542137580592085,8.135343758597369e-05,-0.00010942333778185542,4.619446712816888e-06,-0.00011491775512650904,1.5797569740572115e-05,0.0009818856167399643,-0.0003694180563983745,-0.0001343771195658123,-0.0006371382645217102,-0.0004344124335163448,-0.00027250966827093733,0.0006444900074331994,0.3514034152030945,34.11452865600586,3.7990386486053467,-19.360689163208008,-0.2484031319618225,-1.777347207069397,0.08365194499492645,0
58,0.2900424003601074,-0.3514034152030945,-34.11452865600586,-3.7990386486053467,19.360689163208008,0.2484031319618225,1.777347207069397,-0.08365194499492645,0.0,0.0,0.0,0.0,0.0,0.0,0.0,-0.369125042335326,-0.009941973726460983,-0.22878809455942684,0.36217214952139926,0.20525873247382675,-0.12341667937395064,-0.09907288753099253,1.0544287993953443,0.32400692598493064,-0.39258591577881263,-2.153182364194556,0.8647492959213261,2.4659930935303365,0.544486220987315,1.0544104758940245,0.3238615046091247,-0.39250456234122666,-2.153291787532338,0.8647539153680389,2.46587817577521,0.5445020185570556,-0.0009818856167399643,0.0003694180563983745,0.0001343771195658123,0.0006371382645217102,0.0004344124335163448,0.00027250966827093733,-0.0006444900074331994,0.0,0.0,0.0,0.0,0.0,0.0,0.0,-1.8323501319805757e-05,-0.00014542137580592085,8.135343758597369e-05,-0.00010942333778185542,4.619446712816888e-06,-0.00011491775512650904,1.5797569740572115e-05,0.0009818856167399643,-0.0003694180563983745,-0.0001343771195658123,-0.0006371382645217102,-0.0004344124335163448,-0.00027250966827093733,0.0006444900074331994,0.3514034152030945,34.11452865600586,3.7990386486053467,-19.360689163208008,-0.2484031319618225,-1.777347207069397,0.08365194499492645,0
59,0.29505276679992676,-0.3752071261405945,-34.01534652709961,-3.8228423595428467,19.412263870239258,0.2603049874305725,1.777347207069397,-0.12485067546367645,0.0,0.0,0.0,0.0,0.0,0.0,0.0,-0.3714645292689622,-0.01478957237225922,-0.22984581163688944,0.3668123289351473,0.20489457321393745,-0.12288117370187135,-0.098997403537581,1.0544304600319148,0.32400210898636567,-0.3925842453429573,-2.1531856659592017,0.8647479820525897,2.4659930935303365,0.5444907986240255,1.0544104758940245,0.3238615046091247,-0.39250456234122666,-2.153291787532338,0.8647539153680389,2.46587817577521,0.5445020185570556,2.0710097704945622e-05,-0.001829534246115927,0.0007413232741871134,9.856562019852474e-05,-0.00016765067860234533,0.0003722624821616557,0.0015420886115242822,0.0,0.0,0.0,0.0,0.0,0.0,0.0,-1.9984137890283193e-05,-0.00014060437724094932,7.968300173066822e-05,-0.00010612157313616422,5.933315449180299e-06,-0.00011491775512650904,1.1219933030104379e-05,-2.0710097704945622e-05,0.001829534246115927,-0.0007413232741871134,-9.856562019852474e-05,0.00016765067860234533,-0.0003722624821616557,-0.0015420886115242822,0.3752071261405945,34.01534652709961,3.8228423595428467,-19.412263870239258,-0.2603049874305725,-1.777347207069397,0.12485067546367645,0
60,0.30004382133483887,-0.3752071261405945,-34.01534652709961,-3.8228423595428467,19.412263870239258,0.2603049874305725,1.777347207069397,-0.12485067546367645,0.0,0.0,0.0,0.0,0.0,0.0,0.0,-0.3714645292689622,-0.01478957237225922,-0.22984581163688944,0.3668123289351473,0.20489457321393745,-0.12288117370187135,-0.098997403537581,1.0544304600319148,0.32400210898636567,-0.3925842453429573,-2.1531856659592017,0.8647479820525897,2.4659930935303365,0.5444907986240255,1.0544104758940245,0.3238615046091247,-0.39250456234122666,-2.153291787532338,0.8647539153680389,2.46587817577521,0.5445020185570556,2.0710097704945622e-05,-0.001829534246115927,0.0007413232741871134,9.856562019852474e-05,-0.00016765067860234533,0.0003722624821616557,0.0015420886115242822,0.0,0.0,0.0,0.0,0.0,0.0,0.0,-1.9984137890283193e-05,-0.00014060437724094932,7.968300173066822e-05,-0.00010612157313616422,5.933315449180299e-06,-0.00011491775512650904,1.1219933030104379e-05,-2.0710097704945622e-05,0.001829534246115927,-0.0007413232741871134,-9.856562019852474e-05,0.00016765067860234533,-0.0003722624821616557,-0.0015420886115242822,0.3752071261405945,34.01534652709961,3.8228423595428467,-19.412263870239258,-0.2603049874305725,-1.777347207069397,0.12485067546367645,0
61,0.30504727363586426,-0.4029781222343445,-34.09072494506836,-3.7514312267303467,19.412263870239258,0.2667136788368225,1.796573281288147,-0.09097616374492645,0.0,0.0,0.0,0.0,0.0,0.0,0.0,-0.3681785039468937,-0.013010587289940517,-0.22552045181796318,0.36726088365829107,0.20439893586435057,-0.1234644403030993,-0.09859577096220867,1.0544323361598764,0.3240073915411729,-0.392589335387523,-2.1531859942175053,0.8647462148061718,2.465990957299868,0.54448703478939,1.0544104758940245,0.3238615046091247,-0.39250456234122666,-2.153291787532338,0.8647539153680389,2.46587817577521,0.5445020185570556,0.0011442250829669755,0.0002750119755326339,-0.0010881268428678038,-0.00023184486966728397,-0.00022658683205583862,-0.0004455157072388508,-0.0004409768232596089,0.0,0.0,0.0,0.0,0.0,0.0,0.0,-2.1860265851936234e-05,-0.00014588693204820036,8.477304629633808e-05,-0.00010579331483251408,7.70056186716328e-06,-0.00011278152465798996,1.4983767665621706e-05,-0.0011442250829669755,-0.0002750119755326339,0.0010881268428678038,0.00023184486966728397,0.00022658683205583862,0.0004455157072388508,0.0004409768232596089,0.4029781222343445,34.09072494506836,3.7514312267303467,-19.412263870239258,-0.2667136788368225,-1.796573281288147,0.09097616374492645,0
62,0.3099980354309082,-0.4029781222343445,-34.09072494506836,-3.7514312267303467,19.412263870239258,0.2667136788368225,1.796573281288147,-0.09097616374492645,0.0,0.0,0.0,0.0,0.0,0.0,0.0,-0.3681785039468937,-0.013010587289940517,-0.22552045181796318,0.36726088365829107,0.20439893586435057,-0.1234644403030993,-0.09859577096220867,1.0544323361598764,0.3240073915411729,-0.392589335387523,-2.1531859942175053,0.8647462148061718,2.465990957299868,0.54448703478939,1.0544104758940245,0.3238615046091247,-0.39250456234122666,-2.153291787532338,0.8647539153680389,2.46587817577521,0.5445020185570556,0.0011442250829669755,0.0002750119755326339,-0.0010881268428678038,-0.00023184486966728397,-0.00022658683205583862,-0.0004455157072388508,-0.0004409768232596089,0.0,0.0,0.0,0.0,0.0,0.0,0.0,-2.1860265851936234e-05,-0.00014588693204820036,8.477304629633808e-05,-0.00010579331483251408,7.70056186716328e-06,-0.00011278152465798996,1.4983767665621706e-05,-0.0011442250829669755,-0.0002750119755326339,0.0010881268428678038,0.00023184486966728397,0.00022658683205583862,0.0004455157072388508,0.0004409768232596089,0.4029781222343445,34.09072494506836,3.7514312267303467,-19.412263870239258,-0.2667136788368225,-1.796573281288147,0.09097616374492645,0
63,0.3150444030761719,-0.3752071261405945,-34.06295394897461,-3.7752349376678467,19.436067581176758,0.2603049874305725,1.790164589881897,-0.07724325358867645,0.0,0.0,0.0,0.0,0.0,0.0,0.0,-0.3791643136450003,-0.013623689297046989,-0.2346946162466776,0.3663424125047636,0.2058392477617054,-0.1218900220019061,-0.09914149203781591,1.0544304688254282,0.3240054518566567,-0.39258758621511236,-2.1531866187293582,0.8647448062010473,2.465991669376691,0.5444855089104838,1.0544104758940245,0.3238615046091247,-0.39250456234122666,-2.153291787532338,0.8647539153680389,2.46587817577521,0.5445020185570556,-0.00017910363682116338,-0.0006653928547936024,-0.0007176166223560605,-0.0013232239954270412,3.283633584688274e-06,-0.000333105431758524,-0.0007110190988326823,0.0,0.0,0.0,0.0,0.0,0.0,0.0,-1.999293140375613e-05,-0.00014394724753197252,8.302387388570143e-05,-0.00010516880297961606,9.109166991594364e-06,-0.00011349360148082965,1.65096465718495e-05,0.00017910363682116338,0.0006653928547936024,0.0007176166223560605,0.0013232239954270412,-3.283633584688274e-06,0.000333105431758524,0.0007110190988326823,0.3752071261405945,34.06295394897461,3.7752349376678467,-19.436067581176758,-0.2603049874305725,-1.790164589881897,0.07724325358867645,0
64,0.32004284858703613,-0.3752071261405945,-34.06295394897461,-3.7752349376678467,19.436067581176758,0.2603049874305725,1.790164589881897,-0.07724325358867645,0.0,0.0,0.0,0.0,0.0,0.0,0.0,-0.3791643136450003,-0.013623689297046989,-0.2346946162466776,0.3663424125047636,0.2058392477617054,-0.1218900220019061,-0.09914149203781591,1.0544304688254282,0.3240054518566567,-0.39258758621511236,-2.1531866187293582,0.8647448062010473,2.465991669376691,0.5444855089104838,1.0544104758940245,0.3238615046091247,-0.39250456234122666,-2.153291787532338,0.8647539153680389,2.46587817577521,0.5445020185570556,-0.00017910363682116338,-0.0006653928547936024,-0.0007176166223560605,-0.0013232239954270412,3.283633584688274e-06,-0.000333105431758524,-0.0007110190988326823,0.0,0.0,0.0,0.0,0.0,0.0,0.0,-1.999293140375613e-05,-0.00014394724753197252,8.302387388570143e-05,-0.00010516880297961606,9.109166991594364e-06,-0.00011349360148082965,1.65096465718495e-05,0.00017910363682116338,0.0006653928547936024,0.0007176166223560605,0.0013232239954270412,-3.283633584688274e-06,0.000333105431758524,0.0007110190988326823,0.3752071261405945,34.06295394897461,3.7752349376678467,-19.436067581176758,-0.2603049874305725,-1.790164589881897,0.07724325358867645,0
65,0.3250739574432373,-0.3514034152030945,-34.11452865600586,-3.7990386486053467,19.360689163208008,0.2548118233680725,1.790164589881897,-0.09738485515117645,0.0,0.0,0.0,0.0,0.0,0.0,0.0,-0.37094727973358116,-0.01608001448159741,-0.22659766519753924,0.3679426966044778,0.20595615294065753,-0.12198017457094751,-0.09860777737823984,1.0544280036977747,0.32400883369696215,-0.39258591577881263,-2.153180149819967,0.8647453002566189,2.465991669376691,0.5444878646037828,1.0544104758940245,0.3238615046091247,-0.39250456234122666,-2.153291787532338,0.8647539153680389,2.46587817577521,0.5445020185570556,-0.00040903899982279603,0.00037947033129986636,0.00013657147567739043,0.0005453284299381506,0.00020841892541962817,-0.0002359682978744454,-0.00020633133580179303,0.0,0.0,0.0,0.0,0.0,0.0,0.0,-1.7527803750194693e-05,-0.00014732908783743337,8.135343758597369e-05,-0.00011163771237088227,8.615111420029464e-06,-0.00011349360148082965,1.415395327275526e-05,0.00040903899982279603,-0.00037947033129986636,-0.00013657147567739043,-0.0005453284299381506,-0.00020841892541962817,0.0002359682978744454,0.00020633133580179303,0.3514034152030945,34.11452865600586,3.7990386486053467,-19.360689163208008,-0.2548118233680725,-1.790164589881897,0.09738485515117645,0
66,0.3300604820251465,-0.3514034152030945,-34.11452865600586,-3.7990386486053467,19.360689163208008,0.2548118233680725,1.790164589881897,-0.09738485515117645,0.0,0.0,0.0,0.0,0.0,0.0,0.0,-0.37094727973358116,-0.01608001448159741,-0.22659766519753924,0.3679426966044778,0.20595615294065753,-0.12198017457094751,-0.09860777737823984,1.0544280036977747,0.32400883369696215,-0.39258591577881263,-2.153180149819967,0.8647453002566189,2.465991669376691,0.5444878646037828,1.0544104758940245,0.3238615046091247,-0.39250456234122666,-2.153291787532338,0.8647539153680389,2.46587817577521,0.5445020185570556,-0.00040903899982279603,0.00037947033129986636,0.00013657147567739043,0.0005453284299381506,0.00020841892541962817,-0.0002359682978744454,-0.00020633133580179303,0.0,0.0,0.0,0.0,0.0,0.0,0.0,-1.7527803750194693e-05,-0.00014732908783743337,8.135343758597369e-05,-0.00011163771237088227,8.615111420029464e-06,-0.00011349360148082965,1.415395327275526e-05,0.00040903899982279603,-0.00037947033129986636,-0.00013657147567739043,-0.0005453284299381506,-0.00020841892541962817,0.0002359682978744454,0.00020633133580179303,0.3514034152030945,34.11452865600586,3.7990386486053467,-19.360689163208008,-0.2548118233680725,-1.790164589881897,0.09738485515117645,0
67,0.33504295349121094,-0.4029781222343445,-34.06295394897461,-3.7752349376678467,19.412263870239258,0.2603049874305725,1.777347207069397,-0.11844198405742645,0.0,0.0,0.0,0.0,0.0,0.0,0.0,-0.37284974869167326,-0.011379855129128869,-0.22995012200795767,0.36326332809800416,0.20589187457466052,-0.12183674192637872,-0.09823011456192314,1.0544313853881873,0.32400513098415124,-0.3925875862146679,-2.1531852709367953,0.8647475025241259,2.4659930935303365,0.5444900867632079,1.0544104758940245,0.3238615046091247,-0.39250456234122666,-2.153291787532338,0.8647539153680389,2.46587817577521,0.5445020185570556,0.0011966191159022985,-0.0005677968039480596,-0.000551414034185537,-0.0007036890709394972,-0.0001490077628068188,0.00021001429761055915,0.0010165704054654397,0.0,0.0,0.0,0.0,0.0,0.0,0.0,-2.090949416277965e-05,-0.00014362637502651765,8.302387344122364e-05,-0.00010651659554250514,6.412843913006228e-06,-0.00011491775512650904,1.1931793847730354e-05,-0.0011966191159022985,0.0005677968039480596,0.000551414034185537,0.0007036890709394972,0.0001490077628068188,-0.00021001429761055915,-0.0010165704054654397,0.4029781222343445,34.06295394897461,3.7752349376678467,-19.412263870239258,-0.2603049874305725,-1.777347207069397,0.11844198405742645,0
68,0.3400094509124756,-0.4029781222343445,-34.06295394897461,-3.7752349376678467,19.412263870239258,0.2603049874305725,1.777347207069397,-0.11844198405742645,0.0,0.0,0.0,0.0,0.0,0.0,0.0,-0.37284974869167326,-0.011379855129128869,-0.22995012200795767,0.36326332809800416,0.20589187457466052,-0.12183674192637872,-0.09823011456192314,1.0544313853881873,0.32400513098415124,-0.3925875862146679,-2.1531852709367953,0.8647475025241259,2.4659930935303365,0.5444900867632079,1.0544104758940245,0.3238615046091247,-0.39250456234122666,-2.153291787532338,0.8647539153680389,2.46587817577521,0.5445020185570556,0.0011966191159022985,-0.0005677968039480596,-0.000551414034185537,-0.0007036890709394972,-0.0001490077628068188,0.00021001429761055915,0.0010165704054654397,0.0,0.0,0.0,0.0,0.0,0.0,0.0,-2.090949416277965e-05,-0.00014362637502651765,8.302387344122364e-05,-0.00010651659554250514,6.412843913006228e-06,-0.00011491775512650904,1.1931793847730354e-05,-0.0011966191159022985,0.0005677968039480596,0.000551414034185537,0.0007036890709394972,0.0001490077628068188,-0.00021001429761055915,-0.0010165704054654397,0.4029781222343445,34.06295394897461,3.7752349376678467,-19.412263870239258,-0.2603049874305725,-1.777347207069397,0.11844198405742645,0
69,0.3450443744659424,-0.3514034152030945,-34.09072494506836,-3.7990386486053467,19.388460159301758,0.2667136788368225,1.777347207069397,-0.13217489421367645,0.0,0.0,0.0,0.0,0.0,0.0,0.0,-0.3731549339520342,-0.02161271816435966,-0.2331025935219137,0.3672229713225278,0.20579176758229475,-0.12164869578609008,-0.09796388468207964,1.0544287994016908,0.32400739764427267,-0.39258591577881263,-2.153181275781908,0.8647458616445732,2.4659930935303365,0.5444919658003253,1.0544104758940245,0.3238615046091247,-0.39250456234122666,-2.153291787532338,0.8647539153680389,2.46587817577521,0.5445020185570556,-0.0005205540844849221,-0.00011692747096202437,-0.00010478283305694309,0.00023129311579480748,-0.0002547193828080733,0.00023903925727700826,0.0018873793429962898,0.0,0.0,0.0,0.0,0.0,0.0,0.0,-1.8323507666284655e-05,-0.00014589303514794816,8.135343758597369e-05,-0.00011051175042986472,8.053723465684115e-06,-0.00011491775512650904,1.0052756730272172e-05,0.0005205540844849221,0.00011692747096202437,0.00010478283305694309,-0.00023129311579480748,0.0002547193828080733,-0.00023903925727700826,-0.0018873793429962898,0.3514034152030945,34.09072494506836,3.7990386486053467,-19.388460159301758,-0.2667136788368225,-1.777347207069397,0.13217489421367645,0
70,0.35004186630249023,-0.3514034152030945,-34.09072494506836,-3.7990386486053467,19.388460159301758,0.2667136788368225,1.777347207069397,-0.13217489421367645,0.0,0.0,0.0,0.0,0.0,0.0,0.0,-0.3731549339520342,-0.02161271816435966,-0.2331025935219137,0.3672229713225278,0.20579176758229475,-0.12164869578609008,-0.09796388468207964,1.0544287994016908,0.32400739764427267,-0.39258591577881263,-2.153181275781908,0.8647458616445732,2.4659930935303365,0.5444919658003253,1.0544104758940245,0.3238615046091247,-0.39250456234122666,-2.153291787532338,0.8647539153680389,2.46587817577521,0.5445020185570556,-0.0005205540844849221,-0.00011692747096202437,-0.00010478283305694309,0.00023129311579480748,-0.0002547193828080733,0.00023903925727700826,0.0018873793429962898,0.0,0.0,0.0,0.0,0.0,0.0,0.0,-1.8323507666284655e-05,-0.00014589303514794816,8.135343758597369e-05,-0.00011051175042986472,8.053723465684115e-06,-0.00011491775512650904,1.0052756730272172e-05,0.0005205540844849221,0.00011692747096202437,0.00010478283305694309,-0.00023129311579480748,0.0002547193828080733,-0.00023903925727700826,-0.0018873793429962898,0.3514034152030945,34.09072494506836,3.7990386486053467,-19.388460159301758,-0.2667136788368225,-1.777347207069397,0.13217489421367645,0
71,0.3550710678100586,-0.4029781222343445,-34.13833236694336,-3.7514312267303467,19.412263870239258,0.2603049874305725,1.790164589881897,-0.08365194499492645,0.0,0.0,0.0,0.0,0.0,0.0,0.0,-0.36425830447285223,-0.015686462718095918,-0.22476014039867864,0.36139453288142215,0.2056723925053877,-0.12326254888730166,-0.098620371630606,1.0544317021212777,0.324010741243184,-0.39258925665052313,-2.1531826899114304,0.8647469269288627,2.465991669376691,0.5444865742020112,1.0544104758940245,0.3238615046091247,-0.39250456234122666,-2.153291787532338,0.8647539153680389,2.46587817577521,0.5445020185570556,0.0009285239644509299,0.0010502060852004046,-0.0011017563624883234,-0.00040821398982815996,-1.909709687994126e-05,-0.0003787738059457848,-0.0001726413052043985,0.0,0.0,0.0,0.0,0.0,0.0,0.0,-2.1226227253201557e-05,-0.0001492366340593021,8.469430929647359e-05,-0.00010909762090749453,6.988439176236483e-06,-0.00011349360148082965,1.5444355044413882e-05,-0.0009285239644509299,-0.0010502060852004046,0.0011017563624883234,0.00040821398982815996,1.909709687994126e-05,0.0003787738059457848,0.0001726413052043985,0.4029781222343445,34.13833236694336,3.7514312267303467,-19.412263870239258,-0.2603049874305725,-1.790164589881897,0.08365194499492645,0
72,0.36005640029907227,-0.4029781222343445,-34.13833236694336,-3.7514312267303467,19.412263870239258,0.2603049874305725,1.790164589881897,-0.08365194499492645,0.0,0.0,0.0,0.0,0.0,0.0,0.0,-0.36425830447285223,-0.015686462718095918,-0.22476014039867864,0.36139453288142215,0.2056723925053877,-0.12326254888730166,-0.098620371630606,1.0544317021212777,0.324010741243184,-0.39258925665052313,-2.1531826899114304,0.8647469269288627,2.465991669376691,0.5444865742020112,1.0544104758940245,0.3238615046091247,-0.39250456234122666,-2.153291787532338,0.8647539153680389,2.46587817577521,0.5445020185570556,0.0009285239644509299,0.0010502060852004046,-0.0011017563624883234,-0.00040821398982815996,-1.909709687994126e-05,-0.0003787738059457848,-0.0001726413052043985,0.0,0.0,0.0,0.0,0.0,0.0,0.0,-2.1226227253201557e-05,-0.0001492366340593021,8.469430929647359e-05,-0.00010909762090749453,6.988439176236483e-06,-0.00011349360148082965,1.5444355044413882e-05,-0.0009285239644509299,-0.0010502060852004046,0.0011017563624883234,0.00040821398982815996,1.909709687994126e-05,0.0003787738059457848,0.0001726413052043985,0.4029781222343445,34.13833236694336,3.7514312267303467,-19.412263870239258,-0.2603049874305725,-1.790164589881897,0.08365194499492645,0
73,0.36505675315856934,-0.3752071261405945,-34.09072494506836,-3.8506133556365967,19.412263870239258,0.2548118233680725,1.783755898475647,-0.10470907390117645,0.0,0.0,0.0,0.0,0.0,0.0,0.0,-0.3704430973344499,-0.022169586587053067,-0.22753942090128007,0.36460591875633996,0.20600536460669794,-0.12253848043294764,-0.09786427033527235,1.054430469839334,0.32400514983964296,-0.3925822965011262,-2.1531835129424337,0.8647485836232555,2.4659923814535136,0.5444889140445055,1.0544104758940245,0.3238615046091247,-0.39250456234122666,-2.153291787532338,0.8647539153680389,2.46587817577521,0.5445020185570556,8.236237608186677e-05,-0.000256166928885139,0.001394691085735881,0.00011158290445616332,0.0001434097937392526,-3.890416764951262e-05,0.0007470689937177512,0.0,0.0,0.0,0.0,0.0,0.0,0.0,-1.99939453096043e-05,-0.00014364523051824118,7.773415989953403e-05,-0.00010827458990414485,5.33174478345444e-06,-0.00011420567830366934,1.3104512550099479e-05,-8.236237608186677e-05,0.000256166928885139,-0.001394691085735881,-0.00011158290445616332,-0.0001434097937392526,3.890416764951262e-05,-0.0007470689937177512,0.3752071261405945,34.09072494506836,3.8506133556365967,-19.412263870239258,-0.2548118233680725,-1.783755898475647,0.10470907390117645,0
74,0.37004518508911133,-0.3752071261405945,-34.09072494506836,-3.8506133556365967,19.412263870239258,0.2548118233680725,1.783755898475647,-0.10470907390117645,0.0,0.0,0.0,0.0,0.0,0.0,0.0,-0.3704430973344499,-0.022169586587053067,-0.22753942090128007,0.36460591875633996,0.20600536460669794,-0.12253848043294764,-0.09786427033527235,1.054430469839334,0.32400514983964296,-0.3925822965011262,-2.1531835129424337,0.8647485836232555,2.4659923814535136,0.5444889140445055,1.0544104758940245,0.3238615046091247,-0.39250456234122666,-2.153291787532338,0.8647539153680389,2.46587817577521,0.5445020185570556,8.236237608186677e-05,-0.000256166928885139,0.001394691085735881,0.00011158290445616332,0.0001434097937392526,-3.890416764951262e-05,0.0007470689937177512,0.0,0.0,0.0,0.0,0.0,0.0,0.0,-1.99939453096043e-05,-0.00014364523051824118,7.773415989953403e-05,-0.00010827458990414485,5.33174478345444e-06,-0.00011420567830366934,1.3104512550099479e-05,-8.236237608186677e-05,0.000256166928885139,-0.001394691085735881,-0.00011158290445616332,-0.0001434097937392526,3.890416764951262e-05,-0.0007470689937177512,0.3752071261405945,34.09072494506836,3.8506133556365967,-19.412263870239258,-0.2548118233680725,-1.783755898475647,0.10470907390117645,0
75,0.375042200088501,-0.3752071261405945,-34.09072494506836,-3.8506133556365967,19.412263870239258,0.2548118233680725,1.783755898475647,-0.10470907390117645,0.0,0.0,0.0,0.0,0.0,0.0,0.0,-0.3704430973344499,-0.022169586587053067,-0.22753942090128007,0.36460591875633996,0.20600536460669794,-0.12253848043294764,-0.09786427033527235,1.054430469839334,0.32400514983964296,-0.3925822965011262,-2.1531835129424337,0.8647485836232555,2.4659923814535136,0.5444889140445055,1.0544104758940245,0.3238615046091247,-0.39250456234122666,-2.153291787532338,0.8647539153680389,2.46587817577521,0.5445020185570556,8.236237608186677e-05,-0.000256166928885139,0.001394691085735881,0.00011158290445616332,0.0001434097937392526,-3.890416764951262e-05,0.0007470689937177512,0.0,0.0,0.0,0.0,0.0,0.0,0.0,-1.99939453096043e-05,-0.00014364523051824118,7.773415989953403e-05,-0.00010827458990414485,5.33174478345444e-06,-0.00011420567830366934,1.3104512550099479e-05,-8.236237608186677e-05,0.000256166928885139,-0.001394691085735881,-0.00011158290445616332,-0.0001434097937392526,3.890416764951262e-05,-0.0007470689937177512,0.3752071261405945,34.09072494506836,3.8506133556365967,-19.412263870239258,-0.2548118233680725,-1.783755898475647,0.10470907390117645,0
76,0.38004446029663086,-0.3752071261405945,-34.09072494506836,-3.8506133556365967,19.412263870239258,0.2548118233680725,1.783755898475647,-0.10470907390117645,0.0,0.0,0.0,0.0,0.0,0.0,0.0,-0.3704430973344499,-0.022169586587053067,-0.22753942090128007,0.36460591875633996,0.20600536460669794,-0.12253848043294764,-0.09786427033527235,1.054430469839334,0.32400514983964296,-0.3925822965011262,-2.1531835129424337,0.8647485836232555,2.4659923814535136,0.5444889140445055,1.0544104758940245,0.3238615046091247,-0.39250456234122666,-2.153291787532338,0.8647539153680389,2.46587817577521,0.5445020185570556,8.236237608186677e-05,-0.000256166928885139,0.001394691085735881,0.00011158290445616332,0.0001434097937392526,-3.890416764951262e-05,0.0007470689937177512,0.0,0.0,0.0,0.0,0.0,0.0,0.0,-1.99939453096043e-05,-0.00014364523051824118,7.773415989953403e-05,-0.00010827458990414485,5.33174478345444e-06,-0.00011420567830366934,1.3104512550099479e-05,-8.236237608186677e-05,0.000256166928885139,-0.001394691085735881,-0.00011158290445616332,-0.0001434097937392526,3.890416764951262e-05,-0.0007470689937177512,0.3752071261405945,34.09072494506836,3.8506133556365967,-19.412263870239258,-0.2548118233680725,-1.783755898475647,0.10470907390117645,0
77,0.3850433826446533,-0.3752071261405945,-34.09072494506836,-3.7514312267303467,19.388460159301758,0.2548118233680725,1.783755898475647,-0.09097616374492645,0.0,0.0,0.0,0.0,0.0,0.0,0.0,-0.37300822833701314,-0.013064687754213839,-0.2292640754017785,0.3601479885630245,0.2057794781404269,-0.12299799987222805,-0.0980395504320573,1.054430469843379,0.32400737125144086,-0.39258925665052313,-2.1531818422474327,0.8647485576805984,2.4659923814535136,0.5444902137057728,1.0544104758940245,0.3238615046091247,-0.39250456234122666,-2.153291787532338,0.8647539153680389,2.46587817577521,0.5445020185570556,0.00021210741046233812,0.0004051823923238807,-0.0015183612625188957,0.0002060833527687823,0.00019441724541314836,-2.9375493533926843e-05,4.26854147404099e-05,0.0,0.0,0.0,0.0,0.0,0.0,0.0,-1.9993949354590868e-05,-0.00014586664231613922,8.469430929647359e-05,-0.0001099452849051552,5.357687440477044e-06,-0.00011420567830366934,1.1804851282826156e-05,-0.00021210741046233812,-0.0004051823923238807,0.0015183612625188957,-0.0002060833527687823,-0.00019441724541314836,2.9375493533926843e-05,-4.26854147404099e-05,0.3752071261405945,34.09072494506836,3.7514312267303467,-19.388460159301758,-0.2548118233680725,-1.783755898475647,0.09097616374492645,0
78,0.3900635242462158,-0.3752071261405945,-34.09072494506836,-3.7514312267303467,19.388460159301758,0.2548118233680725,1.783755898475647,-0.09097616374492645,0.0,0.0,0.0,0.0,0.0,0.0,0.0,-0.37300822833701314,-0.013064687754213839,-0.2292640754017785,0.3601479885630245,0.2057794781404269,-0.12299799987222805,-0.0980395504320573,1.054430469843379,0.32400737125144086,-0.39258925665052313,-2.1531818422474327,0.8647485576805984,2.4659923814535136,0.5444902137057728,1.0544104758940245,0.3238615046091247,-0.39250456234122666,-2.153291787532338,0.8647539153680389,2.46587817577521,0.5445020185570556,0.00021210741046233812,0.0004051823923238807,-0.0015183612625188957,0.0002060833527687823,0.00019441724541314836,-2.9375493533926843e-05,4.26854147404099e-05,0.0,0.0,0.0,0.0,0.0,0.0,0.0,-1.9993949354590868e-05,-0.00014586664231613922,8.469430929647359e-05,-0.0001099452849051552,5.357687440477044e-06,-0.00011420567830366934,1.1804851282826156e-05,-0.00021210741046233812,-0.0004051823923238807,0.0015183612625188957,-0.0002060833527687823,-0.00019441724541314836,2.9375493533926843e-05,-4.26854147404099e-05,0.3752071261405945,34.09072494506836,3.7514312267303467,-19.388460159301758,-0.2548118233680725,-1.783755898475647,0.09097616374492645,0
79,0.39508533477783203,-0.4267818331718445,-34.06295394897461,-3.7752349376678467,19.388460159301758,0.2603049874305725,1.790164589881897,-0.05710165575146675,0.0,0.0,0.0,0.0,0.0,0.0,0.0,-0.36786679893960184,-0.01499824436248848,-0.2273544310591064,0.36225920267171896,0.20523866414775213,-0.12268109657775836,-0.09864072883448474,1.0544340881399192,0.3240053733648289,-0.3925875862146679,-2.153181794425628,0.8647448076603581,2.465991669376691,0.5444832709731136,1.0544104758940245,0.3238615046091247,-0.39250456234122666,-2.153291787532338,0.8647539153680389,2.46587817577521,0.5445020185570556,0.0015969934204239638,-0.00042798145057769985,-0.0003418052126012261,7.423653758503241e-05,-2.2641583119534948e-06,-0.0002051832427678189,-0.0020956983895823616,0.0,0.0,0.0,0.0,0.0,0.0,0.0,-2.361224589475519e-05,-0.00014386875570415736,8.302387344122364e-05,-0.0001099931067098936,9.107707680811039e-06,-0.00011349360148082965,1.8747583942047008e-05,-0.0015969934204239638,0.00042798145057769985,0.0003418052126012261,-7.423653758503241e-05,2.2641583119534948e-06,0.0002051832427678189,0.0020956983895823616,0.4267818331718445,34.06295394897461,3.7752349376678467,-19.388460159301758,-0.2603049874305725,-1.790164589881897,0.05710165575146675,0
80,0.4000568389892578,-0.4267818331718445,-34.06295394897461,-3.7752349376678467,19.388460159301758,0.2603049874305725,1.790164589881897,-0.05710165575146675,0.0,0.0,0.0,0.0,0.0,0.0,0.0,-0.36786679893960184,-0.01499824436248848,-0.2273544310591064,0.36225920267171896,0.20523866414775213,-0.12268109657775836,-0.09864072883448474,1.0544340881399192,0.3240053733648289,-0.3925875862146679,-2.153181794425628,0.8647448076603581,2.465991669376691,0.5444832709731136,1.0544104758940245,0.3238615046091247,-0.39250456234122666,-2.153291787532338,0.8647539153680389,2.46587817577521,0.5445020185570556,0.0015969934204239638,-0.00042798145057769985,-0.0003418052126012261,7.423653758503241e-05,-2.2641583119534948e-06,-0.0002051832427678189,-0.0020956983895823616,0.0,0.0,0.0,0.0,0.0,0.0,0.0,-2.361224589475519e-05,-0.00014386875570415736,8.302387344122364e-05,-0.0001099931067098936,9.107707680811039e-06,-0.00011349360148082965,1.8747583942047008e-05,-0.0015969934204239638,0.00042798145057769985,0.0003418052126012261,-7.423653758503241e-05,2.2641583119534948e-06,0.0002051832427678189,0.0020956983895823616,0.4267818331718445,34.06295394897461,3.7752349376678467,-19.388460159301758,-0.2603049874305725,-1.790164589881897,0.05710165575146675,0
