rezayati/contactInterpretation/dataset/franka_main/labeled_data/link5/c5_4.csv
index,time,tau_J0,tau_J1,tau_J2,tau_J3,tau_J4,tau_J5,tau_J6,tau_J_d0,tau_J_d1,tau_J_d2,tau_J_d3,tau_J_d4,tau_J_d5,tau_J_d6,tau_ext0,tau_ext1,tau_ext2,tau_ext3,tau_ext4,tau_ext5,tau_ext6,q0,q1,q2,q3,q4,q5,q6,q_d0,q_d1,q_d2,q_d3,q_d4,q_d5,q_d6,dq0,dq1,dq2,dq3,dq4,dq5,dq6,dq_d0,dq_d1,dq_d2,dq_d3,dq_d4,dq_d5,dq_d6,e0,e1,e2,e3,e4,e5,e6,de0,de1,de2,de3,de4,de5,de6,etau_J0,etau_J1,etau_J2,etau_J3,etau_J4,etau_J5,etau_J6,label
1,0.0,-0.2720577120780945,-19.768823623657227,-0.4228789508342743,20.181917190551758,0.6658836007118225,2.4694857597351074,-0.20724813640117645,0.0,0.0,0.0,0.0,0.0,0.0,0.0,-0.2905668760178023,-0.03621953659538297,-0.2147374052293567,0.36743068606590884,0.0935451676441747,0.09731326005222792,-0.24182539371165018,1.2134618941984678,-0.2201805907696146,-0.007576312816456743,-2.6039140909802683,-0.10888596159227985,2.4681835499519083,0.8264731118236974,1.2134413937687574,-0.2202432315892585,-0.0075118285948192216,-2.6038483821997875,-0.10888392708698907,2.4681821257803174,0.826474908251239,-0.00044828942545674735,-0.0005983095175208711,8.892985692977326e-05,-0.0009876130714311486,0.0004236435384950686,-4.507142213341191e-05,-0.0016287506683331115,0.0,0.0,0.0,0.0,0.0,0.0,0.0,-2.0500429710468282e-05,-6.264081964388324e-05,6.448422163752177e-05,6.570878048073325e-05,2.0345052907794203e-06,-1.4241715908802632e-06,1.7964275416115782e-06,0.00044828942545674735,0.0005983095175208711,-8.892985692977326e-05,0.0009876130714311486,-0.0004236435384950686,4.507142213341191e-05,0.0016287506683331115,0.2720577120780945,19.768823623657227,0.4228789508342743,-20.181917190551758,-0.6658836007118225,-2.4694857597351074,0.20724813640117645,0
2,0.004998445510864258,-0.2720577120780945,-19.768823623657227,-0.4228789508342743,20.181917190551758,0.6658836007118225,2.4694857597351074,-0.20724813640117645,0.0,0.0,0.0,0.0,0.0,0.0,0.0,-0.2905668760178023,-0.03621953659538297,-0.2147374052293567,0.36743068606590884,0.0935451676441747,0.09731326005222792,-0.24182539371165018,1.2134618941984678,-0.2201805907696146,-0.007576312816456743,-2.6039140909802683,-0.10888596159227985,2.4681835499519083,0.8264731118236974,1.2134413937687574,-0.2202432315892585,-0.0075118285948192216,-2.6038483821997875,-0.10888392708698907,2.4681821257803174,0.826474908251239,-0.00044828942545674735,-0.0005983095175208711,8.892985692977326e-05,-0.0009876130714311486,0.0004236435384950686,-4.507142213341191e-05,-0.0016287506683331115,0.0,0.0,0.0,0.0,0.0,0.0,0.0,-2.0500429710468282e-05,-6.264081964388324e-05,6.448422163752177e-05,6.570878048073325e-05,2.0345052907794203e-06,-1.4241715908802632e-06,1.7964275416115782e-06,0.00044828942545674735,0.0005983095175208711,-8.892985692977326e-05,0.0009876130714311486,-0.0004236435384950686,4.507142213341191e-05,0.0016287506683331115,0.2720577120780945,19.768823623657227,0.4228789508342743,-20.181917190551758,-0.6658836007118225,-2.4694857597351074,0.20724813640117645,0
3,0.00999760627746582,-0.2998287081718445,-19.768823623657227,-0.3990752398967743,20.154146194458008,0.6777854561805725,2.4758944511413574,-0.27591270208358765,0.0,0.0,0.0,0.0,0.0,0.0,0.0,-0.2915507493178887,-0.03643588968746831,-0.21839923663259517,0.36694061238363274,0.0936469070980359,0.09755522847684303,-0.2424678071182529,1.213463762586293,-0.22018122399511808,-0.007577983252312007,-2.6039121421345492,-0.10888728402058283,2.468182842217791,0.8264803750801635,1.2134413937687574,-0.2202432315892585,-0.0075118285948192216,-2.6038483821997875,-0.10888392708698907,2.4681821257803174,0.826474908251239,8.854813041135535e-05,-0.00025137155584754384,-0.0005958504542555594,8.120187019222573e-05,3.624390340904718e-05,-9.533360595812881e-05,0.0013002744766473688,0.0,0.0,0.0,0.0,0.0,0.0,0.0,-2.2368817535589613e-05,-6.200759414040635e-05,6.61546574927856e-05,6.375993476170905e-05,3.3569335937538858e-06,-7.164374737911317e-07,-5.466828924438616e-06,-8.854813041135535e-05,0.00025137155584754384,0.0005958504542555594,-8.120187019222573e-05,-3.624390340904718e-05,9.533360595812881e-05,-0.0013002744766473688,0.2998287081718445,19.768823623657227,0.3990752398967743,-20.154146194458008,-0.6777854561805725,-2.4758944511413574,0.27591270208358765,0
4,0.014995098114013672,-0.2998287081718445,-19.768823623657227,-0.3990752398967743,20.154146194458008,0.6777854561805725,2.4758944511413574,-0.27591270208358765,0.0,0.0,0.0,0.0,0.0,0.0,0.0,-0.2915507493178887,-0.03643588968746831,-0.21839923663259517,0.36694061238363274,0.0936469070980359,0.09755522847684303,-0.2424678071182529,1.213463762586293,-0.22018122399511808,-0.007577983252312007,-2.6039121421345492,-0.10888728402058283,2.468182842217791,0.8264803750801635,1.2134413937687574,-0.2202432315892585,-0.0075118285948192216,-2.6038483821997875,-0.10888392708698907,2.4681821257803174,0.826474908251239,8.854813041135535e-05,-0.00025137155584754384,-0.0005958504542555594,8.120187019222573e-05,3.624390340904718e-05,-9.533360595812881e-05,0.0013002744766473688,0.0,0.0,0.0,0.0,0.0,0.0,0.0,-2.2368817535589613e-05,-6.200759414040635e-05,6.61546574927856e-05,6.375993476170905e-05,3.3569335937538858e-06,-7.164374737911317e-07,-5.466828924438616e-06,-8.854813041135535e-05,0.00025137155584754384,0.0005958504542555594,-8.120187019222573e-05,-3.624390340904718e-05,9.533360595812881e-05,-0.0013002744766473688,0.2998287081718445,19.768823623657227,0.3990752398967743,-20.154146194458008,-0.6777854561805725,-2.4758944511413574,0.27591270208358765,0
5,0.019995689392089844,-0.3514034152030945,-19.745019912719727,-0.4228789508342743,20.154146194458008,0.6832786202430725,2.4758944511413574,-0.22830526530742645,0.0,0.0,0.0,0.0,0.0,0.0,0.0,-0.2904372730442535,-0.03691288361382343,-0.21812517034537277,0.36504009422202266,0.09386070773295281,0.0980400184581122,-0.24283689822690277,1.213467435826578,-0.22018297227350947,-0.007576312816456743,-2.6039121421345492,-0.10889108818769455,2.468182837857165,0.8264722687055337,1.2134413937687574,-0.2202432315892585,-0.0075118285948192216,-2.6038483821997875,-0.10888392708698907,2.4681821257803174,0.826474908251239,0.0014567226456525075,-0.0007060286569576292,-2.214582772586943e-05,-0.0002860434745914423,-0.0003047671011171486,-0.0002010698963834424,-0.0005073568327446993,0.0,0.0,0.0,0.0,0.0,0.0,0.0,-2.6042057820641062e-05,-6.025931574901722e-05,6.448422163752177e-05,6.375993476170905e-05,7.1611007054772635e-06,-7.12076847708687e-07,2.639545705340751e-06,-0.0014567226456525075,0.0007060286569576292,2.214582772586943e-05,0.0002860434745914423,0.0003047671011171486,0.0002010698963834424,0.0005073568327446993,0.3514034152030945,19.745019912719727,0.4228789508342743,-20.154146194458008,-0.6832786202430725,-2.4758944511413574,0.22830526530742645,0
6,0.025000810623168945,-0.3514034152030945,-19.745019912719727,-0.4228789508342743,20.154146194458008,0.6832786202430725,2.4758944511413574,-0.22830526530742645,0.0,0.0,0.0,0.0,0.0,0.0,0.0,-0.2904372730442535,-0.03691288361382343,-0.21812517034537277,0.36504009422202266,0.09386070773295281,0.0980400184581122,-0.24283689822690277,1.213467435826578,-0.22018297227350947,-0.007576312816456743,-2.6039121421345492,-0.10889108818769455,2.468182837857165,0.8264722687055337,1.2134413937687574,-0.2202432315892585,-0.0075118285948192216,-2.6038483821997875,-0.10888392708698907,2.4681821257803174,0.826474908251239,0.0014567226456525075,-0.0007060286569576292,-2.214582772586943e-05,-0.0002860434745914423,-0.0003047671011171486,-0.0002010698963834424,-0.0005073568327446993,0.0,0.0,0.0,0.0,0.0,0.0,0.0,-2.6042057820641062e-05,-6.025931574901722e-05,6.448422163752177e-05,6.375993476170905e-05,7.1611007054772635e-06,-7.12076847708687e-07,2.639545705340751e-06,-0.0014567226456525075,0.0007060286569576292,2.214582772586943e-05,0.0002860434745914423,0.0003047671011171486,0.0002010698963834424,0.0005073568327446993,0.3514034152030945,19.745019912719727,0.4228789508342743,-20.154146194458008,-0.6832786202430725,-2.4758944511413574,0.22830526530742645,0
7,0.030004501342773438,-0.3514034152030945,-19.745019912719727,-0.3990752398967743,20.154146194458008,0.6713767647743225,2.4630770683288574,-0.23471395671367645,0.0,0.0,0.0,0.0,0.0,0.0,0.0,-0.2926454714826529,-0.0423218832865939,-0.22188655780710065,0.37154013894636645,0.09363115356527468,0.0991752232580103,-0.24254490410128587,1.2134674622088195,-0.22018506249602615,-0.007577983252312007,-2.6039121421345492,-0.1088865719617891,2.468184262549138,0.8264736867073593,1.2134413937687574,-0.2202432315892585,-0.0075118285948192216,-2.6038483821997875,-0.10888392708698907,2.4681821257803174,0.826474908251239,0.0010648331027596134,-0.0009645373164769892,-0.0009142540445738901,8.462461861716293e-05,0.0003859625837997868,0.0001929820466789731,9.422178443125867e-05,0.0,0.0,0.0,0.0,0.0,0.0,0.0,-2.6068440062143594e-05,-5.816909323233532e-05,6.61546574927856e-05,6.375993476170905e-05,2.6448748000201805e-06,-2.1367688205486957e-06,1.221543879714737e-06,-0.0010648331027596134,0.0009645373164769892,0.0009142540445738901,-8.462461861716293e-05,-0.0003859625837997868,-0.0001929820466789731,-9.422178443125867e-05,0.3514034152030945,19.745019912719727,0.3990752398967743,-20.154146194458008,-0.6713767647743225,-2.4630770683288574,0.23471395671367645,0
8,0.034998416900634766,-0.3514034152030945,-19.745019912719727,-0.3990752398967743,20.154146194458008,0.6713767647743225,2.4630770683288574,-0.23471395671367645,0.0,0.0,0.0,0.0,0.0,0.0,0.0,-0.2926454714826529,-0.0423218832865939,-0.22188655780710065,0.37154013894636645,0.09363115356527468,0.0991752232580103,-0.24254490410128587,1.2134674622088195,-0.22018506249602615,-0.007577983252312007,-2.6039121421345492,-0.1088865719617891,2.468184262549138,0.8264736867073593,1.2134413937687574,-0.2202432315892585,-0.0075118285948192216,-2.6038483821997875,-0.10888392708698907,2.4681821257803174,0.826474908251239,0.0010648331027596134,-0.0009645373164769892,-0.0009142540445738901,8.462461861716293e-05,0.0003859625837997868,0.0001929820466789731,9.422178443125867e-05,0.0,0.0,0.0,0.0,0.0,0.0,0.0,-2.6068440062143594e-05,-5.816909323233532e-05,6.61546574927856e-05,6.375993476170905e-05,2.6448748000201805e-06,-2.1367688205486957e-06,1.221543879714737e-06,-0.0010648331027596134,0.0009645373164769892,0.0009142540445738901,-8.462461861716293e-05,-0.0003859625837997868,-0.0001929820466789731,-9.422178443125867e-05,0.3514034152030945,19.745019912719727,0.3990752398967743,-20.154146194458008,-0.6713767647743225,-2.4630770683288574,0.23471395671367645,0
9,0.03995251655578613,-0.3514034152030945,-19.745019912719727,-0.3990752398967743,20.154146194458008,0.6713767647743225,2.4630770683288574,-0.23471395671367645,0.0,0.0,0.0,0.0,0.0,0.0,0.0,-0.2926454714826529,-0.0423218832865939,-0.22188655780710065,0.37154013894636645,0.09363115356527468,0.0991752232580103,-0.24254490410128587,1.2134674622088195,-0.22018506249602615,-0.007577983252312007,-2.6039121421345492,-0.1088865719617891,2.468184262549138,0.8264736867073593,1.2134413937687574,-0.2202432315892585,-0.0075118285948192216,-2.6038483821997875,-0.10888392708698907,2.4681821257803174,0.826474908251239,0.0010648331027596134,-0.0009645373164769892,-0.0009142540445738901,8.462461861716293e-05,0.0003859625837997868,0.0001929820466789731,9.422178443125867e-05,0.0,0.0,0.0,0.0,0.0,0.0,0.0,-2.6068440062143594e-05,-5.816909323233532e-05,6.61546574927856e-05,6.375993476170905e-05,2.6448748000201805e-06,-2.1367688205486957e-06,1.221543879714737e-06,-0.0010648331027596134,0.0009645373164769892,0.0009142540445738901,-8.462461861716293e-05,-0.0003859625837997868,-0.0001929820466789731,-9.422178443125867e-05,0.3514034152030945,19.745019912719727,0.3990752398967743,-20.154146194458008,-0.6713767647743225,-2.4630770683288574,0.23471395671367645,0
10,0.04499483108520508,-0.3514034152030945,-19.745019912719727,-0.3990752398967743,20.154146194458008,0.6713767647743225,2.4630770683288574,-0.23471395671367645,0.0,0.0,0.0,0.0,0.0,0.0,0.0,-0.2926454714826529,-0.0423218832865939,-0.22188655780710065,0.37154013894636645,0.09363115356527468,0.0991752232580103,-0.24254490410128587,1.2134674622088195,-0.22018506249602615,-0.007577983252312007,-2.6039121421345492,-0.1088865719617891,2.468184262549138,0.8264736867073593,1.2134413937687574,-0.2202432315892585,-0.0075118285948192216,-2.6038483821997875,-0.10888392708698907,2.4681821257803174,0.826474908251239,0.0010648331027596134,-0.0009645373164769892,-0.0009142540445738901,8.462461861716293e-05,0.0003859625837997868,0.0001929820466789731,9.422178443125867e-05,0.0,0.0,0.0,0.0,0.0,0.0,0.0,-2.6068440062143594e-05,-5.816909323233532e-05,6.61546574927856e-05,6.375993476170905e-05,2.6448748000201805e-06,-2.1367688205486957e-06,1.221543879714737e-06,-0.0010648331027596134,0.0009645373164769892,0.0009142540445738901,-8.462461861716293e-05,-0.0003859625837997868,-0.0001929820466789731,-9.422178443125867e-05,0.3514034152030945,19.745019912719727,0.3990752398967743,-20.154146194458008,-0.6713767647743225,-2.4630770683288574,0.23471395671367645,0
11,0.04994606971740723,-0.2720577120780945,-19.768823623657227,-0.4466826617717743,20.154146194458008,0.6832786202430725,2.4566683769226074,-0.23471395671367645,0.0,0.0,0.0,0.0,0.0,0.0,0.0,-0.2898716214184135,-0.03308539191864038,-0.21829763528287313,0.36668709544106487,0.09342384067534013,0.09814278021589272,-0.2407255076675674,1.2134618941621285,-0.2201824453447492,-0.00757464238060148,-2.6039121421345492,-0.10888789437214544,2.468184974087612,0.8264727744201417,1.2134413937687574,-0.2202432315892585,-0.0075118285948192216,-2.6038483821997875,-0.10888392708698907,2.4681821257803174,0.826474908251239,-0.00024304147377106504,0.00021668839275135077,0.0004963404855182091,-0.00022818123330163863,-7.939330023372137e-05,0.0005685135724208132,-0.0006489737359113016,0.0,0.0,0.0,0.0,0.0,0.0,0.0,-2.050039337109233e-05,-6.078624450928105e-05,6.281378578225881e-05,6.375993476170905e-05,3.967285156364353e-06,-2.8483072944673893e-06,2.1338310973728625e-06,0.00024304147377106504,-0.00021668839275135077,-0.0004963404855182091,0.00022818123330163863,7.939330023372137e-05,-0.0005685135724208132,0.0006489737359113016,0.2720577120780945,19.768823623657227,0.4466826617717743,-20.154146194458008,-0.6832786202430725,-2.4566683769226074,0.23471395671367645,0
12,0.05502033233642578,-0.2720577120780945,-19.768823623657227,-0.4466826617717743,20.154146194458008,0.6832786202430725,2.4566683769226074,-0.23471395671367645,0.0,0.0,0.0,0.0,0.0,0.0,0.0,-0.2898716214184135,-0.03308539191864038,-0.21829763528287313,0.36668709544106487,0.09342384067534013,0.09814278021589272,-0.2407255076675674,1.2134618941621285,-0.2201824453447492,-0.00757464238060148,-2.6039121421345492,-0.10888789437214544,2.468184974087612,0.8264727744201417,1.2134413937687574,-0.2202432315892585,-0.0075118285948192216,-2.6038483821997875,-0.10888392708698907,2.4681821257803174,0.826474908251239,-0.00024304147377106504,0.00021668839275135077,0.0004963404855182091,-0.00022818123330163863,-7.939330023372137e-05,0.0005685135724208132,-0.0006489737359113016,0.0,0.0,0.0,0.0,0.0,0.0,0.0,-2.050039337109233e-05,-6.078624450928105e-05,6.281378578225881e-05,6.375993476170905e-05,3.967285156364353e-06,-2.8483072944673893e-06,2.1338310973728625e-06,0.00024304147377106504,-0.00021668839275135077,-0.0004963404855182091,0.00022818123330163863,7.939330023372137e-05,-0.0005685135724208132,0.0006489737359113016,0.2720577120780945,19.768823623657227,0.4466826617717743,-20.154146194458008,-0.6832786202430725,-2.4566683769226074,0.23471395671367645,0
13,0.06000709533691406,-0.3236324191093445,-19.792627334594727,-0.3990752398967743,20.205720901489258,0.6832786202430725,2.4630770683288574,-0.22830526530742645,0.0,0.0,0.0,0.0,0.0,0.0,0.0,-0.2858831162903868,-0.06762487659668456,-0.21622412273864583,0.4174455828491468,0.09501372737834135,0.10608249800184784,-0.2414500372936583,1.213465513476154,-0.22018172459675348,-0.007577983252312007,-2.6039157614122357,-0.10888789453440798,2.4681842620107863,0.8264751361124224,1.2134413937687574,-0.2202432315892585,-0.0075118285948192216,-2.6038483821997875,-0.10888392708698907,2.4681821257803174,0.826474908251239,0.0009559460867396613,0.0003842648954184023,0.0004644204045452615,-0.0021028662455081747,-0.0002878568690390462,0.00027289745634225573,-0.0005931793608855111,0.0,0.0,0.0,0.0,0.0,0.0,0.0,-2.4119707396685897e-05,-6.150699250501157e-05,6.61546574927856e-05,6.73792124481487e-05,3.967447418901093e-06,-2.136230468963163e-06,-2.2786118336615147e-07,-0.0009559460867396613,-0.0003842648954184023,-0.0004644204045452615,0.0021028662455081747,0.0002878568690390462,-0.00027289745634225573,0.0005931793608855111,0.3236324191093445,19.792627334594727,0.3990752398967743,-20.205720901489258,-0.6832786202430725,-2.4630770683288574,0.22830526530742645,0
14,0.06499552726745605,-0.3236324191093445,-19.792627334594727,-0.3990752398967743,20.205720901489258,0.6832786202430725,2.4630770683288574,-0.22830526530742645,0.0,0.0,0.0,0.0,0.0,0.0,0.0,-0.2858831162903868,-0.06762487659668456,-0.21622412273864583,0.4174455828491468,0.09501372737834135,0.10608249800184784,-0.2414500372936583,1.213465513476154,-0.22018172459675348,-0.007577983252312007,-2.6039157614122357,-0.10888789453440798,2.4681842620107863,0.8264751361124224,1.2134413937687574,-0.2202432315892585,-0.0075118285948192216,-2.6038483821997875,-0.10888392708698907,2.4681821257803174,0.826474908251239,0.0009559460867396613,0.0003842648954184023,0.0004644204045452615,-0.0021028662455081747,-0.0002878568690390462,0.00027289745634225573,-0.0005931793608855111,0.0,0.0,0.0,0.0,0.0,0.0,0.0,-2.4119707396685897e-05,-6.150699250501157e-05,6.61546574927856e-05,6.73792124481487e-05,3.967447418901093e-06,-2.136230468963163e-06,-2.2786118336615147e-07,-0.0009559460867396613,-0.0003842648954184023,-0.0004644204045452615,0.0021028662455081747,0.0002878568690390462,-0.00027289745634225573,0.0005931793608855111,0.3236324191093445,19.792627334594727,0.3990752398967743,-20.205720901489258,-0.6832786202430725,-2.4630770683288574,0.22830526530742645,0
15,0.06999516487121582,-0.3236324191093445,-19.768823623657227,-0.3990752398967743,20.181917190551758,0.6832786202430725,2.4758944511413574,-0.23471395671367645,0.0,0.0,0.0,0.0,0.0,0.0,0.0,-0.28958106224135777,-0.03802425344883322,-0.2150348220250693,0.36791479290990997,0.09414446831966548,0.0984139931190427,-0.24210946627173685,1.213464798220417,-0.22018335857808444,-0.007577983252312007,-2.6039140909763803,-0.1088910883499581,2.46818389749527,0.8264731377660697,1.2134413937687574,-0.2202432315892585,-0.0075118285948192216,-2.6038483821997875,-0.10888392708698907,2.4681821257803174,0.826474908251239,0.0009898063415955901,-0.0005934607696258046,0.00016214040257080527,-0.0011627454186550902,-8.064157467668263e-05,-0.00020775035848308315,-0.0009095281106258573,0.0,0.0,0.0,0.0,0.0,0.0,0.0,-2.3404451659603254e-05,-5.987301117404975e-05,6.61546574927856e-05,6.570877659273222e-05,7.161262969027082e-06,-1.7717149525253717e-06,1.77048516936118e-06,-0.0009898063415955901,0.0005934607696258046,-0.00016214040257080527,0.0011627454186550902,8.064157467668263e-05,0.00020775035848308315,0.0009095281106258573,0.3236324191093445,19.768823623657227,0.3990752398967743,-20.181917190551758,-0.6832786202430725,-2.4758944511413574,0.23471395671367645,0
16,0.07499551773071289,-0.3236324191093445,-19.768823623657227,-0.3990752398967743,20.181917190551758,0.6832786202430725,2.4758944511413574,-0.23471395671367645,0.0,0.0,0.0,0.0,0.0,0.0,0.0,-0.28958106224135777,-0.03802425344883322,-0.2150348220250693,0.36791479290990997,0.09414446831966548,0.0984139931190427,-0.24210946627173685,1.213464798220417,-0.22018335857808444,-0.007577983252312007,-2.6039140909763803,-0.1088910883499581,2.46818389749527,0.8264731377660697,1.2134413937687574,-0.2202432315892585,-0.0075118285948192216,-2.6038483821997875,-0.10888392708698907,2.4681821257803174,0.826474908251239,0.0009898063415955901,-0.0005934607696258046,0.00016214040257080527,-0.0011627454186550902,-8.064157467668263e-05,-0.00020775035848308315,-0.0009095281106258573,0.0,0.0,0.0,0.0,0.0,0.0,0.0,-2.3404451659603254e-05,-5.987301117404975e-05,6.61546574927856e-05,6.570877659273222e-05,7.161262969027082e-06,-1.7717149525253717e-06,1.77048516936118e-06,-0.0009898063415955901,0.0005934607696258046,-0.00016214040257080527,0.0011627454186550902,8.064157467668263e-05,0.00020775035848308315,0.0009095281106258573,0.3236324191093445,19.768823623657227,0.3990752398967743,-20.181917190551758,-0.6832786202430725,-2.4758944511413574,0.23471395671367645,0
17,0.07999491691589355,-0.2998287081718445,-19.768823623657227,-0.4228789508342743,20.130342483520508,0.6832786202430725,2.4694857597351074,-0.28232139348983765,0.0,0.0,0.0,0.0,0.0,0.0,0.0,-0.28521858541130307,-0.03262091995606612,-0.2093183890464883,0.35681084503721483,0.0943189314074352,0.09704313586201276,-0.2440937746113599,1.2134638430362614,-0.220183395037764,-0.007576312816456743,-2.6039104716986943,-0.10888789444426297,2.468183549939945,0.82648120471597,1.2134413937687574,-0.2202432315892585,-0.0075118285948192216,-2.6038483821997875,-0.10888392708698907,2.4681821257803174,0.826474908251239,0.000448152695380034,-0.0006564419516994744,0.0008472293198023347,0.0002264603979109817,-8.790930012186401e-05,-7.982399346221181e-05,0.0011814532449331162,0.0,0.0,0.0,0.0,0.0,0.0,0.0,-2.2449267504054404e-05,-5.9836551494496515e-05,6.448422163752177e-05,6.208949890673665e-05,3.96735727389852e-06,-1.424159627561039e-06,-6.296464730937146e-06,-0.000448152695380034,0.0006564419516994744,-0.0008472293198023347,-0.0002264603979109817,8.790930012186401e-05,7.982399346221181e-05,-0.0011814532449331162,0.2998287081718445,19.768823623657227,0.4228789508342743,-20.130342483520508,-0.6832786202430725,-2.4694857597351074,0.28232139348983765,0
18,0.08499693870544434,-0.2998287081718445,-19.768823623657227,-0.4228789508342743,20.130342483520508,0.6832786202430725,2.4694857597351074,-0.28232139348983765,0.0,0.0,0.0,0.0,0.0,0.0,0.0,-0.28521858541130307,-0.03262091995606612,-0.2093183890464883,0.35681084503721483,0.0943189314074352,0.09704313586201276,-0.2440937746113599,1.2134638430362614,-0.220183395037764,-0.007576312816456743,-2.6039104716986943,-0.10888789444426297,2.468183549939945,0.82648120471597,1.2134413937687574,-0.2202432315892585,-0.0075118285948192216,-2.6038483821997875,-0.10888392708698907,2.4681821257803174,0.826474908251239,0.000448152695380034,-0.0006564419516994744,0.0008472293198023347,0.0002264603979109817,-8.790930012186401e-05,-7.982399346221181e-05,0.0011814532449331162,0.0,0.0,0.0,0.0,0.0,0.0,0.0,-2.2449267504054404e-05,-5.9836551494496515e-05,6.448422163752177e-05,6.208949890673665e-05,3.96735727389852e-06,-1.424159627561039e-06,-6.296464730937146e-06,-0.000448152695380034,0.0006564419516994744,-0.0008472293198023347,-0.0002264603979109817,8.790930012186401e-05,7.982399346221181e-05,-0.0011814532449331162,0.2998287081718445,19.768823623657227,0.4228789508342743,-20.130342483520508,-0.6832786202430725,-2.4694857597351074,0.28232139348983765,0
19,0.0900261402130127,-0.2720577120780945,-19.816431045532227,-0.3990752398967743,20.106538772583008,0.6777854561805725,2.4694857597351074,-0.22830526530742645,0.0,0.0,0.0,0.0,0.0,0.0,0.0,-0.2693189234245023,-0.03190317740744557,-0.18969394339819226,0.35495034620484783,0.09357459810625589,0.09655620528489609,-0.24518634521348717,1.2134618932173213,-0.2201801056007404,-0.007575852696702146,-2.603908801262839,-0.10888728402058323,2.4681839031466732,0.8264764968146868,1.2134413937687574,-0.2202432315892585,-0.0075118285948192216,-2.6038483821997875,-0.10888392708698907,2.4681821257803174,0.826474908251239,-0.0008047150469535451,0.0010791696656795948,-0.0038675396111714816,0.0008843916263569395,0.0001467941625308972,-3.1296590650242903e-06,-0.0007254598803537208,0.0,0.0,0.0,0.0,0.0,0.0,0.0,-2.04994485639709e-05,-6.312598851809792e-05,6.402410188292417e-05,6.0419063051320165e-05,3.3569335941563416e-06,-1.7773663558706687e-06,-1.5885634477852406e-06,0.0008047150469535451,-0.0010791696656795948,0.0038675396111714816,-0.0008843916263569395,-0.0001467941625308972,3.1296590650242903e-06,0.0007254598803537208,0.2720577120780945,19.816431045532227,0.3990752398967743,-20.106538772583008,-0.6777854561805725,-2.4694857597351074,0.22830526530742645,0
20,0.09494662284851074,-0.2720577120780945,-19.816431045532227,-0.3990752398967743,20.106538772583008,0.6777854561805725,2.4694857597351074,-0.22830526530742645,0.0,0.0,0.0,0.0,0.0,0.0,0.0,-0.2693189234245023,-0.03190317740744557,-0.18969394339819226,0.35495034620484783,0.09357459810625589,0.09655620528489609,-0.24518634521348717,1.2134618932173213,-0.2201801056007404,-0.007575852696702146,-2.603908801262839,-0.10888728402058323,2.4681839031466732,0.8264764968146868,1.2134413937687574,-0.2202432315892585,-0.0075118285948192216,-2.6038483821997875,-0.10888392708698907,2.4681821257803174,0.826474908251239,-0.0008047150469535451,0.0010791696656795948,-0.0038675396111714816,0.0008843916263569395,0.0001467941625308972,-3.1296590650242903e-06,-0.0007254598803537208,0.0,0.0,0.0,0.0,0.0,0.0,0.0,-2.04994485639709e-05,-6.312598851809792e-05,6.402410188292417e-05,6.0419063051320165e-05,3.3569335941563416e-06,-1.7773663558706687e-06,-1.5885634477852406e-06,0.0008047150469535451,-0.0010791696656795948,0.0038675396111714816,-0.0008843916263569395,-0.0001467941625308972,3.1296590650242903e-06,0.0007254598803537208,0.2720577120780945,19.816431045532227,0.3990752398967743,-20.106538772583008,-0.6777854561805725,-2.4694857597351074,0.22830526530742645,0
21,0.09999585151672363,-0.3236324191093445,-19.768823623657227,-0.4466826617717743,20.130342483520508,0.6832786202430725,2.4566683769226074,-0.20724813640117645,0.0,0.0,0.0,0.0,0.0,0.0,0.0,-0.2753201553501614,-0.03847925672278171,-0.19415590372160915,0.36146674756991665,0.09396688925930437,0.09738077058988033,-0.24432681865055086,1.2134632882360772,-0.22018241810865394,-0.007574642368574432,-2.6039104716986943,-0.10888801266161012,2.468185445039883,0.8264699334469978,1.2134413937687574,-0.2202432315892585,-0.0075118285948192216,-2.6038483821997875,-0.10888392708698907,2.4681821257803174,0.826474908251239,0.0005927725612768625,-0.0002644067838731693,0.0003291306469469368,0.0008203580337994591,-0.0001134757710297407,0.00037787539706992074,-0.0008828676382393183,0.0,0.0,0.0,0.0,0.0,0.0,0.0,-2.1894467319816258e-05,-6.081348060454905e-05,6.281377375521018e-05,6.208949890673665e-05,4.085574621046084e-06,-3.3192595654263357e-06,4.974804241220099e-06,-0.0005927725612768625,0.0002644067838731693,-0.0003291306469469368,-0.0008203580337994591,0.0001134757710297407,-0.00037787539706992074,0.0008828676382393183,0.3236324191093445,19.768823623657227,0.4466826617717743,-20.130342483520508,-0.6832786202430725,-2.4566683769226074,0.20724813640117645,0
22,0.1049966812133789,-0.3236324191093445,-19.768823623657227,-0.4466826617717743,20.130342483520508,0.6832786202430725,2.4566683769226074,-0.20724813640117645,0.0,0.0,0.0,0.0,0.0,0.0,0.0,-0.2753201553501614,-0.03847925672278171,-0.19415590372160915,0.36146674756991665,0.09396688925930437,0.09738077058988033,-0.24432681865055086,1.2134632882360772,-0.22018241810865394,-0.007574642368574432,-2.6039104716986943,-0.10888801266161012,2.468185445039883,0.8264699334469978,1.2134413937687574,-0.2202432315892585,-0.0075118285948192216,-2.6038483821997875,-0.10888392708698907,2.4681821257803174,0.826474908251239,0.0005927725612768625,-0.0002644067838731693,0.0003291306469469368,0.0008203580337994591,-0.0001134757710297407,0.00037787539706992074,-0.0008828676382393183,0.0,0.0,0.0,0.0,0.0,0.0,0.0,-2.1894467319816258e-05,-6.081348060454905e-05,6.281377375521018e-05,6.208949890673665e-05,4.085574621046084e-06,-3.3192595654263357e-06,4.974804241220099e-06,-0.0005927725612768625,0.0002644067838731693,-0.0003291306469469368,-0.0008203580337994591,0.0001134757710297407,-0.00037787539706992074,0.0008828676382393183,0.3236324191093445,19.768823623657227,0.4466826617717743,-20.130342483520508,-0.6832786202430725,-2.4566683769226074,0.20724813640117645,0
23,0.10999560356140137,-0.3514034152030945,-19.768823623657227,-0.4228789508342743,20.130342483520508,0.6832786202430725,2.4630770683288574,-0.24112264811992645,0.0,0.0,0.0,0.0,0.0,0.0,0.0,-0.29653436520171883,-0.03362249300278813,-0.2165883274941437,0.35975711506564145,0.09471019436797717,0.09649334835506622,-0.2433385192094456,1.213467462269085,-0.22018125525676374,-0.007576312816456676,-2.6039104716986943,-0.10888805209209947,2.4681842620134447,0.8264769933713962,1.2134413937687574,-0.2202432315892585,-0.0075118285948192216,-2.6038483821997875,-0.10888392708698907,2.4681821257803174,0.826474908251239,0.0015769730518583795,9.065514197944654e-05,-1.668404716139759e-05,-2.079452246635353e-05,-8.780423661155561e-05,0.0002570345626585385,-0.00042302923581854227,0.0,0.0,0.0,0.0,0.0,0.0,0.0,-2.6068500327713906e-05,-6.197633249474532e-05,6.448422163745412e-05,6.208949890673665e-05,4.125005110391933e-06,-2.136233127281173e-06,-2.0851201572025246e-06,-0.0015769730518583795,-9.065514197944654e-05,1.668404716139759e-05,2.079452246635353e-05,8.780423661155561e-05,-0.0002570345626585385,0.00042302923581854227,0.3514034152030945,19.768823623657227,0.4228789508342743,-20.130342483520508,-0.6832786202430725,-2.4630770683288574,0.24112264811992645,0
24,0.11499571800231934,-0.3514034152030945,-19.768823623657227,-0.4228789508342743,20.130342483520508,0.6832786202430725,2.4630770683288574,-0.24112264811992645,0.0,0.0,0.0,0.0,0.0,0.0,0.0,-0.29653436520171883,-0.03362249300278813,-0.2165883274941437,0.35975711506564145,0.09471019436797717,0.09649334835506622,-0.2433385192094456,1.213467462269085,-0.22018125525676374,-0.007576312816456676,-2.6039104716986943,-0.10888805209209947,2.4681842620134447,0.8264769933713962,1.2134413937687574,-0.2202432315892585,-0.0075118285948192216,-2.6038483821997875,-0.10888392708698907,2.4681821257803174,0.826474908251239,0.0015769730518583795,9.065514197944654e-05,-1.668404716139759e-05,-2.079452246635353e-05,-8.780423661155561e-05,0.0002570345626585385,-0.00042302923581854227,0.0,0.0,0.0,0.0,0.0,0.0,0.0,-2.6068500327713906e-05,-6.197633249474532e-05,6.448422163745412e-05,6.208949890673665e-05,4.125005110391933e-06,-2.136233127281173e-06,-2.0851201572025246e-06,-0.0015769730518583795,-9.065514197944654e-05,1.668404716139759e-05,2.079452246635353e-05,8.780423661155561e-05,-0.0002570345626585385,0.00042302923581854227,0.3514034152030945,19.768823623657227,0.4228789508342743,-20.130342483520508,-0.6832786202430725,-2.4630770683288574,0.24112264811992645,0
25,0.11999702453613281,-0.3514034152030945,-19.768823623657227,-0.4228789508342743,20.130342483520508,0.6832786202430725,2.4630770683288574,-0.24112264811992645,0.0,0.0,0.0,0.0,0.0,0.0,0.0,-0.29653436520171883,-0.03362249300278813,-0.2165883274941437,0.35975711506564145,0.09471019436797717,0.09649334835506622,-0.2433385192094456,1.213467462269085,-0.22018125525676374,-0.007576312816456676,-2.6039104716986943,-0.10888805209209947,2.4681842620134447,0.8264769933713962,1.2134413937687574,-0.2202432315892585,-0.0075118285948192216,-2.6038483821997875,-0.10888392708698907,2.4681821257803174,0.826474908251239,0.0015769730518583795,9.065514197944654e-05,-1.668404716139759e-05,-2.079452246635353e-05,-8.780423661155561e-05,0.0002570345626585385,-0.00042302923581854227,0.0,0.0,0.0,0.0,0.0,0.0,0.0,-2.6068500327713906e-05,-6.197633249474532e-05,6.448422163745412e-05,6.208949890673665e-05,4.125005110391933e-06,-2.136233127281173e-06,-2.0851201572025246e-06,-0.0015769730518583795,-9.065514197944654e-05,1.668404716139759e-05,2.079452246635353e-05,8.780423661155561e-05,-0.0002570345626585385,0.00042302923581854227,0.3514034152030945,19.768823623657227,0.4228789508342743,-20.130342483520508,-0.6832786202430725,-2.4630770683288574,0.24112264811992645,0
26,0.1250004768371582,-0.3514034152030945,-19.768823623657227,-0.4228789508342743,20.106538772583008,0.6713767647743225,2.4630770683288574,-0.24112264811992645,0.0,0.0,0.0,0.0,0.0,0.0,0.0,-0.303135561589342,-0.030464815673496886,-0.22438139375008534,0.36333955120567235,0.09569935789947563,0.09675534322698685,-0.2439876797281507,1.213466747025909,-0.2201827618247471,-0.007576076088055648,-2.603908801262839,-0.10888657194465025,2.4681842620107863,0.8264737303850413,1.2134413937687574,-0.2202432315892585,-0.0075118285948192216,-2.6038483821997875,-0.10888392708698907,2.4681821257803174,0.826474908251239,0.0009663380824039697,0.00039913999239286376,0.00011012962886694898,0.0010127124523574408,0.0003428249677026869,-5.984297657502808e-06,-0.00038430529890614337,0.0,0.0,0.0,0.0,0.0,0.0,0.0,-2.5353257151694564e-05,-6.046976451137831e-05,6.424749323642644e-05,6.0419063051320165e-05,2.6448576611742824e-06,-2.136230468963163e-06,1.1778661976880045e-06,-0.0009663380824039697,-0.00039913999239286376,-0.00011012962886694898,-0.0010127124523574408,-0.0003428249677026869,5.984297657502808e-06,0.00038430529890614337,0.3514034152030945,19.768823623657227,0.4228789508342743,-20.106538772583008,-0.6713767647743225,-2.4630770683288574,0.24112264811992645,0
27,0.13002324104309082,-0.3514034152030945,-19.768823623657227,-0.4228789508342743,20.106538772583008,0.6713767647743225,2.4630770683288574,-0.24112264811992645,0.0,0.0,0.0,0.0,0.0,0.0,0.0,-0.303135561589342,-0.030464815673496886,-0.22438139375008534,0.36333955120567235,0.09569935789947563,0.09675534322698685,-0.2439876797281507,1.213466747025909,-0.2201827618247471,-0.007576076088055648,-2.603908801262839,-0.10888657194465025,2.4681842620107863,0.8264737303850413,1.2134413937687574,-0.2202432315892585,-0.0075118285948192216,-2.6038483821997875,-0.10888392708698907,2.4681821257803174,0.826474908251239,0.0009663380824039697,0.00039913999239286376,0.00011012962886694898,0.0010127124523574408,0.0003428249677026869,-5.984297657502808e-06,-0.00038430529890614337,0.0,0.0,0.0,0.0,0.0,0.0,0.0,-2.5353257151694564e-05,-6.046976451137831e-05,6.424749323642644e-05,6.0419063051320165e-05,2.6448576611742824e-06,-2.136230468963163e-06,1.1778661976880045e-06,-0.0009663380824039697,-0.00039913999239286376,-0.00011012962886694898,-0.0010127124523574408,-0.0003428249677026869,5.984297657502808e-06,0.00038430529890614337,0.3514034152030945,19.768823623657227,0.4228789508342743,-20.106538772583008,-0.6713767647743225,-2.4630770683288574,0.24112264811992645,0
28,0.13503360748291016,-0.2720577120780945,-19.816431045532227,-0.4228789508342743,20.130342483520508,0.6896873116493225,2.4758944511413574,-0.26217979192733765,0.0,0.0,0.0,0.0,0.0,0.0,0.0,-0.2966622038015979,-0.039590135353989926,-0.21783215222380103,0.37070319889454273,0.09542552789406973,0.09746530376690023,-0.24322574416918522,1.2134611789386927,-0.22017799403448113,-0.007576312815120404,-2.6039104716986943,-0.10889180464560874,2.4681828509390926,0.8264760572903259,1.2134413937687574,-0.2202432315892585,-0.0075118285948192216,-2.6038483821997875,-0.10888392708698907,2.4681821257803174,0.826474908251239,-0.0004925715470046103,0.0008340472970660973,0.00031046358381391255,0.0006561497643381643,-0.0004587821026860761,-0.00039525626221436423,0.0008335207454359086,0.0,0.0,0.0,0.0,0.0,0.0,0.0,-1.9785169935282454e-05,-6.523755477735871e-05,6.448422030118275e-05,6.208949890673665e-05,7.877558619667768e-06,-7.251587752499233e-07,-1.1490390868784672e-06,0.0004925715470046103,-0.0008340472970660973,-0.00031046358381391255,-0.0006561497643381643,0.0004587821026860761,0.00039525626221436423,-0.0008335207454359086,0.2720577120780945,19.816431045532227,0.4228789508342743,-20.130342483520508,-0.6896873116493225,-2.4758944511413574,0.26217979192733765,0
29,0.13994169235229492,-0.2720577120780945,-19.816431045532227,-0.4228789508342743,20.130342483520508,0.6896873116493225,2.4758944511413574,-0.26217979192733765,0.0,0.0,0.0,0.0,0.0,0.0,0.0,-0.2966622038015979,-0.039590135353989926,-0.21783215222380103,0.37070319889454273,0.09542552789406973,0.09746530376690023,-0.24322574416918522,1.2134611789386927,-0.22017799403448113,-0.007576312815120404,-2.6039104716986943,-0.10889180464560874,2.4681828509390926,0.8264760572903259,1.2134413937687574,-0.2202432315892585,-0.0075118285948192216,-2.6038483821997875,-0.10888392708698907,2.4681821257803174,0.826474908251239,-0.0004925715470046103,0.0008340472970660973,0.00031046358381391255,0.0006561497643381643,-0.0004587821026860761,-0.00039525626221436423,0.0008335207454359086,0.0,0.0,0.0,0.0,0.0,0.0,0.0,-1.9785169935282454e-05,-6.523755477735871e-05,6.448422030118275e-05,6.208949890673665e-05,7.877558619667768e-06,-7.251587752499233e-07,-1.1490390868784672e-06,0.0004925715470046103,-0.0008340472970660973,-0.00031046358381391255,-0.0006561497643381643,0.0004587821026860761,0.00039525626221436423,-0.0008335207454359086,0.2720577120780945,19.816431045532227,0.4228789508342743,-20.130342483520508,-0.6896873116493225,-2.4758944511413574,0.26217979192733765,0
30,0.14500641822814941,-0.24825400114059448,-19.768823623657227,-0.4228789508342743,20.106538772583008,0.6832786202430725,2.4694857597351074,-0.26858848333358765,0.0,0.0,0.0,0.0,0.0,0.0,0.0,-0.29560095639999434,-0.03351866448434875,-0.2176321484091756,0.36638795273653024,0.09485380891262955,0.09659430985928515,-0.24285626750099654,1.2134602237504997,-0.22018320998997243,-0.007576312816456721,-2.603908801262839,-0.10888789442630707,2.4681835499341847,0.8264769041748401,1.2134413937687574,-0.2202432315892585,-0.0075118285948192216,-2.6038483821997875,-0.10888392708698907,2.4681821257803174,0.826474908251239,-0.0007380769652925967,-0.00032531525725025155,0.00021247765336092095,0.001108566648117887,-0.00010523488760789981,-2.6896545109908887e-05,0.0011061205579506147,0.0,0.0,0.0,0.0,0.0,0.0,0.0,-1.8829981742296553e-05,-6.002159928605866e-05,6.448422163749922e-05,6.0419063051320165e-05,3.9673393179978644e-06,-1.4241538672798981e-06,-1.995923601061378e-06,0.0007380769652925967,0.00032531525725025155,-0.00021247765336092095,-0.001108566648117887,0.00010523488760789981,2.6896545109908887e-05,-0.0011061205579506147,0.24825400114059448,19.768823623657227,0.4228789508342743,-20.106538772583008,-0.6832786202430725,-2.4694857597351074,0.26858848333358765,0
31,0.1499927043914795,-0.24825400114059448,-19.768823623657227,-0.4228789508342743,20.106538772583008,0.6832786202430725,2.4694857597351074,-0.26858848333358765,0.0,0.0,0.0,0.0,0.0,0.0,0.0,-0.29560095639999434,-0.03351866448434875,-0.2176321484091756,0.36638795273653024,0.09485380891262955,0.09659430985928515,-0.24285626750099654,1.2134602237504997,-0.22018320998997243,-0.007576312816456721,-2.603908801262839,-0.10888789442630707,2.4681835499341847,0.8264769041748401,1.2134413937687574,-0.2202432315892585,-0.0075118285948192216,-2.6038483821997875,-0.10888392708698907,2.4681821257803174,0.826474908251239,-0.0007380769652925967,-0.00032531525725025155,0.00021247765336092095,0.001108566648117887,-0.00010523488760789981,-2.6896545109908887e-05,0.0011061205579506147,0.0,0.0,0.0,0.0,0.0,0.0,0.0,-1.8829981742296553e-05,-6.002159928605866e-05,6.448422163749922e-05,6.0419063051320165e-05,3.9673393179978644e-06,-1.4241538672798981e-06,-1.995923601061378e-06,0.0007380769652925967,0.00032531525725025155,-0.00021247765336092095,-0.001108566648117887,0.00010523488760789981,2.6896545109908887e-05,-0.0011061205579506147,0.24825400114059448,19.768823623657227,0.4228789508342743,-20.106538772583008,-0.6832786202430725,-2.4694857597351074,0.26858848333358765,0
32,0.15502119064331055,-0.2998287081718445,-19.745019912719727,-0.3990752398967743,20.154146194458008,0.6832786202430725,2.4694857597351074,-0.22098104655742645,0.0,0.0,0.0,0.0,0.0,0.0,0.0,-0.29011887540155185,-0.03912131706341294,-0.2186096611074452,0.3666129720337953,0.09456647837884706,0.09682518178160442,-0.2423400249926043,1.213463842894944,-0.22018300858886097,-0.007577983252312007,-2.6039121421345492,-0.10888824924053979,2.4681836676715334,0.8264756799442932,1.2134413937687574,-0.2202432315892585,-0.0075118285948192216,-2.6038483821997875,-0.10888392708698907,2.4681821257803174,0.826474908251239,0.0007521400987808265,-0.0012635513711700822,-0.0005452448967472899,-0.0006038525426645569,-8.143313742270285e-05,3.5888215782715094e-05,-0.000862101501253996,0.0,0.0,0.0,0.0,0.0,0.0,0.0,-2.244912618665218e-05,-6.022300039751349e-05,6.61546574927856e-05,6.375993476170905e-05,4.322153550714858e-06,-1.541891216039204e-06,-7.716930541246114e-07,-0.0007521400987808265,0.0012635513711700822,0.0005452448967472899,0.0006038525426645569,8.143313742270285e-05,-3.5888215782715094e-05,0.000862101501253996,0.2998287081718445,19.745019912719727,0.3990752398967743,-20.154146194458008,-0.6832786202430725,-2.4694857597351074,0.22098104655742645,0
33,0.160020112991333,-0.2998287081718445,-19.745019912719727,-0.3990752398967743,20.154146194458008,0.6832786202430725,2.4694857597351074,-0.22098104655742645,0.0,0.0,0.0,0.0,0.0,0.0,0.0,-0.29011887540155185,-0.03912131706341294,-0.2186096611074452,0.3666129720337953,0.09456647837884706,0.09682518178160442,-0.2423400249926043,1.213463842894944,-0.22018300858886097,-0.007577983252312007,-2.6039121421345492,-0.10888824924053979,2.4681836676715334,0.8264756799442932,1.2134413937687574,-0.2202432315892585,-0.0075118285948192216,-2.6038483821997875,-0.10888392708698907,2.4681821257803174,0.826474908251239,0.0007521400987808265,-0.0012635513711700822,-0.0005452448967472899,-0.0006038525426645569,-8.143313742270285e-05,3.5888215782715094e-05,-0.000862101501253996,0.0,0.0,0.0,0.0,0.0,0.0,0.0,-2.244912618665218e-05,-6.022300039751349e-05,6.61546574927856e-05,6.375993476170905e-05,4.322153550714858e-06,-1.541891216039204e-06,-7.716930541246114e-07,-0.0007521400987808265,0.0012635513711700822,0.0005452448967472899,0.0006038525426645569,8.143313742270285e-05,-3.5888215782715094e-05,0.000862101501253996,0.2998287081718445,19.745019912719727,0.3990752398967743,-20.154146194458008,-0.6832786202430725,-2.4694857597351074,0.22098104655742645,0
34,0.16500520706176758,-0.2998287081718445,-19.768823623657227,-0.4228789508342743,20.106538772583008,0.6713767647743225,2.4823031425476074,-0.21457235515117645,0.0,0.0,0.0,0.0,0.0,0.0,0.0,-0.28818289807230285,-0.012338155401387078,-0.22033515194997072,0.3280831994233642,0.09406903453700532,0.0915090306471753,-0.24195767704313464,1.2134638155681987,-0.22018273534839358,-0.007576312816456743,-2.603908801262839,-0.10888661137558475,2.4681821650268385,0.8264749838096788,1.2134413937687574,-0.2202432315892585,-0.0075118285948192216,-2.6038483821997875,-0.10888392708698907,2.4681821257803174,0.826474908251239,0.00042461734728939593,2.7910391162284796e-05,0.0002359302150787033,0.003428150544922821,0.0003113468934341134,-0.0005163007457801873,-0.0009257693072203761,0.0,0.0,0.0,0.0,0.0,0.0,0.0,-2.242179944134115e-05,-6.049624086490457e-05,6.448422163752177e-05,6.0419063051320165e-05,2.6842885956779305e-06,-3.924652114406513e-08,-7.555843972717469e-08,-0.00042461734728939593,-2.7910391162284796e-05,-0.0002359302150787033,-0.003428150544922821,-0.0003113468934341134,0.0005163007457801873,0.0009257693072203761,0.2998287081718445,19.768823623657227,0.4228789508342743,-20.106538772583008,-0.6713767647743225,-2.4823031425476074,0.21457235515117645,0
35,0.17001104354858398,-0.2998287081718445,-19.768823623657227,-0.4228789508342743,20.106538772583008,0.6713767647743225,2.4823031425476074,-0.21457235515117645,0.0,0.0,0.0,0.0,0.0,0.0,0.0,-0.28818289807230285,-0.012338155401387078,-0.22033515194997072,0.3280831994233642,0.09406903453700532,0.0915090306471753,-0.24195767704313464,1.2134638155681987,-0.22018273534839358,-0.007576312816456743,-2.603908801262839,-0.10888661137558475,2.4681821650268385,0.8264749838096788,1.2134413937687574,-0.2202432315892585,-0.0075118285948192216,-2.6038483821997875,-0.10888392708698907,2.4681821257803174,0.826474908251239,0.00042461734728939593,2.7910391162284796e-05,0.0002359302150787033,0.003428150544922821,0.0003113468934341134,-0.0005163007457801873,-0.0009257693072203761,0.0,0.0,0.0,0.0,0.0,0.0,0.0,-2.242179944134115e-05,-6.049624086490457e-05,6.448422163752177e-05,6.0419063051320165e-05,2.6842885956779305e-06,-3.924652114406513e-08,-7.555843972717469e-08,-0.00042461734728939593,-2.7910391162284796e-05,-0.0002359302150787033,-0.003428150544922821,-0.0003113468934341134,0.0005163007457801873,0.0009257693072203761,0.2998287081718445,19.768823623657227,0.4228789508342743,-20.106538772583008,-0.6713767647743225,-2.4823031425476074,0.21457235515117645,0
36,0.1750330924987793,-0.2998287081718445,-19.768823623657227,-0.4228789508342743,20.106538772583008,0.6713767647743225,2.4823031425476074,-0.21457235515117645,0.0,0.0,0.0,0.0,0.0,0.0,0.0,-0.28818289807230285,-0.012338155401387078,-0.22033515194997072,0.3280831994233642,0.09406903453700532,0.0915090306471753,-0.24195767704313464,1.2134638155681987,-0.22018273534839358,-0.007576312816456743,-2.603908801262839,-0.10888661137558475,2.4681821650268385,0.8264749838096788,1.2134413937687574,-0.2202432315892585,-0.0075118285948192216,-2.6038483821997875,-0.10888392708698907,2.4681821257803174,0.826474908251239,0.00042461734728939593,2.7910391162284796e-05,0.0002359302150787033,0.003428150544922821,0.0003113468934341134,-0.0005163007457801873,-0.0009257693072203761,0.0,0.0,0.0,0.0,0.0,0.0,0.0,-2.242179944134115e-05,-6.049624086490457e-05,6.448422163752177e-05,6.0419063051320165e-05,2.6842885956779305e-06,-3.924652114406513e-08,-7.555843972717469e-08,-0.00042461734728939593,-2.7910391162284796e-05,-0.0002359302150787033,-0.003428150544922821,-0.0003113468934341134,0.0005163007457801873,0.0009257693072203761,0.2998287081718445,19.768823623657227,0.4228789508342743,-20.106538772583008,-0.6713767647743225,-2.4823031425476074,0.21457235515117645,0
37,0.18002080917358398,-0.2998287081718445,-19.768823623657227,-0.4228789508342743,20.106538772583008,0.6713767647743225,2.4823031425476074,-0.21457235515117645,0.0,0.0,0.0,0.0,0.0,0.0,0.0,-0.28818289807230285,-0.012338155401387078,-0.22033515194997072,0.3280831994233642,0.09406903453700532,0.0915090306471753,-0.24195767704313464,1.2134638155681987,-0.22018273534839358,-0.007576312816456743,-2.603908801262839,-0.10888661137558475,2.4681821650268385,0.8264749838096788,1.2134413937687574,-0.2202432315892585,-0.0075118285948192216,-2.6038483821997875,-0.10888392708698907,2.4681821257803174,0.826474908251239,0.00042461734728939593,2.7910391162284796e-05,0.0002359302150787033,0.003428150544922821,0.0003113468934341134,-0.0005163007457801873,-0.0009257693072203761,0.0,0.0,0.0,0.0,0.0,0.0,0.0,-2.242179944134115e-05,-6.049624086490457e-05,6.448422163752177e-05,6.0419063051320165e-05,2.6842885956779305e-06,-3.924652114406513e-08,-7.555843972717469e-08,-0.00042461734728939593,-2.7910391162284796e-05,-0.0002359302150787033,-0.003428150544922821,-0.0003113468934341134,0.0005163007457801873,0.0009257693072203761,0.2998287081718445,19.768823623657227,0.4228789508342743,-20.106538772583008,-0.6713767647743225,-2.4823031425476074,0.21457235515117645,0
38,0.18503284454345703,-0.24825400114059448,-19.792627334594727,-0.3990752398967743,20.082735061645508,0.6713767647743225,2.4630770683288574,-0.20724813640117645,0.0,0.0,0.0,0.0,0.0,0.0,0.0,-0.2832820398843273,-0.03098447181213526,-0.21428319772917223,0.35112049188938266,0.09407355155011521,0.09550884696929977,-0.24232781443347892,1.2134602237624577,-0.22018179447983746,-0.0075801138079218695,-2.6039071336614064,-0.10888692681237687,2.4681842620110075,0.8264707839354699,1.2134413937687574,-0.2202432315892585,-0.0075118285948192216,-2.6038483821997875,-0.10888392708698907,2.4681821257803174,0.826474908251239,-0.0006150125085805012,0.00010746246150711189,-0.00016952399245941447,0.001635864167184108,0.00017232673883803035,0.0004146116730986865,-0.001265770037170583,0.0,0.0,0.0,0.0,0.0,0.0,0.0,-1.8829993700286707e-05,-6.143710942102532e-05,6.82852131026479e-05,5.8751461618822276e-05,2.999725387795027e-06,-2.1362306901195893e-06,4.124315769127307e-06,0.0006150125085805012,-0.00010746246150711189,0.00016952399245941447,-0.001635864167184108,-0.00017232673883803035,-0.0004146116730986865,0.001265770037170583,0.24825400114059448,19.792627334594727,0.3990752398967743,-20.082735061645508,-0.6713767647743225,-2.4630770683288574,0.20724813640117645,0
39,0.19002032279968262,-0.24825400114059448,-19.792627334594727,-0.3990752398967743,20.082735061645508,0.6713767647743225,2.4630770683288574,-0.20724813640117645,0.0,0.0,0.0,0.0,0.0,0.0,0.0,-0.2832820398843273,-0.03098447181213526,-0.21428319772917223,0.35112049188938266,0.09407355155011521,0.09550884696929977,-0.24232781443347892,1.2134602237624577,-0.22018179447983746,-0.0075801138079218695,-2.6039071336614064,-0.10888692681237687,2.4681842620110075,0.8264707839354699,1.2134413937687574,-0.2202432315892585,-0.0075118285948192216,-2.6038483821997875,-0.10888392708698907,2.4681821257803174,0.826474908251239,-0.0006150125085805012,0.00010746246150711189,-0.00016952399245941447,0.001635864167184108,0.00017232673883803035,0.0004146116730986865,-0.001265770037170583,0.0,0.0,0.0,0.0,0.0,0.0,0.0,-1.8829993700286707e-05,-6.143710942102532e-05,6.82852131026479e-05,5.8751461618822276e-05,2.999725387795027e-06,-2.1362306901195893e-06,4.124315769127307e-06,0.0006150125085805012,-0.00010746246150711189,0.00016952399245941447,-0.001635864167184108,-0.00017232673883803035,-0.0004146116730986865,0.001265770037170583,0.24825400114059448,19.792627334594727,0.3990752398967743,-20.082735061645508,-0.6713767647743225,-2.4630770683288574,0.20724813640117645,0
40,0.19503450393676758,-0.2720577120780945,-19.768823623657227,-0.3990752398967743,20.154146194458008,0.6832786202430725,2.4823031425476074,-0.25485557317733765,0.0,0.0,0.0,0.0,0.0,0.0,0.0,-0.28432326175489886,-0.04219021168731805,-0.213817396105354,0.3731916249938336,0.09430759894061529,0.099496455822865,-0.2421307536404892,1.2134618941984678,-0.22018268197270996,-0.007577983264339056,-2.6039121421345652,-0.10888789437414857,2.4681821257803174,0.8264748568484913,1.2134413937687574,-0.2202432315892585,-0.0075118285948192216,-2.6038483821997875,-0.10888392708698907,2.4681821257803174,0.826474908251239,0.0001742190331599515,-0.0001853705818020701,2.327389801652401e-05,-0.00028405501838304375,-0.00011942317397595242,-0.0006899143891281802,0.0008158815857747012,0.0,0.0,0.0,0.0,0.0,0.0,0.0,-2.0500429710468282e-05,-6.054961654852753e-05,6.615466951983423e-05,6.375993477769626e-05,3.967287159498123e-06,0.0,5.140274772497122e-08,-0.0001742190331599515,0.0001853705818020701,-2.327389801652401e-05,0.00028405501838304375,0.00011942317397595242,0.0006899143891281802,-0.0008158815857747012,0.2720577120780945,19.768823623657227,0.3990752398967743,-20.154146194458008,-0.6832786202430725,-2.4823031425476074,0.25485557317733765,0
41,0.20003962516784668,-0.2720577120780945,-19.768823623657227,-0.3990752398967743,20.154146194458008,0.6832786202430725,2.4823031425476074,-0.25485557317733765,0.0,0.0,0.0,0.0,0.0,0.0,0.0,-0.28432326175489886,-0.04219021168731805,-0.213817396105354,0.3731916249938336,0.09430759894061529,0.099496455822865,-0.2421307536404892,1.2134618941984678,-0.22018268197270996,-0.007577983264339056,-2.6039121421345652,-0.10888789437414857,2.4681821257803174,0.8264748568484913,1.2134413937687574,-0.2202432315892585,-0.0075118285948192216,-2.6038483821997875,-0.10888392708698907,2.4681821257803174,0.826474908251239,0.0001742190331599515,-0.0001853705818020701,2.327389801652401e-05,-0.00028405501838304375,-0.00011942317397595242,-0.0006899143891281802,0.0008158815857747012,0.0,0.0,0.0,0.0,0.0,0.0,0.0,-2.0500429710468282e-05,-6.054961654852753e-05,6.615466951983423e-05,6.375993477769626e-05,3.967287159498123e-06,0.0,5.140274772497122e-08,-0.0001742190331599515,0.0001853705818020701,-2.327389801652401e-05,0.00028405501838304375,0.00011942317397595242,0.0006899143891281802,-0.0008158815857747012,0.2720577120780945,19.768823623657227,0.3990752398967743,-20.154146194458008,-0.6832786202430725,-2.4823031425476074,0.25485557317733765,0
42,0.2050154209136963,-0.2720577120780945,-19.745019912719727,-0.3990752398967743,20.106538772583008,0.6713767647743225,2.4758944511413574,-0.26217979192733765,0.0,0.0,0.0,0.0,0.0,0.0,0.0,-0.2848321756495173,-0.0424287687559924,-0.21620688520142092,0.37182610284999107,0.09461975502761023,0.09880870978122773,-0.24179730613197398,1.213459748431256,-0.22018410731269406,-0.007577983252312075,-2.603908801262839,-0.10888976721967289,2.4681828378571407,0.8264793727823471,1.2134413937687574,-0.2202432315892585,-0.0075118285948192216,-2.6038483821997875,-0.10888392708698907,2.4681821257803174,0.826474908251239,8.326009420909726e-05,-0.0008897663321609,-0.00040906301036985546,0.00016258249666975457,0.0002824528466874695,-0.00018826745206180655,0.00036115475074188026,0.0,0.0,0.0,0.0,0.0,0.0,0.0,-1.835466249855422e-05,-5.9124276564431755e-05,6.615465749285326e-05,6.0419063051320165e-05,5.8401326838153356e-06,-7.120768232837804e-07,-4.464531108028247e-06,-8.326009420909726e-05,0.0008897663321609,0.00040906301036985546,-0.00016258249666975457,-0.0002824528466874695,0.00018826745206180655,-0.00036115475074188026,0.2720577120780945,19.745019912719727,0.3990752398967743,-20.106538772583008,-0.6713767647743225,-2.4758944511413574,0.26217979192733765,0
43,0.21001601219177246,-0.2720577120780945,-19.745019912719727,-0.3990752398967743,20.106538772583008,0.6713767647743225,2.4758944511413574,-0.26217979192733765,0.0,0.0,0.0,0.0,0.0,0.0,0.0,-0.2848321756495173,-0.0424287687559924,-0.21620688520142092,0.37182610284999107,0.09461975502761023,0.09880870978122773,-0.24179730613197398,1.213459748431256,-0.22018410731269406,-0.007577983252312075,-2.603908801262839,-0.10888976721967289,2.4681828378571407,0.8264793727823471,1.2134413937687574,-0.2202432315892585,-0.0075118285948192216,-2.6038483821997875,-0.10888392708698907,2.4681821257803174,0.826474908251239,8.326009420909726e-05,-0.0008897663321609,-0.00040906301036985546,0.00016258249666975457,0.0002824528466874695,-0.00018826745206180655,0.00036115475074188026,0.0,0.0,0.0,0.0,0.0,0.0,0.0,-1.835466249855422e-05,-5.9124276564431755e-05,6.615465749285326e-05,6.0419063051320165e-05,5.8401326838153356e-06,-7.120768232837804e-07,-4.464531108028247e-06,-8.326009420909726e-05,0.0008897663321609,0.00040906301036985546,-0.00016258249666975457,-0.0002824528466874695,0.00018826745206180655,-0.00036115475074188026,0.2720577120780945,19.745019912719727,0.3990752398967743,-20.106538772583008,-0.6713767647743225,-2.4758944511413574,0.26217979192733765,0
44,0.21502184867858887,-0.3236324191093445,-19.768823623657227,-0.4466826617717743,20.106538772583008,0.6777854561805725,2.4630770683288574,-0.23471395671367645,0.0,0.0,0.0,0.0,0.0,0.0,0.0,-0.2871136415240484,-0.04354319986561813,-0.21930633407873568,0.37616537844316145,0.09484396582964968,0.10005746023106656,-0.2419243721704419,1.2134655133550252,-0.22018339112614468,-0.00757464238060148,-2.603908801262839,-0.10888728403862025,2.4681853216489156,0.8264741433563331,1.2134413937687574,-0.2202432315892585,-0.0075118285948192216,-2.6038483821997875,-0.10888392708698907,2.4681821257803174,0.826474908251239,0.00042838702494739904,3.797438996410506e-05,0.0009076044957309782,0.0011873212802485514,0.00019426065327463033,0.00026552705104112174,-0.00024882108094461,0.0,0.0,0.0,0.0,0.0,0.0,0.0,-2.4119586267801196e-05,-5.9840463113802755e-05,6.281378578225881e-05,6.0419063051320165e-05,3.3569516311726666e-06,-3.195868598204754e-06,7.648949059690935e-07,-0.00042838702494739904,-3.797438996410506e-05,-0.0009076044957309782,-0.0011873212802485514,-0.00019426065327463033,-0.00026552705104112174,0.00024882108094461,0.3236324191093445,19.768823623657227,0.4466826617717743,-20.106538772583008,-0.6777854561805725,-2.4630770683288574,0.23471395671367645,0
45,0.22002673149108887,-0.3236324191093445,-19.768823623657227,-0.4466826617717743,20.106538772583008,0.6777854561805725,2.4630770683288574,-0.23471395671367645,0.0,0.0,0.0,0.0,0.0,0.0,0.0,-0.2871136415240484,-0.04354319986561813,-0.21930633407873568,0.37616537844316145,0.09484396582964968,0.10005746023106656,-0.2419243721704419,1.2134655133550252,-0.22018339112614468,-0.00757464238060148,-2.603908801262839,-0.10888728403862025,2.4681853216489156,0.8264741433563331,1.2134413937687574,-0.2202432315892585,-0.0075118285948192216,-2.6038483821997875,-0.10888392708698907,2.4681821257803174,0.826474908251239,0.00042838702494739904,3.797438996410506e-05,0.0009076044957309782,0.0011873212802485514,0.00019426065327463033,0.00026552705104112174,-0.00024882108094461,0.0,0.0,0.0,0.0,0.0,0.0,0.0,-2.4119586267801196e-05,-5.9840463113802755e-05,6.281378578225881e-05,6.0419063051320165e-05,3.3569516311726666e-06,-3.195868598204754e-06,7.648949059690935e-07,-0.00042838702494739904,-3.797438996410506e-05,-0.0009076044957309782,-0.0011873212802485514,-0.00019426065327463033,-0.00026552705104112174,0.00024882108094461,0.3236324191093445,19.768823623657227,0.4466826617717743,-20.106538772583008,-0.6777854561805725,-2.4630770683288574,0.23471395671367645,0
46,0.22503185272216797,-0.2998287081718445,-19.768823623657227,-0.3990752398967743,20.130342483520508,0.6777854561805725,2.4630770683288574,-0.25485557317733765,0.0,0.0,0.0,0.0,0.0,0.0,0.0,-0.2834015166413901,-0.03664907416331874,-0.21313294863548735,0.36904470405964157,0.09451225938379369,0.09898702074513194,-0.24160472463006152,1.2134638430402984,-0.22018038890593344,-0.007577983252312007,-2.6039104716986943,-0.10889047783613214,2.4681842620167678,0.8264790905037427,1.2134413937687574,-0.2202432315892585,-0.0075118285948192216,-2.6038483821997875,-0.10888392708698907,2.4681821257803174,0.826474908251239,0.0003699731306674865,3.701667108792286e-05,-0.00015624711682068424,0.00023001500157122977,5.336258361223416e-05,0.00022096132400522195,0.0004803965491378066,0.0,0.0,0.0,0.0,0.0,0.0,0.0,-2.2449271541047366e-05,-6.284268332504284e-05,6.61546574927856e-05,6.208949890673665e-05,6.550749143061085e-06,-2.1362364504007303e-06,-4.182252503648343e-06,-0.0003699731306674865,-3.701667108792286e-05,0.00015624711682068424,-0.00023001500157122977,-5.336258361223416e-05,-0.00022096132400522195,-0.0004803965491378066,0.2998287081718445,19.768823623657227,0.3990752398967743,-20.130342483520508,-0.6777854561805725,-2.4630770683288574,0.25485557317733765,0
47,0.23003244400024414,-0.2998287081718445,-19.768823623657227,-0.3990752398967743,20.130342483520508,0.6777854561805725,2.4630770683288574,-0.25485557317733765,0.0,0.0,0.0,0.0,0.0,0.0,0.0,-0.2834015166413901,-0.03664907416331874,-0.21313294863548735,0.36904470405964157,0.09451225938379369,0.09898702074513194,-0.24160472463006152,1.2134638430402984,-0.22018038890593344,-0.007577983252312007,-2.6039104716986943,-0.10889047783613214,2.4681842620167678,0.8264790905037427,1.2134413937687574,-0.2202432315892585,-0.0075118285948192216,-2.6038483821997875,-0.10888392708698907,2.4681821257803174,0.826474908251239,0.0003699731306674865,3.701667108792286e-05,-0.00015624711682068424,0.00023001500157122977,5.336258361223416e-05,0.00022096132400522195,0.0004803965491378066,0.0,0.0,0.0,0.0,0.0,0.0,0.0,-2.2449271541047366e-05,-6.284268332504284e-05,6.61546574927856e-05,6.208949890673665e-05,6.550749143061085e-06,-2.1362364504007303e-06,-4.182252503648343e-06,-0.0003699731306674865,-3.701667108792286e-05,0.00015624711682068424,-0.00023001500157122977,-5.336258361223416e-05,-0.00022096132400522195,-0.0004803965491378066,0.2998287081718445,19.768823623657227,0.3990752398967743,-20.130342483520508,-0.6777854561805725,-2.4630770683288574,0.25485557317733765,0
48,0.23503470420837402,-0.2998287081718445,-19.768823623657227,-0.4228789508342743,20.130342483520508,0.6713767647743225,2.4758944511413574,-0.20724813640117645,0.0,0.0,0.0,0.0,0.0,0.0,0.0,-0.2883463754727958,-0.03532989765584534,-0.21761895015102392,0.36849877349889365,0.09443490810602731,0.0989847267065464,-0.24160279163270995,1.213463843040299,-0.2201826790617041,-0.007576315739029596,-2.6039104716986943,-0.10888657634288038,2.4681828378571407,0.8264706602201092,1.2134413937687574,-0.2202432315892585,-0.0075118285948192216,-2.6038483821997875,-0.10888392708698907,2.4681821257803174,0.826474908251239,0.00026114747239794594,-3.314163662014471e-05,-5.1161864465450695e-06,0.00041651282105802757,0.0004069167361101605,-0.00014951854433335385,-0.0017790628441116567,0.0,0.0,0.0,0.0,0.0,0.0,0.0,-2.24492715417135e-05,-6.0552527554380564e-05,6.448714421037477e-05,6.208949890673665e-05,2.649255891301605e-06,-7.120768232837804e-07,4.248031129860941e-06,-0.00026114747239794594,3.314163662014471e-05,5.1161864465450695e-06,-0.00041651282105802757,-0.0004069167361101605,0.00014951854433335385,0.0017790628441116567,0.2998287081718445,19.768823623657227,0.4228789508342743,-20.130342483520508,-0.6713767647743225,-2.4758944511413574,0.20724813640117645,0
49,0.2400352954864502,-0.2998287081718445,-19.768823623657227,-0.4228789508342743,20.130342483520508,0.6713767647743225,2.4758944511413574,-0.20724813640117645,0.0,0.0,0.0,0.0,0.0,0.0,0.0,-0.2883463754727958,-0.03532989765584534,-0.21761895015102392,0.36849877349889365,0.09443490810602731,0.0989847267065464,-0.24160279163270995,1.213463843040299,-0.2201826790617041,-0.007576315739029596,-2.6039104716986943,-0.10888657634288038,2.4681828378571407,0.8264706602201092,1.2134413937687574,-0.2202432315892585,-0.0075118285948192216,-2.6038483821997875,-0.10888392708698907,2.4681821257803174,0.826474908251239,0.00026114747239794594,-3.314163662014471e-05,-5.1161864465450695e-06,0.00041651282105802757,0.0004069167361101605,-0.00014951854433335385,-0.0017790628441116567,0.0,0.0,0.0,0.0,0.0,0.0,0.0,-2.24492715417135e-05,-6.0552527554380564e-05,6.448714421037477e-05,6.208949890673665e-05,2.649255891301605e-06,-7.120768232837804e-07,4.248031129860941e-06,-0.00026114747239794594,3.314163662014471e-05,5.1161864465450695e-06,-0.00041651282105802757,-0.0004069167361101605,0.00014951854433335385,0.0017790628441116567,0.2998287081718445,19.768823623657227,0.4228789508342743,-20.130342483520508,-0.6713767647743225,-2.4758944511413574,0.20724813640117645,0
50,0.24503254890441895,-0.2998287081718445,-19.792627334594727,-0.3990752398967743,20.154146194458008,0.6832786202430725,2.4694857597351074,-0.26217979192733765,0.0,0.0,0.0,0.0,0.0,0.0,0.0,-0.2838798443913172,-0.04103968853710015,-0.21417542587484473,0.3692740712125851,0.09437328279408982,0.09932450031273787,-0.243245269734204,1.2134616972730872,-0.2201814490872131,-0.007577983252328505,-2.6039121421345492,-0.10888805403860823,2.4681835499339635,0.8264803917272401,1.2134413937687574,-0.2202432315892585,-0.0075118285948192216,-2.6038483821997875,-0.10888392708698907,2.4681821257803174,0.826474908251239,0.0004691507642735527,-0.0002001787722801619,8.578419581356338e-06,-0.00014487738460291743,-0.00013653735613389196,1.212328039975911e-05,0.000758874881935083,0.0,0.0,0.0,0.0,0.0,0.0,0.0,-2.0303504329799438e-05,-6.178250204538771e-05,6.615465750928369e-05,6.375993476170905e-05,4.126951619151664e-06,-1.4241536461234716e-06,-5.483476001044707e-06,-0.0004691507642735527,0.0002001787722801619,-8.578419581356338e-06,0.00014487738460291743,0.00013653735613389196,-1.212328039975911e-05,-0.000758874881935083,0.2998287081718445,19.792627334594727,0.3990752398967743,-20.154146194458008,-0.6832786202430725,-2.4694857597351074,0.26217979192733765,0
51,0.2500431537628174,-0.2998287081718445,-19.792627334594727,-0.3990752398967743,20.154146194458008,0.6832786202430725,2.4694857597351074,-0.26217979192733765,0.0,0.0,0.0,0.0,0.0,0.0,0.0,-0.2838798443913172,-0.04103968853710015,-0.21417542587484473,0.3692740712125851,0.09437328279408982,0.09932450031273787,-0.243245269734204,1.2134616972730872,-0.2201814490872131,-0.007577983252328505,-2.6039121421345492,-0.10888805403860823,2.4681835499339635,0.8264803917272401,1.2134413937687574,-0.2202432315892585,-0.0075118285948192216,-2.6038483821997875,-0.10888392708698907,2.4681821257803174,0.826474908251239,0.0004691507642735527,-0.0002001787722801619,8.578419581356338e-06,-0.00014487738460291743,-0.00013653735613389196,1.212328039975911e-05,0.000758874881935083,0.0,0.0,0.0,0.0,0.0,0.0,0.0,-2.0303504329799438e-05,-6.178250204538771e-05,6.615465750928369e-05,6.375993476170905e-05,4.126951619151664e-06,-1.4241536461234716e-06,-5.483476001044707e-06,-0.0004691507642735527,0.0002001787722801619,-8.578419581356338e-06,0.00014487738460291743,0.00013653735613389196,-1.212328039975911e-05,-0.000758874881935083,0.2998287081718445,19.792627334594727,0.3990752398967743,-20.154146194458008,-0.6832786202430725,-2.4694857597351074,0.26217979192733765,0
52,0.2550361156463623,-0.2998287081718445,-19.792627334594727,-0.3713042438030243,20.130342483520508,0.6777854561805725,2.4758944511413574,-0.21457235515117645,0.0,0.0,0.0,0.0,0.0,0.0,0.0,-0.2921810497463202,-0.029918965854258295,-0.22078500936972684,0.36237401541453135,0.09451030422242386,0.09747983861269123,-0.2437798223674156,1.213463843028186,-0.22018177332225125,-0.007579932094143147,-2.6039104716986943,-0.10888728402148415,2.4681828509390926,0.8264703746026061,1.2134413937687574,-0.2202432315892585,-0.0075118285948192216,-2.6038483821997875,-0.10888392708698907,2.4681821257803174,0.826474908251239,0.0001417390161217318,0.0009600343234781251,-0.001073902871478071,5.654692939856229e-05,-4.276315253685101e-05,-0.00038718956586532917,-0.0011379998790139244,0.0,0.0,0.0,0.0,0.0,0.0,0.0,-2.2449259428736212e-05,-6.145826700723611e-05,6.810349932392587e-05,6.208949890673665e-05,3.3569344950745705e-06,-7.251587752499233e-07,4.533648632953913e-06,-0.0001417390161217318,-0.0009600343234781251,0.001073902871478071,-5.654692939856229e-05,4.276315253685101e-05,0.00038718956586532917,0.0011379998790139244,0.2998287081718445,19.792627334594727,0.3713042438030243,-20.130342483520508,-0.6777854561805725,-2.4758944511413574,0.21457235515117645,0
53,0.26003336906433105,-0.2998287081718445,-19.792627334594727,-0.3713042438030243,20.130342483520508,0.6777854561805725,2.4758944511413574,-0.21457235515117645,0.0,0.0,0.0,0.0,0.0,0.0,0.0,-0.2921810497463202,-0.029918965854258295,-0.22078500936972684,0.36237401541453135,0.09451030422242386,0.09747983861269123,-0.2437798223674156,1.213463843028186,-0.22018177332225125,-0.007579932094143147,-2.6039104716986943,-0.10888728402148415,2.4681828509390926,0.8264703746026061,1.2134413937687574,-0.2202432315892585,-0.0075118285948192216,-2.6038483821997875,-0.10888392708698907,2.4681821257803174,0.826474908251239,0.0001417390161217318,0.0009600343234781251,-0.001073902871478071,5.654692939856229e-05,-4.276315253685101e-05,-0.00038718956586532917,-0.0011379998790139244,0.0,0.0,0.0,0.0,0.0,0.0,0.0,-2.2449259428736212e-05,-6.145826700723611e-05,6.810349932392587e-05,6.208949890673665e-05,3.3569344950745705e-06,-7.251587752499233e-07,4.533648632953913e-06,-0.0001417390161217318,-0.0009600343234781251,0.001073902871478071,-5.654692939856229e-05,4.276315253685101e-05,0.00038718956586532917,0.0011379998790139244,0.2998287081718445,19.792627334594727,0.3713042438030243,-20.130342483520508,-0.6777854561805725,-2.4758944511413574,0.21457235515117645,0
54,0.26503443717956543,-0.2720577120780945,-19.792627334594727,-0.3990752398967743,20.130342483520508,0.6832786202430725,2.4823031425476074,-0.22830526530742645,0.0,0.0,0.0,0.0,0.0,0.0,0.0,-0.2907894688016168,-0.036766852383016316,-0.21601378772253282,0.36333978310822046,0.09392131984632575,0.09784386150438532,-0.24350625487798347,1.2134618941984678,-0.22018077194320304,-0.007577983252312007,-2.6039104716986943,-0.10888789437214534,2.46818213934686,0.8264752411978079,1.2134413937687574,-0.2202432315892585,-0.0075118285948192216,-2.6038483821997875,-0.10888392708698907,2.4681821257803174,0.826474908251239,-0.0004289966047357079,0.0006122963340200008,-0.0002850080034363238,-0.000287771248699547,-0.00022525962373962758,-0.0004075752911976971,-0.0004945816739140057,0.0,0.0,0.0,0.0,0.0,0.0,0.0,-2.0500429710468282e-05,-6.245964605544607e-05,6.61546574927856e-05,6.208949890673665e-05,3.9672851562672085e-06,-1.3566542556020522e-08,-3.329465688706179e-07,0.0004289966047357079,-0.0006122963340200008,0.0002850080034363238,0.000287771248699547,0.00022525962373962758,0.0004075752911976971,0.0004945816739140057,0.2720577120780945,19.792627334594727,0.3990752398967743,-20.130342483520508,-0.6832786202430725,-2.4823031425476074,0.22830526530742645,0
55,0.2700324058532715,-0.2720577120780945,-19.792627334594727,-0.3990752398967743,20.130342483520508,0.6832786202430725,2.4823031425476074,-0.22830526530742645,0.0,0.0,0.0,0.0,0.0,0.0,0.0,-0.2907894688016168,-0.036766852383016316,-0.21601378772253282,0.36333978310822046,0.09392131984632575,0.09784386150438532,-0.24350625487798347,1.2134618941984678,-0.22018077194320304,-0.007577983252312007,-2.6039104716986943,-0.10888789437214534,2.46818213934686,0.8264752411978079,1.2134413937687574,-0.2202432315892585,-0.0075118285948192216,-2.6038483821997875,-0.10888392708698907,2.4681821257803174,0.826474908251239,-0.0004289966047357079,0.0006122963340200008,-0.0002850080034363238,-0.000287771248699547,-0.00022525962373962758,-0.0004075752911976971,-0.0004945816739140057,0.0,0.0,0.0,0.0,0.0,0.0,0.0,-2.0500429710468282e-05,-6.245964605544607e-05,6.61546574927856e-05,6.208949890673665e-05,3.9672851562672085e-06,-1.3566542556020522e-08,-3.329465688706179e-07,0.0004289966047357079,-0.0006122963340200008,0.0002850080034363238,0.000287771248699547,0.00022525962373962758,0.0004075752911976971,0.0004945816739140057,0.2720577120780945,19.792627334594727,0.3990752398967743,-20.130342483520508,-0.6832786202430725,-2.4823031425476074,0.22830526530742645,0
56,0.27503204345703125,-0.2998287081718445,-19.792627334594727,-0.4228789508342743,20.130342483520508,0.6777854561805725,2.4694857597351074,-0.26217979192733765,0.0,0.0,0.0,0.0,0.0,0.0,0.0,-0.29035360676623456,-0.03689041659542922,-0.21490074070147056,0.36264417674125204,0.09356579837718801,0.09856395978765287,-0.24254357694328785,1.213463843040299,-0.22018076557153848,-0.007576312816456743,-2.6039104716986943,-0.1088874023100476,2.4681835504185567,0.8264792096805311,1.2134413937687574,-0.2202432315892585,-0.0075118285948192216,-2.6038483821997875,-0.10888392708698907,2.4681821257803174,0.826474908251239,1.5248121567569346e-05,0.00046914150527992544,-2.3803062602080492e-06,-0.0001768609491650344,2.0887437941182533e-05,4.832386326152641e-05,0.0005197035425564865,0.0,0.0,0.0,0.0,0.0,0.0,0.0,-2.24492715417135e-05,-6.246601772000315e-05,6.448422163752177e-05,6.208949890673665e-05,3.4752230585327615e-06,-1.4246382393778845e-06,-4.301429292086212e-06,-1.5248121567569346e-05,-0.00046914150527992544,2.3803062602080492e-06,0.0001768609491650344,-2.0887437941182533e-05,-4.832386326152641e-05,-0.0005197035425564865,0.2998287081718445,19.792627334594727,0.4228789508342743,-20.130342483520508,-0.6777854561805725,-2.4694857597351074,0.26217979192733765,0
57,0.28002405166625977,-0.2998287081718445,-19.792627334594727,-0.4228789508342743,20.130342483520508,0.6777854561805725,2.4694857597351074,-0.26217979192733765,0.0,0.0,0.0,0.0,0.0,0.0,0.0,-0.29035360676623456,-0.03689041659542922,-0.21490074070147056,0.36264417674125204,0.09356579837718801,0.09856395978765287,-0.24254357694328785,1.213463843040299,-0.22018076557153848,-0.007576312816456743,-2.6039104716986943,-0.1088874023100476,2.4681835504185567,0.8264792096805311,1.2134413937687574,-0.2202432315892585,-0.0075118285948192216,-2.6038483821997875,-0.10888392708698907,2.4681821257803174,0.826474908251239,1.5248121567569346e-05,0.00046914150527992544,-2.3803062602080492e-06,-0.0001768609491650344,2.0887437941182533e-05,4.832386326152641e-05,0.0005197035425564865,0.0,0.0,0.0,0.0,0.0,0.0,0.0,-2.24492715417135e-05,-6.246601772000315e-05,6.448422163752177e-05,6.208949890673665e-05,3.4752230585327615e-06,-1.4246382393778845e-06,-4.301429292086212e-06,-1.5248121567569346e-05,-0.00046914150527992544,2.3803062602080492e-06,0.0001768609491650344,-2.0887437941182533e-05,-4.832386326152641e-05,-0.0005197035425564865,0.2998287081718445,19.792627334594727,0.4228789508342743,-20.130342483520508,-0.6777854561805725,-2.4694857597351074,0.26217979192733765,0
58,0.2850346565246582,-0.2998287081718445,-19.768823623657227,-0.4228789508342743,20.181917190551758,0.6832786202430725,2.4823031425476074,-0.20724813640117645,0.0,0.0,0.0,0.0,0.0,0.0,0.0,-0.28996055210313004,-0.03365781401199175,-0.21495783848717515,0.3620394424339016,0.09300678093449728,0.09845731809452705,-0.2435056907102152,1.213463843040299,-0.2201824975216937,-0.007576312816456743,-2.6039140909763803,-0.10888789437414857,2.4681821257803254,0.8264710145456293,1.2134413937687574,-0.2202432315892585,-0.0075118285948192216,-2.6038483821997875,-0.10888392708698907,2.4681821257803174,0.826474908251239,5.876603202711983e-05,6.57319904269747e-05,0.00015614216876318727,-0.0008588793429743697,-0.000212046477034368,-0.000644467667732508,-0.001611304931650908,0.0,0.0,0.0,0.0,0.0,0.0,0.0,-2.24492715417135e-05,-6.0734067564793826e-05,6.448422163752177e-05,6.570877659273222e-05,3.967287159498123e-06,-7.993605777301127e-15,3.89370560971436e-06,-5.876603202711983e-05,-6.57319904269747e-05,-0.00015614216876318727,0.0008588793429743697,0.000212046477034368,0.000644467667732508,0.001611304931650908,0.2998287081718445,19.768823623657227,0.4228789508342743,-20.181917190551758,-0.6832786202430725,-2.4823031425476074,0.20724813640117645,0
59,0.2900390625,-0.2998287081718445,-19.768823623657227,-0.4228789508342743,20.181917190551758,0.6832786202430725,2.4823031425476074,-0.20724813640117645,0.0,0.0,0.0,0.0,0.0,0.0,0.0,-0.28996055210313004,-0.03365781401199175,-0.21495783848717515,0.3620394424339016,0.09300678093449728,0.09845731809452705,-0.2435056907102152,1.213463843040299,-0.2201824975216937,-0.007576312816456743,-2.6039140909763803,-0.10888789437414857,2.4681821257803254,0.8264710145456293,1.2134413937687574,-0.2202432315892585,-0.0075118285948192216,-2.6038483821997875,-0.10888392708698907,2.4681821257803174,0.826474908251239,5.876603202711983e-05,6.57319904269747e-05,0.00015614216876318727,-0.0008588793429743697,-0.000212046477034368,-0.000644467667732508,-0.001611304931650908,0.0,0.0,0.0,0.0,0.0,0.0,0.0,-2.24492715417135e-05,-6.0734067564793826e-05,6.448422163752177e-05,6.570877659273222e-05,3.967287159498123e-06,-7.993605777301127e-15,3.89370560971436e-06,-5.876603202711983e-05,-6.57319904269747e-05,-0.00015614216876318727,0.0008588793429743697,0.000212046477034368,0.000644467667732508,0.001611304931650908,0.2998287081718445,19.768823623657227,0.4228789508342743,-20.181917190551758,-0.6832786202430725,-2.4823031425476074,0.20724813640117645,0
60,0.29503369331359863,-0.2998287081718445,-19.768823623657227,-0.4228789508342743,20.181917190551758,0.6832786202430725,2.4823031425476074,-0.20724813640117645,0.0,0.0,0.0,0.0,0.0,0.0,0.0,-0.28996055210313004,-0.03365781401199175,-0.21495783848717515,0.3620394424339016,0.09300678093449728,0.09845731809452705,-0.2435056907102152,1.213463843040299,-0.2201824975216937,-0.007576312816456743,-2.6039140909763803,-0.10888789437414857,2.4681821257803254,0.8264710145456293,1.2134413937687574,-0.2202432315892585,-0.0075118285948192216,-2.6038483821997875,-0.10888392708698907,2.4681821257803174,0.826474908251239,5.876603202711983e-05,6.57319904269747e-05,0.00015614216876318727,-0.0008588793429743697,-0.000212046477034368,-0.000644467667732508,-0.001611304931650908,0.0,0.0,0.0,0.0,0.0,0.0,0.0,-2.24492715417135e-05,-6.0734067564793826e-05,6.448422163752177e-05,6.570877659273222e-05,3.967287159498123e-06,-7.993605777301127e-15,3.89370560971436e-06,-5.876603202711983e-05,-6.57319904269747e-05,-0.00015614216876318727,0.0008588793429743697,0.000212046477034368,0.000644467667732508,0.001611304931650908,0.2998287081718445,19.768823623657227,0.4228789508342743,-20.181917190551758,-0.6832786202430725,-2.4823031425476074,0.20724813640117645,0
61,0.300032377243042,-0.2998287081718445,-19.768823623657227,-0.4228789508342743,20.181917190551758,0.6832786202430725,2.4823031425476074,-0.20724813640117645,0.0,0.0,0.0,0.0,0.0,0.0,0.0,-0.28996055210313004,-0.03365781401199175,-0.21495783848717515,0.3620394424339016,0.09300678093449728,0.09845731809452705,-0.2435056907102152,1.213463843040299,-0.2201824975216937,-0.007576312816456743,-2.6039140909763803,-0.10888789437414857,2.4681821257803254,0.8264710145456293,1.2134413937687574,-0.2202432315892585,-0.0075118285948192216,-2.6038483821997875,-0.10888392708698907,2.4681821257803174,0.826474908251239,5.876603202711983e-05,6.57319904269747e-05,0.00015614216876318727,-0.0008588793429743697,-0.000212046477034368,-0.000644467667732508,-0.001611304931650908,0.0,0.0,0.0,0.0,0.0,0.0,0.0,-2.24492715417135e-05,-6.0734067564793826e-05,6.448422163752177e-05,6.570877659273222e-05,3.967287159498123e-06,-7.993605777301127e-15,3.89370560971436e-06,-5.876603202711983e-05,-6.57319904269747e-05,-0.00015614216876318727,0.0008588793429743697,0.000212046477034368,0.000644467667732508,0.001611304931650908,0.2998287081718445,19.768823623657227,0.4228789508342743,-20.181917190551758,-0.6832786202430725,-2.4823031425476074,0.20724813640117645,0
62,0.30503201484680176,-0.2998287081718445,-19.792627334594727,-0.3990752398967743,20.154146194458008,0.6832786202430725,2.4630770683288574,-0.24112264811992645,0.0,0.0,0.0,0.0,0.0,0.0,0.0,-0.2862216376239551,-0.03745054052996674,-0.21262486151385857,0.3629886264053806,0.09289847013358107,0.09812703866595486,-0.24456167798934556,1.213463843040299,-0.2201786352403399,-0.007577983252312007,-2.6039121146624495,-0.10888789877126581,2.4681842620107863,0.8264776083852877,1.2134413937687574,-0.2202432315892585,-0.0075118285948192216,-2.6038483821997875,-0.10888392708698907,2.4681821257803174,0.826474908251239,0.0005069393141418204,-7.222748613298669e-05,-9.067915835962712e-05,-0.00028617974221001346,-0.00025279171943227524,0.00021508836030912287,4.2966616043797566e-05,0.0,0.0,0.0,0.0,0.0,0.0,0.0,-2.24492715417135e-05,-6.459634891858856e-05,6.61546574927856e-05,6.373246266200283e-05,3.971684276737886e-06,-2.136230468963163e-06,-2.7001340486831893e-06,-0.0005069393141418204,7.222748613298669e-05,9.067915835962712e-05,0.00028617974221001346,0.00025279171943227524,-0.00021508836030912287,-4.2966616043797566e-05,0.2998287081718445,19.792627334594727,0.3990752398967743,-20.154146194458008,-0.6832786202430725,-2.4630770683288574,0.24112264811992645,0
63,0.3100259304046631,-0.2998287081718445,-19.792627334594727,-0.3990752398967743,20.154146194458008,0.6832786202430725,2.4630770683288574,-0.24112264811992645,0.0,0.0,0.0,0.0,0.0,0.0,0.0,-0.2862216376239551,-0.03745054052996674,-0.21262486151385857,0.3629886264053806,0.09289847013358107,0.09812703866595486,-0.24456167798934556,1.213463843040299,-0.2201786352403399,-0.007577983252312007,-2.6039121146624495,-0.10888789877126581,2.4681842620107863,0.8264776083852877,1.2134413937687574,-0.2202432315892585,-0.0075118285948192216,-2.6038483821997875,-0.10888392708698907,2.4681821257803174,0.826474908251239,0.0005069393141418204,-7.222748613298669e-05,-9.067915835962712e-05,-0.00028617974221001346,-0.00025279171943227524,0.00021508836030912287,4.2966616043797566e-05,0.0,0.0,0.0,0.0,0.0,0.0,0.0,-2.24492715417135e-05,-6.459634891858856e-05,6.61546574927856e-05,6.373246266200283e-05,3.971684276737886e-06,-2.136230468963163e-06,-2.7001340486831893e-06,-0.0005069393141418204,7.222748613298669e-05,9.067915835962712e-05,0.00028617974221001346,0.00025279171943227524,-0.00021508836030912287,-4.2966616043797566e-05,0.2998287081718445,19.792627334594727,0.3990752398967743,-20.154146194458008,-0.6832786202430725,-2.4630770683288574,0.24112264811992645,0
64,0.31502676010131836,-0.3514034152030945,-19.816431045532227,-0.4228789508342743,20.130342483520508,0.6777854561805725,2.4694857597351074,-0.21457235515117645,0.0,0.0,0.0,0.0,0.0,0.0,0.0,-0.29269774896800826,-0.03346951172852116,-0.2176848692686874,0.36051007662765194,0.09332684288594481,0.09703897004915729,-0.2442056218008913,1.2134674623179853,-0.2201798124573973,-0.007576312816456743,-2.603910471698539,-0.10888740669116373,2.4681835499339635,0.8264739110878501,1.2134413937687574,-0.2202432315892585,-0.0075118285948192216,-2.6038483821997875,-0.10888392708698907,2.4681821257803174,0.826474908251239,0.0007348959846529883,0.0007995827465929554,0.0006070122348585811,6.711216591338916e-05,9.616179101524555e-05,-4.97332105234485e-05,-0.0010203830356097074,0.0,0.0,0.0,0.0,0.0,0.0,0.0,-2.6068549227931115e-05,-6.341913186119763e-05,6.448422163752177e-05,6.208949875130543e-05,3.4796041746554263e-06,-1.4241536461234716e-06,9.971633889716003e-07,-0.0007348959846529883,-0.0007995827465929554,-0.0006070122348585811,-6.711216591338916e-05,-9.616179101524555e-05,4.97332105234485e-05,0.0010203830356097074,0.3514034152030945,19.816431045532227,0.4228789508342743,-20.130342483520508,-0.6777854561805725,-2.4694857597351074,0.21457235515117645,0
65,0.3200249671936035,-0.3514034152030945,-19.816431045532227,-0.4228789508342743,20.130342483520508,0.6777854561805725,2.4694857597351074,-0.21457235515117645,0.0,0.0,0.0,0.0,0.0,0.0,0.0,-0.29269774896800826,-0.03346951172852116,-0.2176848692686874,0.36051007662765194,0.09332684288594481,0.09703897004915729,-0.2442056218008913,1.2134674623179853,-0.2201798124573973,-0.007576312816456743,-2.603910471698539,-0.10888740669116373,2.4681835499339635,0.8264739110878501,1.2134413937687574,-0.2202432315892585,-0.0075118285948192216,-2.6038483821997875,-0.10888392708698907,2.4681821257803174,0.826474908251239,0.0007348959846529883,0.0007995827465929554,0.0006070122348585811,6.711216591338916e-05,9.616179101524555e-05,-4.97332105234485e-05,-0.0010203830356097074,0.0,0.0,0.0,0.0,0.0,0.0,0.0,-2.6068549227931115e-05,-6.341913186119763e-05,6.448422163752177e-05,6.208949875130543e-05,3.4796041746554263e-06,-1.4241536461234716e-06,9.971633889716003e-07,-0.0007348959846529883,-0.0007995827465929554,-0.0006070122348585811,-6.711216591338916e-05,-9.616179101524555e-05,4.97332105234485e-05,0.0010203830356097074,0.3514034152030945,19.816431045532227,0.4228789508342743,-20.130342483520508,-0.6777854561805725,-2.4694857597351074,0.21457235515117645,0
66,0.3250269889831543,-0.2998287081718445,-19.792627334594727,-0.4228789508342743,20.130342483520508,0.6777854561805725,2.4758944511413574,-0.26858848333358765,0.0,0.0,0.0,0.0,0.0,0.0,0.0,-0.29133157504665147,-0.03992222980687725,-0.20904324442460853,0.3646182730281922,0.09351238239878668,0.09798846493282756,-0.24290353799477862,1.2134616972730872,-0.22017868009181282,-0.007576312816456743,-2.6039104625413274,-0.1088872840212753,2.4681828378571407,0.8264806301219456,1.2134413937687574,-0.2202432315892585,-0.0075118285948192216,-2.6038483821997875,-0.10888392708698907,2.4681821257803174,0.826474908251239,0.00035251212078235355,0.0003904096801327132,0.0002675717397738513,0.0004474494162686986,0.000109977688971937,-0.00023840823156284015,0.0012143743514896263,0.0,0.0,0.0,0.0,0.0,0.0,0.0,-2.0303504329799438e-05,-6.455149744566402e-05,6.448422163752177e-05,6.208034153987185e-05,3.356934286227742e-06,-7.120768232837804e-07,-5.721870706576482e-06,-0.00035251212078235355,-0.0003904096801327132,-0.0002675717397738513,-0.0004474494162686986,-0.000109977688971937,0.00023840823156284015,-0.0012143743514896263,0.2998287081718445,19.792627334594727,0.4228789508342743,-20.130342483520508,-0.6777854561805725,-2.4758944511413574,0.26858848333358765,0
67,0.33003783226013184,-0.2998287081718445,-19.792627334594727,-0.4228789508342743,20.130342483520508,0.6777854561805725,2.4758944511413574,-0.26858848333358765,0.0,0.0,0.0,0.0,0.0,0.0,0.0,-0.29133157504665147,-0.03992222980687725,-0.20904324442460853,0.3646182730281922,0.09351238239878668,0.09798846493282756,-0.24290353799477862,1.2134616972730872,-0.22017868009181282,-0.007576312816456743,-2.6039104625413274,-0.1088872840212753,2.4681828378571407,0.8264806301219456,1.2134413937687574,-0.2202432315892585,-0.0075118285948192216,-2.6038483821997875,-0.10888392708698907,2.4681821257803174,0.826474908251239,0.00035251212078235355,0.0003904096801327132,0.0002675717397738513,0.0004474494162686986,0.000109977688971937,-0.00023840823156284015,0.0012143743514896263,0.0,0.0,0.0,0.0,0.0,0.0,0.0,-2.0303504329799438e-05,-6.455149744566402e-05,6.448422163752177e-05,6.208034153987185e-05,3.356934286227742e-06,-7.120768232837804e-07,-5.721870706576482e-06,-0.00035251212078235355,-0.0003904096801327132,-0.0002675717397738513,-0.0004474494162686986,-0.000109977688971937,0.00023840823156284015,-0.0012143743514896263,0.2998287081718445,19.792627334594727,0.4228789508342743,-20.130342483520508,-0.6777854561805725,-2.4758944511413574,0.26858848333358765,0
68,0.3350365161895752,-0.2998287081718445,-19.768823623657227,-0.4228789508342743,20.154146194458008,0.6832786202430725,2.4758944511413574,-0.24844686686992645,0.0,0.0,0.0,0.0,0.0,0.0,0.0,-0.2967281206083037,-0.044368277710719044,-0.21440121622496974,0.3638253786245161,0.0938416288427481,0.09815178866852396,-0.24250857365333114,1.2134616942085188,-0.2201826449888565,-0.007576312816456743,-2.6039121421344973,-0.10888789437214534,2.4681828378571407,0.8264778294831588,1.2134413937687574,-0.2202432315892585,-0.0075118285948192216,-2.6038483821997875,-0.10888392708698907,2.4681821257803174,0.826474908251239,0.00015232378827686614,-0.0005451978842063893,-0.0002205969755936922,-0.0005771933568204885,-0.0002863686968265648,-0.0002651739588517415,0.0005311734537868528,0.0,0.0,0.0,0.0,0.0,0.0,0.0,-2.0300439761422595e-05,-6.0586600401979496e-05,6.448422163752177e-05,6.375993470975061e-05,3.9672851562672085e-06,-7.120768232837804e-07,-2.9212319198057557e-06,-0.00015232378827686614,0.0005451978842063893,0.0002205969755936922,0.0005771933568204885,0.0002863686968265648,0.0002651739588517415,-0.0005311734537868528,0.2998287081718445,19.768823623657227,0.4228789508342743,-20.154146194458008,-0.6832786202430725,-2.4758944511413574,0.24844686686992645,0
69,0.34002184867858887,-0.2998287081718445,-19.768823623657227,-0.4228789508342743,20.154146194458008,0.6832786202430725,2.4758944511413574,-0.24844686686992645,0.0,0.0,0.0,0.0,0.0,0.0,0.0,-0.2967281206083037,-0.044368277710719044,-0.21440121622496974,0.3638253786245161,0.0938416288427481,0.09815178866852396,-0.24250857365333114,1.2134616942085188,-0.2201826449888565,-0.007576312816456743,-2.6039121421344973,-0.10888789437214534,2.4681828378571407,0.8264778294831588,1.2134413937687574,-0.2202432315892585,-0.0075118285948192216,-2.6038483821997875,-0.10888392708698907,2.4681821257803174,0.826474908251239,0.00015232378827686614,-0.0005451978842063893,-0.0002205969755936922,-0.0005771933568204885,-0.0002863686968265648,-0.0002651739588517415,0.0005311734537868528,0.0,0.0,0.0,0.0,0.0,0.0,0.0,-2.0300439761422595e-05,-6.0586600401979496e-05,6.448422163752177e-05,6.375993470975061e-05,3.9672851562672085e-06,-7.120768232837804e-07,-2.9212319198057557e-06,-0.00015232378827686614,0.0005451978842063893,0.0002205969755936922,0.0005771933568204885,0.0002863686968265648,0.0002651739588517415,-0.0005311734537868528,0.2998287081718445,19.768823623657227,0.4228789508342743,-20.154146194458008,-0.6832786202430725,-2.4758944511413574,0.24844686686992645,0
70,0.3450205326080322,-0.2998287081718445,-19.792627334594727,-0.4228789508342743,20.130342483520508,0.6713767647743225,2.4694857597351074,-0.28232139348983765,0.0,0.0,0.0,0.0,0.0,0.0,0.0,-0.2948798754965017,-0.03984633859033301,-0.2141932608275417,0.36418610471496726,0.09332429271664863,0.09820105569282706,-0.24193500073173196,1.2134638429191527,-0.220181768219529,-0.007576312816456743,-2.603910471698694,-0.10888657243054783,2.468183554779131,0.826482534947657,1.2134413937687574,-0.2202432315892585,-0.0075118285948192216,-2.6038483821997875,-0.10888392708698907,2.4681821257803174,0.826474908251239,0.00018276332853600305,0.0003366630946328281,-0.00017367978293356178,0.0003300696192006315,0.00023196257954959508,-3.7076316654678216e-05,0.0017103075349979044,0.0,0.0,0.0,0.0,0.0,0.0,0.0,-2.2449150395287276e-05,-6.146336972948085e-05,6.448422163752177e-05,6.208949890629256e-05,2.645343558760338e-06,-1.4289988135018916e-06,-7.626696417961654e-06,-0.00018276332853600305,-0.0003366630946328281,0.00017367978293356178,-0.0003300696192006315,-0.00023196257954959508,3.7076316654678216e-05,-0.0017103075349979044,0.2998287081718445,19.792627334594727,0.4228789508342743,-20.130342483520508,-0.6713767647743225,-2.4694857597351074,0.28232139348983765,0
71,0.3500359058380127,-0.2998287081718445,-19.792627334594727,-0.4228789508342743,20.130342483520508,0.6713767647743225,2.4694857597351074,-0.28232139348983765,0.0,0.0,0.0,0.0,0.0,0.0,0.0,-0.2948798754965017,-0.03984633859033301,-0.2141932608275417,0.36418610471496726,0.09332429271664863,0.09820105569282706,-0.24193500073173196,1.2134638429191527,-0.220181768219529,-0.007576312816456743,-2.603910471698694,-0.10888657243054783,2.468183554779131,0.826482534947657,1.2134413937687574,-0.2202432315892585,-0.0075118285948192216,-2.6038483821997875,-0.10888392708698907,2.4681821257803174,0.826474908251239,0.00018276332853600305,0.0003366630946328281,-0.00017367978293356178,0.0003300696192006315,0.00023196257954959508,-3.7076316654678216e-05,0.0017103075349979044,0.0,0.0,0.0,0.0,0.0,0.0,0.0,-2.2449150395287276e-05,-6.146336972948085e-05,6.448422163752177e-05,6.208949890629256e-05,2.645343558760338e-06,-1.4289988135018916e-06,-7.626696417961654e-06,-0.00018276332853600305,-0.0003366630946328281,0.00017367978293356178,-0.0003300696192006315,-0.00023196257954959508,3.7076316654678216e-05,-0.0017103075349979044,0.2998287081718445,19.792627334594727,0.4228789508342743,-20.130342483520508,-0.6713767647743225,-2.4694857597351074,0.28232139348983765,0
72,0.35503411293029785,-0.3236324191093445,-19.792627334594727,-0.3990752398967743,20.181917190551758,0.6658836007118225,2.4758944511413574,-0.26858848333358765,0.0,0.0,0.0,0.0,0.0,0.0,0.0,-0.29232265489288733,-0.03793089424774173,-0.21449502258410455,0.3640176703069422,0.09289237053646811,0.09761199951834362,-0.24231551356029313,1.2134655131491034,-0.22017895158895473,-0.007577983252312007,-2.60391409097638,-0.10888596597329694,2.4681828378572224,0.8264768606401325,1.2134413937687574,-0.2202432315892585,-0.0075118285948192216,-2.6038483821997875,-0.10888392708698907,2.4681821257803174,0.826474908251239,0.0005323901643843632,0.0004503995406249816,1.7214746037853186e-05,-0.001151375435516124,0.0002854368045447501,-0.00012757687321165854,0.0013061758433272285,0.0,0.0,0.0,0.0,0.0,0.0,0.0,-2.411938034607708e-05,-6.428000030375691e-05,6.61546574927856e-05,6.570877659228813e-05,2.0388863078701913e-06,-7.12076904996195e-07,-1.952388893444734e-06,-0.0005323901643843632,-0.0004503995406249816,-1.7214746037853186e-05,0.001151375435516124,-0.0002854368045447501,0.00012757687321165854,-0.0013061758433272285,0.3236324191093445,19.792627334594727,0.3990752398967743,-20.181917190551758,-0.6658836007118225,-2.4758944511413574,0.26858848333358765,0
73,0.3600330352783203,-0.3236324191093445,-19.792627334594727,-0.3990752398967743,20.181917190551758,0.6658836007118225,2.4758944511413574,-0.26858848333358765,0.0,0.0,0.0,0.0,0.0,0.0,0.0,-0.29232265489288733,-0.03793089424774173,-0.21449502258410455,0.3640176703069422,0.09289237053646811,0.09761199951834362,-0.24231551356029313,1.2134655131491034,-0.22017895158895473,-0.007577983252312007,-2.60391409097638,-0.10888596597329694,2.4681828378572224,0.8264768606401325,1.2134413937687574,-0.2202432315892585,-0.0075118285948192216,-2.6038483821997875,-0.10888392708698907,2.4681821257803174,0.826474908251239,0.0005323901643843632,0.0004503995406249816,1.7214746037853186e-05,-0.001151375435516124,0.0002854368045447501,-0.00012757687321165854,0.0013061758433272285,0.0,0.0,0.0,0.0,0.0,0.0,0.0,-2.411938034607708e-05,-6.428000030375691e-05,6.61546574927856e-05,6.570877659228813e-05,2.0388863078701913e-06,-7.12076904996195e-07,-1.952388893444734e-06,-0.0005323901643843632,-0.0004503995406249816,-1.7214746037853186e-05,0.001151375435516124,-0.0002854368045447501,0.00012757687321165854,-0.0013061758433272285,0.3236324191093445,19.792627334594727,0.3990752398967743,-20.181917190551758,-0.6658836007118225,-2.4758944511413574,0.26858848333358765,0
74,0.36503028869628906,-0.2998287081718445,-19.717248916625977,-0.3990752398967743,20.154146194458008,0.6832786202430725,2.4758944511413574,-0.22098104655742645,0.0,0.0,0.0,0.0,0.0,0.0,0.0,-0.29319985328790965,-0.035635237838493955,-0.21436495136018224,0.3655968542724923,0.0927222400350734,0.09752476342544932,-0.242948203748996,1.2134638430402973,-0.22018706671108762,-0.007577983252312007,-2.603912142134549,-0.10888789437217007,2.4681828378571407,0.8264716100950703,1.2134413937687574,-0.2202432315892585,-0.0075118285948192216,-2.6038483821997875,-0.10888392708698907,2.4681821257803174,0.826474908251239,0.00028802949219652174,-0.0015286448771220703,-2.333740957990436e-05,-0.00033333799477162945,-0.00020202318364168518,-0.0004086940905504091,-0.0008567352024422481,0.0,0.0,0.0,0.0,0.0,0.0,0.0,-2.2449271539937143e-05,-5.6164878170866794e-05,6.61546574927856e-05,6.375993476126496e-05,3.967285180997426e-06,-7.120768232837804e-07,3.298156168729527e-06,-0.00028802949219652174,0.0015286448771220703,2.333740957990436e-05,0.00033333799477162945,0.00020202318364168518,0.0004086940905504091,0.0008567352024422481,0.2998287081718445,19.717248916625977,0.3990752398967743,-20.154146194458008,-0.6832786202430725,-2.4758944511413574,0.22098104655742645,0
75,0.3700234889984131,-0.2998287081718445,-19.717248916625977,-0.3990752398967743,20.154146194458008,0.6832786202430725,2.4758944511413574,-0.22098104655742645,0.0,0.0,0.0,0.0,0.0,0.0,0.0,-0.29319985328790965,-0.035635237838493955,-0.21436495136018224,0.3655968542724923,0.0927222400350734,0.09752476342544932,-0.242948203748996,1.2134638430402973,-0.22018706671108762,-0.007577983252312007,-2.603912142134549,-0.10888789437217007,2.4681828378571407,0.8264716100950703,1.2134413937687574,-0.2202432315892585,-0.0075118285948192216,-2.6038483821997875,-0.10888392708698907,2.4681821257803174,0.826474908251239,0.00028802949219652174,-0.0015286448771220703,-2.333740957990436e-05,-0.00033333799477162945,-0.00020202318364168518,-0.0004086940905504091,-0.0008567352024422481,0.0,0.0,0.0,0.0,0.0,0.0,0.0,-2.2449271539937143e-05,-5.6164878170866794e-05,6.61546574927856e-05,6.375993476126496e-05,3.967285180997426e-06,-7.120768232837804e-07,3.298156168729527e-06,-0.00028802949219652174,0.0015286448771220703,2.333740957990436e-05,0.00033333799477162945,0.00020202318364168518,0.0004086940905504091,0.0008567352024422481,0.2998287081718445,19.717248916625977,0.3990752398967743,-20.154146194458008,-0.6832786202430725,-2.4758944511413574,0.22098104655742645,0
76,0.3750162124633789,-0.3236324191093445,-19.768823623657227,-0.3990752398967743,20.154146194458008,0.6713767647743225,2.4694857597351074,-0.25485557317733765,0.0,0.0,0.0,0.0,0.0,0.0,0.0,-0.2889248507764,-0.036347392687116356,-0.20947405645930012,0.3668951906595196,0.09318667561692044,0.0974771727861557,-0.242915306543727,1.213465513367138,-0.22018347410702485,-0.007577983252312007,-2.603912142134549,-0.10888657194375992,2.4681835499339635,0.8264763992228579,1.2134413937687574,-0.2202432315892585,-0.0075118285948192216,-2.6038483821997875,-0.10888392708698907,2.4681821257803174,0.826474908251239,0.0015559217461380748,-0.0001303885546933241,-0.00010414693105950757,-0.0004366467999023718,0.0004472993941625562,2.3855107416384487e-05,0.00018180039112248293,0.0,0.0,0.0,0.0,0.0,0.0,0.0,-2.411959838055644e-05,-5.975748223363553e-05,6.61546574927856e-05,6.375993476126496e-05,2.6448567708448056e-06,-1.4241536461234716e-06,-1.4909716188338251e-06,-0.0015559217461380748,0.0001303885546933241,0.00010414693105950757,0.0004366467999023718,-0.0004472993941625562,-2.3855107416384487e-05,-0.00018180039112248293,0.3236324191093445,19.768823623657227,0.3990752398967743,-20.154146194458008,-0.6713767647743225,-2.4694857597351074,0.25485557317733765,0
77,0.380021333694458,-0.3236324191093445,-19.768823623657227,-0.3990752398967743,20.154146194458008,0.6713767647743225,2.4694857597351074,-0.25485557317733765,0.0,0.0,0.0,0.0,0.0,0.0,0.0,-0.2889248507764,-0.036347392687116356,-0.20947405645930012,0.3668951906595196,0.09318667561692044,0.0974771727861557,-0.242915306543727,1.213465513367138,-0.22018347410702485,-0.007577983252312007,-2.603912142134549,-0.10888657194375992,2.4681835499339635,0.8264763992228579,1.2134413937687574,-0.2202432315892585,-0.0075118285948192216,-2.6038483821997875,-0.10888392708698907,2.4681821257803174,0.826474908251239,0.0015559217461380748,-0.0001303885546933241,-0.00010414693105950757,-0.0004366467999023718,0.0004472993941625562,2.3855107416384487e-05,0.00018180039112248293,0.0,0.0,0.0,0.0,0.0,0.0,0.0,-2.411959838055644e-05,-5.975748223363553e-05,6.61546574927856e-05,6.375993476126496e-05,2.6448567708448056e-06,-1.4241536461234716e-06,-1.4909716188338251e-06,-0.0015559217461380748,0.0001303885546933241,0.00010414693105950757,0.0004366467999023718,-0.0004472993941625562,-2.3855107416384487e-05,-0.00018180039112248293,0.3236324191093445,19.768823623657227,0.3990752398967743,-20.154146194458008,-0.6713767647743225,-2.4694857597351074,0.25485557317733765,0
78,0.38503384590148926,-0.3236324191093445,-19.745019912719727,-0.4466826617717743,20.154146194458008,0.6832786202430725,2.4566683769226074,-0.21457235515117645,0.0,0.0,0.0,0.0,0.0,0.0,0.0,-0.29321149291035986,-0.03553779448462022,-0.21566980535744515,0.36927981280604755,0.09342294450315632,0.09743792354751009,-0.2432426283692315,1.213465513476154,-0.22018289057700421,-0.00757464238060148,-2.603912142134549,-0.10888789442623288,2.468184974087609,0.8264737163626296,1.2134413937687574,-0.2202432315892585,-0.0075118285948192216,-2.6038483821997875,-0.10888392708698907,2.4681821257803174,0.826474908251239,0.0006594093851929908,-0.0007291538109455635,0.0008049166375066381,0.0001123726783446747,-0.00027578920111535936,0.00044498449520517173,-0.001271821004320554,0.0,0.0,0.0,0.0,0.0,0.0,0.0,-2.4119707396685897e-05,-6.0341012254272464e-05,6.281378578225881e-05,6.375993476126496e-05,3.967339243807211e-06,-2.848307291802854e-06,1.1918886094752779e-06,-0.0006594093851929908,0.0007291538109455635,-0.0008049166375066381,-0.0001123726783446747,0.00027578920111535936,-0.00044498449520517173,0.001271821004320554,0.3236324191093445,19.745019912719727,0.4466826617717743,-20.154146194458008,-0.6832786202430725,-2.4566683769226074,0.21457235515117645,0
79,0.3900330066680908,-0.3236324191093445,-19.745019912719727,-0.4466826617717743,20.154146194458008,0.6832786202430725,2.4566683769226074,-0.21457235515117645,0.0,0.0,0.0,0.0,0.0,0.0,0.0,-0.29321149291035986,-0.03553779448462022,-0.21566980535744515,0.36927981280604755,0.09342294450315632,0.09743792354751009,-0.2432426283692315,1.213465513476154,-0.22018289057700421,-0.00757464238060148,-2.603912142134549,-0.10888789442623288,2.468184974087609,0.8264737163626296,1.2134413937687574,-0.2202432315892585,-0.0075118285948192216,-2.6038483821997875,-0.10888392708698907,2.4681821257803174,0.826474908251239,0.0006594093851929908,-0.0007291538109455635,0.0008049166375066381,0.0001123726783446747,-0.00027578920111535936,0.00044498449520517173,-0.001271821004320554,0.0,0.0,0.0,0.0,0.0,0.0,0.0,-2.4119707396685897e-05,-6.0341012254272464e-05,6.281378578225881e-05,6.375993476126496e-05,3.967339243807211e-06,-2.848307291802854e-06,1.1918886094752779e-06,-0.0006594093851929908,0.0007291538109455635,-0.0008049166375066381,-0.0001123726783446747,0.00027578920111535936,-0.00044498449520517173,0.001271821004320554,0.3236324191093445,19.745019912719727,0.4466826617717743,-20.154146194458008,-0.6832786202430725,-2.4566683769226074,0.21457235515117645,0
