rezayati/contactInterpretation/dataset/franka_main/labeled_data/link5/c5_5.csv
index,time,tau_J0,tau_J1,tau_J2,tau_J3,tau_J4,tau_J5,tau_J6,tau_J_d0,tau_J_d1,tau_J_d2,tau_J_d3,tau_J_d4,tau_J_d5,tau_J_d6,tau_ext0,tau_ext1,tau_ext2,tau_ext3,tau_ext4,tau_ext5,tau_ext6,q0,q1,q2,q3,q4,q5,q6,q_d0,q_d1,q_d2,q_d3,q_d4,q_d5,q_d6,dq0,dq1,dq2,dq3,dq4,dq5,dq6,dq_d0,dq_d1,dq_d2,dq_d3,dq_d4,dq_d5,dq_d6,e0,e1,e2,e3,e4,e5,e6,de0,de1,de2,de3,de4,de5,de6,etau_J0,etau_J1,etau_J2,etau_J3,etau_J4,etau_J5,etau_J6,label
1,0.0,-0.7084590792655945,-46.40121078491211,-5.612087726593018,19.686006546020508,0.7372947335243225,2.4173007011413574,-0.17978231608867645,0.0,0.0,0.0,0.0,0.0,0.0,0.0,-0.7181683207587387,-0.0541388320396154,-0.45061117483174945,0.4187945412344916,0.1561071663052185,0.14967956010523004,-0.14484099312366053,0.878125912143473,0.7553862655707262,-0.2825393448461566,-1.6691063219371594,0.14140864211253998,2.4034458294444616,1.0273460828380452,0.878092876070424,0.7554597494309409,-0.2825552651693207,-1.6690993614607135,0.1414185955172306,2.4034451173676383,1.0273381002308042,-0.0003188758432183122,0.0003899515999800254,0.00031616339827888107,-0.0018141579898389236,3.820683446651325e-05,-8.312628749431558e-05,0.001758362666353173,0.0,0.0,0.0,0.0,0.0,0.0,0.0,-3.3036073049053094e-05,7.348386021466258e-05,-1.5920323164109185e-05,6.960476445883046e-06,9.953404690621337e-06,-7.120768232837804e-07,-7.982607240997197e-06,0.0003188758432183122,-0.0003899515999800254,-0.00031616339827888107,0.0018141579898389236,-3.820683446651325e-05,8.312628749431558e-05,-0.001758362666353173,0.7084590792655945,46.40121078491211,5.612087726593018,-19.686006546020508,-0.7372947335243225,-2.4173007011413574,0.17978231608867645,0
2,0.004997730255126953,-0.7084590792655945,-46.40121078491211,-5.612087726593018,19.686006546020508,0.7372947335243225,2.4173007011413574,-0.17978231608867645,0.0,0.0,0.0,0.0,0.0,0.0,0.0,-0.7181683207587387,-0.0541388320396154,-0.45061117483174945,0.4187945412344916,0.1561071663052185,0.14967956010523004,-0.14484099312366053,0.878125912143473,0.7553862655707262,-0.2825393448461566,-1.6691063219371594,0.14140864211253998,2.4034458294444616,1.0273460828380452,0.878092876070424,0.7554597494309409,-0.2825552651693207,-1.6690993614607135,0.1414185955172306,2.4034451173676383,1.0273381002308042,-0.0003188758432183122,0.0003899515999800254,0.00031616339827888107,-0.0018141579898389236,3.820683446651325e-05,-8.312628749431558e-05,0.001758362666353173,0.0,0.0,0.0,0.0,0.0,0.0,0.0,-3.3036073049053094e-05,7.348386021466258e-05,-1.5920323164109185e-05,6.960476445883046e-06,9.953404690621337e-06,-7.120768232837804e-07,-7.982607240997197e-06,0.0003188758432183122,-0.0003899515999800254,-0.00031616339827888107,0.0018141579898389236,-3.820683446651325e-05,8.312628749431558e-05,-0.001758362666353173,0.7084590792655945,46.40121078491211,5.612087726593018,-19.686006546020508,-0.7372947335243225,-2.4173007011413574,0.17978231608867645,0
3,0.010009527206420898,-0.6806880831718445,-46.40121078491211,-5.564480304718018,19.586824417114258,0.7491965889930725,2.4237093925476074,-0.15231649577617645,0.0,0.0,0.0,0.0,0.0,0.0,0.0,-0.7767497396747507,-0.062115808100689174,-0.4946635410384594,0.4207165020930024,0.15732762980982873,0.1499309477671485,-0.14519947490348145,0.8781239633016419,0.7553862570109792,-0.2825426857178671,-1.6690993617877623,0.14140731529691852,2.4034451173676383,1.0273429133426628,0.878092876070424,0.7554597494309409,-0.2825552651693207,-1.6690993614607135,0.1414185955172306,2.4034451173676383,1.0273381002308042,-0.0004004504461206772,0.0004843113057303304,-3.9387764740864487e-05,0.0010326557511475911,-0.004631804142196655,-0.0003994976563062552,0.0001368667513398381,0.0,0.0,0.0,0.0,0.0,0.0,0.0,-3.10872312179189e-05,7.349241996168487e-05,-1.257945145360928e-05,3.2704883246026384e-10,1.1280220312076539e-05,0.0,-4.813111858625874e-06,0.0004004504461206772,-0.0004843113057303304,3.9387764740864487e-05,-0.0010326557511475911,0.004631804142196655,0.0003994976563062552,-0.0001368667513398381,0.6806880831718445,46.40121078491211,5.564480304718018,-19.586824417114258,-0.7491965889930725,-2.4237093925476074,0.15231649577617645,0
4,0.014992952346801758,-0.6806880831718445,-46.40121078491211,-5.564480304718018,19.586824417114258,0.7491965889930725,2.4237093925476074,-0.15231649577617645,0.0,0.0,0.0,0.0,0.0,0.0,0.0,-0.7767497396747507,-0.062115808100689174,-0.4946635410384594,0.4207165020930024,0.15732762980982873,0.1499309477671485,-0.14519947490348145,0.8781239633016419,0.7553862570109792,-0.2825426857178671,-1.6690993617877623,0.14140731529691852,2.4034451173676383,1.0273429133426628,0.878092876070424,0.7554597494309409,-0.2825552651693207,-1.6690993614607135,0.1414185955172306,2.4034451173676383,1.0273381002308042,-0.0004004504461206772,0.0004843113057303304,-3.9387764740864487e-05,0.0010326557511475911,-0.004631804142196655,-0.0003994976563062552,0.0001368667513398381,0.0,0.0,0.0,0.0,0.0,0.0,0.0,-3.10872312179189e-05,7.349241996168487e-05,-1.257945145360928e-05,3.2704883246026384e-10,1.1280220312076539e-05,0.0,-4.813111858625874e-06,0.0004004504461206772,-0.0004843113057303304,3.9387764740864487e-05,-0.0010326557511475911,0.004631804142196655,0.0003994976563062552,-0.0001368667513398381,0.6806880831718445,46.40121078491211,5.564480304718018,-19.586824417114258,-0.7491965889930725,-2.4237093925476074,0.15231649577617645,0
5,0.01999211311340332,-0.6806880831718445,-46.37740707397461,-5.588284015655518,19.610628128051758,0.7427878975868225,2.4173007011413574,-0.15231649577617645,0.0,0.0,0.0,0.0,0.0,0.0,0.0,-0.712024351570143,-0.04841589623705892,-0.44088667528767267,0.41870863506191053,0.15516770481566491,0.148369988675231,-0.1452426401209886,0.8781239633016419,0.755384586468078,-0.28254101528201186,-1.6691010321146011,0.14140803176162148,2.4034458294444616,1.0273430310795681,0.878092876070424,0.7554597494309409,-0.2825552651693207,-1.6690993614607135,0.1414185955172306,2.4034451173676383,1.0273381002308042,-0.00018862427099246184,0.00026365590378157655,-0.00038094263615435803,0.0002104234522503033,-0.00038538546027070254,-7.669172289122052e-05,-9.043193869999174e-05,0.0,0.0,0.0,0.0,0.0,0.0,0.0,-3.10872312179189e-05,7.516296286280699e-05,-1.4249887308859233e-05,1.6706538876753996e-06,1.0563755609122039e-05,-7.120768232837804e-07,-4.9308487639621035e-06,0.00018862427099246184,-0.00026365590378157655,0.00038094263615435803,-0.0002104234522503033,0.00038538546027070254,7.669172289122052e-05,9.043193869999174e-05,0.6806880831718445,46.37740707397461,5.588284015655518,-19.610628128051758,-0.7427878975868225,-2.4173007011413574,0.15231649577617645,0
6,0.024993419647216797,-0.6806880831718445,-46.37740707397461,-5.588284015655518,19.610628128051758,0.7427878975868225,2.4173007011413574,-0.15231649577617645,0.0,0.0,0.0,0.0,0.0,0.0,0.0,-0.712024351570143,-0.04841589623705892,-0.44088667528767267,0.41870863506191053,0.15516770481566491,0.148369988675231,-0.1452426401209886,0.8781239633016419,0.755384586468078,-0.28254101528201186,-1.6691010321146011,0.14140803176162148,2.4034458294444616,1.0273430310795681,0.878092876070424,0.7554597494309409,-0.2825552651693207,-1.6690993614607135,0.1414185955172306,2.4034451173676383,1.0273381002308042,-0.00018862427099246184,0.00026365590378157655,-0.00038094263615435803,0.0002104234522503033,-0.00038538546027070254,-7.669172289122052e-05,-9.043193869999174e-05,0.0,0.0,0.0,0.0,0.0,0.0,0.0,-3.10872312179189e-05,7.516296286280699e-05,-1.4249887308859233e-05,1.6706538876753996e-06,1.0563755609122039e-05,-7.120768232837804e-07,-4.9308487639621035e-06,0.00018862427099246184,-0.00026365590378157655,0.00038094263615435803,-0.0002104234522503033,0.00038538546027070254,7.669172289122052e-05,9.043193869999174e-05,0.6806880831718445,46.37740707397461,5.588284015655518,-19.610628128051758,-0.7427878975868225,-2.4173007011413574,0.15231649577617645,0
7,0.029996156692504883,-0.6806880831718445,-46.40121078491211,-5.588284015655518,19.658235549926758,0.7491965889930725,2.4173007011413574,-0.15964071452617645,0.0,0.0,0.0,0.0,0.0,0.0,0.0,-0.6795296507034039,-0.04146179181526874,-0.4191030974009504,0.41679671408427343,0.1536269534448299,0.1480707894141135,-0.14655624212588028,0.8781239633016419,0.7553862569039328,-0.28254101528201186,-1.6691043730953274,0.14140728019368007,2.4034458294444616,1.027343844882316,0.878092876070424,0.7554597494309409,-0.2825552651693207,-1.6690993614607135,0.1414185955172306,2.4034451173676383,1.0273381002308042,0.0006584030917353204,0.0009030713923035219,-0.00023846046981676271,-0.0008665481130118626,-0.0003444514610466663,-2.3027111885079728e-05,0.0005544734240564009,0.0,0.0,0.0,0.0,0.0,0.0,0.0,-3.10872312179189e-05,7.349252700805664e-05,-1.4249887308859233e-05,5.011634613971694e-06,1.1315323550531442e-05,-7.120768232837804e-07,-5.744651511818688e-06,-0.0006584030917353204,-0.0009030713923035219,0.00023846046981676271,0.0008665481130118626,0.0003444514610466663,2.3027111885079728e-05,-0.0005544734240564009,0.6806880831718445,46.40121078491211,5.588284015655518,-19.658235549926758,-0.7491965889930725,-2.4173007011413574,0.15964071452617645,0
8,0.037769317626953125,-0.6806880831718445,-46.40121078491211,-5.588284015655518,19.658235549926758,0.7491965889930725,2.4173007011413574,-0.15964071452617645,0.0,0.0,0.0,0.0,0.0,0.0,0.0,-0.6795296507034039,-0.04146179181526874,-0.4191030974009504,0.41679671408427343,0.1536269534448299,0.1480707894141135,-0.14655624212588028,0.8781239633016419,0.7553862569039328,-0.28254101528201186,-1.6691043730953274,0.14140728019368007,2.4034458294444616,1.027343844882316,0.878092876070424,0.7554597494309409,-0.2825552651693207,-1.6690993614607135,0.1414185955172306,2.4034451173676383,1.0273381002308042,0.0006584030917353204,0.0009030713923035219,-0.00023846046981676271,-0.0008665481130118626,-0.0003444514610466663,-2.3027111885079728e-05,0.0005544734240564009,0.0,0.0,0.0,0.0,0.0,0.0,0.0,-3.10872312179189e-05,7.349252700805664e-05,-1.4249887308859233e-05,5.011634613971694e-06,1.1315323550531442e-05,-7.120768232837804e-07,-5.744651511818688e-06,-0.0006584030917353204,-0.0009030713923035219,0.00023846046981676271,0.0008665481130118626,0.0003444514610466663,2.3027111885079728e-05,-0.0005544734240564009,0.6806880831718445,46.40121078491211,5.588284015655518,-19.658235549926758,-0.7491965889930725,-2.4173007011413574,0.15964071452617645,0
9,0.039995670318603516,-0.6291133761405945,-46.37740707397461,-5.564480304718018,19.634431838989258,0.7372947335243225,2.4173007011413574,-0.20724813640117645,0.0,0.0,0.0,0.0,0.0,0.0,0.0,-0.6773051310717036,-0.05927093542123077,-0.42287826347172336,0.42490989770517457,0.15434145563795537,0.14968587007413117,-0.14744694348520976,0.8781203440239554,0.7553848204714977,-0.2825426857178671,-1.669102702332424,0.14140864211298584,2.4034458294444616,1.0273480749577282,0.878092876070424,0.7554597494309409,-0.2825552651693207,-1.6690993614607135,0.1414185955172306,2.4034451173676383,1.0273381002308042,-0.0006945064753974829,-0.00041831675214100666,-0.0008729849046249359,-4.8642064492236305e-05,0.00011667673476297707,-8.097766291545663e-05,0.0017541418668431525,0.0,0.0,0.0,0.0,0.0,0.0,0.0,-2.746795353147924e-05,7.492895944316569e-05,-1.257945145360928e-05,3.3408717106109265e-06,9.95340424475577e-06,-7.120768232837804e-07,-9.974726923989152e-06,0.0006945064753974829,0.00041831675214100666,0.0008729849046249359,4.8642064492236305e-05,-0.00011667673476297707,8.097766291545663e-05,-0.0017541418668431525,0.6291133761405945,46.37740707397461,5.564480304718018,-19.634431838989258,-0.7372947335243225,-2.4173007011413574,0.20724813640117645,0
10,0.044997453689575195,-0.6291133761405945,-46.37740707397461,-5.564480304718018,19.634431838989258,0.7372947335243225,2.4173007011413574,-0.20724813640117645,0.0,0.0,0.0,0.0,0.0,0.0,0.0,-0.6773051310717036,-0.05927093542123077,-0.42287826347172336,0.42490989770517457,0.15434145563795537,0.14968587007413117,-0.14744694348520976,0.8781203440239554,0.7553848204714977,-0.2825426857178671,-1.669102702332424,0.14140864211298584,2.4034458294444616,1.0273480749577282,0.878092876070424,0.7554597494309409,-0.2825552651693207,-1.6690993614607135,0.1414185955172306,2.4034451173676383,1.0273381002308042,-0.0006945064753974829,-0.00041831675214100666,-0.0008729849046249359,-4.8642064492236305e-05,0.00011667673476297707,-8.097766291545663e-05,0.0017541418668431525,0.0,0.0,0.0,0.0,0.0,0.0,0.0,-2.746795353147924e-05,7.492895944316569e-05,-1.257945145360928e-05,3.3408717106109265e-06,9.95340424475577e-06,-7.120768232837804e-07,-9.974726923989152e-06,0.0006945064753974829,0.00041831675214100666,0.0008729849046249359,4.8642064492236305e-05,-0.00011667673476297707,8.097766291545663e-05,-0.0017541418668431525,0.6291133761405945,46.37740707397461,5.564480304718018,-19.634431838989258,-0.7372947335243225,-2.4173007011413574,0.20724813640117645,0
11,0.050004005432128906,-0.6806880831718445,-46.37740707397461,-5.612087726593018,19.634431838989258,0.7427878975868225,2.4108920097351074,-0.13858358561992645,0.0,0.0,0.0,0.0,0.0,0.0,0.0,-0.6798539965965805,-0.05868434703564055,-0.42785349691056135,0.4227380472627147,0.15474095371156144,0.14948226969654194,-0.15013877564975664,0.8781239633016419,0.7553845893583295,-0.2825393448461566,-1.6691027026594711,0.14140801859793184,2.4034465415212845,1.0273415051953447,0.878092876070424,0.7554597494309409,-0.2825552651693207,-1.6690993614607135,0.1414185955172306,2.4034451173676383,1.0273381002308042,0.0006709361266681059,-0.0005608528854681431,4.819321654441183e-05,-7.337818095944158e-05,-0.0002690783564934128,5.887285020082884e-05,-0.00021319796969762286,0.0,0.0,0.0,0.0,0.0,0.0,0.0,-3.10872312179189e-05,7.51600726113244e-05,-1.5920323164109185e-05,3.34119875766703e-06,1.0576919298760368e-05,-1.4241536461234716e-06,-3.404964540543176e-06,-0.0006709361266681059,0.0005608528854681431,-4.819321654441183e-05,7.337818095944158e-05,0.0002690783564934128,-5.887285020082884e-05,0.00021319796969762286,0.6806880831718445,46.37740707397461,5.612087726593018,-19.634431838989258,-0.7427878975868225,-2.4108920097351074,0.13858358561992645,0
12,0.054991722106933594,-0.6806880831718445,-46.37740707397461,-5.612087726593018,19.634431838989258,0.7427878975868225,2.4108920097351074,-0.13858358561992645,0.0,0.0,0.0,0.0,0.0,0.0,0.0,-0.6798539965965805,-0.05868434703564055,-0.42785349691056135,0.4227380472627147,0.15474095371156144,0.14948226969654194,-0.15013877564975664,0.8781239633016419,0.7553845893583295,-0.2825393448461566,-1.6691027026594711,0.14140801859793184,2.4034465415212845,1.0273415051953447,0.878092876070424,0.7554597494309409,-0.2825552651693207,-1.6690993614607135,0.1414185955172306,2.4034451173676383,1.0273381002308042,0.0006709361266681059,-0.0005608528854681431,4.819321654441183e-05,-7.337818095944158e-05,-0.0002690783564934128,5.887285020082884e-05,-0.00021319796969762286,0.0,0.0,0.0,0.0,0.0,0.0,0.0,-3.10872312179189e-05,7.51600726113244e-05,-1.5920323164109185e-05,3.34119875766703e-06,1.0576919298760368e-05,-1.4241536461234716e-06,-3.404964540543176e-06,-0.0006709361266681059,0.0005608528854681431,-4.819321654441183e-05,7.337818095944158e-05,0.0002690783564934128,-5.887285020082884e-05,0.00021319796969762286,0.6806880831718445,46.37740707397461,5.612087726593018,-19.634431838989258,-0.7427878975868225,-2.4108920097351074,0.13858358561992645,0
13,0.059992313385009766,-0.6806880831718445,-46.37740707397461,-5.612087726593018,19.634431838989258,0.7427878975868225,2.4108920097351074,-0.13858358561992645,0.0,0.0,0.0,0.0,0.0,0.0,0.0,-0.6798539965965805,-0.05868434703564055,-0.42785349691056135,0.4227380472627147,0.15474095371156144,0.14948226969654194,-0.15013877564975664,0.8781239633016419,0.7553845893583295,-0.2825393448461566,-1.6691027026594711,0.14140801859793184,2.4034465415212845,1.0273415051953447,0.878092876070424,0.7554597494309409,-0.2825552651693207,-1.6690993614607135,0.1414185955172306,2.4034451173676383,1.0273381002308042,0.0006709361266681059,-0.0005608528854681431,4.819321654441183e-05,-7.337818095944158e-05,-0.0002690783564934128,5.887285020082884e-05,-0.00021319796969762286,0.0,0.0,0.0,0.0,0.0,0.0,0.0,-3.10872312179189e-05,7.51600726113244e-05,-1.5920323164109185e-05,3.34119875766703e-06,1.0576919298760368e-05,-1.4241536461234716e-06,-3.404964540543176e-06,-0.0006709361266681059,0.0005608528854681431,-4.819321654441183e-05,7.337818095944158e-05,0.0002690783564934128,-5.887285020082884e-05,0.00021319796969762286,0.6806880831718445,46.37740707397461,5.612087726593018,-19.634431838989258,-0.7427878975868225,-2.4108920097351074,0.13858358561992645,0
14,0.06499886512756348,-0.6806880831718445,-46.37740707397461,-5.612087726593018,19.634431838989258,0.7427878975868225,2.4108920097351074,-0.13858358561992645,0.0,0.0,0.0,0.0,0.0,0.0,0.0,-0.6798539965965805,-0.05868434703564055,-0.42785349691056135,0.4227380472627147,0.15474095371156144,0.14948226969654194,-0.15013877564975664,0.8781239633016419,0.7553845893583295,-0.2825393448461566,-1.6691027026594711,0.14140801859793184,2.4034465415212845,1.0273415051953447,0.878092876070424,0.7554597494309409,-0.2825552651693207,-1.6690993614607135,0.1414185955172306,2.4034451173676383,1.0273381002308042,0.0006709361266681059,-0.0005608528854681431,4.819321654441183e-05,-7.337818095944158e-05,-0.0002690783564934128,5.887285020082884e-05,-0.00021319796969762286,0.0,0.0,0.0,0.0,0.0,0.0,0.0,-3.10872312179189e-05,7.51600726113244e-05,-1.5920323164109185e-05,3.34119875766703e-06,1.0576919298760368e-05,-1.4241536461234716e-06,-3.404964540543176e-06,-0.0006709361266681059,0.0005608528854681431,-4.819321654441183e-05,7.337818095944158e-05,0.0002690783564934128,-5.887285020082884e-05,0.00021319796969762286,0.6806880831718445,46.37740707397461,5.612087726593018,-19.634431838989258,-0.7427878975868225,-2.4108920097351074,0.13858358561992645,0
15,0.06999087333679199,-0.6568843722343445,-46.34963607788086,-5.612087726593018,19.634431838989258,0.7427878975868225,2.4173007011413574,-0.16604940593242645,0.0,0.0,0.0,0.0,0.0,0.0,0.0,-0.669947224053911,-0.03939346114738372,-0.42246883986935124,0.4118307366335831,0.15458567420252273,0.14762604018690814,-0.15128613015776207,0.8781223198473131,0.7553826376262627,-0.2825393448461566,-1.669102702659473,0.14140803176157193,2.4034458294444616,1.0273434973210096,0.878092876070424,0.7554597494309409,-0.2825552651693207,-1.6690993614607135,0.1414185955172306,2.4034451173676383,1.0273381002308042,-8.316406898807817e-05,-0.000426561208530935,0.0004170904055545502,-0.0003744419982515989,0.00010002840977020778,-0.0001862914401256275,0.0008244725105199475,0.0,0.0,0.0,0.0,0.0,0.0,0.0,-2.9443776889181983e-05,7.711180467817602e-05,-1.5920323164109185e-05,3.3411987594433867e-06,1.0563755658665741e-05,-7.120768232837804e-07,-5.397090205416788e-06,8.316406898807817e-05,0.000426561208530935,-0.0004170904055545502,0.0003744419982515989,-0.00010002840977020778,0.0001862914401256275,-0.0008244725105199475,0.6568843722343445,46.34963607788086,5.612087726593018,-19.634431838989258,-0.7427878975868225,-2.4173007011413574,0.16604940593242645,0
16,0.07499217987060547,-0.6568843722343445,-46.34963607788086,-5.612087726593018,19.634431838989258,0.7427878975868225,2.4173007011413574,-0.16604940593242645,0.0,0.0,0.0,0.0,0.0,0.0,0.0,-0.669947224053911,-0.03939346114738372,-0.42246883986935124,0.4118307366335831,0.15458567420252273,0.14762604018690814,-0.15128613015776207,0.8781223198473131,0.7553826376262627,-0.2825393448461566,-1.669102702659473,0.14140803176157193,2.4034458294444616,1.0273434973210096,0.878092876070424,0.7554597494309409,-0.2825552651693207,-1.6690993614607135,0.1414185955172306,2.4034451173676383,1.0273381002308042,-8.316406898807817e-05,-0.000426561208530935,0.0004170904055545502,-0.0003744419982515989,0.00010002840977020778,-0.0001862914401256275,0.0008244725105199475,0.0,0.0,0.0,0.0,0.0,0.0,0.0,-2.9443776889181983e-05,7.711180467817602e-05,-1.5920323164109185e-05,3.3411987594433867e-06,1.0563755658665741e-05,-7.120768232837804e-07,-5.397090205416788e-06,8.316406898807817e-05,0.000426561208530935,-0.0004170904055545502,0.0003744419982515989,-0.00010002840977020778,0.0001862914401256275,-0.0008244725105199475,0.6568843722343445,46.34963607788086,5.612087726593018,-19.634431838989258,-0.7427878975868225,-2.4173007011413574,0.16604940593242645,0
17,0.07999396324157715,-0.7084590792655945,-46.34963607788086,-5.663662433624268,19.610628128051758,0.7427878975868225,2.4237093925476074,-0.18710653483867645,0.0,0.0,0.0,0.0,0.0,0.0,0.0,-0.6861500441950965,-0.04897304707510833,-0.4360558705885793,0.41661656561590193,0.15613244302856819,0.14838934170053078,-0.1500948388089862,0.8781259121436253,0.7553833405994841,-0.2825357255684702,-1.6691010322236175,0.14140803176164624,2.4034451173676383,1.0273468966341468,0.878092876070424,0.7554597494309409,-0.2825552651693207,-1.6690993614607135,0.1414185955172306,2.4034451173676383,1.0273381002308042,0.00040594248164010997,7.485286466217466e-05,0.0013927499700307079,0.000487946432124698,-0.0001818591284147734,-0.00019367608355808896,0.0021011384346756212,0.0,0.0,0.0,0.0,0.0,0.0,0.0,-3.303607320137569e-05,7.640883145676458e-05,-1.9539600850548844e-05,1.6707629040269012e-06,1.0563755584364065e-05,0.0,-8.796403342614667e-06,-0.00040594248164010997,-7.485286466217466e-05,-0.0013927499700307079,-0.000487946432124698,0.0001818591284147734,0.00019367608355808896,-0.0021011384346756212,0.7084590792655945,46.34963607788086,5.663662433624268,-19.610628128051758,-0.7427878975868225,-2.4237093925476074,0.18710653483867645,0
18,0.084991455078125,-0.7084590792655945,-46.34963607788086,-5.663662433624268,19.610628128051758,0.7427878975868225,2.4237093925476074,-0.18710653483867645,0.0,0.0,0.0,0.0,0.0,0.0,0.0,-0.6861500441950965,-0.04897304707510833,-0.4360558705885793,0.41661656561590193,0.15613244302856819,0.14838934170053078,-0.1500948388089862,0.8781259121436253,0.7553833405994841,-0.2825357255684702,-1.6691010322236175,0.14140803176164624,2.4034451173676383,1.0273468966341468,0.878092876070424,0.7554597494309409,-0.2825552651693207,-1.6690993614607135,0.1414185955172306,2.4034451173676383,1.0273381002308042,0.00040594248164010997,7.485286466217466e-05,0.0013927499700307079,0.000487946432124698,-0.0001818591284147734,-0.00019367608355808896,0.0021011384346756212,0.0,0.0,0.0,0.0,0.0,0.0,0.0,-3.303607320137569e-05,7.640883145676458e-05,-1.9539600850548844e-05,1.6707629040269012e-06,1.0563755584364065e-05,0.0,-8.796403342614667e-06,-0.00040594248164010997,-7.485286466217466e-05,-0.0013927499700307079,-0.000487946432124698,0.0001818591284147734,0.00019367608355808896,-0.0021011384346756212,0.7084590792655945,46.34963607788086,5.663662433624268,-19.610628128051758,-0.7427878975868225,-2.4237093925476074,0.18710653483867645,0
19,0.09054327011108398,-0.7322627902030945,-46.37740707397461,-5.635891437530518,19.586824417114258,0.7427878975868225,2.4044833183288574,-0.14590780436992645,0.0,0.0,0.0,0.0,0.0,0.0,0.0,-0.6850568298126392,-0.05806999536051699,-0.4346739733356019,0.4204588079436085,0.15670212578590703,0.14953445068967966,-0.14736290324071782,0.8781275825793283,0.7553845864720458,-0.28253767441030136,-1.6690993617877623,0.14140803176164624,2.403447606810817,1.0273423190034099,0.878092876070424,0.7554597494309409,-0.2825552651693207,-1.6690993614607135,0.1414185955172306,2.4034451173676383,1.0273381002308042,0.00023413557911035522,-0.0003509866450606436,0.0008216899767768378,0.0005503831462891765,-1.0277387847884033e-05,0.0003993967230392703,-0.00018295782879474725,0.0,0.0,0.0,0.0,0.0,0.0,0.0,-3.470650890435856e-05,7.516295889509195e-05,-1.7590759019359137e-05,3.2704883246026384e-10,1.0563755584364065e-05,-2.48944317871036e-06,-4.218772605701915e-06,-0.00023413557911035522,0.0003509866450606436,-0.0008216899767768378,-0.0005503831462891765,1.0277387847884033e-05,-0.0003993967230392703,0.00018295782879474725,0.7322627902030945,46.37740707397461,5.635891437530518,-19.586824417114258,-0.7427878975868225,-2.4044833183288574,0.14590780436992645,0
20,0.09521317481994629,-0.7322627902030945,-46.37740707397461,-5.635891437530518,19.586824417114258,0.7427878975868225,2.4044833183288574,-0.14590780436992645,0.0,0.0,0.0,0.0,0.0,0.0,0.0,-0.6850568298126392,-0.05806999536051699,-0.4346739733356019,0.4204588079436085,0.15670212578590703,0.14953445068967966,-0.14736290324071782,0.8781275825793283,0.7553845864720458,-0.28253767441030136,-1.6690993617877623,0.14140803176164624,2.403447606810817,1.0273423190034099,0.878092876070424,0.7554597494309409,-0.2825552651693207,-1.6690993614607135,0.1414185955172306,2.4034451173676383,1.0273381002308042,0.00023413557911035522,-0.0003509866450606436,0.0008216899767768378,0.0005503831462891765,-1.0277387847884033e-05,0.0003993967230392703,-0.00018295782879474725,0.0,0.0,0.0,0.0,0.0,0.0,0.0,-3.470650890435856e-05,7.516295889509195e-05,-1.7590759019359137e-05,3.2704883246026384e-10,1.0563755584364065e-05,-2.48944317871036e-06,-4.218772605701915e-06,-0.00023413557911035522,0.0003509866450606436,-0.0008216899767768378,-0.0005503831462891765,1.0277387847884033e-05,-0.0003993967230392703,0.00018295782879474725,0.7322627902030945,46.37740707397461,5.635891437530518,-19.586824417114258,-0.7427878975868225,-2.4044833183288574,0.14590780436992645,0
21,0.09999322891235352,-0.7322627902030945,-46.40121078491211,-5.635891437530518,19.634431838989258,0.7308860421180725,2.4044833183288574,-0.12485067546367645,0.0,0.0,0.0,0.0,0.0,0.0,0.0,-0.6883652445311857,-0.05034321793691091,-0.4320464656767371,0.41797976062062714,0.15676120583909012,0.14938312389255798,-0.14582830725263587,0.8781275825793283,0.755386360905453,-0.28253767441030136,-1.6691019874037356,0.14140935419003167,2.403447253600101,1.0273399793224203,0.878092876070424,0.7554597494309409,-0.2825552651693207,-1.6690993614607135,0.1414185955172306,2.4034451173676383,1.0273381002308042,0.0004189225777545118,0.0008282794031131446,6.934019210346448e-05,0.0001830653760739756,0.0003754372210242462,0.0005415481273173025,-0.0002853910904387596,0.0,0.0,0.0,0.0,0.0,0.0,0.0,-3.470650890435856e-05,7.3388525487883e-05,-1.7590759019359137e-05,2.6259430221386992e-06,9.241327198927785e-06,-2.136232462479626e-06,-1.879091616086015e-06,-0.0004189225777545118,-0.0008282794031131446,-6.934019210346448e-05,-0.0001830653760739756,-0.0003754372210242462,-0.0005415481273173025,0.0002853910904387596,0.7322627902030945,46.40121078491211,5.635891437530518,-19.634431838989258,-0.7308860421180725,-2.4044833183288574,0.12485067546367645,0
22,0.10499334335327148,-0.7322627902030945,-46.40121078491211,-5.635891437530518,19.634431838989258,0.7308860421180725,2.4044833183288574,-0.12485067546367645,0.0,0.0,0.0,0.0,0.0,0.0,0.0,-0.6883652445311857,-0.05034321793691091,-0.4320464656767371,0.41797976062062714,0.15676120583909012,0.14938312389255798,-0.14582830725263587,0.8781275825793283,0.755386360905453,-0.28253767441030136,-1.6691019874037356,0.14140935419003167,2.403447253600101,1.0273399793224203,0.878092876070424,0.7554597494309409,-0.2825552651693207,-1.6690993614607135,0.1414185955172306,2.4034451173676383,1.0273381002308042,0.0004189225777545118,0.0008282794031131446,6.934019210346448e-05,0.0001830653760739756,0.0003754372210242462,0.0005415481273173025,-0.0002853910904387596,0.0,0.0,0.0,0.0,0.0,0.0,0.0,-3.470650890435856e-05,7.3388525487883e-05,-1.7590759019359137e-05,2.6259430221386992e-06,9.241327198927785e-06,-2.136232462479626e-06,-1.879091616086015e-06,-0.0004189225777545118,-0.0008282794031131446,-6.934019210346448e-05,-0.0001830653760739756,-0.0003754372210242462,-0.0005415481273173025,0.0002853910904387596,0.7322627902030945,46.40121078491211,5.635891437530518,-19.634431838989258,-0.7308860421180725,-2.4044833183288574,0.12485067546367645,0
23,0.10999107360839844,-0.6806880831718445,-46.37740707397461,-5.588284015655518,19.658235549926758,0.7372947335243225,2.4108920097351074,-0.16604940593242645,0.0,0.0,0.0,0.0,0.0,0.0,0.0,-0.6782192659219686,-0.060834445328919344,-0.4269758412671727,0.4259327255115826,0.1561884924010319,0.14976258944069146,-0.14455815845537934,0.8781239633016419,0.7553848204720848,-0.28254101528201186,-1.669104372110144,0.14140864211320875,2.4034465415212845,1.027344556959139,0.878092876070424,0.7554597494309409,-0.2825552651693207,-1.6690993614607135,0.1414185955172306,2.4034451173676383,1.0273381002308042,-0.00026503996320735796,-0.0005237374860908889,-0.0006747108596252435,-0.0004968068508739871,0.00026885987971589896,0.0001021466414819331,0.0009827856293514365,0.0,0.0,0.0,0.0,0.0,0.0,0.0,-3.10872312179189e-05,7.492895885607975e-05,-1.4249887308859233e-05,5.010649430481351e-06,9.953404021850742e-06,-1.4241536461234716e-06,-6.456728334880424e-06,0.00026503996320735796,0.0005237374860908889,0.0006747108596252435,0.0004968068508739871,-0.00026885987971589896,-0.0001021466414819331,-0.0009827856293514365,0.6806880831718445,46.37740707397461,5.588284015655518,-19.658235549926758,-0.7372947335243225,-2.4108920097351074,0.16604940593242645,0
24,0.11499881744384766,-0.6806880831718445,-46.37740707397461,-5.588284015655518,19.658235549926758,0.7372947335243225,2.4108920097351074,-0.16604940593242645,0.0,0.0,0.0,0.0,0.0,0.0,0.0,-0.6782192659219686,-0.060834445328919344,-0.4269758412671727,0.4259327255115826,0.1561884924010319,0.14976258944069146,-0.14455815845537934,0.8781239633016419,0.7553848204720848,-0.28254101528201186,-1.669104372110144,0.14140864211320875,2.4034465415212845,1.027344556959139,0.878092876070424,0.7554597494309409,-0.2825552651693207,-1.6690993614607135,0.1414185955172306,2.4034451173676383,1.0273381002308042,-0.00026503996320735796,-0.0005237374860908889,-0.0006747108596252435,-0.0004968068508739871,0.00026885987971589896,0.0001021466414819331,0.0009827856293514365,0.0,0.0,0.0,0.0,0.0,0.0,0.0,-3.10872312179189e-05,7.492895885607975e-05,-1.4249887308859233e-05,5.010649430481351e-06,9.953404021850742e-06,-1.4241536461234716e-06,-6.456728334880424e-06,0.00026503996320735796,0.0005237374860908889,0.0006747108596252435,0.0004968068508739871,-0.00026885987971589896,-0.0001021466414819331,-0.0009827856293514365,0.6806880831718445,46.37740707397461,5.588284015655518,-19.658235549926758,-0.7372947335243225,-2.4108920097351074,0.16604940593242645,0
25,0.11999964714050293,-0.6806880831718445,-46.40121078491211,-5.588284015655518,19.634431838989258,0.7372947335243225,2.4173007011413574,-0.14590780436992645,0.0,0.0,0.0,0.0,0.0,0.0,0.0,-0.6853986185632315,-0.05059664069627997,-0.4299253290016034,0.41980780343350416,0.1558717886415037,0.14866391129470635,-0.14348856442060096,0.8781239633016419,0.7553864909086739,-0.28254101528201186,-1.66910198740373,0.14140851925187423,2.4034458294444616,1.0273423190034099,0.878092876070424,0.7554597494309409,-0.2825552651693207,-1.6690993614607135,0.1414185955172306,2.4034451173676383,1.0273381002308042,-0.0003295975176133553,-9.532552407486693e-05,-1.5862002285840793e-06,-0.0003386954339846386,0.0003241699083750181,-5.6212278818434246e-05,0.00010120389922990782,0.0,0.0,0.0,0.0,0.0,0.0,0.0,-3.10872312179189e-05,7.325852226691687e-05,-1.4249887308859233e-05,2.625943016587584e-06,1.0076265356373515e-05,-7.120768232837804e-07,-4.218772605701915e-06,0.0003295975176133553,9.532552407486693e-05,1.5862002285840793e-06,0.0003386954339846386,-0.0003241699083750181,5.6212278818434246e-05,-0.00010120389922990782,0.6806880831718445,46.40121078491211,5.588284015655518,-19.634431838989258,-0.7372947335243225,-2.4173007011413574,0.14590780436992645,0
26,0.12503433227539062,-0.6806880831718445,-46.40121078491211,-5.588284015655518,19.634431838989258,0.7372947335243225,2.4173007011413574,-0.14590780436992645,0.0,0.0,0.0,0.0,0.0,0.0,0.0,-0.6853986185632315,-0.05059664069627997,-0.4299253290016034,0.41980780343350416,0.1558717886415037,0.14866391129470635,-0.14348856442060096,0.8781239633016419,0.7553864909086739,-0.28254101528201186,-1.66910198740373,0.14140851925187423,2.4034458294444616,1.0273423190034099,0.878092876070424,0.7554597494309409,-0.2825552651693207,-1.6690993614607135,0.1414185955172306,2.4034451173676383,1.0273381002308042,-0.0003295975176133553,-9.532552407486693e-05,-1.5862002285840793e-06,-0.0003386954339846386,0.0003241699083750181,-5.6212278818434246e-05,0.00010120389922990782,0.0,0.0,0.0,0.0,0.0,0.0,0.0,-3.10872312179189e-05,7.325852226691687e-05,-1.4249887308859233e-05,2.625943016587584e-06,1.0076265356373515e-05,-7.120768232837804e-07,-4.218772605701915e-06,0.0003295975176133553,9.532552407486693e-05,1.5862002285840793e-06,0.0003386954339846386,-0.0003241699083750181,5.6212278818434246e-05,-0.00010120389922990782,0.6806880831718445,46.40121078491211,5.588284015655518,-19.634431838989258,-0.7372947335243225,-2.4173007011413574,0.14590780436992645,0
27,0.12999248504638672,-0.6806880831718445,-46.37740707397461,-5.588284015655518,19.610628128051758,0.7427878975868225,2.4173007011413574,-0.12485067546367645,0.0,0.0,0.0,0.0,0.0,0.0,0.0,-0.6881799237587329,-0.04279384749677837,-0.4290964471689823,0.41314523025113825,0.15627644461551873,0.14809780144096754,-0.1437816049977187,0.8781239633016419,0.7553845864693984,-0.28254098928163185,-1.6691010322195798,0.1414080317609527,2.4034458294444616,1.0273399793224203,0.878092876070424,0.7554597494309409,-0.2825552651693207,-1.6690993614607135,0.1414185955172306,2.4034451173676383,1.0273381002308042,-1.5694997406986778e-05,4.929003899146457e-05,7.57112557116425e-05,-6.546305089052131e-05,0.00017886285478395993,-0.00012282446613687685,-0.0006461076044324656,0.0,0.0,0.0,0.0,0.0,0.0,0.0,-3.10872312179189e-05,7.516296154241875e-05,-1.4275887688874889e-05,1.6707588663678052e-06,1.0563756277892633e-05,-7.120768232837804e-07,-1.879091616086015e-06,1.5694997406986778e-05,-4.929003899146457e-05,-7.57112557116425e-05,6.546305089052131e-05,-0.00017886285478395993,0.00012282446613687685,0.0006461076044324656,0.6806880831718445,46.37740707397461,5.588284015655518,-19.610628128051758,-0.7427878975868225,-2.4173007011413574,0.12485067546367645,0
28,0.13499021530151367,-0.6806880831718445,-46.37740707397461,-5.588284015655518,19.610628128051758,0.7427878975868225,2.4173007011413574,-0.12485067546367645,0.0,0.0,0.0,0.0,0.0,0.0,0.0,-0.6881799237587329,-0.04279384749677837,-0.4290964471689823,0.41314523025113825,0.15627644461551873,0.14809780144096754,-0.1437816049977187,0.8781239633016419,0.7553845864693984,-0.28254098928163185,-1.6691010322195798,0.1414080317609527,2.4034458294444616,1.0273399793224203,0.878092876070424,0.7554597494309409,-0.2825552651693207,-1.6690993614607135,0.1414185955172306,2.4034451173676383,1.0273381002308042,-1.5694997406986778e-05,4.929003899146457e-05,7.57112557116425e-05,-6.546305089052131e-05,0.00017886285478395993,-0.00012282446613687685,-0.0006461076044324656,0.0,0.0,0.0,0.0,0.0,0.0,0.0,-3.10872312179189e-05,7.516296154241875e-05,-1.4275887688874889e-05,1.6707588663678052e-06,1.0563756277892633e-05,-7.120768232837804e-07,-1.879091616086015e-06,1.5694997406986778e-05,-4.929003899146457e-05,-7.57112557116425e-05,6.546305089052131e-05,-0.00017886285478395993,0.00012282446613687685,0.0006461076044324656,0.6806880831718445,46.37740707397461,5.588284015655518,-19.610628128051758,-0.7427878975868225,-2.4173007011413574,0.12485067546367645,0
29,0.13998985290527344,-0.6568843722343445,-46.37740707397461,-5.612087726593018,19.634431838989258,0.7427878975868225,2.4108920097351074,-0.19351522624492645,0.0,0.0,0.0,0.0,0.0,0.0,0.0,-0.7640155015746697,-0.0774115863973593,-0.49392870464259847,0.42350821729104154,0.15876420920132492,0.1515411544181719,-0.1432056621601871,0.8781222928657867,0.7553845864680775,-0.28253934484600984,-1.6691027016783264,0.14140803176164624,2.4034465415212845,1.0273476087169515,0.878092876070424,0.7554597494309409,-0.2825552651693207,-1.6690993614607135,0.1414185955172306,2.4034451173676383,1.0273381002308042,-7.127793804818582e-05,-0.0003417330757512215,0.0007893026827473684,-4.150237745384279e-05,-2.0386750729481074e-05,0.00017309104124515708,0.001779024414015546,0.0,0.0,0.0,0.0,0.0,0.0,0.0,-2.9416795362724457e-05,7.51629628633621e-05,-1.592032331088067e-05,3.340217612946006e-06,1.0563755584364065e-05,-1.4241536461234716e-06,-9.508486147336015e-06,7.127793804818582e-05,0.0003417330757512215,-0.0007893026827473684,4.150237745384279e-05,2.0386750729481074e-05,-0.00017309104124515708,-0.001779024414015546,0.6568843722343445,46.37740707397461,5.612087726593018,-19.634431838989258,-0.7427878975868225,-2.4108920097351074,0.19351522624492645,0
30,0.1450040340423584,-0.6568843722343445,-46.37740707397461,-5.612087726593018,19.634431838989258,0.7427878975868225,2.4108920097351074,-0.19351522624492645,0.0,0.0,0.0,0.0,0.0,0.0,0.0,-0.7640155015746697,-0.0774115863973593,-0.49392870464259847,0.42350821729104154,0.15876420920132492,0.1515411544181719,-0.1432056621601871,0.8781222928657867,0.7553845864680775,-0.28253934484600984,-1.6691027016783264,0.14140803176164624,2.4034465415212845,1.0273476087169515,0.878092876070424,0.7554597494309409,-0.2825552651693207,-1.6690993614607135,0.1414185955172306,2.4034451173676383,1.0273381002308042,-7.127793804818582e-05,-0.0003417330757512215,0.0007893026827473684,-4.150237745384279e-05,-2.0386750729481074e-05,0.00017309104124515708,0.001779024414015546,0.0,0.0,0.0,0.0,0.0,0.0,0.0,-2.9416795362724457e-05,7.51629628633621e-05,-1.592032331088067e-05,3.340217612946006e-06,1.0563755584364065e-05,-1.4241536461234716e-06,-9.508486147336015e-06,7.127793804818582e-05,0.0003417330757512215,-0.0007893026827473684,4.150237745384279e-05,2.0386750729481074e-05,-0.00017309104124515708,-0.001779024414015546,0.6568843722343445,46.37740707397461,5.612087726593018,-19.634431838989258,-0.7427878975868225,-2.4108920097351074,0.19351522624492645,0
31,0.1499953269958496,-0.6291133761405945,-46.37740707397461,-5.588284015655518,19.634431838989258,0.7427878975868225,2.4108920097351074,-0.10470907390117645,0.0,0.0,0.0,0.0,0.0,0.0,0.0,-0.6652904921927382,-0.05684553200596925,-0.4193939872983809,0.4182778422671845,0.156716398716068,0.14922182705210127,-0.14455545727700786,0.8781203440239554,0.7553845894640061,-0.28254101528201186,-1.6691027026231322,0.14140803159913126,2.4034465415212845,1.0273388409047746,0.878092876070424,0.7554597494309409,-0.2825552651693207,-1.6690993614607135,0.1414185955172306,2.4034451173676383,1.0273381002308042,-0.0006563774529649017,-0.0005041628577927017,0.0003762931525890697,-0.0005886897514064508,2.2131504047391057e-05,9.766337172873017e-05,-0.0009048362992306033,0.0,0.0,0.0,0.0,0.0,0.0,0.0,-2.746795353147924e-05,7.51599669347458e-05,-1.4249887308859233e-05,3.3411624187351663e-06,1.0563918099337766e-05,-1.4241536461234716e-06,-7.406739703785803e-07,0.0006563774529649017,0.0005041628577927017,-0.0003762931525890697,0.0005886897514064508,-2.2131504047391057e-05,-9.766337172873017e-05,0.0009048362992306033,0.6291133761405945,46.37740707397461,5.588284015655518,-19.634431838989258,-0.7427878975868225,-2.4108920097351074,0.10470907390117645,0
32,0.15499162673950195,-0.6291133761405945,-46.37740707397461,-5.588284015655518,19.634431838989258,0.7427878975868225,2.4108920097351074,-0.10470907390117645,0.0,0.0,0.0,0.0,0.0,0.0,0.0,-0.6652904921927382,-0.05684553200596925,-0.4193939872983809,0.4182778422671845,0.156716398716068,0.14922182705210127,-0.14455545727700786,0.8781203440239554,0.7553845894640061,-0.28254101528201186,-1.6691027026231322,0.14140803159913126,2.4034465415212845,1.0273388409047746,0.878092876070424,0.7554597494309409,-0.2825552651693207,-1.6690993614607135,0.1414185955172306,2.4034451173676383,1.0273381002308042,-0.0006563774529649017,-0.0005041628577927017,0.0003762931525890697,-0.0005886897514064508,2.2131504047391057e-05,9.766337172873017e-05,-0.0009048362992306033,0.0,0.0,0.0,0.0,0.0,0.0,0.0,-2.746795353147924e-05,7.51599669347458e-05,-1.4249887308859233e-05,3.3411624187351663e-06,1.0563918099337766e-05,-1.4241536461234716e-06,-7.406739703785803e-07,0.0006563774529649017,0.0005041628577927017,-0.0003762931525890697,0.0005886897514064508,-2.2131504047391057e-05,-9.766337172873017e-05,0.0009048362992306033,0.6291133761405945,46.37740707397461,5.588284015655518,-19.634431838989258,-0.7427878975868225,-2.4108920097351074,0.10470907390117645,0
33,0.160003662109375,-0.6568843722343445,-46.34963607788086,-5.588284015655518,19.634431838989258,0.7427878975868225,2.4044833183288574,-0.15231649577617645,0.0,0.0,0.0,0.0,0.0,0.0,0.0,-0.6467627937945973,-0.03850353760668083,-0.4046365617672523,0.41015775775591956,0.15613898575300394,0.14761404091673497,-0.1431635089134919,0.8781222928657867,0.7553826379472556,-0.28254101528201186,-1.6691024642408936,0.14140803170747368,2.4034472535981073,1.0273430310864398,0.878092876070424,0.7554597494309409,-0.2825552651693207,-1.6690993614607135,0.1414185955172306,2.4034451173676383,1.0273381002308042,0.00026718087778435513,-0.00021218258605232236,7.323024199814322e-05,-0.0003398425609638583,8.358240717353561e-05,0.00047184335440333703,0.0004448798269487389,0.0,0.0,0.0,0.0,0.0,0.0,0.0,-2.9416795362724457e-05,7.71114836852771e-05,-1.4249887308859233e-05,3.1027801801197796e-06,1.0563809756919396e-05,-2.136230468963163e-06,-4.930855635576492e-06,-0.00026718087778435513,0.00021218258605232236,-7.323024199814322e-05,0.0003398425609638583,-8.358240717353561e-05,-0.00047184335440333703,-0.0004448798269487389,0.6568843722343445,46.34963607788086,5.588284015655518,-19.634431838989258,-0.7427878975868225,-2.4044833183288574,0.15231649577617645,0
34,0.16502070426940918,-0.6568843722343445,-46.34963607788086,-5.588284015655518,19.634431838989258,0.7427878975868225,2.4044833183288574,-0.15231649577617645,0.0,0.0,0.0,0.0,0.0,0.0,0.0,-0.6467627937945973,-0.03850353760668083,-0.4046365617672523,0.41015775775591956,0.15613898575300394,0.14761404091673497,-0.1431635089134919,0.8781222928657867,0.7553826379472556,-0.28254101528201186,-1.6691024642408936,0.14140803170747368,2.4034472535981073,1.0273430310864398,0.878092876070424,0.7554597494309409,-0.2825552651693207,-1.6690993614607135,0.1414185955172306,2.4034451173676383,1.0273381002308042,0.00026718087778435513,-0.00021218258605232236,7.323024199814322e-05,-0.0003398425609638583,8.358240717353561e-05,0.00047184335440333703,0.0004448798269487389,0.0,0.0,0.0,0.0,0.0,0.0,0.0,-2.9416795362724457e-05,7.71114836852771e-05,-1.4249887308859233e-05,3.1027801801197796e-06,1.0563809756919396e-05,-2.136230468963163e-06,-4.930855635576492e-06,-0.00026718087778435513,0.00021218258605232236,-7.323024199814322e-05,0.0003398425609638583,-8.358240717353561e-05,-0.00047184335440333703,-0.0004448798269487389,0.6568843722343445,46.34963607788086,5.588284015655518,-19.634431838989258,-0.7427878975868225,-2.4044833183288574,0.15231649577617645,0
35,0.16998910903930664,-0.6568843722343445,-46.34963607788086,-5.588284015655518,19.634431838989258,0.7427878975868225,2.4044833183288574,-0.15231649577617645,0.0,0.0,0.0,0.0,0.0,0.0,0.0,-0.6467627937945973,-0.03850353760668083,-0.4046365617672523,0.41015775775591956,0.15613898575300394,0.14761404091673497,-0.1431635089134919,0.8781222928657867,0.7553826379472556,-0.28254101528201186,-1.6691024642408936,0.14140803170747368,2.4034472535981073,1.0273430310864398,0.878092876070424,0.7554597494309409,-0.2825552651693207,-1.6690993614607135,0.1414185955172306,2.4034451173676383,1.0273381002308042,0.00026718087778435513,-0.00021218258605232236,7.323024199814322e-05,-0.0003398425609638583,8.358240717353561e-05,0.00047184335440333703,0.0004448798269487389,0.0,0.0,0.0,0.0,0.0,0.0,0.0,-2.9416795362724457e-05,7.71114836852771e-05,-1.4249887308859233e-05,3.1027801801197796e-06,1.0563809756919396e-05,-2.136230468963163e-06,-4.930855635576492e-06,-0.00026718087778435513,0.00021218258605232236,-7.323024199814322e-05,0.0003398425609638583,-8.358240717353561e-05,-0.00047184335440333703,-0.0004448798269487389,0.6568843722343445,46.34963607788086,5.588284015655518,-19.634431838989258,-0.7427878975868225,-2.4044833183288574,0.15231649577617645,0
36,0.17493820190429688,-0.6568843722343445,-46.34963607788086,-5.588284015655518,19.634431838989258,0.7427878975868225,2.4044833183288574,-0.15231649577617645,0.0,0.0,0.0,0.0,0.0,0.0,0.0,-0.6467627937945973,-0.03850353760668083,-0.4046365617672523,0.41015775775591956,0.15613898575300394,0.14761404091673497,-0.1431635089134919,0.8781222928657867,0.7553826379472556,-0.28254101528201186,-1.6691024642408936,0.14140803170747368,2.4034472535981073,1.0273430310864398,0.878092876070424,0.7554597494309409,-0.2825552651693207,-1.6690993614607135,0.1414185955172306,2.4034451173676383,1.0273381002308042,0.00026718087778435513,-0.00021218258605232236,7.323024199814322e-05,-0.0003398425609638583,8.358240717353561e-05,0.00047184335440333703,0.0004448798269487389,0.0,0.0,0.0,0.0,0.0,0.0,0.0,-2.9416795362724457e-05,7.71114836852771e-05,-1.4249887308859233e-05,3.1027801801197796e-06,1.0563809756919396e-05,-2.136230468963163e-06,-4.930855635576492e-06,-0.00026718087778435513,0.00021218258605232236,-7.323024199814322e-05,0.0003398425609638583,-8.358240717353561e-05,-0.00047184335440333703,-0.0004448798269487389,0.6568843722343445,46.34963607788086,5.588284015655518,-19.634431838989258,-0.7427878975868225,-2.4044833183288574,0.15231649577617645,0
37,0.17999553680419922,-0.6291133761405945,-46.42501449584961,-5.588284015655518,19.658235549926758,0.7491965889930725,2.4237093925476074,-0.16604940593242645,0.0,0.0,0.0,0.0,0.0,0.0,0.0,-0.6569819422645289,-0.057736822656486414,-0.4144869381851878,0.4189874412188107,0.15654655447913662,0.14925491063627136,-0.14198803618658168,0.8781203440239554,0.7553879273397899,-0.28254101528201186,-1.6691043730576434,0.14140731903476306,2.4034451173676383,1.0273445584490282,0.878092876070424,0.7554597494309409,-0.2825552651693207,-1.6690993614607135,0.1414185955172306,2.4034451173676383,1.0273381002308042,-0.0007906794051305631,0.001110611363281461,5.365957765936682e-05,-0.0007293809052245564,-0.000323183589933162,-0.00036483926759846514,0.0021918648741981878,0.0,0.0,0.0,0.0,0.0,0.0,0.0,-2.746795353147924e-05,7.182209115097482e-05,-1.4249887308859233e-05,5.011596929893614e-06,1.1276482467542648e-05,0.0,-6.4582182239814045e-06,0.0007906794051305631,-0.001110611363281461,-5.365957765936682e-05,0.0007293809052245564,0.000323183589933162,0.00036483926759846514,-0.0021918648741981878,0.6291133761405945,46.42501449584961,5.588284015655518,-19.658235549926758,-0.7491965889930725,-2.4237093925476074,0.16604940593242645,0
38,0.18502068519592285,-0.6291133761405945,-46.42501449584961,-5.588284015655518,19.658235549926758,0.7491965889930725,2.4237093925476074,-0.16604940593242645,0.0,0.0,0.0,0.0,0.0,0.0,0.0,-0.6569819422645289,-0.057736822656486414,-0.4144869381851878,0.4189874412188107,0.15654655447913662,0.14925491063627136,-0.14198803618658168,0.8781203440239554,0.7553879273397899,-0.28254101528201186,-1.6691043730576434,0.14140731903476306,2.4034451173676383,1.0273445584490282,0.878092876070424,0.7554597494309409,-0.2825552651693207,-1.6690993614607135,0.1414185955172306,2.4034451173676383,1.0273381002308042,-0.0007906794051305631,0.001110611363281461,5.365957765936682e-05,-0.0007293809052245564,-0.000323183589933162,-0.00036483926759846514,0.0021918648741981878,0.0,0.0,0.0,0.0,0.0,0.0,0.0,-2.746795353147924e-05,7.182209115097482e-05,-1.4249887308859233e-05,5.011596929893614e-06,1.1276482467542648e-05,0.0,-6.4582182239814045e-06,0.0007906794051305631,-0.001110611363281461,-5.365957765936682e-05,0.0007293809052245564,0.000323183589933162,0.00036483926759846514,-0.0021918648741981878,0.6291133761405945,46.42501449584961,5.588284015655518,-19.658235549926758,-0.7491965889930725,-2.4237093925476074,0.16604940593242645,0
39,0.18999767303466797,-0.6291133761405945,-46.42501449584961,-5.588284015655518,19.658235549926758,0.7491965889930725,2.4237093925476074,-0.16604940593242645,0.0,0.0,0.0,0.0,0.0,0.0,0.0,-0.6569819422645289,-0.057736822656486414,-0.4144869381851878,0.4189874412188107,0.15654655447913662,0.14925491063627136,-0.14198803618658168,0.8781203440239554,0.7553879273397899,-0.28254101528201186,-1.6691043730576434,0.14140731903476306,2.4034451173676383,1.0273445584490282,0.878092876070424,0.7554597494309409,-0.2825552651693207,-1.6690993614607135,0.1414185955172306,2.4034451173676383,1.0273381002308042,-0.0007906794051305631,0.001110611363281461,5.365957765936682e-05,-0.0007293809052245564,-0.000323183589933162,-0.00036483926759846514,0.0021918648741981878,0.0,0.0,0.0,0.0,0.0,0.0,0.0,-2.746795353147924e-05,7.182209115097482e-05,-1.4249887308859233e-05,5.011596929893614e-06,1.1276482467542648e-05,0.0,-6.4582182239814045e-06,0.0007906794051305631,-0.001110611363281461,-5.365957765936682e-05,0.0007293809052245564,0.000323183589933162,0.00036483926759846514,-0.0021918648741981878,0.6291133761405945,46.42501449584961,5.588284015655518,-19.658235549926758,-0.7491965889930725,-2.4237093925476074,0.16604940593242645,0
40,0.19504690170288086,-0.6291133761405945,-46.42501449584961,-5.588284015655518,19.658235549926758,0.7491965889930725,2.4237093925476074,-0.16604940593242645,0.0,0.0,0.0,0.0,0.0,0.0,0.0,-0.6569819422645289,-0.057736822656486414,-0.4144869381851878,0.4189874412188107,0.15654655447913662,0.14925491063627136,-0.14198803618658168,0.8781203440239554,0.7553879273397899,-0.28254101528201186,-1.6691043730576434,0.14140731903476306,2.4034451173676383,1.0273445584490282,0.878092876070424,0.7554597494309409,-0.2825552651693207,-1.6690993614607135,0.1414185955172306,2.4034451173676383,1.0273381002308042,-0.0007906794051305631,0.001110611363281461,5.365957765936682e-05,-0.0007293809052245564,-0.000323183589933162,-0.00036483926759846514,0.0021918648741981878,0.0,0.0,0.0,0.0,0.0,0.0,0.0,-2.746795353147924e-05,7.182209115097482e-05,-1.4249887308859233e-05,5.011596929893614e-06,1.1276482467542648e-05,0.0,-6.4582182239814045e-06,0.0007906794051305631,-0.001110611363281461,-5.365957765936682e-05,0.0007293809052245564,0.000323183589933162,0.00036483926759846514,-0.0021918648741981878,0.6291133761405945,46.42501449584961,5.588284015655518,-19.658235549926758,-0.7491965889930725,-2.4237093925476074,0.16604940593242645,0
41,0.20001435279846191,-0.6291133761405945,-46.42501449584961,-5.588284015655518,19.658235549926758,0.7491965889930725,2.4237093925476074,-0.16604940593242645,0.0,0.0,0.0,0.0,0.0,0.0,0.0,-0.6569819422645289,-0.057736822656486414,-0.4144869381851878,0.4189874412188107,0.15654655447913662,0.14925491063627136,-0.14198803618658168,0.8781203440239554,0.7553879273397899,-0.28254101528201186,-1.6691043730576434,0.14140731903476306,2.4034451173676383,1.0273445584490282,0.878092876070424,0.7554597494309409,-0.2825552651693207,-1.6690993614607135,0.1414185955172306,2.4034451173676383,1.0273381002308042,-0.0007906794051305631,0.001110611363281461,5.365957765936682e-05,-0.0007293809052245564,-0.000323183589933162,-0.00036483926759846514,0.0021918648741981878,0.0,0.0,0.0,0.0,0.0,0.0,0.0,-2.746795353147924e-05,7.182209115097482e-05,-1.4249887308859233e-05,5.011596929893614e-06,1.1276482467542648e-05,0.0,-6.4582182239814045e-06,0.0007906794051305631,-0.001110611363281461,-5.365957765936682e-05,0.0007293809052245564,0.000323183589933162,0.00036483926759846514,-0.0021918648741981878,0.6291133761405945,46.42501449584961,5.588284015655518,-19.658235549926758,-0.7491965889930725,-2.4237093925476074,0.16604940593242645,0
42,0.20504140853881836,-0.7084590792655945,-46.34963607788086,-5.612087726593018,19.634431838989258,0.7491965889930725,2.4173007011413574,-0.09738485515117645,0.0,0.0,0.0,0.0,0.0,0.0,0.0,-0.6852952385688991,-0.04984617453065662,-0.42969004208661965,0.4151828847430259,0.15701055652246326,0.1488318657049878,-0.14361633902898674,0.878125912143473,0.7553847469026176,-0.2825393448461566,-1.669102702659473,0.1414073196848233,2.4034458294444616,1.0273369275646078,0.878092876070424,0.7554597494309409,-0.2825552651693207,-1.6690993614607135,0.1414185955172306,2.4034451173676383,1.0273381002308042,-0.0002189307568031325,-0.0008812073385628348,-0.00012591362936828965,8.70071642162157e-05,-0.0002573438391539047,-6.99064296244418e-05,-0.0020406564193747047,0.0,0.0,0.0,0.0,0.0,0.0,0.0,-3.3036073049053094e-05,7.50025283232647e-05,-1.5920323164109185e-05,3.3411987594433867e-06,1.1275832407287023e-05,-7.120768232837804e-07,1.1726661963695761e-06,0.0002189307568031325,0.0008812073385628348,0.00012591362936828965,-8.70071642162157e-05,0.0002573438391539047,6.99064296244418e-05,0.0020406564193747047,0.7084590792655945,46.34963607788086,5.612087726593018,-19.634431838989258,-0.7491965889930725,-2.4173007011413574,0.09738485515117645,0
43,0.20999813079833984,-0.7084590792655945,-46.34963607788086,-5.612087726593018,19.634431838989258,0.7491965889930725,2.4173007011413574,-0.09738485515117645,0.0,0.0,0.0,0.0,0.0,0.0,0.0,-0.6852952385688991,-0.04984617453065662,-0.42969004208661965,0.4151828847430259,0.15701055652246326,0.1488318657049878,-0.14361633902898674,0.878125912143473,0.7553847469026176,-0.2825393448461566,-1.669102702659473,0.1414073196848233,2.4034458294444616,1.0273369275646078,0.878092876070424,0.7554597494309409,-0.2825552651693207,-1.6690993614607135,0.1414185955172306,2.4034451173676383,1.0273381002308042,-0.0002189307568031325,-0.0008812073385628348,-0.00012591362936828965,8.70071642162157e-05,-0.0002573438391539047,-6.99064296244418e-05,-0.0020406564193747047,0.0,0.0,0.0,0.0,0.0,0.0,0.0,-3.3036073049053094e-05,7.50025283232647e-05,-1.5920323164109185e-05,3.3411987594433867e-06,1.1275832407287023e-05,-7.120768232837804e-07,1.1726661963695761e-06,0.0002189307568031325,0.0008812073385628348,0.00012591362936828965,-8.70071642162157e-05,0.0002573438391539047,6.99064296244418e-05,0.0020406564193747047,0.7084590792655945,46.34963607788086,5.612087726593018,-19.634431838989258,-0.7491965889930725,-2.4173007011413574,0.09738485515117645,0
44,0.21503973007202148,-0.7322627902030945,-46.37740707397461,-5.635891437530518,19.559053421020508,0.7308860421180725,2.4173007011413574,-0.11844198405742645,0.0,0.0,0.0,0.0,0.0,0.0,0.0,-0.6969195333758795,-0.04103973157247427,-0.43220068730377986,0.4107615006326821,0.15662000091805459,0.14773589857031907,-0.1437688025882533,0.8781275825793283,0.7553845864799844,-0.28253767441030136,-1.6690974129459313,0.14140935419003167,2.4034458294444616,1.0273392672455972,0.878092876070424,0.7554597494309409,-0.2825552651693207,-1.6690993614607135,0.1414185955172306,2.4034451173676383,1.0273381002308042,-0.0005806304704602596,0.00043107796595816137,0.00013692456212308624,0.0013903200290695552,0.0003300904129701504,-0.00018501872982140788,-0.0013919517407109372,0.0,0.0,0.0,0.0,0.0,0.0,0.0,-3.470650890435856e-05,7.516295095644221e-05,-1.7590759019359137e-05,-1.9485147821907134e-06,9.241327198927785e-06,-7.120768232837804e-07,-1.1670147930242791e-06,0.0005806304704602596,-0.00043107796595816137,-0.00013692456212308624,-0.0013903200290695552,-0.0003300904129701504,0.00018501872982140788,0.0013919517407109372,0.7322627902030945,46.37740707397461,5.635891437530518,-19.559053421020508,-0.7308860421180725,-2.4173007011413574,0.11844198405742645,0
45,0.22001361846923828,-0.7322627902030945,-46.37740707397461,-5.635891437530518,19.559053421020508,0.7308860421180725,2.4173007011413574,-0.11844198405742645,0.0,0.0,0.0,0.0,0.0,0.0,0.0,-0.6969195333758795,-0.04103973157247427,-0.43220068730377986,0.4107615006326821,0.15662000091805459,0.14773589857031907,-0.1437688025882533,0.8781275825793283,0.7553845864799844,-0.28253767441030136,-1.6690974129459313,0.14140935419003167,2.4034458294444616,1.0273392672455972,0.878092876070424,0.7554597494309409,-0.2825552651693207,-1.6690993614607135,0.1414185955172306,2.4034451173676383,1.0273381002308042,-0.0005806304704602596,0.00043107796595816137,0.00013692456212308624,0.0013903200290695552,0.0003300904129701504,-0.00018501872982140788,-0.0013919517407109372,0.0,0.0,0.0,0.0,0.0,0.0,0.0,-3.470650890435856e-05,7.516295095644221e-05,-1.7590759019359137e-05,-1.9485147821907134e-06,9.241327198927785e-06,-7.120768232837804e-07,-1.1670147930242791e-06,0.0005806304704602596,-0.00043107796595816137,-0.00013692456212308624,-0.0013903200290695552,-0.0003300904129701504,0.00018501872982140788,0.0013919517407109372,0.7322627902030945,46.37740707397461,5.635891437530518,-19.559053421020508,-0.7308860421180725,-2.4173007011413574,0.11844198405742645,0
46,0.2249903678894043,-0.7560665011405945,-46.30202865600586,-5.612087726593018,19.586824417114258,0.7308860421180725,2.4173007011413574,-0.15964071452617645,0.0,0.0,0.0,0.0,0.0,0.0,0.0,-0.6967972014399076,-0.05720133216467624,-0.43172998347939195,0.4207507533839467,0.15573872611768938,0.14906195271112016,-0.14474988517019421,0.8781292530151835,0.7553793227549159,-0.2825393448461566,-1.6690993617877623,0.14140935419003167,2.4034458294444616,1.0273471032695636,0.878092876070424,0.7554597494309409,-0.2825552651693207,-1.6690993614607135,0.1414185955172306,2.4034451173676383,1.0273381002308042,-0.00018535600419700734,-0.0015499011092912978,-0.0008366414296616578,0.0009641628953762123,0.0004997098144574866,-2.1718937171396213e-05,0.0009986347708405144,0.0,0.0,0.0,0.0,0.0,0.0,0.0,-3.6376944759553e-05,8.042667602492504e-05,-1.5920323164109185e-05,3.2704883246026384e-10,9.241327198927785e-06,-7.120768232837804e-07,-9.003038759392012e-06,0.00018535600419700734,0.0015499011092912978,0.0008366414296616578,-0.0009641628953762123,-0.0004997098144574866,2.1718937171396213e-05,-0.0009986347708405144,0.7560665011405945,46.30202865600586,5.612087726593018,-19.586824417114258,-0.7308860421180725,-2.4173007011413574,0.15964071452617645,0
47,0.22999930381774902,-0.7560665011405945,-46.30202865600586,-5.612087726593018,19.586824417114258,0.7308860421180725,2.4173007011413574,-0.15964071452617645,0.0,0.0,0.0,0.0,0.0,0.0,0.0,-0.6967972014399076,-0.05720133216467624,-0.43172998347939195,0.4207507533839467,0.15573872611768938,0.14906195271112016,-0.14474988517019421,0.8781292530151835,0.7553793227549159,-0.2825393448461566,-1.6690993617877623,0.14140935419003167,2.4034458294444616,1.0273471032695636,0.878092876070424,0.7554597494309409,-0.2825552651693207,-1.6690993614607135,0.1414185955172306,2.4034451173676383,1.0273381002308042,-0.00018535600419700734,-0.0015499011092912978,-0.0008366414296616578,0.0009641628953762123,0.0004997098144574866,-2.1718937171396213e-05,0.0009986347708405144,0.0,0.0,0.0,0.0,0.0,0.0,0.0,-3.6376944759553e-05,8.042667602492504e-05,-1.5920323164109185e-05,3.2704883246026384e-10,9.241327198927785e-06,-7.120768232837804e-07,-9.003038759392012e-06,0.00018535600419700734,0.0015499011092912978,0.0008366414296616578,-0.0009641628953762123,-0.0004997098144574866,2.1718937171396213e-05,-0.0009986347708405144,0.7560665011405945,46.30202865600586,5.612087726593018,-19.586824417114258,-0.7308860421180725,-2.4173007011413574,0.15964071452617645,0
48,0.23499011993408203,-0.7084590792655945,-46.34963607788086,-5.612087726593018,19.586824417114258,0.7372947335243225,2.4237093925476074,-0.15964071452617645,0.0,0.0,0.0,0.0,0.0,0.0,0.0,-0.6783363954097,-0.056294797173160174,-0.4175871293335444,0.42232517183543933,0.15503067518570685,0.14890026657058122,-0.14432635860631918,0.878125912143473,0.7553826376263931,-0.2825393448461566,-1.6690993617877623,0.14140864211320875,2.4034451173676383,1.027343805654853,0.878092876070424,0.7554597494309409,-0.2825552651693207,-1.6690993614607135,0.1414185955172306,2.4034451173676383,1.0273381002308042,5.552417696188121e-05,-0.0008007263189014052,-7.413672241621498e-05,0.0009193171932357037,0.0002148202195084837,-0.00035385155980534495,0.0005134151303780036,0.0,0.0,0.0,0.0,0.0,0.0,0.0,-3.3036073049053094e-05,7.711180454772482e-05,-1.5920323164109185e-05,3.2704883246026384e-10,9.953404021850742e-06,0.0,-5.705424048763064e-06,-5.552417696188121e-05,0.0008007263189014052,7.413672241621498e-05,-0.0009193171932357037,-0.0002148202195084837,0.00035385155980534495,-0.0005134151303780036,0.7084590792655945,46.34963607788086,5.612087726593018,-19.586824417114258,-0.7372947335243225,-2.4237093925476074,0.15964071452617645,0
49,0.23994851112365723,-0.7084590792655945,-46.34963607788086,-5.612087726593018,19.586824417114258,0.7372947335243225,2.4237093925476074,-0.15964071452617645,0.0,0.0,0.0,0.0,0.0,0.0,0.0,-0.6783363954097,-0.056294797173160174,-0.4175871293335444,0.42232517183543933,0.15503067518570685,0.14890026657058122,-0.14432635860631918,0.878125912143473,0.7553826376263931,-0.2825393448461566,-1.6690993617877623,0.14140864211320875,2.4034451173676383,1.027343805654853,0.878092876070424,0.7554597494309409,-0.2825552651693207,-1.6690993614607135,0.1414185955172306,2.4034451173676383,1.0273381002308042,5.552417696188121e-05,-0.0008007263189014052,-7.413672241621498e-05,0.0009193171932357037,0.0002148202195084837,-0.00035385155980534495,0.0005134151303780036,0.0,0.0,0.0,0.0,0.0,0.0,0.0,-3.3036073049053094e-05,7.711180454772482e-05,-1.5920323164109185e-05,3.2704883246026384e-10,9.953404021850742e-06,0.0,-5.705424048763064e-06,-5.552417696188121e-05,0.0008007263189014052,7.413672241621498e-05,-0.0009193171932357037,-0.0002148202195084837,0.00035385155980534495,-0.0005134151303780036,0.7084590792655945,46.34963607788086,5.612087726593018,-19.586824417114258,-0.7372947335243225,-2.4237093925476074,0.15964071452617645,0
50,0.2450089454650879,-0.6568843722343445,-46.37740707397461,-5.564480304718018,19.634431838989258,0.7427878975868225,2.4173007011413574,-0.15964071452617645,0.0,0.0,0.0,0.0,0.0,0.0,0.0,-0.691875413542719,-0.04736383376261136,-0.42835826358317397,0.4153457745750632,0.15500494250820596,0.1477733563843536,-0.1445609407941923,0.8781222928657867,0.7553845864680775,-0.2825426857178671,-1.669102702332424,0.14140803176164624,2.4034458294444616,1.0273438448816516,0.878092876070424,0.7554597494309409,-0.2825552651693207,-1.6690993614607135,0.1414185955172306,2.4034451173676383,1.0273381002308042,-0.00039936388156567817,-0.00019813193239316478,-0.0009657700562767422,-0.0003813197498617616,-0.00048415592170916646,-9.220200650979563e-05,0.0007914225084474193,0.0,0.0,0.0,0.0,0.0,0.0,0.0,-2.9416795362724457e-05,7.51629628633621e-05,-1.257945145360928e-05,3.3408717106109265e-06,1.0563755584364065e-05,-7.120768232837804e-07,-5.74465084746123e-06,0.00039936388156567817,0.00019813193239316478,0.0009657700562767422,0.0003813197498617616,0.00048415592170916646,9.220200650979563e-05,-0.0007914225084474193,0.6568843722343445,46.37740707397461,5.564480304718018,-19.634431838989258,-0.7427878975868225,-2.4173007011413574,0.15964071452617645,0
51,0.24994206428527832,-0.6568843722343445,-46.37740707397461,-5.564480304718018,19.634431838989258,0.7427878975868225,2.4173007011413574,-0.15964071452617645,0.0,0.0,0.0,0.0,0.0,0.0,0.0,-0.691875413542719,-0.04736383376261136,-0.42835826358317397,0.4153457745750632,0.15500494250820596,0.1477733563843536,-0.1445609407941923,0.8781222928657867,0.7553845864680775,-0.2825426857178671,-1.669102702332424,0.14140803176164624,2.4034458294444616,1.0273438448816516,0.878092876070424,0.7554597494309409,-0.2825552651693207,-1.6690993614607135,0.1414185955172306,2.4034451173676383,1.0273381002308042,-0.00039936388156567817,-0.00019813193239316478,-0.0009657700562767422,-0.0003813197498617616,-0.00048415592170916646,-9.220200650979563e-05,0.0007914225084474193,0.0,0.0,0.0,0.0,0.0,0.0,0.0,-2.9416795362724457e-05,7.51629628633621e-05,-1.257945145360928e-05,3.3408717106109265e-06,1.0563755584364065e-05,-7.120768232837804e-07,-5.74465084746123e-06,0.00039936388156567817,0.00019813193239316478,0.0009657700562767422,0.0003813197498617616,0.00048415592170916646,9.220200650979563e-05,-0.0007914225084474193,0.6568843722343445,46.37740707397461,5.564480304718018,-19.634431838989258,-0.7427878975868225,-2.4173007011413574,0.15964071452617645,0
52,0.2550008296966553,-0.6291133761405945,-46.37740707397461,-5.588284015655518,19.610628128051758,0.7372947335243225,2.4108920097351074,-0.09738485515117645,0.0,0.0,0.0,0.0,0.0,0.0,0.0,-0.7002450693258917,-0.05138671480546694,-0.44029530427260577,0.41614834238430076,0.15483066785511404,0.14764889603789438,-0.1428994915841289,0.8781203440239554,0.7553845864680775,-0.28254101528201186,-1.6691010322236168,0.14140864211320875,2.4034465415212845,1.0273369275646078,0.878092876070424,0.7554597494309409,-0.2825552651693207,-1.6690993614607135,0.1414185955172306,2.4034451173676383,1.0273381002308042,-0.001029537312065113,-0.0004964710285962888,-7.799623543863371e-05,0.00015902486457493155,0.000133147462685557,0.00025067168238656875,-0.0018696079832240958,0.0,0.0,0.0,0.0,0.0,0.0,0.0,-2.746795353147924e-05,7.51629628633621e-05,-1.4249887308859233e-05,1.6707629033607674e-06,9.953404021850742e-06,-1.4241536461234716e-06,1.1726661963695761e-06,0.001029537312065113,0.0004964710285962888,7.799623543863371e-05,-0.00015902486457493155,-0.000133147462685557,-0.00025067168238656875,0.0018696079832240958,0.6291133761405945,46.37740707397461,5.588284015655518,-19.610628128051758,-0.7372947335243225,-2.4108920097351074,0.09738485515117645,0
53,0.25998997688293457,-0.6291133761405945,-46.37740707397461,-5.588284015655518,19.610628128051758,0.7372947335243225,2.4108920097351074,-0.09738485515117645,0.0,0.0,0.0,0.0,0.0,0.0,0.0,-0.7002450693258917,-0.05138671480546694,-0.44029530427260577,0.41614834238430076,0.15483066785511404,0.14764889603789438,-0.1428994915841289,0.8781203440239554,0.7553845864680775,-0.28254101528201186,-1.6691010322236168,0.14140864211320875,2.4034465415212845,1.0273369275646078,0.878092876070424,0.7554597494309409,-0.2825552651693207,-1.6690993614607135,0.1414185955172306,2.4034451173676383,1.0273381002308042,-0.001029537312065113,-0.0004964710285962888,-7.799623543863371e-05,0.00015902486457493155,0.000133147462685557,0.00025067168238656875,-0.0018696079832240958,0.0,0.0,0.0,0.0,0.0,0.0,0.0,-2.746795353147924e-05,7.51629628633621e-05,-1.4249887308859233e-05,1.6707629033607674e-06,9.953404021850742e-06,-1.4241536461234716e-06,1.1726661963695761e-06,0.001029537312065113,0.0004964710285962888,7.799623543863371e-05,-0.00015902486457493155,-0.000133147462685557,-0.00025067168238656875,0.0018696079832240958,0.6291133761405945,46.37740707397461,5.588284015655518,-19.610628128051758,-0.7372947335243225,-2.4108920097351074,0.09738485515117645,0
54,0.2649970054626465,-0.6291133761405945,-46.37740707397461,-5.564480304718018,19.610628128051758,0.7546897530555725,2.4173007011413574,-0.15964071452617645,0.0,0.0,0.0,0.0,0.0,0.0,0.0,-0.6888635576175891,-0.06152312065612163,-0.4365726584139882,0.42149706380633467,0.15473432312814936,0.14857080196242034,-0.14249107183665385,0.8781203440239554,0.7553848984726378,-0.2825426857178671,-1.6691010322236175,0.14140670933326083,2.4034458294444616,1.027343844882316,0.878092876070424,0.7554597494309409,-0.2825552651693207,-1.6690993614607135,0.1414185955172306,2.4034451173676383,1.0273381002308042,-0.0002768130632128627,-0.0010109571084882985,-0.0006862776426260134,0.0003315936752030917,-0.0005193453271333459,-1.7787327616056e-05,0.0007375575628364187,0.0,0.0,0.0,0.0,0.0,0.0,0.0,-2.746795353147924e-05,7.485095830306321e-05,-1.257945145360928e-05,1.6707629040269012e-06,1.188618396977259e-05,-7.120768232837804e-07,-5.744651511818688e-06,0.0002768130632128627,0.0010109571084882985,0.0006862776426260134,-0.0003315936752030917,0.0005193453271333459,1.7787327616056e-05,-0.0007375575628364187,0.6291133761405945,46.37740707397461,5.564480304718018,-19.610628128051758,-0.7546897530555725,-2.4173007011413574,0.15964071452617645,0
55,0.2699923515319824,-0.6291133761405945,-46.37740707397461,-5.564480304718018,19.610628128051758,0.7546897530555725,2.4173007011413574,-0.15964071452617645,0.0,0.0,0.0,0.0,0.0,0.0,0.0,-0.6888635576175891,-0.06152312065612163,-0.4365726584139882,0.42149706380633467,0.15473432312814936,0.14857080196242034,-0.14249107183665385,0.8781203440239554,0.7553848984726378,-0.2825426857178671,-1.6691010322236175,0.14140670933326083,2.4034458294444616,1.027343844882316,0.878092876070424,0.7554597494309409,-0.2825552651693207,-1.6690993614607135,0.1414185955172306,2.4034451173676383,1.0273381002308042,-0.0002768130632128627,-0.0010109571084882985,-0.0006862776426260134,0.0003315936752030917,-0.0005193453271333459,-1.7787327616056e-05,0.0007375575628364187,0.0,0.0,0.0,0.0,0.0,0.0,0.0,-2.746795353147924e-05,7.485095830306321e-05,-1.257945145360928e-05,1.6707629040269012e-06,1.188618396977259e-05,-7.120768232837804e-07,-5.744651511818688e-06,0.0002768130632128627,0.0010109571084882985,0.0006862776426260134,-0.0003315936752030917,0.0005193453271333459,1.7787327616056e-05,-0.0007375575628364187,0.6291133761405945,46.37740707397461,5.564480304718018,-19.610628128051758,-0.7546897530555725,-2.4173007011413574,0.15964071452617645,0
56,0.2749941349029541,-0.6568843722343445,-46.34963607788086,-5.588284015655518,19.610628128051758,0.7427878975868225,2.4173007011413574,-0.13858358561992645,0.0,0.0,0.0,0.0,0.0,0.0,0.0,-0.6905213878588954,-0.054872132239919075,-0.44042009733080806,0.41566021118716434,0.15494466055075248,0.14858995202722455,-0.14288815380658,0.8781222928657867,0.7553833399592607,-0.28254101528201186,-1.6691010322236175,0.1414069655007786,2.4034458294444616,1.0273415052013264,0.878092876070424,0.7554597494309409,-0.2825552651693207,-1.6690993614607135,0.1414185955172306,2.4034451173676383,1.0273381002308042,0.00019132891509701766,-0.0011240998875829175,-0.0003094474254948577,0.0007119208220986487,-0.00010593721259315667,-1.6889069225780563e-06,-0.0005918925539199758,0.0,0.0,0.0,0.0,0.0,0.0,0.0,-2.9416795362724457e-05,7.640947168019441e-05,-1.4249887308859233e-05,1.6707629040269012e-06,1.1630016451991132e-05,-7.120768232837804e-07,-3.404970522202788e-06,-0.00019132891509701766,0.0011240998875829175,0.0003094474254948577,-0.0007119208220986487,0.00010593721259315667,1.6889069225780563e-06,0.0005918925539199758,0.6568843722343445,46.34963607788086,5.588284015655518,-19.610628128051758,-0.7427878975868225,-2.4173007011413574,0.13858358561992645,0
57,0.2800028324127197,-0.6568843722343445,-46.34963607788086,-5.588284015655518,19.610628128051758,0.7427878975868225,2.4173007011413574,-0.13858358561992645,0.0,0.0,0.0,0.0,0.0,0.0,0.0,-0.6905213878588954,-0.054872132239919075,-0.44042009733080806,0.41566021118716434,0.15494466055075248,0.14858995202722455,-0.14288815380658,0.8781222928657867,0.7553833399592607,-0.28254101528201186,-1.6691010322236175,0.1414069655007786,2.4034458294444616,1.0273415052013264,0.878092876070424,0.7554597494309409,-0.2825552651693207,-1.6690993614607135,0.1414185955172306,2.4034451173676383,1.0273381002308042,0.00019132891509701766,-0.0011240998875829175,-0.0003094474254948577,0.0007119208220986487,-0.00010593721259315667,-1.6889069225780563e-06,-0.0005918925539199758,0.0,0.0,0.0,0.0,0.0,0.0,0.0,-2.9416795362724457e-05,7.640947168019441e-05,-1.4249887308859233e-05,1.6707629040269012e-06,1.1630016451991132e-05,-7.120768232837804e-07,-3.404970522202788e-06,-0.00019132891509701766,0.0011240998875829175,0.0003094474254948577,-0.0007119208220986487,0.00010593721259315667,1.6889069225780563e-06,0.0005918925539199758,0.6568843722343445,46.34963607788086,5.588284015655518,-19.610628128051758,-0.7427878975868225,-2.4173007011413574,0.13858358561992645,0
58,0.28494954109191895,-0.6568843722343445,-46.40121078491211,-5.612087726593018,19.610628128051758,0.7372947335243225,2.4173007011413574,-0.15231649577617645,0.0,0.0,0.0,0.0,0.0,0.0,0.0,-0.6828228765417306,-0.04709893486400434,-0.4360902091147397,0.4139359047900367,0.15489976042929574,0.14875187881985755,-0.1437933251118503,0.8781222928657867,0.7553862569158268,-0.2825393448461566,-1.6691010318965687,0.14140864209515155,2.4034458294444616,1.0273429133426628,0.878092876070424,0.7554597494309409,-0.2825552651693207,-1.6690993614607135,0.1414185955172306,2.4034451173676383,1.0273381002308042,-0.0003413266814952278,0.0009866180312194436,0.00036793506041331596,0.0002685024910030129,0.00017234084360433043,-0.00018684861015959154,0.00020404626447766025,0.0,0.0,0.0,0.0,0.0,0.0,0.0,-2.9416795362724457e-05,7.349251511401533e-05,-1.5920323164109185e-05,1.670435855194441e-06,9.953422079045371e-06,-7.120768232837804e-07,-4.813111858625874e-06,0.0003413266814952278,-0.0009866180312194436,-0.00036793506041331596,-0.0002685024910030129,-0.00017234084360433043,0.00018684861015959154,-0.00020404626447766025,0.6568843722343445,46.40121078491211,5.612087726593018,-19.610628128051758,-0.7372947335243225,-2.4173007011413574,0.15231649577617645,0
59,0.29000067710876465,-0.6568843722343445,-46.40121078491211,-5.612087726593018,19.610628128051758,0.7372947335243225,2.4173007011413574,-0.15231649577617645,0.0,0.0,0.0,0.0,0.0,0.0,0.0,-0.6828228765417306,-0.04709893486400434,-0.4360902091147397,0.4139359047900367,0.15489976042929574,0.14875187881985755,-0.1437933251118503,0.8781222928657867,0.7553862569158268,-0.2825393448461566,-1.6691010318965687,0.14140864209515155,2.4034458294444616,1.0273429133426628,0.878092876070424,0.7554597494309409,-0.2825552651693207,-1.6690993614607135,0.1414185955172306,2.4034451173676383,1.0273381002308042,-0.0003413266814952278,0.0009866180312194436,0.00036793506041331596,0.0002685024910030129,0.00017234084360433043,-0.00018684861015959154,0.00020404626447766025,0.0,0.0,0.0,0.0,0.0,0.0,0.0,-2.9416795362724457e-05,7.349251511401533e-05,-1.5920323164109185e-05,1.670435855194441e-06,9.953422079045371e-06,-7.120768232837804e-07,-4.813111858625874e-06,0.0003413266814952278,-0.0009866180312194436,-0.00036793506041331596,-0.0002685024910030129,-0.00017234084360433043,0.00018684861015959154,-0.00020404626447766025,0.6568843722343445,46.40121078491211,5.612087726593018,-19.610628128051758,-0.7372947335243225,-2.4173007011413574,0.15231649577617645,0
60,0.29498863220214844,-0.6568843722343445,-46.40121078491211,-5.612087726593018,19.610628128051758,0.7372947335243225,2.4173007011413574,-0.15231649577617645,0.0,0.0,0.0,0.0,0.0,0.0,0.0,-0.6828228765417306,-0.04709893486400434,-0.4360902091147397,0.4139359047900367,0.15489976042929574,0.14875187881985755,-0.1437933251118503,0.8781222928657867,0.7553862569158268,-0.2825393448461566,-1.6691010318965687,0.14140864209515155,2.4034458294444616,1.0273429133426628,0.878092876070424,0.7554597494309409,-0.2825552651693207,-1.6690993614607135,0.1414185955172306,2.4034451173676383,1.0273381002308042,-0.0003413266814952278,0.0009866180312194436,0.00036793506041331596,0.0002685024910030129,0.00017234084360433043,-0.00018684861015959154,0.00020404626447766025,0.0,0.0,0.0,0.0,0.0,0.0,0.0,-2.9416795362724457e-05,7.349251511401533e-05,-1.5920323164109185e-05,1.670435855194441e-06,9.953422079045371e-06,-7.120768232837804e-07,-4.813111858625874e-06,0.0003413266814952278,-0.0009866180312194436,-0.00036793506041331596,-0.0002685024910030129,-0.00017234084360433043,0.00018684861015959154,-0.00020404626447766025,0.6568843722343445,46.40121078491211,5.612087726593018,-19.610628128051758,-0.7372947335243225,-2.4173007011413574,0.15231649577617645,0
61,0.2999908924102783,-0.6568843722343445,-46.40121078491211,-5.612087726593018,19.610628128051758,0.7372947335243225,2.4173007011413574,-0.15231649577617645,0.0,0.0,0.0,0.0,0.0,0.0,0.0,-0.6828228765417306,-0.04709893486400434,-0.4360902091147397,0.4139359047900367,0.15489976042929574,0.14875187881985755,-0.1437933251118503,0.8781222928657867,0.7553862569158268,-0.2825393448461566,-1.6691010318965687,0.14140864209515155,2.4034458294444616,1.0273429133426628,0.878092876070424,0.7554597494309409,-0.2825552651693207,-1.6690993614607135,0.1414185955172306,2.4034451173676383,1.0273381002308042,-0.0003413266814952278,0.0009866180312194436,0.00036793506041331596,0.0002685024910030129,0.00017234084360433043,-0.00018684861015959154,0.00020404626447766025,0.0,0.0,0.0,0.0,0.0,0.0,0.0,-2.9416795362724457e-05,7.349251511401533e-05,-1.5920323164109185e-05,1.670435855194441e-06,9.953422079045371e-06,-7.120768232837804e-07,-4.813111858625874e-06,0.0003413266814952278,-0.0009866180312194436,-0.00036793506041331596,-0.0002685024910030129,-0.00017234084360433043,0.00018684861015959154,-0.00020404626447766025,0.6568843722343445,46.40121078491211,5.612087726593018,-19.610628128051758,-0.7372947335243225,-2.4173007011413574,0.15231649577617645,0
62,0.3050191402435303,-0.7084590792655945,-46.40121078491211,-5.588284015655518,19.610628128051758,0.7372947335243225,2.4237093925476074,-0.13858358561992645,0.0,0.0,0.0,0.0,0.0,0.0,0.0,-0.6715701068302663,-0.052929200276500984,-0.4276758246884395,0.41872854303598994,0.15541951941124055,0.14931207599412963,-0.14375921009566803,0.878125912143473,0.7553862598285297,-0.28254101528201186,-1.6691010322236168,0.14140864211320872,2.4034451173676383,1.0273415052011048,0.878092876070424,0.7554597494309409,-0.2825552651693207,-1.6690993614607135,0.1414185955172306,2.4034451173676383,1.0273381002308042,0.0009189628837324951,0.0008055566451220448,0.00011394862174917924,0.00029419714353136274,9.296584054914532e-05,-0.00042072372189564387,-0.003369562731525506,0.0,0.0,0.0,0.0,0.0,0.0,0.0,-3.3036073049053094e-05,7.348960241115865e-05,-1.4249887308859233e-05,1.6707629033607674e-06,9.953404021878498e-06,0.0,-3.4049703006022725e-06,-0.0009189628837324951,-0.0008055566451220448,-0.00011394862174917924,-0.00029419714353136274,-9.296584054914532e-05,0.00042072372189564387,0.003369562731525506,0.7084590792655945,46.40121078491211,5.588284015655518,-19.610628128051758,-0.7372947335243225,-2.4237093925476074,0.13858358561992645,0
63,0.30999183654785156,-0.7084590792655945,-46.40121078491211,-5.588284015655518,19.610628128051758,0.7372947335243225,2.4237093925476074,-0.13858358561992645,0.0,0.0,0.0,0.0,0.0,0.0,0.0,-0.6715701068302663,-0.052929200276500984,-0.4276758246884395,0.41872854303598994,0.15541951941124055,0.14931207599412963,-0.14375921009566803,0.878125912143473,0.7553862598285297,-0.28254101528201186,-1.6691010322236168,0.14140864211320872,2.4034451173676383,1.0273415052011048,0.878092876070424,0.7554597494309409,-0.2825552651693207,-1.6690993614607135,0.1414185955172306,2.4034451173676383,1.0273381002308042,0.0009189628837324951,0.0008055566451220448,0.00011394862174917924,0.00029419714353136274,9.296584054914532e-05,-0.00042072372189564387,-0.003369562731525506,0.0,0.0,0.0,0.0,0.0,0.0,0.0,-3.3036073049053094e-05,7.348960241115865e-05,-1.4249887308859233e-05,1.6707629033607674e-06,9.953404021878498e-06,0.0,-3.4049703006022725e-06,-0.0009189628837324951,-0.0008055566451220448,-0.00011394862174917924,-0.00029419714353136274,-9.296584054914532e-05,0.00042072372189564387,0.003369562731525506,0.7084590792655945,46.40121078491211,5.588284015655518,-19.610628128051758,-0.7372947335243225,-2.4237093925476074,0.13858358561992645,0
64,0.31496095657348633,-0.7322627902030945,-46.40121078491211,-5.635891437530518,19.634431838989258,0.7308860421180725,2.4237093925476074,-0.11844198405742645,0.0,0.0,0.0,0.0,0.0,0.0,0.0,-0.7584224840017564,-0.06644150916687343,-0.4943386422601599,0.4188318643753186,0.15696428860391806,0.15002862971513942,-0.14518481573274786,0.8781275825793283,0.7553862569039823,-0.28253767441030136,-1.669102702659473,0.14140935419003167,2.4034451173676383,1.0273392717152643,0.878092876070424,0.7554597494309409,-0.2825552651693207,-1.6690993614607135,0.1414185955172306,2.4034451173676383,1.0273381002308042,0.001250613377057672,0.000534232176984364,0.0023905106619856206,-0.0001916763016178836,0.00037008780329054813,-0.00043416343153694913,-0.0012127260274619803,0.0,0.0,0.0,0.0,0.0,0.0,0.0,-3.470650890435856e-05,7.34925269585407e-05,-1.7590759019359137e-05,3.3411987594433867e-06,9.241327198927785e-06,0.0,-1.1714844601051766e-06,-0.001250613377057672,-0.000534232176984364,-0.0023905106619856206,0.0001916763016178836,-0.00037008780329054813,0.00043416343153694913,0.0012127260274619803,0.7322627902030945,46.40121078491211,5.635891437530518,-19.634431838989258,-0.7308860421180725,-2.4237093925476074,0.11844198405742645,0
65,0.31993937492370605,-0.7322627902030945,-46.40121078491211,-5.635891437530518,19.634431838989258,0.7308860421180725,2.4237093925476074,-0.11844198405742645,0.0,0.0,0.0,0.0,0.0,0.0,0.0,-0.7584224840017564,-0.06644150916687343,-0.4943386422601599,0.4188318643753186,0.15696428860391806,0.15002862971513942,-0.14518481573274786,0.8781275825793283,0.7553862569039823,-0.28253767441030136,-1.669102702659473,0.14140935419003167,2.4034451173676383,1.0273392717152643,0.878092876070424,0.7554597494309409,-0.2825552651693207,-1.6690993614607135,0.1414185955172306,2.4034451173676383,1.0273381002308042,0.001250613377057672,0.000534232176984364,0.0023905106619856206,-0.0001916763016178836,0.00037008780329054813,-0.00043416343153694913,-0.0012127260274619803,0.0,0.0,0.0,0.0,0.0,0.0,0.0,-3.470650890435856e-05,7.34925269585407e-05,-1.7590759019359137e-05,3.3411987594433867e-06,9.241327198927785e-06,0.0,-1.1714844601051766e-06,-0.001250613377057672,-0.000534232176984364,-0.0023905106619856206,0.0001916763016178836,-0.00037008780329054813,0.00043416343153694913,0.0012127260274619803,0.7322627902030945,46.40121078491211,5.635891437530518,-19.634431838989258,-0.7308860421180725,-2.4237093925476074,0.11844198405742645,0
66,0.32498788833618164,-0.7560665011405945,-46.42501449584961,-5.612087726593018,19.634431838989258,0.7491965889930725,2.4108920097351074,-0.16604940593242645,0.0,0.0,0.0,0.0,0.0,0.0,0.0,-0.7012054633508764,-0.05692315308052716,-0.4488034235288955,0.41971941818138525,0.15554716629264992,0.14909173811492463,-0.145219852511196,0.8781292530151835,0.7553879533401682,-0.2825393448461566,-1.669102702332424,0.1414073196848233,2.4034465415212845,1.0273445569591475,0.878092876070424,0.7554597494309409,-0.2825552651693207,-1.6690993614607135,0.1414185955172306,2.4034451173676383,1.0273381002308042,0.0007381775312051163,0.0012730327124493316,-0.0001880970293578405,-0.00012268615628467647,-0.0003847872276737192,0.00020784180187158137,0.00026510281222292994,0.0,0.0,0.0,0.0,0.0,0.0,0.0,-3.6376944759553e-05,7.179609077268001e-05,-1.5920323164109185e-05,3.3408717106109265e-06,1.1275832407287023e-05,-1.4241536461234716e-06,-6.456728343318119e-06,-0.0007381775312051163,-0.0012730327124493316,0.0001880970293578405,0.00012268615628467647,0.0003847872276737192,-0.00020784180187158137,-0.00026510281222292994,0.7560665011405945,46.42501449584961,5.612087726593018,-19.634431838989258,-0.7491965889930725,-2.4108920097351074,0.16604940593242645,0
67,0.33002138137817383,-0.7560665011405945,-46.42501449584961,-5.612087726593018,19.634431838989258,0.7491965889930725,2.4108920097351074,-0.16604940593242645,0.0,0.0,0.0,0.0,0.0,0.0,0.0,-0.7012054633508764,-0.05692315308052716,-0.4488034235288955,0.41971941818138525,0.15554716629264992,0.14909173811492463,-0.145219852511196,0.8781292530151835,0.7553879533401682,-0.2825393448461566,-1.669102702332424,0.1414073196848233,2.4034465415212845,1.0273445569591475,0.878092876070424,0.7554597494309409,-0.2825552651693207,-1.6690993614607135,0.1414185955172306,2.4034451173676383,1.0273381002308042,0.0007381775312051163,0.0012730327124493316,-0.0001880970293578405,-0.00012268615628467647,-0.0003847872276737192,0.00020784180187158137,0.00026510281222292994,0.0,0.0,0.0,0.0,0.0,0.0,0.0,-3.6376944759553e-05,7.179609077268001e-05,-1.5920323164109185e-05,3.3408717106109265e-06,1.1275832407287023e-05,-1.4241536461234716e-06,-6.456728343318119e-06,-0.0007381775312051163,-0.0012730327124493316,0.0001880970293578405,0.00012268615628467647,0.0003847872276737192,-0.00020784180187158137,-0.00026510281222292994,0.7560665011405945,46.42501449584961,5.612087726593018,-19.634431838989258,-0.7491965889930725,-2.4108920097351074,0.16604940593242645,0
68,0.3350398540496826,-0.7084590792655945,-46.37740707397461,-5.663662433624268,19.634431838989258,0.7427878975868225,2.4173007011413574,-0.15231649577617645,0.0,0.0,0.0,0.0,0.0,0.0,0.0,-0.6700036781317285,-0.04951117277654376,-0.421837556069666,0.4191492203754572,0.15478013620767342,0.1485669045725313,-0.14714038825019,0.878125912143473,0.7553845864685178,-0.2825357255684702,-1.6691027026594674,0.14140803176164624,2.4034458294444616,1.0273430310802327,0.878092876070424,0.7554597494309409,-0.2825552651693207,-1.6690993614607135,0.1414185955172306,2.4034451173676383,1.0273381002308042,-9.271675977878611e-05,-0.0004237013786802271,0.0005202228516513938,-0.00013672652243691872,7.693014707729096e-06,3.242550444355252e-05,0.00047848042831730316,0.0,0.0,0.0,0.0,0.0,0.0,0.0,-3.3036073049053094e-05,7.516296242304765e-05,-1.9539600850548844e-05,3.3411987538922716e-06,1.0563755584364065e-05,-7.120768232837804e-07,-4.930849428541606e-06,9.271675977878611e-05,0.0004237013786802271,-0.0005202228516513938,0.00013672652243691872,-7.693014707729096e-06,-3.242550444355252e-05,-0.00047848042831730316,0.7084590792655945,46.37740707397461,5.663662433624268,-19.634431838989258,-0.7427878975868225,-2.4173007011413574,0.15231649577617645,0
69,0.34000563621520996,-0.7084590792655945,-46.37740707397461,-5.663662433624268,19.634431838989258,0.7427878975868225,2.4173007011413574,-0.15231649577617645,0.0,0.0,0.0,0.0,0.0,0.0,0.0,-0.6700036781317285,-0.04951117277654376,-0.421837556069666,0.4191492203754572,0.15478013620767342,0.1485669045725313,-0.14714038825019,0.878125912143473,0.7553845864685178,-0.2825357255684702,-1.6691027026594674,0.14140803176164624,2.4034458294444616,1.0273430310802327,0.878092876070424,0.7554597494309409,-0.2825552651693207,-1.6690993614607135,0.1414185955172306,2.4034451173676383,1.0273381002308042,-9.271675977878611e-05,-0.0004237013786802271,0.0005202228516513938,-0.00013672652243691872,7.693014707729096e-06,3.242550444355252e-05,0.00047848042831730316,0.0,0.0,0.0,0.0,0.0,0.0,0.0,-3.3036073049053094e-05,7.516296242304765e-05,-1.9539600850548844e-05,3.3411987538922716e-06,1.0563755584364065e-05,-7.120768232837804e-07,-4.930849428541606e-06,9.271675977878611e-05,0.0004237013786802271,-0.0005202228516513938,0.00013672652243691872,-7.693014707729096e-06,-3.242550444355252e-05,-0.00047848042831730316,0.7084590792655945,46.37740707397461,5.663662433624268,-19.634431838989258,-0.7427878975868225,-2.4173007011413574,0.15231649577617645,0
70,0.34499406814575195,-0.7322627902030945,-46.37740707397461,-5.663662433624268,19.610628128051758,0.7491965889930725,2.4301180839538574,-0.13858358561992645,0.0,0.0,0.0,0.0,0.0,0.0,0.0,-0.6693490148618039,-0.043605133472729936,-0.41900964707594957,0.416180728066328,0.15471135782760717,0.14796580244065516,-0.14691749598714834,0.8781275825793283,0.7553845893570086,-0.2825357255684702,-1.6691010322236175,0.1414073196848233,2.4034444052908155,1.0273415052013264,0.878092876070424,0.7554597494309409,-0.2825552651693207,-1.6690993614607135,0.1414185955172306,2.4034451173676383,1.0273381002308042,0.00027741005750224647,-4.5123871006590856e-05,0.0009213302482604576,0.00016799484671273303,-0.0003499636458969122,-0.0005360738053637172,-0.00014125164114107315,0.0,0.0,0.0,0.0,0.0,0.0,0.0,-3.470650890435856e-05,7.516007393226776e-05,-1.9539600850548844e-05,1.6707629040269012e-06,1.1275832407287023e-05,7.120768228396912e-07,-3.404970522202788e-06,-0.00027741005750224647,4.5123871006590856e-05,-0.0009213302482604576,-0.00016799484671273303,0.0003499636458969122,0.0005360738053637172,0.00014125164114107315,0.7322627902030945,46.37740707397461,5.663662433624268,-19.610628128051758,-0.7491965889930725,-2.4301180839538574,0.13858358561992645,0
71,0.3499929904937744,-0.7322627902030945,-46.37740707397461,-5.663662433624268,19.610628128051758,0.7491965889930725,2.4301180839538574,-0.13858358561992645,0.0,0.0,0.0,0.0,0.0,0.0,0.0,-0.6693490148618039,-0.043605133472729936,-0.41900964707594957,0.416180728066328,0.15471135782760717,0.14796580244065516,-0.14691749598714834,0.8781275825793283,0.7553845893570086,-0.2825357255684702,-1.6691010322236175,0.1414073196848233,2.4034444052908155,1.0273415052013264,0.878092876070424,0.7554597494309409,-0.2825552651693207,-1.6690993614607135,0.1414185955172306,2.4034451173676383,1.0273381002308042,0.00027741005750224647,-4.5123871006590856e-05,0.0009213302482604576,0.00016799484671273303,-0.0003499636458969122,-0.0005360738053637172,-0.00014125164114107315,0.0,0.0,0.0,0.0,0.0,0.0,0.0,-3.470650890435856e-05,7.516007393226776e-05,-1.9539600850548844e-05,1.6707629040269012e-06,1.1275832407287023e-05,7.120768228396912e-07,-3.404970522202788e-06,-0.00027741005750224647,4.5123871006590856e-05,-0.0009213302482604576,-0.00016799484671273303,0.0003499636458969122,0.0005360738053637172,0.00014125164114107315,0.7322627902030945,46.37740707397461,5.663662433624268,-19.610628128051758,-0.7491965889930725,-2.4301180839538574,0.13858358561992645,0
72,0.35499095916748047,-0.7084590792655945,-46.34963607788086,-5.588284015655518,19.610628128051758,0.7427878975868225,2.4108920097351074,-0.15964071452617645,0.0,0.0,0.0,0.0,0.0,0.0,0.0,-0.6817320475852711,-0.03981437034680432,-0.4260251735270132,0.4133419681370118,0.1551898641081979,0.14805445751423932,-0.14610867472899197,0.878125912143473,0.7553826376262627,-0.2825410162631583,-1.6691010233932997,0.1414079132882165,2.4034465415212845,1.027343844882316,0.878092876070424,0.7554597494309409,-0.2825552651693207,-1.6690993614607135,0.1414185955172306,2.4034451173676383,1.0273381002308042,-0.0005358676194116728,-0.00045729908908813855,-0.0003637276707617917,0.00022231332951485304,-6.125652588860405e-05,0.00011437719649118212,0.0008493848380385731,0.0,0.0,0.0,0.0,0.0,0.0,0.0,-3.3036073049053094e-05,7.711180467817602e-05,-1.4248906162417363e-05,1.6619325862166079e-06,1.0682229014097322e-05,-1.4241536461234716e-06,-5.744651511818688e-06,0.0005358676194116728,0.00045729908908813855,0.0003637276707617917,-0.00022231332951485304,6.125652588860405e-05,-0.00011437719649118212,-0.0008493848380385731,0.7084590792655945,46.34963607788086,5.588284015655518,-19.610628128051758,-0.7427878975868225,-2.4108920097351074,0.15964071452617645,0
73,0.35999011993408203,-0.7084590792655945,-46.34963607788086,-5.588284015655518,19.610628128051758,0.7427878975868225,2.4108920097351074,-0.15964071452617645,0.0,0.0,0.0,0.0,0.0,0.0,0.0,-0.6817320475852711,-0.03981437034680432,-0.4260251735270132,0.4133419681370118,0.1551898641081979,0.14805445751423932,-0.14610867472899197,0.878125912143473,0.7553826376262627,-0.2825410162631583,-1.6691010233932997,0.1414079132882165,2.4034465415212845,1.027343844882316,0.878092876070424,0.7554597494309409,-0.2825552651693207,-1.6690993614607135,0.1414185955172306,2.4034451173676383,1.0273381002308042,-0.0005358676194116728,-0.00045729908908813855,-0.0003637276707617917,0.00022231332951485304,-6.125652588860405e-05,0.00011437719649118212,0.0008493848380385731,0.0,0.0,0.0,0.0,0.0,0.0,0.0,-3.3036073049053094e-05,7.711180467817602e-05,-1.4248906162417363e-05,1.6619325862166079e-06,1.0682229014097322e-05,-1.4241536461234716e-06,-5.744651511818688e-06,0.0005358676194116728,0.00045729908908813855,0.0003637276707617917,-0.00022231332951485304,6.125652588860405e-05,-0.00011437719649118212,-0.0008493848380385731,0.7084590792655945,46.34963607788086,5.588284015655518,-19.610628128051758,-0.7427878975868225,-2.4108920097351074,0.15964071452617645,0
74,0.3649921417236328,-0.7084590792655945,-46.37740707397461,-5.612087726593018,19.634431838989258,0.7372947335243225,2.4108920097351074,-0.15964071452617645,0.0,0.0,0.0,0.0,0.0,0.0,0.0,-0.6853415771565085,-0.04608846106771979,-0.42764851472422144,0.4175799661982571,0.15582269318311337,0.14858223072977544,-0.14586895269151795,0.878125912143473,0.7553845952418683,-0.28253934484616217,-1.6691027026594232,0.14140864211253998,2.4034465415212845,1.027343844882316,0.878092876070424,0.7554597494309409,-0.2825552651693207,-1.6690993614607135,0.1414185955172306,2.4034451173676383,1.0273381002308042,0.0005433260772735909,0.0005837666846071471,0.0005031956191255912,-0.00023674515443037288,-1.2231503586293415e-05,0.00022334612347594437,0.00023900262528648872,0.0,0.0,0.0,0.0,0.0,0.0,0.0,-3.3036073049053094e-05,7.515418907255711e-05,-1.592032315855807e-05,3.3411987097053952e-06,9.953404690621337e-06,-1.4241536461234716e-06,-5.744651511818688e-06,-0.0005433260772735909,-0.0005837666846071471,-0.0005031956191255912,0.00023674515443037288,1.2231503586293415e-05,-0.00022334612347594437,-0.00023900262528648872,0.7084590792655945,46.37740707397461,5.612087726593018,-19.634431838989258,-0.7372947335243225,-2.4108920097351074,0.15964071452617645,0
75,0.3700075149536133,-0.7084590792655945,-46.37740707397461,-5.612087726593018,19.634431838989258,0.7372947335243225,2.4108920097351074,-0.15964071452617645,0.0,0.0,0.0,0.0,0.0,0.0,0.0,-0.6853415771565085,-0.04608846106771979,-0.42764851472422144,0.4175799661982571,0.15582269318311337,0.14858223072977544,-0.14586895269151795,0.878125912143473,0.7553845952418683,-0.28253934484616217,-1.6691027026594232,0.14140864211253998,2.4034465415212845,1.027343844882316,0.878092876070424,0.7554597494309409,-0.2825552651693207,-1.6690993614607135,0.1414185955172306,2.4034451173676383,1.0273381002308042,0.0005433260772735909,0.0005837666846071471,0.0005031956191255912,-0.00023674515443037288,-1.2231503586293415e-05,0.00022334612347594437,0.00023900262528648872,0.0,0.0,0.0,0.0,0.0,0.0,0.0,-3.3036073049053094e-05,7.515418907255711e-05,-1.592032315855807e-05,3.3411987097053952e-06,9.953404690621337e-06,-1.4241536461234716e-06,-5.744651511818688e-06,-0.0005433260772735909,-0.0005837666846071471,-0.0005031956191255912,0.00023674515443037288,1.2231503586293415e-05,-0.00022334612347594437,-0.00023900262528648872,0.7084590792655945,46.37740707397461,5.612087726593018,-19.634431838989258,-0.7372947335243225,-2.4108920097351074,0.15964071452617645,0
76,0.3750119209289551,-0.6568843722343445,-46.34963607788086,-5.564480304718018,19.610628128051758,0.7308860421180725,2.4173007011413574,-0.11111776530742645,0.0,0.0,0.0,0.0,0.0,0.0,0.0,-0.6952963699528314,-0.050337921889734995,-0.433394039817609,0.4202604078553688,0.15659258344389015,0.14922584287711396,-0.1470970375561925,0.8781222928657867,0.7553826636266759,-0.28254245171444686,-1.6691010322236175,0.14140935419003167,2.4034458294444616,1.027338453443514,0.878092876070424,0.7554597494309409,-0.2825552651693207,-1.6690993614607135,0.1414185955172306,2.4034451173676383,1.0273381002308042,-0.00038587612395624046,-0.0004792887056268586,-0.000717409118295865,0.0005184685428016682,0.0004237485847245923,-0.0001246573009518955,-0.004145746289103887,0.0,0.0,0.0,0.0,0.0,0.0,0.0,-2.9416795362724457e-05,7.708580426490919e-05,-1.2813454873861208e-05,1.6707629040269012e-06,9.241327198927785e-06,-7.120768232837804e-07,-3.532127097471971e-07,0.00038587612395624046,0.0004792887056268586,0.000717409118295865,-0.0005184685428016682,-0.0004237485847245923,0.0001246573009518955,0.004145746289103887,0.6568843722343445,46.34963607788086,5.564480304718018,-19.610628128051758,-0.7308860421180725,-2.4173007011413574,0.11111776530742645,0
77,0.38001227378845215,-0.6568843722343445,-46.34963607788086,-5.564480304718018,19.610628128051758,0.7308860421180725,2.4173007011413574,-0.11111776530742645,0.0,0.0,0.0,0.0,0.0,0.0,0.0,-0.6952963699528314,-0.050337921889734995,-0.433394039817609,0.4202604078553688,0.15659258344389015,0.14922584287711396,-0.1470970375561925,0.8781222928657867,0.7553826636266759,-0.28254245171444686,-1.6691010322236175,0.14140935419003167,2.4034458294444616,1.027338453443514,0.878092876070424,0.7554597494309409,-0.2825552651693207,-1.6690993614607135,0.1414185955172306,2.4034451173676383,1.0273381002308042,-0.00038587612395624046,-0.0004792887056268586,-0.000717409118295865,0.0005184685428016682,0.0004237485847245923,-0.0001246573009518955,-0.004145746289103887,0.0,0.0,0.0,0.0,0.0,0.0,0.0,-2.9416795362724457e-05,7.708580426490919e-05,-1.2813454873861208e-05,1.6707629040269012e-06,9.241327198927785e-06,-7.120768232837804e-07,-3.532127097471971e-07,0.00038587612395624046,0.0004792887056268586,0.000717409118295865,-0.0005184685428016682,-0.0004237485847245923,0.0001246573009518955,0.004145746289103887,0.6568843722343445,46.34963607788086,5.564480304718018,-19.610628128051758,-0.7308860421180725,-2.4173007011413574,0.11111776530742645,0
78,0.38495898246765137,-0.7084590792655945,-46.40121078491211,-5.564480304718018,19.610628128051758,0.7372947335243225,2.4173007011413574,-0.17337362468242645,0.0,0.0,0.0,0.0,0.0,0.0,0.0,-0.6865375941543378,-0.0379205234784963,-0.42607122922537766,0.4133586557417952,0.15598611623965156,0.1483222406308814,-0.14727170117131297,0.878125912143473,0.7553862569397454,-0.28254268571654617,-1.6691010322236175,0.14140864211320875,2.4034458294444616,1.0273453707612223,0.878092876070424,0.7554597494309409,-0.2825552651693207,-1.6690993614607135,0.1414185955172306,2.4034451173676383,1.0273381002308042,0.0011048518560358056,0.001028045460731747,-0.0004392482700000978,-4.593510857805324e-05,2.3719175523219695e-05,-8.778822325764704e-05,0.0011043380066542235,0.0,0.0,0.0,0.0,0.0,0.0,0.0,-3.3036073049053094e-05,7.349249119548151e-05,-1.2579452774552635e-05,1.6707629040269012e-06,9.953404021850742e-06,-7.120768232837804e-07,-7.270530418157506e-06,-0.0011048518560358056,-0.001028045460731747,0.0004392482700000978,4.593510857805324e-05,-2.3719175523219695e-05,8.778822325764704e-05,-0.0011043380066542235,0.7084590792655945,46.40121078491211,5.564480304718018,-19.610628128051758,-0.7372947335243225,-2.4173007011413574,0.17337362468242645,0
79,0.389939546585083,-0.7084590792655945,-46.40121078491211,-5.564480304718018,19.610628128051758,0.7372947335243225,2.4173007011413574,-0.17337362468242645,0.0,0.0,0.0,0.0,0.0,0.0,0.0,-0.6865375941543378,-0.0379205234784963,-0.42607122922537766,0.4133586557417952,0.15598611623965156,0.1483222406308814,-0.14727170117131297,0.878125912143473,0.7553862569397454,-0.28254268571654617,-1.6691010322236175,0.14140864211320875,2.4034458294444616,1.0273453707612223,0.878092876070424,0.7554597494309409,-0.2825552651693207,-1.6690993614607135,0.1414185955172306,2.4034451173676383,1.0273381002308042,0.0011048518560358056,0.001028045460731747,-0.0004392482700000978,-4.593510857805324e-05,2.3719175523219695e-05,-8.778822325764704e-05,0.0011043380066542235,0.0,0.0,0.0,0.0,0.0,0.0,0.0,-3.3036073049053094e-05,7.349249119548151e-05,-1.2579452774552635e-05,1.6707629040269012e-06,9.953404021850742e-06,-7.120768232837804e-07,-7.270530418157506e-06,-0.0011048518560358056,-0.001028045460731747,0.0004392482700000978,4.593510857805324e-05,-2.3719175523219695e-05,8.778822325764704e-05,-0.0011043380066542235,0.7084590792655945,46.40121078491211,5.564480304718018,-19.610628128051758,-0.7372947335243225,-2.4173007011413574,0.17337362468242645,0
80,0.3950059413909912,-0.6568843722343445,-46.40121078491211,-5.663662433624268,19.634431838989258,0.7491965889930725,2.4301180839538574,-0.15231649577617645,0.0,0.0,0.0,0.0,0.0,0.0,0.0,-0.6913981424308024,-0.061659496047057484,-0.43226613120840696,0.42347397992515007,0.1559923033413378,0.15042630090079034,-0.14693383544408184,0.8781222928657867,0.755386256903933,-0.2825357255684702,-1.669102702659473,0.1414073196848233,2.403444405775332,1.0273430355498998,0.878092876070424,0.7554597494309409,-0.2825552651693207,-1.6690993614607135,0.1414185955172306,2.4034451173676383,1.0273381002308042,-0.0005197070732089292,0.0002901073515956696,0.0018245822093025722,-4.514277483456029e-05,-0.000319096827420855,-0.0003712931006510036,0.0002215088653419435,0.0,0.0,0.0,0.0,0.0,0.0,0.0,-2.9416795362724457e-05,7.34925270078346e-05,-1.9539600850548844e-05,3.3411987594433867e-06,1.1275832407287023e-05,7.115923064127117e-07,-4.9353190956225035e-06,0.0005197070732089292,-0.0002901073515956696,-0.0018245822093025722,4.514277483456029e-05,0.000319096827420855,0.0003712931006510036,-0.0002215088653419435,0.6568843722343445,46.40121078491211,5.663662433624268,-19.634431838989258,-0.7491965889930725,-2.4301180839538574,0.15231649577617645,0
