rezayati/contactInterpretation/dataset/franka_main/labeled_data/link5/c5_6.csv
index,time,tau_J0,tau_J1,tau_J2,tau_J3,tau_J4,tau_J5,tau_J6,tau_J_d0,tau_J_d1,tau_J_d2,tau_J_d3,tau_J_d4,tau_J_d5,tau_J_d6,tau_ext0,tau_ext1,tau_ext2,tau_ext3,tau_ext4,tau_ext5,tau_ext6,q0,q1,q2,q3,q4,q5,q6,q_d0,q_d1,q_d2,q_d3,q_d4,q_d5,q_d6,dq0,dq1,dq2,dq3,dq4,dq5,dq6,dq_d0,dq_d1,dq_d2,dq_d3,dq_d4,dq_d5,dq_d6,e0,e1,e2,e3,e4,e5,e6,de0,de1,de2,de3,de4,de5,de6,etau_J0,etau_J1,etau_J2,etau_J3,etau_J4,etau_J5,etau_J6,label
1,0.0,0.13260537385940552,-18.177942276000977,1.1441986560821533,18.321260452270508,0.6594749093055725,2.2689852714538574,-0.22098104655742645,0.0,0.0,0.0,0.0,0.0,0.0,0.0,0.1253505649736144,0.5063339661715798,0.3084751352048549,0.6610339316364353,0.240318673084041,0.06545384029632273,-0.20224631892762301,-0.6092873288832211,-0.05772190031932111,-0.6665630412436367,-2.5947169368601815,-0.05568021693741098,2.507955211692386,0.876320716054903,-0.6090851748156966,-0.05753196718556838,-0.666603097082616,-2.5945565370258534,-0.05562143941554,2.507976027223799,0.8763108487046415,0.00011321586730847427,-0.00021115081859356848,-0.00024326885830875276,-0.0009103136802261222,0.00021148769185993003,-0.0003752421389257008,0.0010514148627196092,0.0,0.0,0.0,0.0,0.0,0.0,0.0,0.00020215406752455145,0.0001899331337527274,-4.005583897925824e-05,0.00016039983432802885,5.87775218709799e-05,2.0815531412754495e-05,-9.867350261538732e-06,-0.00011321586730847427,0.00021115081859356848,0.00024326885830875276,0.0009103136802261222,-0.00021148769185993003,0.0003752421389257008,-0.0010514148627196092,-0.13260537385940552,18.177942276000977,-1.1441986560821533,-18.321260452270508,-0.6594749093055725,-2.2689852714538574,0.22098104655742645,0
2,0.0049970149993896484,0.16037636995315552,-18.130334854125977,1.1441986560821533,18.245882034301758,0.6658836007118225,2.2488436698913574,-0.15231649577617645,0.0,0.0,0.0,0.0,0.0,0.0,0.0,0.14904520777263464,0.5123827845216276,0.329115638963249,0.6541609377202223,0.2394590675883182,0.06561994511780214,-0.20185852684336356,-0.6092892777250523,-0.05772524119103164,-0.6665630412436367,-2.594711647134078,-0.05568081310526709,2.507957488893972,0.8763130866603718,-0.6090851748156966,-0.05753196718556838,-0.666603097082616,-2.5945565370258534,-0.05562143941554,2.507976027223799,0.8763108487046415,0.0008197027347380069,-0.00046434354976765136,0.0007872044196747957,0.0008323035080709554,-0.00015889059381290699,-0.00029028661578848266,-0.0013695043042713365,0.0,0.0,0.0,0.0,0.0,0.0,0.0,0.00020410290935568565,0.00019327400546325507,-4.005583897925824e-05,0.0001551101082246653,5.9373689727089396e-05,1.853832982678938e-05,-2.237955730288732e-06,-0.0008197027347380069,0.00046434354976765136,-0.0007872044196747957,-0.0008323035080709554,0.00015889059381290699,0.00029028661578848266,0.0013695043042713365,-0.16037636995315552,18.130334854125977,-1.1441986560821533,-18.245882034301758,-0.6658836007118225,-2.2488436698913574,0.15231649577617645,0
3,0.009995698928833008,0.16037636995315552,-18.130334854125977,1.1441986560821533,18.245882034301758,0.6658836007118225,2.2488436698913574,-0.15231649577617645,0.0,0.0,0.0,0.0,0.0,0.0,0.0,0.14904520777263464,0.5123827845216276,0.329115638963249,0.6541609377202223,0.2394590675883182,0.06561994511780214,-0.20185852684336356,-0.6092892777250523,-0.05772524119103164,-0.6665630412436367,-2.594711647134078,-0.05568081310526709,2.507957488893972,0.8763130866603718,-0.6090851748156966,-0.05753196718556838,-0.666603097082616,-2.5945565370258534,-0.05562143941554,2.507976027223799,0.8763108487046415,0.0008197027347380069,-0.00046434354976765136,0.0007872044196747957,0.0008323035080709554,-0.00015889059381290699,-0.00029028661578848266,-0.0013695043042713365,0.0,0.0,0.0,0.0,0.0,0.0,0.0,0.00020410290935568565,0.00019327400546325507,-4.005583897925824e-05,0.0001551101082246653,5.9373689727089396e-05,1.853832982678938e-05,-2.237955730288732e-06,-0.0008197027347380069,0.00046434354976765136,-0.0007872044196747957,-0.0008323035080709554,0.00015889059381290699,0.00029028661578848266,0.0013695043042713365,-0.16037636995315552,18.130334854125977,-1.1441986560821533,-18.245882034301758,-0.6658836007118225,-2.2488436698913574,0.15231649577617645,0
4,0.014998674392700195,0.13260537385940552,-18.154138565063477,1.1441986560821533,18.245882034301758,0.6658836007118225,2.2488436698913574,-0.22830526530742645,0.0,0.0,0.0,0.0,0.0,0.0,0.0,0.14388723826368566,0.503361431184781,0.3226965192474653,0.6582256569280074,0.23973137065209804,0.0654714043580641,-0.1988087752368261,-0.6092873288832211,-0.057723570755176375,-0.6665630412436367,-2.594711647134078,-0.055681904483131504,2.507957449648337,0.8763215298569863,-0.6090851748156966,-0.05753196718556838,-0.666603097082616,-2.5945565370258534,-0.05562143941554,2.507976027223799,0.8763108487046415,0.0006646603288018356,0.00014363919115166653,0.0004774814928746764,0.0007459215074655186,3.4994949206005e-05,-0.00041518577072948494,0.000992571241496635,0.0,0.0,0.0,0.0,0.0,0.0,0.0,0.00020215406752455145,0.00019160356960799124,-4.005583897925824e-05,0.0001551101082246653,6.046506759150444e-05,1.857757546197547e-05,-1.0681152344815814e-05,-0.0006646603288018356,-0.00014363919115166653,-0.0004774814928746764,-0.0007459215074655186,-3.4994949206005e-05,0.00041518577072948494,-0.000992571241496635,-0.13260537385940552,18.154138565063477,-1.1441986560821533,-18.245882034301758,-0.6658836007118225,-2.2488436698913574,0.22830526530742645,0
5,0.019994735717773438,0.13260537385940552,-18.154138565063477,1.1441986560821533,18.245882034301758,0.6658836007118225,2.2488436698913574,-0.22830526530742645,0.0,0.0,0.0,0.0,0.0,0.0,0.0,0.14388723826368566,0.503361431184781,0.3226965192474653,0.6582256569280074,0.23973137065209804,0.0654714043580641,-0.1988087752368261,-0.6092873288832211,-0.057723570755176375,-0.6665630412436367,-2.594711647134078,-0.055681904483131504,2.507957449648337,0.8763215298569863,-0.6090851748156966,-0.05753196718556838,-0.666603097082616,-2.5945565370258534,-0.05562143941554,2.507976027223799,0.8763108487046415,0.0006646603288018356,0.00014363919115166653,0.0004774814928746764,0.0007459215074655186,3.4994949206005e-05,-0.00041518577072948494,0.000992571241496635,0.0,0.0,0.0,0.0,0.0,0.0,0.0,0.00020215406752455145,0.00019160356960799124,-4.005583897925824e-05,0.0001551101082246653,6.046506759150444e-05,1.857757546197547e-05,-1.0681152344815814e-05,-0.0006646603288018356,-0.00014363919115166653,-0.0004774814928746764,-0.0007459215074655186,-3.4994949206005e-05,0.00041518577072948494,-0.000992571241496635,-0.13260537385940552,18.154138565063477,-1.1441986560821533,-18.245882034301758,-0.6658836007118225,-2.2488436698913574,0.22830526530742645,0
6,0.025005102157592773,0.16037636995315552,-18.130334854125977,1.0926239490509033,18.297456741333008,0.6658836007118225,2.2625765800476074,-0.19351522624492645,0.0,0.0,0.0,0.0,0.0,0.0,0.0,0.1362770728170524,0.4963738822542801,0.3186267858207892,0.6648984098423774,0.24078381782226319,0.06499713087554491,-0.19804761699734527,-0.6092892777250523,-0.05772532011199648,-0.6665594219659503,-2.5947152664117645,-0.05568506763720255,2.507955923823044,0.8763176642970906,-0.6090851748156966,-0.05753196718556838,-0.666603097082616,-2.5945565370258534,-0.05562143941554,2.507976027223799,0.8763108487046415,-0.0011799830085916464,-0.0005286728528983084,0.0010260309058549096,0.00025276692225049144,6.102386744680349e-05,-0.0003396284643654342,-0.00020643020636356083,0.0,0.0,0.0,0.0,0.0,0.0,0.0,0.00020410290935568565,0.00019335292642809476,-4.36751166656979e-05,0.00015872938591110497,6.36282216625525e-05,2.010340075475625e-05,-6.815592449083141e-06,0.0011799830085916464,0.0005286728528983084,-0.0010260309058549096,-0.00025276692225049144,-6.102386744680349e-05,0.0003396284643654342,0.00020643020636356083,-0.16037636995315552,18.130334854125977,-1.0926239490509033,-18.297456741333008,-0.6658836007118225,-2.2625765800476074,0.19351522624492645,0
7,0.030013322830200195,0.16037636995315552,-18.130334854125977,1.0926239490509033,18.297456741333008,0.6658836007118225,2.2625765800476074,-0.19351522624492645,0.0,0.0,0.0,0.0,0.0,0.0,0.0,0.1362770728170524,0.4963738822542801,0.3186267858207892,0.6648984098423774,0.24078381782226319,0.06499713087554491,-0.19804761699734527,-0.6092892777250523,-0.05772532011199648,-0.6665594219659503,-2.5947152664117645,-0.05568506763720255,2.507955923823044,0.8763176642970906,-0.6090851748156966,-0.05753196718556838,-0.666603097082616,-2.5945565370258534,-0.05562143941554,2.507976027223799,0.8763108487046415,-0.0011799830085916464,-0.0005286728528983084,0.0010260309058549096,0.00025276692225049144,6.102386744680349e-05,-0.0003396284643654342,-0.00020643020636356083,0.0,0.0,0.0,0.0,0.0,0.0,0.0,0.00020410290935568565,0.00019335292642809476,-4.36751166656979e-05,0.00015872938591110497,6.36282216625525e-05,2.010340075475625e-05,-6.815592449083141e-06,0.0011799830085916464,0.0005286728528983084,-0.0010260309058549096,-0.00025276692225049144,-6.102386744680349e-05,0.0003396284643654342,0.00020643020636356083,-0.16037636995315552,18.130334854125977,-1.0926239490509033,-18.297456741333008,-0.6658836007118225,-2.2625765800476074,0.19351522624492645,0
8,0.03499794006347656,0.05722695589065552,-18.177942276000977,1.0688202381134033,18.269685745239258,0.6539817452430725,2.2625765800476074,-0.22098104655742645,0.0,0.0,0.0,0.0,0.0,0.0,0.0,0.127413283304285,0.49799351858045227,0.313776764281704,0.6642510905798047,0.24107284431915543,0.06565870348637369,-0.197440168601735,-0.6092820391696795,-0.05772190031976662,-0.666557751530095,-2.5947133175699335,-0.055682707935701285,2.5079559237692095,0.876320716054903,-0.6090851748156966,-0.05753196718556838,-0.666603097082616,-2.5945565370258534,-0.05562143941554,2.507976027223799,0.8763108487046415,0.0005426357972985162,0.000271827210345904,0.00048636556274723645,0.00084476922154578,0.0003648898205263485,-0.00014550698290837784,0.0010945369798142147,0.0,0.0,0.0,0.0,0.0,0.0,0.0,0.00019686435398291735,0.0001899331341982391,-4.534555252100336e-05,0.0001567805440800818,6.126852016128531e-05,2.0103454589470715e-05,-9.867350261538732e-06,-0.0005426357972985162,-0.000271827210345904,-0.00048636556274723645,-0.00084476922154578,-0.0003648898205263485,0.00014550698290837784,-0.0010945369798142147,-0.05722695589065552,18.177942276000977,-1.0688202381134033,-18.269685745239258,-0.6539817452430725,-2.2625765800476074,0.22098104655742645,0
9,0.04001331329345703,0.05722695589065552,-18.177942276000977,1.0688202381134033,18.269685745239258,0.6539817452430725,2.2625765800476074,-0.22098104655742645,0.0,0.0,0.0,0.0,0.0,0.0,0.0,0.127413283304285,0.49799351858045227,0.313776764281704,0.6642510905798047,0.24107284431915543,0.06565870348637369,-0.197440168601735,-0.6092820391696795,-0.05772190031976662,-0.666557751530095,-2.5947133175699335,-0.055682707935701285,2.5079559237692095,0.876320716054903,-0.6090851748156966,-0.05753196718556838,-0.666603097082616,-2.5945565370258534,-0.05562143941554,2.507976027223799,0.8763108487046415,0.0005426357972985162,0.000271827210345904,0.00048636556274723645,0.00084476922154578,0.0003648898205263485,-0.00014550698290837784,0.0010945369798142147,0.0,0.0,0.0,0.0,0.0,0.0,0.0,0.00019686435398291735,0.0001899331341982391,-4.534555252100336e-05,0.0001567805440800818,6.126852016128531e-05,2.0103454589470715e-05,-9.867350261538732e-06,-0.0005426357972985162,-0.000271827210345904,-0.00048636556274723645,-0.00084476922154578,-0.0003648898205263485,0.00014550698290837784,-0.0010945369798142147,-0.05722695589065552,18.177942276000977,-1.0688202381134033,-18.269685745239258,-0.6539817452430725,-2.2625765800476074,0.22098104655742645,0
10,0.04500174522399902,0.13260537385940552,-18.154138565063477,1.0926239490509033,18.245882034301758,0.6658836007118225,2.2360262870788574,-0.20083944499492645,0.0,0.0,0.0,0.0,0.0,0.0,0.0,0.1340236361552447,0.513631749696172,0.32028482767160965,0.6540634926400545,0.23979527625278696,0.0652000247644465,-0.1979502744074396,-0.6092873288832211,-0.05772357107995401,-0.6665594219659503,-2.594711648151563,-0.055685570987913456,2.507958873801761,0.8763184780991738,-0.6090851748156966,-0.05753196718556838,-0.666603097082616,-2.5945565370258534,-0.05562143941554,2.507976027223799,0.8763108487046415,-0.00048185917660888123,0.0008449424296201086,0.00044147116427952355,0.0005967658281981013,1.514230543754177e-05,0.0003878141295599694,-0.00018278300885867896,0.0,0.0,0.0,0.0,0.0,0.0,0.0,0.00020215406752455145,0.00019160389438562658,-4.36751166656979e-05,0.00015511112570942842,6.413157237345618e-05,1.7153422037896604e-05,-7.629394532360223e-06,0.00048185917660888123,-0.0008449424296201086,-0.00044147116427952355,-0.0005967658281981013,-1.514230543754177e-05,-0.0003878141295599694,0.00018278300885867896,-0.13260537385940552,18.154138565063477,-1.0926239490509033,-18.245882034301758,-0.6658836007118225,-2.2360262870788574,0.20083944499492645,0
11,0.04995536804199219,0.13260537385940552,-18.154138565063477,1.0926239490509033,18.245882034301758,0.6658836007118225,2.2360262870788574,-0.20083944499492645,0.0,0.0,0.0,0.0,0.0,0.0,0.0,0.1340236361552447,0.513631749696172,0.32028482767160965,0.6540634926400545,0.23979527625278696,0.0652000247644465,-0.1979502744074396,-0.6092873288832211,-0.05772357107995401,-0.6665594219659503,-2.594711648151563,-0.055685570987913456,2.507958873801761,0.8763184780991738,-0.6090851748156966,-0.05753196718556838,-0.666603097082616,-2.5945565370258534,-0.05562143941554,2.507976027223799,0.8763108487046415,-0.00048185917660888123,0.0008449424296201086,0.00044147116427952355,0.0005967658281981013,1.514230543754177e-05,0.0003878141295599694,-0.00018278300885867896,0.0,0.0,0.0,0.0,0.0,0.0,0.0,0.00020215406752455145,0.00019160389438562658,-4.36751166656979e-05,0.00015511112570942842,6.413157237345618e-05,1.7153422037896604e-05,-7.629394532360223e-06,0.00048185917660888123,-0.0008449424296201086,-0.00044147116427952355,-0.0005967658281981013,-1.514230543754177e-05,-0.0003878141295599694,0.00018278300885867896,-0.13260537385940552,18.154138565063477,-1.0926239490509033,-18.245882034301758,-0.6658836007118225,-2.2360262870788574,0.20083944499492645,0
12,0.054998159408569336,0.13260537385940552,-18.130334854125977,1.1164276599884033,18.269685745239258,0.6539817452430725,2.2360262870788574,-0.21457235515117645,0.0,0.0,0.0,0.0,0.0,0.0,0.0,0.1255307883753113,0.498767890695851,0.3115588558180043,0.665582351062534,0.24069195400200571,0.06729624326341518,-0.1998163587637942,-0.6092873288832211,-0.05772524119103347,-0.6665610924018056,-2.594713317569939,-0.055682668941421494,2.507958991539331,0.8763200039780801,-0.6090851748156966,-0.05753196718556838,-0.666603097082616,-2.5945565370258534,-0.05562143941554,2.507976027223799,0.8763108487046415,0.0002304677331104944,-0.0007279704283815498,-0.00010455050779555426,0.0007336289190756737,0.00028759814807390803,0.0007150673204145384,0.0009013947249197414,0.0,0.0,0.0,0.0,0.0,0.0,0.0,0.00020215406752455145,0.00019327400546508694,-4.2004680810392436e-05,0.00015678054408541087,6.122952588149405e-05,1.703568446798087e-05,-9.155273438588019e-06,-0.0002304677331104944,0.0007279704283815498,0.00010455050779555426,-0.0007336289190756737,-0.00028759814807390803,-0.0007150673204145384,-0.0009013947249197414,-0.13260537385940552,18.130334854125977,-1.1164276599884033,-18.269685745239258,-0.6539817452430725,-2.2360262870788574,0.21457235515117645,0
13,0.05999755859375,0.13260537385940552,-18.130334854125977,1.1164276599884033,18.269685745239258,0.6539817452430725,2.2360262870788574,-0.21457235515117645,0.0,0.0,0.0,0.0,0.0,0.0,0.0,0.1255307883753113,0.498767890695851,0.3115588558180043,0.665582351062534,0.24069195400200571,0.06729624326341518,-0.1998163587637942,-0.6092873288832211,-0.05772524119103347,-0.6665610924018056,-2.594713317569939,-0.055682668941421494,2.507958991539331,0.8763200039780801,-0.6090851748156966,-0.05753196718556838,-0.666603097082616,-2.5945565370258534,-0.05562143941554,2.507976027223799,0.8763108487046415,0.0002304677331104944,-0.0007279704283815498,-0.00010455050779555426,0.0007336289190756737,0.00028759814807390803,0.0007150673204145384,0.0009013947249197414,0.0,0.0,0.0,0.0,0.0,0.0,0.0,0.00020215406752455145,0.00019327400546508694,-4.2004680810392436e-05,0.00015678054408541087,6.122952588149405e-05,1.703568446798087e-05,-9.155273438588019e-06,-0.0002304677331104944,0.0007279704283815498,0.00010455050779555426,-0.0007336289190756737,-0.00028759814807390803,-0.0007150673204145384,-0.0009013947249197414,-0.13260537385940552,18.130334854125977,-1.1164276599884033,-18.269685745239258,-0.6539817452430725,-2.2360262870788574,0.21457235515117645,0
14,0.06499862670898438,0.16037636995315552,-18.177942276000977,1.1441986560821533,18.321260452270508,0.6594749093055725,2.2552523612976074,-0.16604940593242645,0.0,0.0,0.0,0.0,0.0,0.0,0.0,0.1288638739017578,0.49884645978300374,0.30982530551413895,0.6623877182400206,0.24060124323193924,0.066728433421578,-0.1975080851908885,-0.6092892777250523,-0.05772190031932111,-0.6665630412436367,-2.594716939900075,-0.055681153156691025,2.5079567375719574,0.876314612539278,-0.6090851748156966,-0.05753196718556838,-0.666603097082616,-2.5945565370258534,-0.05562143941554,2.507976027223799,0.8763108487046415,-6.260765958622658e-05,-4.1881941481675445e-05,-0.00037170159584543137,-0.0006910923517073373,0.0001971069349844053,-0.000251769427104675,-0.0012637985725542666,0.0,0.0,0.0,0.0,0.0,0.0,0.0,0.00020410290935568565,0.0001899331337527274,-4.005583897925824e-05,0.00016040287422169897,5.97137411510254e-05,1.928965184161413e-05,-3.7638346365165276e-06,6.260765958622658e-05,4.1881941481675445e-05,0.00037170159584543137,0.0006910923517073373,-0.0001971069349844053,0.000251769427104675,0.0012637985725542666,-0.16037636995315552,18.177942276000977,-1.1441986560821533,-18.321260452270508,-0.6594749093055725,-2.2552523612976074,0.16604940593242645,0
15,0.07004380226135254,0.16037636995315552,-18.177942276000977,1.1441986560821533,18.321260452270508,0.6594749093055725,2.2552523612976074,-0.16604940593242645,0.0,0.0,0.0,0.0,0.0,0.0,0.0,0.1288638739017578,0.49884645978300374,0.30982530551413895,0.6623877182400206,0.24060124323193924,0.066728433421578,-0.1975080851908885,-0.6092892777250523,-0.05772190031932111,-0.6665630412436367,-2.594716939900075,-0.055681153156691025,2.5079567375719574,0.876314612539278,-0.6090851748156966,-0.05753196718556838,-0.666603097082616,-2.5945565370258534,-0.05562143941554,2.507976027223799,0.8763108487046415,-6.260765958622658e-05,-4.1881941481675445e-05,-0.00037170159584543137,-0.0006910923517073373,0.0001971069349844053,-0.000251769427104675,-0.0012637985725542666,0.0,0.0,0.0,0.0,0.0,0.0,0.0,0.00020410290935568565,0.0001899331337527274,-4.005583897925824e-05,0.00016040287422169897,5.97137411510254e-05,1.928965184161413e-05,-3.7638346365165276e-06,6.260765958622658e-05,4.1881941481675445e-05,0.00037170159584543137,0.0006910923517073373,-0.0001971069349844053,0.000251769427104675,0.0012637985725542666,-0.16037636995315552,18.177942276000977,-1.1441986560821533,-18.321260452270508,-0.6594749093055725,-2.2552523612976074,0.16604940593242645,0
16,0.07499814033508301,0.16037636995315552,-18.177942276000977,1.1441986560821533,18.321260452270508,0.6594749093055725,2.2552523612976074,-0.16604940593242645,0.0,0.0,0.0,0.0,0.0,0.0,0.0,0.1288638739017578,0.49884645978300374,0.30982530551413895,0.6623877182400206,0.24060124323193924,0.066728433421578,-0.1975080851908885,-0.6092892777250523,-0.05772190031932111,-0.6665630412436367,-2.594716939900075,-0.055681153156691025,2.5079567375719574,0.876314612539278,-0.6090851748156966,-0.05753196718556838,-0.666603097082616,-2.5945565370258534,-0.05562143941554,2.507976027223799,0.8763108487046415,-6.260765958622658e-05,-4.1881941481675445e-05,-0.00037170159584543137,-0.0006910923517073373,0.0001971069349844053,-0.000251769427104675,-0.0012637985725542666,0.0,0.0,0.0,0.0,0.0,0.0,0.0,0.00020410290935568565,0.0001899331337527274,-4.005583897925824e-05,0.00016040287422169897,5.97137411510254e-05,1.928965184161413e-05,-3.7638346365165276e-06,6.260765958622658e-05,4.1881941481675445e-05,0.00037170159584543137,0.0006910923517073373,-0.0001971069349844053,0.000251769427104675,0.0012637985725542666,-0.16037636995315552,18.177942276000977,-1.1441986560821533,-18.321260452270508,-0.6594749093055725,-2.2552523612976074,0.16604940593242645,0
17,0.07999539375305176,0.16037636995315552,-18.177942276000977,1.1441986560821533,18.321260452270508,0.6594749093055725,2.2552523612976074,-0.16604940593242645,0.0,0.0,0.0,0.0,0.0,0.0,0.0,0.1288638739017578,0.49884645978300374,0.30982530551413895,0.6623877182400206,0.24060124323193924,0.066728433421578,-0.1975080851908885,-0.6092892777250523,-0.05772190031932111,-0.6665630412436367,-2.594716939900075,-0.055681153156691025,2.5079567375719574,0.876314612539278,-0.6090851748156966,-0.05753196718556838,-0.666603097082616,-2.5945565370258534,-0.05562143941554,2.507976027223799,0.8763108487046415,-6.260765958622658e-05,-4.1881941481675445e-05,-0.00037170159584543137,-0.0006910923517073373,0.0001971069349844053,-0.000251769427104675,-0.0012637985725542666,0.0,0.0,0.0,0.0,0.0,0.0,0.0,0.00020410290935568565,0.0001899331337527274,-4.005583897925824e-05,0.00016040287422169897,5.97137411510254e-05,1.928965184161413e-05,-3.7638346365165276e-06,6.260765958622658e-05,4.1881941481675445e-05,0.00037170159584543137,0.0006910923517073373,-0.0001971069349844053,0.000251769427104675,0.0012637985725542666,-0.16037636995315552,18.177942276000977,-1.1441986560821533,-18.321260452270508,-0.6594749093055725,-2.2552523612976074,0.16604940593242645,0
18,0.08510279655456543,0.18418008089065552,-18.205713272094727,1.1441986560821533,18.321260452270508,0.6658836007118225,2.2552523612976074,-0.22098104655742645,0.0,0.0,0.0,0.0,0.0,0.0,0.0,0.13307825327473466,0.5001452195557304,0.3102613825099452,0.6579783941982814,0.24075908225718282,0.06526055342872425,-0.1989027880032191,-0.6092909481609076,-0.05771995180226761,-0.6665630412436367,-2.594716939937777,-0.05568202229174766,2.5079567375712926,0.876320716054903,-0.6090851748156966,-0.05753196718556838,-0.666603097082616,-2.5945565370258534,-0.05562143941554,2.507976027223799,0.8763108487046415,-0.0005230357800121405,0.0008564219460510316,0.00021730917354653492,-0.0009935258589261907,-2.612095873098954e-05,-0.00022616109886105628,0.0012445309403464621,0.0,0.0,0.0,0.0,0.0,0.0,0.0,0.0002057733452109911,0.00018798461669922856,-4.005583897925824e-05,0.00016040291192354061,6.058287620765851e-05,1.9289652506415678e-05,-9.867350261538732e-06,0.0005230357800121405,-0.0008564219460510316,-0.00021730917354653492,0.0009935258589261907,2.612095873098954e-05,0.00022616109886105628,-0.0012445309403464621,-0.18418008089065552,18.205713272094727,-1.1441986560821533,-18.321260452270508,-0.6658836007118225,-2.2552523612976074,0.22098104655742645,0
19,0.08999872207641602,0.18418008089065552,-18.205713272094727,1.1441986560821533,18.321260452270508,0.6658836007118225,2.2552523612976074,-0.22098104655742645,0.0,0.0,0.0,0.0,0.0,0.0,0.0,0.13307825327473466,0.5001452195557304,0.3102613825099452,0.6579783941982814,0.24075908225718282,0.06526055342872425,-0.1989027880032191,-0.6092909481609076,-0.05771995180226761,-0.6665630412436367,-2.594716939937777,-0.05568202229174766,2.5079567375712926,0.876320716054903,-0.6090851748156966,-0.05753196718556838,-0.666603097082616,-2.5945565370258534,-0.05562143941554,2.507976027223799,0.8763108487046415,-0.0005230357800121405,0.0008564219460510316,0.00021730917354653492,-0.0009935258589261907,-2.612095873098954e-05,-0.00022616109886105628,0.0012445309403464621,0.0,0.0,0.0,0.0,0.0,0.0,0.0,0.0002057733452109911,0.00018798461669922856,-4.005583897925824e-05,0.00016040291192354061,6.058287620765851e-05,1.9289652506415678e-05,-9.867350261538732e-06,0.0005230357800121405,-0.0008564219460510316,-0.00021730917354653492,0.0009935258589261907,2.612095873098954e-05,0.00022616109886105628,-0.0012445309403464621,-0.18418008089065552,18.205713272094727,-1.1441986560821533,-18.321260452270508,-0.6658836007118225,-2.2552523612976074,0.22098104655742645,0
20,0.09499597549438477,0.13260537385940552,-18.154138565063477,1.1680023670196533,18.321260452270508,0.6658836007118225,2.2552523612976074,-0.23471395671367645,0.0,0.0,0.0,0.0,0.0,0.0,0.0,0.13359044580040025,0.49492772179282696,0.3110238467784101,0.6606027536652919,0.24137259670881736,0.06537744921461,-0.19882661508564203,-0.6092873288832211,-0.057723570755178207,-0.6665647116794919,-2.5947191620877086,-0.05568084004703697,2.5079567375712926,0.8763222419338093,-0.6090851748156966,-0.05753196718556838,-0.666603097082616,-2.5945565370258534,-0.05562143941554,2.507976027223799,0.8763108487046415,0.0001607512729785623,-0.00014820598621305943,-0.0006789503022954642,-0.000394471784566456,-0.00011542775834530449,3.0142411809067553e-05,0.00135252941826854,0.0,0.0,0.0,0.0,0.0,0.0,0.0,0.00020215406752455145,0.0001916035696098231,-3.83854031240638e-05,0.00016262506185515946,5.940063149696695e-05,1.9289652506415678e-05,-1.1393229167766528e-05,-0.0001607512729785623,0.00014820598621305943,0.0006789503022954642,0.000394471784566456,0.00011542775834530449,-3.0142411809067553e-05,-0.00135252941826854,-0.13260537385940552,18.154138565063477,-1.1680023670196533,-18.321260452270508,-0.6658836007118225,-2.2552523612976074,0.23471395671367645,0
21,0.1017763614654541,0.13260537385940552,-18.154138565063477,1.1680023670196533,18.321260452270508,0.6658836007118225,2.2552523612976074,-0.23471395671367645,0.0,0.0,0.0,0.0,0.0,0.0,0.0,0.13359044580040025,0.49492772179282696,0.3110238467784101,0.6606027536652919,0.24137259670881736,0.06537744921461,-0.19882661508564203,-0.6092873288832211,-0.057723570755178207,-0.6665647116794919,-2.5947191620877086,-0.05568084004703697,2.5079567375712926,0.8763222419338093,-0.6090851748156966,-0.05753196718556838,-0.666603097082616,-2.5945565370258534,-0.05562143941554,2.507976027223799,0.8763108487046415,0.0001607512729785623,-0.00014820598621305943,-0.0006789503022954642,-0.000394471784566456,-0.00011542775834530449,3.0142411809067553e-05,0.00135252941826854,0.0,0.0,0.0,0.0,0.0,0.0,0.0,0.00020215406752455145,0.0001916035696098231,-3.83854031240638e-05,0.00016262506185515946,5.940063149696695e-05,1.9289652506415678e-05,-1.1393229167766528e-05,-0.0001607512729785623,0.00014820598621305943,0.0006789503022954642,0.000394471784566456,0.00011542775834530449,-3.0142411809067553e-05,-0.00135252941826854,-0.13260537385940552,18.154138565063477,-1.1680023670196533,-18.321260452270508,-0.6658836007118225,-2.2552523612976074,0.23471395671367645,0
22,0.10566902160644531,0.13260537385940552,-18.106531143188477,1.1441986560821533,18.297456741333008,0.6594749093055725,2.2625765800476074,-0.22830526530742645,0.0,0.0,0.0,0.0,0.0,0.0,0.0,0.1384763688086077,0.4979204370848989,0.3163116194895056,0.658193249138874,0.24033690459192295,0.06575775099862904,-0.19893534951452624,-0.6092873288832211,-0.0577269116268869,-0.6665630412436367,-2.594715275619377,-0.05568131069592546,2.507955923769209,0.8763215298569863,-0.6090851748156966,-0.05753196718556838,-0.666603097082616,-2.5945565370258534,-0.05562143941554,2.507976027223799,0.8763108487046415,-0.00015039283031617162,-0.0007092773272778575,-0.000171975721247936,-0.00010260066386652413,0.00020860441939417115,-0.00044879495997962636,0.000763068952657547,0.0,0.0,0.0,0.0,0.0,0.0,0.0,0.00020215406752455145,0.0001949444413185189,-4.005583897925824e-05,0.00015873859352355524,5.987128038546091e-05,2.0103454589914804e-05,-1.0681152344815814e-05,0.00015039283031617162,0.0007092773272778575,0.000171975721247936,0.00010260066386652413,-0.00020860441939417115,0.00044879495997962636,-0.000763068952657547,-0.13260537385940552,18.106531143188477,-1.1441986560821533,-18.297456741333008,-0.6594749093055725,-2.2625765800476074,0.22830526530742645,0
23,0.11000418663024902,0.13260537385940552,-18.106531143188477,1.1441986560821533,18.297456741333008,0.6594749093055725,2.2625765800476074,-0.22830526530742645,0.0,0.0,0.0,0.0,0.0,0.0,0.0,0.1384763688086077,0.4979204370848989,0.3163116194895056,0.658193249138874,0.24033690459192295,0.06575775099862904,-0.19893534951452624,-0.6092873288832211,-0.0577269116268869,-0.6665630412436367,-2.594715275619377,-0.05568131069592546,2.507955923769209,0.8763215298569863,-0.6090851748156966,-0.05753196718556838,-0.666603097082616,-2.5945565370258534,-0.05562143941554,2.507976027223799,0.8763108487046415,-0.00015039283031617162,-0.0007092773272778575,-0.000171975721247936,-0.00010260066386652413,0.00020860441939417115,-0.00044879495997962636,0.000763068952657547,0.0,0.0,0.0,0.0,0.0,0.0,0.0,0.00020215406752455145,0.0001949444413185189,-4.005583897925824e-05,0.00015873859352355524,5.987128038546091e-05,2.0103454589914804e-05,-1.0681152344815814e-05,0.00015039283031617162,0.0007092773272778575,0.000171975721247936,0.00010260066386652413,-0.00020860441939417115,0.00044879495997962636,-0.000763068952657547,-0.13260537385940552,18.106531143188477,-1.1441986560821533,-18.297456741333008,-0.6594749093055725,-2.2625765800476074,0.22830526530742645,0
24,0.1150052547454834,0.13260537385940552,-18.154138565063477,1.1441986560821533,18.297456741333008,0.6658836007118225,2.2360262870788574,-0.17337362468242645,0.0,0.0,0.0,0.0,0.0,0.0,0.0,0.13725008188773832,0.4977429290602689,0.3144699700306764,0.6628646767406898,0.24033442706740726,0.06658232633403911,-0.20055068332142303,-0.6092873288832211,-0.057723570755176375,-0.6665630412436367,-2.5947152664118165,-0.05568190016295637,2.507958873801761,0.8763154261798559,-0.6090851748156966,-0.05753196718556838,-0.666603097082616,-2.5945565370258534,-0.05562143941554,2.507976027223799,0.8763108487046415,-0.00022469041567950838,0.0005376358590077327,-0.00021918470052184803,-0.0003442827501869789,0.00011569241349452768,9.276855645389876e-05,-0.0011832650644210097,0.0,0.0,0.0,0.0,0.0,0.0,0.0,0.00020215406752455145,0.00019160356960799124,-4.005583897925824e-05,0.0001587293859630634,6.046074741637014e-05,1.7153422037896604e-05,-4.577475214428972e-06,0.00022469041567950838,-0.0005376358590077327,0.00021918470052184803,0.0003442827501869789,-0.00011569241349452768,-9.276855645389876e-05,0.0011832650644210097,-0.13260537385940552,18.154138565063477,-1.1441986560821533,-18.297456741333008,-0.6658836007118225,-2.2360262870788574,0.17337362468242645,0
25,0.12000131607055664,0.13260537385940552,-18.154138565063477,1.1441986560821533,18.297456741333008,0.6658836007118225,2.2360262870788574,-0.17337362468242645,0.0,0.0,0.0,0.0,0.0,0.0,0.0,0.13725008188773832,0.4977429290602689,0.3144699700306764,0.6628646767406898,0.24033442706740726,0.06658232633403911,-0.20055068332142303,-0.6092873288832211,-0.057723570755176375,-0.6665630412436367,-2.5947152664118165,-0.05568190016295637,2.507958873801761,0.8763154261798559,-0.6090851748156966,-0.05753196718556838,-0.666603097082616,-2.5945565370258534,-0.05562143941554,2.507976027223799,0.8763108487046415,-0.00022469041567950838,0.0005376358590077327,-0.00021918470052184803,-0.0003442827501869789,0.00011569241349452768,9.276855645389876e-05,-0.0011832650644210097,0.0,0.0,0.0,0.0,0.0,0.0,0.0,0.00020215406752455145,0.00019160356960799124,-4.005583897925824e-05,0.0001587293859630634,6.046074741637014e-05,1.7153422037896604e-05,-4.577475214428972e-06,0.00022469041567950838,-0.0005376358590077327,0.00021918470052184803,0.0003442827501869789,-0.00011569241349452768,-9.276855645389876e-05,0.0011832650644210097,-0.13260537385940552,18.154138565063477,-1.1441986560821533,-18.297456741333008,-0.6658836007118225,-2.2360262870788574,0.17337362468242645,0
26,0.12611913681030273,0.13260537385940552,-18.154138565063477,1.1164276599884033,18.321260452270508,0.6594749093055725,2.2488436698913574,-0.22098104655742645,0.0,0.0,0.0,0.0,0.0,0.0,0.0,0.1355787754078154,0.5043179489490609,0.31500129825934736,0.6641906399020924,0.24049004900113635,0.0652834101368445,-0.19947025010143632,-0.6092873288832211,-0.057723570755176375,-0.6665610924018056,-2.5947171840965164,-0.05568329111743482,2.5079574496481154,0.8763196564167728,-0.6090851748156966,-0.05753196718556838,-0.666603097082616,-2.5945565370258534,-0.05562143941554,2.507976027223799,0.8763108487046415,-0.00022206354082601656,0.0005646306127232004,0.0006893719669607334,-0.0006259637301082862,0.00016010799019830827,-6.777682839279854e-05,0.0010596045233819062,0.0,0.0,0.0,0.0,0.0,0.0,0.0,0.00020215406752455145,0.00019160356960799124,-4.2004680810392436e-05,0.00016064707066298922,6.18517018948217e-05,1.8577575683575986e-05,-8.80771213129794e-06,0.00022206354082601656,-0.0005646306127232004,-0.0006893719669607334,0.0006259637301082862,-0.00016010799019830827,6.777682839279854e-05,-0.0010596045233819062,-0.13260537385940552,18.154138565063477,-1.1164276599884033,-18.321260452270508,-0.6594749093055725,-2.2488436698913574,0.22098104655742645,0
27,0.12999939918518066,0.13260537385940552,-18.154138565063477,1.1164276599884033,18.321260452270508,0.6594749093055725,2.2488436698913574,-0.22098104655742645,0.0,0.0,0.0,0.0,0.0,0.0,0.0,0.1355787754078154,0.5043179489490609,0.31500129825934736,0.6641906399020924,0.24049004900113635,0.0652834101368445,-0.19947025010143632,-0.6092873288832211,-0.057723570755176375,-0.6665610924018056,-2.5947171840965164,-0.05568329111743482,2.5079574496481154,0.8763196564167728,-0.6090851748156966,-0.05753196718556838,-0.666603097082616,-2.5945565370258534,-0.05562143941554,2.507976027223799,0.8763108487046415,-0.00022206354082601656,0.0005646306127232004,0.0006893719669607334,-0.0006259637301082862,0.00016010799019830827,-6.777682839279854e-05,0.0010596045233819062,0.0,0.0,0.0,0.0,0.0,0.0,0.0,0.00020215406752455145,0.00019160356960799124,-4.2004680810392436e-05,0.00016064707066298922,6.18517018948217e-05,1.8577575683575986e-05,-8.80771213129794e-06,0.00022206354082601656,-0.0005646306127232004,-0.0006893719669607334,0.0006259637301082862,-0.00016010799019830827,6.777682839279854e-05,-0.0010596045233819062,-0.13260537385940552,18.154138565063477,-1.1164276599884033,-18.321260452270508,-0.6594749093055725,-2.2488436698913574,0.22098104655742645,0
28,0.13509106636047363,0.13260537385940552,-18.154138565063477,1.1164276599884033,18.321260452270508,0.6594749093055725,2.2488436698913574,-0.22098104655742645,0.0,0.0,0.0,0.0,0.0,0.0,0.0,0.1355787754078154,0.5043179489490609,0.31500129825934736,0.6641906399020924,0.24049004900113635,0.0652834101368445,-0.19947025010143632,-0.6092873288832211,-0.057723570755176375,-0.6665610924018056,-2.5947171840965164,-0.05568329111743482,2.5079574496481154,0.8763196564167728,-0.6090851748156966,-0.05753196718556838,-0.666603097082616,-2.5945565370258534,-0.05562143941554,2.507976027223799,0.8763108487046415,-0.00022206354082601656,0.0005646306127232004,0.0006893719669607334,-0.0006259637301082862,0.00016010799019830827,-6.777682839279854e-05,0.0010596045233819062,0.0,0.0,0.0,0.0,0.0,0.0,0.0,0.00020215406752455145,0.00019160356960799124,-4.2004680810392436e-05,0.00016064707066298922,6.18517018948217e-05,1.8577575683575986e-05,-8.80771213129794e-06,0.00022206354082601656,-0.0005646306127232004,-0.0006893719669607334,0.0006259637301082862,-0.00016010799019830827,6.777682839279854e-05,-0.0010596045233819062,-0.13260537385940552,18.154138565063477,-1.1164276599884033,-18.321260452270508,-0.6594749093055725,-2.2488436698913574,0.22098104655742645,0
29,0.14000558853149414,0.16037636995315552,-18.177942276000977,1.1441986560821533,18.297456741333008,0.6658836007118225,2.2424349784851074,-0.19351522624492645,0.0,0.0,0.0,0.0,0.0,0.0,0.0,0.1339429566809857,0.5029998250874502,0.3166342224668106,0.6651685549196733,0.2399382777573362,0.06523622205864793,-0.1995347456270237,-0.6092892777250523,-0.05772190031932111,-0.6665630412436367,-2.59471526641316,-0.055681326197089584,2.5079581617249382,0.8763176642911089,-0.6090851748156966,-0.05753196718556838,-0.666603097082616,-2.5945565370258534,-0.05562143941554,2.507976027223799,0.8763108487046415,-0.0005275871364630851,0.00018316408370249894,-0.0003206915020350698,-8.937225485362796e-05,-0.00012607346906442173,6.712629822873967e-05,-0.00045493084571546585,0.0,0.0,0.0,0.0,0.0,0.0,0.0,0.00020410290935568565,0.0001899331337527274,-4.005583897925824e-05,0.00015872938730643327,5.9886781549584045e-05,1.7865498860736295e-05,-6.815586467423529e-06,0.0005275871364630851,-0.00018316408370249894,0.0003206915020350698,8.937225485362796e-05,0.00012607346906442173,-6.712629822873967e-05,0.00045493084571546585,-0.16037636995315552,18.177942276000977,-1.1441986560821533,-18.297456741333008,-0.6658836007118225,-2.2424349784851074,0.19351522624492645,0
30,0.14499664306640625,0.16037636995315552,-18.177942276000977,1.1441986560821533,18.297456741333008,0.6658836007118225,2.2424349784851074,-0.19351522624492645,0.0,0.0,0.0,0.0,0.0,0.0,0.0,0.1339429566809857,0.5029998250874502,0.3166342224668106,0.6651685549196733,0.2399382777573362,0.06523622205864793,-0.1995347456270237,-0.6092892777250523,-0.05772190031932111,-0.6665630412436367,-2.59471526641316,-0.055681326197089584,2.5079581617249382,0.8763176642911089,-0.6090851748156966,-0.05753196718556838,-0.666603097082616,-2.5945565370258534,-0.05562143941554,2.507976027223799,0.8763108487046415,-0.0005275871364630851,0.00018316408370249894,-0.0003206915020350698,-8.937225485362796e-05,-0.00012607346906442173,6.712629822873967e-05,-0.00045493084571546585,0.0,0.0,0.0,0.0,0.0,0.0,0.0,0.00020410290935568565,0.0001899331337527274,-4.005583897925824e-05,0.00015872938730643327,5.9886781549584045e-05,1.7865498860736295e-05,-6.815586467423529e-06,0.0005275871364630851,-0.00018316408370249894,0.0003206915020350698,8.937225485362796e-05,0.00012607346906442173,-6.712629822873967e-05,0.00045493084571546585,-0.16037636995315552,18.177942276000977,-1.1441986560821533,-18.297456741333008,-0.6658836007118225,-2.2424349784851074,0.19351522624492645,0
31,0.14999818801879883,0.13260537385940552,-18.229516983032227,1.1164276599884033,18.321260452270508,0.6658836007118225,2.2625765800476074,-0.19351522624492645,0.0,0.0,0.0,0.0,0.0,0.0,0.0,0.12987215437671246,0.4959128882494537,0.31257971944680174,0.6634318842294656,0.24003630005300206,0.06470048541286261,-0.19836071314729117,-0.6092873288832211,-0.05771828104163471,-0.6665610924018056,-2.59471693684762,-0.05568119182851168,2.5079555705564993,0.8763176642970906,-0.6090851748156966,-0.05753196718556838,-0.666603097082616,-2.5945565370258534,-0.05562143941554,2.507976027223799,0.8763108487046415,-0.00016636593479725325,0.00023063592699774804,0.0006731455653482262,-0.000673264215955085,-1.0126296216667151e-05,-0.0003683226375615922,0.0002311565709087753,0.0,0.0,0.0,0.0,0.0,0.0,0.0,0.00020215406752455145,0.00018631385606632939,-4.2004680810392436e-05,0.00016039982176652146,5.975241297168088e-05,2.0456667299662e-05,-6.815592449083141e-06,0.00016636593479725325,-0.00023063592699774804,-0.0006731455653482262,0.000673264215955085,1.0126296216667151e-05,0.0003683226375615922,-0.0002311565709087753,-0.13260537385940552,18.229516983032227,-1.1164276599884033,-18.321260452270508,-0.6658836007118225,-2.2625765800476074,0.19351522624492645,0
32,0.15499639511108398,0.13260537385940552,-18.229516983032227,1.1164276599884033,18.321260452270508,0.6658836007118225,2.2625765800476074,-0.19351522624492645,0.0,0.0,0.0,0.0,0.0,0.0,0.0,0.12987215437671246,0.4959128882494537,0.31257971944680174,0.6634318842294656,0.24003630005300206,0.06470048541286261,-0.19836071314729117,-0.6092873288832211,-0.05771828104163471,-0.6665610924018056,-2.59471693684762,-0.05568119182851168,2.5079555705564993,0.8763176642970906,-0.6090851748156966,-0.05753196718556838,-0.666603097082616,-2.5945565370258534,-0.05562143941554,2.507976027223799,0.8763108487046415,-0.00016636593479725325,0.00023063592699774804,0.0006731455653482262,-0.000673264215955085,-1.0126296216667151e-05,-0.0003683226375615922,0.0002311565709087753,0.0,0.0,0.0,0.0,0.0,0.0,0.0,0.00020215406752455145,0.00018631385606632939,-4.2004680810392436e-05,0.00016039982176652146,5.975241297168088e-05,2.0456667299662e-05,-6.815592449083141e-06,0.00016636593479725325,-0.00023063592699774804,-0.0006731455653482262,0.000673264215955085,1.0126296216667151e-05,0.0003683226375615922,-0.0002311565709087753,-0.13260537385940552,18.229516983032227,-1.1164276599884033,-18.321260452270508,-0.6658836007118225,-2.2625765800476074,0.19351522624492645,0
33,0.16000032424926758,0.10880166292190552,-18.205713272094727,1.1164276599884033,18.297456741333008,0.6658836007118225,2.2552523612976074,-0.18710653483867645,0.0,0.0,0.0,0.0,0.0,0.0,0.0,0.13215444924186925,0.4904345639633858,0.31703026234214055,0.6610048560189234,0.24006968320032646,0.06563631318307771,-0.19650180258935557,-0.6092856584473659,-0.05771995147748998,-0.6665610924018056,-2.5947152664117645,-0.055685186084907023,2.5079567375692986,0.8763136555683096,-0.6090851748156966,-0.05753196718556838,-0.666603097082616,-2.5945565370258534,-0.05562143941554,2.507976027223799,0.8763108487046415,0.00042911579617757806,-8.585925491664631e-05,0.000724038738482369,1.841825893494415e-05,-5.652888878842894e-05,3.9302669776859684e-05,-0.0012220257213719262,0.0,0.0,0.0,0.0,0.0,0.0,0.0,0.000200483631669357,0.00018798429192159322,-4.2004680810392436e-05,0.00015872938591110497,6.374666936702356e-05,1.928965450037623e-05,-2.8068636681588544e-06,-0.00042911579617757806,8.585925491664631e-05,-0.000724038738482369,-1.841825893494415e-05,5.652888878842894e-05,-3.9302669776859684e-05,0.0012220257213719262,-0.10880166292190552,18.205713272094727,-1.1164276599884033,-18.297456741333008,-0.6658836007118225,-2.2552523612976074,0.18710653483867645,0
34,0.16499543190002441,0.10880166292190552,-18.205713272094727,1.1164276599884033,18.297456741333008,0.6658836007118225,2.2552523612976074,-0.18710653483867645,0.0,0.0,0.0,0.0,0.0,0.0,0.0,0.13215444924186925,0.4904345639633858,0.31703026234214055,0.6610048560189234,0.24006968320032646,0.06563631318307771,-0.19650180258935557,-0.6092856584473659,-0.05771995147748998,-0.6665610924018056,-2.5947152664117645,-0.055685186084907023,2.5079567375692986,0.8763136555683096,-0.6090851748156966,-0.05753196718556838,-0.666603097082616,-2.5945565370258534,-0.05562143941554,2.507976027223799,0.8763108487046415,0.00042911579617757806,-8.585925491664631e-05,0.000724038738482369,1.841825893494415e-05,-5.652888878842894e-05,3.9302669776859684e-05,-0.0012220257213719262,0.0,0.0,0.0,0.0,0.0,0.0,0.0,0.000200483631669357,0.00018798429192159322,-4.2004680810392436e-05,0.00015872938591110497,6.374666936702356e-05,1.928965450037623e-05,-2.8068636681588544e-06,-0.00042911579617757806,8.585925491664631e-05,-0.000724038738482369,-1.841825893494415e-05,5.652888878842894e-05,-3.9302669776859684e-05,0.0012220257213719262,-0.10880166292190552,18.205713272094727,-1.1164276599884033,-18.297456741333008,-0.6658836007118225,-2.2552523612976074,0.18710653483867645,0
35,0.17000079154968262,0.13260537385940552,-18.177942276000977,1.0926239490509033,18.297456741333008,0.6594749093055725,2.2424349784851074,-0.17337362468242645,0.0,0.0,0.0,0.0,0.0,0.0,0.0,0.13361305596753295,0.4900464104731492,0.3196163247233064,0.658482935640123,0.24014505145968368,0.06624909450257631,-0.19844986171694548,-0.6092873288832211,-0.05772190031932111,-0.6665594219659503,-2.5947152674292493,-0.055681305852579764,2.5079581617249382,0.8763143665231168,-0.6090851748156966,-0.05753196718556838,-0.666603097082616,-2.5945565370258534,-0.05562143941554,2.507976027223799,0.8763108487046415,0.00018571815531796278,0.0005076369154144409,0.0008831648339915587,-5.38095842464387e-05,0.00015171987960023345,0.00029365778722964357,-0.00025996204345693415,0.0,0.0,0.0,0.0,0.0,0.0,0.0,0.00020215406752455145,0.0001899331337527274,-4.36751166656979e-05,0.00015873040339586808,5.9866437039764187e-05,1.7865498860736295e-05,-3.517818475295975e-06,-0.00018571815531796278,-0.0005076369154144409,-0.0008831648339915587,5.38095842464387e-05,-0.00015171987960023345,-0.00029365778722964357,0.00025996204345693415,-0.13260537385940552,18.177942276000977,-1.0926239490509033,-18.297456741333008,-0.6594749093055725,-2.2424349784851074,0.17337362468242645,0
36,0.1750049591064453,0.13260537385940552,-18.177942276000977,1.0926239490509033,18.297456741333008,0.6594749093055725,2.2424349784851074,-0.17337362468242645,0.0,0.0,0.0,0.0,0.0,0.0,0.0,0.13361305596753295,0.4900464104731492,0.3196163247233064,0.658482935640123,0.24014505145968368,0.06624909450257631,-0.19844986171694548,-0.6092873288832211,-0.05772190031932111,-0.6665594219659503,-2.5947152674292493,-0.055681305852579764,2.5079581617249382,0.8763143665231168,-0.6090851748156966,-0.05753196718556838,-0.666603097082616,-2.5945565370258534,-0.05562143941554,2.507976027223799,0.8763108487046415,0.00018571815531796278,0.0005076369154144409,0.0008831648339915587,-5.38095842464387e-05,0.00015171987960023345,0.00029365778722964357,-0.00025996204345693415,0.0,0.0,0.0,0.0,0.0,0.0,0.0,0.00020215406752455145,0.0001899331337527274,-4.36751166656979e-05,0.00015873040339586808,5.9866437039764187e-05,1.7865498860736295e-05,-3.517818475295975e-06,-0.00018571815531796278,-0.0005076369154144409,-0.0008831648339915587,5.38095842464387e-05,-0.00015171987960023345,-0.00029365778722964357,0.00025996204345693415,-0.13260537385940552,18.177942276000977,-1.0926239490509033,-18.297456741333008,-0.6594749093055725,-2.2424349784851074,0.17337362468242645,0
37,0.18000149726867676,0.16037636995315552,-18.054956436157227,1.1164276599884033,18.297456741333008,0.6658836007118225,2.2552523612976074,-0.22830526530742645,0.0,0.0,0.0,0.0,0.0,0.0,0.0,0.1388643820099318,0.4973366602265182,0.32157797593679965,0.6559383091178272,0.24018144812494036,0.06487120269688619,-0.19573673937368602,-0.6092892777250523,-0.05773053090457331,-0.6665610924018056,-2.59471526641177,-0.05568085259532319,2.5079567375712926,0.8763215298510036,-0.6090851748156966,-0.05753196718556838,-0.666603097082616,-2.5945565370258534,-0.05562143941554,2.507976027223799,0.8763108487046415,0.0001304124602580479,-0.0014111591056756216,0.00037664056005259753,-0.0002446899652283867,-1.7835657507227827e-05,-0.0002251447476879697,0.0011189837636424492,0.0,0.0,0.0,0.0,0.0,0.0,0.0,0.00020410290935568565,0.00019856371900492387,-4.2004680810392436e-05,0.00015872938591643404,5.941317978318955e-05,1.9289652506415678e-05,-1.0681146362157001e-05,-0.0001304124602580479,0.0014111591056756216,-0.00037664056005259753,0.0002446899652283867,1.7835657507227827e-05,0.0002251447476879697,-0.0011189837636424492,-0.16037636995315552,18.054956436157227,-1.1164276599884033,-18.297456741333008,-0.6658836007118225,-2.2552523612976074,0.22830526530742645,0
38,0.18500113487243652,0.16037636995315552,-18.054956436157227,1.1164276599884033,18.297456741333008,0.6658836007118225,2.2552523612976074,-0.22830526530742645,0.0,0.0,0.0,0.0,0.0,0.0,0.0,0.1388643820099318,0.4973366602265182,0.32157797593679965,0.6559383091178272,0.24018144812494036,0.06487120269688619,-0.19573673937368602,-0.6092892777250523,-0.05773053090457331,-0.6665610924018056,-2.59471526641177,-0.05568085259532319,2.5079567375712926,0.8763215298510036,-0.6090851748156966,-0.05753196718556838,-0.666603097082616,-2.5945565370258534,-0.05562143941554,2.507976027223799,0.8763108487046415,0.0001304124602580479,-0.0014111591056756216,0.00037664056005259753,-0.0002446899652283867,-1.7835657507227827e-05,-0.0002251447476879697,0.0011189837636424492,0.0,0.0,0.0,0.0,0.0,0.0,0.0,0.00020410290935568565,0.00019856371900492387,-4.2004680810392436e-05,0.00015872938591643404,5.941317978318955e-05,1.9289652506415678e-05,-1.0681146362157001e-05,-0.0001304124602580479,0.0014111591056756216,-0.00037664056005259753,0.0002446899652283867,1.7835657507227827e-05,0.0002251447476879697,-0.0011189837636424492,-0.16037636995315552,18.054956436157227,-1.1164276599884033,-18.297456741333008,-0.6658836007118225,-2.2552523612976074,0.22830526530742645,0
39,0.1900026798248291,0.18418008089065552,-18.078760147094727,1.1441986560821533,18.297456741333008,0.6594749093055725,2.2424349784851074,-0.23471395671367645,0.0,0.0,0.0,0.0,0.0,0.0,0.0,0.13179847283311744,0.49580457840903414,0.30843376092647845,0.6635052687754134,0.24103634155873047,0.06559368372165844,-0.1960404251950007,-0.6092909481609076,-0.05772886046871804,-0.6665630412436367,-2.5947152664117645,-0.05568008512627404,2.5079581617249382,0.8763222419338093,-0.6090851748156966,-0.05753196718556838,-0.666603097082616,-2.5945565370258534,-0.05562143941554,2.507976027223799,0.8763108487046415,-0.001254122156619053,-0.0009785875955471487,-0.0005982354553890121,-0.0004425134476001422,0.00017417676297344265,0.0002285077100630976,0.0013339856495668862,0.0,0.0,0.0,0.0,0.0,0.0,0.0,0.0002057733452109911,0.00019689328314966004,-4.005583897925824e-05,0.00015872938591110497,5.8645710734037126e-05,1.7865498860736295e-05,-1.1393229167766528e-05,0.001254122156619053,0.0009785875955471487,0.0005982354553890121,0.0004425134476001422,-0.00017417676297344265,-0.0002285077100630976,-0.0013339856495668862,-0.18418008089065552,18.078760147094727,-1.1441986560821533,-18.297456741333008,-0.6594749093055725,-2.2424349784851074,0.23471395671367645,0
40,0.19499993324279785,0.18418008089065552,-18.078760147094727,1.1441986560821533,18.297456741333008,0.6594749093055725,2.2424349784851074,-0.23471395671367645,0.0,0.0,0.0,0.0,0.0,0.0,0.0,0.13179847283311744,0.49580457840903414,0.30843376092647845,0.6635052687754134,0.24103634155873047,0.06559368372165844,-0.1960404251950007,-0.6092909481609076,-0.05772886046871804,-0.6665630412436367,-2.5947152664117645,-0.05568008512627404,2.5079581617249382,0.8763222419338093,-0.6090851748156966,-0.05753196718556838,-0.666603097082616,-2.5945565370258534,-0.05562143941554,2.507976027223799,0.8763108487046415,-0.001254122156619053,-0.0009785875955471487,-0.0005982354553890121,-0.0004425134476001422,0.00017417676297344265,0.0002285077100630976,0.0013339856495668862,0.0,0.0,0.0,0.0,0.0,0.0,0.0,0.0002057733452109911,0.00019689328314966004,-4.005583897925824e-05,0.00015872938591110497,5.8645710734037126e-05,1.7865498860736295e-05,-1.1393229167766528e-05,0.001254122156619053,0.0009785875955471487,0.0005982354553890121,0.0004425134476001422,-0.00017417676297344265,-0.0002285077100630976,-0.0013339856495668862,-0.18418008089065552,18.078760147094727,-1.1441986560821533,-18.297456741333008,-0.6594749093055725,-2.2424349784851074,0.23471395671367645,0
41,0.19999933242797852,0.13260537385940552,-18.130334854125977,1.1441986560821533,18.297456741333008,0.6658836007118225,2.2424349784851074,-0.17337362468242645,0.0,0.0,0.0,0.0,0.0,0.0,0.0,0.14264907892042208,0.5042434966997349,0.3148373202072953,0.6648946046824512,0.2403357736311167,0.06581908207949666,-0.19813837501955664,-0.6092873288832211,-0.05772524119103164,-0.6665630412436367,-2.5947152664117645,-0.05568398993658254,2.5079581617249382,0.8763154263413614,-0.6090851748156966,-0.05753196718556838,-0.666603097082616,-2.5945565370258534,-0.05562143941554,2.507976027223799,0.8763108487046415,0.0002699341685123107,-0.00025175406665160755,-0.00027412761071415567,-0.0002803519455370844,0.0001030515536863854,0.0003200207817260104,-0.0011118218445174274,0.0,0.0,0.0,0.0,0.0,0.0,0.0,0.00020215406752455145,0.00019327400546325507,-4.005583897925824e-05,0.00015872938591110497,6.2550521042537e-05,1.7865498860736295e-05,-4.577636719904632e-06,-0.0002699341685123107,0.00025175406665160755,0.00027412761071415567,0.0002803519455370844,-0.0001030515536863854,-0.0003200207817260104,0.0011118218445174274,-0.13260537385940552,18.130334854125977,-1.1441986560821533,-18.297456741333008,-0.6658836007118225,-2.2424349784851074,0.17337362468242645,0
42,0.2050018310546875,0.13260537385940552,-18.130334854125977,1.1441986560821533,18.297456741333008,0.6658836007118225,2.2424349784851074,-0.17337362468242645,0.0,0.0,0.0,0.0,0.0,0.0,0.0,0.14264907892042208,0.5042434966997349,0.3148373202072953,0.6648946046824512,0.2403357736311167,0.06581908207949666,-0.19813837501955664,-0.6092873288832211,-0.05772524119103164,-0.6665630412436367,-2.5947152664117645,-0.05568398993658254,2.5079581617249382,0.8763154263413614,-0.6090851748156966,-0.05753196718556838,-0.666603097082616,-2.5945565370258534,-0.05562143941554,2.507976027223799,0.8763108487046415,0.0002699341685123107,-0.00025175406665160755,-0.00027412761071415567,-0.0002803519455370844,0.0001030515536863854,0.0003200207817260104,-0.0011118218445174274,0.0,0.0,0.0,0.0,0.0,0.0,0.0,0.00020215406752455145,0.00019327400546325507,-4.005583897925824e-05,0.00015872938591110497,6.2550521042537e-05,1.7865498860736295e-05,-4.577636719904632e-06,-0.0002699341685123107,0.00025175406665160755,0.00027412761071415567,0.0002803519455370844,-0.0001030515536863854,-0.0003200207817260104,0.0011118218445174274,-0.13260537385940552,18.130334854125977,-1.1441986560821533,-18.297456741333008,-0.6658836007118225,-2.2424349784851074,0.17337362468242645,0
43,0.20999979972839355,0.13260537385940552,-18.130334854125977,1.1441986560821533,18.297456741333008,0.6658836007118225,2.2424349784851074,-0.17337362468242645,0.0,0.0,0.0,0.0,0.0,0.0,0.0,0.14264907892042208,0.5042434966997349,0.3148373202072953,0.6648946046824512,0.2403357736311167,0.06581908207949666,-0.19813837501955664,-0.6092873288832211,-0.05772524119103164,-0.6665630412436367,-2.5947152664117645,-0.05568398993658254,2.5079581617249382,0.8763154263413614,-0.6090851748156966,-0.05753196718556838,-0.666603097082616,-2.5945565370258534,-0.05562143941554,2.507976027223799,0.8763108487046415,0.0002699341685123107,-0.00025175406665160755,-0.00027412761071415567,-0.0002803519455370844,0.0001030515536863854,0.0003200207817260104,-0.0011118218445174274,0.0,0.0,0.0,0.0,0.0,0.0,0.0,0.00020215406752455145,0.00019327400546325507,-4.005583897925824e-05,0.00015872938591110497,6.2550521042537e-05,1.7865498860736295e-05,-4.577636719904632e-06,-0.0002699341685123107,0.00025175406665160755,0.00027412761071415567,0.0002803519455370844,-0.0001030515536863854,-0.0003200207817260104,0.0011118218445174274,-0.13260537385940552,18.130334854125977,-1.1441986560821533,-18.297456741333008,-0.6658836007118225,-2.2424349784851074,0.17337362468242645,0
44,0.21660709381103516,0.13260537385940552,-18.177942276000977,1.1680023670196533,18.297456741333008,0.6658836007118225,2.2424349784851074,-0.20724813640117645,0.0,0.0,0.0,0.0,0.0,0.0,0.0,0.1448993354350634,0.5065294684714775,0.3158883669908104,0.6624320739191767,0.2407701778372282,0.06567290499929965,-0.19954894965151834,-0.6092873288832211,-0.0577219090883172,-0.6665647116794919,-2.5947152664117645,-0.05568093141201087,2.5079581617249382,0.8763191901759968,-0.6090851748156966,-0.05753196718556838,-0.666603097082616,-2.5945565370258534,-0.05562143941554,2.507976027223799,0.8763108487046415,0.0002271914217109413,0.00014564431875963637,-0.0002875488598156836,-0.0004802546143978147,2.023095122313511e-05,0.0001694088015005186,-0.00029408195861916486,0.0,0.0,0.0,0.0,0.0,0.0,0.0,0.00020215406752455145,0.00018994190274881917,-3.83854031240638e-05,0.00015872938591110497,5.949199647087289e-05,1.7865498860736295e-05,-8.341471355310937e-06,-0.0002271914217109413,-0.00014564431875963637,0.0002875488598156836,0.0004802546143978147,-2.023095122313511e-05,-0.0001694088015005186,0.00029408195861916486,-0.13260537385940552,18.177942276000977,-1.1680023670196533,-18.297456741333008,-0.6658836007118225,-2.2424349784851074,0.20724813640117645,0
45,0.21999883651733398,0.13260537385940552,-18.177942276000977,1.1680023670196533,18.297456741333008,0.6658836007118225,2.2424349784851074,-0.20724813640117645,0.0,0.0,0.0,0.0,0.0,0.0,0.0,0.1448993354350634,0.5065294684714775,0.3158883669908104,0.6624320739191767,0.2407701778372282,0.06567290499929965,-0.19954894965151834,-0.6092873288832211,-0.0577219090883172,-0.6665647116794919,-2.5947152664117645,-0.05568093141201087,2.5079581617249382,0.8763191901759968,-0.6090851748156966,-0.05753196718556838,-0.666603097082616,-2.5945565370258534,-0.05562143941554,2.507976027223799,0.8763108487046415,0.0002271914217109413,0.00014564431875963637,-0.0002875488598156836,-0.0004802546143978147,2.023095122313511e-05,0.0001694088015005186,-0.00029408195861916486,0.0,0.0,0.0,0.0,0.0,0.0,0.0,0.00020215406752455145,0.00018994190274881917,-3.83854031240638e-05,0.00015872938591110497,5.949199647087289e-05,1.7865498860736295e-05,-8.341471355310937e-06,-0.0002271914217109413,-0.00014564431875963637,0.0002875488598156836,0.0004802546143978147,-2.023095122313511e-05,-0.0001694088015005186,0.00029408195861916486,-0.13260537385940552,18.177942276000977,-1.1680023670196533,-18.297456741333008,-0.6658836007118225,-2.2424349784851074,0.20724813640117645,0
46,0.22499775886535645,0.13260537385940552,-18.177942276000977,1.1680023670196533,18.297456741333008,0.6658836007118225,2.2424349784851074,-0.20724813640117645,0.0,0.0,0.0,0.0,0.0,0.0,0.0,0.1448993354350634,0.5065294684714775,0.3158883669908104,0.6624320739191767,0.2407701778372282,0.06567290499929965,-0.19954894965151834,-0.6092873288832211,-0.0577219090883172,-0.6665647116794919,-2.5947152664117645,-0.05568093141201087,2.5079581617249382,0.8763191901759968,-0.6090851748156966,-0.05753196718556838,-0.666603097082616,-2.5945565370258534,-0.05562143941554,2.507976027223799,0.8763108487046415,0.0002271914217109413,0.00014564431875963637,-0.0002875488598156836,-0.0004802546143978147,2.023095122313511e-05,0.0001694088015005186,-0.00029408195861916486,0.0,0.0,0.0,0.0,0.0,0.0,0.0,0.00020215406752455145,0.00018994190274881917,-3.83854031240638e-05,0.00015872938591110497,5.949199647087289e-05,1.7865498860736295e-05,-8.341471355310937e-06,-0.0002271914217109413,-0.00014564431875963637,0.0002875488598156836,0.0004802546143978147,-2.023095122313511e-05,-0.0001694088015005186,0.00029408195861916486,-0.13260537385940552,18.177942276000977,-1.1680023670196533,-18.297456741333008,-0.6658836007118225,-2.2424349784851074,0.20724813640117645,0
47,0.23000240325927734,0.10880166292190552,-18.229516983032227,1.1680023670196533,18.269685745239258,0.6713767647743225,2.2488436698913574,-0.17978231608867645,0.0,0.0,0.0,0.0,0.0,0.0,0.0,0.1383214721710396,0.5036201436547713,0.31230857965163256,0.6607443936897748,0.24138995813992484,0.06558318661746211,-0.20032969204444823,-0.6092856584473659,-0.057718281041684215,-0.6665647116794919,-2.5947133175699335,-0.05568262841921006,2.5079574496481154,0.8763129595037962,-0.6090851748156966,-0.05753196718556838,-0.666603097082616,-2.5945565370258534,-0.05562143941554,2.507976027223799,0.8763108487046415,0.00020172439092781887,0.0010217717666084162,-0.0008437506008857662,0.0004903629788472737,-0.00029128067191471646,0.00014046342945085944,-0.0004650905136765062,0.0,0.0,0.0,0.0,0.0,0.0,0.0,0.000200483631669357,0.00018631385611583146,-3.83854031240638e-05,0.0001567805440800818,6.118900367006047e-05,1.8577575683575986e-05,-2.1107991546864824e-06,-0.00020172439092781887,-0.0010217717666084162,0.0008437506008857662,-0.0004903629788472737,0.00029128067191471646,-0.00014046342945085944,0.0004650905136765062,-0.10880166292190552,18.229516983032227,-1.1680023670196533,-18.269685745239258,-0.6713767647743225,-2.2488436698913574,0.17978231608867645,0
48,0.23510050773620605,0.10880166292190552,-18.229516983032227,1.1680023670196533,18.269685745239258,0.6713767647743225,2.2488436698913574,-0.17978231608867645,0.0,0.0,0.0,0.0,0.0,0.0,0.0,0.1383214721710396,0.5036201436547713,0.31230857965163256,0.6607443936897748,0.24138995813992484,0.06558318661746211,-0.20032969204444823,-0.6092856584473659,-0.057718281041684215,-0.6665647116794919,-2.5947133175699335,-0.05568262841921006,2.5079574496481154,0.8763129595037962,-0.6090851748156966,-0.05753196718556838,-0.666603097082616,-2.5945565370258534,-0.05562143941554,2.507976027223799,0.8763108487046415,0.00020172439092781887,0.0010217717666084162,-0.0008437506008857662,0.0004903629788472737,-0.00029128067191471646,0.00014046342945085944,-0.0004650905136765062,0.0,0.0,0.0,0.0,0.0,0.0,0.0,0.000200483631669357,0.00018631385611583146,-3.83854031240638e-05,0.0001567805440800818,6.118900367006047e-05,1.8577575683575986e-05,-2.1107991546864824e-06,-0.00020172439092781887,-0.0010217717666084162,0.0008437506008857662,-0.0004903629788472737,0.00029128067191471646,-0.00014046342945085944,0.0004650905136765062,-0.10880166292190552,18.229516983032227,-1.1680023670196533,-18.269685745239258,-0.6713767647743225,-2.2488436698913574,0.17978231608867645,0
49,0.240006685256958,0.16037636995315552,-18.154138565063477,1.1441986560821533,18.345064163208008,0.6777854561805725,2.2488436698913574,-0.22830526530742645,0.0,0.0,0.0,0.0,0.0,0.0,0.0,0.13424202258630782,0.49979098449262854,0.3114610310048811,0.657887950948651,0.24099134448531412,0.06571705565996133,-0.19830303023583537,-0.6092892777250523,-0.057723570755176375,-0.6665630412436367,-2.594718607283475,-0.05568567318988427,2.5079574496481154,0.8763215298390413,-0.6090851748156966,-0.05753196718556838,-0.666603097082616,-2.5945565370258534,-0.05562143941554,2.507976027223799,0.8763108487046415,-0.0010475236928146178,-0.00017566461912635434,-0.0009365848284340048,-0.0014510639620753968,-0.0005031286546253965,-1.3069805641790754e-05,0.0012083623706824987,0.0,0.0,0.0,0.0,0.0,0.0,0.0,0.00020410290935568565,0.00019160356960799124,-4.005583897925824e-05,0.00016207025762149385,6.423377434427308e-05,1.8577575683575986e-05,-1.0681134399836978e-05,0.0010475236928146178,0.00017566461912635434,0.0009365848284340048,0.0014510639620753968,0.0005031286546253965,1.3069805641790754e-05,-0.0012083623706824987,-0.16037636995315552,18.154138565063477,-1.1441986560821533,-18.345064163208008,-0.6777854561805725,-2.2488436698913574,0.22830526530742645,0
50,0.2451014518737793,0.16037636995315552,-18.154138565063477,1.1441986560821533,18.345064163208008,0.6777854561805725,2.2488436698913574,-0.22830526530742645,0.0,0.0,0.0,0.0,0.0,0.0,0.0,0.13424202258630782,0.49979098449262854,0.3114610310048811,0.657887950948651,0.24099134448531412,0.06571705565996133,-0.19830303023583537,-0.6092892777250523,-0.057723570755176375,-0.6665630412436367,-2.594718607283475,-0.05568567318988427,2.5079574496481154,0.8763215298390413,-0.6090851748156966,-0.05753196718556838,-0.666603097082616,-2.5945565370258534,-0.05562143941554,2.507976027223799,0.8763108487046415,-0.0010475236928146178,-0.00017566461912635434,-0.0009365848284340048,-0.0014510639620753968,-0.0005031286546253965,-1.3069805641790754e-05,0.0012083623706824987,0.0,0.0,0.0,0.0,0.0,0.0,0.0,0.00020410290935568565,0.00019160356960799124,-4.005583897925824e-05,0.00016207025762149385,6.423377434427308e-05,1.8577575683575986e-05,-1.0681134399836978e-05,0.0010475236928146178,0.00017566461912635434,0.0009365848284340048,0.0014510639620753968,0.0005031286546253965,1.3069805641790754e-05,-0.0012083623706824987,-0.16037636995315552,18.154138565063477,-1.1441986560821533,-18.345064163208008,-0.6777854561805725,-2.2488436698913574,0.22830526530742645,0
51,0.2499990463256836,0.10880166292190552,-18.130334854125977,1.0688202381134033,18.269685745239258,0.6594749093055725,2.2360262870788574,-0.18710653483867645,0.0,0.0,0.0,0.0,0.0,0.0,0.0,0.13620271692098435,0.49550460504587657,0.31234150869683,0.6598849249179423,0.24104876379953125,0.0653789434680944,-0.19922280689454389,-0.6092856584473659,-0.05772524119103164,-0.666557751530095,-2.594713317909095,-0.05568333575349461,2.507958873801761,0.8763169522202676,-0.6090851748156966,-0.05753196718556838,-0.666603097082616,-2.5945565370258534,-0.05562143941554,2.507976027223799,0.8763108487046415,0.0008983561665072903,-0.0006747899046200091,0.0011904887158587568,0.0006761863080905738,0.0002629912019041396,0.00032616368013908055,-0.001024647953249094,0.0,0.0,0.0,0.0,0.0,0.0,0.0,0.000200483631669357,0.00019327400546325507,-4.534555252100336e-05,0.0001567808832416695,6.189633795460753e-05,1.7153422037896604e-05,-6.1035156261324275e-06,-0.0008983561665072903,0.0006747899046200091,-0.0011904887158587568,-0.0006761863080905738,-0.0002629912019041396,-0.00032616368013908055,0.001024647953249094,-0.10880166292190552,18.130334854125977,-1.0688202381134033,-18.269685745239258,-0.6594749093055725,-2.2360262870788574,0.18710653483867645,0
52,0.25499868392944336,0.10880166292190552,-18.130334854125977,1.0688202381134033,18.269685745239258,0.6594749093055725,2.2360262870788574,-0.18710653483867645,0.0,0.0,0.0,0.0,0.0,0.0,0.0,0.13620271692098435,0.49550460504587657,0.31234150869683,0.6598849249179423,0.24104876379953125,0.0653789434680944,-0.19922280689454389,-0.6092856584473659,-0.05772524119103164,-0.666557751530095,-2.594713317909095,-0.05568333575349461,2.507958873801761,0.8763169522202676,-0.6090851748156966,-0.05753196718556838,-0.666603097082616,-2.5945565370258534,-0.05562143941554,2.507976027223799,0.8763108487046415,0.0008983561665072903,-0.0006747899046200091,0.0011904887158587568,0.0006761863080905738,0.0002629912019041396,0.00032616368013908055,-0.001024647953249094,0.0,0.0,0.0,0.0,0.0,0.0,0.0,0.000200483631669357,0.00019327400546325507,-4.534555252100336e-05,0.0001567808832416695,6.189633795460753e-05,1.7153422037896604e-05,-6.1035156261324275e-06,-0.0008983561665072903,0.0006747899046200091,-0.0011904887158587568,-0.0006761863080905738,-0.0002629912019041396,-0.00032616368013908055,0.001024647953249094,-0.10880166292190552,18.130334854125977,-1.0688202381134033,-18.269685745239258,-0.6594749093055725,-2.2360262870788574,0.18710653483867645,0
53,0.25999927520751953,0.10880166292190552,-18.177942276000977,1.1441986560821533,18.297456741333008,0.6539817452430725,2.2488436698913574,-0.20724813640117645,0.0,0.0,0.0,0.0,0.0,0.0,0.0,0.13309188207272024,0.4947948026608256,0.30824000362999243,0.6626732735645692,0.24126446669640636,0.06503186684470524,-0.2017652917056215,-0.6092856584473659,-0.05772190031932111,-0.6665630412436367,-2.5947152755691327,-0.055679490694487487,2.5079574496481154,0.8763191901759968,-0.6090851748156966,-0.05753196718556838,-0.666603097082616,-2.5945565370258534,-0.05562143941554,2.507976027223799,0.8763108487046415,0.00023423659557937217,0.0005321316020697577,-0.0003014230981732251,-0.00012186870090074754,0.0005544948708646028,3.433481911972497e-05,0.0010805364418147196,0.0,0.0,0.0,0.0,0.0,0.0,0.0,0.000200483631669357,0.0001899331337527274,-4.005583897925824e-05,0.00015873854327930204,5.805127894748657e-05,1.8577575683575986e-05,-8.341471355310937e-06,-0.00023423659557937217,-0.0005321316020697577,0.0003014230981732251,0.00012186870090074754,-0.0005544948708646028,-3.433481911972497e-05,-0.0010805364418147196,-0.10880166292190552,18.177942276000977,-1.1441986560821533,-18.297456741333008,-0.6539817452430725,-2.2488436698913574,0.20724813640117645,0
54,0.26505613327026367,0.10880166292190552,-18.177942276000977,1.1441986560821533,18.297456741333008,0.6539817452430725,2.2488436698913574,-0.20724813640117645,0.0,0.0,0.0,0.0,0.0,0.0,0.0,0.13309188207272024,0.4947948026608256,0.30824000362999243,0.6626732735645692,0.24126446669640636,0.06503186684470524,-0.2017652917056215,-0.6092856584473659,-0.05772190031932111,-0.6665630412436367,-2.5947152755691327,-0.055679490694487487,2.5079574496481154,0.8763191901759968,-0.6090851748156966,-0.05753196718556838,-0.666603097082616,-2.5945565370258534,-0.05562143941554,2.507976027223799,0.8763108487046415,0.00023423659557937217,0.0005321316020697577,-0.0003014230981732251,-0.00012186870090074754,0.0005544948708646028,3.433481911972497e-05,0.0010805364418147196,0.0,0.0,0.0,0.0,0.0,0.0,0.0,0.000200483631669357,0.0001899331337527274,-4.005583897925824e-05,0.00015873854327930204,5.805127894748657e-05,1.8577575683575986e-05,-8.341471355310937e-06,-0.00023423659557937217,-0.0005321316020697577,0.0003014230981732251,0.00012186870090074754,-0.0005544948708646028,-3.433481911972497e-05,-0.0010805364418147196,-0.10880166292190552,18.177942276000977,-1.1441986560821533,-18.297456741333008,-0.6539817452430725,-2.2488436698913574,0.20724813640117645,0
55,0.26999759674072266,0.13260537385940552,-18.154138565063477,1.1680023670196533,18.297456741333008,0.6658836007118225,2.2625765800476074,-0.18710653483867645,0.0,0.0,0.0,0.0,0.0,0.0,0.0,0.13491407221889648,0.4999833603182917,0.3149107373253567,0.6607497772622498,0.24082549986094662,0.06479637601486732,-0.19962479844457953,-0.6092873288832211,-0.057723579524172466,-0.6665647116794919,-2.5947152664119195,-0.055682019365279,2.507955923769209,0.8763169522202676,-0.6090851748156966,-0.05753196718556838,-0.666603097082616,-2.5945565370258534,-0.05562143941554,2.507976027223799,0.8763108487046415,1.674491268239816e-05,0.00025766177990212336,-0.00047894493171458393,-0.0002829239287200816,-0.00012111673507551747,-0.000614655577569627,-0.0011284407377327953,0.0,0.0,0.0,0.0,0.0,0.0,0.0,0.00020215406752455145,0.000191612338604083,-3.83854031240638e-05,0.0001587293860660921,6.057994973900083e-05,2.0103454589914804e-05,-6.1035156261324275e-06,-1.674491268239816e-05,-0.00025766177990212336,0.00047894493171458393,0.0002829239287200816,0.00012111673507551747,0.000614655577569627,0.0011284407377327953,-0.13260537385940552,18.154138565063477,-1.1680023670196533,-18.297456741333008,-0.6658836007118225,-2.2625765800476074,0.18710653483867645,0
56,0.2749974727630615,0.13260537385940552,-18.154138565063477,1.1680023670196533,18.297456741333008,0.6658836007118225,2.2625765800476074,-0.18710653483867645,0.0,0.0,0.0,0.0,0.0,0.0,0.0,0.13491407221889648,0.4999833603182917,0.3149107373253567,0.6607497772622498,0.24082549986094662,0.06479637601486732,-0.19962479844457953,-0.6092873288832211,-0.057723579524172466,-0.6665647116794919,-2.5947152664119195,-0.055682019365279,2.507955923769209,0.8763169522202676,-0.6090851748156966,-0.05753196718556838,-0.666603097082616,-2.5945565370258534,-0.05562143941554,2.507976027223799,0.8763108487046415,1.674491268239816e-05,0.00025766177990212336,-0.00047894493171458393,-0.0002829239287200816,-0.00012111673507551747,-0.000614655577569627,-0.0011284407377327953,0.0,0.0,0.0,0.0,0.0,0.0,0.0,0.00020215406752455145,0.000191612338604083,-3.83854031240638e-05,0.0001587293860660921,6.057994973900083e-05,2.0103454589914804e-05,-6.1035156261324275e-06,-1.674491268239816e-05,-0.00025766177990212336,0.00047894493171458393,0.0002829239287200816,0.00012111673507551747,0.000614655577569627,0.0011284407377327953,-0.13260537385940552,18.154138565063477,-1.1680023670196533,-18.297456741333008,-0.6658836007118225,-2.2625765800476074,0.18710653483867645,0
57,0.2800021171569824,0.10880166292190552,-18.177942276000977,1.1441986560821533,18.297456741333008,0.6658836007118225,2.2552523612976074,-0.22098104655742645,0.0,0.0,0.0,0.0,0.0,0.0,0.0,0.1300378514137281,0.49795094481047947,0.3143759817105754,0.6670018434329579,0.2407649137997289,0.06571935939864598,-0.19966367398978607,-0.6092856584473659,-0.05772190031933761,-0.6665630412436367,-2.5947152664117645,-0.055680795636539014,2.5079556779331633,0.8763207160010679,-0.6090851748156966,-0.05753196718556838,-0.666603097082616,-2.5945565370258534,-0.05562143941554,2.507976027223799,0.8763108487046415,0.0011603967720614891,0.0008770897034935108,-0.0003205829532879405,0.00044350387190560754,-0.00011186404091265256,-0.0003251638658053179,0.0012615920268719007,0.0,0.0,0.0,0.0,0.0,0.0,0.0,0.000200483631669357,0.0001899331337692281,-4.005583897925824e-05,0.00015872938591110497,5.935622099901422e-05,2.034929063565727e-05,-9.867296426380179e-06,-0.0011603967720614891,-0.0008770897034935108,0.0003205829532879405,-0.00044350387190560754,0.00011186404091265256,0.0003251638658053179,-0.0012615920268719007,-0.10880166292190552,18.177942276000977,-1.1441986560821533,-18.297456741333008,-0.6658836007118225,-2.2552523612976074,0.22098104655742645,0
58,0.28499507904052734,0.10880166292190552,-18.177942276000977,1.1441986560821533,18.297456741333008,0.6658836007118225,2.2552523612976074,-0.22098104655742645,0.0,0.0,0.0,0.0,0.0,0.0,0.0,0.1300378514137281,0.49795094481047947,0.3143759817105754,0.6670018434329579,0.2407649137997289,0.06571935939864598,-0.19966367398978607,-0.6092856584473659,-0.05772190031933761,-0.6665630412436367,-2.5947152664117645,-0.055680795636539014,2.5079556779331633,0.8763207160010679,-0.6090851748156966,-0.05753196718556838,-0.666603097082616,-2.5945565370258534,-0.05562143941554,2.507976027223799,0.8763108487046415,0.0011603967720614891,0.0008770897034935108,-0.0003205829532879405,0.00044350387190560754,-0.00011186404091265256,-0.0003251638658053179,0.0012615920268719007,0.0,0.0,0.0,0.0,0.0,0.0,0.0,0.000200483631669357,0.0001899331337692281,-4.005583897925824e-05,0.00015872938591110497,5.935622099901422e-05,2.034929063565727e-05,-9.867296426380179e-06,-0.0011603967720614891,-0.0008770897034935108,0.0003205829532879405,-0.00044350387190560754,0.00011186404091265256,0.0003251638658053179,-0.0012615920268719007,-0.10880166292190552,18.177942276000977,-1.1441986560821533,-18.297456741333008,-0.6658836007118225,-2.2552523612976074,0.22098104655742645,0
59,0.28999996185302734,0.16037636995315552,-18.130334854125977,1.1680023670196533,18.297456741333008,0.6539817452430725,2.2488436698913574,-0.17337362468242645,0.0,0.0,0.0,0.0,0.0,0.0,0.0,0.12834117368564404,0.5032440644737465,0.3116556939158917,0.6628973014186664,0.24034733787690998,0.06482618823817286,-0.1991968303821677,-0.6092892777250523,-0.05772524119103164,-0.6665647116794919,-2.5947152664117645,-0.05568059081683005,2.5079574496421335,0.8763150731286513,-0.6090851748156966,-0.05753196718556838,-0.666603097082616,-2.5945565370258534,-0.05562143941554,2.507976027223799,0.8763108487046415,-0.00031660856063746865,-0.0004982034514195943,-0.0008835249104071977,-4.084537517822455e-05,0.0004104503626560407,0.00011727779537714137,-0.0011632150606958704,0.0,0.0,0.0,0.0,0.0,0.0,0.0,0.00020410290935568565,0.00019327400546325507,-3.83854031240638e-05,0.00015872938591110497,5.915140129005014e-05,1.8577581665457643e-05,-4.224424009824368e-06,0.00031660856063746865,0.0004982034514195943,0.0008835249104071977,4.084537517822455e-05,-0.0004104503626560407,-0.00011727779537714137,0.0011632150606958704,-0.16037636995315552,18.130334854125977,-1.1680023670196533,-18.297456741333008,-0.6539817452430725,-2.2488436698913574,0.17337362468242645,0
60,0.2950022220611572,0.16037636995315552,-18.130334854125977,1.1680023670196533,18.297456741333008,0.6539817452430725,2.2488436698913574,-0.17337362468242645,0.0,0.0,0.0,0.0,0.0,0.0,0.0,0.12834117368564404,0.5032440644737465,0.3116556939158917,0.6628973014186664,0.24034733787690998,0.06482618823817286,-0.1991968303821677,-0.6092892777250523,-0.05772524119103164,-0.6665647116794919,-2.5947152664117645,-0.05568059081683005,2.5079574496421335,0.8763150731286513,-0.6090851748156966,-0.05753196718556838,-0.666603097082616,-2.5945565370258534,-0.05562143941554,2.507976027223799,0.8763108487046415,-0.00031660856063746865,-0.0004982034514195943,-0.0008835249104071977,-4.084537517822455e-05,0.0004104503626560407,0.00011727779537714137,-0.0011632150606958704,0.0,0.0,0.0,0.0,0.0,0.0,0.0,0.00020410290935568565,0.00019327400546325507,-3.83854031240638e-05,0.00015872938591110497,5.915140129005014e-05,1.8577581665457643e-05,-4.224424009824368e-06,0.00031660856063746865,0.0004982034514195943,0.0008835249104071977,4.084537517822455e-05,-0.0004104503626560407,-0.00011727779537714137,0.0011632150606958704,-0.16037636995315552,18.130334854125977,-1.1680023670196533,-18.297456741333008,-0.6539817452430725,-2.2488436698913574,0.17337362468242645,0
61,0.2999989986419678,0.18418008089065552,-18.177942276000977,1.1441986560821533,18.297456741333008,0.6713767647743225,2.2488436698913574,-0.22830526530742645,0.0,0.0,0.0,0.0,0.0,0.0,0.0,0.13936385156664755,0.5048486055474484,0.32031470837686143,0.6656099141623306,0.2402392742150117,0.06554403555123961,-0.2008506700020794,-0.6092909481609076,-0.05772190031932111,-0.6665630412436367,-2.594715348828063,-0.05568496938786428,2.5079574496481154,0.8763215167192051,-0.6090851748156966,-0.05753196718556838,-0.666603097082616,-2.5945565370258534,-0.05562143941554,2.507976027223799,0.8763108487046415,-0.0004993680774019006,0.0006438023405493477,0.0002807754070972235,0.00019770779200183484,-0.00030952195691313347,-4.36015465830703e-06,0.001503977536185032,0.0,0.0,0.0,0.0,0.0,0.0,0.0,0.0002057733452109911,0.0001899331337527274,-4.005583897925824e-05,0.00015881180220977953,6.352997232428326e-05,1.8577575683575986e-05,-1.0668014563619543e-05,0.0004993680774019006,-0.0006438023405493477,-0.0002807754070972235,-0.00019770779200183484,0.00030952195691313347,4.36015465830703e-06,-0.001503977536185032,-0.18418008089065552,18.177942276000977,-1.1441986560821533,-18.297456741333008,-0.6713767647743225,-2.2488436698913574,0.22830526530742645,0
62,0.30499887466430664,0.18418008089065552,-18.177942276000977,1.1441986560821533,18.297456741333008,0.6713767647743225,2.2488436698913574,-0.22830526530742645,0.0,0.0,0.0,0.0,0.0,0.0,0.0,0.13936385156664755,0.5048486055474484,0.32031470837686143,0.6656099141623306,0.2402392742150117,0.06554403555123961,-0.2008506700020794,-0.6092909481609076,-0.05772190031932111,-0.6665630412436367,-2.594715348828063,-0.05568496938786428,2.5079574496481154,0.8763215167192051,-0.6090851748156966,-0.05753196718556838,-0.666603097082616,-2.5945565370258534,-0.05562143941554,2.507976027223799,0.8763108487046415,-0.0004993680774019006,0.0006438023405493477,0.0002807754070972235,0.00019770779200183484,-0.00030952195691313347,-4.36015465830703e-06,0.001503977536185032,0.0,0.0,0.0,0.0,0.0,0.0,0.0,0.0002057733452109911,0.0001899331337527274,-4.005583897925824e-05,0.00015881180220977953,6.352997232428326e-05,1.8577575683575986e-05,-1.0668014563619543e-05,0.0004993680774019006,-0.0006438023405493477,-0.0002807754070972235,-0.00019770779200183484,0.00030952195691313347,4.36015465830703e-06,-0.001503977536185032,-0.18418008089065552,18.177942276000977,-1.1441986560821533,-18.297456741333008,-0.6713767647743225,-2.2488436698913574,0.22830526530742645,0
63,0.3099994659423828,0.16037636995315552,-18.154138565063477,1.1680023670196533,18.269685745239258,0.6713767647743225,2.2424349784851074,-0.17978231608867645,0.0,0.0,0.0,0.0,0.0,0.0,0.0,0.13352115352511135,0.5035418193752301,0.3114373447266485,0.6634590159890247,0.24097258038892105,0.06500485459226084,-0.19946646745243368,-0.6092892777250523,-0.057723570755176375,-0.6665647116794919,-2.5947133175703985,-0.05568460468934298,2.5079581617249382,0.8763161384181101,-0.6090851748156966,-0.05753196718556838,-0.666603097082616,-2.5945565370258534,-0.05562143941554,2.507976027223799,0.8763108487046415,-0.00048235604315849807,-0.00018626104955415967,-0.0011604304849693766,0.00036300474720602004,-0.00033502402285747493,7.146799684213179e-05,-0.0005135251226259555,0.0,0.0,0.0,0.0,0.0,0.0,0.0,0.00020410290935568565,0.00019160356960799124,-3.83854031240638e-05,0.0001567805445450432,6.316527380297726e-05,1.7865498860736295e-05,-5.289713468581425e-06,0.00048235604315849807,0.00018626104955415967,0.0011604304849693766,-0.00036300474720602004,0.00033502402285747493,-7.146799684213179e-05,0.0005135251226259555,-0.16037636995315552,18.154138565063477,-1.1680023670196533,-18.269685745239258,-0.6713767647743225,-2.2424349784851074,0.17978231608867645,0
64,0.31499791145324707,0.16037636995315552,-18.154138565063477,1.1680023670196533,18.269685745239258,0.6713767647743225,2.2424349784851074,-0.17978231608867645,0.0,0.0,0.0,0.0,0.0,0.0,0.0,0.13352115352511135,0.5035418193752301,0.3114373447266485,0.6634590159890247,0.24097258038892105,0.06500485459226084,-0.19946646745243368,-0.6092892777250523,-0.057723570755176375,-0.6665647116794919,-2.5947133175703985,-0.05568460468934298,2.5079581617249382,0.8763161384181101,-0.6090851748156966,-0.05753196718556838,-0.666603097082616,-2.5945565370258534,-0.05562143941554,2.507976027223799,0.8763108487046415,-0.00048235604315849807,-0.00018626104955415967,-0.0011604304849693766,0.00036300474720602004,-0.00033502402285747493,7.146799684213179e-05,-0.0005135251226259555,0.0,0.0,0.0,0.0,0.0,0.0,0.0,0.00020410290935568565,0.00019160356960799124,-3.83854031240638e-05,0.0001567805445450432,6.316527380297726e-05,1.7865498860736295e-05,-5.289713468581425e-06,0.00048235604315849807,0.00018626104955415967,0.0011604304849693766,-0.00036300474720602004,0.00033502402285747493,-7.146799684213179e-05,0.0005135251226259555,-0.16037636995315552,18.154138565063477,-1.1680023670196533,-18.269685745239258,-0.6713767647743225,-2.2424349784851074,0.17978231608867645,0
65,0.31999897956848145,0.10880166292190552,-18.205713272094727,1.1441986560821533,18.297456741333008,0.6658836007118225,2.2625765800476074,-0.23471395671367645,0.0,0.0,0.0,0.0,0.0,0.0,0.0,0.1403327681964048,0.5042252028048521,0.3152971701460948,0.6630567657520373,0.24061351138113493,0.06471760050871982,-0.19827002895968257,-0.6092856584473659,-0.05771995147748998,-0.6665630412436367,-2.5947152664117645,-0.05568541040178372,2.507955923769209,0.8763222419338093,-0.6090851748156966,-0.05753196718556838,-0.666603097082616,-2.5945565370258534,-0.05562143941554,2.507976027223799,0.8763108487046415,0.0003639215284489518,0.0010048823819506646,-0.0003646422797688028,-7.509415667597086e-05,-4.831381340049757e-05,-0.00028874565847719115,0.0014281689610074165,0.0,0.0,0.0,0.0,0.0,0.0,0.0,0.000200483631669357,0.00018798429192159322,-4.005583897925824e-05,0.00015872938591110497,6.39709862437221e-05,2.0103454589914804e-05,-1.1393229167766528e-05,-0.0003639215284489518,-0.0010048823819506646,0.0003646422797688028,7.509415667597086e-05,4.831381340049757e-05,0.00028874565847719115,-0.0014281689610074165,-0.10880166292190552,18.205713272094727,-1.1441986560821533,-18.297456741333008,-0.6658836007118225,-2.2625765800476074,0.23471395671367645,0
66,0.32500576972961426,0.10880166292190552,-18.205713272094727,1.1441986560821533,18.297456741333008,0.6658836007118225,2.2625765800476074,-0.23471395671367645,0.0,0.0,0.0,0.0,0.0,0.0,0.0,0.1403327681964048,0.5042252028048521,0.3152971701460948,0.6630567657520373,0.24061351138113493,0.06471760050871982,-0.19827002895968257,-0.6092856584473659,-0.05771995147748998,-0.6665630412436367,-2.5947152664117645,-0.05568541040178372,2.507955923769209,0.8763222419338093,-0.6090851748156966,-0.05753196718556838,-0.666603097082616,-2.5945565370258534,-0.05562143941554,2.507976027223799,0.8763108487046415,0.0003639215284489518,0.0010048823819506646,-0.0003646422797688028,-7.509415667597086e-05,-4.831381340049757e-05,-0.00028874565847719115,0.0014281689610074165,0.0,0.0,0.0,0.0,0.0,0.0,0.0,0.000200483631669357,0.00018798429192159322,-4.005583897925824e-05,0.00015872938591110497,6.39709862437221e-05,2.0103454589914804e-05,-1.1393229167766528e-05,-0.0003639215284489518,-0.0010048823819506646,0.0003646422797688028,7.509415667597086e-05,4.831381340049757e-05,0.00028874565847719115,-0.0014281689610074165,-0.10880166292190552,18.205713272094727,-1.1441986560821533,-18.297456741333008,-0.6658836007118225,-2.2625765800476074,0.23471395671367645,0
67,0.3299989700317383,0.10880166292190552,-18.205713272094727,1.1441986560821533,18.297456741333008,0.6658836007118225,2.2625765800476074,-0.23471395671367645,0.0,0.0,0.0,0.0,0.0,0.0,0.0,0.1403327681964048,0.5042252028048521,0.3152971701460948,0.6630567657520373,0.24061351138113493,0.06471760050871982,-0.19827002895968257,-0.6092856584473659,-0.05771995147748998,-0.6665630412436367,-2.5947152664117645,-0.05568541040178372,2.507955923769209,0.8763222419338093,-0.6090851748156966,-0.05753196718556838,-0.666603097082616,-2.5945565370258534,-0.05562143941554,2.507976027223799,0.8763108487046415,0.0003639215284489518,0.0010048823819506646,-0.0003646422797688028,-7.509415667597086e-05,-4.831381340049757e-05,-0.00028874565847719115,0.0014281689610074165,0.0,0.0,0.0,0.0,0.0,0.0,0.0,0.000200483631669357,0.00018798429192159322,-4.005583897925824e-05,0.00015872938591110497,6.39709862437221e-05,2.0103454589914804e-05,-1.1393229167766528e-05,-0.0003639215284489518,-0.0010048823819506646,0.0003646422797688028,7.509415667597086e-05,4.831381340049757e-05,0.00028874565847719115,-0.0014281689610074165,-0.10880166292190552,18.205713272094727,-1.1441986560821533,-18.297456741333008,-0.6658836007118225,-2.2625765800476074,0.23471395671367645,0
68,0.3349943161010742,0.10880166292190552,-18.205713272094727,1.1441986560821533,18.297456741333008,0.6658836007118225,2.2625765800476074,-0.23471395671367645,0.0,0.0,0.0,0.0,0.0,0.0,0.0,0.1403327681964048,0.5042252028048521,0.3152971701460948,0.6630567657520373,0.24061351138113493,0.06471760050871982,-0.19827002895968257,-0.6092856584473659,-0.05771995147748998,-0.6665630412436367,-2.5947152664117645,-0.05568541040178372,2.507955923769209,0.8763222419338093,-0.6090851748156966,-0.05753196718556838,-0.666603097082616,-2.5945565370258534,-0.05562143941554,2.507976027223799,0.8763108487046415,0.0003639215284489518,0.0010048823819506646,-0.0003646422797688028,-7.509415667597086e-05,-4.831381340049757e-05,-0.00028874565847719115,0.0014281689610074165,0.0,0.0,0.0,0.0,0.0,0.0,0.0,0.000200483631669357,0.00018798429192159322,-4.005583897925824e-05,0.00015872938591110497,6.39709862437221e-05,2.0103454589914804e-05,-1.1393229167766528e-05,-0.0003639215284489518,-0.0010048823819506646,0.0003646422797688028,7.509415667597086e-05,4.831381340049757e-05,0.00028874565847719115,-0.0014281689610074165,-0.10880166292190552,18.205713272094727,-1.1441986560821533,-18.297456741333008,-0.6658836007118225,-2.2625765800476074,0.23471395671367645,0
69,0.34002161026000977,0.08103066682815552,-18.154138565063477,1.1680023670196533,18.297456741333008,0.6658836007118225,2.2424349784851074,-0.16604940593242645,0.0,0.0,0.0,0.0,0.0,0.0,0.0,0.13509807440284602,0.5039662871027506,0.314509121935609,0.659649008793748,0.24038657485504042,0.06520366821184079,-0.19956551378529658,-0.6092837094965186,-0.057723570755176375,-0.6665647116794919,-2.5947152664117645,-0.055680797211679366,2.5079581617249382,0.876314612521333,-0.6090851748156966,-0.05753196718556838,-0.666603097082616,-2.5945565370258534,-0.05562143941554,2.507976027223799,0.8763108487046415,0.0005777313480520753,-0.00020429735479683423,-0.0008494190772248021,-0.0002502477244492374,-0.0001230130994441239,0.0002949022797325747,-0.00037102339514452225,0.0,0.0,0.0,0.0,0.0,0.0,0.0,0.00019853468082198233,0.00019160356960799124,-3.83854031240638e-05,0.00015872938591110497,5.9357796139365704e-05,1.7865498860736295e-05,-3.7638166915376914e-06,-0.0005777313480520753,0.00020429735479683423,0.0008494190772248021,0.0002502477244492374,0.0001230130994441239,-0.0002949022797325747,0.00037102339514452225,-0.08103066682815552,18.154138565063477,-1.1680023670196533,-18.297456741333008,-0.6658836007118225,-2.2424349784851074,0.16604940593242645,0
70,0.34499406814575195,0.08103066682815552,-18.154138565063477,1.1680023670196533,18.297456741333008,0.6658836007118225,2.2424349784851074,-0.16604940593242645,0.0,0.0,0.0,0.0,0.0,0.0,0.0,0.13509807440284602,0.5039662871027506,0.314509121935609,0.659649008793748,0.24038657485504042,0.06520366821184079,-0.19956551378529658,-0.6092837094965186,-0.057723570755176375,-0.6665647116794919,-2.5947152664117645,-0.055680797211679366,2.5079581617249382,0.876314612521333,-0.6090851748156966,-0.05753196718556838,-0.666603097082616,-2.5945565370258534,-0.05562143941554,2.507976027223799,0.8763108487046415,0.0005777313480520753,-0.00020429735479683423,-0.0008494190772248021,-0.0002502477244492374,-0.0001230130994441239,0.0002949022797325747,-0.00037102339514452225,0.0,0.0,0.0,0.0,0.0,0.0,0.0,0.00019853468082198233,0.00019160356960799124,-3.83854031240638e-05,0.00015872938591110497,5.9357796139365704e-05,1.7865498860736295e-05,-3.7638166915376914e-06,-0.0005777313480520753,0.00020429735479683423,0.0008494190772248021,0.0002502477244492374,0.0001230130994441239,-0.0002949022797325747,0.00037102339514452225,-0.08103066682815552,18.154138565063477,-1.1680023670196533,-18.297456741333008,-0.6658836007118225,-2.2424349784851074,0.16604940593242645,0
71,0.34999632835388184,0.08103066682815552,-18.130334854125977,1.0926239490509033,18.269685745239258,0.6658836007118225,2.2424349784851074,-0.20083944499492645,0.0,0.0,0.0,0.0,0.0,0.0,0.0,0.12176243880559712,0.5007916903918099,0.31059371320337364,0.661462027569166,0.2405046849954538,0.06595378338431349,-0.19693058936397267,-0.6092837096055342,-0.05772524119103164,-0.6665596603845294,-2.5947133175699335,-0.055682335452614445,2.5079581617249382,0.8763174141003938,-0.6090851748156966,-0.05753196718556838,-0.666603097082616,-2.5945565370258534,-0.05562143941554,2.507976027223799,0.8763108487046415,-1.4279825757634092e-05,-0.0007012505141566502,0.0004238561665582806,0.0002425483396558843,5.603650487803971e-05,0.00023633344058381255,-0.0006234877447398074,0.0,0.0,0.0,0.0,0.0,0.0,0.0,0.0001985347898376677,0.00019327400546325507,-4.343669808659634e-05,0.0001567805440800818,6.0896037074445464e-05,1.7865498860736295e-05,-6.565395752278214e-06,1.4279825757634092e-05,0.0007012505141566502,-0.0004238561665582806,-0.0002425483396558843,-5.603650487803971e-05,-0.00023633344058381255,0.0006234877447398074,-0.08103066682815552,18.130334854125977,-1.0926239490509033,-18.269685745239258,-0.6658836007118225,-2.2424349784851074,0.20083944499492645,0
72,0.35500001907348633,0.08103066682815552,-18.130334854125977,1.0926239490509033,18.269685745239258,0.6658836007118225,2.2424349784851074,-0.20083944499492645,0.0,0.0,0.0,0.0,0.0,0.0,0.0,0.12176243880559712,0.5007916903918099,0.31059371320337364,0.661462027569166,0.2405046849954538,0.06595378338431349,-0.19693058936397267,-0.6092837096055342,-0.05772524119103164,-0.6665596603845294,-2.5947133175699335,-0.055682335452614445,2.5079581617249382,0.8763174141003938,-0.6090851748156966,-0.05753196718556838,-0.666603097082616,-2.5945565370258534,-0.05562143941554,2.507976027223799,0.8763108487046415,-1.4279825757634092e-05,-0.0007012505141566502,0.0004238561665582806,0.0002425483396558843,5.603650487803971e-05,0.00023633344058381255,-0.0006234877447398074,0.0,0.0,0.0,0.0,0.0,0.0,0.0,0.0001985347898376677,0.00019327400546325507,-4.343669808659634e-05,0.0001567805440800818,6.0896037074445464e-05,1.7865498860736295e-05,-6.565395752278214e-06,1.4279825757634092e-05,0.0007012505141566502,-0.0004238561665582806,-0.0002425483396558843,-5.603650487803971e-05,-0.00023633344058381255,0.0006234877447398074,-0.08103066682815552,18.130334854125977,-1.0926239490509033,-18.269685745239258,-0.6658836007118225,-2.2424349784851074,0.20083944499492645,0
73,0.3599972724914551,0.10880166292190552,-18.130334854125977,1.1164276599884033,18.297456741333008,0.6594749093055725,2.2488436698913574,-0.16604940593242645,0.0,0.0,0.0,0.0,0.0,0.0,0.0,0.12524817712174546,0.507425432736447,0.3166646920232532,0.6606497847840412,0.2401792336456656,0.06554795124232475,-0.1986712071249251,-0.6092856584473659,-0.05772524119103164,-0.6665610924031515,-2.5947152664117645,-0.05568116142273798,2.5079574496481154,0.876314612048755,-0.6090851748156966,-0.05753196718556838,-0.666603097082616,-2.5945565370258534,-0.05562143941554,2.507976027223799,0.8763108487046415,4.722680666014726e-05,0.00010633117403332183,0.00033048277092872044,-0.000443691833071241,0.0003819457237727861,-1.747876836361525e-05,-0.0017657739679720918,0.0,0.0,0.0,0.0,0.0,0.0,0.0,0.000200483631669357,0.00019327400546325507,-4.2004679464469064e-05,0.00015872938591110497,5.972200719798343e-05,1.8577575683575986e-05,-3.7633441135609402e-06,-4.722680666014726e-05,-0.00010633117403332183,-0.00033048277092872044,0.000443691833071241,-0.0003819457237727861,1.747876836361525e-05,0.0017657739679720918,-0.10880166292190552,18.130334854125977,-1.1164276599884033,-18.297456741333008,-0.6594749093055725,-2.2488436698913574,0.16604940593242645,0
74,0.3649885654449463,0.10880166292190552,-18.130334854125977,1.1164276599884033,18.297456741333008,0.6594749093055725,2.2488436698913574,-0.16604940593242645,0.0,0.0,0.0,0.0,0.0,0.0,0.0,0.12524817712174546,0.507425432736447,0.3166646920232532,0.6606497847840412,0.2401792336456656,0.06554795124232475,-0.1986712071249251,-0.6092856584473659,-0.05772524119103164,-0.6665610924031515,-2.5947152664117645,-0.05568116142273798,2.5079574496481154,0.876314612048755,-0.6090851748156966,-0.05753196718556838,-0.666603097082616,-2.5945565370258534,-0.05562143941554,2.507976027223799,0.8763108487046415,4.722680666014726e-05,0.00010633117403332183,0.00033048277092872044,-0.000443691833071241,0.0003819457237727861,-1.747876836361525e-05,-0.0017657739679720918,0.0,0.0,0.0,0.0,0.0,0.0,0.0,0.000200483631669357,0.00019327400546325507,-4.2004679464469064e-05,0.00015872938591110497,5.972200719798343e-05,1.8577575683575986e-05,-3.7633441135609402e-06,-4.722680666014726e-05,-0.00010633117403332183,-0.00033048277092872044,0.000443691833071241,-0.0003819457237727861,1.747876836361525e-05,0.0017657739679720918,-0.10880166292190552,18.130334854125977,-1.1164276599884033,-18.297456741333008,-0.6594749093055725,-2.2488436698913574,0.16604940593242645,0
75,0.37000012397766113,0.16037636995315552,-18.130334854125977,1.1680023670196533,18.269685745239258,0.6658836007118225,2.2360262870788574,-0.22830526530742645,0.0,0.0,0.0,0.0,0.0,0.0,0.0,0.12310458609638879,0.5122018319031972,0.3136116396871135,0.6573942645237513,0.24041322230193315,0.06396186531222031,-0.19950214066974659,-0.6092892777250523,-0.05772524119103164,-0.666564711679492,-2.5947133175699335,-0.05568116365198935,2.507958873801761,0.8763215298569836,-0.6090851748156966,-0.05753196718556838,-0.666603097082616,-2.5945565370258534,-0.05562143941554,2.507976027223799,0.8763108487046415,-0.0005374867952132275,-7.062470700991278e-05,-0.0007173281928350282,-0.0001009537278944274,-6.124315643931312e-05,0.00033910838037580645,0.0012461324443135472,0.0,0.0,0.0,0.0,0.0,0.0,0.0,0.00020410290935568565,0.00019327400546325507,-3.838540312395278e-05,0.0001567805440800818,5.9724236449350265e-05,1.7153422037896604e-05,-1.0681152342151279e-05,0.0005374867952132275,7.062470700991278e-05,0.0007173281928350282,0.0001009537278944274,6.124315643931312e-05,-0.00033910838037580645,-0.0012461324443135472,-0.16037636995315552,18.130334854125977,-1.1680023670196533,-18.269685745239258,-0.6658836007118225,-2.2360262870788574,0.22830526530742645,0
76,0.3749983310699463,0.16037636995315552,-18.130334854125977,1.1680023670196533,18.269685745239258,0.6658836007118225,2.2360262870788574,-0.22830526530742645,0.0,0.0,0.0,0.0,0.0,0.0,0.0,0.12310458609638879,0.5122018319031972,0.3136116396871135,0.6573942645237513,0.24041322230193315,0.06396186531222031,-0.19950214066974659,-0.6092892777250523,-0.05772524119103164,-0.666564711679492,-2.5947133175699335,-0.05568116365198935,2.507958873801761,0.8763215298569836,-0.6090851748156966,-0.05753196718556838,-0.666603097082616,-2.5945565370258534,-0.05562143941554,2.507976027223799,0.8763108487046415,-0.0005374867952132275,-7.062470700991278e-05,-0.0007173281928350282,-0.0001009537278944274,-6.124315643931312e-05,0.00033910838037580645,0.0012461324443135472,0.0,0.0,0.0,0.0,0.0,0.0,0.0,0.00020410290935568565,0.00019327400546325507,-3.838540312395278e-05,0.0001567805440800818,5.9724236449350265e-05,1.7153422037896604e-05,-1.0681152342151279e-05,0.0005374867952132275,7.062470700991278e-05,0.0007173281928350282,0.0001009537278944274,6.124315643931312e-05,-0.00033910838037580645,-0.0012461324443135472,-0.16037636995315552,18.130334854125977,-1.1680023670196533,-18.269685745239258,-0.6658836007118225,-2.2360262870788574,0.22830526530742645,0
77,0.38001036643981934,0.16037636995315552,-18.177942276000977,1.1918060779571533,18.321260452270508,0.6539817452430725,2.2625765800476074,-0.17337362468242645,0.0,0.0,0.0,0.0,0.0,0.0,0.0,0.13071824057084436,0.5060151949482115,0.31800479252158587,0.6629144971593918,0.24036688050542387,0.06477805842548195,-0.19845536904590164,-0.6092892777250523,-0.05772192662630939,-0.6665663824423961,-2.594716964319719,-0.055679514747164524,2.507955923769209,0.8763154248878112,-0.6090851748156966,-0.05753196718556838,-0.666603097082616,-2.5945565370258534,-0.05562143941554,2.507976027223799,0.8763108487046415,0.00040407529522843143,0.00012399447679219434,-0.0006005982348872454,-0.0009599293085662483,0.00038728149414009387,-0.00039178173402016134,-0.0010011474340747846,0.0,0.0,0.0,0.0,0.0,0.0,0.0,0.00020410290935568565,0.00018995944074100962,-3.6714640219925876e-05,0.00016042729386578358,5.807533162452416e-05,2.0103454589914804e-05,-4.576183169735515e-06,-0.00040407529522843143,-0.00012399447679219434,0.0006005982348872454,0.0009599293085662483,-0.00038728149414009387,0.00039178173402016134,0.0010011474340747846,-0.16037636995315552,18.177942276000977,-1.1918060779571533,-18.321260452270508,-0.6539817452430725,-2.2625765800476074,0.17337362468242645,0
78,0.3849954605102539,0.16037636995315552,-18.177942276000977,1.1918060779571533,18.321260452270508,0.6539817452430725,2.2625765800476074,-0.17337362468242645,0.0,0.0,0.0,0.0,0.0,0.0,0.0,0.13071824057084436,0.5060151949482115,0.31800479252158587,0.6629144971593918,0.24036688050542387,0.06477805842548195,-0.19845536904590164,-0.6092892777250523,-0.05772192662630939,-0.6665663824423961,-2.594716964319719,-0.055679514747164524,2.507955923769209,0.8763154248878112,-0.6090851748156966,-0.05753196718556838,-0.666603097082616,-2.5945565370258534,-0.05562143941554,2.507976027223799,0.8763108487046415,0.00040407529522843143,0.00012399447679219434,-0.0006005982348872454,-0.0009599293085662483,0.00038728149414009387,-0.00039178173402016134,-0.0010011474340747846,0.0,0.0,0.0,0.0,0.0,0.0,0.0,0.00020410290935568565,0.00018995944074100962,-3.6714640219925876e-05,0.00016042729386578358,5.807533162452416e-05,2.0103454589914804e-05,-4.576183169735515e-06,-0.00040407529522843143,-0.00012399447679219434,0.0006005982348872454,0.0009599293085662483,-0.00038728149414009387,0.00039178173402016134,0.0010011474340747846,-0.16037636995315552,18.177942276000977,-1.1918060779571533,-18.321260452270508,-0.6539817452430725,-2.2625765800476074,0.17337362468242645,0
79,0.3900015354156494,0.16037636995315552,-18.177942276000977,1.1441986560821533,18.297456741333008,0.6658836007118225,2.2625765800476074,-0.21457235515117645,0.0,0.0,0.0,0.0,0.0,0.0,0.0,0.12929479038304542,0.49915374450438543,0.3108967716740858,0.6622767545603544,0.2406818187877881,0.06560121192846521,-0.19835322475283582,-0.6092892777250523,-0.05772190031946962,-0.6665630412436386,-2.5947152664119195,-0.05568080872365737,2.507955923769209,0.8763196507653621,-0.6090851748156966,-0.05753196718556838,-0.666603097082616,-2.5945565370258534,-0.05562143941554,2.507976027223799,0.8763108487046415,-0.00011962081663023279,-0.0003904285622945753,-0.00032926814221891613,-0.00011242259423359164,3.985814589042433e-05,-0.0003639159263026867,0.0005867411632083468,0.0,0.0,0.0,0.0,0.0,0.0,0.0,0.00020410290935568565,0.00018993313390123362,-4.005583897737086e-05,0.0001587293860660921,5.936930811736851e-05,2.0103454589914804e-05,-8.802060720625171e-06,0.00011962081663023279,0.0003904285622945753,0.00032926814221891613,0.00011242259423359164,-3.985814589042433e-05,0.0003639159263026867,-0.0005867411632083468,-0.16037636995315552,18.177942276000977,-1.1441986560821533,-18.297456741333008,-0.6658836007118225,-2.2625765800476074,0.21457235515117645,0
