rezayati/contactInterpretation/dataset/franka_main/labeled_data/link5/c5_7.csv
index,time,tau_J0,tau_J1,tau_J2,tau_J3,tau_J4,tau_J5,tau_J6,tau_J_d0,tau_J_d1,tau_J_d2,tau_J_d3,tau_J_d4,tau_J_d5,tau_J_d6,tau_ext0,tau_ext1,tau_ext2,tau_ext3,tau_ext4,tau_ext5,tau_ext6,q0,q1,q2,q3,q4,q5,q6,q_d0,q_d1,q_d2,q_d3,q_d4,q_d5,q_d6,dq0,dq1,dq2,dq3,dq4,dq5,dq6,dq_d0,dq_d1,dq_d2,dq_d3,dq_d4,dq_d5,dq_d6,e0,e1,e2,e3,e4,e5,e6,de0,de1,de2,de3,de4,de5,de6,etau_J0,etau_J1,etau_J2,etau_J3,etau_J4,etau_J5,etau_J6,label
1,0.0,-0.17287558317184448,-11.973108291625977,1.2156097888946533,21.891817092895508,0.3857322335243225,2.5207552909851074,-0.17337362468242645,0.0,0.0,0.0,0.0,0.0,0.0,0.0,-0.1619696071736706,0.38211592819949236,0.05179426146664716,0.5888348807560569,-0.1451103372205178,0.12795059116486768,-0.21209989938325766,0.17283106057685718,-0.4873332368741955,-0.11145126631678455,-1.9467231212749814,0.13361002165079114,2.595551071853763,0.9452438468849582,0.1728802376190821,-0.48752024683155326,-0.11147110072896137,-1.9463801863486305,0.1336059019074957,2.595550359778934,0.9452445589611904,0.0005028505295397919,0.0009218868551345041,9.967482243802997e-05,-0.0008911595915255774,0.0001293465045910289,0.0004278821856190464,-0.0009287727235810959,0.0,0.0,0.0,0.0,0.0,0.0,0.0,4.917704222492936e-05,-0.00018700995735776438,-1.9834412176816807e-05,0.0003429349263508463,-4.11974329544984e-06,-7.12074828879139e-07,7.120762322010421e-07,-0.0005028505295397919,-0.0009218868551345041,-9.967482243802997e-05,0.0008911595915255774,-0.0001293465045910289,-0.0004278821856190464,0.0009287727235810959,0.17287558317184448,11.973108291625977,-1.2156097888946533,-21.891817092895508,-0.3857322335243225,-2.5207552909851074,0.17337362468242645,0
2,0.0049321651458740234,-0.17287558317184448,-11.973108291625977,1.2156097888946533,21.891817092895508,0.3857322335243225,2.5207552909851074,-0.17337362468242645,0.0,0.0,0.0,0.0,0.0,0.0,0.0,-0.1619696071736706,0.38211592819949236,0.05179426146664716,0.5888348807560569,-0.1451103372205178,0.12795059116486768,-0.21209989938325766,0.17283106057685718,-0.4873332368741955,-0.11145126631678455,-1.9467231212749814,0.13361002165079114,2.595551071853763,0.9452438468849582,0.1728802376190821,-0.48752024683155326,-0.11147110072896137,-1.9463801863486305,0.1336059019074957,2.595550359778934,0.9452445589611904,0.0005028505295397919,0.0009218868551345041,9.967482243802997e-05,-0.0008911595915255774,0.0001293465045910289,0.0004278821856190464,-0.0009287727235810959,0.0,0.0,0.0,0.0,0.0,0.0,0.0,4.917704222492936e-05,-0.00018700995735776438,-1.9834412176816807e-05,0.0003429349263508463,-4.11974329544984e-06,-7.12074828879139e-07,7.120762322010421e-07,-0.0005028505295397919,-0.0009218868551345041,-9.967482243802997e-05,0.0008911595915255774,-0.0001293465045910289,-0.0004278821856190464,0.0009287727235810959,0.17287558317184448,11.973108291625977,-1.2156097888946533,-21.891817092895508,-0.3857322335243225,-2.5207552909851074,0.17337362468242645,0
3,0.0099334716796875,-0.17287558317184448,-11.925500869750977,1.2909882068634033,21.868013381958008,0.3857322335243225,2.5207552909851074,-0.16604940593242645,0.0,0.0,0.0,0.0,0.0,0.0,0.0,-0.1565064221997634,0.407361785064093,0.0530720778942696,0.5763648516920508,-0.14557691389406408,0.12649813097887203,-0.21139415068508688,0.17283106057685718,-0.48733657774590605,-0.11145465326687864,-1.9467212114394006,0.13361002165079114,2.5955510587738044,0.9452430330829488,0.1728802376190821,-0.48752024683155326,-0.11147110072896137,-1.9463801863486305,0.1336059019074957,2.595550359778934,0.9452445589611904,0.0010821349150992477,0.00013074299526240503,-0.0017965500383601474,0.0003187477696486394,-3.8982838001104144e-05,0.00015616479510795452,-0.0009600081321680184,0.0,0.0,0.0,0.0,0.0,0.0,0.0,4.917704222492936e-05,-0.00018366908564720896,-1.6447462082722075e-05,0.00034102509077005294,-4.11974329544984e-06,-6.989948704294591e-07,1.525878241648293e-06,-0.0010821349150992477,-0.00013074299526240503,0.0017965500383601474,-0.0003187477696486394,3.8982838001104144e-05,-0.00015616479510795452,0.0009600081321680184,0.17287558317184448,11.925500869750977,-1.2909882068634033,-21.868013381958008,-0.3857322335243225,-2.5207552909851074,0.16604940593242645,0
4,0.014929771423339844,-0.17287558317184448,-11.925500869750977,1.2909882068634033,21.868013381958008,0.3857322335243225,2.5207552909851074,-0.16604940593242645,0.0,0.0,0.0,0.0,0.0,0.0,0.0,-0.1565064221997634,0.407361785064093,0.0530720778942696,0.5763648516920508,-0.14557691389406408,0.12649813097887203,-0.21139415068508688,0.17283106057685718,-0.48733657774590605,-0.11145465326687864,-1.9467212114394006,0.13361002165079114,2.5955510587738044,0.9452430330829488,0.1728802376190821,-0.48752024683155326,-0.11147110072896137,-1.9463801863486305,0.1336059019074957,2.595550359778934,0.9452445589611904,0.0010821349150992477,0.00013074299526240503,-0.0017965500383601474,0.0003187477696486394,-3.8982838001104144e-05,0.00015616479510795452,-0.0009600081321680184,0.0,0.0,0.0,0.0,0.0,0.0,0.0,4.917704222492936e-05,-0.00018366908564720896,-1.6447462082722075e-05,0.00034102509077005294,-4.11974329544984e-06,-6.989948704294591e-07,1.525878241648293e-06,-0.0010821349150992477,-0.00013074299526240503,0.0017965500383601474,-0.0003187477696486394,3.8982838001104144e-05,-0.00015616479510795452,0.0009600081321680184,0.17287558317184448,11.925500869750977,-1.2909882068634033,-21.868013381958008,-0.3857322335243225,-2.5207552909851074,0.16604940593242645,0
5,0.019930124282836914,-0.17287558317184448,-11.949304580688477,1.2909882068634033,21.915620803833008,0.3857322335243225,2.5271639823913574,-0.22830526530742645,0.0,0.0,0.0,0.0,0.0,0.0,0.0,-0.15524138764407355,0.3924210114780296,0.04967458248088192,0.5818529391367397,-0.14633078093375504,0.1266565773157914,-0.21050650599979642,0.17283106057685718,-0.4873349073100508,-0.11145441639532892,-1.9467247917107866,0.13361002165079114,2.5955503597789313,0.945249950382712,0.1728802376190821,-0.48752024683155326,-0.11147110072896137,-1.9463801863486305,0.1336059019074957,2.595550359778934,0.9452445589611904,0.0001382212786072255,-0.0006348279390259265,-0.0008710315228796231,-0.0006119058370857036,-8.485937494961795e-05,1.5844170384627756e-05,0.0008018449568644751,0.0,0.0,0.0,0.0,0.0,0.0,0.0,4.917704222492936e-05,-0.00018533952150245891,-1.6684333632444037e-05,0.00034460536215608073,-4.11974329544984e-06,2.6645352591003757e-15,-5.391421521561135e-06,-0.0001382212786072255,0.0006348279390259265,0.0008710315228796231,0.0006119058370857036,8.485937494961795e-05,-1.5844170384627756e-05,-0.0008018449568644751,0.17287558317184448,11.949304580688477,-1.2909882068634033,-21.915620803833008,-0.3857322335243225,-2.5271639823913574,0.22830526530742645,0
6,0.02492690086364746,-0.17287558317184448,-11.949304580688477,1.2909882068634033,21.915620803833008,0.3857322335243225,2.5271639823913574,-0.22830526530742645,0.0,0.0,0.0,0.0,0.0,0.0,0.0,-0.15524138764407355,0.3924210114780296,0.04967458248088192,0.5818529391367397,-0.14633078093375504,0.1266565773157914,-0.21050650599979642,0.17283106057685718,-0.4873349073100508,-0.11145441639532892,-1.9467247917107866,0.13361002165079114,2.5955503597789313,0.945249950382712,0.1728802376190821,-0.48752024683155326,-0.11147110072896137,-1.9463801863486305,0.1336059019074957,2.595550359778934,0.9452445589611904,0.0001382212786072255,-0.0006348279390259265,-0.0008710315228796231,-0.0006119058370857036,-8.485937494961795e-05,1.5844170384627756e-05,0.0008018449568644751,0.0,0.0,0.0,0.0,0.0,0.0,0.0,4.917704222492936e-05,-0.00018533952150245891,-1.6684333632444037e-05,0.00034460536215608073,-4.11974329544984e-06,2.6645352591003757e-15,-5.391421521561135e-06,-0.0001382212786072255,0.0006348279390259265,0.0008710315228796231,0.0006119058370857036,8.485937494961795e-05,-1.5844170384627756e-05,-0.0008018449568644751,0.17287558317184448,11.949304580688477,-1.2909882068634033,-21.915620803833008,-0.3857322335243225,-2.5271639823913574,0.22830526530742645,0
7,0.029941797256469727,-0.17287558317184448,-11.973108291625977,1.2433807849884033,21.891817092895508,0.3857322335243225,2.5271639823913574,-0.21457235515117645,0.0,0.0,0.0,0.0,0.0,0.0,0.0,-0.15887575657866226,0.3885134528865898,0.049685641664059935,0.5797631389252851,-0.14651575226982191,0.12584274218757427,-0.21159649193623195,0.17283106057685718,-0.4873332367651792,-0.11145107952915968,-1.946723118331542,0.13361002165079114,2.595550359778934,0.9452484245217505,0.1728802376190821,-0.48752024683155326,-0.11147110072896137,-1.9463801863486305,0.1336059019074957,2.595550359778934,0.9452445589611904,0.0002219524406504267,-0.0006528339328311901,0.0003892859731602056,-0.0003816496173484282,0.0001989451872675809,1.2526791013517459e-05,0.00036182700519194605,0.0,0.0,0.0,0.0,0.0,0.0,0.0,4.917704222492936e-05,-0.00018701006637406037,-2.0021199801684153e-05,0.00034293198291157623,-4.11974329544984e-06,0.0,-3.865560560090131e-06,-0.0002219524406504267,0.0006528339328311901,-0.0003892859731602056,0.0003816496173484282,-0.0001989451872675809,-1.2526791013517459e-05,-0.00036182700519194605,0.17287558317184448,11.973108291625977,-1.2433807849884033,-21.891817092895508,-0.3857322335243225,-2.5271639823913574,0.21457235515117645,0
8,0.03493666648864746,-0.17287558317184448,-11.973108291625977,1.2433807849884033,21.891817092895508,0.3857322335243225,2.5271639823913574,-0.21457235515117645,0.0,0.0,0.0,0.0,0.0,0.0,0.0,-0.15887575657866226,0.3885134528865898,0.049685641664059935,0.5797631389252851,-0.14651575226982191,0.12584274218757427,-0.21159649193623195,0.17283106057685718,-0.4873332367651792,-0.11145107952915968,-1.946723118331542,0.13361002165079114,2.595550359778934,0.9452484245217505,0.1728802376190821,-0.48752024683155326,-0.11147110072896137,-1.9463801863486305,0.1336059019074957,2.595550359778934,0.9452445589611904,0.0002219524406504267,-0.0006528339328311901,0.0003892859731602056,-0.0003816496173484282,0.0001989451872675809,1.2526791013517459e-05,0.00036182700519194605,0.0,0.0,0.0,0.0,0.0,0.0,0.0,4.917704222492936e-05,-0.00018701006637406037,-2.0021199801684153e-05,0.00034293198291157623,-4.11974329544984e-06,0.0,-3.865560560090131e-06,-0.0002219524406504267,0.0006528339328311901,-0.0003892859731602056,0.0003816496173484282,-0.0001989451872675809,-1.2526791013517459e-05,-0.00036182700519194605,0.17287558317184448,11.973108291625977,-1.2433807849884033,-21.891817092895508,-0.3857322335243225,-2.5271639823913574,0.21457235515117645,0
9,0.03993988037109375,-0.17287558317184448,-11.973108291625977,1.2433807849884033,21.891817092895508,0.3857322335243225,2.5271639823913574,-0.21457235515117645,0.0,0.0,0.0,0.0,0.0,0.0,0.0,-0.15887575657866226,0.3885134528865898,0.049685641664059935,0.5797631389252851,-0.14651575226982191,0.12584274218757427,-0.21159649193623195,0.17283106057685718,-0.4873332367651792,-0.11145107952915968,-1.946723118331542,0.13361002165079114,2.595550359778934,0.9452484245217505,0.1728802376190821,-0.48752024683155326,-0.11147110072896137,-1.9463801863486305,0.1336059019074957,2.595550359778934,0.9452445589611904,0.0002219524406504267,-0.0006528339328311901,0.0003892859731602056,-0.0003816496173484282,0.0001989451872675809,1.2526791013517459e-05,0.00036182700519194605,0.0,0.0,0.0,0.0,0.0,0.0,0.0,4.917704222492936e-05,-0.00018701006637406037,-2.0021199801684153e-05,0.00034293198291157623,-4.11974329544984e-06,0.0,-3.865560560090131e-06,-0.0002219524406504267,0.0006528339328311901,-0.0003892859731602056,0.0003816496173484282,-0.0001989451872675809,-1.2526791013517459e-05,-0.00036182700519194605,0.17287558317184448,11.973108291625977,-1.2433807849884033,-21.891817092895508,-0.3857322335243225,-2.5271639823913574,0.21457235515117645,0
10,0.044940948486328125,-0.17287558317184448,-11.973108291625977,1.2433807849884033,21.891817092895508,0.3857322335243225,2.5271639823913574,-0.21457235515117645,0.0,0.0,0.0,0.0,0.0,0.0,0.0,-0.15887575657866226,0.3885134528865898,0.049685641664059935,0.5797631389252851,-0.14651575226982191,0.12584274218757427,-0.21159649193623195,0.17283106057685718,-0.4873332367651792,-0.11145107952915968,-1.946723118331542,0.13361002165079114,2.595550359778934,0.9452484245217505,0.1728802376190821,-0.48752024683155326,-0.11147110072896137,-1.9463801863486305,0.1336059019074957,2.595550359778934,0.9452445589611904,0.0002219524406504267,-0.0006528339328311901,0.0003892859731602056,-0.0003816496173484282,0.0001989451872675809,1.2526791013517459e-05,0.00036182700519194605,0.0,0.0,0.0,0.0,0.0,0.0,0.0,4.917704222492936e-05,-0.00018701006637406037,-2.0021199801684153e-05,0.00034293198291157623,-4.11974329544984e-06,0.0,-3.865560560090131e-06,-0.0002219524406504267,0.0006528339328311901,-0.0003892859731602056,0.0003816496173484282,-0.0001989451872675809,-1.2526791013517459e-05,-0.00036182700519194605,0.17287558317184448,11.973108291625977,-1.2433807849884033,-21.891817092895508,-0.3857322335243225,-2.5271639823913574,0.21457235515117645,0
11,0.04993081092834473,-0.12130087614059448,-11.949304580688477,1.2433807849884033,21.868013381958008,0.3976340889930725,2.5271639823913574,-0.23471395671367645,0.0,0.0,0.0,0.0,0.0,0.0,0.0,-0.15938104990528143,0.3862967976070411,0.05396654455744725,0.5753478377218689,-0.14577513864964042,0.1247180466535876,-0.2137590660095012,0.17282744129917077,-0.48733490632890436,-0.1114510842939016,-1.9467214508391262,0.13360869922240573,2.595550359778934,0.9452506624777071,0.1728802376190821,-0.48752024683155326,-0.11147110072896137,-1.9463801863486305,0.1336059019074957,2.595550359778934,0.9452445589611904,-0.0008960924320375118,-0.0006690014804505418,0.00034224338491867386,-0.00011548079643398762,-0.00030650455530995083,-3.845225037927087e-05,0.0011317208474281696,0.0,0.0,0.0,0.0,0.0,0.0,0.0,5.279631991134126e-05,-0.00018534050264890078,-2.0016435059763693e-05,0.0003412644904956519,-2.7973149100413153e-06,0.0,-6.1035165166423155e-06,0.0008960924320375118,0.0006690014804505418,-0.00034224338491867386,0.00011548079643398762,0.00030650455530995083,3.845225037927087e-05,-0.0011317208474281696,0.12130087614059448,11.949304580688477,-1.2433807849884033,-21.868013381958008,-0.3976340889930725,-2.5271639823913574,0.23471395671367645,0
12,0.05487680435180664,-0.12130087614059448,-11.949304580688477,1.2433807849884033,21.868013381958008,0.3976340889930725,2.5271639823913574,-0.23471395671367645,0.0,0.0,0.0,0.0,0.0,0.0,0.0,-0.15938104990528143,0.3862967976070411,0.05396654455744725,0.5753478377218689,-0.14577513864964042,0.1247180466535876,-0.2137590660095012,0.17282744129917077,-0.48733490632890436,-0.1114510842939016,-1.9467214508391262,0.13360869922240573,2.595550359778934,0.9452506624777071,0.1728802376190821,-0.48752024683155326,-0.11147110072896137,-1.9463801863486305,0.1336059019074957,2.595550359778934,0.9452445589611904,-0.0008960924320375118,-0.0006690014804505418,0.00034224338491867386,-0.00011548079643398762,-0.00030650455530995083,-3.845225037927087e-05,0.0011317208474281696,0.0,0.0,0.0,0.0,0.0,0.0,0.0,5.279631991134126e-05,-0.00018534050264890078,-2.0016435059763693e-05,0.0003412644904956519,-2.7973149100413153e-06,0.0,-6.1035165166423155e-06,0.0008960924320375118,0.0006690014804505418,-0.00034224338491867386,0.00011548079643398762,0.00030650455530995083,3.845225037927087e-05,-0.0011317208474281696,0.12130087614059448,11.949304580688477,-1.2433807849884033,-21.868013381958008,-0.3976340889930725,-2.5271639823913574,0.23471395671367645,0
13,0.05993080139160156,-0.14510458707809448,-12.000879287719727,1.2156097888946533,21.840242385864258,0.3857322335243225,2.5271639823913574,-0.16604940593242645,0.0,0.0,0.0,0.0,0.0,0.0,0.0,-0.16556072444361425,0.37780314713088303,0.04629568132708684,0.5772911642195899,-0.14498163386739557,0.1253082513137767,-0.2143315997770193,0.17282911173502605,-0.4873312880323588,-0.11144920596361611,-1.9467187867415576,0.13361002165079114,2.595550359778934,0.9452430330829488,0.1728802376190821,-0.48752024683155326,-0.11147110072896137,-1.9463801863486305,0.1336059019074957,2.595550359778934,0.9452445589611904,-0.0010767866296020436,0.000982494614116569,0.0002144832560592435,0.0007971260399060594,0.00015089775162768833,-4.4697364066376116e-05,-0.0014630054000660964,0.0,0.0,0.0,0.0,0.0,0.0,0.0,5.112588405606355e-05,-0.0001889587991944497,-2.189476534525392e-05,0.000338600392927102,-4.11974329544984e-06,0.0,1.525878241648293e-06,0.0010767866296020436,-0.000982494614116569,-0.0002144832560592435,-0.0007971260399060594,-0.00015089775162768833,4.4697364066376116e-05,0.0014630054000660964,0.14510458707809448,12.000879287719727,-1.2156097888946533,-21.840242385864258,-0.3857322335243225,-2.5271639823913574,0.16604940593242645,0
14,0.06492757797241211,-0.14510458707809448,-12.000879287719727,1.2156097888946533,21.840242385864258,0.3857322335243225,2.5271639823913574,-0.16604940593242645,0.0,0.0,0.0,0.0,0.0,0.0,0.0,-0.16556072444361425,0.37780314713088303,0.04629568132708684,0.5772911642195899,-0.14498163386739557,0.1253082513137767,-0.2143315997770193,0.17282911173502605,-0.4873312880323588,-0.11144920596361611,-1.9467187867415576,0.13361002165079114,2.595550359778934,0.9452430330829488,0.1728802376190821,-0.48752024683155326,-0.11147110072896137,-1.9463801863486305,0.1336059019074957,2.595550359778934,0.9452445589611904,-0.0010767866296020436,0.000982494614116569,0.0002144832560592435,0.0007971260399060594,0.00015089775162768833,-4.4697364066376116e-05,-0.0014630054000660964,0.0,0.0,0.0,0.0,0.0,0.0,0.0,5.112588405606355e-05,-0.0001889587991944497,-2.189476534525392e-05,0.000338600392927102,-4.11974329544984e-06,0.0,1.525878241648293e-06,0.0010767866296020436,-0.000982494614116569,-0.0002144832560592435,-0.0007971260399060594,-0.00015089775162768833,4.4697364066376116e-05,0.0014630054000660964,0.14510458707809448,12.000879287719727,-1.2156097888946533,-21.840242385864258,-0.3857322335243225,-2.5271639823913574,0.16604940593242645,0
15,0.0699312686920166,-0.17287558317184448,-11.925500869750977,1.1680023670196533,21.891817092895508,0.3912253975868225,2.5399813652038574,-0.17337362468242645,0.0,0.0,0.0,0.0,0.0,0.0,0.0,-0.16500304484340225,0.37137233331546066,0.04805525866289723,0.5811966541640721,-0.1448550050168919,0.12609785763306347,-0.21393144720279011,0.17283106057685718,-0.48733657774590605,-0.11144791671261188,-1.9467231212709437,0.13360941129922865,2.5955489356252883,0.9452438468850322,0.1728802376190821,-0.48752024683155326,-0.11147110072896137,-1.9463801863486305,0.1336059019074957,2.595550359778934,0.9452445589611904,-0.0002836268937271468,-0.0005211970849974025,0.0008360992455828845,-0.0005881266089722293,-0.00028495673337796334,-0.0003748226602649896,-0.000991118956052165,0.0,0.0,0.0,0.0,0.0,0.0,0.0,4.917704222492936e-05,-0.00018366908564720896,-2.3184016349486747e-05,0.00034293492231318723,-3.509391732964273e-06,1.4241536456793824e-06,7.120761582601887e-07,0.0002836268937271468,0.0005211970849974025,-0.0008360992455828845,0.0005881266089722293,0.00028495673337796334,0.0003748226602649896,0.000991118956052165,0.17287558317184448,11.925500869750977,-1.1680023670196533,-21.891817092895508,-0.3912253975868225,-2.5399813652038574,0.17337362468242645,0
16,0.07493066787719727,-0.17287558317184448,-11.925500869750977,1.1680023670196533,21.891817092895508,0.3912253975868225,2.5399813652038574,-0.17337362468242645,0.0,0.0,0.0,0.0,0.0,0.0,0.0,-0.16500304484340225,0.37137233331546066,0.04805525866289723,0.5811966541640721,-0.1448550050168919,0.12609785763306347,-0.21393144720279011,0.17283106057685718,-0.48733657774590605,-0.11144791671261188,-1.9467231212709437,0.13360941129922865,2.5955489356252883,0.9452438468850322,0.1728802376190821,-0.48752024683155326,-0.11147110072896137,-1.9463801863486305,0.1336059019074957,2.595550359778934,0.9452445589611904,-0.0002836268937271468,-0.0005211970849974025,0.0008360992455828845,-0.0005881266089722293,-0.00028495673337796334,-0.0003748226602649896,-0.000991118956052165,0.0,0.0,0.0,0.0,0.0,0.0,0.0,4.917704222492936e-05,-0.00018366908564720896,-2.3184016349486747e-05,0.00034293492231318723,-3.509391732964273e-06,1.4241536456793824e-06,7.120761582601887e-07,0.0002836268937271468,0.0005211970849974025,-0.0008360992455828845,0.0005881266089722293,0.00028495673337796334,0.0003748226602649896,0.000991118956052165,0.17287558317184448,11.925500869750977,-1.1680023670196533,-21.891817092895508,-0.3912253975868225,-2.5399813652038574,0.17337362468242645,0
17,0.07992911338806152,-0.17287558317184448,-11.901697158813477,1.1918060779571533,21.868013381958008,0.3912253975868225,2.5335726737976074,-0.21457235515117645,0.0,0.0,0.0,0.0,0.0,0.0,0.0,-0.16999835187283108,0.37437432878891114,0.042023249051065144,0.5839591407551566,-0.14469203713960502,0.12745730718485793,-0.21281416188998142,0.17283106057685718,-0.4873382481817613,-0.11144745639423775,-1.9467214508391262,0.13360941129922865,2.595549647702111,0.9452484245217508,0.1728802376190821,-0.48752024683155326,-0.11147110072896137,-1.9463801863486305,0.1336059019074957,2.595550359778934,0.9452445589611904,-0.0002975779462719281,-0.0006404341821252908,0.0007479846556700952,0.0005673801316093195,-0.0024117234012413693,-0.0002117079981362732,0.00035519461626408184,0.0,0.0,0.0,0.0,0.0,0.0,0.0,4.917704222492936e-05,-0.000181998649791959,-2.364433472361316e-05,0.0003412644904956519,-3.509391732964273e-06,7.120768228396912e-07,-3.865560560423198e-06,0.0002975779462719281,0.0006404341821252908,-0.0007479846556700952,-0.0005673801316093195,0.0024117234012413693,0.0002117079981362732,-0.00035519461626408184,0.17287558317184448,11.901697158813477,-1.1918060779571533,-21.868013381958008,-0.3912253975868225,-2.5335726737976074,0.21457235515117645,0
18,0.08492875099182129,-0.17287558317184448,-11.901697158813477,1.1918060779571533,21.868013381958008,0.3912253975868225,2.5335726737976074,-0.21457235515117645,0.0,0.0,0.0,0.0,0.0,0.0,0.0,-0.16999835187283108,0.37437432878891114,0.042023249051065144,0.5839591407551566,-0.14469203713960502,0.12745730718485793,-0.21281416188998142,0.17283106057685718,-0.4873382481817613,-0.11144745639423775,-1.9467214508391262,0.13360941129922865,2.595549647702111,0.9452484245217508,0.1728802376190821,-0.48752024683155326,-0.11147110072896137,-1.9463801863486305,0.1336059019074957,2.595550359778934,0.9452445589611904,-0.0002975779462719281,-0.0006404341821252908,0.0007479846556700952,0.0005673801316093195,-0.0024117234012413693,-0.0002117079981362732,0.00035519461626408184,0.0,0.0,0.0,0.0,0.0,0.0,0.0,4.917704222492936e-05,-0.000181998649791959,-2.364433472361316e-05,0.0003412644904956519,-3.509391732964273e-06,7.120768228396912e-07,-3.865560560423198e-06,0.0002975779462719281,0.0006404341821252908,-0.0007479846556700952,-0.0005673801316093195,0.0024117234012413693,0.0002117079981362732,-0.00035519461626408184,0.17287558317184448,11.901697158813477,-1.1918060779571533,-21.868013381958008,-0.3912253975868225,-2.5335726737976074,0.21457235515117645,0
19,0.08993005752563477,-0.19667929410934448,-11.901697158813477,1.2156097888946533,21.840242385864258,0.3857322335243225,2.5335726737976074,-0.16604940593242645,0.0,0.0,0.0,0.0,0.0,0.0,0.0,-0.17010917142464507,0.38573251538287523,0.04251523575184587,0.5822023630381743,-0.1460018203393419,0.1269710054764765,-0.21355477239453716,0.17283273101271243,-0.4873382481817613,-0.11144912668173856,-1.9467192634696995,0.13361002165079114,2.595549647702111,0.9452430330829488,0.1728802376190821,-0.48752024683155326,-0.11147110072896137,-1.9463801863486305,0.1336059019074957,2.595550359778934,0.9452445589611904,0.0005223417816601466,-0.00024391878680814872,0.0005297005776169678,0.0010678314997259852,-0.00021419868123078367,-0.00024814334776947114,-0.002007146586291185,0.0,0.0,0.0,0.0,0.0,0.0,0.0,4.7506606369679405e-05,-0.000181998649791959,-2.197404722280305e-05,0.0003390771210689536,-4.11974329544984e-06,7.120768228396912e-07,1.525878241648293e-06,-0.0005223417816601466,0.00024391878680814872,-0.0005297005776169678,-0.0010678314997259852,0.00021419868123078367,0.00024814334776947114,0.002007146586291185,0.19667929410934448,11.901697158813477,-1.2156097888946533,-21.840242385864258,-0.3857322335243225,-2.5335726737976074,0.16604940593242645,0
20,0.09494256973266602,-0.19667929410934448,-11.901697158813477,1.2156097888946533,21.840242385864258,0.3857322335243225,2.5335726737976074,-0.16604940593242645,0.0,0.0,0.0,0.0,0.0,0.0,0.0,-0.17010917142464507,0.38573251538287523,0.04251523575184587,0.5822023630381743,-0.1460018203393419,0.1269710054764765,-0.21355477239453716,0.17283273101271243,-0.4873382481817613,-0.11144912668173856,-1.9467192634696995,0.13361002165079114,2.595549647702111,0.9452430330829488,0.1728802376190821,-0.48752024683155326,-0.11147110072896137,-1.9463801863486305,0.1336059019074957,2.595550359778934,0.9452445589611904,0.0005223417816601466,-0.00024391878680814872,0.0005297005776169678,0.0010678314997259852,-0.00021419868123078367,-0.00024814334776947114,-0.002007146586291185,0.0,0.0,0.0,0.0,0.0,0.0,0.0,4.7506606369679405e-05,-0.000181998649791959,-2.197404722280305e-05,0.0003390771210689536,-4.11974329544984e-06,7.120768228396912e-07,1.525878241648293e-06,-0.0005223417816601466,0.00024391878680814872,-0.0005297005776169678,-0.0010678314997259852,0.00021419868123078367,0.00024814334776947114,0.002007146586291185,0.19667929410934448,11.901697158813477,-1.2156097888946533,-21.840242385864258,-0.3857322335243225,-2.5335726737976074,0.16604940593242645,0
21,0.09995603561401367,-0.17287558317184448,-11.901697158813477,1.2433807849884033,21.840242385864258,0.3793235421180725,2.5271639823913574,-0.17337362468242645,0.0,0.0,0.0,0.0,0.0,0.0,0.0,-0.1727117308996681,0.3834432828760754,0.039253803560371316,0.5869731608883719,-0.14629811192099434,0.1277024949095461,-0.21444573974702183,0.17283176920985618,-0.4873382481817613,-0.11145107555965528,-1.946719501886932,0.13361073372761406,2.595550359778934,0.9452438468850322,0.1728802376190821,-0.48752024683155326,-0.11147110072896137,-1.9463801863486305,0.1336059019074957,2.595550359778934,0.9452445589611904,-0.000246899233973972,-0.000693919679744054,0.00010625743100362435,0.0009633530786088286,0.00045973524566210585,-2.276225831002761e-05,-0.0011042704904294137,0.0,0.0,0.0,0.0,0.0,0.0,0.0,4.846840922592688e-05,-0.000181998649791959,-2.0025169306089885e-05,0.0003393155383015767,-4.831820118372798e-06,0.0,7.120761582601887e-07,0.000246899233973972,0.000693919679744054,-0.00010625743100362435,-0.0009633530786088286,-0.00045973524566210585,2.276225831002761e-05,0.0011042704904294137,0.17287558317184448,11.901697158813477,-1.2433807849884033,-21.840242385864258,-0.3793235421180725,-2.5271639823913574,0.17337362468242645,0
22,0.1049349308013916,-0.17287558317184448,-11.901697158813477,1.2433807849884033,21.840242385864258,0.3793235421180725,2.5271639823913574,-0.17337362468242645,0.0,0.0,0.0,0.0,0.0,0.0,0.0,-0.1727117308996681,0.3834432828760754,0.039253803560371316,0.5869731608883719,-0.14629811192099434,0.1277024949095461,-0.21444573974702183,0.17283176920985618,-0.4873382481817613,-0.11145107555965528,-1.946719501886932,0.13361073372761406,2.595550359778934,0.9452438468850322,0.1728802376190821,-0.48752024683155326,-0.11147110072896137,-1.9463801863486305,0.1336059019074957,2.595550359778934,0.9452445589611904,-0.000246899233973972,-0.000693919679744054,0.00010625743100362435,0.0009633530786088286,0.00045973524566210585,-2.276225831002761e-05,-0.0011042704904294137,0.0,0.0,0.0,0.0,0.0,0.0,0.0,4.846840922592688e-05,-0.000181998649791959,-2.0025169306089885e-05,0.0003393155383015767,-4.831820118372798e-06,0.0,7.120761582601887e-07,0.000246899233973972,0.000693919679744054,-0.00010625743100362435,-0.0009633530786088286,-0.00045973524566210585,2.276225831002761e-05,0.0011042704904294137,0.17287558317184448,11.901697158813477,-1.2433807849884033,-21.840242385864258,-0.3793235421180725,-2.5271639823913574,0.17337362468242645,0
23,0.11006855964660645,-0.17287558317184448,-11.901697158813477,1.2433807849884033,21.840242385864258,0.3793235421180725,2.5271639823913574,-0.17337362468242645,0.0,0.0,0.0,0.0,0.0,0.0,0.0,-0.1727117308996681,0.3834432828760754,0.039253803560371316,0.5869731608883719,-0.14629811192099434,0.1277024949095461,-0.21444573974702183,0.17283176920985618,-0.4873382481817613,-0.11145107555965528,-1.946719501886932,0.13361073372761406,2.595550359778934,0.9452438468850322,0.1728802376190821,-0.48752024683155326,-0.11147110072896137,-1.9463801863486305,0.1336059019074957,2.595550359778934,0.9452445589611904,-0.000246899233973972,-0.000693919679744054,0.00010625743100362435,0.0009633530786088286,0.00045973524566210585,-2.276225831002761e-05,-0.0011042704904294137,0.0,0.0,0.0,0.0,0.0,0.0,0.0,4.846840922592688e-05,-0.000181998649791959,-2.0025169306089885e-05,0.0003393155383015767,-4.831820118372798e-06,0.0,7.120761582601887e-07,0.000246899233973972,0.000693919679744054,-0.00010625743100362435,-0.0009633530786088286,-0.00045973524566210585,2.276225831002761e-05,0.0011042704904294137,0.17287558317184448,11.901697158813477,-1.2433807849884033,-21.840242385864258,-0.3793235421180725,-2.5271639823913574,0.17337362468242645,0
24,0.11495757102966309,-0.09352988004684448,-11.949304580688477,1.2909882068634033,21.915620803833008,0.3912253975868225,2.5335726737976074,-0.22830526530742645,0.0,0.0,0.0,0.0,0.0,0.0,0.0,-0.17204648781022067,0.38642763610165604,0.04099685991852524,0.5869749552874868,-0.14593958312739688,0.12798863970404475,-0.21563632527140122,0.17282549246133988,-0.4873349073100508,-0.11145441975131513,-1.946724791710836,0.13360905587893945,2.595546468787723,0.9452499504006571,0.1728802376190821,-0.48752024683155326,-0.11147110072896137,-1.9463801863486305,0.1336059019074957,2.595550359778934,0.9452445589611904,-0.0014986765462223224,-3.2190636031969505e-05,-0.0012876739662190417,-0.0009432573324860361,-2.167549384306493e-06,-0.00010868235517805701,0.0009834097042164991,0.0,0.0,0.0,0.0,0.0,0.0,0.0,5.4745157742230877e-05,-0.00018533952150245891,-1.6680977646232886e-05,0.00034460536220537463,-3.1539714437645028e-06,3.890991211008554e-06,-5.3914394666509935e-06,0.0014986765462223224,3.2190636031969505e-05,0.0012876739662190417,0.0009432573324860361,2.167549384306493e-06,0.00010868235517805701,-0.0009834097042164991,0.09352988004684448,11.949304580688477,-1.2909882068634033,-21.915620803833008,-0.3912253975868225,-2.5335726737976074,0.22830526530742645,0
25,0.11988425254821777,-0.09352988004684448,-11.949304580688477,1.2909882068634033,21.915620803833008,0.3912253975868225,2.5335726737976074,-0.22830526530742645,0.0,0.0,0.0,0.0,0.0,0.0,0.0,-0.17204648781022067,0.38642763610165604,0.04099685991852524,0.5869749552874868,-0.14593958312739688,0.12798863970404475,-0.21563632527140122,0.17282549246133988,-0.4873349073100508,-0.11145441975131513,-1.946724791710836,0.13360905587893945,2.595546468787723,0.9452499504006571,0.1728802376190821,-0.48752024683155326,-0.11147110072896137,-1.9463801863486305,0.1336059019074957,2.595550359778934,0.9452445589611904,-0.0014986765462223224,-3.2190636031969505e-05,-0.0012876739662190417,-0.0009432573324860361,-2.167549384306493e-06,-0.00010868235517805701,0.0009834097042164991,0.0,0.0,0.0,0.0,0.0,0.0,0.0,5.4745157742230877e-05,-0.00018533952150245891,-1.6680977646232886e-05,0.00034460536220537463,-3.1539714437645028e-06,3.890991211008554e-06,-5.3914394666509935e-06,0.0014986765462223224,3.2190636031969505e-05,0.0012876739662190417,0.0009432573324860361,2.167549384306493e-06,0.00010868235517805701,-0.0009834097042164991,0.09352988004684448,11.949304580688477,-1.2909882068634033,-21.915620803833008,-0.3912253975868225,-2.5335726737976074,0.22830526530742645,0
26,0.12493133544921875,-0.22445029020309448,-11.901697158813477,1.2433807849884033,21.891817092895508,0.3912253975868225,2.5335726737976074,-0.23471395671367645,0.0,0.0,0.0,0.0,0.0,0.0,0.0,-0.17276190508042633,0.38965342414319953,0.038132512744798314,0.5858621563659768,-0.14552136921494613,0.1279452582930997,-0.21567500859042546,0.17283467985454362,-0.4873382481817613,-0.11145107552358782,-1.946723121165965,0.1336094112972223,2.595549647684166,0.94525066247748,0.1728802376190821,-0.48752024683155326,-0.11147110072896137,-1.9463801863486305,0.1336059019074957,2.595550359778934,0.9452445589611904,0.0011152340015441941,-0.00125527121566278,-2.309377121174679e-05,-8.613483869453548e-05,-0.000143823893168456,-0.00020754720099966693,0.0014366156477007561,0.0,0.0,0.0,0.0,0.0,0.0,0.0,4.55577645384897e-05,-0.000181998649791959,-2.0025205373544464e-05,0.0003429348173344948,-3.5093897266247343e-06,7.12094768040572e-07,-6.103516289601707e-06,-0.0011152340015441941,0.00125527121566278,2.309377121174679e-05,8.613483869453548e-05,0.000143823893168456,0.00020754720099966693,-0.0014366156477007561,0.22445029020309448,11.901697158813477,-1.2433807849884033,-21.891817092895508,-0.3912253975868225,-2.5335726737976074,0.23471395671367645,0
27,0.12993144989013672,-0.22445029020309448,-11.901697158813477,1.2433807849884033,21.891817092895508,0.3912253975868225,2.5335726737976074,-0.23471395671367645,0.0,0.0,0.0,0.0,0.0,0.0,0.0,-0.17276190508042633,0.38965342414319953,0.038132512744798314,0.5858621563659768,-0.14552136921494613,0.1279452582930997,-0.21567500859042546,0.17283467985454362,-0.4873382481817613,-0.11145107552358782,-1.946723121165965,0.1336094112972223,2.595549647684166,0.94525066247748,0.1728802376190821,-0.48752024683155326,-0.11147110072896137,-1.9463801863486305,0.1336059019074957,2.595550359778934,0.9452445589611904,0.0011152340015441941,-0.00125527121566278,-2.309377121174679e-05,-8.613483869453548e-05,-0.000143823893168456,-0.00020754720099966693,0.0014366156477007561,0.0,0.0,0.0,0.0,0.0,0.0,0.0,4.55577645384897e-05,-0.000181998649791959,-2.0025205373544464e-05,0.0003429348173344948,-3.5093897266247343e-06,7.12094768040572e-07,-6.103516289601707e-06,-0.0011152340015441941,0.00125527121566278,2.309377121174679e-05,8.613483869453548e-05,0.000143823893168456,0.00020754720099966693,-0.0014366156477007561,0.22445029020309448,11.901697158813477,-1.2433807849884033,-21.891817092895508,-0.3912253975868225,-2.5335726737976074,0.23471395671367645,0
28,0.13493061065673828,-0.12130087614059448,-11.949304580688477,1.2433807849884033,21.868013381958008,0.3912253975868225,2.5335726737976074,-0.22098104655742645,0.0,0.0,0.0,0.0,0.0,0.0,0.0,-0.17058059721096988,0.39226523388732576,0.04135012789608591,0.5825961164796383,-0.14564245266588854,0.1275976385301181,-0.2150165056041059,0.17282744129917077,-0.4873349073100508,-0.11145178873525115,-1.9467214478956703,0.13360941129922835,2.5955496477021085,0.9452491365985738,0.1728802376190821,-0.48752024683155326,-0.11147110072896137,-1.9463801863486305,0.1336059019074957,2.595550359778934,0.9452445589611904,-0.0009725122362457239,-0.0006601479502772263,-0.0002771853855154108,-6.217363226209278e-05,-3.547395574704075e-05,-9.839658590498117e-05,0.0008844618609775787,0.0,0.0,0.0,0.0,0.0,0.0,0.0,5.279631991134126e-05,-0.00018533952150245891,-1.93119937102193e-05,0.00034126154703972844,-3.509391732658962e-06,7.120768255042265e-07,-4.5776373833739115e-06,0.0009725122362457239,0.0006601479502772263,0.0002771853855154108,6.217363226209278e-05,3.547395574704075e-05,9.839658590498117e-05,-0.0008844618609775787,0.12130087614059448,11.949304580688477,-1.2433807849884033,-21.868013381958008,-0.3912253975868225,-2.5335726737976074,0.22098104655742645,0
29,0.13993120193481445,-0.12130087614059448,-11.949304580688477,1.2433807849884033,21.868013381958008,0.3912253975868225,2.5335726737976074,-0.22098104655742645,0.0,0.0,0.0,0.0,0.0,0.0,0.0,-0.17058059721096988,0.39226523388732576,0.04135012789608591,0.5825961164796383,-0.14564245266588854,0.1275976385301181,-0.2150165056041059,0.17282744129917077,-0.4873349073100508,-0.11145178873525115,-1.9467214478956703,0.13360941129922835,2.5955496477021085,0.9452491365985738,0.1728802376190821,-0.48752024683155326,-0.11147110072896137,-1.9463801863486305,0.1336059019074957,2.595550359778934,0.9452445589611904,-0.0009725122362457239,-0.0006601479502772263,-0.0002771853855154108,-6.217363226209278e-05,-3.547395574704075e-05,-9.839658590498117e-05,0.0008844618609775787,0.0,0.0,0.0,0.0,0.0,0.0,0.0,5.279631991134126e-05,-0.00018533952150245891,-1.93119937102193e-05,0.00034126154703972844,-3.509391732658962e-06,7.120768255042265e-07,-4.5776373833739115e-06,0.0009725122362457239,0.0006601479502772263,0.0002771853855154108,6.217363226209278e-05,3.547395574704075e-05,9.839658590498117e-05,-0.0008844618609775787,0.12130087614059448,11.949304580688477,-1.2433807849884033,-21.868013381958008,-0.3912253975868225,-2.5335726737976074,0.22098104655742645,0
30,0.1449284553527832,-0.12130087614059448,-11.949304580688477,1.2433807849884033,21.868013381958008,0.3912253975868225,2.5335726737976074,-0.22098104655742645,0.0,0.0,0.0,0.0,0.0,0.0,0.0,-0.17058059721096988,0.39226523388732576,0.04135012789608591,0.5825961164796383,-0.14564245266588854,0.1275976385301181,-0.2150165056041059,0.17282744129917077,-0.4873349073100508,-0.11145178873525115,-1.9467214478956703,0.13360941129922835,2.5955496477021085,0.9452491365985738,0.1728802376190821,-0.48752024683155326,-0.11147110072896137,-1.9463801863486305,0.1336059019074957,2.595550359778934,0.9452445589611904,-0.0009725122362457239,-0.0006601479502772263,-0.0002771853855154108,-6.217363226209278e-05,-3.547395574704075e-05,-9.839658590498117e-05,0.0008844618609775787,0.0,0.0,0.0,0.0,0.0,0.0,0.0,5.279631991134126e-05,-0.00018533952150245891,-1.93119937102193e-05,0.00034126154703972844,-3.509391732658962e-06,7.120768255042265e-07,-4.5776373833739115e-06,0.0009725122362457239,0.0006601479502772263,0.0002771853855154108,6.217363226209278e-05,3.547395574704075e-05,9.839658590498117e-05,-0.0008844618609775787,0.12130087614059448,11.949304580688477,-1.2433807849884033,-21.868013381958008,-0.3912253975868225,-2.5335726737976074,0.22098104655742645,0
31,0.1499345302581787,-0.12130087614059448,-11.949304580688477,1.2433807849884033,21.868013381958008,0.3912253975868225,2.5335726737976074,-0.22098104655742645,0.0,0.0,0.0,0.0,0.0,0.0,0.0,-0.17058059721096988,0.39226523388732576,0.04135012789608591,0.5825961164796383,-0.14564245266588854,0.1275976385301181,-0.2150165056041059,0.17282744129917077,-0.4873349073100508,-0.11145178873525115,-1.9467214478956703,0.13360941129922835,2.5955496477021085,0.9452491365985738,0.1728802376190821,-0.48752024683155326,-0.11147110072896137,-1.9463801863486305,0.1336059019074957,2.595550359778934,0.9452445589611904,-0.0009725122362457239,-0.0006601479502772263,-0.0002771853855154108,-6.217363226209278e-05,-3.547395574704075e-05,-9.839658590498117e-05,0.0008844618609775787,0.0,0.0,0.0,0.0,0.0,0.0,0.0,5.279631991134126e-05,-0.00018533952150245891,-1.93119937102193e-05,0.00034126154703972844,-3.509391732658962e-06,7.120768255042265e-07,-4.5776373833739115e-06,0.0009725122362457239,0.0006601479502772263,0.0002771853855154108,6.217363226209278e-05,3.547395574704075e-05,9.839658590498117e-05,-0.0008844618609775787,0.12130087614059448,11.949304580688477,-1.2433807849884033,-21.868013381958008,-0.3912253975868225,-2.5335726737976074,0.22098104655742645,0
32,0.1549389362335205,-0.14510458707809448,-11.973108291625977,1.2433807849884033,21.840242385864258,0.3976340889930725,2.5335726737976074,-0.24844686686992645,0.0,0.0,0.0,0.0,0.0,0.0,0.0,-0.16139937714885752,0.387678211784696,0.051514645658191034,0.5807028988989567,-0.1457975058175549,0.12751231155292758,-0.2140051310189445,0.17282911173502605,-0.4873332368741955,-0.11145186473767424,-1.9467195019972932,0.13360869922240573,2.595549647702111,0.9452521883563862,0.1728802376190821,-0.48752024683155326,-0.11147110072896137,-1.9463801863486305,0.1336059019074957,2.595550359778934,0.9452445589611904,0.00027033404122621803,-0.0005040480532646544,0.0004987371101141928,0.0004381251193446476,-0.0005042688223328543,-0.0001411180713299262,0.0016372369571262578,0.0,0.0,0.0,0.0,0.0,0.0,0.0,5.112588405606355e-05,-0.00018700995735776438,-1.9235991287128162e-05,0.0003393156486626303,-2.7973149100413153e-06,7.120768228396912e-07,-7.629395195829503e-06,-0.00027033404122621803,0.0005040480532646544,-0.0004987371101141928,-0.0004381251193446476,0.0005042688223328543,0.0001411180713299262,-0.0016372369571262578,0.14510458707809448,11.973108291625977,-1.2433807849884033,-21.840242385864258,-0.3976340889930725,-2.5335726737976074,0.24844686686992645,0
33,0.15993833541870117,-0.14510458707809448,-11.973108291625977,1.2433807849884033,21.840242385864258,0.3976340889930725,2.5335726737976074,-0.24844686686992645,0.0,0.0,0.0,0.0,0.0,0.0,0.0,-0.16139937714885752,0.387678211784696,0.051514645658191034,0.5807028988989567,-0.1457975058175549,0.12751231155292758,-0.2140051310189445,0.17282911173502605,-0.4873332368741955,-0.11145186473767424,-1.9467195019972932,0.13360869922240573,2.595549647702111,0.9452521883563862,0.1728802376190821,-0.48752024683155326,-0.11147110072896137,-1.9463801863486305,0.1336059019074957,2.595550359778934,0.9452445589611904,0.00027033404122621803,-0.0005040480532646544,0.0004987371101141928,0.0004381251193446476,-0.0005042688223328543,-0.0001411180713299262,0.0016372369571262578,0.0,0.0,0.0,0.0,0.0,0.0,0.0,5.112588405606355e-05,-0.00018700995735776438,-1.9235991287128162e-05,0.0003393156486626303,-2.7973149100413153e-06,7.120768228396912e-07,-7.629395195829503e-06,-0.00027033404122621803,0.0005040480532646544,-0.0004987371101141928,-0.0004381251193446476,0.0005042688223328543,0.0001411180713299262,-0.0016372369571262578,0.14510458707809448,11.973108291625977,-1.2433807849884033,-21.840242385864258,-0.3976340889930725,-2.5335726737976074,0.24844686686992645,0
34,0.16493487358093262,-0.19667929410934448,-12.024682998657227,1.2909882068634033,21.868013381958008,0.3912253975868225,2.5207552909851074,-0.17337362468242645,0.0,0.0,0.0,0.0,0.0,0.0,0.0,-0.15979296511369231,0.3751942906159332,0.050185177169624576,0.5806575926585748,-0.14554623890424181,0.12766497092424786,-0.21368142404695237,0.17283273101271243,-0.4873296175965091,-0.11145444369011442,-1.9467214508391262,0.13360941129922865,2.595551071855757,0.9452438468850322,0.1728802376190821,-0.48752024683155326,-0.11147110072896137,-1.9463801863486305,0.1336059019074957,2.595550359778934,0.9452445589611904,0.0012167174481762391,0.0005214204915031478,-0.00034807723157217064,1.853663601261128e-07,-6.385486605906202e-05,0.00022664278683724482,-0.0015703695623837098,0.0,0.0,0.0,0.0,0.0,0.0,0.0,4.7506606369679405e-05,-0.00019062923504414853,-1.6657038846942807e-05,0.0003412644904956519,-3.509391732964273e-06,-7.120768228396912e-07,7.120761582601887e-07,-0.0012167174481762391,-0.0005214204915031478,0.00034807723157217064,-1.853663601261128e-07,6.385486605906202e-05,-0.00022664278683724482,0.0015703695623837098,0.19667929410934448,12.024682998657227,-1.2909882068634033,-21.868013381958008,-0.3912253975868225,-2.5207552909851074,0.17337362468242645,0
35,0.16988372802734375,-0.19667929410934448,-12.024682998657227,1.2909882068634033,21.868013381958008,0.3912253975868225,2.5207552909851074,-0.17337362468242645,0.0,0.0,0.0,0.0,0.0,0.0,0.0,-0.15979296511369231,0.3751942906159332,0.050185177169624576,0.5806575926585748,-0.14554623890424181,0.12766497092424786,-0.21368142404695237,0.17283273101271243,-0.4873296175965091,-0.11145444369011442,-1.9467214508391262,0.13360941129922865,2.595551071855757,0.9452438468850322,0.1728802376190821,-0.48752024683155326,-0.11147110072896137,-1.9463801863486305,0.1336059019074957,2.595550359778934,0.9452445589611904,0.0012167174481762391,0.0005214204915031478,-0.00034807723157217064,1.853663601261128e-07,-6.385486605906202e-05,0.00022664278683724482,-0.0015703695623837098,0.0,0.0,0.0,0.0,0.0,0.0,0.0,4.7506606369679405e-05,-0.00019062923504414853,-1.6657038846942807e-05,0.0003412644904956519,-3.509391732964273e-06,-7.120768228396912e-07,7.120761582601887e-07,-0.0012167174481762391,-0.0005214204915031478,0.00034807723157217064,-1.853663601261128e-07,6.385486605906202e-05,-0.00022664278683724482,0.0015703695623837098,0.19667929410934448,12.024682998657227,-1.2909882068634033,-21.868013381958008,-0.3912253975868225,-2.5207552909851074,0.17337362468242645,0
36,0.17493391036987305,-0.14510458707809448,-11.973108291625977,1.2156097888946533,21.868013381958008,0.3857322335243225,2.5399813652038574,-0.15964071452617645,0.0,0.0,0.0,0.0,0.0,0.0,0.0,-0.16047366928726317,0.38218105861782364,0.05031698317207702,0.5746996223899519,-0.145091855815012,0.12632418081439506,-0.2141545948953451,0.17282911173502605,-0.4873325215094419,-0.11145126631693862,-1.9467214508391262,0.13361002165079114,2.5955489356252883,0.9452423210061258,0.1728802376190821,-0.48752024683155326,-0.11147110072896137,-1.9463801863486305,0.1336059019074957,2.595550359778934,0.9452445589611904,-0.00021977648297094699,0.0004258208684491155,0.0007674587326354259,0.0003963212935650099,0.000147523036333284,-0.0005214956859681099,-0.0017653464218107288,0.0,0.0,0.0,0.0,0.0,0.0,0.0,5.112588405606355e-05,-0.00018772532211136506,-1.9834412022745607e-05,0.0003412644904956519,-4.11974329544984e-06,1.4241536456793824e-06,2.2379550645990065e-06,0.00021977648297094699,-0.0004258208684491155,-0.0007674587326354259,-0.0003963212935650099,-0.000147523036333284,0.0005214956859681099,0.0017653464218107288,0.14510458707809448,11.973108291625977,-1.2156097888946533,-21.868013381958008,-0.3857322335243225,-2.5399813652038574,0.15964071452617645,0
37,0.1799304485321045,-0.14510458707809448,-11.973108291625977,1.2156097888946533,21.868013381958008,0.3857322335243225,2.5399813652038574,-0.15964071452617645,0.0,0.0,0.0,0.0,0.0,0.0,0.0,-0.16047366928726317,0.38218105861782364,0.05031698317207702,0.5746996223899519,-0.145091855815012,0.12632418081439506,-0.2141545948953451,0.17282911173502605,-0.4873325215094419,-0.11145126631693862,-1.9467214508391262,0.13361002165079114,2.5955489356252883,0.9452423210061258,0.1728802376190821,-0.48752024683155326,-0.11147110072896137,-1.9463801863486305,0.1336059019074957,2.595550359778934,0.9452445589611904,-0.00021977648297094699,0.0004258208684491155,0.0007674587326354259,0.0003963212935650099,0.000147523036333284,-0.0005214956859681099,-0.0017653464218107288,0.0,0.0,0.0,0.0,0.0,0.0,0.0,5.112588405606355e-05,-0.00018772532211136506,-1.9834412022745607e-05,0.0003412644904956519,-4.11974329544984e-06,1.4241536456793824e-06,2.2379550645990065e-06,0.00021977648297094699,-0.0004258208684491155,-0.0007674587326354259,-0.0003963212935650099,-0.000147523036333284,0.0005214956859681099,0.0017653464218107288,0.14510458707809448,11.973108291625977,-1.2156097888946533,-21.868013381958008,-0.3857322335243225,-2.5399813652038574,0.15964071452617645,0
38,0.18492865562438965,-0.24825400114059448,-11.925500869750977,1.2433807849884033,21.840242385864258,0.3857322335243225,2.5207552909851074,-0.18710653483867645,0.0,0.0,0.0,0.0,0.0,0.0,0.0,-0.16309469533228535,0.38340050373499596,0.046372447733941544,0.5736033422956839,-0.14517684104274448,0.12591218942501117,-0.21347327710551803,0.17283635029039884,-0.48733443197465587,-0.11145107553564718,-1.946719501997295,0.13361002165079114,2.595551071855757,0.9452453727639384,0.1728802376190821,-0.48752024683155326,-0.11147110072896137,-1.9463801863486305,0.1336059019074957,2.595550359778934,0.9452445589611904,0.0016234451726500785,-0.00023259133478853507,-0.000365665603463428,0.0005430672872922002,-7.945670927807664e-05,0.0001485362711755151,-0.00031423758274453544,0.0,0.0,0.0,0.0,0.0,0.0,0.0,4.38873286832675e-05,-0.00018581485689739274,-2.0025193314190948e-05,0.00033931564866440667,-4.11974329544984e-06,-7.120768228396912e-07,-8.138027479676069e-07,-0.0016234451726500785,0.00023259133478853507,0.000365665603463428,-0.0005430672872922002,7.945670927807664e-05,-0.0001485362711755151,0.00031423758274453544,0.24825400114059448,11.925500869750977,-1.2433807849884033,-21.840242385864258,-0.3857322335243225,-2.5207552909851074,0.18710653483867645,0
39,0.18993186950683594,-0.24825400114059448,-11.925500869750977,1.2433807849884033,21.840242385864258,0.3857322335243225,2.5207552909851074,-0.18710653483867645,0.0,0.0,0.0,0.0,0.0,0.0,0.0,-0.16309469533228535,0.38340050373499596,0.046372447733941544,0.5736033422956839,-0.14517684104274448,0.12591218942501117,-0.21347327710551803,0.17283635029039884,-0.48733443197465587,-0.11145107553564718,-1.946719501997295,0.13361002165079114,2.595551071855757,0.9452453727639384,0.1728802376190821,-0.48752024683155326,-0.11147110072896137,-1.9463801863486305,0.1336059019074957,2.595550359778934,0.9452445589611904,0.0016234451726500785,-0.00023259133478853507,-0.000365665603463428,0.0005430672872922002,-7.945670927807664e-05,0.0001485362711755151,-0.00031423758274453544,0.0,0.0,0.0,0.0,0.0,0.0,0.0,4.38873286832675e-05,-0.00018581485689739274,-2.0025193314190948e-05,0.00033931564866440667,-4.11974329544984e-06,-7.120768228396912e-07,-8.138027479676069e-07,-0.0016234451726500785,0.00023259133478853507,0.000365665603463428,-0.0005430672872922002,7.945670927807664e-05,-0.0001485362711755151,0.00031423758274453544,0.24825400114059448,11.925500869750977,-1.2433807849884033,-21.840242385864258,-0.3857322335243225,-2.5207552909851074,0.18710653483867645,0
40,0.19492864608764648,-0.17287558317184448,-11.925500869750977,1.2156097888946533,21.840242385864258,0.3793235421180725,2.5271639823913574,-0.21457235515117645,0.0,0.0,0.0,0.0,0.0,0.0,0.0,-0.1672752061944622,0.37551474785768496,0.04330607215376386,0.5775812434403709,-0.14533745878250598,0.12678465770006872,-0.21250557868743933,0.17283106057685718,-0.48733657773379313,-0.11144912960473649,-1.946719501997295,0.13361073372761406,2.595550359778934,0.9452484245217508,0.1728802376190821,-0.48752024683155326,-0.11147110072896137,-1.9463801863486305,0.1336059019074957,2.595550359778934,0.9452445589611904,0.00026750266331206893,-0.0003644861609193707,-0.00016524832946855875,0.00027352438583993843,-0.0003610231179396794,-5.258884200261205e-05,0.0007602549636822007,0.0,0.0,0.0,0.0,0.0,0.0,0.0,4.917704222492936e-05,-0.00018366909776013074,-2.1971124224876015e-05,0.00033931564866440667,-4.831820118372798e-06,0.0,-3.865560560423198e-06,-0.00026750266331206893,0.0003644861609193707,0.00016524832946855875,-0.00027352438583993843,0.0003610231179396794,5.258884200261205e-05,-0.0007602549636822007,0.17287558317184448,11.925500869750977,-1.2156097888946533,-21.840242385864258,-0.3793235421180725,-2.5271639823913574,0.21457235515117645,0
41,0.19992685317993164,-0.17287558317184448,-11.925500869750977,1.2156097888946533,21.840242385864258,0.3793235421180725,2.5271639823913574,-0.21457235515117645,0.0,0.0,0.0,0.0,0.0,0.0,0.0,-0.1672752061944622,0.37551474785768496,0.04330607215376386,0.5775812434403709,-0.14533745878250598,0.12678465770006872,-0.21250557868743933,0.17283106057685718,-0.48733657773379313,-0.11144912960473649,-1.946719501997295,0.13361073372761406,2.595550359778934,0.9452484245217508,0.1728802376190821,-0.48752024683155326,-0.11147110072896137,-1.9463801863486305,0.1336059019074957,2.595550359778934,0.9452445589611904,0.00026750266331206893,-0.0003644861609193707,-0.00016524832946855875,0.00027352438583993843,-0.0003610231179396794,-5.258884200261205e-05,0.0007602549636822007,0.0,0.0,0.0,0.0,0.0,0.0,0.0,4.917704222492936e-05,-0.00018366909776013074,-2.1971124224876015e-05,0.00033931564866440667,-4.831820118372798e-06,0.0,-3.865560560423198e-06,-0.00026750266331206893,0.0003644861609193707,0.00016524832946855875,-0.00027352438583993843,0.0003610231179396794,5.258884200261205e-05,-0.0007602549636822007,0.17287558317184448,11.925500869750977,-1.2156097888946533,-21.840242385864258,-0.3793235421180725,-2.5271639823913574,0.21457235515117645,0
42,0.20492792129516602,-0.17287558317184448,-11.925500869750977,1.2433807849884033,21.868013381958008,0.3976340889930725,2.5335726737976074,-0.22098104655742645,0.0,0.0,0.0,0.0,0.0,0.0,0.0,-0.1619975800807652,0.3862273021146591,0.050232776119738025,0.5724775690395819,-0.14709188796024203,0.12684333387789815,-0.21263972085631822,0.17283106057685718,-0.487336577745906,-0.1114510787713617,-1.9467214508391262,0.13360869922240573,2.595549647702111,0.9452491365985738,0.1728802376190821,-0.48752024683155326,-0.11147110072896137,-1.9463801863486305,0.1336059019074957,2.595550359778934,0.9452445589611904,0.00030360170089201096,-0.00015291012921024686,-0.0003780548337102594,-0.00020224561916923833,-0.000490294634389904,-6.393022822756016e-05,0.0007429193164094684,0.0,0.0,0.0,0.0,0.0,0.0,0.0,4.917704222492936e-05,-0.00018366908564726447,-2.00219575996613e-05,0.0003412644904956519,-2.7973149100413153e-06,7.120768228396912e-07,-4.5776373833739115e-06,-0.00030360170089201096,0.00015291012921024686,0.0003780548337102594,0.00020224561916923833,0.000490294634389904,6.393022822756016e-05,-0.0007429193164094684,0.17287558317184448,11.925500869750977,-1.2433807849884033,-21.868013381958008,-0.3976340889930725,-2.5335726737976074,0.22098104655742645,0
43,0.20995807647705078,-0.17287558317184448,-11.925500869750977,1.2433807849884033,21.868013381958008,0.3976340889930725,2.5335726737976074,-0.22098104655742645,0.0,0.0,0.0,0.0,0.0,0.0,0.0,-0.1619975800807652,0.3862273021146591,0.050232776119738025,0.5724775690395819,-0.14709188796024203,0.12684333387789815,-0.21263972085631822,0.17283106057685718,-0.487336577745906,-0.1114510787713617,-1.9467214508391262,0.13360869922240573,2.595549647702111,0.9452491365985738,0.1728802376190821,-0.48752024683155326,-0.11147110072896137,-1.9463801863486305,0.1336059019074957,2.595550359778934,0.9452445589611904,0.00030360170089201096,-0.00015291012921024686,-0.0003780548337102594,-0.00020224561916923833,-0.000490294634389904,-6.393022822756016e-05,0.0007429193164094684,0.0,0.0,0.0,0.0,0.0,0.0,0.0,4.917704222492936e-05,-0.00018366908564726447,-2.00219575996613e-05,0.0003412644904956519,-2.7973149100413153e-06,7.120768228396912e-07,-4.5776373833739115e-06,-0.00030360170089201096,0.00015291012921024686,0.0003780548337102594,0.00020224561916923833,0.000490294634389904,6.393022822756016e-05,-0.0007429193164094684,0.17287558317184448,11.925500869750977,-1.2433807849884033,-21.868013381958008,-0.3976340889930725,-2.5335726737976074,0.22098104655742645,0
44,0.21492934226989746,-0.12130087614059448,-11.925500869750977,1.2433807849884033,21.868013381958008,0.3793235421180725,2.5335726737976074,-0.22098104655742645,0.0,0.0,0.0,0.0,0.0,0.0,0.0,-0.16281151204383015,0.3853392804828429,0.048472932202509054,0.574088831938046,-0.14778849446160305,0.12778572637504537,-0.2123386159098189,0.17282744129917077,-0.4873365689155883,-0.11145320638963793,-1.946721447895687,0.13361073372761406,2.595549647702111,0.9452491365985738,0.1728802376190821,-0.48752024683155326,-0.11147110072896137,-1.9463801863486305,0.1336059019074957,2.595550359778934,0.9452445589611904,-0.0013015313270637156,-0.0001637504844357122,0.00013657441802107745,0.000331292609905938,0.0032511568520066326,-0.0005363593720708392,0.0008213918062377667,0.0,0.0,0.0,0.0,0.0,0.0,0.0,5.279631991134126e-05,-0.00018367791596496374,-1.789433932343487e-05,0.0003412615470563818,-4.831820118372798e-06,7.120768228396912e-07,-4.5776373833739115e-06,0.0013015313270637156,0.0001637504844357122,-0.00013657441802107745,-0.000331292609905938,-0.0032511568520066326,0.0005363593720708392,-0.0008213918062377667,0.12130087614059448,11.925500869750977,-1.2433807849884033,-21.868013381958008,-0.3793235421180725,-2.5335726737976074,0.22098104655742645,0
45,0.21993327140808105,-0.12130087614059448,-11.925500869750977,1.2433807849884033,21.868013381958008,0.3793235421180725,2.5335726737976074,-0.22098104655742645,0.0,0.0,0.0,0.0,0.0,0.0,0.0,-0.16281151204383015,0.3853392804828429,0.048472932202509054,0.574088831938046,-0.14778849446160305,0.12778572637504537,-0.2123386159098189,0.17282744129917077,-0.4873365689155883,-0.11145320638963793,-1.946721447895687,0.13361073372761406,2.595549647702111,0.9452491365985738,0.1728802376190821,-0.48752024683155326,-0.11147110072896137,-1.9463801863486305,0.1336059019074957,2.595550359778934,0.9452445589611904,-0.0013015313270637156,-0.0001637504844357122,0.00013657441802107745,0.000331292609905938,0.0032511568520066326,-0.0005363593720708392,0.0008213918062377667,0.0,0.0,0.0,0.0,0.0,0.0,0.0,5.279631991134126e-05,-0.00018367791596496374,-1.789433932343487e-05,0.0003412615470563818,-4.831820118372798e-06,7.120768228396912e-07,-4.5776373833739115e-06,0.0013015313270637156,0.0001637504844357122,-0.00013657441802107745,-0.000331292609905938,-0.0032511568520066326,0.0005363593720708392,-0.0008213918062377667,0.12130087614059448,11.925500869750977,-1.2433807849884033,-21.868013381958008,-0.3793235421180725,-2.5335726737976074,0.22098104655742645,0
46,0.2249288558959961,-0.17287558317184448,-11.949304580688477,1.2433807849884033,21.868013381958008,0.3793235421180725,2.5271639823913574,-0.22098104655742645,0.0,0.0,0.0,0.0,0.0,0.0,0.0,-0.16473823581296443,0.3842259235264795,0.04706992586728747,0.5756986472640054,-0.14737675776167258,0.12680500994537436,-0.21185509342954137,0.17283106057685718,-0.4873349072009847,-0.11145352212159416,-1.9467212124205304,0.13361073372761406,2.595550242041364,0.9452491365985738,0.1728802376190821,-0.48752024683155326,-0.11147110072896137,-1.9463801863486305,0.1336059019074957,2.595550359778934,0.9452445589611904,0.0005670599831854398,0.0002209768748385262,0.00037026918837486025,-2.2170633427745927e-05,0.00044095227706581434,-0.00025606507198259684,0.0009887258665930078,0.0,0.0,0.0,0.0,0.0,0.0,0.0,4.917704222492936e-05,-0.0001853396305685484,-1.7578607367202403e-05,0.000341026071899897,-4.831820118372798e-06,1.1773756991573237e-07,-4.5776373833739115e-06,-0.0005670599831854398,-0.0002209768748385262,-0.00037026918837486025,2.2170633427745927e-05,-0.00044095227706581434,0.00025606507198259684,-0.0009887258665930078,0.17287558317184448,11.949304580688477,-1.2433807849884033,-21.868013381958008,-0.3793235421180725,-2.5271639823913574,0.22098104655742645,0
47,0.22992634773254395,-0.17287558317184448,-11.949304580688477,1.2433807849884033,21.868013381958008,0.3793235421180725,2.5271639823913574,-0.22098104655742645,0.0,0.0,0.0,0.0,0.0,0.0,0.0,-0.16473823581296443,0.3842259235264795,0.04706992586728747,0.5756986472640054,-0.14737675776167258,0.12680500994537436,-0.21185509342954137,0.17283106057685718,-0.4873349072009847,-0.11145352212159416,-1.9467212124205304,0.13361073372761406,2.595550242041364,0.9452491365985738,0.1728802376190821,-0.48752024683155326,-0.11147110072896137,-1.9463801863486305,0.1336059019074957,2.595550359778934,0.9452445589611904,0.0005670599831854398,0.0002209768748385262,0.00037026918837486025,-2.2170633427745927e-05,0.00044095227706581434,-0.00025606507198259684,0.0009887258665930078,0.0,0.0,0.0,0.0,0.0,0.0,0.0,4.917704222492936e-05,-0.0001853396305685484,-1.7578607367202403e-05,0.000341026071899897,-4.831820118372798e-06,1.1773756991573237e-07,-4.5776373833739115e-06,-0.0005670599831854398,-0.0002209768748385262,-0.00037026918837486025,2.2170633427745927e-05,-0.00044095227706581434,0.00025606507198259684,-0.0009887258665930078,0.17287558317184448,11.949304580688477,-1.2433807849884033,-21.868013381958008,-0.3793235421180725,-2.5271639823913574,0.22098104655742645,0
48,0.23493218421936035,-0.19667929410934448,-11.925500869750977,1.2433807849884033,21.868013381958008,0.3857322335243225,2.5207552909851074,-0.21457235515117645,0.0,0.0,0.0,0.0,0.0,0.0,0.0,-0.1696225351321256,0.3877662362002979,0.03984387265236514,0.576825255434624,-0.14692511327740754,0.12628853316150354,-0.21126714605734634,0.17283273101271243,-0.4873365777459042,-0.11145131232789676,-1.9467214508350885,0.13361002165079114,2.595551071853763,0.9452484245217508,0.1728802376190821,-0.48752024683155326,-0.11147110072896137,-1.9463801863486305,0.1336059019074957,2.595550359778934,0.9452445589611904,0.0007345878714740679,-0.0003014342832954002,5.4031383991325016e-05,0.00032066713733935485,6.255343230013386e-05,0.00023403987563362332,0.0005197221067994906,0.0,0.0,0.0,0.0,0.0,0.0,0.0,4.7506606369679405e-05,-0.00018366908564904083,-1.9788401064604888e-05,0.0003412644864579928,-4.11974329544984e-06,-7.12074828879139e-07,-3.865560560423198e-06,-0.0007345878714740679,0.0003014342832954002,-5.4031383991325016e-05,-0.00032066713733935485,-6.255343230013386e-05,-0.00023403987563362332,-0.0005197221067994906,0.19667929410934448,11.925500869750977,-1.2433807849884033,-21.868013381958008,-0.3857322335243225,-2.5207552909851074,0.21457235515117645,0
49,0.2399306297302246,-0.19667929410934448,-11.925500869750977,1.2433807849884033,21.868013381958008,0.3857322335243225,2.5207552909851074,-0.21457235515117645,0.0,0.0,0.0,0.0,0.0,0.0,0.0,-0.1696225351321256,0.3877662362002979,0.03984387265236514,0.576825255434624,-0.14692511327740754,0.12628853316150354,-0.21126714605734634,0.17283273101271243,-0.4873365777459042,-0.11145131232789676,-1.9467214508350885,0.13361002165079114,2.595551071853763,0.9452484245217508,0.1728802376190821,-0.48752024683155326,-0.11147110072896137,-1.9463801863486305,0.1336059019074957,2.595550359778934,0.9452445589611904,0.0007345878714740679,-0.0003014342832954002,5.4031383991325016e-05,0.00032066713733935485,6.255343230013386e-05,0.00023403987563362332,0.0005197221067994906,0.0,0.0,0.0,0.0,0.0,0.0,0.0,4.7506606369679405e-05,-0.00018366908564904083,-1.9788401064604888e-05,0.0003412644864579928,-4.11974329544984e-06,-7.12074828879139e-07,-3.865560560423198e-06,-0.0007345878714740679,0.0003014342832954002,-5.4031383991325016e-05,-0.00032066713733935485,-6.255343230013386e-05,-0.00023403987563362332,-0.0005197221067994906,0.19667929410934448,11.925500869750977,-1.2433807849884033,-21.868013381958008,-0.3857322335243225,-2.5207552909851074,0.21457235515117645,0
50,0.24493837356567383,-0.14510458707809448,-11.949304580688477,1.2433807849884033,21.868013381958008,0.3793235421180725,2.5207552909851074,-0.23471395671367645,0.0,0.0,0.0,0.0,0.0,0.0,0.0,-0.16288892656579587,0.37882995226000715,0.051506663648082956,0.5822102187602957,-0.1476704369309482,0.12671694519149782,-0.21137944821669016,0.17282911173502605,-0.4873349073100508,-0.11145107552490564,-1.9467214498579797,0.13361073372761406,2.5955478929413687,0.94525066247748,0.1728802376190821,-0.48752024683155326,-0.11147110072896137,-1.9463801863486305,0.1336059019074957,2.595550359778934,0.9452445589611904,-0.00031108485493964354,-0.00043433545064278773,0.0005062147003678242,0.000370945320442879,0.00028707715876331646,0.00017183840576661942,0.0014605102827646354,0.0,0.0,0.0,0.0,0.0,0.0,0.0,5.112588405606355e-05,-0.00018533952150245891,-2.002520405572361e-05,0.0003412635093491545,-4.831820118372798e-06,2.466837565329172e-06,-6.103516289601707e-06,0.00031108485493964354,0.00043433545064278773,-0.0005062147003678242,-0.000370945320442879,-0.00028707715876331646,-0.00017183840576661942,-0.0014605102827646354,0.14510458707809448,11.949304580688477,-1.2433807849884033,-21.868013381958008,-0.3793235421180725,-2.5207552909851074,0.23471395671367645,0
51,0.24994778633117676,-0.14510458707809448,-11.949304580688477,1.2433807849884033,21.868013381958008,0.3793235421180725,2.5207552909851074,-0.23471395671367645,0.0,0.0,0.0,0.0,0.0,0.0,0.0,-0.16288892656579587,0.37882995226000715,0.051506663648082956,0.5822102187602957,-0.1476704369309482,0.12671694519149782,-0.21137944821669016,0.17282911173502605,-0.4873349073100508,-0.11145107552490564,-1.9467214498579797,0.13361073372761406,2.5955478929413687,0.94525066247748,0.1728802376190821,-0.48752024683155326,-0.11147110072896137,-1.9463801863486305,0.1336059019074957,2.595550359778934,0.9452445589611904,-0.00031108485493964354,-0.00043433545064278773,0.0005062147003678242,0.000370945320442879,0.00028707715876331646,0.00017183840576661942,0.0014605102827646354,0.0,0.0,0.0,0.0,0.0,0.0,0.0,5.112588405606355e-05,-0.00018533952150245891,-2.002520405572361e-05,0.0003412635093491545,-4.831820118372798e-06,2.466837565329172e-06,-6.103516289601707e-06,0.00031108485493964354,0.00043433545064278773,-0.0005062147003678242,-0.000370945320442879,-0.00028707715876331646,-0.00017183840576661942,-0.0014605102827646354,0.14510458707809448,11.949304580688477,-1.2433807849884033,-21.868013381958008,-0.3793235421180725,-2.5207552909851074,0.23471395671367645,0
52,0.2549295425415039,-0.14510458707809448,-11.949304580688477,1.2433807849884033,21.868013381958008,0.3793235421180725,2.5207552909851074,-0.23471395671367645,0.0,0.0,0.0,0.0,0.0,0.0,0.0,-0.16288892656579587,0.37882995226000715,0.051506663648082956,0.5822102187602957,-0.1476704369309482,0.12671694519149782,-0.21137944821669016,0.17282911173502605,-0.4873349073100508,-0.11145107552490564,-1.9467214498579797,0.13361073372761406,2.5955478929413687,0.94525066247748,0.1728802376190821,-0.48752024683155326,-0.11147110072896137,-1.9463801863486305,0.1336059019074957,2.595550359778934,0.9452445589611904,-0.00031108485493964354,-0.00043433545064278773,0.0005062147003678242,0.000370945320442879,0.00028707715876331646,0.00017183840576661942,0.0014605102827646354,0.0,0.0,0.0,0.0,0.0,0.0,0.0,5.112588405606355e-05,-0.00018533952150245891,-2.002520405572361e-05,0.0003412635093491545,-4.831820118372798e-06,2.466837565329172e-06,-6.103516289601707e-06,0.00031108485493964354,0.00043433545064278773,-0.0005062147003678242,-0.000370945320442879,-0.00028707715876331646,-0.00017183840576661942,-0.0014605102827646354,0.14510458707809448,11.949304580688477,-1.2433807849884033,-21.868013381958008,-0.3793235421180725,-2.5207552909851074,0.23471395671367645,0
53,0.2599313259124756,-0.14510458707809448,-11.949304580688477,1.2433807849884033,21.868013381958008,0.3793235421180725,2.5207552909851074,-0.23471395671367645,0.0,0.0,0.0,0.0,0.0,0.0,0.0,-0.16288892656579587,0.37882995226000715,0.051506663648082956,0.5822102187602957,-0.1476704369309482,0.12671694519149782,-0.21137944821669016,0.17282911173502605,-0.4873349073100508,-0.11145107552490564,-1.9467214498579797,0.13361073372761406,2.5955478929413687,0.94525066247748,0.1728802376190821,-0.48752024683155326,-0.11147110072896137,-1.9463801863486305,0.1336059019074957,2.595550359778934,0.9452445589611904,-0.00031108485493964354,-0.00043433545064278773,0.0005062147003678242,0.000370945320442879,0.00028707715876331646,0.00017183840576661942,0.0014605102827646354,0.0,0.0,0.0,0.0,0.0,0.0,0.0,5.112588405606355e-05,-0.00018533952150245891,-2.002520405572361e-05,0.0003412635093491545,-4.831820118372798e-06,2.466837565329172e-06,-6.103516289601707e-06,0.00031108485493964354,0.00043433545064278773,-0.0005062147003678242,-0.000370945320442879,-0.00028707715876331646,-0.00017183840576661942,-0.0014605102827646354,0.14510458707809448,11.949304580688477,-1.2433807849884033,-21.868013381958008,-0.3793235421180725,-2.5207552909851074,0.23471395671367645,0
54,0.26492905616760254,-0.14510458707809448,-11.949304580688477,1.2156097888946533,21.891817092895508,0.3857322335243225,2.5271639823913574,-0.18710653483867645,0.0,0.0,0.0,0.0,0.0,0.0,0.0,-0.1733851279395995,0.38002973967455633,0.03724531339760891,0.5794682945829231,-0.1465174167772536,0.12662673339555097,-0.21186237580252534,0.17282911173502605,-0.4873349073100508,-0.11145149431068298,-1.9467231211659632,0.1336100215966195,2.595547180858564,0.9452453727639384,0.1728802376190821,-0.48752024683155326,-0.11147110072896137,-1.9463801863486305,0.1336059019074957,2.595550359778934,0.9452445589611904,-0.0004627305553480748,-0.0007455812027976095,0.00010407598608301466,-0.0003331731912782123,-0.0004042323040684292,-3.752324946099916e-05,-0.00086180184661751,0.0,0.0,0.0,0.0,0.0,0.0,0.0,5.112588405606355e-05,-0.00018533952150245891,-1.9606418278389492e-05,0.00034293481733271847,-4.119689123810444e-06,3.1789203700505198e-06,-8.138027479676069e-07,0.0004627305553480748,0.0007455812027976095,-0.00010407598608301466,0.0003331731912782123,0.0004042323040684292,3.752324946099916e-05,0.00086180184661751,0.14510458707809448,11.949304580688477,-1.2156097888946533,-21.891817092895508,-0.3857322335243225,-2.5271639823913574,0.18710653483867645,0
55,0.26993751525878906,-0.14510458707809448,-11.949304580688477,1.2156097888946533,21.891817092895508,0.3857322335243225,2.5271639823913574,-0.18710653483867645,0.0,0.0,0.0,0.0,0.0,0.0,0.0,-0.1733851279395995,0.38002973967455633,0.03724531339760891,0.5794682945829231,-0.1465174167772536,0.12662673339555097,-0.21186237580252534,0.17282911173502605,-0.4873349073100508,-0.11145149431068298,-1.9467231211659632,0.1336100215966195,2.595547180858564,0.9452453727639384,0.1728802376190821,-0.48752024683155326,-0.11147110072896137,-1.9463801863486305,0.1336059019074957,2.595550359778934,0.9452445589611904,-0.0004627305553480748,-0.0007455812027976095,0.00010407598608301466,-0.0003331731912782123,-0.0004042323040684292,-3.752324946099916e-05,-0.00086180184661751,0.0,0.0,0.0,0.0,0.0,0.0,0.0,5.112588405606355e-05,-0.00018533952150245891,-1.9606418278389492e-05,0.00034293481733271847,-4.119689123810444e-06,3.1789203700505198e-06,-8.138027479676069e-07,0.0004627305553480748,0.0007455812027976095,-0.00010407598608301466,0.0003331731912782123,0.0004042323040684292,3.752324946099916e-05,0.00086180184661751,0.14510458707809448,11.949304580688477,-1.2156097888946533,-21.891817092895508,-0.3857322335243225,-2.5271639823913574,0.18710653483867645,0
56,0.2749288082122803,-0.19667929410934448,-12.000879287719727,1.2671844959259033,21.891817092895508,0.3912253975868225,2.5335726737976074,-0.22098104655742645,0.0,0.0,0.0,0.0,0.0,0.0,0.0,-0.16282017175163638,0.37447789396247533,0.057902922703934254,0.5815285452072946,-0.14912504386279504,0.12759654992680075,-0.21258101251387473,0.17283273101271243,-0.48733128803236436,-0.11145274596387925,-1.9467231212749811,0.13360941129922857,2.5955496476961293,0.9452491365985738,0.1728802376190821,-0.48752024683155326,-0.11147110072896137,-1.9463801863486305,0.1336059019074957,2.595550359778934,0.9452445589611904,0.0007203621399672306,0.00040093589333662505,-0.0006296171986464788,0.00013765743889448585,0.0020960028256052743,-0.00020864069019832512,0.0008754125677865198,0.0,0.0,0.0,0.0,0.0,0.0,0.0,4.7506606369679405e-05,-0.00018895879918889857,-1.835476508212086e-05,0.0003429349263506243,-3.5093917328810065e-06,7.120828047213479e-07,-4.5776373833739115e-06,-0.0007203621399672306,-0.00040093589333662505,0.0006296171986464788,-0.00013765743889448585,-0.0020960028256052743,0.00020864069019832512,-0.0008754125677865198,0.19667929410934448,12.000879287719727,-1.2671844959259033,-21.891817092895508,-0.3912253975868225,-2.5335726737976074,0.22098104655742645,0
57,0.2799346446990967,-0.19667929410934448,-12.000879287719727,1.2671844959259033,21.891817092895508,0.3912253975868225,2.5335726737976074,-0.22098104655742645,0.0,0.0,0.0,0.0,0.0,0.0,0.0,-0.16282017175163638,0.37447789396247533,0.057902922703934254,0.5815285452072946,-0.14912504386279504,0.12759654992680075,-0.21258101251387473,0.17283273101271243,-0.48733128803236436,-0.11145274596387925,-1.9467231212749811,0.13360941129922857,2.5955496476961293,0.9452491365985738,0.1728802376190821,-0.48752024683155326,-0.11147110072896137,-1.9463801863486305,0.1336059019074957,2.595550359778934,0.9452445589611904,0.0007203621399672306,0.00040093589333662505,-0.0006296171986464788,0.00013765743889448585,0.0020960028256052743,-0.00020864069019832512,0.0008754125677865198,0.0,0.0,0.0,0.0,0.0,0.0,0.0,4.7506606369679405e-05,-0.00018895879918889857,-1.835476508212086e-05,0.0003429349263506243,-3.5093917328810065e-06,7.120828047213479e-07,-4.5776373833739115e-06,-0.0007203621399672306,-0.00040093589333662505,0.0006296171986464788,-0.00013765743889448585,-0.0020960028256052743,0.00020864069019832512,-0.0008754125677865198,0.19667929410934448,12.000879287719727,-1.2671844959259033,-21.891817092895508,-0.3912253975868225,-2.5335726737976074,0.22098104655742645,0
58,0.2849400043487549,-0.19667929410934448,-11.973108291625977,1.2433807849884033,21.891817092895508,0.3857322335243225,2.5335726737976074,-0.18710653483867645,0.0,0.0,0.0,0.0,0.0,0.0,0.0,-0.16394598948226488,0.3854605427771719,0.05238556256657799,0.5754241109555864,-0.14841879353546014,0.12652642712023568,-0.21293029743569264,0.17283273101271243,-0.4873332368741955,-0.11145107563182817,-1.9467231212749814,0.13361002165079114,2.595549647702111,0.9452453727639384,0.1728802376190821,-0.48752024683155326,-0.11147110072896137,-1.9463801863486305,0.1336059019074957,2.595550359778934,0.9452445589611904,0.0013478356641300746,0.00032347821536886617,1.0581097708445612e-05,-0.00016284872924459608,0.00014819485930023992,-0.0002392888180498146,-0.0007626333394169662,0.0,0.0,0.0,0.0,0.0,0.0,0.0,4.7506606369679405e-05,-0.00018700995735776438,-2.0025097133197223e-05,0.0003429349263508463,-4.11974329544984e-06,7.120768228396912e-07,-8.138027479676069e-07,-0.0013478356641300746,-0.00032347821536886617,-1.0581097708445612e-05,0.00016284872924459608,-0.00014819485930023992,0.0002392888180498146,0.0007626333394169662,0.19667929410934448,11.973108291625977,-1.2433807849884033,-21.891817092895508,-0.3857322335243225,-2.5335726737976074,0.18710653483867645,0
59,0.28994226455688477,-0.19667929410934448,-11.973108291625977,1.2433807849884033,21.891817092895508,0.3857322335243225,2.5335726737976074,-0.18710653483867645,0.0,0.0,0.0,0.0,0.0,0.0,0.0,-0.16394598948226488,0.3854605427771719,0.05238556256657799,0.5754241109555864,-0.14841879353546014,0.12652642712023568,-0.21293029743569264,0.17283273101271243,-0.4873332368741955,-0.11145107563182817,-1.9467231212749814,0.13361002165079114,2.595549647702111,0.9452453727639384,0.1728802376190821,-0.48752024683155326,-0.11147110072896137,-1.9463801863486305,0.1336059019074957,2.595550359778934,0.9452445589611904,0.0013478356641300746,0.00032347821536886617,1.0581097708445612e-05,-0.00016284872924459608,0.00014819485930023992,-0.0002392888180498146,-0.0007626333394169662,0.0,0.0,0.0,0.0,0.0,0.0,0.0,4.7506606369679405e-05,-0.00018700995735776438,-2.0025097133197223e-05,0.0003429349263508463,-4.11974329544984e-06,7.120768228396912e-07,-8.138027479676069e-07,-0.0013478356641300746,-0.00032347821536886617,-1.0581097708445612e-05,0.00016284872924459608,-0.00014819485930023992,0.0002392888180498146,0.0007626333394169662,0.19667929410934448,11.973108291625977,-1.2433807849884033,-21.891817092895508,-0.3857322335243225,-2.5335726737976074,0.18710653483867645,0
60,0.29492926597595215,-0.12130087614059448,-11.973108291625977,1.2433807849884033,21.891817092895508,0.3976340889930725,2.5335726737976074,-0.18710653483867645,0.0,0.0,0.0,0.0,0.0,0.0,0.0,-0.16729237256693794,0.3780271444207008,0.044789377214766245,0.5804767955438701,-0.14811327739290042,0.12699126121947948,-0.2138463517315689,0.17282744129917077,-0.48733323683785673,-0.11145178678658596,-1.9467231212749814,0.13360869922240573,2.595549647702111,0.9452453727639384,0.1728802376190821,-0.48752024683155326,-0.11147110072896137,-1.9463801863486305,0.1336059019074957,2.595550359778934,0.9452445589611904,-0.0009489869240268549,0.0003232417407972207,-0.0004931887261653277,-8.609187704264348e-06,-0.0003633447206597145,-0.0003220909544720826,-0.0009706992800571401,0.0,0.0,0.0,0.0,0.0,0.0,0.0,5.279631991134126e-05,-0.0001870099936965297,-1.9313942375406845e-05,0.0003429349263508463,-2.7973149100413153e-06,7.120768228396912e-07,-8.138027479676069e-07,0.0009489869240268549,-0.0003232417407972207,0.0004931887261653277,8.609187704264348e-06,0.0003633447206597145,0.0003220909544720826,0.0009706992800571401,0.12130087614059448,11.973108291625977,-1.2433807849884033,-21.891817092895508,-0.3976340889930725,-2.5335726737976074,0.18710653483867645,0
61,0.30007195472717285,-0.12130087614059448,-11.973108291625977,1.2433807849884033,21.891817092895508,0.3976340889930725,2.5335726737976074,-0.18710653483867645,0.0,0.0,0.0,0.0,0.0,0.0,0.0,-0.16729237256693794,0.3780271444207008,0.044789377214766245,0.5804767955438701,-0.14811327739290042,0.12699126121947948,-0.2138463517315689,0.17282744129917077,-0.48733323683785673,-0.11145178678658596,-1.9467231212749814,0.13360869922240573,2.595549647702111,0.9452453727639384,0.1728802376190821,-0.48752024683155326,-0.11147110072896137,-1.9463801863486305,0.1336059019074957,2.595550359778934,0.9452445589611904,-0.0009489869240268549,0.0003232417407972207,-0.0004931887261653277,-8.609187704264348e-06,-0.0003633447206597145,-0.0003220909544720826,-0.0009706992800571401,0.0,0.0,0.0,0.0,0.0,0.0,0.0,5.279631991134126e-05,-0.0001870099936965297,-1.9313942375406845e-05,0.0003429349263508463,-2.7973149100413153e-06,7.120768228396912e-07,-8.138027479676069e-07,0.0009489869240268549,-0.0003232417407972207,0.0004931887261653277,8.609187704264348e-06,0.0003633447206597145,0.0003220909544720826,0.0009706992800571401,0.12130087614059448,11.973108291625977,-1.2433807849884033,-21.891817092895508,-0.3976340889930725,-2.5335726737976074,0.18710653483867645,0
62,0.304943323135376,-0.17287558317184448,-11.949304580688477,1.2433807849884033,21.891817092895508,0.3912253975868225,2.5271639823913574,-0.22098104655742645,0.0,0.0,0.0,0.0,0.0,0.0,0.0,-0.16462137294246285,0.3785453696656064,0.04518225711429602,0.5827453474804212,-0.14830981506424193,0.12641584418381455,-0.21411062458118585,0.17283106057685718,-0.48733490731005075,-0.11145107552490724,-1.9467231212749814,0.1336082265649313,2.595550242041364,0.9452491365985738,0.1728802376190821,-0.48752024683155326,-0.11147110072896137,-1.9463801863486305,0.1336059019074957,2.595550359778934,0.9452445589611904,2.641048143115821e-05,0.0002656574109867573,-0.00018353886456245292,-0.0003044368967418571,-0.0002992805072347981,-3.8205491720245336e-05,0.0008789734831074862,0.0,0.0,0.0,0.0,0.0,0.0,0.0,4.917704222492936e-05,-0.00018533952150251443,-2.0025204054127665e-05,0.0003429349263508463,-2.3246574356039496e-06,1.1773756991573237e-07,-4.5776373833739115e-06,-2.641048143115821e-05,-0.0002656574109867573,0.00018353886456245292,0.0003044368967418571,0.0002992805072347981,3.8205491720245336e-05,-0.0008789734831074862,0.17287558317184448,11.949304580688477,-1.2433807849884033,-21.891817092895508,-0.3912253975868225,-2.5271639823913574,0.22098104655742645,0
63,0.3100879192352295,-0.17287558317184448,-11.949304580688477,1.2433807849884033,21.891817092895508,0.3912253975868225,2.5271639823913574,-0.22098104655742645,0.0,0.0,0.0,0.0,0.0,0.0,0.0,-0.16462137294246285,0.3785453696656064,0.04518225711429602,0.5827453474804212,-0.14830981506424193,0.12641584418381455,-0.21411062458118585,0.17283106057685718,-0.48733490731005075,-0.11145107552490724,-1.9467231212749814,0.1336082265649313,2.595550242041364,0.9452491365985738,0.1728802376190821,-0.48752024683155326,-0.11147110072896137,-1.9463801863486305,0.1336059019074957,2.595550359778934,0.9452445589611904,2.641048143115821e-05,0.0002656574109867573,-0.00018353886456245292,-0.0003044368967418571,-0.0002992805072347981,-3.8205491720245336e-05,0.0008789734831074862,0.0,0.0,0.0,0.0,0.0,0.0,0.0,4.917704222492936e-05,-0.00018533952150251443,-2.0025204054127665e-05,0.0003429349263508463,-2.3246574356039496e-06,1.1773756991573237e-07,-4.5776373833739115e-06,-2.641048143115821e-05,-0.0002656574109867573,0.00018353886456245292,0.0003044368967418571,0.0002992805072347981,3.8205491720245336e-05,-0.0008789734831074862,0.17287558317184448,11.949304580688477,-1.2433807849884033,-21.891817092895508,-0.3912253975868225,-2.5271639823913574,0.22098104655742645,0
64,0.31493234634399414,-0.17287558317184448,-11.949304580688477,1.2671844959259033,21.891817092895508,0.3912253975868225,2.5207552909851074,-0.24844686686992645,0.0,0.0,0.0,0.0,0.0,0.0,0.0,-0.16939786944780058,0.37558107219939013,0.036807346546703375,0.587634218763833,-0.1482722915471383,0.1271539875744916,-0.21484047643917972,0.17283106057685718,-0.48733490436661153,-0.11145274595942414,-1.9467231212749814,0.1336094112925408,2.595551071855092,0.9452521883563862,0.1728802376190821,-0.48752024683155326,-0.11147110072896137,-1.9463801863486305,0.1336059019074957,2.595550359778934,0.9452445589611904,-0.00012696363619233797,0.00032021900172041673,-0.0013473555199946378,-0.0002707467158169766,-0.00034454603837463885,0.00027171976156624547,0.0015382366379035842,0.0,0.0,0.0,0.0,0.0,0.0,0.0,4.917704222492936e-05,-0.000185342464941729,-1.8354769537223814e-05,0.0003429349263508463,-3.5093850451195507e-06,-7.120761580381441e-07,-7.629395195829503e-06,0.00012696363619233797,-0.00032021900172041673,0.0013473555199946378,0.0002707467158169766,0.00034454603837463885,-0.00027171976156624547,-0.0015382366379035842,0.17287558317184448,11.949304580688477,-1.2671844959259033,-21.891817092895508,-0.3912253975868225,-2.5207552909851074,0.24844686686992645,0
65,0.3199334144592285,-0.17287558317184448,-11.949304580688477,1.2671844959259033,21.891817092895508,0.3912253975868225,2.5207552909851074,-0.24844686686992645,0.0,0.0,0.0,0.0,0.0,0.0,0.0,-0.16939786944780058,0.37558107219939013,0.036807346546703375,0.587634218763833,-0.1482722915471383,0.1271539875744916,-0.21484047643917972,0.17283106057685718,-0.48733490436661153,-0.11145274595942414,-1.9467231212749814,0.1336094112925408,2.595551071855092,0.9452521883563862,0.1728802376190821,-0.48752024683155326,-0.11147110072896137,-1.9463801863486305,0.1336059019074957,2.595550359778934,0.9452445589611904,-0.00012696363619233797,0.00032021900172041673,-0.0013473555199946378,-0.0002707467158169766,-0.00034454603837463885,0.00027171976156624547,0.0015382366379035842,0.0,0.0,0.0,0.0,0.0,0.0,0.0,4.917704222492936e-05,-0.000185342464941729,-1.8354769537223814e-05,0.0003429349263508463,-3.5093850451195507e-06,-7.120761580381441e-07,-7.629395195829503e-06,0.00012696363619233797,-0.00032021900172041673,0.0013473555199946378,0.0002707467158169766,0.00034454603837463885,-0.00027171976156624547,-0.0015382366379035842,0.17287558317184448,11.949304580688477,-1.2671844959259033,-21.891817092895508,-0.3912253975868225,-2.5207552909851074,0.24844686686992645,0
66,0.32491135597229004,-0.19667929410934448,-11.925500869750977,1.1918060779571533,21.868013381958008,0.3857322335243225,2.5207552909851074,-0.22830526530742645,0.0,0.0,0.0,0.0,0.0,0.0,0.0,-0.16901040289835287,0.38991713515146453,0.03473359563866338,0.580717154343255,-0.1479750592759766,0.12503991975390566,-0.21663035173717116,0.17283273101271243,-0.48733657774588945,-0.111447693008777,-1.9467214508391262,0.1336110878574871,2.595551071855757,0.9452499504006571,0.1728802376190821,-0.48752024683155326,-0.11147110072896137,-1.9463801863486305,0.1336059019074957,2.595550359778934,0.9452445589611904,0.0009520828930037016,-0.0001301991037342626,0.0007561527991650511,-0.0004406835872125317,-0.0003550236852972627,0.00011344981425689874,-0.009208165514647898,0.0,0.0,0.0,0.0,0.0,0.0,0.0,4.7506606369679405e-05,-0.0001836690856638068,-2.3407720184373537e-05,0.0003412644904956519,-5.185949991409755e-06,-7.120768228396912e-07,-5.3914394666509935e-06,-0.0009520828930037016,0.0001301991037342626,-0.0007561527991650511,0.0004406835872125317,0.0003550236852972627,-0.00011344981425689874,0.009208165514647898,0.19667929410934448,11.925500869750977,-1.1918060779571533,-21.868013381958008,-0.3857322335243225,-2.5207552909851074,0.22830526530742645,0
67,0.3299393653869629,-0.19667929410934448,-11.925500869750977,1.1918060779571533,21.868013381958008,0.3857322335243225,2.5207552909851074,-0.22830526530742645,0.0,0.0,0.0,0.0,0.0,0.0,0.0,-0.16901040289835287,0.38991713515146453,0.03473359563866338,0.580717154343255,-0.1479750592759766,0.12503991975390566,-0.21663035173717116,0.17283273101271243,-0.48733657774588945,-0.111447693008777,-1.9467214508391262,0.1336110878574871,2.595551071855757,0.9452499504006571,0.1728802376190821,-0.48752024683155326,-0.11147110072896137,-1.9463801863486305,0.1336059019074957,2.595550359778934,0.9452445589611904,0.0009520828930037016,-0.0001301991037342626,0.0007561527991650511,-0.0004406835872125317,-0.0003550236852972627,0.00011344981425689874,-0.009208165514647898,0.0,0.0,0.0,0.0,0.0,0.0,0.0,4.7506606369679405e-05,-0.0001836690856638068,-2.3407720184373537e-05,0.0003412644904956519,-5.185949991409755e-06,-7.120768228396912e-07,-5.3914394666509935e-06,-0.0009520828930037016,0.0001301991037342626,-0.0007561527991650511,0.0004406835872125317,0.0003550236852972627,-0.00011344981425689874,0.009208165514647898,0.19667929410934448,11.925500869750977,-1.1918060779571533,-21.868013381958008,-0.3857322335243225,-2.5207552909851074,0.22830526530742645,0
68,0.3349318504333496,-0.17287558317184448,-11.925500869750977,1.2671844959259033,21.868013381958008,0.3857322335243225,2.5271639823913574,-0.19351522624492645,0.0,0.0,0.0,0.0,0.0,0.0,0.0,-0.165523475165864,0.3784738884985092,0.04040549972798144,0.5898277665830378,-0.14824110616124322,0.12637751709257708,-0.21737458077540642,0.17283106057685718,-0.48733657774590605,-0.11145487715158901,-1.9467214508391262,0.1336100216568099,2.595550359778934,0.9452460848407613,0.1728802376190821,-0.48752024683155326,-0.11147110072896137,-1.9463801863486305,0.1336059019074957,2.595550359778934,0.9452445589611904,0.00013875378701345962,-0.0006284785661793172,-0.0007858624874530353,0.0003590504012830368,1.402197237715898e-05,-0.00011444756686117203,-0.001120950425687049,0.0,0.0,0.0,0.0,0.0,0.0,0.0,4.917704222492936e-05,-0.00018366908564720896,-1.6223577372354026e-05,0.0003412644904956519,-4.119749314218657e-06,0.0,-1.5258795709183204e-06,-0.00013875378701345962,0.0006284785661793172,0.0007858624874530353,-0.0003590504012830368,-1.402197237715898e-05,0.00011444756686117203,0.001120950425687049,0.17287558317184448,11.925500869750977,-1.2671844959259033,-21.868013381958008,-0.3857322335243225,-2.5271639823913574,0.19351522624492645,0
69,0.33994150161743164,-0.17287558317184448,-11.925500869750977,1.2671844959259033,21.868013381958008,0.3857322335243225,2.5271639823913574,-0.19351522624492645,0.0,0.0,0.0,0.0,0.0,0.0,0.0,-0.165523475165864,0.3784738884985092,0.04040549972798144,0.5898277665830378,-0.14824110616124322,0.12637751709257708,-0.21737458077540642,0.17283106057685718,-0.48733657774590605,-0.11145487715158901,-1.9467214508391262,0.1336100216568099,2.595550359778934,0.9452460848407613,0.1728802376190821,-0.48752024683155326,-0.11147110072896137,-1.9463801863486305,0.1336059019074957,2.595550359778934,0.9452445589611904,0.00013875378701345962,-0.0006284785661793172,-0.0007858624874530353,0.0003590504012830368,1.402197237715898e-05,-0.00011444756686117203,-0.001120950425687049,0.0,0.0,0.0,0.0,0.0,0.0,0.0,4.917704222492936e-05,-0.00018366908564720896,-1.6223577372354026e-05,0.0003412644904956519,-4.119749314218657e-06,0.0,-1.5258795709183204e-06,-0.00013875378701345962,0.0006284785661793172,0.0007858624874530353,-0.0003590504012830368,-1.402197237715898e-05,0.00011444756686117203,0.001120950425687049,0.17287558317184448,11.925500869750977,-1.2671844959259033,-21.868013381958008,-0.3857322335243225,-2.5271639823913574,0.19351522624492645,0
70,0.34493207931518555,-0.14510458707809448,-11.949304580688477,1.2156097888946533,21.891817092895508,0.3912253975868225,2.5271639823913574,-0.20083944499492645,0.0,0.0,0.0,0.0,0.0,0.0,0.0,-0.1661472548371706,0.3891899992895039,0.039651014952721365,0.5852814724576951,-0.14778765337328675,0.12589126966600184,-0.21747973754208547,0.17282911173502605,-0.4873349073100508,-0.11145125755981909,-1.9467228828564023,0.1336094112992287,2.595550359778934,0.9452468986428446,0.1728802376190821,-0.48752024683155326,-0.11147110072896137,-1.9463801863486305,0.1336059019074957,2.595550359778934,0.9452445589611904,-0.0003606598006952914,0.0004877912597886532,0.0006672899449041733,7.506831319361956e-05,-2.3087173290288837e-05,0.00015698851787960465,-8.492581220805972e-05,0.0,0.0,0.0,0.0,0.0,0.0,0.0,5.112588405606355e-05,-0.00018533952150245891,-1.984316914227513e-05,0.00034269650777174476,-3.5093917330197844e-06,0.0,-2.3396816541954024e-06,0.0003606598006952914,-0.0004877912597886532,-0.0006672899449041733,-7.506831319361956e-05,2.3087173290288837e-05,-0.00015698851787960465,8.492581220805972e-05,0.14510458707809448,11.949304580688477,-1.2156097888946533,-21.891817092895508,-0.3912253975868225,-2.5271639823913574,0.20083944499492645,0
71,0.3499329090118408,-0.14510458707809448,-11.949304580688477,1.2156097888946533,21.891817092895508,0.3912253975868225,2.5271639823913574,-0.20083944499492645,0.0,0.0,0.0,0.0,0.0,0.0,0.0,-0.1661472548371706,0.3891899992895039,0.039651014952721365,0.5852814724576951,-0.14778765337328675,0.12589126966600184,-0.21747973754208547,0.17282911173502605,-0.4873349073100508,-0.11145125755981909,-1.9467228828564023,0.1336094112992287,2.595550359778934,0.9452468986428446,0.1728802376190821,-0.48752024683155326,-0.11147110072896137,-1.9463801863486305,0.1336059019074957,2.595550359778934,0.9452445589611904,-0.0003606598006952914,0.0004877912597886532,0.0006672899449041733,7.506831319361956e-05,-2.3087173290288837e-05,0.00015698851787960465,-8.492581220805972e-05,0.0,0.0,0.0,0.0,0.0,0.0,0.0,5.112588405606355e-05,-0.00018533952150245891,-1.984316914227513e-05,0.00034269650777174476,-3.5093917330197844e-06,0.0,-2.3396816541954024e-06,0.0003606598006952914,-0.0004877912597886532,-0.0006672899449041733,-7.506831319361956e-05,2.3087173290288837e-05,-0.00015698851787960465,8.492581220805972e-05,0.14510458707809448,11.949304580688477,-1.2156097888946533,-21.891817092895508,-0.3912253975868225,-2.5271639823913574,0.20083944499492645,0
72,0.354947566986084,-0.17287558317184448,-11.949304580688477,1.2156097888946533,21.840242385864258,0.3857322335243225,2.5335726737976074,-0.23471395671367645,0.0,0.0,0.0,0.0,0.0,0.0,0.0,-0.16682890157679578,0.38372856533758404,0.03913862530897424,0.5865762059878984,-0.14722363777618325,0.12635055006115783,-0.21699384585843598,0.17283106057685718,-0.4873349073100508,-0.11144912780041645,-1.9467195019932573,0.13361002165079117,2.595549647702111,0.94525066247748,0.1728802376190821,-0.48752024683155326,-0.11147110072896137,-1.9463801863486305,0.1336059019074957,2.595550359778934,0.9452445589611904,2.3317018828257472e-05,-0.0004325944075155262,0.0004949644530198133,0.0010145705538527948,-1.6819487422974114e-07,-0.0001689506919462303,0.0015923940855623283,0.0,0.0,0.0,0.0,0.0,0.0,0.0,4.917704222492936e-05,-0.00018533952150245891,-2.1972928544916615e-05,0.00033931564462674757,-4.119743295477596e-06,7.120768228396912e-07,-6.103516289601707e-06,-2.3317018828257472e-05,0.0004325944075155262,-0.0004949644530198133,-0.0010145705538527948,1.6819487422974114e-07,0.0001689506919462303,-0.0015923940855623283,0.17287558317184448,11.949304580688477,-1.2156097888946533,-21.840242385864258,-0.3857322335243225,-2.5335726737976074,0.23471395671367645,0
73,0.3599522113800049,-0.17287558317184448,-11.949304580688477,1.2156097888946533,21.840242385864258,0.3857322335243225,2.5335726737976074,-0.23471395671367645,0.0,0.0,0.0,0.0,0.0,0.0,0.0,-0.16682890157679578,0.38372856533758404,0.03913862530897424,0.5865762059878984,-0.14722363777618325,0.12635055006115783,-0.21699384585843598,0.17283106057685718,-0.4873349073100508,-0.11144912780041645,-1.9467195019932573,0.13361002165079117,2.595549647702111,0.94525066247748,0.1728802376190821,-0.48752024683155326,-0.11147110072896137,-1.9463801863486305,0.1336059019074957,2.595550359778934,0.9452445589611904,2.3317018828257472e-05,-0.0004325944075155262,0.0004949644530198133,0.0010145705538527948,-1.6819487422974114e-07,-0.0001689506919462303,0.0015923940855623283,0.0,0.0,0.0,0.0,0.0,0.0,0.0,4.917704222492936e-05,-0.00018533952150245891,-2.1972928544916615e-05,0.00033931564462674757,-4.119743295477596e-06,7.120768228396912e-07,-6.103516289601707e-06,-2.3317018828257472e-05,0.0004325944075155262,-0.0004949644530198133,-0.0010145705538527948,1.6819487422974114e-07,0.0001689506919462303,-0.0015923940855623283,0.17287558317184448,11.949304580688477,-1.2156097888946533,-21.840242385864258,-0.3857322335243225,-2.5335726737976074,0.23471395671367645,0
74,0.364926815032959,-0.17287558317184448,-12.000879287719727,1.2909882068634033,21.891817092895508,0.3912253975868225,2.5207552909851074,-0.19351522624492645,0.0,0.0,0.0,0.0,0.0,0.0,0.0,-0.16552491784513235,0.3921445027424844,0.04354724505666487,0.581093242237325,-0.14764754763336907,0.12565539542784723,-0.21603569318902363,0.17283106057685718,-0.48733128803236436,-0.11145449542450556,-1.9467231202938349,0.13360941129922868,2.595551071855757,0.9452460848407613,0.1728802376190821,-0.48752024683155326,-0.11147110072896137,-1.9463801863486305,0.1336059019074957,2.595550359778934,0.9452445589611904,0.00039617877834119923,0.0011870236009792873,-0.0011299361247969913,-0.00048707663801018735,-0.00021872064926503902,0.00014615765166450491,-0.0008138129632302481,0.0,0.0,0.0,0.0,0.0,0.0,0.0,4.917704222492936e-05,-0.00018895879918889857,-1.6605304455810654e-05,0.00034293394520434894,-3.5093917329920288e-06,-7.120768228396912e-07,-1.5258795709183204e-06,-0.00039617877834119923,-0.0011870236009792873,0.0011299361247969913,0.00048707663801018735,0.00021872064926503902,-0.00014615765166450491,0.0008138129632302481,0.17287558317184448,12.000879287719727,-1.2909882068634033,-21.891817092895508,-0.3912253975868225,-2.5207552909851074,0.19351522624492645,0
75,0.3699314594268799,-0.17287558317184448,-12.000879287719727,1.2909882068634033,21.891817092895508,0.3912253975868225,2.5207552909851074,-0.19351522624492645,0.0,0.0,0.0,0.0,0.0,0.0,0.0,-0.16552491784513235,0.3921445027424844,0.04354724505666487,0.581093242237325,-0.14764754763336907,0.12565539542784723,-0.21603569318902363,0.17283106057685718,-0.48733128803236436,-0.11145449542450556,-1.9467231202938349,0.13360941129922868,2.595551071855757,0.9452460848407613,0.1728802376190821,-0.48752024683155326,-0.11147110072896137,-1.9463801863486305,0.1336059019074957,2.595550359778934,0.9452445589611904,0.00039617877834119923,0.0011870236009792873,-0.0011299361247969913,-0.00048707663801018735,-0.00021872064926503902,0.00014615765166450491,-0.0008138129632302481,0.0,0.0,0.0,0.0,0.0,0.0,0.0,4.917704222492936e-05,-0.00018895879918889857,-1.6605304455810654e-05,0.00034293394520434894,-3.5093917329920288e-06,-7.120768228396912e-07,-1.5258795709183204e-06,-0.00039617877834119923,-0.0011870236009792873,0.0011299361247969913,0.00048707663801018735,0.00021872064926503902,-0.00014615765166450491,0.0008138129632302481,0.17287558317184448,12.000879287719727,-1.2909882068634033,-21.891817092895508,-0.3912253975868225,-2.5207552909851074,0.19351522624492645,0
76,0.37492799758911133,-0.12130087614059448,-11.973108291625977,1.2909882068634033,21.840242385864258,0.3738303780555725,2.5271639823913574,-0.20083944499492645,0.0,0.0,0.0,0.0,0.0,0.0,0.0,-0.16557600549801638,0.3841868226719896,0.04566777120876417,0.5821109994056787,-0.14736850891055236,0.12525444554961776,-0.216622851516903,0.17282744129917077,-0.4873332368741955,-0.11145654758655386,-1.9467195019609507,0.13361134407917657,2.595550359778934,0.9452468971892943,0.1728802376190821,-0.48752024683155326,-0.11147110072896137,-1.9463801863486305,0.1336059019074957,2.595550359778934,0.9452445589611904,-0.0009226004491555739,0.00014369534081779225,-0.0007781574803528769,0.0009237514026326402,0.00043089028119534296,1.9633647807238655e-05,-0.00031345570237791535,0.0,0.0,0.0,0.0,0.0,0.0,0.0,5.279631991134126e-05,-0.00018700995735776438,-1.455314240750294e-05,0.00033931561232014573,-5.442171680886121e-06,0.0,-2.338228103915263e-06,0.0009226004491555739,-0.00014369534081779225,0.0007781574803528769,-0.0009237514026326402,-0.00043089028119534296,-1.9633647807238655e-05,0.00031345570237791535,0.12130087614059448,11.973108291625977,-1.2909882068634033,-21.840242385864258,-0.3738303780555725,-2.5271639823913574,0.20083944499492645,0
77,0.3799397945404053,-0.12130087614059448,-11.973108291625977,1.2909882068634033,21.840242385864258,0.3738303780555725,2.5271639823913574,-0.20083944499492645,0.0,0.0,0.0,0.0,0.0,0.0,0.0,-0.16557600549801638,0.3841868226719896,0.04566777120876417,0.5821109994056787,-0.14736850891055236,0.12525444554961776,-0.216622851516903,0.17282744129917077,-0.4873332368741955,-0.11145654758655386,-1.9467195019609507,0.13361134407917657,2.595550359778934,0.9452468971892943,0.1728802376190821,-0.48752024683155326,-0.11147110072896137,-1.9463801863486305,0.1336059019074957,2.595550359778934,0.9452445589611904,-0.0009226004491555739,0.00014369534081779225,-0.0007781574803528769,0.0009237514026326402,0.00043089028119534296,1.9633647807238655e-05,-0.00031345570237791535,0.0,0.0,0.0,0.0,0.0,0.0,0.0,5.279631991134126e-05,-0.00018700995735776438,-1.455314240750294e-05,0.00033931561232014573,-5.442171680886121e-06,0.0,-2.338228103915263e-06,0.0009226004491555739,-0.00014369534081779225,0.0007781574803528769,-0.0009237514026326402,-0.00043089028119534296,-1.9633647807238655e-05,0.00031345570237791535,0.12130087614059448,11.973108291625977,-1.2909882068634033,-21.840242385864258,-0.3738303780555725,-2.5271639823913574,0.20083944499492645,0
78,0.38494062423706055,-0.12130087614059448,-11.973108291625977,1.2909882068634033,21.840242385864258,0.3738303780555725,2.5271639823913574,-0.20083944499492645,0.0,0.0,0.0,0.0,0.0,0.0,0.0,-0.16557600549801638,0.3841868226719896,0.04566777120876417,0.5821109994056787,-0.14736850891055236,0.12525444554961776,-0.216622851516903,0.17282744129917077,-0.4873332368741955,-0.11145654758655386,-1.9467195019609507,0.13361134407917657,2.595550359778934,0.9452468971892943,0.1728802376190821,-0.48752024683155326,-0.11147110072896137,-1.9463801863486305,0.1336059019074957,2.595550359778934,0.9452445589611904,-0.0009226004491555739,0.00014369534081779225,-0.0007781574803528769,0.0009237514026326402,0.00043089028119534296,1.9633647807238655e-05,-0.00031345570237791535,0.0,0.0,0.0,0.0,0.0,0.0,0.0,5.279631991134126e-05,-0.00018700995735776438,-1.455314240750294e-05,0.00033931561232014573,-5.442171680886121e-06,0.0,-2.338228103915263e-06,0.0009226004491555739,-0.00014369534081779225,0.0007781574803528769,-0.0009237514026326402,-0.00043089028119534296,-1.9633647807238655e-05,0.00031345570237791535,0.12130087614059448,11.973108291625977,-1.2909882068634033,-21.840242385864258,-0.3738303780555725,-2.5271639823913574,0.20083944499492645,0
79,0.389941930770874,-0.12130087614059448,-11.973108291625977,1.2909882068634033,21.840242385864258,0.3738303780555725,2.5271639823913574,-0.20083944499492645,0.0,0.0,0.0,0.0,0.0,0.0,0.0,-0.16557600549801638,0.3841868226719896,0.04566777120876417,0.5821109994056787,-0.14736850891055236,0.12525444554961776,-0.216622851516903,0.17282744129917077,-0.4873332368741955,-0.11145654758655386,-1.9467195019609507,0.13361134407917657,2.595550359778934,0.9452468971892943,0.1728802376190821,-0.48752024683155326,-0.11147110072896137,-1.9463801863486305,0.1336059019074957,2.595550359778934,0.9452445589611904,-0.0009226004491555739,0.00014369534081779225,-0.0007781574803528769,0.0009237514026326402,0.00043089028119534296,1.9633647807238655e-05,-0.00031345570237791535,0.0,0.0,0.0,0.0,0.0,0.0,0.0,5.279631991134126e-05,-0.00018700995735776438,-1.455314240750294e-05,0.00033931561232014573,-5.442171680886121e-06,0.0,-2.338228103915263e-06,0.0009226004491555739,-0.00014369534081779225,0.0007781574803528769,-0.0009237514026326402,-0.00043089028119534296,-1.9633647807238655e-05,0.00031345570237791535,0.12130087614059448,11.973108291625977,-1.2909882068634033,-21.840242385864258,-0.3738303780555725,-2.5271639823913574,0.20083944499492645,0
