rezayati/contactInterpretation/dataset/franka_main/labeled_data/link5/c5_8.csv
index,time,tau_J0,tau_J1,tau_J2,tau_J3,tau_J4,tau_J5,tau_J6,tau_J_d0,tau_J_d1,tau_J_d2,tau_J_d3,tau_J_d4,tau_J_d5,tau_J_d6,tau_ext0,tau_ext1,tau_ext2,tau_ext3,tau_ext4,tau_ext5,tau_ext6,q0,q1,q2,q3,q4,q5,q6,q_d0,q_d1,q_d2,q_d3,q_d4,q_d5,q_d6,dq0,dq1,dq2,dq3,dq4,dq5,dq6,dq_d0,dq_d1,dq_d2,dq_d3,dq_d4,dq_d5,dq_d6,e0,e1,e2,e3,e4,e5,e6,de0,de1,de2,de3,de4,de5,de6,etau_J0,etau_J1,etau_J2,etau_J3,etau_J4,etau_J5,etau_J6,label
1,0.0,-0.24825400114059448,-22.696680068969727,0.001620553433895111,14.179414749145508,0.2365012764930725,2.1325716972351074,-0.29605430364608765,0.0,0.0,0.0,0.0,0.0,0.0,0.0,-0.27322497635590315,0.10555193571201255,-0.05237238774710663,0.3361550963595202,0.0006480524329482228,-0.04749063071957294,-0.26356661982940005,1.6755272317811063,0.05225886193112095,0.029944471913210133,-2.7526243992186425,0.03422943157951862,2.7663693784607783,0.769170933081044,1.6754973547542302,0.052104326824870026,0.029969505109285054,-2.752394845125968,0.0342448039870148,2.7663679543071322,0.7691630533470046,-0.000415281242772291,0.0003499231280947026,0.0005482556541566155,0.0001870311539837383,-0.00013691183918418918,0.0002666217119776684,0.0017425405671497296,0.0,0.0,0.0,0.0,0.0,0.0,0.0,-2.9877026876068413e-05,-0.00015453510625092204,2.5033196074920883e-05,0.00022955409267444438,1.537240749618224e-05,-1.4241536461234716e-06,-7.879734039373254e-06,0.000415281242772291,-0.0003499231280947026,-0.0005482556541566155,-0.0001870311539837383,0.00013691183918418918,-0.0002666217119776684,-0.0017425405671497296,0.24825400114059448,22.696680068969727,-0.001620553433895111,-14.179414749145508,-0.2365012764930725,-2.1325716972351074,0.29605430364608765,0
2,0.0050122737884521484,-0.24825400114059448,-22.696680068969727,0.001620553433895111,14.179414749145508,0.2365012764930725,2.1325716972351074,-0.29605430364608765,0.0,0.0,0.0,0.0,0.0,0.0,0.0,-0.27322497635590315,0.10555193571201255,-0.05237238774710663,0.3361550963595202,0.0006480524329482228,-0.04749063071957294,-0.26356661982940005,1.6755272317811063,0.05225886193112095,0.029944471913210133,-2.7526243992186425,0.03422943157951862,2.7663693784607783,0.769170933081044,1.6754973547542302,0.052104326824870026,0.029969505109285054,-2.752394845125968,0.0342448039870148,2.7663679543071322,0.7691630533470046,-0.000415281242772291,0.0003499231280947026,0.0005482556541566155,0.0001870311539837383,-0.00013691183918418918,0.0002666217119776684,0.0017425405671497296,0.0,0.0,0.0,0.0,0.0,0.0,0.0,-2.9877026876068413e-05,-0.00015453510625092204,2.5033196074920883e-05,0.00022955409267444438,1.537240749618224e-05,-1.4241536461234716e-06,-7.879734039373254e-06,0.000415281242772291,-0.0003499231280947026,-0.0005482556541566155,-0.0001870311539837383,0.00013691183918418918,-0.0002666217119776684,-0.0017425405671497296,0.24825400114059448,22.696680068969727,-0.001620553433895111,-14.179414749145508,-0.2365012764930725,-2.1325716972351074,0.29605430364608765,0
3,0.010128974914550781,-0.24825400114059448,-22.696680068969727,-0.02615044265985489,14.207185745239258,0.2365012764930725,2.1389803886413574,-0.30337852239608765,0.0,0.0,0.0,0.0,0.0,0.0,0.0,-0.274986880212175,0.10113778163770798,-0.05657318457481258,0.3397651637010644,0.0009120510527675507,-0.04656770350248638,-0.2623954982985256,1.6755272317811063,0.05225886193126963,0.029946420755041274,-2.7526263480604736,0.03422943157951037,2.766368666383955,0.7691717468831273,1.6754973547542302,0.052104326824870026,0.029969505109285054,-2.752394845125968,0.0342448039870148,2.7663679543071322,0.7691630533470046,-0.0007637943514444456,0.00027909920026028664,0.001141834392797304,-0.00027472552982924365,-0.000198859110573206,-2.3745022213278157e-05,0.006893804628828114,0.0,0.0,0.0,0.0,0.0,0.0,0.0,-2.9877026876068413e-05,-0.00015453510639960172,2.3084354243779748e-05,0.00023150293450546755,1.5372407504432584e-05,-7.120768228396912e-07,-8.693536122650336e-06,0.0007637943514444456,-0.00027909920026028664,-0.001141834392797304,0.00027472552982924365,0.000198859110573206,2.3745022213278157e-05,-0.006893804628828114,0.24825400114059448,22.696680068969727,0.02615044265985489,-14.207185745239258,-0.2365012764930725,-2.1389803886413574,0.30337852239608765,0
4,0.014995574951171875,-0.24825400114059448,-22.696680068969727,-0.02615044265985489,14.207185745239258,0.2365012764930725,2.1389803886413574,-0.30337852239608765,0.0,0.0,0.0,0.0,0.0,0.0,0.0,-0.274986880212175,0.10113778163770798,-0.05657318457481258,0.3397651637010644,0.0009120510527675507,-0.04656770350248638,-0.2623954982985256,1.6755272317811063,0.05225886193126963,0.029946420755041274,-2.7526263480604736,0.03422943157951037,2.766368666383955,0.7691717468831273,1.6754973547542302,0.052104326824870026,0.029969505109285054,-2.752394845125968,0.0342448039870148,2.7663679543071322,0.7691630533470046,-0.0007637943514444456,0.00027909920026028664,0.001141834392797304,-0.00027472552982924365,-0.000198859110573206,-2.3745022213278157e-05,0.006893804628828114,0.0,0.0,0.0,0.0,0.0,0.0,0.0,-2.9877026876068413e-05,-0.00015453510639960172,2.3084354243779748e-05,0.00023150293450546755,1.5372407504432584e-05,-7.120768228396912e-07,-8.693536122650336e-06,0.0007637943514444456,-0.00027909920026028664,-0.001141834392797304,0.00027472552982924365,0.000198859110573206,2.3745022213278157e-05,-0.006893804628828114,0.24825400114059448,22.696680068969727,0.02615044265985489,-14.207185745239258,-0.2365012764930725,-2.1389803886413574,0.30337852239608765,0
5,0.019992589950561523,-0.2998287081718445,-22.672876358032227,0.02542426437139511,14.207185745239258,0.2310081124305725,2.1389803886413574,-0.23471395671367645,0.0,0.0,0.0,0.0,0.0,0.0,0.0,-0.27350586051956005,0.09687507412200619,-0.05666637439570041,0.34661814107883643,0.0006499543470234174,-0.04462834664670206,-0.26243914404146973,1.6755308510587927,0.052257191495414364,0.02994280147735487,-2.7526263480604736,0.034230046315570924,2.766368666383955,0.7691641174869404,1.6754973547542302,0.052104326824870026,0.029969505109285054,-2.752394845125968,0.0342448039870148,2.7663679543071322,0.7691630533470046,0.0007321665302184264,-0.0003489616736162092,2.7782166678732847e-05,-0.00021790359398248516,-8.97911105511111e-05,-0.0006545658376718323,-0.007790311314993601,0.0,0.0,0.0,0.0,0.0,0.0,0.0,-3.349630456250807e-05,-0.0001528646705443379,2.6703631930184712e-05,0.00023150293450546755,1.4757671443876852e-05,-7.120768228396912e-07,-1.0641399357247394e-06,-0.0007321665302184264,0.0003489616736162092,-2.7782166678732847e-05,0.00021790359398248516,8.97911105511111e-05,0.0006545658376718323,0.007790311314993601,0.2998287081718445,22.672876358032227,-0.02542426437139511,-14.207185745239258,-0.2310081124305725,-2.1389803886413574,0.23471395671367645,0
6,0.02499246597290039,-0.2998287081718445,-22.672876358032227,0.02542426437139511,14.207185745239258,0.2310081124305725,2.1389803886413574,-0.23471395671367645,0.0,0.0,0.0,0.0,0.0,0.0,0.0,-0.27350586051956005,0.09687507412200619,-0.05666637439570041,0.34661814107883643,0.0006499543470234174,-0.04462834664670206,-0.26243914404146973,1.6755308510587927,0.052257191495414364,0.02994280147735487,-2.7526263480604736,0.034230046315570924,2.766368666383955,0.7691641174869404,1.6754973547542302,0.052104326824870026,0.029969505109285054,-2.752394845125968,0.0342448039870148,2.7663679543071322,0.7691630533470046,0.0007321665302184264,-0.0003489616736162092,2.7782166678732847e-05,-0.00021790359398248516,-8.97911105511111e-05,-0.0006545658376718323,-0.007790311314993601,0.0,0.0,0.0,0.0,0.0,0.0,0.0,-3.349630456250807e-05,-0.0001528646705443379,2.6703631930184712e-05,0.00023150293450546755,1.4757671443876852e-05,-7.120768228396912e-07,-1.0641399357247394e-06,-0.0007321665302184264,0.0003489616736162092,-2.7782166678732847e-05,0.00021790359398248516,8.97911105511111e-05,0.0006545658376718323,0.007790311314993601,0.2998287081718445,22.672876358032227,-0.02542426437139511,-14.207185745239258,-0.2310081124305725,-2.1389803886413574,0.23471395671367645,0
7,0.029991626739501953,-0.22445029020309448,-22.720483779907227,0.001620553433895111,14.230989456176758,0.2365012764930725,2.1325716972351074,-0.24112264811992645,0.0,0.0,0.0,0.0,0.0,0.0,0.0,-0.2729862538731684,0.09876171252454004,-0.0551329580894702,0.34111002721977013,-4.626527265036784e-05,-0.046790852126471216,-0.2620523628862629,1.6755255613452509,0.05226053236712489,0.029944471913210133,-2.752627329731545,0.03422943163366472,2.7663693784607783,0.7691648295637633,1.6754973547542302,0.052104326824870026,0.029969505109285054,-2.752394845125968,0.0342448039870148,2.7663679543071322,0.7691630533470046,-0.0010869380666715263,0.00016970240482610507,0.000668846315614122,-0.0007032230255736675,-0.00017664245107366295,0.0002174708042438517,-0.0016819302628211027,0.0,0.0,0.0,0.0,0.0,0.0,0.0,-2.8206591020651928e-05,-0.00015620554225486555,2.5033196074920883e-05,0.00023248460557701023,1.5372353350077972e-05,-1.4241536461234716e-06,-1.776216758675453e-06,0.0010869380666715263,-0.00016970240482610507,-0.000668846315614122,0.0007032230255736675,0.00017664245107366295,-0.0002174708042438517,0.0016819302628211027,0.22445029020309448,22.720483779907227,-0.001620553433895111,-14.230989456176758,-0.2365012764930725,-2.1325716972351074,0.24112264811992645,0
8,0.034993648529052734,-0.22445029020309448,-22.720483779907227,0.001620553433895111,14.230989456176758,0.2365012764930725,2.1325716972351074,-0.24112264811992645,0.0,0.0,0.0,0.0,0.0,0.0,0.0,-0.2729862538731684,0.09876171252454004,-0.0551329580894702,0.34111002721977013,-4.626527265036784e-05,-0.046790852126471216,-0.2620523628862629,1.6755255613452509,0.05226053236712489,0.029944471913210133,-2.752627329731545,0.03422943163366472,2.7663693784607783,0.7691648295637633,1.6754973547542302,0.052104326824870026,0.029969505109285054,-2.752394845125968,0.0342448039870148,2.7663679543071322,0.7691630533470046,-0.0010869380666715263,0.00016970240482610507,0.000668846315614122,-0.0007032230255736675,-0.00017664245107366295,0.0002174708042438517,-0.0016819302628211027,0.0,0.0,0.0,0.0,0.0,0.0,0.0,-2.8206591020651928e-05,-0.00015620554225486555,2.5033196074920883e-05,0.00023248460557701023,1.5372353350077972e-05,-1.4241536461234716e-06,-1.776216758675453e-06,0.0010869380666715263,-0.00016970240482610507,-0.000668846315614122,0.0007032230255736675,0.00017664245107366295,-0.0002174708042438517,0.0016819302628211027,0.22445029020309448,22.720483779907227,-0.001620553433895111,-14.230989456176758,-0.2365012764930725,-2.1325716972351074,0.24112264811992645,0
9,0.03999209403991699,-0.2720577120780945,-22.672876358032227,0.04922797530889511,14.230989456176758,0.2245994210243225,2.1389803886413574,-0.22098104655742645,0.0,0.0,0.0,0.0,0.0,0.0,0.0,-0.27508162984300244,0.10853572655130247,-0.057990297801518945,0.33483925733738257,-4.177976542304347e-05,-0.04820163672319276,-0.2626710848928648,1.6755289022169615,0.05225719138702898,0.029941131041499605,-2.7526287602391317,0.034230754007896096,2.766368666383955,0.7691625916080341,1.6754973547542302,0.052104326824870026,0.029969505109285054,-2.752394845125968,0.0342448039870148,2.7663679543071322,0.7691630533470046,-0.0003320225386778928,-0.00023988053907122528,-0.0002671231635581342,-0.000653062093296772,0.0003230035385427492,-1.36974828128655e-05,-0.0017382139090983922,0.0,0.0,0.0,0.0,0.0,0.0,0.0,-3.1547462731262854e-05,-0.0001528645621589539,2.8374067785448542e-05,0.00023391511316361857,1.404997911870487e-05,-7.120768228396912e-07,4.617389705030561e-07,0.0003320225386778928,0.00023988053907122528,0.0002671231635581342,0.000653062093296772,-0.0003230035385427492,1.36974828128655e-05,0.0017382139090983922,0.2720577120780945,22.672876358032227,-0.04922797530889511,-14.230989456176758,-0.2245994210243225,-2.1389803886413574,0.22098104655742645,0
10,0.04499340057373047,-0.2720577120780945,-22.672876358032227,0.04922797530889511,14.230989456176758,0.2245994210243225,2.1389803886413574,-0.22098104655742645,0.0,0.0,0.0,0.0,0.0,0.0,0.0,-0.27508162984300244,0.10853572655130247,-0.057990297801518945,0.33483925733738257,-4.177976542304347e-05,-0.04820163672319276,-0.2626710848928648,1.6755289022169615,0.05225719138702898,0.029941131041499605,-2.7526287602391317,0.034230754007896096,2.766368666383955,0.7691625916080341,1.6754973547542302,0.052104326824870026,0.029969505109285054,-2.752394845125968,0.0342448039870148,2.7663679543071322,0.7691630533470046,-0.0003320225386778928,-0.00023988053907122528,-0.0002671231635581342,-0.000653062093296772,0.0003230035385427492,-1.36974828128655e-05,-0.0017382139090983922,0.0,0.0,0.0,0.0,0.0,0.0,0.0,-3.1547462731262854e-05,-0.0001528645621589539,2.8374067785448542e-05,0.00023391511316361857,1.404997911870487e-05,-7.120768228396912e-07,4.617389705030561e-07,0.0003320225386778928,0.00023988053907122528,0.0002671231635581342,0.000653062093296772,-0.0003230035385427492,1.36974828128655e-05,0.0017382139090983922,0.2720577120780945,22.672876358032227,-0.04922797530889511,-14.230989456176758,-0.2245994210243225,-2.1389803886413574,0.22098104655742645,0
11,0.04999995231628418,-0.24825400114059448,-22.649072647094727,0.04922797530889511,14.207185745239258,0.2365012764930725,2.1453890800476074,-0.30337852239608765,0.0,0.0,0.0,0.0,0.0,0.0,0.0,-0.2750800146845683,0.10743645008785349,-0.05478953451861705,0.3349527008760144,-1.5384053741869896e-05,-0.0481760454343794,-0.2620508028124334,1.6755272317811063,0.05225552105955849,0.029941131041499605,-2.752626348064661,0.03422943157951037,2.7663679543071322,0.7691717468831273,1.6754973547542302,0.052104326824870026,0.029969505109285054,-2.752394845125968,0.0342448039870148,2.7663679543071322,0.7691630533470046,-0.0007967015604863376,-0.0006862255397925806,-0.0003731834842607297,-0.00025976516106846555,-8.837532656166133e-05,-0.00014469286375589583,0.001625187272991479,0.0,0.0,0.0,0.0,0.0,0.0,0.0,-2.9877026876068413e-05,-0.00015119423468846344,2.8374067785448542e-05,0.0002315029386927847,1.5372407504432584e-05,0.0,-8.693536122650336e-06,0.0007967015604863376,0.0006862255397925806,0.0003731834842607297,0.00025976516106846555,8.837532656166133e-05,0.00014469286375589583,-0.001625187272991479,0.24825400114059448,22.649072647094727,-0.04922797530889511,-14.207185745239258,-0.2365012764930725,-2.1453890800476074,0.30337852239608765,0
12,0.0550074577331543,-0.24825400114059448,-22.649072647094727,0.04922797530889511,14.207185745239258,0.2365012764930725,2.1453890800476074,-0.30337852239608765,0.0,0.0,0.0,0.0,0.0,0.0,0.0,-0.2750800146845683,0.10743645008785349,-0.05478953451861705,0.3349527008760144,-1.5384053741869896e-05,-0.0481760454343794,-0.2620508028124334,1.6755272317811063,0.05225552105955849,0.029941131041499605,-2.752626348064661,0.03422943157951037,2.7663679543071322,0.7691717468831273,1.6754973547542302,0.052104326824870026,0.029969505109285054,-2.752394845125968,0.0342448039870148,2.7663679543071322,0.7691630533470046,-0.0007967015604863376,-0.0006862255397925806,-0.0003731834842607297,-0.00025976516106846555,-8.837532656166133e-05,-0.00014469286375589583,0.001625187272991479,0.0,0.0,0.0,0.0,0.0,0.0,0.0,-2.9877026876068413e-05,-0.00015119423468846344,2.8374067785448542e-05,0.0002315029386927847,1.5372407504432584e-05,0.0,-8.693536122650336e-06,0.0007967015604863376,0.0006862255397925806,0.0003731834842607297,0.00025976516106846555,8.837532656166133e-05,0.00014469286375589583,-0.001625187272991479,0.24825400114059448,22.649072647094727,-0.04922797530889511,-14.207185745239258,-0.2365012764930725,-2.1453890800476074,0.30337852239608765,0
13,0.0599980354309082,-0.24825400114059448,-22.672876358032227,0.02542426437139511,14.179414749145508,0.2484031319618225,2.1325716972351074,-0.29605430364608765,0.0,0.0,0.0,0.0,0.0,0.0,0.0,-0.2771915232969227,0.09843776768614423,-0.052144898126874936,0.3408891823854957,0.00041823211106819093,-0.04616502303944597,-0.26210285176330883,1.6755272317811063,0.05225719051994588,0.02994280147735487,-2.752624399218643,0.03422810915112495,2.7663693784607783,0.769170933081044,1.6754973547542302,0.052104326824870026,0.029969505109285054,-2.752394845125968,0.0342448039870148,2.7663679543071322,0.7691630533470046,-0.0008799407071694603,-0.0006413048227280789,0.0002432330341276027,0.0005686526568879297,-0.0005031395513465768,3.936263604533849e-05,0.001078474749068541,0.0,0.0,0.0,0.0,0.0,0.0,0.0,-2.9877026876068413e-05,-0.00015286369507585412,2.6703631930184712e-05,0.00022955409267488847,1.6694835889848048e-05,-1.4241536461234716e-06,-7.879734039373254e-06,0.0008799407071694603,0.0006413048227280789,-0.0002432330341276027,-0.0005686526568879297,0.0005031395513465768,-3.936263604533849e-05,-0.001078474749068541,0.24825400114059448,22.672876358032227,-0.02542426437139511,-14.179414749145508,-0.2484031319618225,-2.1325716972351074,0.29605430364608765,0
14,0.06499934196472168,-0.24825400114059448,-22.672876358032227,0.02542426437139511,14.179414749145508,0.2484031319618225,2.1325716972351074,-0.29605430364608765,0.0,0.0,0.0,0.0,0.0,0.0,0.0,-0.2771915232969227,0.09843776768614423,-0.052144898126874936,0.3408891823854957,0.00041823211106819093,-0.04616502303944597,-0.26210285176330883,1.6755272317811063,0.05225719051994588,0.02994280147735487,-2.752624399218643,0.03422810915112495,2.7663693784607783,0.769170933081044,1.6754973547542302,0.052104326824870026,0.029969505109285054,-2.752394845125968,0.0342448039870148,2.7663679543071322,0.7691630533470046,-0.0008799407071694603,-0.0006413048227280789,0.0002432330341276027,0.0005686526568879297,-0.0005031395513465768,3.936263604533849e-05,0.001078474749068541,0.0,0.0,0.0,0.0,0.0,0.0,0.0,-2.9877026876068413e-05,-0.00015286369507585412,2.6703631930184712e-05,0.00022955409267488847,1.6694835889848048e-05,-1.4241536461234716e-06,-7.879734039373254e-06,0.0008799407071694603,0.0006413048227280789,-0.0002432330341276027,-0.0005686526568879297,0.0005031395513465768,-3.936263604533849e-05,-0.001078474749068541,0.24825400114059448,22.672876358032227,-0.02542426437139511,-14.179414749145508,-0.2484031319618225,-2.1325716972351074,0.29605430364608765,0
15,0.07080578804016113,-0.24825400114059448,-22.672876358032227,0.02542426437139511,14.179414749145508,0.2484031319618225,2.1325716972351074,-0.29605430364608765,0.0,0.0,0.0,0.0,0.0,0.0,0.0,-0.2771915232969227,0.09843776768614423,-0.052144898126874936,0.3408891823854957,0.00041823211106819093,-0.04616502303944597,-0.26210285176330883,1.6755272317811063,0.05225719051994588,0.02994280147735487,-2.752624399218643,0.03422810915112495,2.7663693784607783,0.769170933081044,1.6754973547542302,0.052104326824870026,0.029969505109285054,-2.752394845125968,0.0342448039870148,2.7663679543071322,0.7691630533470046,-0.0008799407071694603,-0.0006413048227280789,0.0002432330341276027,0.0005686526568879297,-0.0005031395513465768,3.936263604533849e-05,0.001078474749068541,0.0,0.0,0.0,0.0,0.0,0.0,0.0,-2.9877026876068413e-05,-0.00015286369507585412,2.6703631930184712e-05,0.00022955409267488847,1.6694835889848048e-05,-1.4241536461234716e-06,-7.879734039373254e-06,0.0008799407071694603,0.0006413048227280789,-0.0002432330341276027,-0.0005686526568879297,0.0005031395513465768,-3.936263604533849e-05,-0.001078474749068541,0.24825400114059448,22.672876358032227,-0.02542426437139511,-14.179414749145508,-0.2484031319618225,-2.1325716972351074,0.29605430364608765,0
16,0.07500219345092773,-0.24825400114059448,-22.672876358032227,0.02542426437139511,14.179414749145508,0.2484031319618225,2.1325716972351074,-0.29605430364608765,0.0,0.0,0.0,0.0,0.0,0.0,0.0,-0.2771915232969227,0.09843776768614423,-0.052144898126874936,0.3408891823854957,0.00041823211106819093,-0.04616502303944597,-0.26210285176330883,1.6755272317811063,0.05225719051994588,0.02994280147735487,-2.752624399218643,0.03422810915112495,2.7663693784607783,0.769170933081044,1.6754973547542302,0.052104326824870026,0.029969505109285054,-2.752394845125968,0.0342448039870148,2.7663679543071322,0.7691630533470046,-0.0008799407071694603,-0.0006413048227280789,0.0002432330341276027,0.0005686526568879297,-0.0005031395513465768,3.936263604533849e-05,0.001078474749068541,0.0,0.0,0.0,0.0,0.0,0.0,0.0,-2.9877026876068413e-05,-0.00015286369507585412,2.6703631930184712e-05,0.00022955409267488847,1.6694835889848048e-05,-1.4241536461234716e-06,-7.879734039373254e-06,0.0008799407071694603,0.0006413048227280789,-0.0002432330341276027,-0.0005686526568879297,0.0005031395513465768,-3.936263604533849e-05,-0.001078474749068541,0.24825400114059448,22.672876358032227,-0.02542426437139511,-14.179414749145508,-0.2484031319618225,-2.1325716972351074,0.29605430364608765,0
17,0.07999753952026367,-0.2720577120780945,-22.720483779907227,0.04922797530889511,14.179414749145508,0.2245994210243225,2.1453890800476074,-0.26858848333358765,0.0,0.0,0.0,0.0,0.0,0.0,0.0,-0.27590164547763424,0.10254033041264383,-0.04763174840637257,0.3368774678690645,0.0008494211945512781,-0.046896215182047216,-0.26333595543782395,1.6755289022169615,0.05226053204196322,0.029941131041499605,-2.752624399218643,0.03423075400789579,2.7663679543071322,0.7691678813232314,1.6754973547542302,0.052104326824870026,0.029969505109285054,-2.752394845125968,0.0342448039870148,2.7663679543071322,0.7691630533470046,1.0883417142370975e-05,0.000555357358583625,-7.607751563235386e-06,0.0005645255736267148,0.0003171019064183426,-0.00035539649220630806,0.0003225344090534285,0.0,0.0,0.0,0.0,0.0,0.0,0.0,-3.1547462731262854e-05,-0.00015620521709319712,2.8374067785448542e-05,0.00022955409267488847,1.404997911901018e-05,0.0,-4.827976226806641e-06,-1.0883417142370975e-05,-0.000555357358583625,7.607751563235386e-06,-0.0005645255736267148,-0.0003171019064183426,0.00035539649220630806,-0.0003225344090534285,0.2720577120780945,22.720483779907227,-0.04922797530889511,-14.179414749145508,-0.2245994210243225,-2.1453890800476074,0.26858848333358765,0
18,0.08499526977539062,-0.2720577120780945,-22.720483779907227,0.04922797530889511,14.179414749145508,0.2245994210243225,2.1453890800476074,-0.26858848333358765,0.0,0.0,0.0,0.0,0.0,0.0,0.0,-0.27590164547763424,0.10254033041264383,-0.04763174840637257,0.3368774678690645,0.0008494211945512781,-0.046896215182047216,-0.26333595543782395,1.6755289022169615,0.05226053204196322,0.029941131041499605,-2.752624399218643,0.03423075400789579,2.7663679543071322,0.7691678813232314,1.6754973547542302,0.052104326824870026,0.029969505109285054,-2.752394845125968,0.0342448039870148,2.7663679543071322,0.7691630533470046,1.0883417142370975e-05,0.000555357358583625,-7.607751563235386e-06,0.0005645255736267148,0.0003171019064183426,-0.00035539649220630806,0.0003225344090534285,0.0,0.0,0.0,0.0,0.0,0.0,0.0,-3.1547462731262854e-05,-0.00015620521709319712,2.8374067785448542e-05,0.00022955409267488847,1.404997911901018e-05,0.0,-4.827976226806641e-06,-1.0883417142370975e-05,-0.000555357358583625,7.607751563235386e-06,-0.0005645255736267148,-0.0003171019064183426,0.00035539649220630806,-0.0003225344090534285,0.2720577120780945,22.720483779907227,-0.04922797530889511,-14.179414749145508,-0.2245994210243225,-2.1453890800476074,0.26858848333358765,0
19,0.08999395370483398,-0.2998287081718445,-22.672876358032227,0.02542426437139511,14.207185745239258,0.2365012764930725,2.1325716972351074,-0.30337852239608765,0.0,0.0,0.0,0.0,0.0,0.0,0.0,-0.27619825655753977,0.10123056547184885,-0.043591267889486876,0.33607457131788315,0.0006782040236106119,-0.047091509986195074,-0.2645447750776033,1.6755308510587927,0.052257191495412525,0.02994280147735487,-2.752626348060474,0.03423369331161181,2.7663693784607783,0.7691717468831273,1.6754973547542302,0.052104326824870026,0.029969505109285054,-2.752394845125968,0.0342448039870148,2.7663679543071322,0.7691630533470046,0.000988057083328793,-0.0005578786037366361,0.0007806642621718109,-0.0002851721608488932,-0.00022365344535440565,0.00020513242905379834,0.001626668136370044,0.0,0.0,0.0,0.0,0.0,0.0,0.0,-3.349630456250807e-05,-0.00015286467054249908,2.6703631930184712e-05,0.00023150293450591164,1.1110675402992154e-05,-1.4241536461234716e-06,-8.693536122650336e-06,-0.000988057083328793,0.0005578786037366361,-0.0007806642621718109,0.0002851721608488932,0.00022365344535440565,-0.00020513242905379834,-0.001626668136370044,0.2998287081718445,22.672876358032227,-0.02542426437139511,-14.207185745239258,-0.2365012764930725,-2.1325716972351074,0.30337852239608765,0
20,0.09499263763427734,-0.2998287081718445,-22.672876358032227,0.02542426437139511,14.207185745239258,0.2365012764930725,2.1325716972351074,-0.30337852239608765,0.0,0.0,0.0,0.0,0.0,0.0,0.0,-0.27619825655753977,0.10123056547184885,-0.043591267889486876,0.33607457131788315,0.0006782040236106119,-0.047091509986195074,-0.2645447750776033,1.6755308510587927,0.052257191495412525,0.02994280147735487,-2.752626348060474,0.03423369331161181,2.7663693784607783,0.7691717468831273,1.6754973547542302,0.052104326824870026,0.029969505109285054,-2.752394845125968,0.0342448039870148,2.7663679543071322,0.7691630533470046,0.000988057083328793,-0.0005578786037366361,0.0007806642621718109,-0.0002851721608488932,-0.00022365344535440565,0.00020513242905379834,0.001626668136370044,0.0,0.0,0.0,0.0,0.0,0.0,0.0,-3.349630456250807e-05,-0.00015286467054249908,2.6703631930184712e-05,0.00023150293450591164,1.1110675402992154e-05,-1.4241536461234716e-06,-8.693536122650336e-06,-0.000988057083328793,0.0005578786037366361,-0.0007806642621718109,0.0002851721608488932,0.00022365344535440565,-0.00020513242905379834,-0.001626668136370044,0.2998287081718445,22.672876358032227,-0.02542426437139511,-14.207185745239258,-0.2365012764930725,-2.1325716972351074,0.30337852239608765,0
21,0.09999418258666992,-0.24825400114059448,-22.672876358032227,0.02542426437139511,14.207185745239258,0.2365012764930725,2.1197543144226074,-0.27591270208358765,0.0,0.0,0.0,0.0,0.0,0.0,0.0,-0.28028034566960236,0.10139506480614409,-0.046373315294902774,0.3337929428913108,0.0010879792679473414,-0.048099259660086734,-0.26651113854211744,1.6755272317811063,0.052257191495414364,0.02994280147735487,-2.752626348060474,0.03422943160356797,2.766370802614424,0.7691686951253148,1.6754973547542302,0.052104326824870026,0.029969505109285054,-2.752394845125968,0.0342448039870148,2.7663679543071322,0.7691630533470046,-0.0008947735971144619,-0.0006960972079175992,0.00025660097991420723,-0.000407800975848545,-0.00010838746683158614,0.0006759236107377421,0.0005507932057130213,0.0,0.0,0.0,0.0,0.0,0.0,0.0,-2.9877026876068413e-05,-0.0001528646705443379,2.6703631930184712e-05,0.00023150293450591164,1.5372383446829452e-05,-2.848307291802854e-06,-5.641778310194745e-06,0.0008947735971144619,0.0006960972079175992,-0.00025660097991420723,0.000407800975848545,0.00010838746683158614,-0.0006759236107377421,-0.0005507932057130213,0.24825400114059448,22.672876358032227,-0.02542426437139511,-14.207185745239258,-0.2365012764930725,-2.1197543144226074,0.27591270208358765,0
22,0.10499382019042969,-0.24825400114059448,-22.672876358032227,0.02542426437139511,14.207185745239258,0.2365012764930725,2.1197543144226074,-0.27591270208358765,0.0,0.0,0.0,0.0,0.0,0.0,0.0,-0.28028034566960236,0.10139506480614409,-0.046373315294902774,0.3337929428913108,0.0010879792679473414,-0.048099259660086734,-0.26651113854211744,1.6755272317811063,0.052257191495414364,0.02994280147735487,-2.752626348060474,0.03422943160356797,2.766370802614424,0.7691686951253148,1.6754973547542302,0.052104326824870026,0.029969505109285054,-2.752394845125968,0.0342448039870148,2.7663679543071322,0.7691630533470046,-0.0008947735971144619,-0.0006960972079175992,0.00025660097991420723,-0.000407800975848545,-0.00010838746683158614,0.0006759236107377421,0.0005507932057130213,0.0,0.0,0.0,0.0,0.0,0.0,0.0,-2.9877026876068413e-05,-0.0001528646705443379,2.6703631930184712e-05,0.00023150293450591164,1.5372383446829452e-05,-2.848307291802854e-06,-5.641778310194745e-06,0.0008947735971144619,0.0006960972079175992,-0.00025660097991420723,0.000407800975848545,0.00010838746683158614,-0.0006759236107377421,-0.0005507932057130213,0.24825400114059448,22.672876358032227,-0.02542426437139511,-14.207185745239258,-0.2365012764930725,-2.1197543144226074,0.27591270208358765,0
23,0.11000323295593262,-0.2998287081718445,-22.696680068969727,0.001620553433895111,14.207185745239258,0.2365012764930725,2.1261630058288574,-0.26858848333358765,0.0,0.0,0.0,0.0,0.0,0.0,0.0,-0.27846433617232536,0.1008594524961333,-0.04473003064872054,0.3375668627807615,0.0010377902470912132,-0.04883705327855012,-0.2672278150365312,1.6755308510587927,0.052258861822884244,0.029944471913210133,-2.752626348060474,0.0342294317418992,2.766370090537601,0.7691678813232314,1.6754973547542302,0.052104326824870026,0.029969505109285054,-2.752394845125968,0.0342448039870148,2.7663679543071322,0.7691630533470046,0.000589773255087515,0.0002471244046836161,0.000178877388060714,6.679561968378545e-05,-0.00021232476286280877,0.0002918629077155608,-9.784080903477288e-05,0.0,0.0,0.0,0.0,0.0,0.0,0.0,-3.349630456250807e-05,-0.00015453499801421772,2.5033196074920883e-05,0.00023150293450591164,1.5372245115601035e-05,-2.136230468963163e-06,-4.827976226806641e-06,-0.000589773255087515,-0.0002471244046836161,-0.000178877388060714,-6.679561968378545e-05,0.00021232476286280877,-0.0002918629077155608,9.784080903477288e-05,0.2998287081718445,22.696680068969727,-0.001620553433895111,-14.207185745239258,-0.2365012764930725,-2.1261630058288574,0.26858848333358765,0
24,0.11499571800231934,-0.2998287081718445,-22.696680068969727,0.001620553433895111,14.207185745239258,0.2365012764930725,2.1261630058288574,-0.26858848333358765,0.0,0.0,0.0,0.0,0.0,0.0,0.0,-0.27846433617232536,0.1008594524961333,-0.04473003064872054,0.3375668627807615,0.0010377902470912132,-0.04883705327855012,-0.2672278150365312,1.6755308510587927,0.052258861822884244,0.029944471913210133,-2.752626348060474,0.0342294317418992,2.766370090537601,0.7691678813232314,1.6754973547542302,0.052104326824870026,0.029969505109285054,-2.752394845125968,0.0342448039870148,2.7663679543071322,0.7691630533470046,0.000589773255087515,0.0002471244046836161,0.000178877388060714,6.679561968378545e-05,-0.00021232476286280877,0.0002918629077155608,-9.784080903477288e-05,0.0,0.0,0.0,0.0,0.0,0.0,0.0,-3.349630456250807e-05,-0.00015453499801421772,2.5033196074920883e-05,0.00023150293450591164,1.5372245115601035e-05,-2.136230468963163e-06,-4.827976226806641e-06,-0.000589773255087515,-0.0002471244046836161,-0.000178877388060714,-6.679561968378545e-05,0.00021232476286280877,-0.0002918629077155608,9.784080903477288e-05,0.2998287081718445,22.696680068969727,-0.001620553433895111,-14.207185745239258,-0.2365012764930725,-2.1261630058288574,0.26858848333358765,0
25,0.11999368667602539,-0.2720577120780945,-22.696680068969727,0.04922797530889511,14.207185745239258,0.2191062569618225,2.1197543144226074,-0.26217979192733765,0.0,0.0,0.0,0.0,0.0,0.0,0.0,-0.27718705696909723,0.08086501785161021,-0.04546161331217693,0.37398415216221254,0.0013546433548700368,-0.04399399452521622,-0.2660400615987428,1.6755289022169615,0.05225886193126902,0.029941131041499605,-2.7526261184722123,0.034231719503800995,2.766370684876854,0.7691671692464086,1.6754973547542302,0.052104326824870026,0.029969505109285054,-2.752394845125968,0.0342448039870148,2.7663679543071322,0.7691630533470046,-0.0004905505707994598,-5.549057833112969e-05,-4.193078522306079e-05,-0.0027860397416162187,0.000390844853119459,0.0005811530623185975,0.0005063544863369771,0.0,0.0,0.0,0.0,0.0,0.0,0.0,-3.1547462731262854e-05,-0.0001545351063989911,2.8374067785448542e-05,0.00023127334624417628,1.3084483213805786e-05,-2.7305697218871217e-06,-4.115899403966949e-06,0.0004905505707994598,5.549057833112969e-05,4.193078522306079e-05,0.0027860397416162187,-0.000390844853119459,-0.0005811530623185975,-0.0005063544863369771,0.2720577120780945,22.696680068969727,-0.04922797530889511,-14.207185745239258,-0.2191062569618225,-2.1197543144226074,0.26217979192733765,0
26,0.12500739097595215,-0.2720577120780945,-22.696680068969727,0.04922797530889511,14.207185745239258,0.2191062569618225,2.1197543144226074,-0.26217979192733765,0.0,0.0,0.0,0.0,0.0,0.0,0.0,-0.27718705696909723,0.08086501785161021,-0.04546161331217693,0.37398415216221254,0.0013546433548700368,-0.04399399452521622,-0.2660400615987428,1.6755289022169615,0.05225886193126902,0.029941131041499605,-2.7526261184722123,0.034231719503800995,2.766370684876854,0.7691671692464086,1.6754973547542302,0.052104326824870026,0.029969505109285054,-2.752394845125968,0.0342448039870148,2.7663679543071322,0.7691630533470046,-0.0004905505707994598,-5.549057833112969e-05,-4.193078522306079e-05,-0.0027860397416162187,0.000390844853119459,0.0005811530623185975,0.0005063544863369771,0.0,0.0,0.0,0.0,0.0,0.0,0.0,-3.1547462731262854e-05,-0.0001545351063989911,2.8374067785448542e-05,0.00023127334624417628,1.3084483213805786e-05,-2.7305697218871217e-06,-4.115899403966949e-06,0.0004905505707994598,5.549057833112969e-05,4.193078522306079e-05,0.0027860397416162187,-0.000390844853119459,-0.0005811530623185975,-0.0005063544863369771,0.2720577120780945,22.696680068969727,-0.04922797530889511,-14.207185745239258,-0.2191062569618225,-2.1197543144226074,0.26217979192733765,0
27,0.13001298904418945,-0.2998287081718445,-22.696680068969727,0.02542426437139511,14.207185745239258,0.2365012764930725,2.1389803886413574,-0.28232139348983765,0.0,0.0,0.0,0.0,0.0,0.0,0.0,-0.2791003929745763,0.09554707508367712,-0.04560950571614068,0.3522733575768533,0.00034349987671451466,-0.047688046560194625,-0.26255237490457245,1.6755308510587927,0.05225886193126963,0.02994280147735487,-2.7526263480591777,0.03422943158151517,2.7663686663832903,0.7691694057304181,1.6754973547542302,0.052104326824870026,0.029969505109285054,-2.752394845125968,0.0342448039870148,2.7663679543071322,0.7691630533470046,0.0005163279563118834,-8.112615501074685e-07,0.0004027557578196729,-0.00016419046218147206,0.00016547746957870866,6.711463211880804e-05,0.001202494919778826,0.0,0.0,0.0,0.0,0.0,0.0,0.0,-3.349630456250807e-05,-0.00015453510639960172,2.6703631930184712e-05,0.00023150293320961524,1.537240549963348e-05,-7.120761580381441e-07,-6.35238341351041e-06,-0.0005163279563118834,8.112615501074685e-07,-0.0004027557578196729,0.00016419046218147206,-0.00016547746957870866,-6.711463211880804e-05,-0.001202494919778826,0.2998287081718445,22.696680068969727,-0.02542426437139511,-14.207185745239258,-0.2365012764930725,-2.1389803886413574,0.28232139348983765,0
28,0.13500046730041504,-0.2998287081718445,-22.696680068969727,0.02542426437139511,14.207185745239258,0.2365012764930725,2.1389803886413574,-0.28232139348983765,0.0,0.0,0.0,0.0,0.0,0.0,0.0,-0.2791003929745763,0.09554707508367712,-0.04560950571614068,0.3522733575768533,0.00034349987671451466,-0.047688046560194625,-0.26255237490457245,1.6755308510587927,0.05225886193126963,0.02994280147735487,-2.7526263480591777,0.03422943158151517,2.7663686663832903,0.7691694057304181,1.6754973547542302,0.052104326824870026,0.029969505109285054,-2.752394845125968,0.0342448039870148,2.7663679543071322,0.7691630533470046,0.0005163279563118834,-8.112615501074685e-07,0.0004027557578196729,-0.00016419046218147206,0.00016547746957870866,6.711463211880804e-05,0.001202494919778826,0.0,0.0,0.0,0.0,0.0,0.0,0.0,-3.349630456250807e-05,-0.00015453510639960172,2.6703631930184712e-05,0.00023150293320961524,1.537240549963348e-05,-7.120761580381441e-07,-6.35238341351041e-06,-0.0005163279563118834,8.112615501074685e-07,-0.0004027557578196729,0.00016419046218147206,-0.00016547746957870866,-6.711463211880804e-05,-0.001202494919778826,0.2998287081718445,22.696680068969727,-0.02542426437139511,-14.207185745239258,-0.2365012764930725,-2.1389803886413574,0.28232139348983765,0
29,0.13995790481567383,-0.24825400114059448,-22.696680068969727,0.02542426437139511,14.230989456176758,0.2365012764930725,2.1517977714538574,-0.28232139348983765,0.0,0.0,0.0,0.0,0.0,0.0,0.0,-0.2784470917839789,0.10511022837594791,-0.04428072069499549,0.3332036176570157,0.0003656658947445884,-0.05038173160886965,-0.2601223021933916,1.6755272317811063,0.05225886193126963,0.02994280147735487,-2.752628018496329,0.03422943157951038,2.7663672422303094,0.7691694072021295,1.6754973547542302,0.052104326824870026,0.029969505109285054,-2.752394845125968,0.0342448039870148,2.7663679543071322,0.7691630533470046,-0.0007111767425692944,-0.00020183237691776882,0.0004993739126405811,-0.00032684976637095605,-0.00011441055405762763,-0.0006257296526409675,0.001391089462360202,0.0,0.0,0.0,0.0,0.0,0.0,0.0,-2.9877026876068413e-05,-0.00015453510639960172,2.6703631930184712e-05,0.00023317337036088404,1.5372407504418706e-05,7.120768228396912e-07,-6.353855124818786e-06,0.0007111767425692944,0.00020183237691776882,-0.0004993739126405811,0.00032684976637095605,0.00011441055405762763,0.0006257296526409675,-0.001391089462360202,0.24825400114059448,22.696680068969727,-0.02542426437139511,-14.230989456176758,-0.2365012764930725,-2.1517977714538574,0.28232139348983765,0
30,0.1450192928314209,-0.24825400114059448,-22.696680068969727,0.02542426437139511,14.230989456176758,0.2365012764930725,2.1517977714538574,-0.28232139348983765,0.0,0.0,0.0,0.0,0.0,0.0,0.0,-0.2784470917839789,0.10511022837594791,-0.04428072069499549,0.3332036176570157,0.0003656658947445884,-0.05038173160886965,-0.2601223021933916,1.6755272317811063,0.05225886193126963,0.02994280147735487,-2.752628018496329,0.03422943157951038,2.7663672422303094,0.7691694072021295,1.6754973547542302,0.052104326824870026,0.029969505109285054,-2.752394845125968,0.0342448039870148,2.7663679543071322,0.7691630533470046,-0.0007111767425692944,-0.00020183237691776882,0.0004993739126405811,-0.00032684976637095605,-0.00011441055405762763,-0.0006257296526409675,0.001391089462360202,0.0,0.0,0.0,0.0,0.0,0.0,0.0,-2.9877026876068413e-05,-0.00015453510639960172,2.6703631930184712e-05,0.00023317337036088404,1.5372407504418706e-05,7.120768228396912e-07,-6.353855124818786e-06,0.0007111767425692944,0.00020183237691776882,-0.0004993739126405811,0.00032684976637095605,0.00011441055405762763,0.0006257296526409675,-0.001391089462360202,0.24825400114059448,22.696680068969727,-0.02542426437139511,-14.230989456176758,-0.2365012764930725,-2.1517977714538574,0.28232139348983765,0
31,0.15008759498596191,-0.3236324191093445,-22.696680068969727,0.02542426437139511,14.230989456176758,0.2365012764930725,2.1389803886413574,-0.29605430364608765,0.0,0.0,0.0,0.0,0.0,0.0,0.0,-0.2805794059078681,0.10977679293720397,-0.04825166392064292,0.3272604666773039,0.0007977704031459897,-0.05160446282212339,-0.2592098226153995,1.675532521494648,0.05225886193126963,0.02994280147735487,-2.752628018496329,0.03422943157951037,2.766368666383955,0.769170933081044,1.6754973547542302,0.052104326824870026,0.029969505109285054,-2.752394845125968,0.0342448039870148,2.7663679543071322,0.7691630533470046,0.0014529462128378863,-0.0001502941721443874,-0.00018729900231686253,-0.0009683013478834689,-0.0002015121028008731,2.844875514924072e-05,0.0012750831177987996,0.0,0.0,0.0,0.0,0.0,0.0,0.0,-3.516674041770251e-05,-0.00015453510639960172,2.6703631930184712e-05,0.00023317337036088404,1.5372407504432584e-05,-7.120768228396912e-07,-7.879734039373254e-06,-0.0014529462128378863,0.0001502941721443874,0.00018729900231686253,0.0009683013478834689,0.0002015121028008731,-2.844875514924072e-05,-0.0012750831177987996,0.3236324191093445,22.696680068969727,-0.02542426437139511,-14.230989456176758,-0.2365012764930725,-2.1389803886413574,0.29605430364608765,0
32,0.15499043464660645,-0.3236324191093445,-22.696680068969727,0.02542426437139511,14.230989456176758,0.2365012764930725,2.1389803886413574,-0.29605430364608765,0.0,0.0,0.0,0.0,0.0,0.0,0.0,-0.2805794059078681,0.10977679293720397,-0.04825166392064292,0.3272604666773039,0.0007977704031459897,-0.05160446282212339,-0.2592098226153995,1.675532521494648,0.05225886193126963,0.02994280147735487,-2.752628018496329,0.03422943157951037,2.766368666383955,0.769170933081044,1.6754973547542302,0.052104326824870026,0.029969505109285054,-2.752394845125968,0.0342448039870148,2.7663679543071322,0.7691630533470046,0.0014529462128378863,-0.0001502941721443874,-0.00018729900231686253,-0.0009683013478834689,-0.0002015121028008731,2.844875514924072e-05,0.0012750831177987996,0.0,0.0,0.0,0.0,0.0,0.0,0.0,-3.516674041770251e-05,-0.00015453510639960172,2.6703631930184712e-05,0.00023317337036088404,1.5372407504432584e-05,-7.120768228396912e-07,-7.879734039373254e-06,-0.0014529462128378863,0.0001502941721443874,0.00018729900231686253,0.0009683013478834689,0.0002015121028008731,-2.844875514924072e-05,-0.0012750831177987996,0.3236324191093445,22.696680068969727,-0.02542426437139511,-14.230989456176758,-0.2365012764930725,-2.1389803886413574,0.29605430364608765,0
33,0.1600034236907959,-0.2998287081718445,-22.672876358032227,0.04922797530889511,14.179414749145508,0.2365012764930725,2.1325716972351074,-0.27591270208358765,0.0,0.0,0.0,0.0,0.0,0.0,0.0,-0.28029313459455396,0.10561510055991008,-0.052753382977754226,0.3328591284658299,0.0011986596816739796,-0.05073060473768764,-0.2615889588048512,1.6755308510587927,0.05225505814583677,0.029941131041499605,-2.7526243992186425,0.03422943157951037,2.7663693784607783,0.7691686951253148,1.6754973547542302,0.052104326824870026,0.029969505109285054,-2.752394845125968,0.0342448039870148,2.7663679543071322,0.7691630533470046,0.00045799558249305026,-0.00047835025336569485,-0.0009663574601503727,0.0007155666706627152,-8.548453147359455e-05,8.288136272578834e-05,0.00032250310389756847,0.0,0.0,0.0,0.0,0.0,0.0,0.0,-3.349630456250807e-05,-0.0001507313209667474,2.8374067785448542e-05,0.00022955409267444438,1.5372407504432584e-05,-1.4241536461234716e-06,-5.641778310194745e-06,-0.00045799558249305026,0.00047835025336569485,0.0009663574601503727,-0.0007155666706627152,8.548453147359455e-05,-8.288136272578834e-05,-0.00032250310389756847,0.2998287081718445,22.672876358032227,-0.04922797530889511,-14.179414749145508,-0.2365012764930725,-2.1325716972351074,0.27591270208358765,0
34,0.16500639915466309,-0.2998287081718445,-22.672876358032227,0.04922797530889511,14.179414749145508,0.2365012764930725,2.1325716972351074,-0.27591270208358765,0.0,0.0,0.0,0.0,0.0,0.0,0.0,-0.28029313459455396,0.10561510055991008,-0.052753382977754226,0.3328591284658299,0.0011986596816739796,-0.05073060473768764,-0.2615889588048512,1.6755308510587927,0.05225505814583677,0.029941131041499605,-2.7526243992186425,0.03422943157951037,2.7663693784607783,0.7691686951253148,1.6754973547542302,0.052104326824870026,0.029969505109285054,-2.752394845125968,0.0342448039870148,2.7663679543071322,0.7691630533470046,0.00045799558249305026,-0.00047835025336569485,-0.0009663574601503727,0.0007155666706627152,-8.548453147359455e-05,8.288136272578834e-05,0.00032250310389756847,0.0,0.0,0.0,0.0,0.0,0.0,0.0,-3.349630456250807e-05,-0.0001507313209667474,2.8374067785448542e-05,0.00022955409267444438,1.5372407504432584e-05,-1.4241536461234716e-06,-5.641778310194745e-06,-0.00045799558249305026,0.00047835025336569485,0.0009663574601503727,-0.0007155666706627152,8.548453147359455e-05,-8.288136272578834e-05,-0.00032250310389756847,0.2998287081718445,22.672876358032227,-0.04922797530889511,-14.179414749145508,-0.2365012764930725,-2.1325716972351074,0.27591270208358765,0
35,0.17002439498901367,-0.24825400114059448,-22.696680068969727,0.001620553433895111,14.207185745239258,0.2245994210243225,2.1389803886413574,-0.26858848333358765,0.0,0.0,0.0,0.0,0.0,0.0,0.0,-0.27438132272261956,0.10621948631447112,-0.050317594373278055,0.3348336981294087,0.0008142854290223444,-0.05020413666696128,-0.2635591520997766,1.6755272317811063,0.05225886191922681,0.029944471913210133,-2.7526263480604736,0.03423075400789579,2.766368666383955,0.7691678680777548,1.6754973547542302,0.052104326824870026,0.029969505109285054,-2.752394845125968,0.0342448039870148,2.7663679543071322,0.7691630533470046,-0.000673683006696982,0.00037353265721028716,0.0006099218613037487,-9.737434059250503e-05,0.0003664181062732646,-3.9516110908372715e-05,-0.0003610987088192929,0.0,0.0,0.0,0.0,0.0,0.0,0.0,-2.9877026876068413e-05,-0.0001545350943567836,2.5033196074920883e-05,0.00023150293450546755,1.404997911901018e-05,-7.120768228396912e-07,-4.814730750202223e-06,0.000673683006696982,-0.00037353265721028716,-0.0006099218613037487,9.737434059250503e-05,-0.0003664181062732646,3.9516110908372715e-05,0.0003610987088192929,0.24825400114059448,22.696680068969727,-0.001620553433895111,-14.207185745239258,-0.2245994210243225,-2.1389803886413574,0.26858848333358765,0
36,0.17500829696655273,-0.24825400114059448,-22.696680068969727,0.001620553433895111,14.207185745239258,0.2245994210243225,2.1389803886413574,-0.26858848333358765,0.0,0.0,0.0,0.0,0.0,0.0,0.0,-0.27438132272261956,0.10621948631447112,-0.050317594373278055,0.3348336981294087,0.0008142854290223444,-0.05020413666696128,-0.2635591520997766,1.6755272317811063,0.05225886191922681,0.029944471913210133,-2.7526263480604736,0.03423075400789579,2.766368666383955,0.7691678680777548,1.6754973547542302,0.052104326824870026,0.029969505109285054,-2.752394845125968,0.0342448039870148,2.7663679543071322,0.7691630533470046,-0.000673683006696982,0.00037353265721028716,0.0006099218613037487,-9.737434059250503e-05,0.0003664181062732646,-3.9516110908372715e-05,-0.0003610987088192929,0.0,0.0,0.0,0.0,0.0,0.0,0.0,-2.9877026876068413e-05,-0.0001545350943567836,2.5033196074920883e-05,0.00023150293450546755,1.404997911901018e-05,-7.120768228396912e-07,-4.814730750202223e-06,0.000673683006696982,-0.00037353265721028716,-0.0006099218613037487,9.737434059250503e-05,-0.0003664181062732646,3.9516110908372715e-05,0.0003610987088192929,0.24825400114059448,22.696680068969727,-0.001620553433895111,-14.207185745239258,-0.2245994210243225,-2.1389803886413574,0.26858848333358765,0
37,0.1799943447113037,-0.24825400114059448,-22.696680068969727,0.001620553433895111,14.207185745239258,0.2245994210243225,2.1389803886413574,-0.26858848333358765,0.0,0.0,0.0,0.0,0.0,0.0,0.0,-0.27438132272261956,0.10621948631447112,-0.050317594373278055,0.3348336981294087,0.0008142854290223444,-0.05020413666696128,-0.2635591520997766,1.6755272317811063,0.05225886191922681,0.029944471913210133,-2.7526263480604736,0.03423075400789579,2.766368666383955,0.7691678680777548,1.6754973547542302,0.052104326824870026,0.029969505109285054,-2.752394845125968,0.0342448039870148,2.7663679543071322,0.7691630533470046,-0.000673683006696982,0.00037353265721028716,0.0006099218613037487,-9.737434059250503e-05,0.0003664181062732646,-3.9516110908372715e-05,-0.0003610987088192929,0.0,0.0,0.0,0.0,0.0,0.0,0.0,-2.9877026876068413e-05,-0.0001545350943567836,2.5033196074920883e-05,0.00023150293450546755,1.404997911901018e-05,-7.120768228396912e-07,-4.814730750202223e-06,0.000673683006696982,-0.00037353265721028716,-0.0006099218613037487,9.737434059250503e-05,-0.0003664181062732646,3.9516110908372715e-05,0.0003610987088192929,0.24825400114059448,22.696680068969727,-0.001620553433895111,-14.207185745239258,-0.2245994210243225,-2.1389803886413574,0.26858848333358765,0
38,0.185042142868042,-0.24825400114059448,-22.696680068969727,0.001620553433895111,14.207185745239258,0.2245994210243225,2.1389803886413574,-0.26858848333358765,0.0,0.0,0.0,0.0,0.0,0.0,0.0,-0.27438132272261956,0.10621948631447112,-0.050317594373278055,0.3348336981294087,0.0008142854290223444,-0.05020413666696128,-0.2635591520997766,1.6755272317811063,0.05225886191922681,0.029944471913210133,-2.7526263480604736,0.03423075400789579,2.766368666383955,0.7691678680777548,1.6754973547542302,0.052104326824870026,0.029969505109285054,-2.752394845125968,0.0342448039870148,2.7663679543071322,0.7691630533470046,-0.000673683006696982,0.00037353265721028716,0.0006099218613037487,-9.737434059250503e-05,0.0003664181062732646,-3.9516110908372715e-05,-0.0003610987088192929,0.0,0.0,0.0,0.0,0.0,0.0,0.0,-2.9877026876068413e-05,-0.0001545350943567836,2.5033196074920883e-05,0.00023150293450546755,1.404997911901018e-05,-7.120768228396912e-07,-4.814730750202223e-06,0.000673683006696982,-0.00037353265721028716,-0.0006099218613037487,9.737434059250503e-05,-0.0003664181062732646,3.9516110908372715e-05,0.0003610987088192929,0.24825400114059448,22.696680068969727,-0.001620553433895111,-14.207185745239258,-0.2245994210243225,-2.1389803886413574,0.26858848333358765,0
39,0.1900019645690918,-0.24825400114059448,-22.696680068969727,0.001620553433895111,14.207185745239258,0.2245994210243225,2.1389803886413574,-0.26858848333358765,0.0,0.0,0.0,0.0,0.0,0.0,0.0,-0.27438132272261956,0.10621948631447112,-0.050317594373278055,0.3348336981294087,0.0008142854290223444,-0.05020413666696128,-0.2635591520997766,1.6755272317811063,0.05225886191922681,0.029944471913210133,-2.7526263480604736,0.03423075400789579,2.766368666383955,0.7691678680777548,1.6754973547542302,0.052104326824870026,0.029969505109285054,-2.752394845125968,0.0342448039870148,2.7663679543071322,0.7691630533470046,-0.000673683006696982,0.00037353265721028716,0.0006099218613037487,-9.737434059250503e-05,0.0003664181062732646,-3.9516110908372715e-05,-0.0003610987088192929,0.0,0.0,0.0,0.0,0.0,0.0,0.0,-2.9877026876068413e-05,-0.0001545350943567836,2.5033196074920883e-05,0.00023150293450546755,1.404997911901018e-05,-7.120768228396912e-07,-4.814730750202223e-06,0.000673683006696982,-0.00037353265721028716,-0.0006099218613037487,9.737434059250503e-05,-0.0003664181062732646,3.9516110908372715e-05,0.0003610987088192929,0.24825400114059448,22.696680068969727,-0.001620553433895111,-14.207185745239258,-0.2245994210243225,-2.1389803886413574,0.26858848333358765,0
40,0.19504237174987793,-0.24825400114059448,-22.696680068969727,0.001620553433895111,14.207185745239258,0.2245994210243225,2.1389803886413574,-0.26858848333358765,0.0,0.0,0.0,0.0,0.0,0.0,0.0,-0.27438132272261956,0.10621948631447112,-0.050317594373278055,0.3348336981294087,0.0008142854290223444,-0.05020413666696128,-0.2635591520997766,1.6755272317811063,0.05225886191922681,0.029944471913210133,-2.7526263480604736,0.03423075400789579,2.766368666383955,0.7691678680777548,1.6754973547542302,0.052104326824870026,0.029969505109285054,-2.752394845125968,0.0342448039870148,2.7663679543071322,0.7691630533470046,-0.000673683006696982,0.00037353265721028716,0.0006099218613037487,-9.737434059250503e-05,0.0003664181062732646,-3.9516110908372715e-05,-0.0003610987088192929,0.0,0.0,0.0,0.0,0.0,0.0,0.0,-2.9877026876068413e-05,-0.0001545350943567836,2.5033196074920883e-05,0.00023150293450546755,1.404997911901018e-05,-7.120768228396912e-07,-4.814730750202223e-06,0.000673683006696982,-0.00037353265721028716,-0.0006099218613037487,9.737434059250503e-05,-0.0003664181062732646,3.9516110908372715e-05,0.0003610987088192929,0.24825400114059448,22.696680068969727,-0.001620553433895111,-14.207185745239258,-0.2245994210243225,-2.1389803886413574,0.26858848333358765,0
41,0.20002222061157227,-0.24825400114059448,-22.696680068969727,0.001620553433895111,14.207185745239258,0.2245994210243225,2.1389803886413574,-0.26858848333358765,0.0,0.0,0.0,0.0,0.0,0.0,0.0,-0.27438132272261956,0.10621948631447112,-0.050317594373278055,0.3348336981294087,0.0008142854290223444,-0.05020413666696128,-0.2635591520997766,1.6755272317811063,0.05225886191922681,0.029944471913210133,-2.7526263480604736,0.03423075400789579,2.766368666383955,0.7691678680777548,1.6754973547542302,0.052104326824870026,0.029969505109285054,-2.752394845125968,0.0342448039870148,2.7663679543071322,0.7691630533470046,-0.000673683006696982,0.00037353265721028716,0.0006099218613037487,-9.737434059250503e-05,0.0003664181062732646,-3.9516110908372715e-05,-0.0003610987088192929,0.0,0.0,0.0,0.0,0.0,0.0,0.0,-2.9877026876068413e-05,-0.0001545350943567836,2.5033196074920883e-05,0.00023150293450546755,1.404997911901018e-05,-7.120768228396912e-07,-4.814730750202223e-06,0.000673683006696982,-0.00037353265721028716,-0.0006099218613037487,9.737434059250503e-05,-0.0003664181062732646,3.9516110908372715e-05,0.0003610987088192929,0.24825400114059448,22.696680068969727,-0.001620553433895111,-14.207185745239258,-0.2245994210243225,-2.1389803886413574,0.26858848333358765,0
42,0.205031156539917,-0.2998287081718445,-22.748254776000977,0.02542426437139511,14.207185745239258,0.2429099678993225,2.1389803886413574,-0.24112264811992645,0.0,0.0,0.0,0.0,0.0,0.0,0.0,-0.27261713223448936,0.10613883859630445,-0.05243102728952247,0.33864298290183426,0.0003197782702315604,-0.0489854834496115,-0.2631633818321679,1.6755308510587927,0.05226248120895603,0.02994280147735487,-2.7526263480604736,0.03422871950268745,2.766368666383955,0.7691648295637633,1.6754973547542302,0.052104326824870026,0.029969505109285054,-2.752394845125968,0.0342448039870148,2.7663679543071322,0.7691630533470046,0.0008170063733376532,0.0013092304272096784,0.00014062829003022386,-0.0001719162063279402,-0.00027285380044511816,-9.836985866341375e-05,-0.000706297246261454,0.0,0.0,0.0,0.0,0.0,0.0,0.0,-3.349630456250807e-05,-0.00015815438408600668,2.6703631930184712e-05,0.00023150293450546755,1.6084484327348603e-05,-7.120768228396912e-07,-1.776216758675453e-06,-0.0008170063733376532,-0.0013092304272096784,-0.00014062829003022386,0.0001719162063279402,0.00027285380044511816,9.836985866341375e-05,0.000706297246261454,0.2998287081718445,22.748254776000977,-0.02542426437139511,-14.207185745239258,-0.2429099678993225,-2.1389803886413574,0.24112264811992645,0
43,0.21002697944641113,-0.2998287081718445,-22.748254776000977,0.02542426437139511,14.207185745239258,0.2429099678993225,2.1389803886413574,-0.24112264811992645,0.0,0.0,0.0,0.0,0.0,0.0,0.0,-0.27261713223448936,0.10613883859630445,-0.05243102728952247,0.33864298290183426,0.0003197782702315604,-0.0489854834496115,-0.2631633818321679,1.6755308510587927,0.05226248120895603,0.02994280147735487,-2.7526263480604736,0.03422871950268745,2.766368666383955,0.7691648295637633,1.6754973547542302,0.052104326824870026,0.029969505109285054,-2.752394845125968,0.0342448039870148,2.7663679543071322,0.7691630533470046,0.0008170063733376532,0.0013092304272096784,0.00014062829003022386,-0.0001719162063279402,-0.00027285380044511816,-9.836985866341375e-05,-0.000706297246261454,0.0,0.0,0.0,0.0,0.0,0.0,0.0,-3.349630456250807e-05,-0.00015815438408600668,2.6703631930184712e-05,0.00023150293450546755,1.6084484327348603e-05,-7.120768228396912e-07,-1.776216758675453e-06,-0.0008170063733376532,-0.0013092304272096784,-0.00014062829003022386,0.0001719162063279402,0.00027285380044511816,9.836985866341375e-05,0.000706297246261454,0.2998287081718445,22.748254776000977,-0.02542426437139511,-14.207185745239258,-0.2429099678993225,-2.1389803886413574,0.24112264811992645,0
44,0.2150402069091797,-0.24825400114059448,-22.696680068969727,0.001620553433895111,14.207185745239258,0.2365012764930725,2.1325716972351074,-0.22830526530742645,0.0,0.0,0.0,0.0,0.0,0.0,0.0,-0.27719729472199645,0.10345211804869923,-0.055900203926055866,0.3401146584015872,0.0006046517382814107,-0.048078126595766414,-0.2621275866661917,1.6755272317811063,0.052258860955801144,0.029944471913210133,-2.7526263480604736,0.03423050139703378,2.7663693784607783,0.7691634054101174,1.6754973547542302,0.052104326824870026,0.029969505109285054,-2.752394845125968,0.0342448039870148,2.7663679543071322,0.7691630533470046,-0.0010652968480362136,-5.1437355547835804e-05,0.001114372751659982,-2.5121624181969937e-05,-0.00010459777578778228,0.0001598474894322055,-0.0015996741649860215,0.0,0.0,0.0,0.0,0.0,0.0,0.0,-2.9877026876068413e-05,-0.00015453413093111795,2.5033196074920883e-05,0.00023150293450546755,1.4302589981023128e-05,-1.4241536461234716e-06,-3.520631127740259e-07,0.0010652968480362136,5.1437355547835804e-05,-0.001114372751659982,2.5121624181969937e-05,0.00010459777578778228,-0.0001598474894322055,0.0015996741649860215,0.24825400114059448,22.696680068969727,-0.001620553433895111,-14.207185745239258,-0.2365012764930725,-2.1325716972351074,0.22830526530742645,0
45,0.2200009822845459,-0.24825400114059448,-22.696680068969727,0.001620553433895111,14.207185745239258,0.2365012764930725,2.1325716972351074,-0.22830526530742645,0.0,0.0,0.0,0.0,0.0,0.0,0.0,-0.27719729472199645,0.10345211804869923,-0.055900203926055866,0.3401146584015872,0.0006046517382814107,-0.048078126595766414,-0.2621275866661917,1.6755272317811063,0.052258860955801144,0.029944471913210133,-2.7526263480604736,0.03423050139703378,2.7663693784607783,0.7691634054101174,1.6754973547542302,0.052104326824870026,0.029969505109285054,-2.752394845125968,0.0342448039870148,2.7663679543071322,0.7691630533470046,-0.0010652968480362136,-5.1437355547835804e-05,0.001114372751659982,-2.5121624181969937e-05,-0.00010459777578778228,0.0001598474894322055,-0.0015996741649860215,0.0,0.0,0.0,0.0,0.0,0.0,0.0,-2.9877026876068413e-05,-0.00015453413093111795,2.5033196074920883e-05,0.00023150293450546755,1.4302589981023128e-05,-1.4241536461234716e-06,-3.520631127740259e-07,0.0010652968480362136,5.1437355547835804e-05,-0.001114372751659982,2.5121624181969937e-05,0.00010459777578778228,-0.0001598474894322055,0.0015996741649860215,0.24825400114059448,22.696680068969727,-0.001620553433895111,-14.207185745239258,-0.2365012764930725,-2.1325716972351074,0.22830526530742645,0
46,0.22499608993530273,-0.2720577120780945,-22.696680068969727,0.02542426437139511,14.207185745239258,0.2429099678993225,2.1325716972351074,-0.25485557317733765,0.0,0.0,0.0,0.0,0.0,0.0,0.0,-0.27783292298084,0.10337305472681373,-0.05293681185452805,0.3368898377163094,0.00021461032280025187,-0.048434654084899796,-0.2627202312147066,1.6755289022169615,0.05225886193126412,0.02994280147735487,-2.7526263480604736,0.0342287195087266,2.7663693784607783,0.7691663554443252,1.6754973547542302,0.052104326824870026,0.029969505109285054,-2.752394845125968,0.0342448039870148,2.7663679543071322,0.7691630533470046,-3.705934409834029e-05,-8.118053663477743e-05,9.747675914898613e-05,-0.0004161054027337972,-0.0003644305753941339,0.00015506669555494446,-0.0005849280357185846,0.0,0.0,0.0,0.0,0.0,0.0,0.0,-3.1547462731262854e-05,-0.00015453510639409224,2.6703631930184712e-05,0.00023150293450546755,1.6084478288200255e-05,-1.4241536461234716e-06,-3.302097320578845e-06,3.705934409834029e-05,8.118053663477743e-05,-9.747675914898613e-05,0.0004161054027337972,0.0003644305753941339,-0.00015506669555494446,0.0005849280357185846,0.2720577120780945,22.696680068969727,-0.02542426437139511,-14.207185745239258,-0.2429099678993225,-2.1325716972351074,0.25485557317733765,0
47,0.22999215126037598,-0.2720577120780945,-22.696680068969727,0.02542426437139511,14.207185745239258,0.2429099678993225,2.1325716972351074,-0.25485557317733765,0.0,0.0,0.0,0.0,0.0,0.0,0.0,-0.27783292298084,0.10337305472681373,-0.05293681185452805,0.3368898377163094,0.00021461032280025187,-0.048434654084899796,-0.2627202312147066,1.6755289022169615,0.05225886193126412,0.02994280147735487,-2.7526263480604736,0.0342287195087266,2.7663693784607783,0.7691663554443252,1.6754973547542302,0.052104326824870026,0.029969505109285054,-2.752394845125968,0.0342448039870148,2.7663679543071322,0.7691630533470046,-3.705934409834029e-05,-8.118053663477743e-05,9.747675914898613e-05,-0.0004161054027337972,-0.0003644305753941339,0.00015506669555494446,-0.0005849280357185846,0.0,0.0,0.0,0.0,0.0,0.0,0.0,-3.1547462731262854e-05,-0.00015453510639409224,2.6703631930184712e-05,0.00023150293450546755,1.6084478288200255e-05,-1.4241536461234716e-06,-3.302097320578845e-06,3.705934409834029e-05,8.118053663477743e-05,-9.747675914898613e-05,0.0004161054027337972,0.0003644305753941339,-0.00015506669555494446,0.0005849280357185846,0.2720577120780945,22.696680068969727,-0.02542426437139511,-14.207185745239258,-0.2429099678993225,-2.1325716972351074,0.25485557317733765,0
48,0.23500585556030273,-0.24825400114059448,-22.696680068969727,0.02542426437139511,14.207185745239258,0.2365012764930725,2.1389803886413574,-0.26217979192733765,0.0,0.0,0.0,0.0,0.0,0.0,0.0,-0.27882083179190303,0.10224442139369141,-0.05403143566726991,0.33878772670935337,0.0008751734000833252,-0.047658388808603756,-0.26410687232825947,1.6755272317811063,0.05225886193126963,0.02994280147735487,-2.7526263480604736,0.0342294315795104,2.766368666383955,0.7691671692464086,1.6754973547542302,0.052104326824870026,0.029969505109285054,-2.752394845125968,0.0342448039870148,2.7663679543071322,0.7691630533470046,-0.0006573456586542322,0.0001961319198186631,0.0001792249058753035,4.509115413327687e-05,-1.6142493964351765e-05,1.4941149893912657e-05,-0.0005734428531949962,0.0,0.0,0.0,0.0,0.0,0.0,0.0,-2.9877026876068413e-05,-0.00015453510639960172,2.6703631930184712e-05,0.00023150293450546755,1.537240750439789e-05,-7.120768228396912e-07,-4.115899403966949e-06,0.0006573456586542322,-0.0001961319198186631,-0.0001792249058753035,-4.509115413327687e-05,1.6142493964351765e-05,-1.4941149893912657e-05,0.0005734428531949962,0.24825400114059448,22.696680068969727,-0.02542426437139511,-14.207185745239258,-0.2365012764930725,-2.1389803886413574,0.26217979192733765,0
49,0.24001383781433105,-0.24825400114059448,-22.696680068969727,0.02542426437139511,14.207185745239258,0.2365012764930725,2.1389803886413574,-0.26217979192733765,0.0,0.0,0.0,0.0,0.0,0.0,0.0,-0.27882083179190303,0.10224442139369141,-0.05403143566726991,0.33878772670935337,0.0008751734000833252,-0.047658388808603756,-0.26410687232825947,1.6755272317811063,0.05225886193126963,0.02994280147735487,-2.7526263480604736,0.0342294315795104,2.766368666383955,0.7691671692464086,1.6754973547542302,0.052104326824870026,0.029969505109285054,-2.752394845125968,0.0342448039870148,2.7663679543071322,0.7691630533470046,-0.0006573456586542322,0.0001961319198186631,0.0001792249058753035,4.509115413327687e-05,-1.6142493964351765e-05,1.4941149893912657e-05,-0.0005734428531949962,0.0,0.0,0.0,0.0,0.0,0.0,0.0,-2.9877026876068413e-05,-0.00015453510639960172,2.6703631930184712e-05,0.00023150293450546755,1.537240750439789e-05,-7.120768228396912e-07,-4.115899403966949e-06,0.0006573456586542322,-0.0001961319198186631,-0.0001792249058753035,-4.509115413327687e-05,1.6142493964351765e-05,-1.4941149893912657e-05,0.0005734428531949962,0.24825400114059448,22.696680068969727,-0.02542426437139511,-14.207185745239258,-0.2365012764930725,-2.1389803886413574,0.26217979192733765,0
50,0.2450120449066162,-0.3236324191093445,-22.696680068969727,0.02542426437139511,14.179414749145508,0.2310081124305725,2.1389803886413574,-0.24844686686992645,0.0,0.0,0.0,0.0,0.0,0.0,0.0,-0.278251439117621,0.10019225650243617,-0.05403774892155686,0.33833710940281775,0.0015383552459733818,-0.04755274219952662,-0.2643505515185433,1.675532521494648,0.05225886193126963,0.02994280147735487,-2.7526243992186425,0.03423323839253777,2.766368666383955,0.7691656433658466,1.6754973547542302,0.052104326824870026,0.029969505109285054,-2.752394845125968,0.0342448039870148,2.7663679543071322,0.7691630533470046,0.0011312533706848045,-0.00040962474783108794,0.0002689219511215246,0.00026764468826206137,7.485303337098196e-05,-0.0002003336467957319,-0.0005988738760046313,0.0,0.0,0.0,0.0,0.0,0.0,0.0,-3.516674041770251e-05,-0.00015453510639960172,2.6703631930184712e-05,0.00022955409267444438,1.1565594477028207e-05,-7.120768228396912e-07,-2.590018841952535e-06,-0.0011312533706848045,0.00040962474783108794,-0.0002689219511215246,-0.00026764468826206137,-7.485303337098196e-05,0.0002003336467957319,0.0005988738760046313,0.3236324191093445,22.696680068969727,-0.02542426437139511,-14.179414749145508,-0.2310081124305725,-2.1389803886413574,0.24844686686992645,0
51,0.24999427795410156,-0.3236324191093445,-22.696680068969727,0.02542426437139511,14.179414749145508,0.2310081124305725,2.1389803886413574,-0.24844686686992645,0.0,0.0,0.0,0.0,0.0,0.0,0.0,-0.278251439117621,0.10019225650243617,-0.05403774892155686,0.33833710940281775,0.0015383552459733818,-0.04755274219952662,-0.2643505515185433,1.675532521494648,0.05225886193126963,0.02994280147735487,-2.7526243992186425,0.03423323839253777,2.766368666383955,0.7691656433658466,1.6754973547542302,0.052104326824870026,0.029969505109285054,-2.752394845125968,0.0342448039870148,2.7663679543071322,0.7691630533470046,0.0011312533706848045,-0.00040962474783108794,0.0002689219511215246,0.00026764468826206137,7.485303337098196e-05,-0.0002003336467957319,-0.0005988738760046313,0.0,0.0,0.0,0.0,0.0,0.0,0.0,-3.516674041770251e-05,-0.00015453510639960172,2.6703631930184712e-05,0.00022955409267444438,1.1565594477028207e-05,-7.120768228396912e-07,-2.590018841952535e-06,-0.0011312533706848045,0.00040962474783108794,-0.0002689219511215246,-0.00026764468826206137,-7.485303337098196e-05,0.0002003336467957319,0.0005988738760046313,0.3236324191093445,22.696680068969727,-0.02542426437139511,-14.179414749145508,-0.2310081124305725,-2.1389803886413574,0.24844686686992645,0
52,0.25501418113708496,-0.2998287081718445,-22.696680068969727,0.04922797530889511,14.179414749145508,0.2310081124305725,2.1389803886413574,-0.24844686686992645,0.0,0.0,0.0,0.0,0.0,0.0,0.0,-0.28009624451710285,0.0689562820388681,-0.05373930871156974,0.39290336875852655,0.0023043584324270276,-0.03945732827718026,-0.2618595499481853,1.6755308510587927,0.052258835593620524,0.02994113093324039,-2.7526243992186425,0.034230041949116996,2.766368666868472,0.7691656433658466,1.6754973547542302,0.052104326824870026,0.029969505109285054,-2.752394845125968,0.0342448039870148,2.7663679543071322,0.7691630533470046,0.00036061325095437005,-0.0003401392313695029,-0.00023928980981612925,-0.0004106926176365822,1.6287222510648062e-05,-6.643822806936796e-05,-0.0007354361623064317,0.0,0.0,0.0,0.0,0.0,0.0,0.0,-3.349630456250807e-05,-0.0001545087687504984,2.8374176044662636e-05,0.00022955409267444438,1.4762037897804448e-05,-7.1256133971076e-07,-2.590018841952535e-06,-0.00036061325095437005,0.0003401392313695029,0.00023928980981612925,0.0004106926176365822,-1.6287222510648062e-05,6.643822806936796e-05,0.0007354361623064317,0.2998287081718445,22.696680068969727,-0.04922797530889511,-14.179414749145508,-0.2310081124305725,-2.1389803886413574,0.24844686686992645,0
53,0.2600078582763672,-0.2998287081718445,-22.696680068969727,0.04922797530889511,14.179414749145508,0.2310081124305725,2.1389803886413574,-0.24844686686992645,0.0,0.0,0.0,0.0,0.0,0.0,0.0,-0.28009624451710285,0.0689562820388681,-0.05373930871156974,0.39290336875852655,0.0023043584324270276,-0.03945732827718026,-0.2618595499481853,1.6755308510587927,0.052258835593620524,0.02994113093324039,-2.7526243992186425,0.034230041949116996,2.766368666868472,0.7691656433658466,1.6754973547542302,0.052104326824870026,0.029969505109285054,-2.752394845125968,0.0342448039870148,2.7663679543071322,0.7691630533470046,0.00036061325095437005,-0.0003401392313695029,-0.00023928980981612925,-0.0004106926176365822,1.6287222510648062e-05,-6.643822806936796e-05,-0.0007354361623064317,0.0,0.0,0.0,0.0,0.0,0.0,0.0,-3.349630456250807e-05,-0.0001545087687504984,2.8374176044662636e-05,0.00022955409267444438,1.4762037897804448e-05,-7.1256133971076e-07,-2.590018841952535e-06,-0.00036061325095437005,0.0003401392313695029,0.00023928980981612925,0.0004106926176365822,-1.6287222510648062e-05,6.643822806936796e-05,0.0007354361623064317,0.2998287081718445,22.696680068969727,-0.04922797530889511,-14.179414749145508,-0.2310081124305725,-2.1389803886413574,0.24844686686992645,0
54,0.26500964164733887,-0.24825400114059448,-22.720483779907227,0.07303168624639511,14.230989456176758,0.2429099678993225,2.1389803886413574,-0.26858848333358765,0.0,0.0,0.0,0.0,0.0,0.0,0.0,-0.27615086420330354,0.09934200716282593,-0.047658320117572706,0.3427917370116973,0.0004141177180125936,-0.0469090582304343,-0.259799122726812,1.6755272317811063,0.05226053225859083,0.02993946060564373,-2.752628018496329,0.034228719502687556,2.7663686663839577,0.7691678813232314,1.6754973547542302,0.052104326824870026,0.029969505109285054,-2.752394845125968,0.0342448039870148,2.7663679543071322,0.7691630533470046,-0.0005462653018643837,0.0007197374165550138,-0.0003489669456475978,-0.0004642396433126119,-0.0003118933195095755,-3.136600827068893e-05,0.00017984270499380155,0.0,0.0,0.0,0.0,0.0,0.0,0.0,-2.9877026876068413e-05,-0.00015620543372080187,3.0044503641322995e-05,0.00023317337036088404,1.608448432724452e-05,-7.120768255042265e-07,-4.827976226806641e-06,0.0005462653018643837,-0.0007197374165550138,0.0003489669456475978,0.0004642396433126119,0.0003118933195095755,3.136600827068893e-05,-0.00017984270499380155,0.24825400114059448,22.720483779907227,-0.07303168624639511,-14.230989456176758,-0.2429099678993225,-2.1389803886413574,0.26858848333358765,0
55,0.270000696182251,-0.24825400114059448,-22.720483779907227,0.07303168624639511,14.230989456176758,0.2429099678993225,2.1389803886413574,-0.26858848333358765,0.0,0.0,0.0,0.0,0.0,0.0,0.0,-0.27615086420330354,0.09934200716282593,-0.047658320117572706,0.3427917370116973,0.0004141177180125936,-0.0469090582304343,-0.259799122726812,1.6755272317811063,0.05226053225859083,0.02993946060564373,-2.752628018496329,0.034228719502687556,2.7663686663839577,0.7691678813232314,1.6754973547542302,0.052104326824870026,0.029969505109285054,-2.752394845125968,0.0342448039870148,2.7663679543071322,0.7691630533470046,-0.0005462653018643837,0.0007197374165550138,-0.0003489669456475978,-0.0004642396433126119,-0.0003118933195095755,-3.136600827068893e-05,0.00017984270499380155,0.0,0.0,0.0,0.0,0.0,0.0,0.0,-2.9877026876068413e-05,-0.00015620543372080187,3.0044503641322995e-05,0.00023317337036088404,1.608448432724452e-05,-7.120768255042265e-07,-4.827976226806641e-06,0.0005462653018643837,-0.0007197374165550138,0.0003489669456475978,0.0004642396433126119,0.0003118933195095755,3.136600827068893e-05,-0.00017984270499380155,0.24825400114059448,22.720483779907227,-0.07303168624639511,-14.230989456176758,-0.2429099678993225,-2.1389803886413574,0.26858848333358765,0
56,0.2749929428100586,-0.2720577120780945,-22.696680068969727,0.04922797530889511,14.207185745239258,0.2245994210243225,2.1389803886413574,-0.30337852239608765,0.0,0.0,0.0,0.0,0.0,0.0,0.0,-0.27789574175036963,0.11067781987412094,-0.046982354351399684,0.327657903661398,0.00056868827463799,-0.04935182945113488,-0.260567495079229,1.6755289022169615,0.05225886193126902,0.0299411310414996,-2.7526263480604736,0.03423181944092115,2.766368666383955,0.7691717468831273,1.6754973547542302,0.052104326824870026,0.029969505109285054,-2.752394845125968,0.0342448039870148,2.7663679543071322,0.7691630533470046,0.00023171750555295683,0.00032115927542275736,-6.691138200241052e-05,0.00022392123916285947,0.0004378037398840994,-0.00010368083097295159,0.0012843162413829297,0.0,0.0,0.0,0.0,0.0,0.0,0.0,-3.1547462731262854e-05,-0.0001545351063989911,2.8374067785452012e-05,0.00023150293450546755,1.2984546093650073e-05,-7.120768228396912e-07,-8.693536122650336e-06,-0.00023171750555295683,-0.00032115927542275736,6.691138200241052e-05,-0.00022392123916285947,-0.0004378037398840994,0.00010368083097295159,-0.0012843162413829297,0.2720577120780945,22.696680068969727,-0.04922797530889511,-14.207185745239258,-0.2245994210243225,-2.1389803886413574,0.30337852239608765,0
57,0.2799980640411377,-0.2720577120780945,-22.696680068969727,0.04922797530889511,14.207185745239258,0.2245994210243225,2.1389803886413574,-0.30337852239608765,0.0,0.0,0.0,0.0,0.0,0.0,0.0,-0.27789574175036963,0.11067781987412094,-0.046982354351399684,0.327657903661398,0.00056868827463799,-0.04935182945113488,-0.260567495079229,1.6755289022169615,0.05225886193126902,0.0299411310414996,-2.7526263480604736,0.03423181944092115,2.766368666383955,0.7691717468831273,1.6754973547542302,0.052104326824870026,0.029969505109285054,-2.752394845125968,0.0342448039870148,2.7663679543071322,0.7691630533470046,0.00023171750555295683,0.00032115927542275736,-6.691138200241052e-05,0.00022392123916285947,0.0004378037398840994,-0.00010368083097295159,0.0012843162413829297,0.0,0.0,0.0,0.0,0.0,0.0,0.0,-3.1547462731262854e-05,-0.0001545351063989911,2.8374067785452012e-05,0.00023150293450546755,1.2984546093650073e-05,-7.120768228396912e-07,-8.693536122650336e-06,-0.00023171750555295683,-0.00032115927542275736,6.691138200241052e-05,-0.00022392123916285947,-0.0004378037398840994,0.00010368083097295159,-0.0012843162413829297,0.2720577120780945,22.696680068969727,-0.04922797530889511,-14.207185745239258,-0.2245994210243225,-2.1389803886413574,0.30337852239608765,0
58,0.284991979598999,-0.24825400114059448,-22.696680068969727,0.001620553433895111,14.254793167114258,0.2191062569618225,2.1389803886413574,-0.28964561223983765,0.0,0.0,0.0,0.0,0.0,0.0,0.0,-0.27635216960144204,0.10932115571423669,-0.04440075868326021,0.3317166414971264,0.000363583450338729,-0.049229403049036446,-0.26318322861970245,1.6755272317811063,0.05225878288219385,0.02994447191321013,-2.752629688932184,0.03423136436547269,2.766368666383955,0.769170221004221,1.6754973547542302,0.052104326824870026,0.029969505109285054,-2.752394845125968,0.0342448039870148,2.7663679543071322,0.7691630533470046,-0.0003172443034434252,0.00017061789832299558,0.000865086041691296,-0.0008201102117093677,0.00033441684996494985,-0.00021877266076107994,0.0008759623632043903,0.0,0.0,0.0,0.0,0.0,0.0,0.0,-2.9877026876068413e-05,-0.0001544560573238235,2.5033196074924352e-05,0.00023484380621585643,1.3439621542113422e-05,-7.120768228396912e-07,-7.1676572164225405e-06,0.0003172443034434252,-0.00017061789832299558,-0.000865086041691296,0.0008201102117093677,-0.00033441684996494985,0.00021877266076107994,-0.0008759623632043903,0.24825400114059448,22.696680068969727,-0.001620553433895111,-14.254793167114258,-0.2191062569618225,-2.1389803886413574,0.28964561223983765,0
59,0.2900412082672119,-0.24825400114059448,-22.696680068969727,0.001620553433895111,14.254793167114258,0.2191062569618225,2.1389803886413574,-0.28964561223983765,0.0,0.0,0.0,0.0,0.0,0.0,0.0,-0.27635216960144204,0.10932115571423669,-0.04440075868326021,0.3317166414971264,0.000363583450338729,-0.049229403049036446,-0.26318322861970245,1.6755272317811063,0.05225878288219385,0.02994447191321013,-2.752629688932184,0.03423136436547269,2.766368666383955,0.769170221004221,1.6754973547542302,0.052104326824870026,0.029969505109285054,-2.752394845125968,0.0342448039870148,2.7663679543071322,0.7691630533470046,-0.0003172443034434252,0.00017061789832299558,0.000865086041691296,-0.0008201102117093677,0.00033441684996494985,-0.00021877266076107994,0.0008759623632043903,0.0,0.0,0.0,0.0,0.0,0.0,0.0,-2.9877026876068413e-05,-0.0001544560573238235,2.5033196074924352e-05,0.00023484380621585643,1.3439621542113422e-05,-7.120768228396912e-07,-7.1676572164225405e-06,0.0003172443034434252,-0.00017061789832299558,-0.000865086041691296,0.0008201102117093677,-0.00033441684996494985,0.00021877266076107994,-0.0008759623632043903,0.24825400114059448,22.696680068969727,-0.001620553433895111,-14.254793167114258,-0.2191062569618225,-2.1389803886413574,0.28964561223983765,0
60,0.2950148582458496,-0.2720577120780945,-22.696680068969727,0.04922797530889511,14.179414749145508,0.2365012764930725,2.1261630058288574,-0.27591270208358765,0.0,0.0,0.0,0.0,0.0,0.0,0.0,-0.27482502964762956,0.12563624832274467,-0.04568778626352345,0.29987471102109575,-0.0012336281350763527,-0.054793829602625674,-0.26504124099391607,1.6755289022169615,0.05225862489198144,0.0299411310414996,-2.7526243992186425,0.0342294315795104,2.766370090537601,0.7691686951253148,1.6754973547542302,0.052104326824870026,0.029969505109285054,-2.752394845125968,0.0342448039870148,2.7663679543071322,0.7691630533470046,-8.366261074475581e-05,-0.00020477276313389016,-0.0002349812715222559,0.0007631827045717053,-0.000124610127491933,0.00033141090580922236,0.0006217334580796125,0.0,0.0,0.0,0.0,0.0,0.0,0.0,-3.1547462731262854e-05,-0.0001542980671114108,2.8374067785452012e-05,0.00022955409267444438,1.537240750439789e-05,-2.136230468963163e-06,-5.641778310194745e-06,8.366261074475581e-05,0.00020477276313389016,0.0002349812715222559,-0.0007631827045717053,0.000124610127491933,-0.00033141090580922236,-0.0006217334580796125,0.2720577120780945,22.696680068969727,-0.04922797530889511,-14.179414749145508,-0.2365012764930725,-2.1261630058288574,0.27591270208358765,0
61,0.30000782012939453,-0.2720577120780945,-22.696680068969727,0.04922797530889511,14.179414749145508,0.2365012764930725,2.1261630058288574,-0.27591270208358765,0.0,0.0,0.0,0.0,0.0,0.0,0.0,-0.27482502964762956,0.12563624832274467,-0.04568778626352345,0.29987471102109575,-0.0012336281350763527,-0.054793829602625674,-0.26504124099391607,1.6755289022169615,0.05225862489198144,0.0299411310414996,-2.7526243992186425,0.0342294315795104,2.766370090537601,0.7691686951253148,1.6754973547542302,0.052104326824870026,0.029969505109285054,-2.752394845125968,0.0342448039870148,2.7663679543071322,0.7691630533470046,-8.366261074475581e-05,-0.00020477276313389016,-0.0002349812715222559,0.0007631827045717053,-0.000124610127491933,0.00033141090580922236,0.0006217334580796125,0.0,0.0,0.0,0.0,0.0,0.0,0.0,-3.1547462731262854e-05,-0.0001542980671114108,2.8374067785452012e-05,0.00022955409267444438,1.537240750439789e-05,-2.136230468963163e-06,-5.641778310194745e-06,8.366261074475581e-05,0.00020477276313389016,0.0002349812715222559,-0.0007631827045717053,0.000124610127491933,-0.00033141090580922236,-0.0006217334580796125,0.2720577120780945,22.696680068969727,-0.04922797530889511,-14.179414749145508,-0.2365012764930725,-2.1261630058288574,0.27591270208358765,0
62,0.3050076961517334,-0.2720577120780945,-22.720483779907227,0.04922797530889511,14.155611038208008,0.2429099678993225,2.1389803886413574,-0.22098104655742645,0.0,0.0,0.0,0.0,0.0,0.0,0.0,-0.27938677212700486,0.1000136089290793,-0.051047027338978965,0.34579818888470176,-8.324337405380333e-05,-0.04870271896793009,-0.2652169623878389,1.6755289022169615,0.052260532365786795,0.0299411310414996,-2.752622728782787,0.03422871950268745,2.766368666383955,0.7691625916080341,1.6754973547542302,0.052104326824870026,0.029969505109285054,-2.752394845125968,0.0342448039870148,2.7663679543071322,0.7691630533470046,-0.00013244339306205344,0.0005980567439986459,-0.0009788372348247423,0.0013686190757197089,-0.0002967738922965422,-9.82728120928323e-05,-0.0014465086322016155,0.0,0.0,0.0,0.0,0.0,0.0,0.0,-3.1547462731262854e-05,-0.00015620554091676925,2.8374067785452012e-05,0.0002278836568190279,1.6084484327348603e-05,-7.120768228396912e-07,4.617389705030561e-07,0.00013244339306205344,-0.0005980567439986459,0.0009788372348247423,-0.0013686190757197089,0.0002967738922965422,9.82728120928323e-05,0.0014465086322016155,0.2720577120780945,22.720483779907227,-0.04922797530889511,-14.155611038208008,-0.2429099678993225,-2.1389803886413574,0.22098104655742645,0
63,0.31002259254455566,-0.2720577120780945,-22.720483779907227,0.04922797530889511,14.155611038208008,0.2429099678993225,2.1389803886413574,-0.22098104655742645,0.0,0.0,0.0,0.0,0.0,0.0,0.0,-0.27938677212700486,0.1000136089290793,-0.051047027338978965,0.34579818888470176,-8.324337405380333e-05,-0.04870271896793009,-0.2652169623878389,1.6755289022169615,0.052260532365786795,0.0299411310414996,-2.752622728782787,0.03422871950268745,2.766368666383955,0.7691625916080341,1.6754973547542302,0.052104326824870026,0.029969505109285054,-2.752394845125968,0.0342448039870148,2.7663679543071322,0.7691630533470046,-0.00013244339306205344,0.0005980567439986459,-0.0009788372348247423,0.0013686190757197089,-0.0002967738922965422,-9.82728120928323e-05,-0.0014465086322016155,0.0,0.0,0.0,0.0,0.0,0.0,0.0,-3.1547462731262854e-05,-0.00015620554091676925,2.8374067785452012e-05,0.0002278836568190279,1.6084484327348603e-05,-7.120768228396912e-07,4.617389705030561e-07,0.00013244339306205344,-0.0005980567439986459,0.0009788372348247423,-0.0013686190757197089,0.0002967738922965422,9.82728120928323e-05,0.0014465086322016155,0.2720577120780945,22.720483779907227,-0.04922797530889511,-14.155611038208008,-0.2429099678993225,-2.1389803886413574,0.22098104655742645,0
64,0.3150010108947754,-0.2720577120780945,-22.720483779907227,0.04922797530889511,14.155611038208008,0.2429099678993225,2.1389803886413574,-0.22098104655742645,0.0,0.0,0.0,0.0,0.0,0.0,0.0,-0.27938677212700486,0.1000136089290793,-0.051047027338978965,0.34579818888470176,-8.324337405380333e-05,-0.04870271896793009,-0.2652169623878389,1.6755289022169615,0.052260532365786795,0.0299411310414996,-2.752622728782787,0.03422871950268745,2.766368666383955,0.7691625916080341,1.6754973547542302,0.052104326824870026,0.029969505109285054,-2.752394845125968,0.0342448039870148,2.7663679543071322,0.7691630533470046,-0.00013244339306205344,0.0005980567439986459,-0.0009788372348247423,0.0013686190757197089,-0.0002967738922965422,-9.82728120928323e-05,-0.0014465086322016155,0.0,0.0,0.0,0.0,0.0,0.0,0.0,-3.1547462731262854e-05,-0.00015620554091676925,2.8374067785452012e-05,0.0002278836568190279,1.6084484327348603e-05,-7.120768228396912e-07,4.617389705030561e-07,0.00013244339306205344,-0.0005980567439986459,0.0009788372348247423,-0.0013686190757197089,0.0002967738922965422,9.82728120928323e-05,0.0014465086322016155,0.2720577120780945,22.720483779907227,-0.04922797530889511,-14.155611038208008,-0.2429099678993225,-2.1389803886413574,0.22098104655742645,0
65,0.3200256824493408,-0.2720577120780945,-22.720483779907227,0.04922797530889511,14.155611038208008,0.2429099678993225,2.1389803886413574,-0.22098104655742645,0.0,0.0,0.0,0.0,0.0,0.0,0.0,-0.27938677212700486,0.1000136089290793,-0.051047027338978965,0.34579818888470176,-8.324337405380333e-05,-0.04870271896793009,-0.2652169623878389,1.6755289022169615,0.052260532365786795,0.0299411310414996,-2.752622728782787,0.03422871950268745,2.766368666383955,0.7691625916080341,1.6754973547542302,0.052104326824870026,0.029969505109285054,-2.752394845125968,0.0342448039870148,2.7663679543071322,0.7691630533470046,-0.00013244339306205344,0.0005980567439986459,-0.0009788372348247423,0.0013686190757197089,-0.0002967738922965422,-9.82728120928323e-05,-0.0014465086322016155,0.0,0.0,0.0,0.0,0.0,0.0,0.0,-3.1547462731262854e-05,-0.00015620554091676925,2.8374067785452012e-05,0.0002278836568190279,1.6084484327348603e-05,-7.120768228396912e-07,4.617389705030561e-07,0.00013244339306205344,-0.0005980567439986459,0.0009788372348247423,-0.0013686190757197089,0.0002967738922965422,9.82728120928323e-05,0.0014465086322016155,0.2720577120780945,22.720483779907227,-0.04922797530889511,-14.155611038208008,-0.2429099678993225,-2.1389803886413574,0.22098104655742645,0
66,0.3249936103820801,-0.24825400114059448,-22.720483779907227,0.001620553433895111,14.131807327270508,0.2310081124305725,2.1389803886413574,-0.22098104655742645,0.0,0.0,0.0,0.0,0.0,0.0,0.0,-0.27293770040673576,0.10004574211480448,-0.048373398205060536,0.3481681833263252,0.00013198172830251311,-0.0487088602207205,-0.2638062735857019,1.6755272317811063,0.05226052358790852,0.02994447191321013,-2.752621058346932,0.034230046315570924,2.766368666383955,0.7691625916080341,1.6754973547542302,0.052104326824870026,0.029969505109285054,-2.752394845125968,0.0342448039870148,2.7663679543071322,0.7691630533470046,-0.0005764197893329538,0.0009996215283043922,0.0008989475143431279,0.002094192863156203,2.8661657817986933e-05,-4.6574760653107983e-05,-0.0013903011710105228,0.0,0.0,0.0,0.0,0.0,0.0,0.0,-2.9877026876068413e-05,-0.00015619676303849084,2.5033196074924352e-05,0.0002262132209640555,1.4757671443876852e-05,-7.120768228396912e-07,4.617389705030561e-07,0.0005764197893329538,-0.0009996215283043922,-0.0008989475143431279,-0.002094192863156203,-2.8661657817986933e-05,4.6574760653107983e-05,0.0013903011710105228,0.24825400114059448,22.720483779907227,-0.001620553433895111,-14.131807327270508,-0.2310081124305725,-2.1389803886413574,0.22098104655742645,0
67,0.3300156593322754,-0.24825400114059448,-22.720483779907227,0.001620553433895111,14.131807327270508,0.2310081124305725,2.1389803886413574,-0.22098104655742645,0.0,0.0,0.0,0.0,0.0,0.0,0.0,-0.27293770040673576,0.10004574211480448,-0.048373398205060536,0.3481681833263252,0.00013198172830251311,-0.0487088602207205,-0.2638062735857019,1.6755272317811063,0.05226052358790852,0.02994447191321013,-2.752621058346932,0.034230046315570924,2.766368666383955,0.7691625916080341,1.6754973547542302,0.052104326824870026,0.029969505109285054,-2.752394845125968,0.0342448039870148,2.7663679543071322,0.7691630533470046,-0.0005764197893329538,0.0009996215283043922,0.0008989475143431279,0.002094192863156203,2.8661657817986933e-05,-4.6574760653107983e-05,-0.0013903011710105228,0.0,0.0,0.0,0.0,0.0,0.0,0.0,-2.9877026876068413e-05,-0.00015619676303849084,2.5033196074924352e-05,0.0002262132209640555,1.4757671443876852e-05,-7.120768228396912e-07,4.617389705030561e-07,0.0005764197893329538,-0.0009996215283043922,-0.0008989475143431279,-0.002094192863156203,-2.8661657817986933e-05,4.6574760653107983e-05,0.0013903011710105228,0.24825400114059448,22.720483779907227,-0.001620553433895111,-14.131807327270508,-0.2310081124305725,-2.1389803886413574,0.22098104655742645,0
68,0.33504581451416016,-0.2720577120780945,-22.672876358032227,0.04922797530889511,14.179414749145508,0.2310081124305725,2.1453890800476074,-0.26858848333358765,0.0,0.0,0.0,0.0,0.0,0.0,0.0,-0.2767146341924084,0.09702526483964499,-0.05369237433812129,0.3486799066932506,0.0009430499149167688,-0.04871679929797158,-0.261224741220211,1.6755289022169615,0.05225645404118984,0.0299411310414996,-2.7526243992186425,0.034231107364122985,2.7663679543071322,0.7691678813232314,1.6754973547542302,0.052104326824870026,0.029969505109285054,-2.752394845125968,0.0342448039870148,2.7663679543071322,0.7691630533470046,-0.0005032722926612388,-0.0006004848218244911,-0.0007521413636381545,0.0008049952857958338,0.00021225194940032615,-0.0004319803026137007,0.0010108207474893473,0.0,0.0,0.0,0.0,0.0,0.0,0.0,-3.1547462731262854e-05,-0.0001521272163198112,2.8374067785452012e-05,0.00022955409267444438,1.3696622891815058e-05,0.0,-4.827976226806641e-06,0.0005032722926612388,0.0006004848218244911,0.0007521413636381545,-0.0008049952857958338,-0.00021225194940032615,0.0004319803026137007,-0.0010108207474893473,0.2720577120780945,22.672876358032227,-0.04922797530889511,-14.179414749145508,-0.2310081124305725,-2.1453890800476074,0.26858848333358765,0
69,0.34000372886657715,-0.2720577120780945,-22.672876358032227,0.04922797530889511,14.179414749145508,0.2310081124305725,2.1453890800476074,-0.26858848333358765,0.0,0.0,0.0,0.0,0.0,0.0,0.0,-0.2767146341924084,0.09702526483964499,-0.05369237433812129,0.3486799066932506,0.0009430499149167688,-0.04871679929797158,-0.261224741220211,1.6755289022169615,0.05225645404118984,0.0299411310414996,-2.7526243992186425,0.034231107364122985,2.7663679543071322,0.7691678813232314,1.6754973547542302,0.052104326824870026,0.029969505109285054,-2.752394845125968,0.0342448039870148,2.7663679543071322,0.7691630533470046,-0.0005032722926612388,-0.0006004848218244911,-0.0007521413636381545,0.0008049952857958338,0.00021225194940032615,-0.0004319803026137007,0.0010108207474893473,0.0,0.0,0.0,0.0,0.0,0.0,0.0,-3.1547462731262854e-05,-0.0001521272163198112,2.8374067785452012e-05,0.00022955409267444438,1.3696622891815058e-05,0.0,-4.827976226806641e-06,0.0005032722926612388,0.0006004848218244911,0.0007521413636381545,-0.0008049952857958338,-0.00021225194940032615,0.0004319803026137007,-0.0010108207474893473,0.2720577120780945,22.672876358032227,-0.04922797530889511,-14.179414749145508,-0.2310081124305725,-2.1453890800476074,0.26858848333358765,0
70,0.34500837326049805,-0.24825400114059448,-22.696680068969727,0.02542426437139511,14.207185745239258,0.2429099678993225,2.1389803886413574,-0.26217979192733765,0.0,0.0,0.0,0.0,0.0,0.0,0.0,-0.273977676116791,0.10221314045799651,-0.05104756695891586,0.3458439143967227,0.0008643581703585027,-0.050045605654542184,-0.2583279874361327,1.6755272317811063,0.05225886192710668,0.029942801477354865,-2.7526263480604736,0.03422871950870185,2.766368666383955,0.7691671690828842,1.6754973547542302,0.052104326824870026,0.029969505109285054,-2.752394845125968,0.0342448039870148,2.7663679543071322,0.7691630533470046,-0.0009213958251625718,0.0003003986684250682,6.899544163199043e-05,-0.00014924447321080256,-0.00043837226580551163,-0.00015422931117860887,0.00020572840111428043,0.0,0.0,0.0,0.0,0.0,0.0,0.0,-2.9877026876068413e-05,-0.00015453510223665395,2.6703631930188182e-05,0.00023150293450546755,1.608447831295129e-05,-7.120768228396912e-07,-4.115735879550719e-06,0.0009213958251625718,-0.0003003986684250682,-6.899544163199043e-05,0.00014924447321080256,0.00043837226580551163,0.00015422931117860887,-0.00020572840111428043,0.24825400114059448,22.696680068969727,-0.02542426437139511,-14.207185745239258,-0.2429099678993225,-2.1389803886413574,0.26217979192733765,0
71,0.3500213623046875,-0.24825400114059448,-22.696680068969727,0.02542426437139511,14.207185745239258,0.2429099678993225,2.1389803886413574,-0.26217979192733765,0.0,0.0,0.0,0.0,0.0,0.0,0.0,-0.273977676116791,0.10221314045799651,-0.05104756695891586,0.3458439143967227,0.0008643581703585027,-0.050045605654542184,-0.2583279874361327,1.6755272317811063,0.05225886192710668,0.029942801477354865,-2.7526263480604736,0.03422871950870185,2.766368666383955,0.7691671690828842,1.6754973547542302,0.052104326824870026,0.029969505109285054,-2.752394845125968,0.0342448039870148,2.7663679543071322,0.7691630533470046,-0.0009213958251625718,0.0003003986684250682,6.899544163199043e-05,-0.00014924447321080256,-0.00043837226580551163,-0.00015422931117860887,0.00020572840111428043,0.0,0.0,0.0,0.0,0.0,0.0,0.0,-2.9877026876068413e-05,-0.00015453510223665395,2.6703631930188182e-05,0.00023150293450546755,1.608447831295129e-05,-7.120768228396912e-07,-4.115735879550719e-06,0.0009213958251625718,-0.0003003986684250682,-6.899544163199043e-05,0.00014924447321080256,0.00043837226580551163,0.00015422931117860887,-0.00020572840111428043,0.24825400114059448,22.696680068969727,-0.02542426437139511,-14.207185745239258,-0.2429099678993225,-2.1389803886413574,0.26217979192733765,0
72,0.3549988269805908,-0.2720577120780945,-22.720483779907227,0.02542426437139511,14.207185745239258,0.2429099678993225,2.1389803886413574,-0.27591270208358765,0.0,0.0,0.0,0.0,0.0,0.0,0.0,-0.27547046800905156,0.10170894770062498,-0.05252165063613692,0.3450353704126591,0.0010907432889838433,-0.05003441210411864,-0.25676629754883884,1.6755289022169615,0.05226029532828291,0.029942801477354865,-2.7526263480604736,0.03422871950268749,2.766368666383955,0.7691686951253139,1.6754973547542302,0.052104326824870026,0.029969505109285054,-2.752394845125968,0.0342448039870148,2.7663679543071322,0.7691630533470046,-0.00019495339483635335,0.0005774562763287155,-5.40829594244851e-05,-0.0001663389458872898,-0.0003319271924153204,-0.0001711287580481185,0.0012794909561340906,0.0,0.0,0.0,0.0,0.0,0.0,0.0,-3.1547462731262854e-05,-0.00015596850341288715,2.6703631930188182e-05,0.00023150293450546755,1.6084484327313908e-05,-7.120768228396912e-07,-5.6417783093065665e-06,0.00019495339483635335,-0.0005774562763287155,5.40829594244851e-05,0.0001663389458872898,0.0003319271924153204,0.0001711287580481185,-0.0012794909561340906,0.2720577120780945,22.720483779907227,-0.02542426437139511,-14.207185745239258,-0.2429099678993225,-2.1389803886413574,0.27591270208358765,0
73,0.3600020408630371,-0.2720577120780945,-22.720483779907227,0.02542426437139511,14.207185745239258,0.2429099678993225,2.1389803886413574,-0.27591270208358765,0.0,0.0,0.0,0.0,0.0,0.0,0.0,-0.27547046800905156,0.10170894770062498,-0.05252165063613692,0.3450353704126591,0.0010907432889838433,-0.05003441210411864,-0.25676629754883884,1.6755289022169615,0.05226029532828291,0.029942801477354865,-2.7526263480604736,0.03422871950268749,2.766368666383955,0.7691686951253139,1.6754973547542302,0.052104326824870026,0.029969505109285054,-2.752394845125968,0.0342448039870148,2.7663679543071322,0.7691630533470046,-0.00019495339483635335,0.0005774562763287155,-5.40829594244851e-05,-0.0001663389458872898,-0.0003319271924153204,-0.0001711287580481185,0.0012794909561340906,0.0,0.0,0.0,0.0,0.0,0.0,0.0,-3.1547462731262854e-05,-0.00015596850341288715,2.6703631930188182e-05,0.00023150293450546755,1.6084484327313908e-05,-7.120768228396912e-07,-5.6417783093065665e-06,0.00019495339483635335,-0.0005774562763287155,5.40829594244851e-05,0.0001663389458872898,0.0003319271924153204,0.0001711287580481185,-0.0012794909561340906,0.2720577120780945,22.720483779907227,-0.02542426437139511,-14.207185745239258,-0.2429099678993225,-2.1389803886413574,0.27591270208358765,0
74,0.3650038242340088,-0.22445029020309448,-22.748254776000977,0.04922797530889511,14.230989456176758,0.2365012764930725,2.1389803886413574,-0.26217979192733765,0.0,0.0,0.0,0.0,0.0,0.0,0.0,-0.27121589768786314,0.09619166173730054,-0.0479988344258035,0.3482391191190361,0.0007165790581727045,-0.04906926917092443,-0.25539079149137844,1.6755255613452509,0.052262244168775986,0.0299411310414996,-2.752628018496329,0.034232628040975266,2.766368666383955,0.7691671692464086,1.6754973547542302,0.052104326824870026,0.029969505109285054,-2.752394845125968,0.0342448039870148,2.7663679543071322,0.7691630533470046,-0.0008823711104540956,0.0009236867758902218,-8.662374694971602e-05,-0.0005480731967130051,-0.00018562752675017026,-1.0596648008805562e-05,0.00011683870833293191,0.0,0.0,0.0,0.0,0.0,0.0,0.0,-2.8206591020651928e-05,-0.00015791734390595974,2.8374067785452012e-05,0.00023317337036088404,1.2175946039534591e-05,-7.120768228396912e-07,-4.115899403966949e-06,0.0008823711104540956,-0.0009236867758902218,8.662374694971602e-05,0.0005480731967130051,0.00018562752675017026,1.0596648008805562e-05,-0.00011683870833293191,0.22445029020309448,22.748254776000977,-0.04922797530889511,-14.230989456176758,-0.2365012764930725,-2.1389803886413574,0.26217979192733765,0
75,0.37000584602355957,-0.22445029020309448,-22.748254776000977,0.04922797530889511,14.230989456176758,0.2365012764930725,2.1389803886413574,-0.26217979192733765,0.0,0.0,0.0,0.0,0.0,0.0,0.0,-0.27121589768786314,0.09619166173730054,-0.0479988344258035,0.3482391191190361,0.0007165790581727045,-0.04906926917092443,-0.25539079149137844,1.6755255613452509,0.052262244168775986,0.0299411310414996,-2.752628018496329,0.034232628040975266,2.766368666383955,0.7691671692464086,1.6754973547542302,0.052104326824870026,0.029969505109285054,-2.752394845125968,0.0342448039870148,2.7663679543071322,0.7691630533470046,-0.0008823711104540956,0.0009236867758902218,-8.662374694971602e-05,-0.0005480731967130051,-0.00018562752675017026,-1.0596648008805562e-05,0.00011683870833293191,0.0,0.0,0.0,0.0,0.0,0.0,0.0,-2.8206591020651928e-05,-0.00015791734390595974,2.8374067785452012e-05,0.00023317337036088404,1.2175946039534591e-05,-7.120768228396912e-07,-4.115899403966949e-06,0.0008823711104540956,-0.0009236867758902218,8.662374694971602e-05,0.0005480731967130051,0.00018562752675017026,1.0596648008805562e-05,-0.00011683870833293191,0.22445029020309448,22.748254776000977,-0.04922797530889511,-14.230989456176758,-0.2365012764930725,-2.1389803886413574,0.26217979192733765,0
76,0.3750145435333252,-0.22445029020309448,-22.696680068969727,0.04922797530889511,14.179414749145508,0.2310081124305725,2.1325716972351074,-0.23471395671367645,0.0,0.0,0.0,0.0,0.0,0.0,0.0,-0.27757585136476093,0.10140862729820624,-0.05573809227235265,0.34138039057900094,0.001101471661740729,-0.04948479581065848,-0.25676562870531466,1.6755255613452509,0.05225886182154614,0.0299411310414996,-2.7526243992186425,0.034234303681218436,2.7663693784607783,0.7691641174869404,1.6754973547542302,0.052104326824870026,0.029969505109285054,-2.752394845125968,0.0342448039870148,2.7663679543071322,0.7691630533470046,-0.001588363034230526,-6.387212515417903e-05,-0.0006572114492569232,0.0005067236191361293,2.705153489563195e-06,0.0001741071306732712,-0.0008767396451528664,0.0,0.0,0.0,0.0,0.0,0.0,0.0,-2.8206591020651928e-05,-0.00015453499667611448,2.8374067785452012e-05,0.00022955409267444438,1.0500305796364018e-05,-1.4241536461234716e-06,-1.0641399357247394e-06,0.001588363034230526,6.387212515417903e-05,0.0006572114492569232,-0.0005067236191361293,-2.705153489563195e-06,-0.0001741071306732712,0.0008767396451528664,0.22445029020309448,22.696680068969727,-0.04922797530889511,-14.179414749145508,-0.2310081124305725,-2.1325716972351074,0.23471395671367645,0
77,0.3800163269042969,-0.22445029020309448,-22.696680068969727,0.04922797530889511,14.179414749145508,0.2310081124305725,2.1325716972351074,-0.23471395671367645,0.0,0.0,0.0,0.0,0.0,0.0,0.0,-0.27757585136476093,0.10140862729820624,-0.05573809227235265,0.34138039057900094,0.001101471661740729,-0.04948479581065848,-0.25676562870531466,1.6755255613452509,0.05225886182154614,0.0299411310414996,-2.7526243992186425,0.034234303681218436,2.7663693784607783,0.7691641174869404,1.6754973547542302,0.052104326824870026,0.029969505109285054,-2.752394845125968,0.0342448039870148,2.7663679543071322,0.7691630533470046,-0.001588363034230526,-6.387212515417903e-05,-0.0006572114492569232,0.0005067236191361293,2.705153489563195e-06,0.0001741071306732712,-0.0008767396451528664,0.0,0.0,0.0,0.0,0.0,0.0,0.0,-2.8206591020651928e-05,-0.00015453499667611448,2.8374067785452012e-05,0.00022955409267444438,1.0500305796364018e-05,-1.4241536461234716e-06,-1.0641399357247394e-06,0.001588363034230526,6.387212515417903e-05,0.0006572114492569232,-0.0005067236191361293,-2.705153489563195e-06,-0.0001741071306732712,0.0008767396451528664,0.22445029020309448,22.696680068969727,-0.04922797530889511,-14.179414749145508,-0.2310081124305725,-2.1325716972351074,0.23471395671367645,0
78,0.3849947452545166,-0.24825400114059448,-22.696680068969727,0.02542426437139511,14.207185745239258,0.2310081124305725,2.1389803886413574,-0.24112264811992645,0.0,0.0,0.0,0.0,0.0,0.0,0.0,-0.27078068697959706,0.09712778130449576,-0.05069761374744654,0.3418119805419723,0.000176929774550227,-0.04900009244566708,-0.25738059171515937,1.6755272317811063,0.05225886193126901,0.029942801477354865,-2.7526263480604736,0.03423004195513058,2.766368666383955,0.7691648295637633,1.6754973547542302,0.052104326824870026,0.029969505109285054,-2.752394845125968,0.0342448039870148,2.7663679543071322,0.7691630533470046,-0.00013192448361551879,-0.0001383580178946188,7.370448777569342e-05,0.00017349243838969762,0.00015264069903616278,-0.00018999187183423174,-0.001070515647819621,0.0,0.0,0.0,0.0,0.0,0.0,0.0,-2.9877026876068413e-05,-0.00015453510639898416,2.6703631930188182e-05,0.00023150293450546755,1.4762031884218985e-05,-7.120768228396912e-07,-1.776216758675453e-06,0.00013192448361551879,0.0001383580178946188,-7.370448777569342e-05,-0.00017349243838969762,-0.00015264069903616278,0.00018999187183423174,0.001070515647819621,0.24825400114059448,22.696680068969727,-0.02542426437139511,-14.207185745239258,-0.2310081124305725,-2.1389803886413574,0.24112264811992645,0
79,0.3900330066680908,-0.24825400114059448,-22.696680068969727,0.02542426437139511,14.207185745239258,0.2310081124305725,2.1389803886413574,-0.24112264811992645,0.0,0.0,0.0,0.0,0.0,0.0,0.0,-0.27078068697959706,0.09712778130449576,-0.05069761374744654,0.3418119805419723,0.000176929774550227,-0.04900009244566708,-0.25738059171515937,1.6755272317811063,0.05225886193126901,0.029942801477354865,-2.7526263480604736,0.03423004195513058,2.766368666383955,0.7691648295637633,1.6754973547542302,0.052104326824870026,0.029969505109285054,-2.752394845125968,0.0342448039870148,2.7663679543071322,0.7691630533470046,-0.00013192448361551879,-0.0001383580178946188,7.370448777569342e-05,0.00017349243838969762,0.00015264069903616278,-0.00018999187183423174,-0.001070515647819621,0.0,0.0,0.0,0.0,0.0,0.0,0.0,-2.9877026876068413e-05,-0.00015453510639898416,2.6703631930188182e-05,0.00023150293450546755,1.4762031884218985e-05,-7.120768228396912e-07,-1.776216758675453e-06,0.00013192448361551879,0.0001383580178946188,-7.370448777569342e-05,-0.00017349243838969762,-0.00015264069903616278,0.00018999187183423174,0.001070515647819621,0.24825400114059448,22.696680068969727,-0.02542426437139511,-14.207185745239258,-0.2310081124305725,-2.1389803886413574,0.24112264811992645,0
