rezayati/contactInterpretation/dataset/franka_main/labeled_data/link5/c6_1.csv
index,time,tau_J0,tau_J1,tau_J2,tau_J3,tau_J4,tau_J5,tau_J6,tau_J_d0,tau_J_d1,tau_J_d2,tau_J_d3,tau_J_d4,tau_J_d5,tau_J_d6,tau_ext0,tau_ext1,tau_ext2,tau_ext3,tau_ext4,tau_ext5,tau_ext6,q0,q1,q2,q3,q4,q5,q6,q_d0,q_d1,q_d2,q_d3,q_d4,q_d5,q_d6,dq0,dq1,dq2,dq3,dq4,dq5,dq6,dq_d0,dq_d1,dq_d2,dq_d3,dq_d4,dq_d5,dq_d6,e0,e1,e2,e3,e4,e5,e6,de0,de1,de2,de3,de4,de5,de6,etau_J0,etau_J1,etau_J2,etau_J3,etau_J4,etau_J5,etau_J6,label
1,0.0,-0.4505855441093445,-47.27004623413086,-1.0933501720428467,20.876192092895508,0.5404563546180725,2.3394808769226074,-0.28964561223983765,0.0,0.0,0.0,0.0,0.0,0.0,0.0,-0.43917445426076934,-0.4905907928195384,-0.2186976719918675,0.4366664249871404,-0.03822216167118488,0.11182584362806651,-0.3021104924390701,0.062282483798892875,0.6877323220248137,-0.07873260946249236,-1.6205593677320502,0.028170044833071194,2.2878641421529977,0.8466314040753575,0.06226373270833701,0.6884179775783729,-0.07863937525950354,-1.6210372792796082,0.028167345702647853,2.2878312372101677,0.8466366937888992,-8.338379656060648e-05,-0.0005982955977405958,-3.681375057749146e-05,-0.0008096882093751089,-8.633848491199302e-05,-6.449084871073202e-05,-0.00017140563105861857,0.0,0.0,0.0,0.0,0.0,0.0,0.0,-1.8751090555865768e-05,0.0006856555535591502,9.32342029888178e-05,-0.00047791154755794096,-2.6991304233406344e-06,-3.290494283003653e-05,5.2897135416341e-06,8.338379656060648e-05,0.0005982955977405958,3.681375057749146e-05,0.0008096882093751089,8.633848491199302e-05,6.449084871073202e-05,0.00017140563105861857,0.4505855441093445,47.27004623413086,1.0933501720428467,-20.876192092895508,-0.5404563546180725,-2.3394808769226074,0.28964561223983765,0
2,0.004994869232177734,-0.4505855441093445,-47.27004623413086,-1.0933501720428467,20.876192092895508,0.5404563546180725,2.3394808769226074,-0.28964561223983765,0.0,0.0,0.0,0.0,0.0,0.0,0.0,-0.43917445426076934,-0.4905907928195384,-0.2186976719918675,0.4366664249871404,-0.03822216167118488,0.11182584362806651,-0.3021104924390701,0.062282483798892875,0.6877323220248137,-0.07873260946249236,-1.6205593677320502,0.028170044833071194,2.2878641421529977,0.8466314040753575,0.06226373270833701,0.6884179775783729,-0.07863937525950354,-1.6210372792796082,0.028167345702647853,2.2878312372101677,0.8466366937888992,-8.338379656060648e-05,-0.0005982955977405958,-3.681375057749146e-05,-0.0008096882093751089,-8.633848491199302e-05,-6.449084871073202e-05,-0.00017140563105861857,0.0,0.0,0.0,0.0,0.0,0.0,0.0,-1.8751090555865768e-05,0.0006856555535591502,9.32342029888178e-05,-0.00047791154755794096,-2.6991304233406344e-06,-3.290494283003653e-05,5.2897135416341e-06,8.338379656060648e-05,0.0005982955977405958,3.681375057749146e-05,0.0008096882093751089,8.633848491199302e-05,6.449084871073202e-05,0.00017140563105861857,0.4505855441093445,47.27004623413086,1.0933501720428467,-20.876192092895508,-0.5404563546180725,-2.3394808769226074,0.28964561223983765,0
3,0.009993314743041992,-0.4505855441093445,-47.27004623413086,-1.0933501720428467,20.876192092895508,0.5404563546180725,2.3394808769226074,-0.28964561223983765,0.0,0.0,0.0,0.0,0.0,0.0,0.0,-0.43917445426076934,-0.4905907928195384,-0.2186976719918675,0.4366664249871404,-0.03822216167118488,0.11182584362806651,-0.3021104924390701,0.062282483798892875,0.6877323220248137,-0.07873260946249236,-1.6205593677320502,0.028170044833071194,2.2878641421529977,0.8466314040753575,0.06226373270833701,0.6884179775783729,-0.07863937525950354,-1.6210372792796082,0.028167345702647853,2.2878312372101677,0.8466366937888992,-8.338379656060648e-05,-0.0005982955977405958,-3.681375057749146e-05,-0.0008096882093751089,-8.633848491199302e-05,-6.449084871073202e-05,-0.00017140563105861857,0.0,0.0,0.0,0.0,0.0,0.0,0.0,-1.8751090555865768e-05,0.0006856555535591502,9.32342029888178e-05,-0.00047791154755794096,-2.6991304233406344e-06,-3.290494283003653e-05,5.2897135416341e-06,8.338379656060648e-05,0.0005982955977405958,3.681375057749146e-05,0.0008096882093751089,8.633848491199302e-05,6.449084871073202e-05,0.00017140563105861857,0.4505855441093445,47.27004623413086,1.0933501720428467,-20.876192092895508,-0.5404563546180725,-2.3394808769226074,0.28964561223983765,0
4,0.014997243881225586,-0.4505855441093445,-47.27004623413086,-1.0933501720428467,20.876192092895508,0.5404563546180725,2.3394808769226074,-0.28964561223983765,0.0,0.0,0.0,0.0,0.0,0.0,0.0,-0.43917445426076934,-0.4905907928195384,-0.2186976719918675,0.4366664249871404,-0.03822216167118488,0.11182584362806651,-0.3021104924390701,0.062282483798892875,0.6877323220248137,-0.07873260946249236,-1.6205593677320502,0.028170044833071194,2.2878641421529977,0.8466314040753575,0.06226373270833701,0.6884179775783729,-0.07863937525950354,-1.6210372792796082,0.028167345702647853,2.2878312372101677,0.8466366937888992,-8.338379656060648e-05,-0.0005982955977405958,-3.681375057749146e-05,-0.0008096882093751089,-8.633848491199302e-05,-6.449084871073202e-05,-0.00017140563105861857,0.0,0.0,0.0,0.0,0.0,0.0,0.0,-1.8751090555865768e-05,0.0006856555535591502,9.32342029888178e-05,-0.00047791154755794096,-2.6991304233406344e-06,-3.290494283003653e-05,5.2897135416341e-06,8.338379656060648e-05,0.0005982955977405958,3.681375057749146e-05,0.0008096882093751089,8.633848491199302e-05,6.449084871073202e-05,0.00017140563105861857,0.4505855441093445,47.27004623413086,1.0933501720428467,-20.876192092895508,-0.5404563546180725,-2.3394808769226074,0.28964561223983765,0
5,0.019997119903564453,-0.4029781222343445,-47.27004623413086,-1.0933501720428467,20.848421096801758,0.5404563546180725,2.3330721855163574,-0.30978721380233765,0.0,0.0,0.0,0.0,0.0,0.0,0.0,-0.42529763254094705,-0.47231176433927624,-0.2090551421521959,0.4264753754717709,-0.03874227755661537,0.11131839913457281,-0.30169718733883416,0.06227914292718235,0.6877315244662504,-0.07873252944829243,-1.6205575287785654,0.028173540785731817,2.2878647364922506,0.8466336420310868,0.06226373270833701,0.6884179775783729,-0.07863937525950354,-1.6210372792796082,0.028167345702647853,2.2878312372101677,0.8466366937888992,-0.0011352388591014855,-7.871433321561426e-05,-4.423780046031155e-06,0.00013209035433877316,-0.00010458511416169534,-0.00011764633565469404,0.0006995630251458318,0.0,0.0,0.0,0.0,0.0,0.0,0.0,-1.541021884533811e-05,0.0006864531121224537,9.315418878888537e-05,-0.00047975050104276384,-6.195083083963826e-06,-3.349928208296049e-05,3.0517578123445688e-06,0.0011352388591014855,7.871433321561426e-05,4.423780046031155e-06,-0.00013209035433877316,0.00010458511416169534,0.00011764633565469404,-0.0006995630251458318,0.4029781222343445,47.27004623413086,1.0933501720428467,-20.848421096801758,-0.5404563546180725,-2.3330721855163574,0.30978721380233765,0
6,0.02499699592590332,-0.4029781222343445,-47.27004623413086,-1.0933501720428467,20.848421096801758,0.5404563546180725,2.3330721855163574,-0.30978721380233765,0.0,0.0,0.0,0.0,0.0,0.0,0.0,-0.42529763254094705,-0.47231176433927624,-0.2090551421521959,0.4264753754717709,-0.03874227755661537,0.11131839913457281,-0.30169718733883416,0.06227914292718235,0.6877315244662504,-0.07873252944829243,-1.6205575287785654,0.028173540785731817,2.2878647364922506,0.8466336420310868,0.06226373270833701,0.6884179775783729,-0.07863937525950354,-1.6210372792796082,0.028167345702647853,2.2878312372101677,0.8466366937888992,-0.0011352388591014855,-7.871433321561426e-05,-4.423780046031155e-06,0.00013209035433877316,-0.00010458511416169534,-0.00011764633565469404,0.0006995630251458318,0.0,0.0,0.0,0.0,0.0,0.0,0.0,-1.541021884533811e-05,0.0006864531121224537,9.315418878888537e-05,-0.00047975050104276384,-6.195083083963826e-06,-3.349928208296049e-05,3.0517578123445688e-06,0.0011352388591014855,7.871433321561426e-05,4.423780046031155e-06,-0.00013209035433877316,0.00010458511416169534,0.00011764633565469404,-0.0006995630251458318,0.4029781222343445,47.27004623413086,1.0933501720428467,-20.848421096801758,-0.5404563546180725,-2.3330721855163574,0.30978721380233765,0
7,0.03000926971435547,-0.4029781222343445,-47.27004623413086,-1.0695464611053467,20.876192092895508,0.5404563546180725,2.3330721855163574,-0.28964561223983765,0.0,0.0,0.0,0.0,0.0,0.0,0.0,-0.42013276629286395,-0.47121577350458604,-0.20642953391700752,0.42428822601197286,-0.03864967566854429,0.11074591997998472,-0.30165748241530665,0.06227914292718235,0.6877315498988775,-0.07873425329157345,-1.6205593707850736,0.028171573309420873,2.287864854229156,0.8466314040753576,0.06226373270833701,0.6884179775783729,-0.07863937525950354,-1.6210372792796082,0.028167345702647853,2.2878312372101677,0.8466366937888992,-0.0006878920789759967,6.404147525290889e-05,-0.00020940843909344732,-0.0008511168387892078,0.0001880513143891971,-1.942059905493965e-05,-0.000494652658754519,0.0,0.0,0.0,0.0,0.0,0.0,0.0,-1.541021884533811e-05,0.0006864276794953383,9.487803206990886e-05,-0.0004779084945345513,-4.2276067730197264e-06,-3.3617018988518765e-05,5.289713541523078e-06,0.0006878920789759967,-6.404147525290889e-05,0.00020940843909344732,0.0008511168387892078,-0.0001880513143891971,1.942059905493965e-05,0.000494652658754519,0.4029781222343445,47.27004623413086,1.0695464611053467,-20.876192092895508,-0.5404563546180725,-2.3330721855163574,0.28964561223983765,0
8,0.035045623779296875,-0.4029781222343445,-47.27004623413086,-1.0695464611053467,20.876192092895508,0.5404563546180725,2.3330721855163574,-0.28964561223983765,0.0,0.0,0.0,0.0,0.0,0.0,0.0,-0.42013276629286395,-0.47121577350458604,-0.20642953391700752,0.42428822601197286,-0.03864967566854429,0.11074591997998472,-0.30165748241530665,0.06227914292718235,0.6877315498988775,-0.07873425329157345,-1.6205593707850736,0.028171573309420873,2.287864854229156,0.8466314040753576,0.06226373270833701,0.6884179775783729,-0.07863937525950354,-1.6210372792796082,0.028167345702647853,2.2878312372101677,0.8466366937888992,-0.0006878920789759967,6.404147525290889e-05,-0.00020940843909344732,-0.0008511168387892078,0.0001880513143891971,-1.942059905493965e-05,-0.000494652658754519,0.0,0.0,0.0,0.0,0.0,0.0,0.0,-1.541021884533811e-05,0.0006864276794953383,9.487803206990886e-05,-0.0004779084945345513,-4.2276067730197264e-06,-3.3617018988518765e-05,5.289713541523078e-06,0.0006878920789759967,-6.404147525290889e-05,0.00020940843909344732,0.0008511168387892078,-0.0001880513143891971,1.942059905493965e-05,0.000494652658754519,0.4029781222343445,47.27004623413086,1.0695464611053467,-20.876192092895508,-0.5404563546180725,-2.3330721855163574,0.28964561223983765,0
9,0.0400080680847168,-0.4029781222343445,-47.27004623413086,-1.0417754650115967,20.876192092895508,0.5459495186805725,2.3330721855163574,-0.28964561223983765,0.0,0.0,0.0,0.0,0.0,0.0,0.0,-0.4244770459232636,-0.4747931621806305,-0.2090528633305881,0.42636514565106165,-0.038136236144244384,0.11147900940530135,-0.30115643179718266,0.06227914292718235,0.6877343854121635,-0.0787359100142683,-1.620561684545752,0.028169894464698822,2.2878648542298206,0.8466313997147069,0.06226373270833701,0.6884179775783729,-0.07863937525950354,-1.6210372792796082,0.028167345702647853,2.2878312372101677,0.8466366937888992,-0.0005344860498000364,0.0004412280594547232,-0.0007954600367424938,-0.0005624445308464228,-8.360851276179817e-05,0.00017289568111517831,-0.0004716299947737854,0.0,0.0,0.0,0.0,0.0,0.0,0.0,-1.541021884533811e-05,0.0006835921662093902,9.653475476475992e-05,-0.00047559473385616613,-2.548762050968989e-06,-3.361701965287622e-05,5.294074192252474e-06,0.0005344860498000364,-0.0004412280594547232,0.0007954600367424938,0.0005624445308464228,8.360851276179817e-05,-0.00017289568111517831,0.0004716299947737854,0.4029781222343445,47.27004623413086,1.0417754650115967,-20.876192092895508,-0.5459495186805725,-2.3330721855163574,0.28964561223983765,0
10,0.04500293731689453,-0.4029781222343445,-47.27004623413086,-1.0417754650115967,20.876192092895508,0.5459495186805725,2.3330721855163574,-0.28964561223983765,0.0,0.0,0.0,0.0,0.0,0.0,0.0,-0.4244770459232636,-0.4747931621806305,-0.2090528633305881,0.42636514565106165,-0.038136236144244384,0.11147900940530135,-0.30115643179718266,0.06227914292718235,0.6877343854121635,-0.0787359100142683,-1.620561684545752,0.028169894464698822,2.2878648542298206,0.8466313997147069,0.06226373270833701,0.6884179775783729,-0.07863937525950354,-1.6210372792796082,0.028167345702647853,2.2878312372101677,0.8466366937888992,-0.0005344860498000364,0.0004412280594547232,-0.0007954600367424938,-0.0005624445308464228,-8.360851276179817e-05,0.00017289568111517831,-0.0004716299947737854,0.0,0.0,0.0,0.0,0.0,0.0,0.0,-1.541021884533811e-05,0.0006835921662093902,9.653475476475992e-05,-0.00047559473385616613,-2.548762050968989e-06,-3.361701965287622e-05,5.294074192252474e-06,0.0005344860498000364,-0.0004412280594547232,0.0007954600367424938,0.0005624445308464228,8.360851276179817e-05,-0.00017289568111517831,0.0004716299947737854,0.4029781222343445,47.27004623413086,1.0417754650115967,-20.876192092895508,-0.5459495186805725,-2.3330721855163574,0.28964561223983765,0
11,0.049997568130493164,-0.4267818331718445,-47.21847152709961,-1.0179717540740967,20.824617385864258,0.5459495186805725,2.3266634941101074,-0.34457725286483765,0.0,0.0,0.0,0.0,0.0,0.0,0.0,-0.41954402200529967,-0.4754932210288886,-0.20507024274902927,0.425931479065109,-0.037839298466843835,0.11176354045202744,-0.30170348347807396,0.06228081336303761,0.6877288931419754,-0.07873931833358923,-1.6205557484673898,0.028170841791618256,2.2878655663066434,0.846637507590958,0.06226373270833701,0.6884179775783729,-0.07863937525950354,-1.6210372792796082,0.028167345702647853,2.2878312372101677,0.8466366937888992,0.0007606532629274926,-0.0008125117073312655,-0.0009320865142831045,0.0007656750795813187,-0.0001239669546441345,-0.00010780312474875549,0.0015571101145495524,0.0,0.0,0.0,0.0,0.0,0.0,0.0,-1.7080654700601938e-05,0.0006890844363974802,9.994307408568714e-05,-0.0004815308122183559,-3.4960889704026277e-06,-3.4329096475715914e-05,-8.138020588521755e-07,-0.0007606532629274926,0.0008125117073312655,0.0009320865142831045,-0.0007656750795813187,0.0001239669546441345,0.00010780312474875549,-0.0015571101145495524,0.4267818331718445,47.21847152709961,1.0179717540740967,-20.824617385864258,-0.5459495186805725,-2.3266634941101074,0.34457725286483765,0
12,0.05499434471130371,-0.4267818331718445,-47.21847152709961,-1.0179717540740967,20.824617385864258,0.5459495186805725,2.3266634941101074,-0.34457725286483765,0.0,0.0,0.0,0.0,0.0,0.0,0.0,-0.41954402200529967,-0.4754932210288886,-0.20507024274902927,0.425931479065109,-0.037839298466843835,0.11176354045202744,-0.30170348347807396,0.06228081336303761,0.6877288931419754,-0.07873931833358923,-1.6205557484673898,0.028170841791618256,2.2878655663066434,0.846637507590958,0.06226373270833701,0.6884179775783729,-0.07863937525950354,-1.6210372792796082,0.028167345702647853,2.2878312372101677,0.8466366937888992,0.0007606532629274926,-0.0008125117073312655,-0.0009320865142831045,0.0007656750795813187,-0.0001239669546441345,-0.00010780312474875549,0.0015571101145495524,0.0,0.0,0.0,0.0,0.0,0.0,0.0,-1.7080654700601938e-05,0.0006890844363974802,9.994307408568714e-05,-0.0004815308122183559,-3.4960889704026277e-06,-3.4329096475715914e-05,-8.138020588521755e-07,-0.0007606532629274926,0.0008125117073312655,0.0009320865142831045,-0.0007656750795813187,0.0001239669546441345,0.00010780312474875549,-0.0015571101145495524,0.4267818331718445,47.21847152709961,1.0179717540740967,-20.824617385864258,-0.5459495186805725,-2.3266634941101074,0.34457725286483765,0
13,0.059996843338012695,-0.3752071261405945,-47.27004623413086,-1.1171538829803467,20.876192092895508,0.5404563546180725,2.3330721855163574,-0.32352012395858765,0.0,0.0,0.0,0.0,0.0,0.0,0.0,-0.4187439030396939,-0.4621624440946618,-0.20406473421898658,0.42138371110389394,-0.037586094859627904,0.11002817261086702,-0.30320336273539733,0.062277194085351206,0.6877317621227904,-0.07873306657010688,-1.6205601949474429,0.02816999208270981,2.2878648541759854,0.8466351664564428,0.06226373270833701,0.6884179775783729,-0.07863937525950354,-1.6210372792796082,0.028167345702647853,2.2878312372101677,0.8466366937888992,-0.0004274881190930979,0.0010160788411392922,0.0013930143653565837,-0.0007633663890111354,-1.5664051475650285e-05,6.169004282839e-05,0.0006606343616945695,0.0,0.0,0.0,0.0,0.0,0.0,0.0,-1.3461377014196974e-05,0.0006862154555824507,9.369131060334157e-05,-0.00047708433216531176,-2.6463800619561106e-06,-3.361696581771767e-05,1.5273324563969126e-06,0.0004274881190930979,-0.0010160788411392922,-0.0013930143653565837,0.0007633663890111354,1.5664051475650285e-05,-6.169004282839e-05,-0.0006606343616945695,0.3752071261405945,47.27004623413086,1.1171538829803467,-20.876192092895508,-0.5404563546180725,-2.3330721855163574,0.32352012395858765,0
14,0.06499767303466797,-0.3752071261405945,-47.27004623413086,-1.1171538829803467,20.876192092895508,0.5404563546180725,2.3330721855163574,-0.32352012395858765,0.0,0.0,0.0,0.0,0.0,0.0,0.0,-0.4187439030396939,-0.4621624440946618,-0.20406473421898658,0.42138371110389394,-0.037586094859627904,0.11002817261086702,-0.30320336273539733,0.062277194085351206,0.6877317621227904,-0.07873306657010688,-1.6205601949474429,0.02816999208270981,2.2878648541759854,0.8466351664564428,0.06226373270833701,0.6884179775783729,-0.07863937525950354,-1.6210372792796082,0.028167345702647853,2.2878312372101677,0.8466366937888992,-0.0004274881190930979,0.0010160788411392922,0.0013930143653565837,-0.0007633663890111354,-1.5664051475650285e-05,6.169004282839e-05,0.0006606343616945695,0.0,0.0,0.0,0.0,0.0,0.0,0.0,-1.3461377014196974e-05,0.0006862154555824507,9.369131060334157e-05,-0.00047708433216531176,-2.6463800619561106e-06,-3.361696581771767e-05,1.5273324563969126e-06,0.0004274881190930979,-0.0010160788411392922,-0.0013930143653565837,0.0007633663890111354,1.5664051475650285e-05,-6.169004282839e-05,-0.0006606343616945695,0.3752071261405945,47.27004623413086,1.1171538829803467,-20.876192092895508,-0.5404563546180725,-2.3330721855163574,0.32352012395858765,0
15,0.06999707221984863,-0.4267818331718445,-47.24624252319336,-1.1171538829803467,20.824617385864258,0.5459495186805725,2.3266634941101074,-0.30978721380233765,0.0,0.0,0.0,0.0,0.0,0.0,0.0,-0.4299468857013197,-0.48048674691729787,-0.21380276406348114,0.43191426218517576,-0.03697523682989067,0.11179758573431671,-0.30436133106816937,0.06228081336303761,0.6877306477020075,-0.07873283215682746,-1.6205557576163476,0.028174155073275378,2.2878655663066434,0.8466336405775283,0.06226373270833701,0.6884179775783729,-0.07863937525950354,-1.6210372792796082,0.028167345702647853,2.2878312372101677,0.8466366937888992,0.00025949059374017245,-0.00026133288223800593,0.0008282937948814999,0.0003711679730322736,-0.0002861829308608296,0.00033917147734534525,-9.449421677282576e-05,0.0,0.0,0.0,0.0,0.0,0.0,0.0,-1.7080654700601938e-05,0.0006873298763653279,9.345689732391527e-05,-0.00048152166326054235,-6.80937062752518e-06,-3.4329096475715914e-05,3.0532113708403585e-06,-0.00025949059374017245,0.00026133288223800593,-0.0008282937948814999,-0.0003711679730322736,0.0002861829308608296,-0.00033917147734534525,9.449421677282576e-05,0.4267818331718445,47.24624252319336,1.1171538829803467,-20.824617385864258,-0.5459495186805725,-2.3266634941101074,0.30978721380233765,0
16,0.07499980926513672,-0.4267818331718445,-47.24624252319336,-1.1171538829803467,20.824617385864258,0.5459495186805725,2.3266634941101074,-0.30978721380233765,0.0,0.0,0.0,0.0,0.0,0.0,0.0,-0.4299468857013197,-0.48048674691729787,-0.21380276406348114,0.43191426218517576,-0.03697523682989067,0.11179758573431671,-0.30436133106816937,0.06228081336303761,0.6877306477020075,-0.07873283215682746,-1.6205557576163476,0.028174155073275378,2.2878655663066434,0.8466336405775283,0.06226373270833701,0.6884179775783729,-0.07863937525950354,-1.6210372792796082,0.028167345702647853,2.2878312372101677,0.8466366937888992,0.00025949059374017245,-0.00026133288223800593,0.0008282937948814999,0.0003711679730322736,-0.0002861829308608296,0.00033917147734534525,-9.449421677282576e-05,0.0,0.0,0.0,0.0,0.0,0.0,0.0,-1.7080654700601938e-05,0.0006873298763653279,9.345689732391527e-05,-0.00048152166326054235,-6.80937062752518e-06,-3.4329096475715914e-05,3.0532113708403585e-06,-0.00025949059374017245,0.00026133288223800593,-0.0008282937948814999,-0.0003711679730322736,0.0002861829308608296,-0.00033917147734534525,9.449421677282576e-05,0.4267818331718445,47.24624252319336,1.1171538829803467,-20.824617385864258,-0.5459495186805725,-2.3266634941101074,0.30978721380233765,0
17,0.08000874519348145,-0.4267818331718445,-47.29384994506836,-1.0417754650115967,20.848421096801758,0.5459495186805725,2.3394808769226074,-0.33084434270858765,0.0,0.0,0.0,0.0,0.0,0.0,0.0,-0.4152255226145529,-0.470240191687497,-0.20315924404422844,0.42607853048460537,-0.03718221700500805,0.11162294055379583,-0.30488056397940183,0.06228081336303761,0.6877354191610089,-0.07873835834324915,-1.6205574188902185,0.02816942032926567,2.2878641421529977,0.8466359817120682,0.06226373270833701,0.6884179775783729,-0.07863937525950354,-1.6210372792796082,0.028167345702647853,2.2878312372101677,0.8466366937888992,0.00012800896921315942,0.0008027714011356625,-0.0008734692384975681,-0.0003818031763057131,-0.00026635507817252327,-0.000222166549359259,0.0006987266021124482,0.0,0.0,0.0,0.0,0.0,0.0,0.0,-1.7080654700601938e-05,0.0006825584173639765,9.89830837456046e-05,-0.00047986038938963027,-2.0746266178178763e-06,-3.290494283003653e-05,7.120768309443193e-07,-0.00012800896921315942,-0.0008027714011356625,0.0008734692384975681,0.0003818031763057131,0.00026635507817252327,0.000222166549359259,-0.0006987266021124482,0.4267818331718445,47.29384994506836,1.0417754650115967,-20.848421096801758,-0.5459495186805725,-2.3394808769226074,0.33084434270858765,0
18,0.08501100540161133,-0.4267818331718445,-47.29384994506836,-1.0417754650115967,20.848421096801758,0.5459495186805725,2.3394808769226074,-0.33084434270858765,0.0,0.0,0.0,0.0,0.0,0.0,0.0,-0.4152255226145529,-0.470240191687497,-0.20315924404422844,0.42607853048460537,-0.03718221700500805,0.11162294055379583,-0.30488056397940183,0.06228081336303761,0.6877354191610089,-0.07873835834324915,-1.6205574188902185,0.02816942032926567,2.2878641421529977,0.8466359817120682,0.06226373270833701,0.6884179775783729,-0.07863937525950354,-1.6210372792796082,0.028167345702647853,2.2878312372101677,0.8466366937888992,0.00012800896921315942,0.0008027714011356625,-0.0008734692384975681,-0.0003818031763057131,-0.00026635507817252327,-0.000222166549359259,0.0006987266021124482,0.0,0.0,0.0,0.0,0.0,0.0,0.0,-1.7080654700601938e-05,0.0006825584173639765,9.89830837456046e-05,-0.00047986038938963027,-2.0746266178178763e-06,-3.290494283003653e-05,7.120768309443193e-07,-0.00012800896921315942,-0.0008027714011356625,0.0008734692384975681,0.0003818031763057131,0.00026635507817252327,0.000222166549359259,-0.0006987266021124482,0.4267818331718445,47.29384994506836,1.0417754650115967,-20.848421096801758,-0.5459495186805725,-2.3394808769226074,0.33084434270858765,0
19,0.09021854400634766,-0.4267818331718445,-47.27004623413086,-1.0933501720428467,20.876192092895508,0.5340476632118225,2.3202548027038574,-0.26217979192733765,0.0,0.0,0.0,0.0,0.0,0.0,0.0,-0.40996950866926457,-0.48318713826762877,-0.19946259221022145,0.431320462227434,-0.0371846948828963,0.11277457537501376,-0.3050671916280368,0.06228081336303761,0.6877325859657101,-0.07873181137696733,-1.620559395241782,0.028172280604874443,2.2878662783834667,0.8466251734031571,0.06226373270833701,0.6884179775783729,-0.07863937525950354,-1.6210372792796082,0.028167345702647853,2.2878312372101677,0.8466366937888992,0.0005018836440933154,-0.000503164548588998,0.00046632276775175987,-0.0006341376831748713,0.0001442964460830704,0.0005342014341484153,-0.001535846471195878,0.0,0.0,0.0,0.0,0.0,0.0,0.0,-1.7080654700601938e-05,0.000685391612662789,9.243611746378999e-05,-0.0004778840378261151,-4.934902226590154e-06,-3.5041173298999695e-05,1.152038574203651e-05,-0.0005018836440933154,0.000503164548588998,-0.00046632276775175987,0.0006341376831748713,-0.0001442964460830704,-0.0005342014341484153,0.001535846471195878,0.4267818331718445,47.27004623413086,1.0933501720428467,-20.876192092895508,-0.5340476632118225,-2.3202548027038574,0.26217979192733765,0
20,0.09499955177307129,-0.4267818331718445,-47.27004623413086,-1.0933501720428467,20.876192092895508,0.5340476632118225,2.3202548027038574,-0.26217979192733765,0.0,0.0,0.0,0.0,0.0,0.0,0.0,-0.40996950866926457,-0.48318713826762877,-0.19946259221022145,0.431320462227434,-0.0371846948828963,0.11277457537501376,-0.3050671916280368,0.06228081336303761,0.6877325859657101,-0.07873181137696733,-1.620559395241782,0.028172280604874443,2.2878662783834667,0.8466251734031571,0.06226373270833701,0.6884179775783729,-0.07863937525950354,-1.6210372792796082,0.028167345702647853,2.2878312372101677,0.8466366937888992,0.0005018836440933154,-0.000503164548588998,0.00046632276775175987,-0.0006341376831748713,0.0001442964460830704,0.0005342014341484153,-0.001535846471195878,0.0,0.0,0.0,0.0,0.0,0.0,0.0,-1.7080654700601938e-05,0.000685391612662789,9.243611746378999e-05,-0.0004778840378261151,-4.934902226590154e-06,-3.5041173298999695e-05,1.152038574203651e-05,-0.0005018836440933154,0.000503164548588998,-0.00046632276775175987,0.0006341376831748713,-0.0001442964460830704,-0.0005342014341484153,0.001535846471195878,0.4267818331718445,47.27004623413086,1.0933501720428467,-20.876192092895508,-0.5340476632118225,-2.3202548027038574,0.26217979192733765,0
21,0.10000395774841309,-0.4505855441093445,-47.29384994506836,-1.0695464611053467,20.777009963989258,0.5340476632118225,2.3394808769226074,-0.26858848333358765,0.0,0.0,0.0,0.0,0.0,0.0,0.0,-0.42726343411356527,-0.45871757554670306,-0.21138773951833376,0.41679060069694696,-0.03755030404841914,0.11039961223872205,-0.30370792853775885,0.062282483798892875,0.687735423305139,-0.07873613797212475,-1.6205526562259847,0.028174055970047455,2.2878641421529977,0.8466290643764229,0.06226373270833701,0.6884179775783729,-0.07863937525950354,-1.6210372792796082,0.028167345702647853,2.2878312372101677,0.8466366937888992,9.21323892812928e-05,0.0010750764607119496,-0.00022919046748195546,0.0012747692045237083,0.0002910994261972696,-6.118210742760884e-05,-0.001647027717329445,0.0,0.0,0.0,0.0,0.0,0.0,0.0,-1.8751090555865768e-05,0.0006825542732338263,9.676271262121228e-05,-0.0004846230536235119,-6.71026739960251e-06,-3.290494283003653e-05,7.629412476228836e-06,-9.21323892812928e-05,-0.0010750764607119496,0.00022919046748195546,-0.0012747692045237083,-0.0002910994261972696,6.118210742760884e-05,0.001647027717329445,0.4505855441093445,47.29384994506836,1.0695464611053467,-20.777009963989258,-0.5340476632118225,-2.3394808769226074,0.26858848333358765,0
22,0.10500884056091309,-0.4505855441093445,-47.29384994506836,-1.0695464611053467,20.777009963989258,0.5340476632118225,2.3394808769226074,-0.26858848333358765,0.0,0.0,0.0,0.0,0.0,0.0,0.0,-0.42726343411356527,-0.45871757554670306,-0.21138773951833376,0.41679060069694696,-0.03755030404841914,0.11039961223872205,-0.30370792853775885,0.062282483798892875,0.687735423305139,-0.07873613797212475,-1.6205526562259847,0.028174055970047455,2.2878641421529977,0.8466290643764229,0.06226373270833701,0.6884179775783729,-0.07863937525950354,-1.6210372792796082,0.028167345702647853,2.2878312372101677,0.8466366937888992,9.21323892812928e-05,0.0010750764607119496,-0.00022919046748195546,0.0012747692045237083,0.0002910994261972696,-6.118210742760884e-05,-0.001647027717329445,0.0,0.0,0.0,0.0,0.0,0.0,0.0,-1.8751090555865768e-05,0.0006825542732338263,9.676271262121228e-05,-0.0004846230536235119,-6.71026739960251e-06,-3.290494283003653e-05,7.629412476228836e-06,-9.21323892812928e-05,-0.0010750764607119496,0.00022919046748195546,-0.0012747692045237083,-0.0002910994261972696,6.118210742760884e-05,0.001647027717329445,0.4505855441093445,47.29384994506836,1.0695464611053467,-20.777009963989258,-0.5340476632118225,-2.3394808769226074,0.26858848333358765,0
23,0.11008262634277344,-0.4505855441093445,-47.24624252319336,-1.0933501720428467,20.876192092895508,0.5340476632118225,2.3330721855163574,-0.28964561223983765,0.0,0.0,0.0,0.0,0.0,0.0,0.0,-0.41969685701942827,-0.48197153502479656,-0.20552092981070913,0.42962625624957484,-0.03735214946806564,0.11300407991198451,-0.3028164498954897,0.062282483798892875,0.6877301003062227,-0.07873466144351055,-1.6205593721801885,0.02817188655081758,2.28786484986917,0.8466314040753575,0.06226373270833701,0.6884179775783729,-0.07863937525950354,-1.6210372792796082,0.028167345702647853,2.2878312372101677,0.8466366937888992,0.0006452900378158917,-0.0004039439122396099,-0.0002363543515512267,-0.0006662582176523329,0.00030279532134451384,0.000213554448768059,2.0753655335875314e-05,0.0,0.0,0.0,0.0,0.0,0.0,0.0,-1.8751090555865768e-05,0.0006878772721501392,9.528618400700406e-05,-0.0004779070994196388,-4.540848169726219e-06,-3.361265900236887e-05,5.2897135416341e-06,-0.0006452900378158917,0.0004039439122396099,0.0002363543515512267,0.0006662582176523329,-0.00030279532134451384,-0.000213554448768059,-2.0753655335875314e-05,0.4505855441093445,47.24624252319336,1.0933501720428467,-20.876192092895508,-0.5340476632118225,-2.3330721855163574,0.28964561223983765,0
24,0.11500144004821777,-0.4505855441093445,-47.24624252319336,-1.0933501720428467,20.876192092895508,0.5340476632118225,2.3330721855163574,-0.28964561223983765,0.0,0.0,0.0,0.0,0.0,0.0,0.0,-0.41969685701942827,-0.48197153502479656,-0.20552092981070913,0.42962625624957484,-0.03735214946806564,0.11300407991198451,-0.3028164498954897,0.062282483798892875,0.6877301003062227,-0.07873466144351055,-1.6205593721801885,0.02817188655081758,2.28786484986917,0.8466314040753575,0.06226373270833701,0.6884179775783729,-0.07863937525950354,-1.6210372792796082,0.028167345702647853,2.2878312372101677,0.8466366937888992,0.0006452900378158917,-0.0004039439122396099,-0.0002363543515512267,-0.0006662582176523329,0.00030279532134451384,0.000213554448768059,2.0753655335875314e-05,0.0,0.0,0.0,0.0,0.0,0.0,0.0,-1.8751090555865768e-05,0.0006878772721501392,9.528618400700406e-05,-0.0004779070994196388,-4.540848169726219e-06,-3.361265900236887e-05,5.2897135416341e-06,-0.0006452900378158917,0.0004039439122396099,0.0002363543515512267,0.0006662582176523329,-0.00030279532134451384,-0.000213554448768059,-2.0753655335875314e-05,0.4505855441093445,47.24624252319336,1.0933501720428467,-20.876192092895508,-0.5340476632118225,-2.3330721855163574,0.28964561223983765,0
25,0.11999726295471191,-0.4267818331718445,-47.24624252319336,-1.1409575939178467,20.848421096801758,0.5459495186805725,2.3266634941101074,-0.26217979192733765,0.0,0.0,0.0,0.0,0.0,0.0,0.0,-0.428538664686471,-0.4840516954179519,-0.21436561506829643,0.4300317840212542,-0.03699533096247382,0.11331675650006699,-0.3011082853252829,0.06228081336303761,0.6877319988496874,-0.07872831172464244,-1.6205576661390888,0.02817049853059144,2.2878655268992567,0.8466283508639949,0.06226373270833701,0.6884179775783729,-0.07863937525950354,-1.6210372792796082,0.028167345702647853,2.2878312372101677,0.8466366937888992,-0.00044939735222271777,-0.0006987935108248588,0.0010131246985583897,4.087583692984961e-05,-0.0001830855568992547,2.6731783288466544e-05,-0.0016572219498029136,0.0,0.0,0.0,0.0,0.0,0.0,0.0,-1.7080654700601938e-05,0.0006859787286854768,8.893646513889741e-05,-0.00047961314051936377,-3.1528279435880102e-06,-3.428968908902874e-05,8.342924904258808e-06,0.00044939735222271777,0.0006987935108248588,-0.0010131246985583897,-4.087583692984961e-05,0.0001830855568992547,-2.6731783288466544e-05,0.0016572219498029136,0.4267818331718445,47.24624252319336,1.1409575939178467,-20.848421096801758,-0.5459495186805725,-2.3266634941101074,0.26217979192733765,0
26,0.12499618530273438,-0.4267818331718445,-47.24624252319336,-1.1409575939178467,20.848421096801758,0.5459495186805725,2.3266634941101074,-0.26217979192733765,0.0,0.0,0.0,0.0,0.0,0.0,0.0,-0.428538664686471,-0.4840516954179519,-0.21436561506829643,0.4300317840212542,-0.03699533096247382,0.11331675650006699,-0.3011082853252829,0.06228081336303761,0.6877319988496874,-0.07872831172464244,-1.6205576661390888,0.02817049853059144,2.2878655268992567,0.8466283508639949,0.06226373270833701,0.6884179775783729,-0.07863937525950354,-1.6210372792796082,0.028167345702647853,2.2878312372101677,0.8466366937888992,-0.00044939735222271777,-0.0006987935108248588,0.0010131246985583897,4.087583692984961e-05,-0.0001830855568992547,2.6731783288466544e-05,-0.0016572219498029136,0.0,0.0,0.0,0.0,0.0,0.0,0.0,-1.7080654700601938e-05,0.0006859787286854768,8.893646513889741e-05,-0.00047961314051936377,-3.1528279435880102e-06,-3.428968908902874e-05,8.342924904258808e-06,0.00044939735222271777,0.0006987935108248588,-0.0010131246985583897,-4.087583692984961e-05,0.0001830855568992547,-2.6731783288466544e-05,0.0016572219498029136,0.4267818331718445,47.24624252319336,1.1409575939178467,-20.848421096801758,-0.5459495186805725,-2.3266634941101074,0.26217979192733765,0
27,0.1300034523010254,-0.4505855441093445,-47.24624252319336,-1.1171538829803467,20.848421096801758,0.5404563546180725,2.3330721855163574,-0.32352012395858765,0.0,0.0,0.0,0.0,0.0,0.0,0.0,-0.43243565129336387,-0.4823365856888691,-0.21724631422642152,0.4300292963056166,-0.036883930958653444,0.11239087041887641,-0.30082846037826805,0.062282483798892875,0.6877319990784373,-0.07873092995290526,-1.620557447720309,0.028170350604197612,2.287864852776048,0.8466319889955968,0.06226373270833701,0.6884179775783729,-0.07863937525950354,-1.6210372792796082,0.028167345702647853,2.2878312372101677,0.8466366937888992,3.471082638781098e-05,-0.000540681638837752,0.0005103625680639165,7.995516456979506e-05,4.967194431575626e-06,-9.98416419741456e-05,0.0010867988980604827,0.0,0.0,0.0,0.0,0.0,0.0,0.0,-1.8751090555865768e-05,0.0006859784999355689,9.155469340171862e-05,-0.00047983155929909316,-3.0049015497593534e-06,-3.361556588021841e-05,4.704793302390264e-06,-3.471082638781098e-05,0.000540681638837752,-0.0005103625680639165,-7.995516456979506e-05,-4.967194431575626e-06,9.98416419741456e-05,-0.0010867988980604827,0.4505855441093445,47.24624252319336,1.1171538829803467,-20.848421096801758,-0.5404563546180725,-2.3330721855163574,0.32352012395858765,0
28,0.13499879837036133,-0.4505855441093445,-47.24624252319336,-1.1171538829803467,20.848421096801758,0.5404563546180725,2.3330721855163574,-0.32352012395858765,0.0,0.0,0.0,0.0,0.0,0.0,0.0,-0.43243565129336387,-0.4823365856888691,-0.21724631422642152,0.4300292963056166,-0.036883930958653444,0.11239087041887641,-0.30082846037826805,0.062282483798892875,0.6877319990784373,-0.07873092995290526,-1.620557447720309,0.028170350604197612,2.287864852776048,0.8466319889955968,0.06226373270833701,0.6884179775783729,-0.07863937525950354,-1.6210372792796082,0.028167345702647853,2.2878312372101677,0.8466366937888992,3.471082638781098e-05,-0.000540681638837752,0.0005103625680639165,7.995516456979506e-05,4.967194431575626e-06,-9.98416419741456e-05,0.0010867988980604827,0.0,0.0,0.0,0.0,0.0,0.0,0.0,-1.8751090555865768e-05,0.0006859784999355689,9.155469340171862e-05,-0.00047983155929909316,-3.0049015497593534e-06,-3.361556588021841e-05,4.704793302390264e-06,-3.471082638781098e-05,0.000540681638837752,-0.0005103625680639165,-7.995516456979506e-05,-4.967194431575626e-06,9.98416419741456e-05,-0.0010867988980604827,0.4505855441093445,47.24624252319336,1.1171538829803467,-20.848421096801758,-0.5404563546180725,-2.3330721855163574,0.32352012395858765,0
29,0.14000630378723145,-0.3752071261405945,-47.24624252319336,-1.1171538829803467,20.848421096801758,0.5340476632118225,2.3202548027038574,-0.33084434270858765,0.0,0.0,0.0,0.0,0.0,0.0,0.0,-0.4206833963987328,-0.46937167994220264,-0.2077363608443375,0.42335374864085357,-0.03746708040310173,0.11117687314069284,-0.3005751196589775,0.062277194085351206,0.6877298882691101,-0.07873274510436051,-1.620559727903347,0.028170873729592136,2.2878662783296235,0.8466359812096146,0.06226373270833701,0.6884179775783729,-0.07863937525950354,-1.6210372792796082,0.028167345702647853,2.2878312372101677,0.8466366937888992,-0.0013132021104671236,-0.00015350910560188314,0.0010487546223222144,3.310621881869982e-05,0.000384526849422596,0.0003675803453461172,0.0012859641010023264,0.0,0.0,0.0,0.0,0.0,0.0,0.0,-1.3461377014196974e-05,0.0006880893092627849,9.336984485697197e-05,-0.00047755137626115385,-3.5280269442827805e-06,-3.5041119455847536e-05,7.125792845785739e-07,0.0013132021104671236,0.00015350910560188314,-0.0010487546223222144,-3.310621881869982e-05,-0.000384526849422596,-0.0003675803453461172,-0.0012859641010023264,0.3752071261405945,47.24624252319336,1.1171538829803467,-20.848421096801758,-0.5340476632118225,-2.3202548027038574,0.33084434270858765,0
30,0.1450028419494629,-0.3752071261405945,-47.24624252319336,-1.1171538829803467,20.848421096801758,0.5340476632118225,2.3202548027038574,-0.33084434270858765,0.0,0.0,0.0,0.0,0.0,0.0,0.0,-0.4206833963987328,-0.46937167994220264,-0.2077363608443375,0.42335374864085357,-0.03746708040310173,0.11117687314069284,-0.3005751196589775,0.062277194085351206,0.6877298882691101,-0.07873274510436051,-1.620559727903347,0.028170873729592136,2.2878662783296235,0.8466359812096146,0.06226373270833701,0.6884179775783729,-0.07863937525950354,-1.6210372792796082,0.028167345702647853,2.2878312372101677,0.8466366937888992,-0.0013132021104671236,-0.00015350910560188314,0.0010487546223222144,3.310621881869982e-05,0.000384526849422596,0.0003675803453461172,0.0012859641010023264,0.0,0.0,0.0,0.0,0.0,0.0,0.0,-1.3461377014196974e-05,0.0006880893092627849,9.336984485697197e-05,-0.00047755137626115385,-3.5280269442827805e-06,-3.5041119455847536e-05,7.125792845785739e-07,0.0013132021104671236,0.00015350910560188314,-0.0010487546223222144,-3.310621881869982e-05,-0.000384526849422596,-0.0003675803453461172,-0.0012859641010023264,0.3752071261405945,47.24624252319336,1.1171538829803467,-20.848421096801758,-0.5340476632118225,-2.3202548027038574,0.33084434270858765,0
31,0.15010714530944824,-0.3752071261405945,-47.24624252319336,-1.1171538829803467,20.848421096801758,0.5340476632118225,2.3202548027038574,-0.33084434270858765,0.0,0.0,0.0,0.0,0.0,0.0,0.0,-0.4206833963987328,-0.46937167994220264,-0.2077363608443375,0.42335374864085357,-0.03746708040310173,0.11117687314069284,-0.3005751196589775,0.062277194085351206,0.6877298882691101,-0.07873274510436051,-1.620559727903347,0.028170873729592136,2.2878662783296235,0.8466359812096146,0.06226373270833701,0.6884179775783729,-0.07863937525950354,-1.6210372792796082,0.028167345702647853,2.2878312372101677,0.8466366937888992,-0.0013132021104671236,-0.00015350910560188314,0.0010487546223222144,3.310621881869982e-05,0.000384526849422596,0.0003675803453461172,0.0012859641010023264,0.0,0.0,0.0,0.0,0.0,0.0,0.0,-1.3461377014196974e-05,0.0006880893092627849,9.336984485697197e-05,-0.00047755137626115385,-3.5280269442827805e-06,-3.5041119455847536e-05,7.125792845785739e-07,0.0013132021104671236,0.00015350910560188314,-0.0010487546223222144,-3.310621881869982e-05,-0.000384526849422596,-0.0003675803453461172,-0.0012859641010023264,0.3752071261405945,47.24624252319336,1.1171538829803467,-20.848421096801758,-0.5340476632118225,-2.3202548027038574,0.33084434270858765,0
32,0.15499472618103027,-0.3752071261405945,-47.24624252319336,-1.1171538829803467,20.848421096801758,0.5340476632118225,2.3202548027038574,-0.33084434270858765,0.0,0.0,0.0,0.0,0.0,0.0,0.0,-0.4206833963987328,-0.46937167994220264,-0.2077363608443375,0.42335374864085357,-0.03746708040310173,0.11117687314069284,-0.3005751196589775,0.062277194085351206,0.6877298882691101,-0.07873274510436051,-1.620559727903347,0.028170873729592136,2.2878662783296235,0.8466359812096146,0.06226373270833701,0.6884179775783729,-0.07863937525950354,-1.6210372792796082,0.028167345702647853,2.2878312372101677,0.8466366937888992,-0.0013132021104671236,-0.00015350910560188314,0.0010487546223222144,3.310621881869982e-05,0.000384526849422596,0.0003675803453461172,0.0012859641010023264,0.0,0.0,0.0,0.0,0.0,0.0,0.0,-1.3461377014196974e-05,0.0006880893092627849,9.336984485697197e-05,-0.00047755137626115385,-3.5280269442827805e-06,-3.5041119455847536e-05,7.125792845785739e-07,0.0013132021104671236,0.00015350910560188314,-0.0010487546223222144,-3.310621881869982e-05,-0.000384526849422596,-0.0003675803453461172,-0.0012859641010023264,0.3752071261405945,47.24624252319336,1.1171538829803467,-20.848421096801758,-0.5340476632118225,-2.3202548027038574,0.33084434270858765,0
33,0.15999889373779297,-0.4267818331718445,-47.21847152709961,-1.0417754650115967,20.824617385864258,0.5340476632118225,2.3266634941101074,-0.32352012395858765,0.0,0.0,0.0,0.0,0.0,0.0,0.0,-0.4215944030258477,-0.48053234565399233,-0.20643629493178167,0.4294815886924968,-0.0375508236464348,0.11142025839638439,-0.3009321665284568,0.06228081336303761,0.6877279865467301,-0.07873621997073504,-1.620555996093089,0.02817497602433433,2.2878655663066434,0.8466351635493394,0.06226373270833701,0.6884179775783729,-0.07863937525950354,-1.6210372792796082,0.028167345702647853,2.2878312372101677,0.8466366937888992,0.00026759152395153826,-0.0011099247081190241,-0.0002512787148327521,0.0005492172016462162,0.00013389059631538816,-3.3161693077594146e-05,0.0008296275499711437,0.0,0.0,0.0,0.0,0.0,0.0,0.0,-1.7080654700601938e-05,0.0006899910316428004,9.684471123150296e-05,-0.000481283186519077,-7.630321686477592e-06,-3.4329096475715914e-05,1.530239559732749e-06,-0.00026759152395153826,0.0011099247081190241,0.0002512787148327521,-0.0005492172016462162,-0.00013389059631538816,3.3161693077594146e-05,-0.0008296275499711437,0.4267818331718445,47.21847152709961,1.0417754650115967,-20.824617385864258,-0.5340476632118225,-2.3266634941101074,0.32352012395858765,0
34,0.165008544921875,-0.4267818331718445,-47.21847152709961,-1.0417754650115967,20.824617385864258,0.5340476632118225,2.3266634941101074,-0.32352012395858765,0.0,0.0,0.0,0.0,0.0,0.0,0.0,-0.4215944030258477,-0.48053234565399233,-0.20643629493178167,0.4294815886924968,-0.0375508236464348,0.11142025839638439,-0.3009321665284568,0.06228081336303761,0.6877279865467301,-0.07873621997073504,-1.620555996093089,0.02817497602433433,2.2878655663066434,0.8466351635493394,0.06226373270833701,0.6884179775783729,-0.07863937525950354,-1.6210372792796082,0.028167345702647853,2.2878312372101677,0.8466366937888992,0.00026759152395153826,-0.0011099247081190241,-0.0002512787148327521,0.0005492172016462162,0.00013389059631538816,-3.3161693077594146e-05,0.0008296275499711437,0.0,0.0,0.0,0.0,0.0,0.0,0.0,-1.7080654700601938e-05,0.0006899910316428004,9.684471123150296e-05,-0.000481283186519077,-7.630321686477592e-06,-3.4329096475715914e-05,1.530239559732749e-06,-0.00026759152395153826,0.0011099247081190241,0.0002512787148327521,-0.0005492172016462162,-0.00013389059631538816,3.3161693077594146e-05,-0.0008296275499711437,0.4267818331718445,47.21847152709961,1.0417754650115967,-20.824617385864258,-0.5340476632118225,-2.3266634941101074,0.32352012395858765,0
35,0.1699972152709961,-0.4267818331718445,-47.31765365600586,-1.0695464611053467,20.824617385864258,0.5404563546180725,2.3522982597351074,-0.33084434270858765,0.0,0.0,0.0,0.0,0.0,0.0,0.0,-0.43565565352903646,-0.46793054799443523,-0.21446813350321006,0.4236805319619797,-0.0381080664516624,0.11026299032073653,-0.3008439216425772,0.06228081336303761,0.687737751866674,-0.07873425361675326,-1.6205564902024,0.028169990583542394,2.287861658361223,0.846635981227535,0.06226373270833701,0.6884179775783729,-0.07863937525950354,-1.6210372792796082,0.028167345702647853,2.2878312372101677,0.8466366937888992,0.00011335778031011876,0.0016145544556715428,-2.528633457210439e-05,0.0004217008572411585,-0.00016922651232772218,-0.0005049032800179488,0.0014906667319208367,0.0,0.0,0.0,0.0,0.0,0.0,0.0,-1.7080654700601938e-05,0.0006802257116989008,9.487835724972249e-05,-0.0004807890772082768,-2.644880894540902e-06,-3.042115105511556e-05,7.125613641356665e-07,-0.00011335778031011876,-0.0016145544556715428,2.528633457210439e-05,-0.0004217008572411585,0.00016922651232772218,0.0005049032800179488,-0.0014906667319208367,0.4267818331718445,47.31765365600586,1.0695464611053467,-20.824617385864258,-0.5404563546180725,-2.3522982597351074,0.33084434270858765,0
36,0.17501544952392578,-0.4267818331718445,-47.31765365600586,-1.0695464611053467,20.824617385864258,0.5404563546180725,2.3522982597351074,-0.33084434270858765,0.0,0.0,0.0,0.0,0.0,0.0,0.0,-0.43565565352903646,-0.46793054799443523,-0.21446813350321006,0.4236805319619797,-0.0381080664516624,0.11026299032073653,-0.3008439216425772,0.06228081336303761,0.687737751866674,-0.07873425361675326,-1.6205564902024,0.028169990583542394,2.287861658361223,0.846635981227535,0.06226373270833701,0.6884179775783729,-0.07863937525950354,-1.6210372792796082,0.028167345702647853,2.2878312372101677,0.8466366937888992,0.00011335778031011876,0.0016145544556715428,-2.528633457210439e-05,0.0004217008572411585,-0.00016922651232772218,-0.0005049032800179488,0.0014906667319208367,0.0,0.0,0.0,0.0,0.0,0.0,0.0,-1.7080654700601938e-05,0.0006802257116989008,9.487835724972249e-05,-0.0004807890772082768,-2.644880894540902e-06,-3.042115105511556e-05,7.125613641356665e-07,-0.00011335778031011876,-0.0016145544556715428,2.528633457210439e-05,-0.0004217008572411585,0.00016922651232772218,0.0005049032800179488,-0.0014906667319208367,0.4267818331718445,47.31765365600586,1.0695464611053467,-20.824617385864258,-0.5404563546180725,-2.3522982597351074,0.33084434270858765,0
37,0.17999744415283203,-0.4029781222343445,-47.29384994506836,-1.0933501720428467,20.824617385864258,0.5404563546180725,2.3202548027038574,-0.29605430364608765,0.0,0.0,0.0,0.0,0.0,0.0,0.0,-0.42938924367835435,-0.47216066128672607,-0.21157468957237618,0.42536510213273365,-0.038322686880655814,0.11214632215725351,-0.30056044598261145,0.06227914292718235,0.6877331968035133,-0.07873189919910385,-1.6205568202095466,0.028174303229372005,2.2878662783774852,0.8466289372377898,0.06226373270833701,0.6884179775783729,-0.07863937525950354,-1.6210372792796082,0.028167345702647853,2.2878312372101677,0.8466366937888992,-0.00044756953989634024,0.0009822827796945894,0.000484552456190972,0.0005429112205075969,1.2954912812480059e-05,0.0004154790435225424,-0.00011357297387671614,0.0,0.0,0.0,0.0,0.0,0.0,0.0,-1.541021884533811e-05,0.0006847807748595613,9.252393960031136e-05,-0.0004804590700615563,-6.957526724152285e-06,-3.504116731756213e-05,7.756551109405763e-06,0.00044756953989634024,-0.0009822827796945894,-0.000484552456190972,-0.0005429112205075969,-1.2954912812480059e-05,-0.0004154790435225424,0.00011357297387671614,0.4029781222343445,47.29384994506836,1.0933501720428467,-20.824617385864258,-0.5404563546180725,-2.3202548027038574,0.29605430364608765,0
38,0.1849961280822754,-0.4029781222343445,-47.29384994506836,-1.0933501720428467,20.824617385864258,0.5404563546180725,2.3202548027038574,-0.29605430364608765,0.0,0.0,0.0,0.0,0.0,0.0,0.0,-0.42938924367835435,-0.47216066128672607,-0.21157468957237618,0.42536510213273365,-0.038322686880655814,0.11214632215725351,-0.30056044598261145,0.06227914292718235,0.6877331968035133,-0.07873189919910385,-1.6205568202095466,0.028174303229372005,2.2878662783774852,0.8466289372377898,0.06226373270833701,0.6884179775783729,-0.07863937525950354,-1.6210372792796082,0.028167345702647853,2.2878312372101677,0.8466366937888992,-0.00044756953989634024,0.0009822827796945894,0.000484552456190972,0.0005429112205075969,1.2954912812480059e-05,0.0004154790435225424,-0.00011357297387671614,0.0,0.0,0.0,0.0,0.0,0.0,0.0,-1.541021884533811e-05,0.0006847807748595613,9.252393960031136e-05,-0.0004804590700615563,-6.957526724152285e-06,-3.504116731756213e-05,7.756551109405763e-06,0.00044756953989634024,-0.0009822827796945894,-0.000484552456190972,-0.0005429112205075969,-1.2954912812480059e-05,-0.0004154790435225424,0.00011357297387671614,0.4029781222343445,47.29384994506836,1.0933501720428467,-20.824617385864258,-0.5404563546180725,-2.3202548027038574,0.29605430364608765,0
39,0.18999791145324707,-0.4267818331718445,-47.27004623413086,-1.0933501720428467,20.848421096801758,0.5459495186805725,2.3266634941101074,-0.30978721380233765,0.0,0.0,0.0,0.0,0.0,0.0,0.0,-0.41249484100564987,-0.4744872402484142,-0.19944284019953568,0.42477096481961674,-0.03802675753664551,0.11156417384640759,-0.3002778050787741,0.06228081336303761,0.6877315499836674,-0.07873402974720815,-1.6205574229621242,0.028169897385742316,2.2878655663066434,0.8466332888123953,0.06226373270833701,0.6884179775783729,-0.07863937525950354,-1.6210372792796082,0.028167345702647853,2.2878312372101677,0.8466366937888992,0.000550080856734788,0.0001900598470018261,0.0007924690358731316,-0.0002037395825057886,-0.000413971754422342,4.799101710613924e-05,0.0004354196157682229,0.0,0.0,0.0,0.0,0.0,0.0,0.0,-1.7080654700601938e-05,0.0006864275947054965,9.465448770461238e-05,-0.00047985631748392876,-2.551683094462881e-06,-3.4329096475715914e-05,3.4049765038624003e-06,-0.000550080856734788,-0.0001900598470018261,-0.0007924690358731316,0.0002037395825057886,0.000413971754422342,-4.799101710613924e-05,-0.0004354196157682229,0.4267818331718445,47.27004623413086,1.0933501720428467,-20.848421096801758,-0.5459495186805725,-2.3266634941101074,0.30978721380233765,0
40,0.19499802589416504,-0.4267818331718445,-47.27004623413086,-1.0933501720428467,20.848421096801758,0.5459495186805725,2.3266634941101074,-0.30978721380233765,0.0,0.0,0.0,0.0,0.0,0.0,0.0,-0.41249484100564987,-0.4744872402484142,-0.19944284019953568,0.42477096481961674,-0.03802675753664551,0.11156417384640759,-0.3002778050787741,0.06228081336303761,0.6877315499836674,-0.07873402974720815,-1.6205574229621242,0.028169897385742316,2.2878655663066434,0.8466332888123953,0.06226373270833701,0.6884179775783729,-0.07863937525950354,-1.6210372792796082,0.028167345702647853,2.2878312372101677,0.8466366937888992,0.000550080856734788,0.0001900598470018261,0.0007924690358731316,-0.0002037395825057886,-0.000413971754422342,4.799101710613924e-05,0.0004354196157682229,0.0,0.0,0.0,0.0,0.0,0.0,0.0,-1.7080654700601938e-05,0.0006864275947054965,9.465448770461238e-05,-0.00047985631748392876,-2.551683094462881e-06,-3.4329096475715914e-05,3.4049765038624003e-06,-0.000550080856734788,-0.0001900598470018261,-0.0007924690358731316,0.0002037395825057886,0.000413971754422342,-4.799101710613924e-05,-0.0004354196157682229,0.4267818331718445,47.27004623413086,1.0933501720428467,-20.848421096801758,-0.5459495186805725,-2.3266634941101074,0.30978721380233765,0
41,0.20000576972961426,-0.4267818331718445,-47.21847152709961,-1.0695464611053467,20.824617385864258,0.5340476632118225,2.3266634941101074,-0.33084434270858765,0.0,0.0,0.0,0.0,0.0,0.0,0.0,-0.427087420039048,-0.47628302193254973,-0.20929966659908414,0.42723329551007305,-0.03772964843390664,0.11148413997419768,-0.30044380477906707,0.06228081336303761,0.6877282220218207,-0.07873632895389578,-1.620555775926434,0.02817389839988553,2.2878655663066434,0.8466359293822736,0.06226373270833701,0.6884179775783729,-0.07863937525950354,-1.6210372792796082,0.028167345702647853,2.2878312372101677,0.8466366937888992,0.0004499023800493714,-0.0008446285525429192,-0.0004590931277596458,0.0011375347821003577,0.0001808975354011859,0.0002948165615260092,0.0012290854253865881,0.0,0.0,0.0,0.0,0.0,0.0,0.0,-1.7080654700601938e-05,0.0006897555565521518,9.6953694392235e-05,-0.00048150335317420634,-6.552697237677263e-06,-3.4329096475715914e-05,7.644066255529935e-07,-0.0004499023800493714,0.0008446285525429192,0.0004590931277596458,-0.0011375347821003577,-0.0001808975354011859,-0.0002948165615260092,-0.0012290854253865881,0.4267818331718445,47.21847152709961,1.0695464611053467,-20.824617385864258,-0.5340476632118225,-2.3266634941101074,0.33084434270858765,0
42,0.2050032615661621,-0.4267818331718445,-47.21847152709961,-1.0695464611053467,20.824617385864258,0.5340476632118225,2.3266634941101074,-0.33084434270858765,0.0,0.0,0.0,0.0,0.0,0.0,0.0,-0.427087420039048,-0.47628302193254973,-0.20929966659908414,0.42723329551007305,-0.03772964843390664,0.11148413997419768,-0.30044380477906707,0.06228081336303761,0.6877282220218207,-0.07873632895389578,-1.620555775926434,0.02817389839988553,2.2878655663066434,0.8466359293822736,0.06226373270833701,0.6884179775783729,-0.07863937525950354,-1.6210372792796082,0.028167345702647853,2.2878312372101677,0.8466366937888992,0.0004499023800493714,-0.0008446285525429192,-0.0004590931277596458,0.0011375347821003577,0.0001808975354011859,0.0002948165615260092,0.0012290854253865881,0.0,0.0,0.0,0.0,0.0,0.0,0.0,-1.7080654700601938e-05,0.0006897555565521518,9.6953694392235e-05,-0.00048150335317420634,-6.552697237677263e-06,-3.4329096475715914e-05,7.644066255529935e-07,-0.0004499023800493714,0.0008446285525429192,0.0004590931277596458,-0.0011375347821003577,-0.0001808975354011859,-0.0002948165615260092,-0.0012290854253865881,0.4267818331718445,47.21847152709961,1.0695464611053467,-20.824617385864258,-0.5340476632118225,-2.3266634941101074,0.33084434270858765,0
43,0.21000170707702637,-0.4505855441093445,-47.29384994506836,-1.0933501720428467,20.824617385864258,0.5459495186805725,2.3266634941101074,-0.33084434270858765,0.0,0.0,0.0,0.0,0.0,0.0,0.0,-0.43623947184468576,-0.47912788148847946,-0.21701850325106475,0.4284827814128281,-0.0379373110412426,0.11097241529179558,-0.3014432641271057,0.062282483798892875,0.687735586825338,-0.07873470204179278,-1.6205557484544664,0.028169498561352698,2.2878655663066434,0.846635981711781,0.06226373270833701,0.6884179775783729,-0.07863937525950354,-1.6210372792796082,0.028167345702647853,2.2878312372101677,0.8466366937888992,0.00013325610362475683,0.00043224736872710725,-0.00010948646070551087,7.601860082745401e-05,-0.0004098365967547341,-0.00012849387542087777,0.001219551630676336,0.0,0.0,0.0,0.0,0.0,0.0,0.0,-1.8751090555865768e-05,0.0006823907530348894,9.532678228924008e-05,-0.000481530825141796,-2.152858704845134e-06,-3.4329096475715914e-05,7.120771181590158e-07,-0.00013325610362475683,-0.00043224736872710725,0.00010948646070551087,-7.601860082745401e-05,0.0004098365967547341,0.00012849387542087777,-0.001219551630676336,0.4505855441093445,47.29384994506836,1.0933501720428467,-20.824617385864258,-0.5459495186805725,-2.3266634941101074,0.33084434270858765,0
44,0.21499943733215332,-0.4505855441093445,-47.29384994506836,-1.0933501720428467,20.824617385864258,0.5459495186805725,2.3266634941101074,-0.33084434270858765,0.0,0.0,0.0,0.0,0.0,0.0,0.0,-0.43623947184468576,-0.47912788148847946,-0.21701850325106475,0.4284827814128281,-0.0379373110412426,0.11097241529179558,-0.3014432641271057,0.062282483798892875,0.687735586825338,-0.07873470204179278,-1.6205557484544664,0.028169498561352698,2.2878655663066434,0.846635981711781,0.06226373270833701,0.6884179775783729,-0.07863937525950354,-1.6210372792796082,0.028167345702647853,2.2878312372101677,0.8466366937888992,0.00013325610362475683,0.00043224736872710725,-0.00010948646070551087,7.601860082745401e-05,-0.0004098365967547341,-0.00012849387542087777,0.001219551630676336,0.0,0.0,0.0,0.0,0.0,0.0,0.0,-1.8751090555865768e-05,0.0006823907530348894,9.532678228924008e-05,-0.000481530825141796,-2.152858704845134e-06,-3.4329096475715914e-05,7.120771181590158e-07,-0.00013325610362475683,-0.00043224736872710725,0.00010948646070551087,-7.601860082745401e-05,0.0004098365967547341,0.00012849387542087777,-0.001219551630676336,0.4505855441093445,47.29384994506836,1.0933501720428467,-20.824617385864258,-0.5459495186805725,-2.3266634941101074,0.33084434270858765,0
45,0.21999812126159668,-0.4505855441093445,-47.29384994506836,-1.0933501720428467,20.824617385864258,0.5459495186805725,2.3266634941101074,-0.33084434270858765,0.0,0.0,0.0,0.0,0.0,0.0,0.0,-0.43623947184468576,-0.47912788148847946,-0.21701850325106475,0.4284827814128281,-0.0379373110412426,0.11097241529179558,-0.3014432641271057,0.062282483798892875,0.687735586825338,-0.07873470204179278,-1.6205557484544664,0.028169498561352698,2.2878655663066434,0.846635981711781,0.06226373270833701,0.6884179775783729,-0.07863937525950354,-1.6210372792796082,0.028167345702647853,2.2878312372101677,0.8466366937888992,0.00013325610362475683,0.00043224736872710725,-0.00010948646070551087,7.601860082745401e-05,-0.0004098365967547341,-0.00012849387542087777,0.001219551630676336,0.0,0.0,0.0,0.0,0.0,0.0,0.0,-1.8751090555865768e-05,0.0006823907530348894,9.532678228924008e-05,-0.000481530825141796,-2.152858704845134e-06,-3.4329096475715914e-05,7.120771181590158e-07,-0.00013325610362475683,-0.00043224736872710725,0.00010948646070551087,-7.601860082745401e-05,0.0004098365967547341,0.00012849387542087777,-0.001219551630676336,0.4505855441093445,47.29384994506836,1.0933501720428467,-20.824617385864258,-0.5459495186805725,-2.3266634941101074,0.33084434270858765,0
46,0.22500205039978027,-0.4505855441093445,-47.29384994506836,-1.0933501720428467,20.824617385864258,0.5459495186805725,2.3266634941101074,-0.33084434270858765,0.0,0.0,0.0,0.0,0.0,0.0,0.0,-0.43623947184468576,-0.47912788148847946,-0.21701850325106475,0.4284827814128281,-0.0379373110412426,0.11097241529179558,-0.3014432641271057,0.062282483798892875,0.687735586825338,-0.07873470204179278,-1.6205557484544664,0.028169498561352698,2.2878655663066434,0.846635981711781,0.06226373270833701,0.6884179775783729,-0.07863937525950354,-1.6210372792796082,0.028167345702647853,2.2878312372101677,0.8466366937888992,0.00013325610362475683,0.00043224736872710725,-0.00010948646070551087,7.601860082745401e-05,-0.0004098365967547341,-0.00012849387542087777,0.001219551630676336,0.0,0.0,0.0,0.0,0.0,0.0,0.0,-1.8751090555865768e-05,0.0006823907530348894,9.532678228924008e-05,-0.000481530825141796,-2.152858704845134e-06,-3.4329096475715914e-05,7.120771181590158e-07,-0.00013325610362475683,-0.00043224736872710725,0.00010948646070551087,-7.601860082745401e-05,0.0004098365967547341,0.00012849387542087777,-0.001219551630676336,0.4505855441093445,47.29384994506836,1.0933501720428467,-20.824617385864258,-0.5459495186805725,-2.3266634941101074,0.33084434270858765,0
47,0.23000836372375488,-0.4505855441093445,-47.29384994506836,-1.0933501720428467,20.824617385864258,0.5459495186805725,2.3266634941101074,-0.33084434270858765,0.0,0.0,0.0,0.0,0.0,0.0,0.0,-0.43623947184468576,-0.47912788148847946,-0.21701850325106475,0.4284827814128281,-0.0379373110412426,0.11097241529179558,-0.3014432641271057,0.062282483798892875,0.687735586825338,-0.07873470204179278,-1.6205557484544664,0.028169498561352698,2.2878655663066434,0.846635981711781,0.06226373270833701,0.6884179775783729,-0.07863937525950354,-1.6210372792796082,0.028167345702647853,2.2878312372101677,0.8466366937888992,0.00013325610362475683,0.00043224736872710725,-0.00010948646070551087,7.601860082745401e-05,-0.0004098365967547341,-0.00012849387542087777,0.001219551630676336,0.0,0.0,0.0,0.0,0.0,0.0,0.0,-1.8751090555865768e-05,0.0006823907530348894,9.532678228924008e-05,-0.000481530825141796,-2.152858704845134e-06,-3.4329096475715914e-05,7.120771181590158e-07,-0.00013325610362475683,-0.00043224736872710725,0.00010948646070551087,-7.601860082745401e-05,0.0004098365967547341,0.00012849387542087777,-0.001219551630676336,0.4505855441093445,47.29384994506836,1.0933501720428467,-20.824617385864258,-0.5459495186805725,-2.3266634941101074,0.33084434270858765,0
48,0.23500752449035645,-0.4505855441093445,-47.27004623413086,-1.0933501720428467,20.824617385864258,0.5404563546180725,2.3266634941101074,-0.32352012395858765,0.0,0.0,0.0,0.0,0.0,0.0,0.0,-0.4353927789845084,-0.47931083636078137,-0.21430454541490326,0.4265744969980787,-0.03924827115139528,0.11200863560561736,-0.30188003751409187,0.062282483798892875,0.6877318543575488,-0.07873473729733406,-1.620555776949481,0.028174292197481812,2.287865566303985,0.846635167909993,0.06226373270833701,0.6884179775783729,-0.07863937525950354,-1.6210372792796082,0.028167345702647853,2.2878312372101677,0.8466366937888992,2.437464231434715e-05,0.00020434065400919515,0.00010498053565939461,0.0004204899097777203,-9.608709110011735e-05,0.00037322691983292906,0.0005753748718950876,0.0,0.0,0.0,0.0,0.0,0.0,0.0,-1.8751090555865768e-05,0.0006861232208240642,9.536203783051811e-05,-0.0004815023301272259,-6.94649483395926e-06,-3.4329093817397904e-05,1.5258789061167732e-06,-2.437464231434715e-05,-0.00020434065400919515,-0.00010498053565939461,-0.0004204899097777203,9.608709110011735e-05,-0.00037322691983292906,-0.0005753748718950876,0.4505855441093445,47.27004623413086,1.0933501720428467,-20.824617385864258,-0.5404563546180725,-2.3266634941101074,0.32352012395858765,0
49,0.23999285697937012,-0.4505855441093445,-47.27004623413086,-1.0933501720428467,20.824617385864258,0.5404563546180725,2.3266634941101074,-0.32352012395858765,0.0,0.0,0.0,0.0,0.0,0.0,0.0,-0.4353927789845084,-0.47931083636078137,-0.21430454541490326,0.4265744969980787,-0.03924827115139528,0.11200863560561736,-0.30188003751409187,0.062282483798892875,0.6877318543575488,-0.07873473729733406,-1.620555776949481,0.028174292197481812,2.287865566303985,0.846635167909993,0.06226373270833701,0.6884179775783729,-0.07863937525950354,-1.6210372792796082,0.028167345702647853,2.2878312372101677,0.8466366937888992,2.437464231434715e-05,0.00020434065400919515,0.00010498053565939461,0.0004204899097777203,-9.608709110011735e-05,0.00037322691983292906,0.0005753748718950876,0.0,0.0,0.0,0.0,0.0,0.0,0.0,-1.8751090555865768e-05,0.0006861232208240642,9.536203783051811e-05,-0.0004815023301272259,-6.94649483395926e-06,-3.4329093817397904e-05,1.5258789061167732e-06,-2.437464231434715e-05,-0.00020434065400919515,-0.00010498053565939461,-0.0004204899097777203,9.608709110011735e-05,-0.00037322691983292906,-0.0005753748718950876,0.4505855441093445,47.27004623413086,1.0933501720428467,-20.824617385864258,-0.5404563546180725,-2.3266634941101074,0.32352012395858765,0
50,0.24503493309020996,-0.4267818331718445,-47.24624252319336,-1.0695464611053467,20.848421096801758,0.5340476632118225,2.3330721855163574,-0.30337852239608765,0.0,0.0,0.0,0.0,0.0,0.0,0.0,-0.4240872993804038,-0.4718644354962572,-0.20523304231459677,0.42445417614724046,-0.039588662311303126,0.11201508149612038,-0.30261648110558936,0.06228081336303761,0.6877305947920537,-0.07873403891472412,-1.6205597275640762,0.028175488710221748,2.2878648542298206,0.8466329255936131,0.06226373270833701,0.6884179775783729,-0.07863937525950354,-1.6210372792796082,0.028167345702647853,2.2878312372101677,0.8466366937888992,-0.00029718272851353585,0.000339661213810855,-0.00010400782813407254,0.0001004941765053789,-4.615738203151166e-05,0.00012175637450492359,0.0001574213153238103,0.0,0.0,0.0,0.0,0.0,0.0,0.0,-1.7080654700601938e-05,0.0006873827863191906,9.466365522058096e-05,-0.0004775517155319875,-8.143007573895022e-06,-3.361701965287622e-05,3.768195286024678e-06,0.00029718272851353585,-0.000339661213810855,0.00010400782813407254,-0.0001004941765053789,4.615738203151166e-05,-0.00012175637450492359,-0.0001574213153238103,0.4267818331718445,47.24624252319336,1.0695464611053467,-20.848421096801758,-0.5340476632118225,-2.3330721855163574,0.30337852239608765,0
51,0.2500154972076416,-0.4267818331718445,-47.24624252319336,-1.0695464611053467,20.848421096801758,0.5340476632118225,2.3330721855163574,-0.30337852239608765,0.0,0.0,0.0,0.0,0.0,0.0,0.0,-0.4240872993804038,-0.4718644354962572,-0.20523304231459677,0.42445417614724046,-0.039588662311303126,0.11201508149612038,-0.30261648110558936,0.06228081336303761,0.6877305947920537,-0.07873403891472412,-1.6205597275640762,0.028175488710221748,2.2878648542298206,0.8466329255936131,0.06226373270833701,0.6884179775783729,-0.07863937525950354,-1.6210372792796082,0.028167345702647853,2.2878312372101677,0.8466366937888992,-0.00029718272851353585,0.000339661213810855,-0.00010400782813407254,0.0001004941765053789,-4.615738203151166e-05,0.00012175637450492359,0.0001574213153238103,0.0,0.0,0.0,0.0,0.0,0.0,0.0,-1.7080654700601938e-05,0.0006873827863191906,9.466365522058096e-05,-0.0004775517155319875,-8.143007573895022e-06,-3.361701965287622e-05,3.768195286024678e-06,0.00029718272851353585,-0.000339661213810855,0.00010400782813407254,-0.0001004941765053789,4.615738203151166e-05,-0.00012175637450492359,-0.0001574213153238103,0.4267818331718445,47.24624252319336,1.0695464611053467,-20.848421096801758,-0.5340476632118225,-2.3330721855163574,0.30337852239608765,0
52,0.2550344467163086,-0.4267818331718445,-47.24624252319336,-1.0695464611053467,20.848421096801758,0.5340476632118225,2.3330721855163574,-0.30337852239608765,0.0,0.0,0.0,0.0,0.0,0.0,0.0,-0.4240872993804038,-0.4718644354962572,-0.20523304231459677,0.42445417614724046,-0.039588662311303126,0.11201508149612038,-0.30261648110558936,0.06228081336303761,0.6877305947920537,-0.07873403891472412,-1.6205597275640762,0.028175488710221748,2.2878648542298206,0.8466329255936131,0.06226373270833701,0.6884179775783729,-0.07863937525950354,-1.6210372792796082,0.028167345702647853,2.2878312372101677,0.8466366937888992,-0.00029718272851353585,0.000339661213810855,-0.00010400782813407254,0.0001004941765053789,-4.615738203151166e-05,0.00012175637450492359,0.0001574213153238103,0.0,0.0,0.0,0.0,0.0,0.0,0.0,-1.7080654700601938e-05,0.0006873827863191906,9.466365522058096e-05,-0.0004775517155319875,-8.143007573895022e-06,-3.361701965287622e-05,3.768195286024678e-06,0.00029718272851353585,-0.000339661213810855,0.00010400782813407254,-0.0001004941765053789,4.615738203151166e-05,-0.00012175637450492359,-0.0001574213153238103,0.4267818331718445,47.24624252319336,1.0695464611053467,-20.848421096801758,-0.5340476632118225,-2.3330721855163574,0.30337852239608765,0
53,0.26007509231567383,-0.4267818331718445,-47.24624252319336,-1.0695464611053467,20.848421096801758,0.5340476632118225,2.3330721855163574,-0.30337852239608765,0.0,0.0,0.0,0.0,0.0,0.0,0.0,-0.4240872993804038,-0.4718644354962572,-0.20523304231459677,0.42445417614724046,-0.039588662311303126,0.11201508149612038,-0.30261648110558936,0.06228081336303761,0.6877305947920537,-0.07873403891472412,-1.6205597275640762,0.028175488710221748,2.2878648542298206,0.8466329255936131,0.06226373270833701,0.6884179775783729,-0.07863937525950354,-1.6210372792796082,0.028167345702647853,2.2878312372101677,0.8466366937888992,-0.00029718272851353585,0.000339661213810855,-0.00010400782813407254,0.0001004941765053789,-4.615738203151166e-05,0.00012175637450492359,0.0001574213153238103,0.0,0.0,0.0,0.0,0.0,0.0,0.0,-1.7080654700601938e-05,0.0006873827863191906,9.466365522058096e-05,-0.0004775517155319875,-8.143007573895022e-06,-3.361701965287622e-05,3.768195286024678e-06,0.00029718272851353585,-0.000339661213810855,0.00010400782813407254,-0.0001004941765053789,4.615738203151166e-05,-0.00012175637450492359,-0.0001574213153238103,0.4267818331718445,47.24624252319336,1.0695464611053467,-20.848421096801758,-0.5340476632118225,-2.3330721855163574,0.30337852239608765,0
54,0.2650156021118164,-0.4505855441093445,-47.27004623413086,-1.0695464611053467,20.848421096801758,0.5340476632118225,2.3266634941101074,-0.26858848333358765,0.0,0.0,0.0,0.0,0.0,0.0,0.0,-0.4296857720100406,-0.48519866936340983,-0.2074883580931892,0.4317610981957357,-0.04014974010783514,0.112677863646197,-0.3016258247172687,0.062282483798892875,0.6877316038297733,-0.07873609510462204,-1.620557419242361,0.02817070315023662,2.2878655663066434,0.8466290643943434,0.06226373270833701,0.6884179775783729,-0.07863937525950354,-1.6210372792796082,0.028167345702647853,2.2878312372101677,0.8466366937888992,0.0005063033570987079,4.746671025524778e-05,7.4423430976488e-05,-0.0003188713916594314,6.591134955235792e-05,0.00027198532425598895,-0.0013255819208146762,0.0,0.0,0.0,0.0,0.0,0.0,0.0,-1.8751090555865768e-05,0.0006863737485995891,9.671984511849807e-05,-0.0004798600372470929,-3.357447588767104e-06,-3.4329096475715914e-05,7.629394555785929e-06,-0.0005063033570987079,-4.746671025524778e-05,-7.4423430976488e-05,0.0003188713916594314,-6.591134955235792e-05,-0.00027198532425598895,0.0013255819208146762,0.4505855441093445,47.27004623413086,1.0695464611053467,-20.848421096801758,-0.5340476632118225,-2.3266634941101074,0.26858848333358765,0
55,0.2700035572052002,-0.4505855441093445,-47.27004623413086,-1.0695464611053467,20.848421096801758,0.5340476632118225,2.3266634941101074,-0.26858848333358765,0.0,0.0,0.0,0.0,0.0,0.0,0.0,-0.4296857720100406,-0.48519866936340983,-0.2074883580931892,0.4317610981957357,-0.04014974010783514,0.112677863646197,-0.3016258247172687,0.062282483798892875,0.6877316038297733,-0.07873609510462204,-1.620557419242361,0.02817070315023662,2.2878655663066434,0.8466290643943434,0.06226373270833701,0.6884179775783729,-0.07863937525950354,-1.6210372792796082,0.028167345702647853,2.2878312372101677,0.8466366937888992,0.0005063033570987079,4.746671025524778e-05,7.4423430976488e-05,-0.0003188713916594314,6.591134955235792e-05,0.00027198532425598895,-0.0013255819208146762,0.0,0.0,0.0,0.0,0.0,0.0,0.0,-1.8751090555865768e-05,0.0006863737485995891,9.671984511849807e-05,-0.0004798600372470929,-3.357447588767104e-06,-3.4329096475715914e-05,7.629394555785929e-06,-0.0005063033570987079,-4.746671025524778e-05,-7.4423430976488e-05,0.0003188713916594314,-6.591134955235792e-05,-0.00027198532425598895,0.0013255819208146762,0.4505855441093445,47.27004623413086,1.0695464611053467,-20.848421096801758,-0.5340476632118225,-2.3266634941101074,0.26858848333358765,0
56,0.2749972343444824,-0.4505855441093445,-47.27004623413086,-1.0695464611053467,20.824617385864258,0.5404563546180725,2.3330721855163574,-0.28964561223983765,0.0,0.0,0.0,0.0,0.0,0.0,0.0,-0.4304385341140539,-0.47756072098702845,-0.20685781149054958,0.4292402150575792,-0.04030619366918043,0.11191097402561308,-0.3017526384876779,0.062282483798892875,0.6877316159268454,-0.07873420058003625,-1.6205557484543134,0.028169992561439212,2.2878648542298206,0.8466310508626479,0.06226373270833701,0.6884179775783729,-0.07863937525950354,-1.6210372792796082,0.028167345702647853,2.2878312372101677,0.8466366937888992,0.000886658998705929,0.0003983609435132479,-0.0005444284973251751,0.0006132489809055392,-0.00013034148241892153,-8.286095592388657e-05,-0.0006301126615338375,0.0,0.0,0.0,0.0,0.0,0.0,0.0,-1.8751090555865768e-05,0.0006863616515274673,9.482532053270432e-05,-0.00048153082529478475,-2.646858791359452e-06,-3.361701965287622e-05,5.642926251270275e-06,-0.000886658998705929,-0.0003983609435132479,0.0005444284973251751,-0.0006132489809055392,0.00013034148241892153,8.286095592388657e-05,0.0006301126615338375,0.4505855441093445,47.27004623413086,1.0695464611053467,-20.824617385864258,-0.5404563546180725,-2.3330721855163574,0.28964561223983765,0
57,0.28026604652404785,-0.4505855441093445,-47.27004623413086,-1.0695464611053467,20.824617385864258,0.5404563546180725,2.3330721855163574,-0.28964561223983765,0.0,0.0,0.0,0.0,0.0,0.0,0.0,-0.4304385341140539,-0.47756072098702845,-0.20685781149054958,0.4292402150575792,-0.04030619366918043,0.11191097402561308,-0.3017526384876779,0.062282483798892875,0.6877316159268454,-0.07873420058003625,-1.6205557484543134,0.028169992561439212,2.2878648542298206,0.8466310508626479,0.06226373270833701,0.6884179775783729,-0.07863937525950354,-1.6210372792796082,0.028167345702647853,2.2878312372101677,0.8466366937888992,0.000886658998705929,0.0003983609435132479,-0.0005444284973251751,0.0006132489809055392,-0.00013034148241892153,-8.286095592388657e-05,-0.0006301126615338375,0.0,0.0,0.0,0.0,0.0,0.0,0.0,-1.8751090555865768e-05,0.0006863616515274673,9.482532053270432e-05,-0.00048153082529478475,-2.646858791359452e-06,-3.361701965287622e-05,5.642926251270275e-06,-0.000886658998705929,-0.0003983609435132479,0.0005444284973251751,-0.0006132489809055392,0.00013034148241892153,8.286095592388657e-05,0.0006301126615338375,0.4505855441093445,47.27004623413086,1.0695464611053467,-20.824617385864258,-0.5404563546180725,-2.3330721855163574,0.28964561223983765,0
58,0.2855823040008545,-0.4267818331718445,-47.29384994506836,-1.0417754650115967,20.824617385864258,0.5404563546180725,2.3266634941101074,-0.26858848333358765,0.0,0.0,0.0,0.0,0.0,0.0,0.0,-0.41934411225755736,-0.47053415244730756,-0.20100181422478244,0.4271239835780464,-0.04027606062636392,0.11081248565013556,-0.3023449534906465,0.06228081336303761,0.6877341572937375,-0.07873835963122515,-1.6205558308706103,0.028173349241077197,2.2878655663066434,0.8466290643385389,0.06226373270833701,0.6884179775783729,-0.07863937525950354,-1.6210372792796082,0.028167345702647853,2.2878312372101677,0.8466366937888992,0.00039534853834635546,0.0009151239307505652,-0.0006081468680961045,0.0004168682012744335,3.563165131892468e-05,0.0002236183552744282,-0.0011038620006241784,0.0,0.0,0.0,0.0,0.0,0.0,0.0,-1.7080654700601938e-05,0.000683820284635317,9.898437172160823e-05,-0.00048144840899788655,-6.00353842934373e-06,-3.4329096475715914e-05,7.629450360258083e-06,-0.00039534853834635546,-0.0009151239307505652,0.0006081468680961045,-0.0004168682012744335,-3.563165131892468e-05,-0.0002236183552744282,0.0011038620006241784,0.4267818331718445,47.29384994506836,1.0417754650115967,-20.824617385864258,-0.5404563546180725,-2.3266634941101074,0.26858848333358765,0
59,0.29001951217651367,-0.4267818331718445,-47.29384994506836,-1.0417754650115967,20.824617385864258,0.5404563546180725,2.3266634941101074,-0.26858848333358765,0.0,0.0,0.0,0.0,0.0,0.0,0.0,-0.41934411225755736,-0.47053415244730756,-0.20100181422478244,0.4271239835780464,-0.04027606062636392,0.11081248565013556,-0.3023449534906465,0.06228081336303761,0.6877341572937375,-0.07873835963122515,-1.6205558308706103,0.028173349241077197,2.2878655663066434,0.8466290643385389,0.06226373270833701,0.6884179775783729,-0.07863937525950354,-1.6210372792796082,0.028167345702647853,2.2878312372101677,0.8466366937888992,0.00039534853834635546,0.0009151239307505652,-0.0006081468680961045,0.0004168682012744335,3.563165131892468e-05,0.0002236183552744282,-0.0011038620006241784,0.0,0.0,0.0,0.0,0.0,0.0,0.0,-1.7080654700601938e-05,0.000683820284635317,9.898437172160823e-05,-0.00048144840899788655,-6.00353842934373e-06,-3.4329096475715914e-05,7.629450360258083e-06,-0.00039534853834635546,-0.0009151239307505652,0.0006081468680961045,-0.0004168682012744335,-3.563165131892468e-05,-0.0002236183552744282,0.0011038620006241784,0.4267818331718445,47.29384994506836,1.0417754650115967,-20.824617385864258,-0.5404563546180725,-2.3266634941101074,0.26858848333358765,0
60,0.29499101638793945,-0.4029781222343445,-47.29384994506836,-1.0417754650115967,20.876192092895508,0.5459495186805725,2.3330721855163574,-0.28964561223983765,0.0,0.0,0.0,0.0,0.0,0.0,0.0,-0.4237680708337157,-0.4803048352635933,-0.20472181321994784,0.4306044652606061,-0.03982349683232957,0.11152210767832343,-0.3012163598764181,0.06227914292718235,0.6877331938128735,-0.07873825441574872,-1.620559379942285,0.028173995471927015,2.2878648542298206,0.8466314040753573,0.06226373270833701,0.6884179775783729,-0.07863937525950354,-1.6210372792796082,0.028167345702647853,2.2878312372101677,0.8466366937888992,-4.3506485582741165e-05,0.0003575440798014364,-0.0007562125142880831,-0.0009044684798107411,-0.00029182387215681565,-4.8304076199557274e-05,-0.000246687318225278,0.0,0.0,0.0,0.0,0.0,0.0,0.0,-1.541021884533811e-05,0.0006847837654994082,9.887915624517962e-05,-0.00047789933732311773,-6.649769279162138e-06,-3.361701965287622e-05,5.289713541856145e-06,4.3506485582741165e-05,-0.0003575440798014364,0.0007562125142880831,0.0009044684798107411,0.00029182387215681565,4.8304076199557274e-05,0.000246687318225278,0.4029781222343445,47.29384994506836,1.0417754650115967,-20.876192092895508,-0.5459495186805725,-2.3330721855163574,0.28964561223983765,0
61,0.30002260208129883,-0.4029781222343445,-47.29384994506836,-1.0417754650115967,20.876192092895508,0.5459495186805725,2.3330721855163574,-0.28964561223983765,0.0,0.0,0.0,0.0,0.0,0.0,0.0,-0.4237680708337157,-0.4803048352635933,-0.20472181321994784,0.4306044652606061,-0.03982349683232957,0.11152210767832343,-0.3012163598764181,0.06227914292718235,0.6877331938128735,-0.07873825441574872,-1.620559379942285,0.028173995471927015,2.2878648542298206,0.8466314040753573,0.06226373270833701,0.6884179775783729,-0.07863937525950354,-1.6210372792796082,0.028167345702647853,2.2878312372101677,0.8466366937888992,-4.3506485582741165e-05,0.0003575440798014364,-0.0007562125142880831,-0.0009044684798107411,-0.00029182387215681565,-4.8304076199557274e-05,-0.000246687318225278,0.0,0.0,0.0,0.0,0.0,0.0,0.0,-1.541021884533811e-05,0.0006847837654994082,9.887915624517962e-05,-0.00047789933732311773,-6.649769279162138e-06,-3.361701965287622e-05,5.289713541856145e-06,4.3506485582741165e-05,-0.0003575440798014364,0.0007562125142880831,0.0009044684798107411,0.00029182387215681565,4.8304076199557274e-05,0.000246687318225278,0.4029781222343445,47.29384994506836,1.0417754650115967,-20.876192092895508,-0.5459495186805725,-2.3330721855163574,0.28964561223983765,0
62,0.30501818656921387,-0.4505855441093445,-47.27004623413086,-1.0695464611053467,20.876192092895508,0.5404563546180725,2.3202548027038574,-0.25485557317733765,0.0,0.0,0.0,0.0,0.0,0.0,0.0,-0.4218572435135333,-0.48269954605285686,-0.2014884032630033,0.4307154060761217,-0.03948391126079842,0.1118788934148168,-0.29942799063136194,0.062282483798892875,0.6877337495927974,-0.0787342796104484,-1.6205596153201254,0.02817038703900969,2.2878662778989503,0.8466275385154618,0.06226373270833701,0.6884179775783729,-0.07863937525950354,-1.6210372792796082,0.028167345702647853,2.2878312372101677,0.8466366937888992,0.0011815896803076583,-0.0003709877022065874,7.896738797986012e-05,-0.0005168339971448097,-7.56008010006642e-05,0.00047938102072134757,-0.001673006887002546,0.0,0.0,0.0,0.0,0.0,0.0,0.0,-1.8751090555865768e-05,0.0006842279855754363,9.490435094486327e-05,-0.00047766395948278806,-3.0413363618364553e-06,-3.5040688782572715e-05,9.155273437366773e-06,-0.0011815896803076583,0.0003709877022065874,-7.896738797986012e-05,0.0005168339971448097,7.56008010006642e-05,-0.00047938102072134757,0.001673006887002546,0.4505855441093445,47.27004623413086,1.0695464611053467,-20.876192092895508,-0.5404563546180725,-2.3202548027038574,0.25485557317733765,0
63,0.3100137710571289,-0.4505855441093445,-47.27004623413086,-1.0695464611053467,20.876192092895508,0.5404563546180725,2.3202548027038574,-0.25485557317733765,0.0,0.0,0.0,0.0,0.0,0.0,0.0,-0.4218572435135333,-0.48269954605285686,-0.2014884032630033,0.4307154060761217,-0.03948391126079842,0.1118788934148168,-0.29942799063136194,0.062282483798892875,0.6877337495927974,-0.0787342796104484,-1.6205596153201254,0.02817038703900969,2.2878662778989503,0.8466275385154618,0.06226373270833701,0.6884179775783729,-0.07863937525950354,-1.6210372792796082,0.028167345702647853,2.2878312372101677,0.8466366937888992,0.0011815896803076583,-0.0003709877022065874,7.896738797986012e-05,-0.0005168339971448097,-7.56008010006642e-05,0.00047938102072134757,-0.001673006887002546,0.0,0.0,0.0,0.0,0.0,0.0,0.0,-1.8751090555865768e-05,0.0006842279855754363,9.490435094486327e-05,-0.00047766395948278806,-3.0413363618364553e-06,-3.5040688782572715e-05,9.155273437366773e-06,-0.0011815896803076583,0.0003709877022065874,-7.896738797986012e-05,0.0005168339971448097,7.56008010006642e-05,-0.00047938102072134757,0.001673006887002546,0.4505855441093445,47.27004623413086,1.0695464611053467,-20.876192092895508,-0.5404563546180725,-2.3202548027038574,0.25485557317733765,0
64,0.31500887870788574,-0.4505855441093445,-47.29384994506836,-1.1171538829803467,20.848421096801758,0.5459495186805725,2.3266634941101074,-0.27591270208358765,0.0,0.0,0.0,0.0,0.0,0.0,0.0,-0.4371476133991637,-0.480727592135662,-0.2128970589942425,0.4278548802453103,-0.03917069469978737,0.11177376736515673,-0.29885063035893566,0.062282483798892875,0.6877339091120777,-0.07873233332245776,-1.6205584078871518,0.02816939790359903,2.2878655663066407,0.8466298781964514,0.06226373270833701,0.6884179775783729,-0.07863937525950354,-1.6210372792796082,0.028167345702647853,2.2878312372101677,0.8466366937888992,3.821992949529463e-05,0.00045471852931478174,0.0009173155228856385,-0.00011270315527766625,-0.00023734920479079162,0.0002904058242029091,-0.0009598112141558164,0.0,0.0,0.0,0.0,0.0,0.0,0.0,-1.8751090555865768e-05,0.0006840684662952068,9.295806295421538e-05,-0.00047887139245639254,-2.0522009511782235e-06,-3.432909647305138e-05,6.815592447750873e-06,-3.821992949529463e-05,-0.00045471852931478174,-0.0009173155228856385,0.00011270315527766625,0.00023734920479079162,-0.0002904058242029091,0.0009598112141558164,0.4505855441093445,47.29384994506836,1.1171538829803467,-20.848421096801758,-0.5459495186805725,-2.3266634941101074,0.27591270208358765,0
65,0.31999850273132324,-0.4505855441093445,-47.29384994506836,-1.1171538829803467,20.848421096801758,0.5459495186805725,2.3266634941101074,-0.27591270208358765,0.0,0.0,0.0,0.0,0.0,0.0,0.0,-0.4371476133991637,-0.480727592135662,-0.2128970589942425,0.4278548802453103,-0.03917069469978737,0.11177376736515673,-0.29885063035893566,0.062282483798892875,0.6877339091120777,-0.07873233332245776,-1.6205584078871518,0.02816939790359903,2.2878655663066407,0.8466298781964514,0.06226373270833701,0.6884179775783729,-0.07863937525950354,-1.6210372792796082,0.028167345702647853,2.2878312372101677,0.8466366937888992,3.821992949529463e-05,0.00045471852931478174,0.0009173155228856385,-0.00011270315527766625,-0.00023734920479079162,0.0002904058242029091,-0.0009598112141558164,0.0,0.0,0.0,0.0,0.0,0.0,0.0,-1.8751090555865768e-05,0.0006840684662952068,9.295806295421538e-05,-0.00047887139245639254,-2.0522009511782235e-06,-3.432909647305138e-05,6.815592447750873e-06,-3.821992949529463e-05,-0.00045471852931478174,-0.0009173155228856385,0.00011270315527766625,0.00023734920479079162,-0.0002904058242029091,0.0009598112141558164,0.4505855441093445,47.29384994506836,1.1171538829803467,-20.848421096801758,-0.5459495186805725,-2.3266634941101074,0.27591270208358765,0
66,0.3249979019165039,-0.4505855441093445,-47.29384994506836,-1.0933501720428467,20.848421096801758,0.5459495186805725,2.3394808769226074,-0.27591270208358765,0.0,0.0,0.0,0.0,0.0,0.0,0.0,-0.40851138875017023,-0.47608172123324566,-0.19186689498685697,0.4246411956540653,-0.03907163361691354,0.11159738286719434,-0.29832499938108425,0.062282483798892875,0.6877335383028808,-0.07873470496109533,-1.6205604958839643,0.02817258890063022,2.2878641029071414,0.8466288140361657,0.06226373270833701,0.6884179775783729,-0.07863937525950354,-1.6210372792796082,0.028167345702647853,2.2878312372101677,0.8466366937888992,0.0006435069066997052,0.0008870653125882312,0.00057711074456533,-0.00026357950707772714,-0.00022994402335792618,-0.0002283780008308257,-0.0009593170642527079,0.0,0.0,0.0,0.0,0.0,0.0,0.0,-1.8751090555865768e-05,0.0006844392754921103,9.532970159178977e-05,-0.00047678339564383165,-5.243197982368608e-06,-3.2865696973694014e-05,7.879752733419565e-06,-0.0006435069066997052,-0.0008870653125882312,-0.00057711074456533,0.00026357950707772714,0.00022994402335792618,0.0002283780008308257,0.0009593170642527079,0.4505855441093445,47.29384994506836,1.0933501720428467,-20.848421096801758,-0.5459495186805725,-2.3394808769226074,0.27591270208358765,0
67,0.33001160621643066,-0.4505855441093445,-47.29384994506836,-1.0933501720428467,20.848421096801758,0.5459495186805725,2.3394808769226074,-0.27591270208358765,0.0,0.0,0.0,0.0,0.0,0.0,0.0,-0.40851138875017023,-0.47608172123324566,-0.19186689498685697,0.4246411956540653,-0.03907163361691354,0.11159738286719434,-0.29832499938108425,0.062282483798892875,0.6877335383028808,-0.07873470496109533,-1.6205604958839643,0.02817258890063022,2.2878641029071414,0.8466288140361657,0.06226373270833701,0.6884179775783729,-0.07863937525950354,-1.6210372792796082,0.028167345702647853,2.2878312372101677,0.8466366937888992,0.0006435069066997052,0.0008870653125882312,0.00057711074456533,-0.00026357950707772714,-0.00022994402335792618,-0.0002283780008308257,-0.0009593170642527079,0.0,0.0,0.0,0.0,0.0,0.0,0.0,-1.8751090555865768e-05,0.0006844392754921103,9.532970159178977e-05,-0.00047678339564383165,-5.243197982368608e-06,-3.2865696973694014e-05,7.879752733419565e-06,-0.0006435069066997052,-0.0008870653125882312,-0.00057711074456533,0.00026357950707772714,0.00022994402335792618,0.0002283780008308257,0.0009593170642527079,0.4505855441093445,47.29384994506836,1.0933501720428467,-20.848421096801758,-0.5459495186805725,-2.3394808769226074,0.27591270208358765,0
68,0.33501434326171875,-0.4783565402030945,-47.24624252319336,-1.0933501720428467,20.800813674926758,0.5340476632118225,2.3266634941101074,-0.26217979192733765,0.0,0.0,0.0,0.0,0.0,0.0,0.0,-0.432839804944008,-0.472337269956551,-0.20976914830186422,0.4213749257837521,-0.03885727850402226,0.11093642434397326,-0.29737655336462343,0.062284432640724016,0.6877320075351984,-0.0787323717264511,-1.6205540780358259,0.02817071742599636,2.2878655663064222,0.8466283508579877,0.06226373270833701,0.6884179775783729,-0.07863937525950354,-1.6210372792796082,0.028167345702647853,2.2878312372101677,0.8466366937888992,0.0008373014773339813,-9.232988370803451e-05,0.00012562714084356233,0.0008333163832978859,0.00027393564313557653,7.34565540987648e-05,-0.0016825606280549956,0.0,0.0,0.0,0.0,0.0,0.0,0.0,-2.0699932387006903e-05,0.0006859700431744997,9.299646694756192e-05,-0.0004832012437823163,-3.3717233485081044e-06,-3.432909625455949e-05,8.34293091145355e-06,-0.0008373014773339813,9.232988370803451e-05,-0.00012562714084356233,-0.0008333163832978859,-0.00027393564313557653,-7.34565540987648e-05,0.0016825606280549956,0.4783565402030945,47.24624252319336,1.0933501720428467,-20.800813674926758,-0.5340476632118225,-2.3266634941101074,0.26217979192733765,0
69,0.34094882011413574,-0.4783565402030945,-47.24624252319336,-1.0933501720428467,20.800813674926758,0.5340476632118225,2.3266634941101074,-0.26217979192733765,0.0,0.0,0.0,0.0,0.0,0.0,0.0,-0.432839804944008,-0.472337269956551,-0.20976914830186422,0.4213749257837521,-0.03885727850402226,0.11093642434397326,-0.29737655336462343,0.062284432640724016,0.6877320075351984,-0.0787323717264511,-1.6205540780358259,0.02817071742599636,2.2878655663064222,0.8466283508579877,0.06226373270833701,0.6884179775783729,-0.07863937525950354,-1.6210372792796082,0.028167345702647853,2.2878312372101677,0.8466366937888992,0.0008373014773339813,-9.232988370803451e-05,0.00012562714084356233,0.0008333163832978859,0.00027393564313557653,7.34565540987648e-05,-0.0016825606280549956,0.0,0.0,0.0,0.0,0.0,0.0,0.0,-2.0699932387006903e-05,0.0006859700431744997,9.299646694756192e-05,-0.0004832012437823163,-3.3717233485081044e-06,-3.432909625455949e-05,8.34293091145355e-06,-0.0008373014773339813,9.232988370803451e-05,-0.00012562714084356233,-0.0008333163832978859,-0.00027393564313557653,-7.34565540987648e-05,0.0016825606280549956,0.4783565402030945,47.24624252319336,1.0933501720428467,-20.800813674926758,-0.5340476632118225,-2.3266634941101074,0.26217979192733765,0
70,0.3450160026550293,-0.4505855441093445,-47.27004623413086,-1.0695464611053467,20.824617385864258,0.5404563546180725,2.3394808769226074,-0.27591270208358765,0.0,0.0,0.0,0.0,0.0,0.0,0.0,-0.419984833622997,-0.47985091369494054,-0.20030325361583307,0.42601337400237016,-0.0392705397335972,0.11100051872282053,-0.29726275410800534,0.062282483798892875,0.6877322386758181,-0.07873641068024052,-1.6205557484543114,0.028170122097451084,2.28786096323861,0.84662658149065,0.06226373270833701,0.6884179775783729,-0.07863937525950354,-1.6210372792796082,0.028167345702647853,2.2878312372101677,0.8466366937888992,0.00023900308671146833,0.00042540777334164716,5.935991561594986e-05,0.0007197816288893545,-0.00018559041349071445,-0.00022896876138924348,-0.0010548071282378145,0.0,0.0,0.0,0.0,0.0,0.0,0.0,-1.8751090555865768e-05,0.0006857389025547445,9.703542073698224e-05,-0.00048153082529678315,-2.776394803231247e-06,-2.9726028442311758e-05,1.0112298249209672e-05,-0.00023900308671146833,-0.00042540777334164716,-5.935991561594986e-05,-0.0007197816288893545,0.00018559041349071445,0.00022896876138924348,0.0010548071282378145,0.4505855441093445,47.27004623413086,1.0695464611053467,-20.824617385864258,-0.5404563546180725,-2.3394808769226074,0.27591270208358765,0
71,0.34999990463256836,-0.4505855441093445,-47.27004623413086,-1.0695464611053467,20.824617385864258,0.5404563546180725,2.3394808769226074,-0.27591270208358765,0.0,0.0,0.0,0.0,0.0,0.0,0.0,-0.419984833622997,-0.47985091369494054,-0.20030325361583307,0.42601337400237016,-0.0392705397335972,0.11100051872282053,-0.29726275410800534,0.062282483798892875,0.6877322386758181,-0.07873641068024052,-1.6205557484543114,0.028170122097451084,2.28786096323861,0.84662658149065,0.06226373270833701,0.6884179775783729,-0.07863937525950354,-1.6210372792796082,0.028167345702647853,2.2878312372101677,0.8466366937888992,0.00023900308671146833,0.00042540777334164716,5.935991561594986e-05,0.0007197816288893545,-0.00018559041349071445,-0.00022896876138924348,-0.0010548071282378145,0.0,0.0,0.0,0.0,0.0,0.0,0.0,-1.8751090555865768e-05,0.0006857389025547445,9.703542073698224e-05,-0.00048153082529678315,-2.776394803231247e-06,-2.9726028442311758e-05,1.0112298249209672e-05,-0.00023900308671146833,-0.00042540777334164716,-5.935991561594986e-05,-0.0007197816288893545,0.00018559041349071445,0.00022896876138924348,0.0010548071282378145,0.4505855441093445,47.27004623413086,1.0695464611053467,-20.824617385864258,-0.5404563546180725,-2.3394808769226074,0.27591270208358765,0
72,0.355022668838501,-0.4267818331718445,-47.27004623413086,-1.0695464611053467,20.848421096801758,0.5404563546180725,2.3330721855163574,-0.31711143255233765,0.0,0.0,0.0,0.0,0.0,0.0,0.0,-0.42287534706360314,-0.48668917205815637,-0.2003569257199782,0.4303595150184254,-0.03917428738800457,0.11189816266776084,-0.2986866825104817,0.06228081336303761,0.6877336783001957,-0.07873419711752293,-1.6205574312130429,0.028174610025741134,2.287864736474306,0.8466344558145601,0.06226373270833701,0.6884179775783729,-0.07863937525950354,-1.6210372792796082,0.028167345702647853,2.2878312372101677,0.8466366937888992,0.00024439813890556153,0.0003258314561244121,-6.995131661611475e-05,0.0003167137022044931,4.793288818657772e-05,-0.00010768976928643164,0.000343223296652487,0.0,0.0,0.0,0.0,0.0,0.0,0.0,-1.7080654700601938e-05,0.0006842992781771473,9.482185801938658e-05,-0.00047984806656531376,-7.2643230932811775e-06,-3.34992641382037e-05,2.2379743390699147e-06,-0.00024439813890556153,-0.0003258314561244121,6.995131661611475e-05,-0.0003167137022044931,-4.793288818657772e-05,0.00010768976928643164,-0.000343223296652487,0.4267818331718445,47.27004623413086,1.0695464611053467,-20.848421096801758,-0.5404563546180725,-2.3330721855163574,0.31711143255233765,0
73,0.3600020408630371,-0.4267818331718445,-47.27004623413086,-1.0695464611053467,20.848421096801758,0.5404563546180725,2.3330721855163574,-0.31711143255233765,0.0,0.0,0.0,0.0,0.0,0.0,0.0,-0.42287534706360314,-0.48668917205815637,-0.2003569257199782,0.4303595150184254,-0.03917428738800457,0.11189816266776084,-0.2986866825104817,0.06228081336303761,0.6877336783001957,-0.07873419711752293,-1.6205574312130429,0.028174610025741134,2.287864736474306,0.8466344558145601,0.06226373270833701,0.6884179775783729,-0.07863937525950354,-1.6210372792796082,0.028167345702647853,2.2878312372101677,0.8466366937888992,0.00024439813890556153,0.0003258314561244121,-6.995131661611475e-05,0.0003167137022044931,4.793288818657772e-05,-0.00010768976928643164,0.000343223296652487,0.0,0.0,0.0,0.0,0.0,0.0,0.0,-1.7080654700601938e-05,0.0006842992781771473,9.482185801938658e-05,-0.00047984806656531376,-7.2643230932811775e-06,-3.34992641382037e-05,2.2379743390699147e-06,-0.00024439813890556153,-0.0003258314561244121,6.995131661611475e-05,-0.0003167137022044931,-4.793288818657772e-05,0.00010768976928643164,-0.000343223296652487,0.4267818331718445,47.27004623413086,1.0695464611053467,-20.848421096801758,-0.5404563546180725,-2.3330721855163574,0.31711143255233765,0
74,0.3650040626525879,-0.4029781222343445,-47.21847152709961,-1.0695464611053467,20.848421096801758,0.5285544991493225,2.3330721855163574,-0.32352012395858765,0.0,0.0,0.0,0.0,0.0,0.0,0.0,-0.42378304962578706,-0.47866564899052433,-0.2013275700017374,0.4274845512319565,-0.03897731963863436,0.11138262427574074,-0.3013975382697035,0.06227914292718235,0.6877287292865322,-0.078734278515954,-1.620557419342452,0.028171332005991655,2.287864854229156,0.8466351677484873,0.06226373270833701,0.6884179775783729,-0.07863937525950354,-1.6210372792796082,0.028167345702647853,2.2878312372101677,0.8466366937888992,-0.0004193780735495043,-0.0012408585013122945,0.00022764207558160647,-8.238410764597487e-05,0.0003719687573888486,7.315150237397784e-05,0.0006441554692385451,0.0,0.0,0.0,0.0,0.0,0.0,0.0,-1.541021884533811e-05,0.0006892482918406939,9.490325645046538e-05,-0.0004798599371562684,-3.9863033438024276e-06,-3.3617018988518765e-05,1.5260404118144777e-06,0.0004193780735495043,0.0012408585013122945,-0.00022764207558160647,8.238410764597487e-05,-0.0003719687573888486,-7.315150237397784e-05,-0.0006441554692385451,0.4029781222343445,47.21847152709961,1.0695464611053467,-20.848421096801758,-0.5285544991493225,-2.3330721855163574,0.32352012395858765,0
75,0.3699934482574463,-0.4029781222343445,-47.21847152709961,-1.0695464611053467,20.848421096801758,0.5285544991493225,2.3330721855163574,-0.32352012395858765,0.0,0.0,0.0,0.0,0.0,0.0,0.0,-0.42378304962578706,-0.47866564899052433,-0.2013275700017374,0.4274845512319565,-0.03897731963863436,0.11138262427574074,-0.3013975382697035,0.06227914292718235,0.6877287292865322,-0.078734278515954,-1.620557419342452,0.028171332005991655,2.287864854229156,0.8466351677484873,0.06226373270833701,0.6884179775783729,-0.07863937525950354,-1.6210372792796082,0.028167345702647853,2.2878312372101677,0.8466366937888992,-0.0004193780735495043,-0.0012408585013122945,0.00022764207558160647,-8.238410764597487e-05,0.0003719687573888486,7.315150237397784e-05,0.0006441554692385451,0.0,0.0,0.0,0.0,0.0,0.0,0.0,-1.541021884533811e-05,0.0006892482918406939,9.490325645046538e-05,-0.0004798599371562684,-3.9863033438024276e-06,-3.3617018988518765e-05,1.5260404118144777e-06,0.0004193780735495043,0.0012408585013122945,-0.00022764207558160647,8.238410764597487e-05,-0.0003719687573888486,-7.315150237397784e-05,-0.0006441554692385451,0.4029781222343445,47.21847152709961,1.0695464611053467,-20.848421096801758,-0.5285544991493225,-2.3330721855163574,0.32352012395858765,0
76,0.37499570846557617,-0.4029781222343445,-47.21847152709961,-1.0695464611053467,20.848421096801758,0.5285544991493225,2.3330721855163574,-0.32352012395858765,0.0,0.0,0.0,0.0,0.0,0.0,0.0,-0.42378304962578706,-0.47866564899052433,-0.2013275700017374,0.4274845512319565,-0.03897731963863436,0.11138262427574074,-0.3013975382697035,0.06227914292718235,0.6877287292865322,-0.078734278515954,-1.620557419342452,0.028171332005991655,2.287864854229156,0.8466351677484873,0.06226373270833701,0.6884179775783729,-0.07863937525950354,-1.6210372792796082,0.028167345702647853,2.2878312372101677,0.8466366937888992,-0.0004193780735495043,-0.0012408585013122945,0.00022764207558160647,-8.238410764597487e-05,0.0003719687573888486,7.315150237397784e-05,0.0006441554692385451,0.0,0.0,0.0,0.0,0.0,0.0,0.0,-1.541021884533811e-05,0.0006892482918406939,9.490325645046538e-05,-0.0004798599371562684,-3.9863033438024276e-06,-3.3617018988518765e-05,1.5260404118144777e-06,0.0004193780735495043,0.0012408585013122945,-0.00022764207558160647,8.238410764597487e-05,-0.0003719687573888486,-7.315150237397784e-05,-0.0006441554692385451,0.4029781222343445,47.21847152709961,1.0695464611053467,-20.848421096801758,-0.5285544991493225,-2.3330721855163574,0.32352012395858765,0
77,0.37999701499938965,-0.4029781222343445,-47.21847152709961,-1.0695464611053467,20.848421096801758,0.5285544991493225,2.3330721855163574,-0.32352012395858765,0.0,0.0,0.0,0.0,0.0,0.0,0.0,-0.42378304962578706,-0.47866564899052433,-0.2013275700017374,0.4274845512319565,-0.03897731963863436,0.11138262427574074,-0.3013975382697035,0.06227914292718235,0.6877287292865322,-0.078734278515954,-1.620557419342452,0.028171332005991655,2.287864854229156,0.8466351677484873,0.06226373270833701,0.6884179775783729,-0.07863937525950354,-1.6210372792796082,0.028167345702647853,2.2878312372101677,0.8466366937888992,-0.0004193780735495043,-0.0012408585013122945,0.00022764207558160647,-8.238410764597487e-05,0.0003719687573888486,7.315150237397784e-05,0.0006441554692385451,0.0,0.0,0.0,0.0,0.0,0.0,0.0,-1.541021884533811e-05,0.0006892482918406939,9.490325645046538e-05,-0.0004798599371562684,-3.9863033438024276e-06,-3.3617018988518765e-05,1.5260404118144777e-06,0.0004193780735495043,0.0012408585013122945,-0.00022764207558160647,8.238410764597487e-05,-0.0003719687573888486,-7.315150237397784e-05,-0.0006441554692385451,0.4029781222343445,47.21847152709961,1.0695464611053467,-20.848421096801758,-0.5285544991493225,-2.3330721855163574,0.32352012395858765,0
78,0.38499903678894043,-0.4029781222343445,-47.27004623413086,-1.0695464611053467,20.824617385864258,0.5340476632118225,2.3330721855163574,-0.25485557317733765,0.0,0.0,0.0,0.0,0.0,0.0,0.0,-0.4259942360217374,-0.48381268313207787,-0.20613134032301209,0.4323560962938371,-0.03901601892027208,0.11269169753066549,-0.3026842978697451,0.06227914292718235,0.6877322690475137,-0.07873640093824576,-1.6205557762655753,0.028173899641570656,2.287861675315433,0.8466275385154609,0.06226373270833701,0.6884179775783729,-0.07863937525950354,-1.6210372792796082,0.028167345702647853,2.2878312372101677,0.8466366937888992,-0.0002936600431823817,0.0001489258176048266,-0.000577122538245064,0.0011255523737952035,0.0002185311054829997,4.971313210531268e-05,-0.002103369717362731,0.0,0.0,0.0,0.0,0.0,0.0,0.0,-1.541021884533811e-05,0.0006857085308591415,9.702567874221579e-05,-0.0004815030140328247,-6.5539389228035094e-06,-3.043810526515145e-05,9.155273438254952e-06,0.0002936600431823817,-0.0001489258176048266,0.000577122538245064,-0.0011255523737952035,-0.0002185311054829997,-4.971313210531268e-05,0.002103369717362731,0.4029781222343445,47.27004623413086,1.0695464611053467,-20.824617385864258,-0.5340476632118225,-2.3330721855163574,0.25485557317733765,0
79,0.39000463485717773,-0.4029781222343445,-47.27004623413086,-1.0695464611053467,20.824617385864258,0.5340476632118225,2.3330721855163574,-0.25485557317733765,0.0,0.0,0.0,0.0,0.0,0.0,0.0,-0.4259942360217374,-0.48381268313207787,-0.20613134032301209,0.4323560962938371,-0.03901601892027208,0.11269169753066549,-0.3026842978697451,0.06227914292718235,0.6877322690475137,-0.07873640093824576,-1.6205557762655753,0.028173899641570656,2.287861675315433,0.8466275385154609,0.06226373270833701,0.6884179775783729,-0.07863937525950354,-1.6210372792796082,0.028167345702647853,2.2878312372101677,0.8466366937888992,-0.0002936600431823817,0.0001489258176048266,-0.000577122538245064,0.0011255523737952035,0.0002185311054829997,4.971313210531268e-05,-0.002103369717362731,0.0,0.0,0.0,0.0,0.0,0.0,0.0,-1.541021884533811e-05,0.0006857085308591415,9.702567874221579e-05,-0.0004815030140328247,-6.5539389228035094e-06,-3.043810526515145e-05,9.155273438254952e-06,0.0002936600431823817,-0.0001489258176048266,0.000577122538245064,-0.0011255523737952035,-0.0002185311054829997,-4.971313210531268e-05,0.002103369717362731,0.4029781222343445,47.27004623413086,1.0695464611053467,-20.824617385864258,-0.5340476632118225,-2.3330721855163574,0.25485557317733765,0
