rezayati/contactInterpretation/dataset/franka_main/labeled_data/link5/c6_3.csv
index,time,tau_J0,tau_J1,tau_J2,tau_J3,tau_J4,tau_J5,tau_J6,tau_J_d0,tau_J_d1,tau_J_d2,tau_J_d3,tau_J_d4,tau_J_d5,tau_J_d6,tau_ext0,tau_ext1,tau_ext2,tau_ext3,tau_ext4,tau_ext5,tau_ext6,q0,q1,q2,q3,q4,q5,q6,q_d0,q_d1,q_d2,q_d3,q_d4,q_d5,q_d6,dq0,dq1,dq2,dq3,dq4,dq5,dq6,dq_d0,dq_d1,dq_d2,dq_d3,dq_d4,dq_d5,dq_d6,e0,e1,e2,e3,e4,e5,e6,de0,de1,de2,de3,de4,de5,de6,etau_J0,etau_J1,etau_J2,etau_J3,etau_J4,etau_J5,etau_J6,label
1,0.0,-0.3752071261405945,-34.06295394897461,-3.8744170665740967,19.336885452270508,0.3317161202430725,1.783755898475647,-0.14590780436992645,0.0,0.0,0.0,0.0,0.0,0.0,0.0,-0.36148483220276517,-0.0036212883538643405,-0.32466679965034184,0.30788187165001374,0.26577365847667683,-0.122877132828489,-0.1609451475526848,1.0544177144493974,0.32346537499502476,-0.3925081663000091,-2.153136943904328,0.8647347412950561,2.4658774680610325,0.5444979066766298,1.0544104758940245,0.3238615046091247,-0.39250456234122666,-2.153291787532338,0.8647539153680389,2.46587817577521,0.5445020185570556,0.0003389462512796207,0.00023575296493369446,-0.0002446052659434046,0.0001095299042076227,-0.0003883204105650655,-0.00012155081767748575,0.00021376179587027417,0.0,0.0,0.0,0.0,0.0,0.0,0.0,-7.238555372879318e-06,0.0003961296140999604,3.603958782461003e-06,-0.00015484362800988194,1.9174072982797163e-05,7.077141774836093e-07,4.111880425816672e-06,-0.0003389462512796207,-0.00023575296493369446,0.0002446052659434046,-0.0001095299042076227,0.0003883204105650655,0.00012155081767748575,-0.00021376179587027417,0.3752071261405945,34.06295394897461,3.8744170665740967,-19.336885452270508,-0.3317161202430725,-1.783755898475647,0.14590780436992645,0
2,0.004609823226928711,-0.3752071261405945,-34.06295394897461,-3.8744170665740967,19.336885452270508,0.3317161202430725,1.783755898475647,-0.14590780436992645,0.0,0.0,0.0,0.0,0.0,0.0,0.0,-0.36148483220276517,-0.0036212883538643405,-0.32466679965034184,0.30788187165001374,0.26577365847667683,-0.122877132828489,-0.1609451475526848,1.0544177144493974,0.32346537499502476,-0.3925081663000091,-2.153136943904328,0.8647347412950561,2.4658774680610325,0.5444979066766298,1.0544104758940245,0.3238615046091247,-0.39250456234122666,-2.153291787532338,0.8647539153680389,2.46587817577521,0.5445020185570556,0.0003389462512796207,0.00023575296493369446,-0.0002446052659434046,0.0001095299042076227,-0.0003883204105650655,-0.00012155081767748575,0.00021376179587027417,0.0,0.0,0.0,0.0,0.0,0.0,0.0,-7.238555372879318e-06,0.0003961296140999604,3.603958782461003e-06,-0.00015484362800988194,1.9174072982797163e-05,7.077141774836093e-07,4.111880425816672e-06,-0.0003389462512796207,-0.00023575296493369446,0.0002446052659434046,-0.0001095299042076227,0.0003883204105650655,0.00012155081767748575,-0.00021376179587027417,0.3752071261405945,34.06295394897461,3.8744170665740967,-19.336885452270508,-0.3317161202430725,-1.783755898475647,0.14590780436992645,0
3,0.009598016738891602,-0.4029781222343445,-34.09072494506836,-3.8506133556365967,19.360689163208008,0.3198142647743225,1.790164589881897,-0.15231649577617645,0.0,0.0,0.0,0.0,0.0,0.0,0.0,-0.3599115598045845,-0.007431497034989132,-0.325767147951363,0.3094007687873042,0.2660168093361529,-0.12286514527757277,-0.15955092001177706,1.0544196632912284,0.3234644544671626,-0.3925118750469643,-2.1531406712214536,0.8647360825555466,2.465877824557011,0.5444996789299013,1.0544104758940245,0.3238615046091247,-0.39250456234122666,-2.153291787532338,0.8647539153680389,2.46587817577521,0.5445020185570556,0.00126204728175735,0.0007263214520575214,-0.0005751799166317239,-0.0003449813822734265,-9.461667328960178e-05,-0.0004124149951227497,-0.0006281923487030744,0.0,0.0,0.0,0.0,0.0,0.0,0.0,-9.187397203902492e-06,0.00039705014196211863,7.312705737616554e-06,-0.00015111631088426947,1.7832812492346584e-05,3.512181989684393e-07,2.3396271543463243e-06,-0.00126204728175735,-0.0007263214520575214,0.0005751799166317239,0.0003449813822734265,9.461667328960178e-05,0.0004124149951227497,0.0006281923487030744,0.4029781222343445,34.09072494506836,3.8506133556365967,-19.360689163208008,-0.3198142647743225,-1.790164589881897,0.15231649577617645,0
4,0.01459813117980957,-0.4029781222343445,-34.09072494506836,-3.8506133556365967,19.360689163208008,0.3198142647743225,1.790164589881897,-0.15231649577617645,0.0,0.0,0.0,0.0,0.0,0.0,0.0,-0.3599115598045845,-0.007431497034989132,-0.325767147951363,0.3094007687873042,0.2660168093361529,-0.12286514527757277,-0.15955092001177706,1.0544196632912284,0.3234644544671626,-0.3925118750469643,-2.1531406712214536,0.8647360825555466,2.465877824557011,0.5444996789299013,1.0544104758940245,0.3238615046091247,-0.39250456234122666,-2.153291787532338,0.8647539153680389,2.46587817577521,0.5445020185570556,0.00126204728175735,0.0007263214520575214,-0.0005751799166317239,-0.0003449813822734265,-9.461667328960178e-05,-0.0004124149951227497,-0.0006281923487030744,0.0,0.0,0.0,0.0,0.0,0.0,0.0,-9.187397203902492e-06,0.00039705014196211863,7.312705737616554e-06,-0.00015111631088426947,1.7832812492346584e-05,3.512181989684393e-07,2.3396271543463243e-06,-0.00126204728175735,-0.0007263214520575214,0.0005751799166317239,0.0003449813822734265,9.461667328960178e-05,0.0004124149951227497,0.0006281923487030744,0.4029781222343445,34.09072494506836,3.8506133556365967,-19.360689163208008,-0.3198142647743225,-1.790164589881897,0.15231649577617645,0
5,0.01959824562072754,-0.4029781222343445,-34.09072494506836,-3.8506133556365967,19.360689163208008,0.3198142647743225,1.790164589881897,-0.15231649577617645,0.0,0.0,0.0,0.0,0.0,0.0,0.0,-0.3599115598045845,-0.007431497034989132,-0.325767147951363,0.3094007687873042,0.2660168093361529,-0.12286514527757277,-0.15955092001177706,1.0544196632912284,0.3234644544671626,-0.3925118750469643,-2.1531406712214536,0.8647360825555466,2.465877824557011,0.5444996789299013,1.0544104758940245,0.3238615046091247,-0.39250456234122666,-2.153291787532338,0.8647539153680389,2.46587817577521,0.5445020185570556,0.00126204728175735,0.0007263214520575214,-0.0005751799166317239,-0.0003449813822734265,-9.461667328960178e-05,-0.0004124149951227497,-0.0006281923487030744,0.0,0.0,0.0,0.0,0.0,0.0,0.0,-9.187397203902492e-06,0.00039705014196211863,7.312705737616554e-06,-0.00015111631088426947,1.7832812492346584e-05,3.512181989684393e-07,2.3396271543463243e-06,-0.00126204728175735,-0.0007263214520575214,0.0005751799166317239,0.0003449813822734265,9.461667328960178e-05,0.0004124149951227497,0.0006281923487030744,0.4029781222343445,34.09072494506836,3.8506133556365967,-19.360689163208008,-0.3198142647743225,-1.790164589881897,0.15231649577617645,0
6,0.024621963500976562,-0.4029781222343445,-34.09072494506836,-3.8506133556365967,19.360689163208008,0.3198142647743225,1.790164589881897,-0.15231649577617645,0.0,0.0,0.0,0.0,0.0,0.0,0.0,-0.3599115598045845,-0.007431497034989132,-0.325767147951363,0.3094007687873042,0.2660168093361529,-0.12286514527757277,-0.15955092001177706,1.0544196632912284,0.3234644544671626,-0.3925118750469643,-2.1531406712214536,0.8647360825555466,2.465877824557011,0.5444996789299013,1.0544104758940245,0.3238615046091247,-0.39250456234122666,-2.153291787532338,0.8647539153680389,2.46587817577521,0.5445020185570556,0.00126204728175735,0.0007263214520575214,-0.0005751799166317239,-0.0003449813822734265,-9.461667328960178e-05,-0.0004124149951227497,-0.0006281923487030744,0.0,0.0,0.0,0.0,0.0,0.0,0.0,-9.187397203902492e-06,0.00039705014196211863,7.312705737616554e-06,-0.00015111631088426947,1.7832812492346584e-05,3.512181989684393e-07,2.3396271543463243e-06,-0.00126204728175735,-0.0007263214520575214,0.0005751799166317239,0.0003449813822734265,9.461667328960178e-05,0.0004124149951227497,0.0006281923487030744,0.4029781222343445,34.09072494506836,3.8506133556365967,-19.360689163208008,-0.3198142647743225,-1.790164589881897,0.15231649577617645,0
7,0.03000617027282715,-0.3752071261405945,-34.11452865600586,-3.8744170665740967,19.336885452270508,0.3198142647743225,1.777347207069397,-0.15964071452617645,0.0,0.0,0.0,0.0,0.0,0.0,0.0,-0.3604911426277129,-0.011137328118903122,-0.32405864418764546,0.3102438229998846,0.26607231829387556,-0.1234839459283775,-0.16147207410851455,1.0544177144493974,0.32346685641727324,-0.39250998076039983,-2.1531389219582597,0.8647364660089372,2.465878308108174,0.5445008458968438,1.0544104758940245,0.3238615046091247,-0.39250456234122666,-2.153291787532338,0.8647539153680389,2.46587817577521,0.5445020185570556,0.0007846715382308715,0.0009331715619759354,0.00014022670670300468,0.00046559455179837295,-0.00012482350763961346,-3.4490707656229334e-05,-9.97631800360256e-05,0.0,0.0,0.0,0.0,0.0,0.0,0.0,-7.238555372879318e-06,0.0003946481918514766,5.418419173175426e-06,-0.0001528655740781204,1.744935910175105e-05,-1.323329641422788e-07,1.1726602118233842e-06,-0.0007846715382308715,-0.0009331715619759354,-0.00014022670670300468,-0.00046559455179837295,0.00012482350763961346,3.4490707656229334e-05,9.97631800360256e-05,0.3752071261405945,34.11452865600586,3.8744170665740967,-19.336885452270508,-0.3198142647743225,-1.777347207069397,0.15964071452617645,0
8,0.034578561782836914,-0.3752071261405945,-34.11452865600586,-3.8744170665740967,19.336885452270508,0.3198142647743225,1.777347207069397,-0.15964071452617645,0.0,0.0,0.0,0.0,0.0,0.0,0.0,-0.3604911426277129,-0.011137328118903122,-0.32405864418764546,0.3102438229998846,0.26607231829387556,-0.1234839459283775,-0.16147207410851455,1.0544177144493974,0.32346685641727324,-0.39250998076039983,-2.1531389219582597,0.8647364660089372,2.465878308108174,0.5445008458968438,1.0544104758940245,0.3238615046091247,-0.39250456234122666,-2.153291787532338,0.8647539153680389,2.46587817577521,0.5445020185570556,0.0007846715382308715,0.0009331715619759354,0.00014022670670300468,0.00046559455179837295,-0.00012482350763961346,-3.4490707656229334e-05,-9.97631800360256e-05,0.0,0.0,0.0,0.0,0.0,0.0,0.0,-7.238555372879318e-06,0.0003946481918514766,5.418419173175426e-06,-0.0001528655740781204,1.744935910175105e-05,-1.323329641422788e-07,1.1726602118233842e-06,-0.0007846715382308715,-0.0009331715619759354,-0.00014022670670300468,-0.00046559455179837295,0.00012482350763961346,3.4490707656229334e-05,9.97631800360256e-05,0.3752071261405945,34.11452865600586,3.8744170665740967,-19.336885452270508,-0.3198142647743225,-1.777347207069397,0.15964071452617645,0
9,0.03959918022155762,-0.3514034152030945,-34.06295394897461,-3.8982207775115967,19.360689163208008,0.3143211007118225,1.777347207069397,-0.17978231608867645,0.0,0.0,0.0,0.0,0.0,0.0,0.0,-0.36728388854306704,-0.003528938082197068,-0.327610772131041,0.30389407398005397,0.2660476366957237,-0.12393175604135373,-0.16155455123041984,1.054416043686493,0.3234651387844726,-0.3925062593450416,-2.153140575807046,0.864737156651127,2.4658781801366074,0.5445027301573401,1.0544104758940245,0.3238615046091247,-0.39250456234122666,-2.153291787532338,0.8647539153680389,2.46587817577521,0.5445020185570556,1.8414824055088334e-05,7.961549823870868e-05,0.0003643518678822427,-0.0004190933652988082,5.404247895168459e-05,0.00032264400133458633,0.0008749379053071908,0.0,0.0,0.0,0.0,0.0,0.0,0.0,-5.567792468630373e-06,0.000396365824652134,1.6970038149155542e-06,-0.00015121172529175553,1.675871691186881e-05,-4.361397465402206e-09,-7.116002844753666e-07,-1.8414824055088334e-05,-7.961549823870868e-05,-0.0003643518678822427,0.0004190933652988082,-5.404247895168459e-05,-0.00032264400133458633,-0.0008749379053071908,0.3514034152030945,34.06295394897461,3.8982207775115967,-19.360689163208008,-0.3143211007118225,-1.777347207069397,0.17978231608867645,0
10,0.0446019172668457,-0.3514034152030945,-34.06295394897461,-3.8982207775115967,19.360689163208008,0.3143211007118225,1.777347207069397,-0.17978231608867645,0.0,0.0,0.0,0.0,0.0,0.0,0.0,-0.36728388854306704,-0.003528938082197068,-0.327610772131041,0.30389407398005397,0.2660476366957237,-0.12393175604135373,-0.16155455123041984,1.054416043686493,0.3234651387844726,-0.3925062593450416,-2.153140575807046,0.864737156651127,2.4658781801366074,0.5445027301573401,1.0544104758940245,0.3238615046091247,-0.39250456234122666,-2.153291787532338,0.8647539153680389,2.46587817577521,0.5445020185570556,1.8414824055088334e-05,7.961549823870868e-05,0.0003643518678822427,-0.0004190933652988082,5.404247895168459e-05,0.00032264400133458633,0.0008749379053071908,0.0,0.0,0.0,0.0,0.0,0.0,0.0,-5.567792468630373e-06,0.000396365824652134,1.6970038149155542e-06,-0.00015121172529175553,1.675871691186881e-05,-4.361397465402206e-09,-7.116002844753666e-07,-1.8414824055088334e-05,-7.961549823870868e-05,-0.0003643518678822427,0.0004190933652988082,-5.404247895168459e-05,-0.00032264400133458633,-0.0008749379053071908,0.3514034152030945,34.06295394897461,3.8982207775115967,-19.360689163208008,-0.3143211007118225,-1.777347207069397,0.17978231608867645,0
11,0.04959845542907715,-0.3752071261405945,-34.09072494506836,-3.8744170665740967,19.336885452270508,0.3198142647743225,1.777347207069397,-0.12485067546367645,0.0,0.0,0.0,0.0,0.0,0.0,0.0,-0.3644542318653664,-0.005698838357423055,-0.3263650547424725,0.3040332902875472,0.2653409199346877,-0.12366687478146643,-0.1607279502373308,1.0544177144493956,0.323467315135485,-0.3925095220064278,-2.1531390102447476,0.8647366045160512,2.465878530926011,0.5444955671630948,1.0544104758940245,0.3238615046091247,-0.39250456234122666,-2.153291787532338,0.8647539153680389,2.46587817577521,0.5445020185570556,0.0004003919185607121,0.0007268674720754781,-0.0007415983338078028,-3.810355509065999e-05,6.997657551454049e-05,0.00023001075664381079,-0.0012270095509742827,0.0,0.0,0.0,0.0,0.0,0.0,0.0,-7.2385553711029615e-06,0.0003941894736397278,4.959665201142993e-06,-0.00015277728759022224,1.731085198775073e-05,-3.551508012122895e-07,6.4513939608268345e-06,-0.0004003919185607121,-0.0007268674720754781,0.0007415983338078028,3.810355509065999e-05,-6.997657551454049e-05,-0.00023001075664381079,0.0012270095509742827,0.3752071261405945,34.09072494506836,3.8744170665740967,-19.336885452270508,-0.3198142647743225,-1.777347207069397,0.12485067546367645,0
12,0.05499839782714844,-0.3752071261405945,-34.09072494506836,-3.8744170665740967,19.336885452270508,0.3198142647743225,1.777347207069397,-0.12485067546367645,0.0,0.0,0.0,0.0,0.0,0.0,0.0,-0.3644542318653664,-0.005698838357423055,-0.3263650547424725,0.3040332902875472,0.2653409199346877,-0.12366687478146643,-0.1607279502373308,1.0544177144493956,0.323467315135485,-0.3925095220064278,-2.1531390102447476,0.8647366045160512,2.465878530926011,0.5444955671630948,1.0544104758940245,0.3238615046091247,-0.39250456234122666,-2.153291787532338,0.8647539153680389,2.46587817577521,0.5445020185570556,0.0004003919185607121,0.0007268674720754781,-0.0007415983338078028,-3.810355509065999e-05,6.997657551454049e-05,0.00023001075664381079,-0.0012270095509742827,0.0,0.0,0.0,0.0,0.0,0.0,0.0,-7.2385553711029615e-06,0.0003941894736397278,4.959665201142993e-06,-0.00015277728759022224,1.731085198775073e-05,-3.551508012122895e-07,6.4513939608268345e-06,-0.0004003919185607121,-0.0007268674720754781,0.0007415983338078028,3.810355509065999e-05,-6.997657551454049e-05,-0.00023001075664381079,0.0012270095509742827,0.3752071261405945,34.09072494506836,3.8744170665740967,-19.336885452270508,-0.3198142647743225,-1.777347207069397,0.12485067546367645,0
13,0.059604644775390625,-0.3236324191093445,-34.11452865600586,-3.8744170665740967,19.388460159301758,0.3143211007118225,1.783755898475647,-0.13217489421367645,0.0,0.0,0.0,0.0,0.0,0.0,0.0,-0.3618860672751382,-0.008425032422102005,-0.32567901923823306,0.30759508943509717,0.2650048977190026,-0.12313130861959361,-0.15948228670306844,1.054411949404499,0.3234689681475181,-0.3925072210373013,-2.1531404497117834,0.8647359634163615,2.465880657688634,0.5444963813360436,1.0544104758940245,0.3238615046091247,-0.39250456234122666,-2.153291787532338,0.8647539153680389,2.46587817577521,0.5445020185570556,-0.001290424752622799,0.001287374736990988,-0.0008812320229928367,-0.0009514798055017729,0.00010821753479330037,-9.866528050519565e-05,-0.000588707784518763,0.0,0.0,0.0,0.0,0.0,0.0,0.0,-1.4735104745255967e-06,0.0003925364616066407,2.658696074631095e-06,-0.00015133782055443135,1.7951951677419586e-05,-2.481913424112747e-06,5.6372210119892685e-06,0.001290424752622799,-0.001287374736990988,0.0008812320229928367,0.0009514798055017729,-0.00010821753479330037,9.866528050519565e-05,0.000588707784518763,0.3236324191093445,34.11452865600586,3.8744170665740967,-19.388460159301758,-0.3143211007118225,-1.783755898475647,0.13217489421367645,0
14,0.06601834297180176,-0.3236324191093445,-34.11452865600586,-3.8744170665740967,19.388460159301758,0.3143211007118225,1.783755898475647,-0.13217489421367645,0.0,0.0,0.0,0.0,0.0,0.0,0.0,-0.3618860672751382,-0.008425032422102005,-0.32567901923823306,0.30759508943509717,0.2650048977190026,-0.12313130861959361,-0.15948228670306844,1.054411949404499,0.3234689681475181,-0.3925072210373013,-2.1531404497117834,0.8647359634163615,2.465880657688634,0.5444963813360436,1.0544104758940245,0.3238615046091247,-0.39250456234122666,-2.153291787532338,0.8647539153680389,2.46587817577521,0.5445020185570556,-0.001290424752622799,0.001287374736990988,-0.0008812320229928367,-0.0009514798055017729,0.00010821753479330037,-9.866528050519565e-05,-0.000588707784518763,0.0,0.0,0.0,0.0,0.0,0.0,0.0,-1.4735104745255967e-06,0.0003925364616066407,2.658696074631095e-06,-0.00015133782055443135,1.7951951677419586e-05,-2.481913424112747e-06,5.6372210119892685e-06,0.001290424752622799,-0.001287374736990988,0.0008812320229928367,0.0009514798055017729,-0.00010821753479330037,9.866528050519565e-05,0.000588707784518763,0.3236324191093445,34.11452865600586,3.8744170665740967,-19.388460159301758,-0.3143211007118225,-1.783755898475647,0.13217489421367645,0
15,0.06960225105285645,-0.3752071261405945,-34.06295394897461,-3.8744170665740967,19.336885452270508,0.3143211007118225,1.783755898475647,-0.11111776530742645,0.0,0.0,0.0,0.0,0.0,0.0,0.0,-0.3599197560568119,-0.0012732427123248531,-0.32503696609797567,0.3018849033048082,0.26464020601329236,-0.1240412714413429,-0.1582599789068164,1.0544176879544065,0.32346301011331846,-0.392507145671198,-2.1531382918608166,0.8647367336314454,2.465877587256168,0.5444940411346472,1.0544104758940245,0.3238615046091247,-0.39250456234122666,-2.153291787532338,0.8647539153680389,2.46587817577521,0.5445020185570556,-0.0003623976024945013,0.00010571710438528201,0.00010044526806895681,-0.0005326177944407689,0.0001271282775404765,-9.808663083041618e-05,-0.001406638019653803,0.0,0.0,0.0,0.0,0.0,0.0,0.0,-7.212060382011387e-06,0.0003984944958062564,2.583329971328485e-06,-0.000153495671521231,1.7181736593485653e-05,5.885190419441244e-07,7.97742240843391e-06,0.0003623976024945013,-0.00010571710438528201,-0.00010044526806895681,0.0005326177944407689,-0.0001271282775404765,9.808663083041618e-05,0.001406638019653803,0.3752071261405945,34.06295394897461,3.8744170665740967,-19.336885452270508,-0.3143211007118225,-1.783755898475647,0.11111776530742645,0
16,0.07460284233093262,-0.3752071261405945,-34.06295394897461,-3.8744170665740967,19.336885452270508,0.3143211007118225,1.783755898475647,-0.11111776530742645,0.0,0.0,0.0,0.0,0.0,0.0,0.0,-0.3599197560568119,-0.0012732427123248531,-0.32503696609797567,0.3018849033048082,0.26464020601329236,-0.1240412714413429,-0.1582599789068164,1.0544176879544065,0.32346301011331846,-0.392507145671198,-2.1531382918608166,0.8647367336314454,2.465877587256168,0.5444940411346472,1.0544104758940245,0.3238615046091247,-0.39250456234122666,-2.153291787532338,0.8647539153680389,2.46587817577521,0.5445020185570556,-0.0003623976024945013,0.00010571710438528201,0.00010044526806895681,-0.0005326177944407689,0.0001271282775404765,-9.808663083041618e-05,-0.001406638019653803,0.0,0.0,0.0,0.0,0.0,0.0,0.0,-7.212060382011387e-06,0.0003984944958062564,2.583329971328485e-06,-0.000153495671521231,1.7181736593485653e-05,5.885190419441244e-07,7.97742240843391e-06,0.0003623976024945013,-0.00010571710438528201,-0.00010044526806895681,0.0005326177944407689,-0.0001271282775404765,9.808663083041618e-05,0.001406638019653803,0.3752071261405945,34.06295394897461,3.8744170665740967,-19.336885452270508,-0.3143211007118225,-1.783755898475647,0.11111776530742645,0
17,0.07960033416748047,-0.3752071261405945,-34.03915023803711,-3.8744170665740967,19.313081741333008,0.3262229561805725,1.783755898475647,-0.12485067546367645,0.0,0.0,0.0,0.0,0.0,0.0,0.0,-0.362478118132616,-0.010322695801138483,-0.3253568227165158,0.3069796592444206,0.2648407805691002,-0.1225747203063836,-0.157377987368244,1.0544177144492477,0.32346298699676945,-0.39250934206257515,-2.153134576208031,0.864732228854965,2.4658806426134725,0.5444955675339596,1.0544104758940245,0.3238615046091247,-0.39250456234122666,-2.153291787532338,0.8647539153680389,2.46587817577521,0.5445020185570556,0.00030978025000103523,-0.0008001511112570627,2.46599607124084e-05,0.0007952031309862107,-0.00034114433485645174,5.609038951323463e-05,-0.001320376253197562,0.0,0.0,0.0,0.0,0.0,0.0,0.0,-7.238555223221255e-06,0.00039851761235526473,4.77972134849125e-06,-0.00015721132430668305,2.168651307388192e-05,-2.4668382625492313e-06,6.451023096043507e-06,-0.00030978025000103523,0.0008001511112570627,-2.46599607124084e-05,-0.0007952031309862107,0.00034114433485645174,-5.609038951323463e-05,0.001320376253197562,0.3752071261405945,34.03915023803711,3.8744170665740967,-19.313081741333008,-0.3262229561805725,-1.783755898475647,0.12485067546367645,0
18,0.08459758758544922,-0.3752071261405945,-34.03915023803711,-3.8744170665740967,19.313081741333008,0.3262229561805725,1.783755898475647,-0.12485067546367645,0.0,0.0,0.0,0.0,0.0,0.0,0.0,-0.362478118132616,-0.010322695801138483,-0.3253568227165158,0.3069796592444206,0.2648407805691002,-0.1225747203063836,-0.157377987368244,1.0544177144492477,0.32346298699676945,-0.39250934206257515,-2.153134576208031,0.864732228854965,2.4658806426134725,0.5444955675339596,1.0544104758940245,0.3238615046091247,-0.39250456234122666,-2.153291787532338,0.8647539153680389,2.46587817577521,0.5445020185570556,0.00030978025000103523,-0.0008001511112570627,2.46599607124084e-05,0.0007952031309862107,-0.00034114433485645174,5.609038951323463e-05,-0.001320376253197562,0.0,0.0,0.0,0.0,0.0,0.0,0.0,-7.238555223221255e-06,0.00039851761235526473,4.77972134849125e-06,-0.00015721132430668305,2.168651307388192e-05,-2.4668382625492313e-06,6.451023096043507e-06,-0.00030978025000103523,0.0008001511112570627,-2.46599607124084e-05,-0.0007952031309862107,0.00034114433485645174,-5.609038951323463e-05,0.001320376253197562,0.3752071261405945,34.03915023803711,3.8744170665740967,-19.313081741333008,-0.3262229561805725,-1.783755898475647,0.12485067546367645,0
19,0.0895988941192627,-0.3514034152030945,-34.09072494506836,-3.9220244884490967,19.336885452270508,0.3262229561805725,1.777347207069397,-0.12485067546367645,0.0,0.0,0.0,0.0,0.0,0.0,0.0,-0.36946054013810664,-0.007901997331670869,-0.33062752168550935,0.30118727241976945,0.2657698250125304,-0.12225555479676854,-0.1581796076536391,1.054416044013542,0.3234651704405773,-0.39250391033449084,-2.1531369437954155,0.8647315027092458,2.4658782164925617,0.5444955669956105,1.0544104758940245,0.3238615046091247,-0.39250456234122666,-2.153291787532338,0.8647539153680389,2.46587817577521,0.5445020185570556,-0.00038279891399462456,0.00018803834044007063,0.0007480382171315173,-0.00012434004603025629,1.4632754586265387e-05,1.6980480895716637e-05,-0.0014547892795845204,0.0,0.0,0.0,0.0,0.0,0.0,0.0,-5.568119517462833e-06,0.00039633416854739645,-6.520067358239956e-07,-0.00015484373692231657,2.2412658793102835e-05,-4.071735171251589e-08,6.4515614450755265e-06,0.00038279891399462456,-0.00018803834044007063,-0.0007480382171315173,0.00012434004603025629,-1.4632754586265387e-05,-1.6980480895716637e-05,0.0014547892795845204,0.3514034152030945,34.09072494506836,3.9220244884490967,-19.336885452270508,-0.3262229561805725,-1.777347207069397,0.12485067546367645,0
20,0.0946037769317627,-0.3514034152030945,-34.09072494506836,-3.9220244884490967,19.336885452270508,0.3262229561805725,1.777347207069397,-0.12485067546367645,0.0,0.0,0.0,0.0,0.0,0.0,0.0,-0.36946054013810664,-0.007901997331670869,-0.33062752168550935,0.30118727241976945,0.2657698250125304,-0.12225555479676854,-0.1581796076536391,1.054416044013542,0.3234651704405773,-0.39250391033449084,-2.1531369437954155,0.8647315027092458,2.4658782164925617,0.5444955669956105,1.0544104758940245,0.3238615046091247,-0.39250456234122666,-2.153291787532338,0.8647539153680389,2.46587817577521,0.5445020185570556,-0.00038279891399462456,0.00018803834044007063,0.0007480382171315173,-0.00012434004603025629,1.4632754586265387e-05,1.6980480895716637e-05,-0.0014547892795845204,0.0,0.0,0.0,0.0,0.0,0.0,0.0,-5.568119517462833e-06,0.00039633416854739645,-6.520067358239956e-07,-0.00015484373692231657,2.2412658793102835e-05,-4.071735171251589e-08,6.4515614450755265e-06,0.00038279891399462456,-0.00018803834044007063,-0.0007480382171315173,0.00012434004603025629,-1.4632754586265387e-05,-1.6980480895716637e-05,0.0014547892795845204,0.3514034152030945,34.09072494506836,3.9220244884490967,-19.336885452270508,-0.3262229561805725,-1.777347207069397,0.12485067546367645,0
21,0.09963774681091309,-0.4029781222343445,-34.06295394897461,-3.8744170665740967,19.313081741333008,0.3198142647743225,1.783755898475647,-0.15964071452617645,0.0,0.0,0.0,0.0,0.0,0.0,0.0,-0.35867897436419166,-0.009421481195934561,-0.3226275689766863,0.3023157273657149,0.2662537793187674,-0.12300633429035868,-0.1587140738624567,1.0544196632912284,0.32346526626848027,-0.3925073823867292,-2.1531363326328536,0.8647317771408706,2.465877582082209,0.5444999165877351,1.0544104758940245,0.3238615046091247,-0.39250456234122666,-2.153291787532338,0.8647539153680389,2.46587817577521,0.5445020185570556,0.0015521518882175062,-0.00040036095262255804,-0.00048156218340149814,0.0009548006772811772,2.662852154206069e-05,6.329345636221523e-05,0.0001434997766505623,0.0,0.0,0.0,0.0,0.0,0.0,0.0,-9.187397203902492e-06,0.0003962383406444503,2.820045502560653e-06,-0.00015545489948420865,2.213822716834457e-05,5.936930009831087e-07,2.1019693204893386e-06,-0.0015521518882175062,0.00040036095262255804,0.00048156218340149814,-0.0009548006772811772,-2.662852154206069e-05,-6.329345636221523e-05,-0.0001434997766505623,0.4029781222343445,34.06295394897461,3.8744170665740967,-19.313081741333008,-0.3198142647743225,-1.783755898475647,0.15964071452617645,0
22,0.1046142578125,-0.4029781222343445,-34.06295394897461,-3.8744170665740967,19.313081741333008,0.3198142647743225,1.783755898475647,-0.15964071452617645,0.0,0.0,0.0,0.0,0.0,0.0,0.0,-0.35867897436419166,-0.009421481195934561,-0.3226275689766863,0.3023157273657149,0.2662537793187674,-0.12300633429035868,-0.1587140738624567,1.0544196632912284,0.32346526626848027,-0.3925073823867292,-2.1531363326328536,0.8647317771408706,2.465877582082209,0.5444999165877351,1.0544104758940245,0.3238615046091247,-0.39250456234122666,-2.153291787532338,0.8647539153680389,2.46587817577521,0.5445020185570556,0.0015521518882175062,-0.00040036095262255804,-0.00048156218340149814,0.0009548006772811772,2.662852154206069e-05,6.329345636221523e-05,0.0001434997766505623,0.0,0.0,0.0,0.0,0.0,0.0,0.0,-9.187397203902492e-06,0.0003962383406444503,2.820045502560653e-06,-0.00015545489948420865,2.213822716834457e-05,5.936930009831087e-07,2.1019693204893386e-06,-0.0015521518882175062,0.00040036095262255804,0.00048156218340149814,-0.0009548006772811772,-2.662852154206069e-05,-6.329345636221523e-05,-0.0001434997766505623,0.4029781222343445,34.06295394897461,3.8744170665740967,-19.313081741333008,-0.3198142647743225,-1.783755898475647,0.15964071452617645,0
23,0.1096029281616211,-0.3236324191093445,-34.09072494506836,-3.9220244884490967,19.360689163208008,0.3198142647743225,1.783755898475647,-0.17978231608867645,0.0,0.0,0.0,0.0,0.0,0.0,0.0,-0.3684316083493598,-0.01260363075508355,-0.33357051569796137,0.3046492234194733,0.2660836619776164,-0.12199873049128947,-0.15799036622675525,1.054414095171711,0.32346634404653934,-0.39250476375762244,-2.1531406806755093,0.8647361076939185,2.4658778170732707,0.5445016705139648,1.0544104758940245,0.3238615046091247,-0.39250456234122666,-2.153291787532338,0.8647539153680389,2.46587817577521,0.5445020185570556,-0.001383766537327302,0.0005508585036653103,0.0009725429197631081,-0.00020136460596414715,-0.0001298131037909581,-4.5711813428109703e-05,0.0007333197783369128,0.0,0.0,0.0,0.0,0.0,0.0,0.0,-3.619277686439659e-06,0.0003951605625853727,2.0141639578419301e-07,-0.000151106856828509,1.7807674120406958e-05,3.5870193926257343e-07,3.4804309079206064e-07,0.001383766537327302,-0.0005508585036653103,-0.0009725429197631081,0.00020136460596414715,0.0001298131037909581,4.5711813428109703e-05,-0.0007333197783369128,0.3236324191093445,34.09072494506836,3.9220244884490967,-19.360689163208008,-0.3198142647743225,-1.783755898475647,0.17978231608867645,0
24,0.11460041999816895,-0.3236324191093445,-34.09072494506836,-3.9220244884490967,19.360689163208008,0.3198142647743225,1.783755898475647,-0.17978231608867645,0.0,0.0,0.0,0.0,0.0,0.0,0.0,-0.3684316083493598,-0.01260363075508355,-0.33357051569796137,0.3046492234194733,0.2660836619776164,-0.12199873049128947,-0.15799036622675525,1.054414095171711,0.32346634404653934,-0.39250476375762244,-2.1531406806755093,0.8647361076939185,2.4658778170732707,0.5445016705139648,1.0544104758940245,0.3238615046091247,-0.39250456234122666,-2.153291787532338,0.8647539153680389,2.46587817577521,0.5445020185570556,-0.001383766537327302,0.0005508585036653103,0.0009725429197631081,-0.00020136460596414715,-0.0001298131037909581,-4.5711813428109703e-05,0.0007333197783369128,0.0,0.0,0.0,0.0,0.0,0.0,0.0,-3.619277686439659e-06,0.0003951605625853727,2.0141639578419301e-07,-0.000151106856828509,1.7807674120406958e-05,3.5870193926257343e-07,3.4804309079206064e-07,0.001383766537327302,-0.0005508585036653103,-0.0009725429197631081,0.00020136460596414715,0.0001298131037909581,4.5711813428109703e-05,-0.0007333197783369128,0.3236324191093445,34.09072494506836,3.9220244884490967,-19.360689163208008,-0.3198142647743225,-1.783755898475647,0.17978231608867645,0
25,0.11960577964782715,-0.3752071261405945,-34.09072494506836,-3.8982207775115967,19.336885452270508,0.3143211007118225,1.783755898475647,-0.17337362468242645,0.0,0.0,0.0,0.0,0.0,0.0,0.0,-0.37464034497735355,-0.005469424129366335,-0.33574800192180704,0.30107464543284124,0.26573641565758804,-0.12260083252643014,-0.15799222465294036,1.0544177144493974,0.3234669730375641,-0.39250785452374704,-2.153138908101134,0.8647356475019073,2.4658785235000167,0.5445009584344096,1.0544104758940245,0.3238615046091247,-0.39250456234122666,-2.153291787532338,0.8647539153680389,2.46587817577521,0.5445020185570556,-0.0004892424920013464,0.0005760990711366902,1.1281306728851724e-05,-0.00028972513624122957,0.00010021932035610889,-0.00012915066003707808,0.0008345010277028203,0.0,0.0,0.0,0.0,0.0,0.0,0.0,-7.238555372879318e-06,0.0003945315715606079,3.292182520375775e-06,-0.00015287943120378955,1.826786613157161e-05,-3.477248067262906e-07,1.0601226460016377e-06,0.0004892424920013464,-0.0005760990711366902,-1.1281306728851724e-05,0.00028972513624122957,-0.00010021932035610889,0.00012915066003707808,-0.0008345010277028203,0.3752071261405945,34.09072494506836,3.8982207775115967,-19.336885452270508,-0.3143211007118225,-1.783755898475647,0.17337362468242645,0
26,0.12461113929748535,-0.3752071261405945,-34.09072494506836,-3.8982207775115967,19.336885452270508,0.3143211007118225,1.783755898475647,-0.17337362468242645,0.0,0.0,0.0,0.0,0.0,0.0,0.0,-0.37464034497735355,-0.005469424129366335,-0.33574800192180704,0.30107464543284124,0.26573641565758804,-0.12260083252643014,-0.15799222465294036,1.0544177144493974,0.3234669730375641,-0.39250785452374704,-2.153138908101134,0.8647356475019073,2.4658785235000167,0.5445009584344096,1.0544104758940245,0.3238615046091247,-0.39250456234122666,-2.153291787532338,0.8647539153680389,2.46587817577521,0.5445020185570556,-0.0004892424920013464,0.0005760990711366902,1.1281306728851724e-05,-0.00028972513624122957,0.00010021932035610889,-0.00012915066003707808,0.0008345010277028203,0.0,0.0,0.0,0.0,0.0,0.0,0.0,-7.238555372879318e-06,0.0003945315715606079,3.292182520375775e-06,-0.00015287943120378955,1.826786613157161e-05,-3.477248067262906e-07,1.0601226460016377e-06,0.0004892424920013464,-0.0005760990711366902,-1.1281306728851724e-05,0.00028972513624122957,-0.00010021932035610889,0.00012915066003707808,-0.0008345010277028203,0.3752071261405945,34.09072494506836,3.8982207775115967,-19.336885452270508,-0.3143211007118225,-1.783755898475647,0.17337362468242645,0
27,0.12960147857666016,-0.3752071261405945,-34.09072494506836,-3.8744170665740967,19.313081741333008,0.3143211007118225,1.783755898475647,-0.15231649577617645,0.0,0.0,0.0,0.0,0.0,0.0,0.0,-0.3575435588616154,-0.014957403471176505,-0.3194212403398877,0.3081303467201789,0.26458108873853287,-0.12349415803525465,-0.15726986314593874,1.0544177134682509,0.3234672977457339,-0.3925072473189869,-2.153137033691226,0.8647328659282781,2.4658775814419394,0.5444986232755763,1.0544104758940245,0.3238615046091247,-0.39250456234122666,-2.153291787532338,0.8647539153680389,2.46587817577521,0.5445020185570556,0.00029682846868145005,9.189969805494445e-05,0.00017761547067657847,0.0008285161656736114,0.0003284197689196434,-0.00019755773265332902,-0.00019425189510955857,0.0,0.0,0.0,0.0,0.0,0.0,0.0,-7.237574226381938e-06,0.00039420686339081135,2.6849777602366842e-06,-0.00015475384111196533,2.1049439760778554e-05,5.94333270598213e-07,3.3952814793014596e-06,-0.00029682846868145005,-9.189969805494445e-05,-0.00017761547067657847,-0.0008285161656736114,-0.0003284197689196434,0.00019755773265332902,0.00019425189510955857,0.3752071261405945,34.09072494506836,3.8744170665740967,-19.313081741333008,-0.3143211007118225,-1.783755898475647,0.15231649577617645,0
28,0.13460779190063477,-0.3752071261405945,-34.09072494506836,-3.8744170665740967,19.313081741333008,0.3143211007118225,1.783755898475647,-0.15231649577617645,0.0,0.0,0.0,0.0,0.0,0.0,0.0,-0.3575435588616154,-0.014957403471176505,-0.3194212403398877,0.3081303467201789,0.26458108873853287,-0.12349415803525465,-0.15726986314593874,1.0544177134682509,0.3234672977457339,-0.3925072473189869,-2.153137033691226,0.8647328659282781,2.4658775814419394,0.5444986232755763,1.0544104758940245,0.3238615046091247,-0.39250456234122666,-2.153291787532338,0.8647539153680389,2.46587817577521,0.5445020185570556,0.00029682846868145005,9.189969805494445e-05,0.00017761547067657847,0.0008285161656736114,0.0003284197689196434,-0.00019755773265332902,-0.00019425189510955857,0.0,0.0,0.0,0.0,0.0,0.0,0.0,-7.237574226381938e-06,0.00039420686339081135,2.6849777602366842e-06,-0.00015475384111196533,2.1049439760778554e-05,5.94333270598213e-07,3.3952814793014596e-06,-0.00029682846868145005,-9.189969805494445e-05,-0.00017761547067657847,-0.0008285161656736114,-0.0003284197689196434,0.00019755773265332902,0.00019425189510955857,0.3752071261405945,34.09072494506836,3.8744170665740967,-19.313081741333008,-0.3143211007118225,-1.783755898475647,0.15231649577617645,0
29,0.13959765434265137,-0.3752071261405945,-34.09072494506836,-3.8744170665740967,19.313081741333008,0.3143211007118225,1.783755898475647,-0.15231649577617645,0.0,0.0,0.0,0.0,0.0,0.0,0.0,-0.3575435588616154,-0.014957403471176505,-0.3194212403398877,0.3081303467201789,0.26458108873853287,-0.12349415803525465,-0.15726986314593874,1.0544177134682509,0.3234672977457339,-0.3925072473189869,-2.153137033691226,0.8647328659282781,2.4658775814419394,0.5444986232755763,1.0544104758940245,0.3238615046091247,-0.39250456234122666,-2.153291787532338,0.8647539153680389,2.46587817577521,0.5445020185570556,0.00029682846868145005,9.189969805494445e-05,0.00017761547067657847,0.0008285161656736114,0.0003284197689196434,-0.00019755773265332902,-0.00019425189510955857,0.0,0.0,0.0,0.0,0.0,0.0,0.0,-7.237574226381938e-06,0.00039420686339081135,2.6849777602366842e-06,-0.00015475384111196533,2.1049439760778554e-05,5.94333270598213e-07,3.3952814793014596e-06,-0.00029682846868145005,-9.189969805494445e-05,-0.00017761547067657847,-0.0008285161656736114,-0.0003284197689196434,0.00019755773265332902,0.00019425189510955857,0.3752071261405945,34.09072494506836,3.8744170665740967,-19.313081741333008,-0.3143211007118225,-1.783755898475647,0.15231649577617645,0
30,0.14463472366333008,-0.3752071261405945,-34.09072494506836,-3.8744170665740967,19.313081741333008,0.3143211007118225,1.783755898475647,-0.15231649577617645,0.0,0.0,0.0,0.0,0.0,0.0,0.0,-0.3575435588616154,-0.014957403471176505,-0.3194212403398877,0.3081303467201789,0.26458108873853287,-0.12349415803525465,-0.15726986314593874,1.0544177134682509,0.3234672977457339,-0.3925072473189869,-2.153137033691226,0.8647328659282781,2.4658775814419394,0.5444986232755763,1.0544104758940245,0.3238615046091247,-0.39250456234122666,-2.153291787532338,0.8647539153680389,2.46587817577521,0.5445020185570556,0.00029682846868145005,9.189969805494445e-05,0.00017761547067657847,0.0008285161656736114,0.0003284197689196434,-0.00019755773265332902,-0.00019425189510955857,0.0,0.0,0.0,0.0,0.0,0.0,0.0,-7.237574226381938e-06,0.00039420686339081135,2.6849777602366842e-06,-0.00015475384111196533,2.1049439760778554e-05,5.94333270598213e-07,3.3952814793014596e-06,-0.00029682846868145005,-9.189969805494445e-05,-0.00017761547067657847,-0.0008285161656736114,-0.0003284197689196434,0.00019755773265332902,0.00019425189510955857,0.3752071261405945,34.09072494506836,3.8744170665740967,-19.313081741333008,-0.3143211007118225,-1.783755898475647,0.15231649577617645,0
31,0.14999890327453613,-0.3514034152030945,-34.09072494506836,-3.8744170665740967,19.336885452270508,0.3198142647743225,1.783755898475647,-0.13217489421367645,0.0,0.0,0.0,0.0,0.0,0.0,0.0,-0.36575150941552975,-0.010824128246809353,-0.3253154840504156,0.3045916388958327,0.2648248991925917,-0.12304343937584955,-0.15603379994904537,1.0544160440135364,0.3234651105726788,-0.3925079213409315,-2.1531383125556443,0.8647355184179284,2.4658778214339176,0.5444963807977162,1.0544104758940245,0.3238615046091247,-0.39250456234122666,-2.153291787532338,0.8647539153680389,2.46587817577521,0.5445020185570556,-0.00014670110902096495,0.00020850395747923969,-0.00012166371396132587,0.00021227844813649887,-9.508072648070569e-05,3.3797806737656745e-06,-0.0012850152551972904,0.0,0.0,0.0,0.0,0.0,0.0,0.0,-5.568119511911718e-06,0.00039639403644592397,3.358999704827781e-06,-0.00015347497669360166,1.8396950110521892e-05,3.5434129230793587e-07,5.637759339371939e-06,0.00014670110902096495,-0.00020850395747923969,0.00012166371396132587,-0.00021227844813649887,9.508072648070569e-05,-3.3797806737656745e-06,0.0012850152551972904,0.3514034152030945,34.09072494506836,3.8744170665740967,-19.336885452270508,-0.3198142647743225,-1.783755898475647,0.13217489421367645,0
32,0.1546018123626709,-0.3514034152030945,-34.09072494506836,-3.8744170665740967,19.336885452270508,0.3198142647743225,1.783755898475647,-0.13217489421367645,0.0,0.0,0.0,0.0,0.0,0.0,0.0,-0.36575150941552975,-0.010824128246809353,-0.3253154840504156,0.3045916388958327,0.2648248991925917,-0.12304343937584955,-0.15603379994904537,1.0544160440135364,0.3234651105726788,-0.3925079213409315,-2.1531383125556443,0.8647355184179284,2.4658778214339176,0.5444963807977162,1.0544104758940245,0.3238615046091247,-0.39250456234122666,-2.153291787532338,0.8647539153680389,2.46587817577521,0.5445020185570556,-0.00014670110902096495,0.00020850395747923969,-0.00012166371396132587,0.00021227844813649887,-9.508072648070569e-05,3.3797806737656745e-06,-0.0012850152551972904,0.0,0.0,0.0,0.0,0.0,0.0,0.0,-5.568119511911718e-06,0.00039639403644592397,3.358999704827781e-06,-0.00015347497669360166,1.8396950110521892e-05,3.5434129230793587e-07,5.637759339371939e-06,0.00014670110902096495,-0.00020850395747923969,0.00012166371396132587,-0.00021227844813649887,9.508072648070569e-05,-3.3797806737656745e-06,0.0012850152551972904,0.3514034152030945,34.09072494506836,3.8744170665740967,-19.336885452270508,-0.3198142647743225,-1.783755898475647,0.13217489421367645,0
33,0.1596510410308838,-0.3514034152030945,-34.11452865600586,-3.9220244884490967,19.360689163208008,0.3079124093055725,1.777347207069397,-0.13217489421367645,0.0,0.0,0.0,0.0,0.0,0.0,0.0,-0.3682528030735081,-0.010439946131583788,-0.3286477083199001,0.3029143935123304,0.26502484462919507,-0.12290714106764646,-0.15526214531267038,1.054416044013542,0.3234681793609852,-0.3925061824667542,-2.1531404472047857,0.8647364246890713,2.465881707904327,0.544496382251241,1.0544104758940245,0.3238615046091247,-0.39250456234122666,-2.153291787532338,0.8647539153680389,2.46587817577521,0.5445020185570556,-0.0003071855434316342,0.0005353842914655422,0.0009928567195196902,-0.00039056461441474937,0.00024820853984162174,0.0002543611255055657,-0.0011366247680492066,0.0,0.0,0.0,0.0,0.0,0.0,0.0,-5.568119517462833e-06,0.00039332524813950887,1.6201255275682946e-06,-0.00015134032755215188,1.749067896761325e-05,-3.5321291171896974e-06,5.63630581462693e-06,0.0003071855434316342,-0.0005353842914655422,-0.0009928567195196902,0.00039056461441474937,-0.00024820853984162174,-0.0002543611255055657,0.0011366247680492066,0.3514034152030945,34.11452865600586,3.9220244884490967,-19.360689163208008,-0.3079124093055725,-1.777347207069397,0.13217489421367645,0
34,0.16460633277893066,-0.3514034152030945,-34.11452865600586,-3.9220244884490967,19.360689163208008,0.3079124093055725,1.777347207069397,-0.13217489421367645,0.0,0.0,0.0,0.0,0.0,0.0,0.0,-0.3682528030735081,-0.010439946131583788,-0.3286477083199001,0.3029143935123304,0.26502484462919507,-0.12290714106764646,-0.15526214531267038,1.054416044013542,0.3234681793609852,-0.3925061824667542,-2.1531404472047857,0.8647364246890713,2.465881707904327,0.544496382251241,1.0544104758940245,0.3238615046091247,-0.39250456234122666,-2.153291787532338,0.8647539153680389,2.46587817577521,0.5445020185570556,-0.0003071855434316342,0.0005353842914655422,0.0009928567195196902,-0.00039056461441474937,0.00024820853984162174,0.0002543611255055657,-0.0011366247680492066,0.0,0.0,0.0,0.0,0.0,0.0,0.0,-5.568119517462833e-06,0.00039332524813950887,1.6201255275682946e-06,-0.00015134032755215188,1.749067896761325e-05,-3.5321291171896974e-06,5.63630581462693e-06,0.0003071855434316342,-0.0005353842914655422,-0.0009928567195196902,0.00039056461441474937,-0.00024820853984162174,-0.0002543611255055657,0.0011366247680492066,0.3514034152030945,34.11452865600586,3.9220244884490967,-19.360689163208008,-0.3079124093055725,-1.777347207069397,0.13217489421367645,0
35,0.16962122917175293,-0.3752071261405945,-34.11452865600586,-3.9220244884490967,19.388460159301758,0.3198142647743225,1.783755898475647,-0.13858358561992645,0.0,0.0,0.0,0.0,0.0,0.0,0.0,-0.36561003205668324,-0.015910368957089208,-0.3277246984139627,0.30611899803963283,0.2642540150340521,-0.12282578142440465,-0.15602537380787573,1.0544177144493974,0.32346899118749756,-0.39250615587311516,-2.153142626653171,0.8647361986015774,2.465881153030898,0.5445003895264744,1.0544104758940245,0.3238615046091247,-0.39250456234122666,-2.153291787532338,0.8647539153680389,2.46587817577521,0.5445020185570556,0.000531814755591758,0.00040325558132514025,0.0005924483282149159,-0.000549971317874516,-0.00014687079476284048,-0.00010498218311007252,-0.0006355331412939113,0.0,0.0,0.0,0.0,0.0,0.0,0.0,-7.238555372879318e-06,0.00039251342162716085,1.5935318884996441e-06,-0.00014916087916683196,1.771676646156184e-05,-2.977255688207947e-06,1.6290305812072248e-06,-0.000531814755591758,-0.00040325558132514025,-0.0005924483282149159,0.000549971317874516,0.00014687079476284048,0.00010498218311007252,0.0006355331412939113,0.3752071261405945,34.11452865600586,3.9220244884490967,-19.388460159301758,-0.3198142647743225,-1.783755898475647,0.13858358561992645,0
36,0.17463159561157227,-0.3752071261405945,-34.11452865600586,-3.9220244884490967,19.388460159301758,0.3198142647743225,1.783755898475647,-0.13858358561992645,0.0,0.0,0.0,0.0,0.0,0.0,0.0,-0.36561003205668324,-0.015910368957089208,-0.3277246984139627,0.30611899803963283,0.2642540150340521,-0.12282578142440465,-0.15602537380787573,1.0544177144493974,0.32346899118749756,-0.39250615587311516,-2.153142626653171,0.8647361986015774,2.465881153030898,0.5445003895264744,1.0544104758940245,0.3238615046091247,-0.39250456234122666,-2.153291787532338,0.8647539153680389,2.46587817577521,0.5445020185570556,0.000531814755591758,0.00040325558132514025,0.0005924483282149159,-0.000549971317874516,-0.00014687079476284048,-0.00010498218311007252,-0.0006355331412939113,0.0,0.0,0.0,0.0,0.0,0.0,0.0,-7.238555372879318e-06,0.00039251342162716085,1.5935318884996441e-06,-0.00014916087916683196,1.771676646156184e-05,-2.977255688207947e-06,1.6290305812072248e-06,-0.000531814755591758,-0.00040325558132514025,-0.0005924483282149159,0.000549971317874516,0.00014687079476284048,0.00010498218311007252,0.0006355331412939113,0.3752071261405945,34.11452865600586,3.9220244884490967,-19.388460159301758,-0.3198142647743225,-1.783755898475647,0.13858358561992645,0
37,0.17966818809509277,-0.4267818331718445,-34.03915023803711,-3.8982207775115967,19.313081741333008,0.3317161202430725,1.770938515663147,-0.13858358561992645,0.0,0.0,0.0,0.0,0.0,0.0,0.0,-0.36288294272440536,-0.0012201313187969734,-0.32621722109901263,0.2989782450271061,0.2640844031212603,-0.12431724268949175,-0.1557861810665824,1.0544212542542242,0.3234628911000115,-0.39250644684221575,-2.1531366509047127,0.8647340365384971,2.465882068240797,0.5444970928931234,1.0544104758940245,0.3238615046091247,-0.39250456234122666,-2.153291787532338,0.8647539153680389,2.46587817577521,0.5445020185570556,0.0014455025171673888,-0.0002538677798734629,0.00036803983338262795,0.0006769400289532166,-0.0004866321988436706,0.0004640177017941018,-0.0010129182090073568,0.0,0.0,0.0,0.0,0.0,0.0,0.0,-1.0778360199692472e-05,0.00039861350911324367,1.884500989091098e-06,-0.0001551366276251187,1.9878829541797316e-05,-3.8924655871852565e-06,4.925663932175972e-06,-0.0014455025171673888,0.0002538677798734629,-0.00036803983338262795,-0.0006769400289532166,0.0004866321988436706,-0.0004640177017941018,0.0010129182090073568,0.4267818331718445,34.03915023803711,3.8982207775115967,-19.313081741333008,-0.3317161202430725,-1.770938515663147,0.13858358561992645,0
38,0.18460536003112793,-0.4267818331718445,-34.03915023803711,-3.8982207775115967,19.313081741333008,0.3317161202430725,1.770938515663147,-0.13858358561992645,0.0,0.0,0.0,0.0,0.0,0.0,0.0,-0.36288294272440536,-0.0012201313187969734,-0.32621722109901263,0.2989782450271061,0.2640844031212603,-0.12431724268949175,-0.1557861810665824,1.0544212542542242,0.3234628911000115,-0.39250644684221575,-2.1531366509047127,0.8647340365384971,2.465882068240797,0.5444970928931234,1.0544104758940245,0.3238615046091247,-0.39250456234122666,-2.153291787532338,0.8647539153680389,2.46587817577521,0.5445020185570556,0.0014455025171673888,-0.0002538677798734629,0.00036803983338262795,0.0006769400289532166,-0.0004866321988436706,0.0004640177017941018,-0.0010129182090073568,0.0,0.0,0.0,0.0,0.0,0.0,0.0,-1.0778360199692472e-05,0.00039861350911324367,1.884500989091098e-06,-0.0001551366276251187,1.9878829541797316e-05,-3.8924655871852565e-06,4.925663932175972e-06,-0.0014455025171673888,0.0002538677798734629,-0.00036803983338262795,-0.0006769400289532166,0.0004866321988436706,-0.0004640177017941018,0.0010129182090073568,0.4267818331718445,34.03915023803711,3.8982207775115967,-19.313081741333008,-0.3317161202430725,-1.770938515663147,0.13858358561992645,0
39,0.18959927558898926,-0.3514034152030945,-34.11452865600586,-3.8228423595428467,19.412263870239258,0.3079124093055725,1.770938515663147,-0.16604940593242645,0.0,0.0,0.0,0.0,0.0,0.0,0.0,-0.3669881214948097,-0.01312888516032114,-0.33076971022231677,0.31125749030963346,0.2647713289375263,-0.12240949040684113,-0.15604386833428047,1.0544160440130934,0.3234658974359818,-0.39251298510725513,-2.153141507908386,0.8647375664397765,2.4658789287847336,0.5445012042704556,1.0544104758940245,0.3238615046091247,-0.39250456234122666,-2.153291787532338,0.8647539153680389,2.46587817577521,0.5445020185570556,-0.0008549395045006551,0.0014625236658556953,-0.0013471237023081305,-0.0014260243011870446,0.00044282780771846874,0.0003576706430128965,0.0001179931150570149,0.0,0.0,0.0,0.0,0.0,0.0,0.0,-5.568119068932731e-06,0.00039560717314290894,8.422766028470807e-06,-0.00015027962395164352,1.6348928262410745e-05,-7.530095236241152e-07,8.142866000371285e-07,0.0008549395045006551,-0.0014625236658556953,0.0013471237023081305,0.0014260243011870446,-0.00044282780771846874,-0.0003576706430128965,-0.0001179931150570149,0.3514034152030945,34.11452865600586,3.8228423595428467,-19.412263870239258,-0.3079124093055725,-1.770938515663147,0.16604940593242645,0
40,0.1946096420288086,-0.3514034152030945,-34.11452865600586,-3.8228423595428467,19.412263870239258,0.3079124093055725,1.770938515663147,-0.16604940593242645,0.0,0.0,0.0,0.0,0.0,0.0,0.0,-0.3669881214948097,-0.01312888516032114,-0.33076971022231677,0.31125749030963346,0.2647713289375263,-0.12240949040684113,-0.15604386833428047,1.0544160440130934,0.3234658974359818,-0.39251298510725513,-2.153141507908386,0.8647375664397765,2.4658789287847336,0.5445012042704556,1.0544104758940245,0.3238615046091247,-0.39250456234122666,-2.153291787532338,0.8647539153680389,2.46587817577521,0.5445020185570556,-0.0008549395045006551,0.0014625236658556953,-0.0013471237023081305,-0.0014260243011870446,0.00044282780771846874,0.0003576706430128965,0.0001179931150570149,0.0,0.0,0.0,0.0,0.0,0.0,0.0,-5.568119068932731e-06,0.00039560717314290894,8.422766028470807e-06,-0.00015027962395164352,1.6348928262410745e-05,-7.530095236241152e-07,8.142866000371285e-07,0.0008549395045006551,-0.0014625236658556953,0.0013471237023081305,0.0014260243011870446,-0.00044282780771846874,-0.0003576706430128965,-0.0001179931150570149,0.3514034152030945,34.11452865600586,3.8228423595428467,-19.412263870239258,-0.3079124093055725,-1.770938515663147,0.16604940593242645,0
41,0.19960308074951172,-0.3236324191093445,-34.06295394897461,-3.9220244884490967,19.360689163208008,0.3079124093055725,1.777347207069397,-0.16604940593242645,0.0,0.0,0.0,0.0,0.0,0.0,0.0,-0.36208012490844016,-0.006584383823511304,-0.32152450523337633,0.31095514998344104,0.26442661583083704,-0.12366004168038869,-0.15659478553412093,1.054414094844662,0.3234630129160644,-0.3925045134089209,-2.153140451042179,0.86473788224606,2.46587970636385,0.5445001446383079,1.0544104758940245,0.3238615046091247,-0.39250456234122666,-2.153291787532338,0.8647539153680389,2.46587817577521,0.5445020185570556,-0.0006654936080780108,1.4054221722521285e-05,0.0011951249787494219,-0.00026795016304586276,0.0005016591960581533,0.000194694972227131,0.00031457125163236195,0.0,0.0,0.0,0.0,0.0,0.0,0.0,-3.618950637607199e-06,0.00039849169306033216,-4.8932305762861006e-08,-0.00015133649015863782,1.6033121978953346e-05,-1.5305886398309099e-06,1.87391874773013e-06,0.0006654936080780108,-1.4054221722521285e-05,-0.0011951249787494219,0.00026795016304586276,-0.0005016591960581533,-0.000194694972227131,-0.00031457125163236195,0.3236324191093445,34.06295394897461,3.9220244884490967,-19.360689163208008,-0.3079124093055725,-1.777347207069397,0.16604940593242645,0
42,0.20459961891174316,-0.3236324191093445,-34.06295394897461,-3.9220244884490967,19.360689163208008,0.3079124093055725,1.777347207069397,-0.16604940593242645,0.0,0.0,0.0,0.0,0.0,0.0,0.0,-0.36208012490844016,-0.006584383823511304,-0.32152450523337633,0.31095514998344104,0.26442661583083704,-0.12366004168038869,-0.15659478553412093,1.054414094844662,0.3234630129160644,-0.3925045134089209,-2.153140451042179,0.86473788224606,2.46587970636385,0.5445001446383079,1.0544104758940245,0.3238615046091247,-0.39250456234122666,-2.153291787532338,0.8647539153680389,2.46587817577521,0.5445020185570556,-0.0006654936080780108,1.4054221722521285e-05,0.0011951249787494219,-0.00026795016304586276,0.0005016591960581533,0.000194694972227131,0.00031457125163236195,0.0,0.0,0.0,0.0,0.0,0.0,0.0,-3.618950637607199e-06,0.00039849169306033216,-4.8932305762861006e-08,-0.00015133649015863782,1.6033121978953346e-05,-1.5305886398309099e-06,1.87391874773013e-06,0.0006654936080780108,-1.4054221722521285e-05,-0.0011951249787494219,0.00026795016304586276,-0.0005016591960581533,-0.000194694972227131,-0.00031457125163236195,0.3236324191093445,34.06295394897461,3.9220244884490967,-19.360689163208008,-0.3079124093055725,-1.777347207069397,0.16604940593242645,0
43,0.20960330963134766,-0.4029781222343445,-34.09072494506836,-3.9497954845428467,19.388460159301758,0.3198142647743225,1.777347207069397,-0.17337362468242645,0.0,0.0,0.0,0.0,0.0,0.0,0.0,-0.3694439679551043,-0.007436102233648918,-0.3299953711015889,0.3109098559897945,0.2648271986777159,-0.12279038954293521,-0.15616808280047595,1.0544175175240147,0.3234651717993809,-0.3925021160060734,-2.1531425261177803,0.8647365919900236,2.4658796299801184,0.5445009584344096,1.0544104758940245,0.3238615046091247,-0.39250456234122666,-2.153291787532338,0.8647539153680389,2.46587817577521,0.5445020185570556,0.0014275223624750694,0.0004059537244410282,0.0011341405401531592,-0.0012183215447697064,-0.00010781984449363844,0.00023317830221714596,0.0005083025190232157,0.0,0.0,0.0,0.0,0.0,0.0,0.0,-7.041629990212073e-06,0.0003963328097438268,-2.4463351532832966e-06,-0.00014926141455751107,1.7323378015299262e-05,-1.4542049084909081e-06,1.0601226460016377e-06,-0.0014275223624750694,-0.0004059537244410282,-0.0011341405401531592,0.0012183215447697064,0.00010781984449363844,-0.00023317830221714596,-0.0005083025190232157,0.4029781222343445,34.09072494506836,3.9497954845428467,-19.388460159301758,-0.3198142647743225,-1.777347207069397,0.17337362468242645,0
44,0.21460199356079102,-0.4029781222343445,-34.09072494506836,-3.9497954845428467,19.388460159301758,0.3198142647743225,1.777347207069397,-0.17337362468242645,0.0,0.0,0.0,0.0,0.0,0.0,0.0,-0.3694439679551043,-0.007436102233648918,-0.3299953711015889,0.3109098559897945,0.2648271986777159,-0.12279038954293521,-0.15616808280047595,1.0544175175240147,0.3234651717993809,-0.3925021160060734,-2.1531425261177803,0.8647365919900236,2.4658796299801184,0.5445009584344096,1.0544104758940245,0.3238615046091247,-0.39250456234122666,-2.153291787532338,0.8647539153680389,2.46587817577521,0.5445020185570556,0.0014275223624750694,0.0004059537244410282,0.0011341405401531592,-0.0012183215447697064,-0.00010781984449363844,0.00023317830221714596,0.0005083025190232157,0.0,0.0,0.0,0.0,0.0,0.0,0.0,-7.041629990212073e-06,0.0003963328097438268,-2.4463351532832966e-06,-0.00014926141455751107,1.7323378015299262e-05,-1.4542049084909081e-06,1.0601226460016377e-06,-0.0014275223624750694,-0.0004059537244410282,-0.0011341405401531592,0.0012183215447697064,0.00010781984449363844,-0.00023317830221714596,-0.0005083025190232157,0.4029781222343445,34.09072494506836,3.9497954845428467,-19.388460159301758,-0.3198142647743225,-1.777347207069397,0.17337362468242645,0
45,0.21960854530334473,-0.3514034152030945,-34.11452865600586,-3.8744170665740967,19.388460159301758,0.3143211007118225,1.783755898475647,-0.19351522624492645,0.0,0.0,0.0,0.0,0.0,0.0,0.0,-0.37451582826235386,-0.014274261274225541,-0.3409900509384651,0.3112747581149384,0.2649765134039761,-0.12214619954173193,-0.15642745854948625,1.054416044001429,0.3234682846680179,-0.3925092944690208,-2.153140248257211,0.8647368542043709,2.465877503598475,0.5445031963901388,1.0544104758940245,0.3238615046091247,-0.39250456234122666,-2.153291787532338,0.8647539153680389,2.46587817577521,0.5445020185570556,-0.0006350889860527529,0.0003695503314051323,-0.0012905307181833082,-0.0011985241128870778,0.00019935117884462922,5.2885684622817306e-05,0.0013303618160803079,0.0,0.0,0.0,0.0,0.0,0.0,0.0,-5.568107404485545e-06,0.0003932199411068038,4.7321277941159146e-06,-0.0001515392751270106,1.7061163668063983e-05,6.721767351614005e-07,-1.1778330831768713e-06,0.0006350889860527529,-0.0003695503314051323,0.0012905307181833082,0.0011985241128870778,-0.00019935117884462922,-5.2885684622817306e-05,-0.0013303618160803079,0.3514034152030945,34.11452865600586,3.8744170665740967,-19.388460159301758,-0.3143211007118225,-1.783755898475647,0.19351522624492645,0
46,0.22460603713989258,-0.3514034152030945,-34.11452865600586,-3.8744170665740967,19.388460159301758,0.3143211007118225,1.783755898475647,-0.19351522624492645,0.0,0.0,0.0,0.0,0.0,0.0,0.0,-0.37451582826235386,-0.014274261274225541,-0.3409900509384651,0.3112747581149384,0.2649765134039761,-0.12214619954173193,-0.15642745854948625,1.054416044001429,0.3234682846680179,-0.3925092944690208,-2.153140248257211,0.8647368542043709,2.465877503598475,0.5445031963901388,1.0544104758940245,0.3238615046091247,-0.39250456234122666,-2.153291787532338,0.8647539153680389,2.46587817577521,0.5445020185570556,-0.0006350889860527529,0.0003695503314051323,-0.0012905307181833082,-0.0011985241128870778,0.00019935117884462922,5.2885684622817306e-05,0.0013303618160803079,0.0,0.0,0.0,0.0,0.0,0.0,0.0,-5.568107404485545e-06,0.0003932199411068038,4.7321277941159146e-06,-0.0001515392751270106,1.7061163668063983e-05,6.721767351614005e-07,-1.1778330831768713e-06,0.0006350889860527529,-0.0003695503314051323,0.0012905307181833082,0.0011985241128870778,-0.00019935117884462922,-5.2885684622817306e-05,-0.0013303618160803079,0.3514034152030945,34.11452865600586,3.8744170665740967,-19.388460159301758,-0.3143211007118225,-1.783755898475647,0.19351522624492645,0
47,0.22960853576660156,-0.3752071261405945,-34.06295394897461,-3.8982207775115967,19.313081741333008,0.3198142647743225,1.796573281288147,-0.18710653483867645,0.0,0.0,0.0,0.0,0.0,0.0,0.0,-0.3548972899202306,-0.004965861440960147,-0.3243573399767966,0.30402560567602893,0.26392032014571926,-0.1248654319692718,-0.15750020046793373,1.05441699919366,0.3234645790289895,-0.3925078285728154,-2.153137101669519,0.8647332264393462,2.4658770993446013,0.5445028375260256,1.0544104758940245,0.3238615046091247,-0.39250456234122666,-2.153291787532338,0.8647539153680389,2.46587817577521,0.5445020185570556,0.0005354336274587711,-0.0007929345922587896,0.00035150727920219726,0.00043568398643368384,-0.00018854063014548625,-0.0004127624858531849,0.0009462365011215332,0.0,0.0,0.0,0.0,0.0,0.0,0.0,-6.523299635574631e-06,0.00039692558013521007,3.266231588749946e-06,-0.00015468586281874863,2.068892869266925e-05,1.076430608648593e-06,-8.189689699733549e-07,-0.0005354336274587711,0.0007929345922587896,-0.00035150727920219726,-0.00043568398643368384,0.00018854063014548625,0.0004127624858531849,-0.0009462365011215332,0.3752071261405945,34.06295394897461,3.8982207775115967,-19.313081741333008,-0.3198142647743225,-1.796573281288147,0.18710653483867645,0
48,0.23461580276489258,-0.3752071261405945,-34.06295394897461,-3.8982207775115967,19.313081741333008,0.3198142647743225,1.796573281288147,-0.18710653483867645,0.0,0.0,0.0,0.0,0.0,0.0,0.0,-0.3548972899202306,-0.004965861440960147,-0.3243573399767966,0.30402560567602893,0.26392032014571926,-0.1248654319692718,-0.15750020046793373,1.05441699919366,0.3234645790289895,-0.3925078285728154,-2.153137101669519,0.8647332264393462,2.4658770993446013,0.5445028375260256,1.0544104758940245,0.3238615046091247,-0.39250456234122666,-2.153291787532338,0.8647539153680389,2.46587817577521,0.5445020185570556,0.0005354336274587711,-0.0007929345922587896,0.00035150727920219726,0.00043568398643368384,-0.00018854063014548625,-0.0004127624858531849,0.0009462365011215332,0.0,0.0,0.0,0.0,0.0,0.0,0.0,-6.523299635574631e-06,0.00039692558013521007,3.266231588749946e-06,-0.00015468586281874863,2.068892869266925e-05,1.076430608648593e-06,-8.189689699733549e-07,-0.0005354336274587711,0.0007929345922587896,-0.00035150727920219726,-0.00043568398643368384,0.00018854063014548625,0.0004127624858531849,-0.0009462365011215332,0.3752071261405945,34.06295394897461,3.8982207775115967,-19.313081741333008,-0.3198142647743225,-1.796573281288147,0.18710653483867645,0
49,0.2396090030670166,-0.3752071261405945,-34.09072494506836,-3.8982207775115967,19.360689163208008,0.3198142647743225,1.783755898475647,-0.17337362468242645,0.0,0.0,0.0,0.0,0.0,0.0,0.0,-0.36089504656517485,-0.008773747205846285,-0.3299757284060277,0.30603441423138494,0.26381381788348773,-0.12369974966294578,-0.15818956878832344,1.054417714409021,0.3234651718442239,-0.3925055506373185,-2.1531404170785136,0.8647361053844947,2.465878527756985,0.5445009584364034,1.0544104758940245,0.3238615046091247,-0.39250456234122666,-2.153291787532338,0.8647539153680389,2.46587817577521,0.5445020185570556,0.0006357094985998991,0.0006643855728102761,0.0002661234441532993,-0.0005666738621852688,-9.752917267107519e-05,-5.625218288834174e-05,0.0010959847853385008,0.0,0.0,0.0,0.0,0.0,0.0,0.0,-7.238514996510403e-06,0.0003963327649008086,9.882960918528028e-07,-0.00015137045382429548,1.7809983544170294e-05,-3.519817748376397e-07,1.0601206521521078e-06,-0.0006357094985998991,-0.0006643855728102761,-0.0002661234441532993,0.0005666738621852688,9.752917267107519e-05,5.625218288834174e-05,-0.0010959847853385008,0.3752071261405945,34.09072494506836,3.8982207775115967,-19.360689163208008,-0.3198142647743225,-1.783755898475647,0.17337362468242645,0
50,0.24461960792541504,-0.3752071261405945,-34.09072494506836,-3.8982207775115967,19.360689163208008,0.3198142647743225,1.783755898475647,-0.17337362468242645,0.0,0.0,0.0,0.0,0.0,0.0,0.0,-0.36089504656517485,-0.008773747205846285,-0.3299757284060277,0.30603441423138494,0.26381381788348773,-0.12369974966294578,-0.15818956878832344,1.054417714409021,0.3234651718442239,-0.3925055506373185,-2.1531404170785136,0.8647361053844947,2.465878527756985,0.5445009584364034,1.0544104758940245,0.3238615046091247,-0.39250456234122666,-2.153291787532338,0.8647539153680389,2.46587817577521,0.5445020185570556,0.0006357094985998991,0.0006643855728102761,0.0002661234441532993,-0.0005666738621852688,-9.752917267107519e-05,-5.625218288834174e-05,0.0010959847853385008,0.0,0.0,0.0,0.0,0.0,0.0,0.0,-7.238514996510403e-06,0.0003963327649008086,9.882960918528028e-07,-0.00015137045382429548,1.7809983544170294e-05,-3.519817748376397e-07,1.0601206521521078e-06,-0.0006357094985998991,-0.0006643855728102761,-0.0002661234441532993,0.0005666738621852688,9.752917267107519e-05,5.625218288834174e-05,-0.0010959847853385008,0.3752071261405945,34.09072494506836,3.8982207775115967,-19.360689163208008,-0.3198142647743225,-1.783755898475647,0.17337362468242645,0
51,0.249619722366333,-0.3752071261405945,-34.09072494506836,-3.8982207775115967,19.336885452270508,0.3079124093055725,1.783755898475647,-0.16604940593242645,0.0,0.0,0.0,0.0,0.0,0.0,0.0,-0.3667163590008947,-0.016562034073634754,-0.3358593286124074,0.30945778839347504,0.26383599587232776,-0.12268891816938074,-0.158961868555161,1.0544177144493971,0.3234670877702331,-0.39250558007432956,-2.1531388996663625,0.8647368004754997,2.465877817078609,0.5445001446323262,1.0544104758940245,0.3238615046091247,-0.39250456234122666,-2.153291787532338,0.8647539153680389,2.46587817577521,0.5445020185570556,-0.00014409559292746343,0.00030772644720873405,0.0002999789110311873,-6.050783831265122e-05,0.00021271733987724445,-7.0986947100155e-05,0.000394168422825031,0.0,0.0,0.0,0.0,0.0,0.0,0.0,-7.238555372657274e-06,0.00039441683889163137,1.0177331029037617e-06,-0.00015288786597533743,1.711489253919396e-05,3.586966008661818e-07,1.873924729389742e-06,0.00014409559292746343,-0.00030772644720873405,-0.0002999789110311873,6.050783831265122e-05,-0.00021271733987724445,7.0986947100155e-05,-0.000394168422825031,0.3752071261405945,34.09072494506836,3.8982207775115967,-19.336885452270508,-0.3079124093055725,-1.783755898475647,0.16604940593242645,0
52,0.2546052932739258,-0.3752071261405945,-34.09072494506836,-3.8982207775115967,19.336885452270508,0.3079124093055725,1.783755898475647,-0.16604940593242645,0.0,0.0,0.0,0.0,0.0,0.0,0.0,-0.3667163590008947,-0.016562034073634754,-0.3358593286124074,0.30945778839347504,0.26383599587232776,-0.12268891816938074,-0.158961868555161,1.0544177144493971,0.3234670877702331,-0.39250558007432956,-2.1531388996663625,0.8647368004754997,2.465877817078609,0.5445001446323262,1.0544104758940245,0.3238615046091247,-0.39250456234122666,-2.153291787532338,0.8647539153680389,2.46587817577521,0.5445020185570556,-0.00014409559292746343,0.00030772644720873405,0.0002999789110311873,-6.050783831265122e-05,0.00021271733987724445,-7.0986947100155e-05,0.000394168422825031,0.0,0.0,0.0,0.0,0.0,0.0,0.0,-7.238555372657274e-06,0.00039441683889163137,1.0177331029037617e-06,-0.00015288786597533743,1.711489253919396e-05,3.586966008661818e-07,1.873924729389742e-06,0.00014409559292746343,-0.00030772644720873405,-0.0002999789110311873,6.050783831265122e-05,-0.00021271733987724445,7.0986947100155e-05,-0.000394168422825031,0.3752071261405945,34.09072494506836,3.8982207775115967,-19.336885452270508,-0.3079124093055725,-1.783755898475647,0.16604940593242645,0
53,0.25961971282958984,-0.3752071261405945,-34.09072494506836,-3.8982207775115967,19.336885452270508,0.3079124093055725,1.783755898475647,-0.16604940593242645,0.0,0.0,0.0,0.0,0.0,0.0,0.0,-0.3667163590008947,-0.016562034073634754,-0.3358593286124074,0.30945778839347504,0.26383599587232776,-0.12268891816938074,-0.158961868555161,1.0544177144493971,0.3234670877702331,-0.39250558007432956,-2.1531388996663625,0.8647368004754997,2.465877817078609,0.5445001446323262,1.0544104758940245,0.3238615046091247,-0.39250456234122666,-2.153291787532338,0.8647539153680389,2.46587817577521,0.5445020185570556,-0.00014409559292746343,0.00030772644720873405,0.0002999789110311873,-6.050783831265122e-05,0.00021271733987724445,-7.0986947100155e-05,0.000394168422825031,0.0,0.0,0.0,0.0,0.0,0.0,0.0,-7.238555372657274e-06,0.00039441683889163137,1.0177331029037617e-06,-0.00015288786597533743,1.711489253919396e-05,3.586966008661818e-07,1.873924729389742e-06,0.00014409559292746343,-0.00030772644720873405,-0.0002999789110311873,6.050783831265122e-05,-0.00021271733987724445,7.0986947100155e-05,-0.000394168422825031,0.3752071261405945,34.09072494506836,3.8982207775115967,-19.336885452270508,-0.3079124093055725,-1.783755898475647,0.16604940593242645,0
54,0.26464176177978516,-0.3752071261405945,-34.09072494506836,-3.8982207775115967,19.336885452270508,0.3079124093055725,1.783755898475647,-0.16604940593242645,0.0,0.0,0.0,0.0,0.0,0.0,0.0,-0.3667163590008947,-0.016562034073634754,-0.3358593286124074,0.30945778839347504,0.26383599587232776,-0.12268891816938074,-0.158961868555161,1.0544177144493971,0.3234670877702331,-0.39250558007432956,-2.1531388996663625,0.8647368004754997,2.465877817078609,0.5445001446323262,1.0544104758940245,0.3238615046091247,-0.39250456234122666,-2.153291787532338,0.8647539153680389,2.46587817577521,0.5445020185570556,-0.00014409559292746343,0.00030772644720873405,0.0002999789110311873,-6.050783831265122e-05,0.00021271733987724445,-7.0986947100155e-05,0.000394168422825031,0.0,0.0,0.0,0.0,0.0,0.0,0.0,-7.238555372657274e-06,0.00039441683889163137,1.0177331029037617e-06,-0.00015288786597533743,1.711489253919396e-05,3.586966008661818e-07,1.873924729389742e-06,0.00014409559292746343,-0.00030772644720873405,-0.0002999789110311873,6.050783831265122e-05,-0.00021271733987724445,7.0986947100155e-05,-0.000394168422825031,0.3752071261405945,34.09072494506836,3.8982207775115967,-19.336885452270508,-0.3079124093055725,-1.783755898475647,0.16604940593242645,0
55,0.2696068286895752,-0.3514034152030945,-34.09072494506836,-3.8982207775115967,19.313081741333008,0.3143211007118225,1.777347207069397,-0.20724813640117645,0.0,0.0,0.0,0.0,0.0,0.0,0.0,-0.3597377149239965,-0.012801741589250832,-0.3274163513989195,0.3070001274823754,0.2632071486786953,-0.1237123403019123,-0.15992731721374917,1.0544160430323954,0.32346446321438554,-0.3925077041733784,-2.1531343283919124,0.8647338352966967,2.465881355337615,0.544504722269045,1.0544104758940245,0.3238615046091247,-0.39250456234122666,-2.153291787532338,0.8647539153680389,2.46587817577521,0.5445020185570556,-0.0001966146683038718,0.0001939188786262735,0.00048186296722415656,0.0007730983094832564,9.33594525167531e-05,9.941442072735571e-05,0.0022218606762689076,0.0,0.0,0.0,0.0,0.0,0.0,0.0,-5.567138370965452e-06,0.00039704139473917266,3.1418321517207026e-06,-0.00015745914042541997,2.0080071342243322e-05,-3.179562404920233e-06,-2.703711989404667e-06,0.0001966146683038718,-0.0001939188786262735,-0.00048186296722415656,-0.0007730983094832564,-9.33594525167531e-05,-9.941442072735571e-05,-0.0022218606762689076,0.3514034152030945,34.09072494506836,3.8982207775115967,-19.313081741333008,-0.3143211007118225,-1.777347207069397,0.20724813640117645,0
56,0.27462267875671387,-0.3514034152030945,-34.09072494506836,-3.8982207775115967,19.313081741333008,0.3143211007118225,1.777347207069397,-0.20724813640117645,0.0,0.0,0.0,0.0,0.0,0.0,0.0,-0.3597377149239965,-0.012801741589250832,-0.3274163513989195,0.3070001274823754,0.2632071486786953,-0.1237123403019123,-0.15992731721374917,1.0544160430323954,0.32346446321438554,-0.3925077041733784,-2.1531343283919124,0.8647338352966967,2.465881355337615,0.544504722269045,1.0544104758940245,0.3238615046091247,-0.39250456234122666,-2.153291787532338,0.8647539153680389,2.46587817577521,0.5445020185570556,-0.0001966146683038718,0.0001939188786262735,0.00048186296722415656,0.0007730983094832564,9.33594525167531e-05,9.941442072735571e-05,0.0022218606762689076,0.0,0.0,0.0,0.0,0.0,0.0,0.0,-5.567138370965452e-06,0.00039704139473917266,3.1418321517207026e-06,-0.00015745914042541997,2.0080071342243322e-05,-3.179562404920233e-06,-2.703711989404667e-06,0.0001966146683038718,-0.0001939188786262735,-0.00048186296722415656,-0.0007730983094832564,-9.33594525167531e-05,-9.941442072735571e-05,-0.0022218606762689076,0.3514034152030945,34.09072494506836,3.8982207775115967,-19.313081741333008,-0.3143211007118225,-1.777347207069397,0.20724813640117645,0
57,0.2796025276184082,-0.3514034152030945,-34.06295394897461,-3.8744170665740967,19.360689163208008,0.3143211007118225,1.777347207069397,-0.19351522624492645,0.0,0.0,0.0,0.0,0.0,0.0,0.0,-0.370580624363125,-0.011499672315392747,-0.3346616216267043,0.3055819732941073,0.26387202884885697,-0.12354138217179002,-0.15931204666540533,1.0544160440135364,0.32346465480165937,-0.3925072414497655,-2.153138610275677,0.8647325093379471,2.465878332776585,0.5445031963901388,1.0544104758940245,0.3238615046091247,-0.39250456234122666,-2.153291787532338,0.8647539153680389,2.46587817577521,0.5445020185570556,-0.00037486719385425375,-0.0002730239993084154,-0.0005788951718747381,-0.00020983029068673785,2.7733350529528066e-05,5.5262459560442984e-05,0.001377082428112603,0.0,0.0,0.0,0.0,0.0,0.0,0.0,-5.568119511911718e-06,0.00039684980746534926,2.6791085388500058e-06,-0.0001531772566609746,2.1406030091819517e-05,-1.5700137501184486e-07,-1.1778330831768713e-06,0.00037486719385425375,0.0002730239993084154,0.0005788951718747381,0.00020983029068673785,-2.7733350529528066e-05,-5.5262459560442984e-05,-0.001377082428112603,0.3514034152030945,34.06295394897461,3.8744170665740967,-19.360689163208008,-0.3143211007118225,-1.777347207069397,0.19351522624492645,0
58,0.28464269638061523,-0.3514034152030945,-34.06295394897461,-3.8744170665740967,19.360689163208008,0.3143211007118225,1.777347207069397,-0.19351522624492645,0.0,0.0,0.0,0.0,0.0,0.0,0.0,-0.370580624363125,-0.011499672315392747,-0.3346616216267043,0.3055819732941073,0.26387202884885697,-0.12354138217179002,-0.15931204666540533,1.0544160440135364,0.32346465480165937,-0.3925072414497655,-2.153138610275677,0.8647325093379471,2.465878332776585,0.5445031963901388,1.0544104758940245,0.3238615046091247,-0.39250456234122666,-2.153291787532338,0.8647539153680389,2.46587817577521,0.5445020185570556,-0.00037486719385425375,-0.0002730239993084154,-0.0005788951718747381,-0.00020983029068673785,2.7733350529528066e-05,5.5262459560442984e-05,0.001377082428112603,0.0,0.0,0.0,0.0,0.0,0.0,0.0,-5.568119511911718e-06,0.00039684980746534926,2.6791085388500058e-06,-0.0001531772566609746,2.1406030091819517e-05,-1.5700137501184486e-07,-1.1778330831768713e-06,0.00037486719385425375,0.0002730239993084154,0.0005788951718747381,0.00020983029068673785,-2.7733350529528066e-05,-5.5262459560442984e-05,-0.001377082428112603,0.3514034152030945,34.06295394897461,3.8744170665740967,-19.360689163208008,-0.3143211007118225,-1.777347207069397,0.19351522624492645,0
59,0.2895989418029785,-0.3236324191093445,-34.03915023803711,-3.8744170665740967,19.313081741333008,0.3143211007118225,1.770938515663147,-0.18710653483867645,0.0,0.0,0.0,0.0,0.0,0.0,0.0,-0.36198555062261517,-0.017901830342408637,-0.3295626587577484,0.3087021799060742,0.2638047908223534,-0.12404649041588241,-0.15931657254780787,1.054414095171711,0.3234633896556225,-0.39250739923574407,-2.1531365365713144,0.8647361300918236,2.4658788883374356,0.544502497395268,1.0544104758940245,0.3238615046091247,-0.39250456234122666,-2.153291787532338,0.8647539153680389,2.46587817577521,0.5445020185570556,-0.0005318352745479068,-0.0013893399265237684,-0.0004010409703754776,0.0008021881162117806,0.0002119024143984768,0.00035542516701637976,0.0006810943563350261,0.0,0.0,0.0,0.0,0.0,0.0,0.0,-3.619277686439659e-06,0.0003981149535022266,2.8368945174106486e-06,-0.00015525096102342317,1.7785276215320778e-05,-7.125622256687336e-07,-4.788382124143453e-07,0.0005318352745479068,0.0013893399265237684,0.0004010409703754776,-0.0008021881162117806,-0.0002119024143984768,-0.00035542516701637976,-0.0006810943563350261,0.3236324191093445,34.03915023803711,3.8744170665740967,-19.313081741333008,-0.3143211007118225,-1.770938515663147,0.18710653483867645,0
60,0.29462099075317383,-0.3236324191093445,-34.03915023803711,-3.8744170665740967,19.313081741333008,0.3143211007118225,1.770938515663147,-0.18710653483867645,0.0,0.0,0.0,0.0,0.0,0.0,0.0,-0.36198555062261517,-0.017901830342408637,-0.3295626587577484,0.3087021799060742,0.2638047908223534,-0.12404649041588241,-0.15931657254780787,1.054414095171711,0.3234633896556225,-0.39250739923574407,-2.1531365365713144,0.8647361300918236,2.4658788883374356,0.544502497395268,1.0544104758940245,0.3238615046091247,-0.39250456234122666,-2.153291787532338,0.8647539153680389,2.46587817577521,0.5445020185570556,-0.0005318352745479068,-0.0013893399265237684,-0.0004010409703754776,0.0008021881162117806,0.0002119024143984768,0.00035542516701637976,0.0006810943563350261,0.0,0.0,0.0,0.0,0.0,0.0,0.0,-3.619277686439659e-06,0.0003981149535022266,2.8368945174106486e-06,-0.00015525096102342317,1.7785276215320778e-05,-7.125622256687336e-07,-4.788382124143453e-07,0.0005318352745479068,0.0013893399265237684,0.0004010409703754776,-0.0008021881162117806,-0.0002119024143984768,-0.00035542516701637976,-0.0006810943563350261,0.3236324191093445,34.03915023803711,3.8744170665740967,-19.313081741333008,-0.3143211007118225,-1.770938515663147,0.18710653483867645,0
61,0.2996182441711426,-0.3514034152030945,-34.11452865600586,-3.8982207775115967,19.336885452270508,0.3143211007118225,1.790164589881897,-0.18710653483867645,0.0,0.0,0.0,0.0,0.0,0.0,0.0,-0.35595373022028515,-0.019767023030972452,-0.32528453902696536,0.3098837564562161,0.26362605163443764,-0.1242190753198157,-0.15952533835536298,1.0544160351832241,0.3234680495834598,-0.392505493237821,-2.1531382411673703,0.864737211440592,2.4658771048342767,0.5445060164404875,1.0544104758940245,0.3238615046091247,-0.39250456234122666,-2.153291787532338,0.8647539153680389,2.46587817577521,0.5445020185570556,-0.0001800189027503696,0.0005887608754592845,0.00042008484168277706,0.00042569729696962435,0.00011022011475286392,-0.0001216671636946319,0.0011599013640190253,0.0,0.0,0.0,0.0,0.0,0.0,0.0,-5.5592891996525395e-06,0.00039345502566490165,9.308965943644054e-07,-0.00015354636496756058,1.6703927446903855e-05,1.07094093326765e-06,-3.997883431861027e-06,0.0001800189027503696,-0.0005887608754592845,-0.00042008484168277706,-0.00042569729696962435,-0.00011022011475286392,0.0001216671636946319,-0.0011599013640190253,0.3514034152030945,34.11452865600586,3.8982207775115967,-19.336885452270508,-0.3143211007118225,-1.790164589881897,0.18710653483867645,0
62,0.30464768409729004,-0.3514034152030945,-34.11452865600586,-3.8982207775115967,19.336885452270508,0.3143211007118225,1.790164589881897,-0.18710653483867645,0.0,0.0,0.0,0.0,0.0,0.0,0.0,-0.35595373022028515,-0.019767023030972452,-0.32528453902696536,0.3098837564562161,0.26362605163443764,-0.1242190753198157,-0.15952533835536298,1.0544160351832241,0.3234680495834598,-0.392505493237821,-2.1531382411673703,0.864737211440592,2.4658771048342767,0.5445060164404875,1.0544104758940245,0.3238615046091247,-0.39250456234122666,-2.153291787532338,0.8647539153680389,2.46587817577521,0.5445020185570556,-0.0001800189027503696,0.0005887608754592845,0.00042008484168277706,0.00042569729696962435,0.00011022011475286392,-0.0001216671636946319,0.0011599013640190253,0.0,0.0,0.0,0.0,0.0,0.0,0.0,-5.5592891996525395e-06,0.00039345502566490165,9.308965943644054e-07,-0.00015354636496756058,1.6703927446903855e-05,1.07094093326765e-06,-3.997883431861027e-06,0.0001800189027503696,-0.0005887608754592845,-0.00042008484168277706,-0.00042569729696962435,-0.00011022011475286392,0.0001216671636946319,-0.0011599013640190253,0.3514034152030945,34.11452865600586,3.8982207775115967,-19.336885452270508,-0.3143211007118225,-1.790164589881897,0.18710653483867645,0
63,0.30962514877319336,-0.3236324191093445,-34.06295394897461,-3.8982207775115967,19.360689163208008,0.3262229561805725,1.770938515663147,-0.15231649577617645,0.0,0.0,0.0,0.0,0.0,0.0,0.0,-0.36178380629929063,-0.010385124555094077,-0.3271676008211605,0.3001266360296305,0.263835425459653,-0.12414943596673762,-0.15759466582411938,1.0544140951716612,0.3234653369117889,-0.3925085426301312,-2.1531399664022626,0.864734805648282,2.465879280312593,0.5444986187733589,1.0544104758940245,0.3238615046091247,-0.39250456234122666,-2.153291787532338,0.8647539153680389,2.46587817577521,0.5445020185570556,-0.0010083248604034613,-0.0007444118464017255,0.0006646687294746172,-0.000741115429901755,-0.00023760929672982686,0.0004206211298343987,0.00012459956105793335,0.0,0.0,0.0,0.0,0.0,0.0,0.0,-3.6192776367016677e-06,0.00039616769733580304,3.980288904525953e-06,-0.0001518211300752803,1.910971975693787e-05,-1.1045373828899585e-06,3.399783696678149e-06,0.0010083248604034613,0.0007444118464017255,-0.0006646687294746172,0.000741115429901755,0.00023760929672982686,-0.0004206211298343987,-0.00012459956105793335,0.3236324191093445,34.06295394897461,3.8982207775115967,-19.360689163208008,-0.3262229561805725,-1.770938515663147,0.15231649577617645,0
64,0.31459712982177734,-0.3236324191093445,-34.06295394897461,-3.8982207775115967,19.360689163208008,0.3262229561805725,1.770938515663147,-0.15231649577617645,0.0,0.0,0.0,0.0,0.0,0.0,0.0,-0.36178380629929063,-0.010385124555094077,-0.3271676008211605,0.3001266360296305,0.263835425459653,-0.12414943596673762,-0.15759466582411938,1.0544140951716612,0.3234653369117889,-0.3925085426301312,-2.1531399664022626,0.864734805648282,2.465879280312593,0.5444986187733589,1.0544104758940245,0.3238615046091247,-0.39250456234122666,-2.153291787532338,0.8647539153680389,2.46587817577521,0.5445020185570556,-0.0010083248604034613,-0.0007444118464017255,0.0006646687294746172,-0.000741115429901755,-0.00023760929672982686,0.0004206211298343987,0.00012459956105793335,0.0,0.0,0.0,0.0,0.0,0.0,0.0,-3.6192776367016677e-06,0.00039616769733580304,3.980288904525953e-06,-0.0001518211300752803,1.910971975693787e-05,-1.1045373828899585e-06,3.399783696678149e-06,0.0010083248604034613,0.0007444118464017255,-0.0006646687294746172,0.000741115429901755,0.00023760929672982686,-0.0004206211298343987,-0.00012459956105793335,0.3236324191093445,34.06295394897461,3.8982207775115967,-19.360689163208008,-0.3262229561805725,-1.770938515663147,0.15231649577617645,0
65,0.3195967674255371,-0.3514034152030945,-34.09072494506836,-3.8744170665740967,19.360689163208008,0.3262229561805725,1.777347207069397,-0.17337362468242645,0.0,0.0,0.0,0.0,0.0,0.0,0.0,-0.3659870168278025,-0.013347437639426203,-0.33176401545397866,0.30167281124948087,0.2635502755848954,-0.12337781105518272,-0.1558441096655113,1.054416044013542,0.3234673209689738,-0.3925094959896641,-2.1531405942797512,0.8647348071320554,2.4658785294746517,0.5445009584344097,1.0544104758940245,0.3238615046091247,-0.39250456234122666,-2.153291787532338,0.8647539153680389,2.46587817577521,0.5445020185570556,-0.0004629073229793403,0.0004213674443646165,-0.0005288727951495929,-0.0004954496486829662,-0.00037335078032453616,0.0003024608921321629,0.0007560146797442872,0.0,0.0,0.0,0.0,0.0,0.0,0.0,-5.568119517462833e-06,0.00039418364015092466,4.93364843745514e-06,-0.0001511932525866122,1.910823598350042e-05,-3.536994417352446e-07,1.0601226458906154e-06,0.0004629073229793403,-0.0004213674443646165,0.0005288727951495929,0.0004954496486829662,0.00037335078032453616,-0.0003024608921321629,-0.0007560146797442872,0.3514034152030945,34.09072494506836,3.8744170665740967,-19.360689163208008,-0.3262229561805725,-1.777347207069397,0.17337362468242645,0
66,0.32463932037353516,-0.3514034152030945,-34.09072494506836,-3.8744170665740967,19.360689163208008,0.3262229561805725,1.777347207069397,-0.17337362468242645,0.0,0.0,0.0,0.0,0.0,0.0,0.0,-0.3659870168278025,-0.013347437639426203,-0.33176401545397866,0.30167281124948087,0.2635502755848954,-0.12337781105518272,-0.1558441096655113,1.054416044013542,0.3234673209689738,-0.3925094959896641,-2.1531405942797512,0.8647348071320554,2.4658785294746517,0.5445009584344097,1.0544104758940245,0.3238615046091247,-0.39250456234122666,-2.153291787532338,0.8647539153680389,2.46587817577521,0.5445020185570556,-0.0004629073229793403,0.0004213674443646165,-0.0005288727951495929,-0.0004954496486829662,-0.00037335078032453616,0.0003024608921321629,0.0007560146797442872,0.0,0.0,0.0,0.0,0.0,0.0,0.0,-5.568119517462833e-06,0.00039418364015092466,4.93364843745514e-06,-0.0001511932525866122,1.910823598350042e-05,-3.536994417352446e-07,1.0601226458906154e-06,0.0004629073229793403,-0.0004213674443646165,0.0005288727951495929,0.0004954496486829662,0.00037335078032453616,-0.0003024608921321629,-0.0007560146797442872,0.3514034152030945,34.09072494506836,3.8744170665740967,-19.360689163208008,-0.3262229561805725,-1.777347207069397,0.17337362468242645,0
67,0.32959890365600586,-0.3514034152030945,-34.03915023803711,-3.8982207775115967,19.336885452270508,0.3198142647743225,1.790164589881897,-0.15964071452617645,0.0,0.0,0.0,0.0,0.0,0.0,0.0,-0.3604467912752759,-0.004244660046843061,-0.32854113777235344,0.29903598072679743,0.2634066907305399,-0.12405481467396479,-0.156036636560593,1.05441389824633,0.3234634683966717,-0.39250643758962395,-2.1531389847000524,0.8647361039627296,2.4658799437814065,0.5445026115237265,1.0544104758940245,0.3238615046091247,-0.39250456234122666,-2.153291787532338,0.8647539153680389,2.46587817577521,0.5445020185570556,-0.0006391803748455109,-7.822272028609124e-05,0.00027809562224121896,0.00035106211550344846,-7.59553113297176e-05,-0.00040838985493390145,0.00045889784929413415,0.0,0.0,0.0,0.0,0.0,0.0,0.0,-3.4223523055487703e-06,0.00039803621245299015,1.8752483972872547e-06,-0.0001528028322854702,1.781140530932035e-05,-1.768006196556371e-06,-5.929666708759385e-07,0.0006391803748455109,7.822272028609124e-05,-0.00027809562224121896,-0.00035106211550344846,7.59553113297176e-05,0.00040838985493390145,-0.00045889784929413415,0.3514034152030945,34.03915023803711,3.8982207775115967,-19.336885452270508,-0.3198142647743225,-1.790164589881897,0.15964071452617645,0
68,0.3346374034881592,-0.3514034152030945,-34.03915023803711,-3.8982207775115967,19.336885452270508,0.3198142647743225,1.790164589881897,-0.15964071452617645,0.0,0.0,0.0,0.0,0.0,0.0,0.0,-0.3604467912752759,-0.004244660046843061,-0.32854113777235344,0.29903598072679743,0.2634066907305399,-0.12405481467396479,-0.156036636560593,1.05441389824633,0.3234634683966717,-0.39250643758962395,-2.1531389847000524,0.8647361039627296,2.4658799437814065,0.5445026115237265,1.0544104758940245,0.3238615046091247,-0.39250456234122666,-2.153291787532338,0.8647539153680389,2.46587817577521,0.5445020185570556,-0.0006391803748455109,-7.822272028609124e-05,0.00027809562224121896,0.00035106211550344846,-7.59553113297176e-05,-0.00040838985493390145,0.00045889784929413415,0.0,0.0,0.0,0.0,0.0,0.0,0.0,-3.4223523055487703e-06,0.00039803621245299015,1.8752483972872547e-06,-0.0001528028322854702,1.781140530932035e-05,-1.768006196556371e-06,-5.929666708759385e-07,0.0006391803748455109,7.822272028609124e-05,-0.00027809562224121896,-0.00035106211550344846,7.59553113297176e-05,0.00040838985493390145,-0.00045889784929413415,0.3514034152030945,34.03915023803711,3.8982207775115967,-19.336885452270508,-0.3198142647743225,-1.790164589881897,0.15964071452617645,0
69,0.33959269523620605,-0.3514034152030945,-34.09072494506836,-3.8506133556365967,19.336885452270508,0.3262229561805725,1.777347207069397,-0.17978231608867645,0.0,0.0,0.0,0.0,0.0,0.0,0.0,-0.3583183638213332,-0.009522024069066234,-0.3280258596859133,0.30345294096780356,0.2639965704932842,-0.12355288874929642,-0.15531595113135083,1.054416044001429,0.323467297746381,-0.3925110184802424,-2.1531383186459885,0.864734325128682,2.465879289212718,0.5445016705291778,1.0544104758940245,0.3238615046091247,-0.39250456234122666,-2.153291787532338,0.8647539153680389,2.46587817577521,0.5445020185570556,-0.00017052268287770175,0.0005274489055705379,-0.0005925508052700654,9.282667368721209e-06,-0.0001689203012702088,0.00017536895006637355,0.0013261625862942114,0.0,0.0,0.0,0.0,0.0,0.0,0.0,-5.568107404485545e-06,0.00039420686274371786,6.456139015731388e-06,-0.00015346888634937272,1.9590239356936934e-05,-1.1134375079713266e-06,3.480278778500434e-07,0.00017052268287770175,-0.0005274489055705379,0.0005925508052700654,-9.282667368721209e-06,0.0001689203012702088,-0.00017536895006637355,-0.0013261625862942114,0.3514034152030945,34.09072494506836,3.8506133556365967,-19.336885452270508,-0.3262229561805725,-1.777347207069397,0.17978231608867645,0
70,0.3446488380432129,-0.3514034152030945,-34.09072494506836,-3.8506133556365967,19.336885452270508,0.3262229561805725,1.777347207069397,-0.17978231608867645,0.0,0.0,0.0,0.0,0.0,0.0,0.0,-0.3583183638213332,-0.009522024069066234,-0.3280258596859133,0.30345294096780356,0.2639965704932842,-0.12355288874929642,-0.15531595113135083,1.054416044001429,0.323467297746381,-0.3925110184802424,-2.1531383186459885,0.864734325128682,2.465879289212718,0.5445016705291778,1.0544104758940245,0.3238615046091247,-0.39250456234122666,-2.153291787532338,0.8647539153680389,2.46587817577521,0.5445020185570556,-0.00017052268287770175,0.0005274489055705379,-0.0005925508052700654,9.282667368721209e-06,-0.0001689203012702088,0.00017536895006637355,0.0013261625862942114,0.0,0.0,0.0,0.0,0.0,0.0,0.0,-5.568107404485545e-06,0.00039420686274371786,6.456139015731388e-06,-0.00015346888634937272,1.9590239356936934e-05,-1.1134375079713266e-06,3.480278778500434e-07,0.00017052268287770175,-0.0005274489055705379,0.0005925508052700654,-9.282667368721209e-06,0.0001689203012702088,-0.00017536895006637355,-0.0013261625862942114,0.3514034152030945,34.09072494506836,3.8506133556365967,-19.336885452270508,-0.3262229561805725,-1.777347207069397,0.17978231608867645,0
71,0.349621057510376,-0.4029781222343445,-34.06295394897461,-3.8744170665740967,19.336885452270508,0.3198142647743225,1.783755898475647,-0.13858358561992645,0.0,0.0,0.0,0.0,0.0,0.0,0.0,-0.3595401714381347,-0.013148957056779417,-0.33121254416428736,0.30725295704494593,0.26489342258598203,-0.12270490930136947,-0.15585815220079138,1.0544196603477891,0.3234628963579962,-0.3925100769896755,-2.153138779393431,0.8647317593884973,2.465877464189189,0.5444970928745138,1.0544104758940245,0.3238615046091247,-0.39250456234122666,-2.153291787532338,0.8647539153680389,2.46587817577521,0.5445020185570556,0.001148134267576488,-0.00042990288115051374,9.990268120962322e-05,0.0002989049312068216,1.4587577684297675e-05,-3.156686579597677e-05,-0.00020539422723335387,0.0,0.0,0.0,0.0,0.0,0.0,0.0,-9.184453764632394e-06,0.0003986082511285294,5.514648448834425e-06,-0.00015300813890695153,2.215597954158266e-05,7.115860207740354e-07,4.925682541845333e-06,-0.001148134267576488,0.00042990288115051374,-9.990268120962322e-05,-0.0002989049312068216,-1.4587577684297675e-05,3.156686579597677e-05,0.00020539422723335387,0.4029781222343445,34.06295394897461,3.8744170665740967,-19.336885452270508,-0.3198142647743225,-1.783755898475647,0.13858358561992645,0
72,0.35460948944091797,-0.4029781222343445,-34.06295394897461,-3.8744170665740967,19.336885452270508,0.3198142647743225,1.783755898475647,-0.13858358561992645,0.0,0.0,0.0,0.0,0.0,0.0,0.0,-0.3595401714381347,-0.013148957056779417,-0.33121254416428736,0.30725295704494593,0.26489342258598203,-0.12270490930136947,-0.15585815220079138,1.0544196603477891,0.3234628963579962,-0.3925100769896755,-2.153138779393431,0.8647317593884973,2.465877464189189,0.5444970928745138,1.0544104758940245,0.3238615046091247,-0.39250456234122666,-2.153291787532338,0.8647539153680389,2.46587817577521,0.5445020185570556,0.001148134267576488,-0.00042990288115051374,9.990268120962322e-05,0.0002989049312068216,1.4587577684297675e-05,-3.156686579597677e-05,-0.00020539422723335387,0.0,0.0,0.0,0.0,0.0,0.0,0.0,-9.184453764632394e-06,0.0003986082511285294,5.514648448834425e-06,-0.00015300813890695153,2.215597954158266e-05,7.115860207740354e-07,4.925682541845333e-06,-0.001148134267576488,0.00042990288115051374,-9.990268120962322e-05,-0.0002989049312068216,-1.4587577684297675e-05,3.156686579597677e-05,0.00020539422723335387,0.4029781222343445,34.06295394897461,3.8744170665740967,-19.336885452270508,-0.3198142647743225,-1.783755898475647,0.13858358561992645,0
73,0.35960817337036133,-0.4029781222343445,-34.06295394897461,-3.8744170665740967,19.336885452270508,0.3198142647743225,1.783755898475647,-0.13858358561992645,0.0,0.0,0.0,0.0,0.0,0.0,0.0,-0.3595401714381347,-0.013148957056779417,-0.33121254416428736,0.30725295704494593,0.26489342258598203,-0.12270490930136947,-0.15585815220079138,1.0544196603477891,0.3234628963579962,-0.3925100769896755,-2.153138779393431,0.8647317593884973,2.465877464189189,0.5444970928745138,1.0544104758940245,0.3238615046091247,-0.39250456234122666,-2.153291787532338,0.8647539153680389,2.46587817577521,0.5445020185570556,0.001148134267576488,-0.00042990288115051374,9.990268120962322e-05,0.0002989049312068216,1.4587577684297675e-05,-3.156686579597677e-05,-0.00020539422723335387,0.0,0.0,0.0,0.0,0.0,0.0,0.0,-9.184453764632394e-06,0.0003986082511285294,5.514648448834425e-06,-0.00015300813890695153,2.215597954158266e-05,7.115860207740354e-07,4.925682541845333e-06,-0.001148134267576488,0.00042990288115051374,-9.990268120962322e-05,-0.0002989049312068216,-1.4587577684297675e-05,3.156686579597677e-05,0.00020539422723335387,0.4029781222343445,34.06295394897461,3.8744170665740967,-19.336885452270508,-0.3198142647743225,-1.783755898475647,0.13858358561992645,0
74,0.36460232734680176,-0.4029781222343445,-34.06295394897461,-3.8744170665740967,19.336885452270508,0.3198142647743225,1.783755898475647,-0.13858358561992645,0.0,0.0,0.0,0.0,0.0,0.0,0.0,-0.3595401714381347,-0.013148957056779417,-0.33121254416428736,0.30725295704494593,0.26489342258598203,-0.12270490930136947,-0.15585815220079138,1.0544196603477891,0.3234628963579962,-0.3925100769896755,-2.153138779393431,0.8647317593884973,2.465877464189189,0.5444970928745138,1.0544104758940245,0.3238615046091247,-0.39250456234122666,-2.153291787532338,0.8647539153680389,2.46587817577521,0.5445020185570556,0.001148134267576488,-0.00042990288115051374,9.990268120962322e-05,0.0002989049312068216,1.4587577684297675e-05,-3.156686579597677e-05,-0.00020539422723335387,0.0,0.0,0.0,0.0,0.0,0.0,0.0,-9.184453764632394e-06,0.0003986082511285294,5.514648448834425e-06,-0.00015300813890695153,2.215597954158266e-05,7.115860207740354e-07,4.925682541845333e-06,-0.001148134267576488,0.00042990288115051374,-9.990268120962322e-05,-0.0002989049312068216,-1.4587577684297675e-05,3.156686579597677e-05,0.00020539422723335387,0.4029781222343445,34.06295394897461,3.8744170665740967,-19.336885452270508,-0.3198142647743225,-1.783755898475647,0.13858358561992645,0
75,0.37195539474487305,-0.3752071261405945,-34.03915023803711,-3.8744170665740967,19.360689163208008,0.3143211007118225,1.777347207069397,-0.15231649577617645,0.0,0.0,0.0,0.0,0.0,0.0,0.0,-0.36816045045279566,-0.005718636283303534,-0.3323290451859554,0.3004009909930134,0.2653828300660173,-0.12331158423925705,-0.1568153669556193,1.0544177144493974,0.32346369299835614,-0.3925100744024981,-2.1531385369120173,0.8647335417887239,2.465878229630369,0.5444986189149255,1.0544104758940245,0.3238615046091247,-0.39250456234122666,-2.153291787532338,0.8647539153680389,2.46587817577521,0.5445020185570556,9.969402294867715e-05,-0.0014912482685977145,-0.0003534895340047581,-0.0007012169643948794,3.8586571136932425e-05,2.099890036668742e-05,-0.0002940917149863005,0.0,0.0,0.0,0.0,0.0,0.0,0.0,-7.238555372879318e-06,0.0003978116107685725,5.512061271417679e-06,-0.00015325062032056636,2.0373579315058343e-05,-5.385515899902771e-08,3.3996421301418778e-06,-9.969402294867715e-05,0.0014912482685977145,0.0003534895340047581,0.0007012169643948794,-3.8586571136932425e-05,-2.099890036668742e-05,0.0002940917149863005,0.3752071261405945,34.03915023803711,3.8744170665740967,-19.360689163208008,-0.3143211007118225,-1.777347207069397,0.15231649577617645,0
76,0.3746058940887451,-0.3752071261405945,-34.03915023803711,-3.8744170665740967,19.360689163208008,0.3143211007118225,1.777347207069397,-0.15231649577617645,0.0,0.0,0.0,0.0,0.0,0.0,0.0,-0.36816045045279566,-0.005718636283303534,-0.3323290451859554,0.3004009909930134,0.2653828300660173,-0.12331158423925705,-0.1568153669556193,1.0544177144493974,0.32346369299835614,-0.3925100744024981,-2.1531385369120173,0.8647335417887239,2.465878229630369,0.5444986189149255,1.0544104758940245,0.3238615046091247,-0.39250456234122666,-2.153291787532338,0.8647539153680389,2.46587817577521,0.5445020185570556,9.969402294867715e-05,-0.0014912482685977145,-0.0003534895340047581,-0.0007012169643948794,3.8586571136932425e-05,2.099890036668742e-05,-0.0002940917149863005,0.0,0.0,0.0,0.0,0.0,0.0,0.0,-7.238555372879318e-06,0.0003978116107685725,5.512061271417679e-06,-0.00015325062032056636,2.0373579315058343e-05,-5.385515899902771e-08,3.3996421301418778e-06,-9.969402294867715e-05,0.0014912482685977145,0.0003534895340047581,0.0007012169643948794,-3.8586571136932425e-05,-2.099890036668742e-05,0.0002940917149863005,0.3752071261405945,34.03915023803711,3.8744170665740967,-19.360689163208008,-0.3143211007118225,-1.777347207069397,0.15231649577617645,0
77,0.3796370029449463,-0.3752071261405945,-34.03915023803711,-3.8744170665740967,19.360689163208008,0.3143211007118225,1.777347207069397,-0.15231649577617645,0.0,0.0,0.0,0.0,0.0,0.0,0.0,-0.36816045045279566,-0.005718636283303534,-0.3323290451859554,0.3004009909930134,0.2653828300660173,-0.12331158423925705,-0.1568153669556193,1.0544177144493974,0.32346369299835614,-0.3925100744024981,-2.1531385369120173,0.8647335417887239,2.465878229630369,0.5444986189149255,1.0544104758940245,0.3238615046091247,-0.39250456234122666,-2.153291787532338,0.8647539153680389,2.46587817577521,0.5445020185570556,9.969402294867715e-05,-0.0014912482685977145,-0.0003534895340047581,-0.0007012169643948794,3.8586571136932425e-05,2.099890036668742e-05,-0.0002940917149863005,0.0,0.0,0.0,0.0,0.0,0.0,0.0,-7.238555372879318e-06,0.0003978116107685725,5.512061271417679e-06,-0.00015325062032056636,2.0373579315058343e-05,-5.385515899902771e-08,3.3996421301418778e-06,-9.969402294867715e-05,0.0014912482685977145,0.0003534895340047581,0.0007012169643948794,-3.8586571136932425e-05,-2.099890036668742e-05,0.0002940917149863005,0.3752071261405945,34.03915023803711,3.8744170665740967,-19.360689163208008,-0.3143211007118225,-1.777347207069397,0.15231649577617645,0
78,0.38463306427001953,-0.3752071261405945,-34.03915023803711,-3.8744170665740967,19.360689163208008,0.3143211007118225,1.777347207069397,-0.15231649577617645,0.0,0.0,0.0,0.0,0.0,0.0,0.0,-0.36816045045279566,-0.005718636283303534,-0.3323290451859554,0.3004009909930134,0.2653828300660173,-0.12331158423925705,-0.1568153669556193,1.0544177144493974,0.32346369299835614,-0.3925100744024981,-2.1531385369120173,0.8647335417887239,2.465878229630369,0.5444986189149255,1.0544104758940245,0.3238615046091247,-0.39250456234122666,-2.153291787532338,0.8647539153680389,2.46587817577521,0.5445020185570556,9.969402294867715e-05,-0.0014912482685977145,-0.0003534895340047581,-0.0007012169643948794,3.8586571136932425e-05,2.099890036668742e-05,-0.0002940917149863005,0.0,0.0,0.0,0.0,0.0,0.0,0.0,-7.238555372879318e-06,0.0003978116107685725,5.512061271417679e-06,-0.00015325062032056636,2.0373579315058343e-05,-5.385515899902771e-08,3.3996421301418778e-06,-9.969402294867715e-05,0.0014912482685977145,0.0003534895340047581,0.0007012169643948794,-3.8586571136932425e-05,-2.099890036668742e-05,0.0002940917149863005,0.3752071261405945,34.03915023803711,3.8744170665740967,-19.360689163208008,-0.3143211007118225,-1.777347207069397,0.15231649577617645,0
79,0.389620304107666,-0.3752071261405945,-34.03915023803711,-3.8744170665740967,19.360689163208008,0.3143211007118225,1.777347207069397,-0.15231649577617645,0.0,0.0,0.0,0.0,0.0,0.0,0.0,-0.36816045045279566,-0.005718636283303534,-0.3323290451859554,0.3004009909930134,0.2653828300660173,-0.12331158423925705,-0.1568153669556193,1.0544177144493974,0.32346369299835614,-0.3925100744024981,-2.1531385369120173,0.8647335417887239,2.465878229630369,0.5444986189149255,1.0544104758940245,0.3238615046091247,-0.39250456234122666,-2.153291787532338,0.8647539153680389,2.46587817577521,0.5445020185570556,9.969402294867715e-05,-0.0014912482685977145,-0.0003534895340047581,-0.0007012169643948794,3.8586571136932425e-05,2.099890036668742e-05,-0.0002940917149863005,0.0,0.0,0.0,0.0,0.0,0.0,0.0,-7.238555372879318e-06,0.0003978116107685725,5.512061271417679e-06,-0.00015325062032056636,2.0373579315058343e-05,-5.385515899902771e-08,3.3996421301418778e-06,-9.969402294867715e-05,0.0014912482685977145,0.0003534895340047581,0.0007012169643948794,-3.8586571136932425e-05,-2.099890036668742e-05,0.0002940917149863005,0.3752071261405945,34.03915023803711,3.8744170665740967,-19.360689163208008,-0.3143211007118225,-1.777347207069397,0.15231649577617645,0
80,0.3946051597595215,-0.3514034152030945,-33.99154281616211,-3.9497954845428467,19.336885452270508,0.3198142647743225,1.796573281288147,-0.15964071452617645,0.0,0.0,0.0,0.0,0.0,0.0,0.0,-0.36351711360007377,-0.0010602225450336163,-0.3266736555365272,0.3001262167515783,0.26487021585180204,-0.12427565857130256,-0.15755961648258945,1.054416044013542,0.32346035984766486,-0.39250471736379433,-2.1531387030657703,0.8647328202327608,2.465880279604948,0.5445026508772544,1.0544104758940245,0.3238615046091247,-0.39250456234122666,-2.153291787532338,0.8647539153680389,2.46587817577521,0.5445020185570556,-0.00015866130115667275,-0.0015348402883722868,0.0012444143356928608,0.000425831992990832,2.47412361396326e-07,-0.0005084174136596717,-3.2550824750538336e-05,0.0,0.0,0.0,0.0,0.0,0.0,0.0,-5.568119517462833e-06,0.00040114476145985956,1.5502256767163658e-07,-0.0001530844665675879,2.1095135278148547e-05,-2.1038297379760706e-06,-6.323201987568083e-07,0.00015866130115667275,0.0015348402883722868,-0.0012444143356928608,-0.000425831992990832,-2.47412361396326e-07,0.0005084174136596717,3.2550824750538336e-05,0.3514034152030945,33.99154281616211,3.9497954845428467,-19.336885452270508,-0.3198142647743225,-1.796573281288147,0.15964071452617645,0
