rezayati/contactInterpretation/dataset/franka_main/labeled_data/link5/c6_4.csv
index,time,tau_J0,tau_J1,tau_J2,tau_J3,tau_J4,tau_J5,tau_J6,tau_J_d0,tau_J_d1,tau_J_d2,tau_J_d3,tau_J_d4,tau_J_d5,tau_J_d6,tau_ext0,tau_ext1,tau_ext2,tau_ext3,tau_ext4,tau_ext5,tau_ext6,q0,q1,q2,q3,q4,q5,q6,q_d0,q_d1,q_d2,q_d3,q_d4,q_d5,q_d6,dq0,dq1,dq2,dq3,dq4,dq5,dq6,dq_d0,dq_d1,dq_d2,dq_d3,dq_d4,dq_d5,dq_d6,e0,e1,e2,e3,e4,e5,e6,de0,de1,de2,de3,de4,de5,de6,etau_J0,etau_J1,etau_J2,etau_J3,etau_J4,etau_J5,etau_J6,label
1,0.0,-0.24825400114059448,-19.717248916625977,-0.2998931109905243,20.007356643676758,0.5642600655555725,2.4694857597351074,-0.21457235515117645,0.0,0.0,0.0,0.0,0.0,0.0,0.0,-0.2405620433669222,0.0220242281908857,-0.09719720621366014,0.22895590145791753,-0.018227437001796517,0.09643527073030544,-0.24201196061523392,1.21346093901835,-0.22035646001901343,-0.007514754360764774,-2.6038762155297963,-0.1089082275032997,2.46818355041848,0.8264714357454387,1.2134413937687574,-0.2202432315892585,-0.0075118285948192216,-2.6038483821997875,-0.10888392708698907,2.4681821257803174,0.826474908251239,7.108469981896753e-05,-0.0001323079640838839,-0.00029803325420344444,0.00019374949572137154,7.54137590357362e-05,-8.124942443537286e-06,-0.0012252607177105992,0.0,0.0,0.0,0.0,0.0,0.0,0.0,-1.954524959257853e-05,0.00011322842975494685,2.925765945552619e-06,2.7833330008775192e-05,2.4300416310629736e-05,-1.4246381625504512e-06,3.4725058003504117e-06,-7.108469981896753e-05,0.0001323079640838839,0.00029803325420344444,-0.00019374949572137154,-7.54137590357362e-05,8.124942443537286e-06,0.0012252607177105992,0.24825400114059448,19.717248916625977,0.2998931109905243,-20.007356643676758,-0.5642600655555725,-2.4694857597351074,0.21457235515117645,0
2,0.004962444305419922,-0.24825400114059448,-19.717248916625977,-0.2998931109905243,20.007356643676758,0.5642600655555725,2.4694857597351074,-0.21457235515117645,0.0,0.0,0.0,0.0,0.0,0.0,0.0,-0.2405620433669222,0.0220242281908857,-0.09719720621366014,0.22895590145791753,-0.018227437001796517,0.09643527073030544,-0.24201196061523392,1.21346093901835,-0.22035646001901343,-0.007514754360764774,-2.6038762155297963,-0.1089082275032997,2.46818355041848,0.8264714357454387,1.2134413937687574,-0.2202432315892585,-0.0075118285948192216,-2.6038483821997875,-0.10888392708698907,2.4681821257803174,0.826474908251239,7.108469981896753e-05,-0.0001323079640838839,-0.00029803325420344444,0.00019374949572137154,7.54137590357362e-05,-8.124942443537286e-06,-0.0012252607177105992,0.0,0.0,0.0,0.0,0.0,0.0,0.0,-1.954524959257853e-05,0.00011322842975494685,2.925765945552619e-06,2.7833330008775192e-05,2.4300416310629736e-05,-1.4246381625504512e-06,3.4725058003504117e-06,-7.108469981896753e-05,0.0001323079640838839,0.00029803325420344444,-0.00019374949572137154,-7.54137590357362e-05,8.124942443537286e-06,0.0012252607177105992,0.24825400114059448,19.717248916625977,0.2998931109905243,-20.007356643676758,-0.5642600655555725,-2.4694857597351074,0.21457235515117645,0
3,0.009959936141967773,-0.24825400114059448,-19.717248916625977,-0.2998931109905243,20.007356643676758,0.5642600655555725,2.4694857597351074,-0.21457235515117645,0.0,0.0,0.0,0.0,0.0,0.0,0.0,-0.2405620433669222,0.0220242281908857,-0.09719720621366014,0.22895590145791753,-0.018227437001796517,0.09643527073030544,-0.24201196061523392,1.21346093901835,-0.22035646001901343,-0.007514754360764774,-2.6038762155297963,-0.1089082275032997,2.46818355041848,0.8264714357454387,1.2134413937687574,-0.2202432315892585,-0.0075118285948192216,-2.6038483821997875,-0.10888392708698907,2.4681821257803174,0.826474908251239,7.108469981896753e-05,-0.0001323079640838839,-0.00029803325420344444,0.00019374949572137154,7.54137590357362e-05,-8.124942443537286e-06,-0.0012252607177105992,0.0,0.0,0.0,0.0,0.0,0.0,0.0,-1.954524959257853e-05,0.00011322842975494685,2.925765945552619e-06,2.7833330008775192e-05,2.4300416310629736e-05,-1.4246381625504512e-06,3.4725058003504117e-06,-7.108469981896753e-05,0.0001323079640838839,0.00029803325420344444,-0.00019374949572137154,-7.54137590357362e-05,8.124942443537286e-06,0.0012252607177105992,0.24825400114059448,19.717248916625977,0.2998931109905243,-20.007356643676758,-0.5642600655555725,-2.4694857597351074,0.21457235515117645,0
4,0.01495981216430664,-0.22445029020309448,-19.745019912719727,-0.2721221148967743,19.983552932739258,0.5697532296180725,2.4694857597351074,-0.24112264811992645,0.0,0.0,0.0,0.0,0.0,0.0,0.0,-0.23690044676324246,0.019635486366129107,-0.09174971479806972,0.2274201472026159,-0.018902499921043387,0.09641599756984844,-0.24085056589160572,1.2134585533307949,-0.22035451117733065,-0.007519514665568814,-2.6038777582578367,-0.1089088378548622,2.468183549933966,0.8264765170953189,1.2134413937687574,-0.2202432315892585,-0.0075118285948192216,-2.6038483821997875,-0.10888392708698907,2.4681821257803174,0.826474908251239,-0.0004404862434085056,0.00061777740372542,3.677507172032539e-05,0.000140615477119548,-3.554830419164223e-05,1.1963893152685952e-06,0.00015060411314865964,0.0,0.0,0.0,0.0,0.0,0.0,0.0,-1.715956203751645e-05,0.0001112795880721662,7.68607074959262e-06,2.937605804920196e-05,2.491076787312918e-05,-1.4241536487880069e-06,-1.6088440798478487e-06,0.0004404862434085056,-0.00061777740372542,-3.677507172032539e-05,-0.000140615477119548,3.554830419164223e-05,-1.1963893152685952e-06,-0.00015060411314865964,0.22445029020309448,19.745019912719727,0.2721221148967743,-19.983552932739258,-0.5697532296180725,-2.4694857597351074,0.24112264811992645,0
5,0.019958019256591797,-0.22445029020309448,-19.745019912719727,-0.2721221148967743,19.983552932739258,0.5697532296180725,2.4694857597351074,-0.24112264811992645,0.0,0.0,0.0,0.0,0.0,0.0,0.0,-0.23690044676324246,0.019635486366129107,-0.09174971479806972,0.2274201472026159,-0.018902499921043387,0.09641599756984844,-0.24085056589160572,1.2134585533307949,-0.22035451117733065,-0.007519514665568814,-2.6038777582578367,-0.1089088378548622,2.468183549933966,0.8264765170953189,1.2134413937687574,-0.2202432315892585,-0.0075118285948192216,-2.6038483821997875,-0.10888392708698907,2.4681821257803174,0.826474908251239,-0.0004404862434085056,0.00061777740372542,3.677507172032539e-05,0.000140615477119548,-3.554830419164223e-05,1.1963893152685952e-06,0.00015060411314865964,0.0,0.0,0.0,0.0,0.0,0.0,0.0,-1.715956203751645e-05,0.0001112795880721662,7.68607074959262e-06,2.937605804920196e-05,2.491076787312918e-05,-1.4241536487880069e-06,-1.6088440798478487e-06,0.0004404862434085056,-0.00061777740372542,-3.677507172032539e-05,-0.000140615477119548,3.554830419164223e-05,-1.1963893152685952e-06,-0.00015060411314865964,0.22445029020309448,19.745019912719727,0.2721221148967743,-19.983552932739258,-0.5697532296180725,-2.4694857597351074,0.24112264811992645,0
6,0.024986743927001953,-0.24825400114059448,-19.745019912719727,-0.2721221148967743,20.054964065551758,0.5697532296180725,2.4566683769226074,-0.27591270208358765,0.0,0.0,0.0,0.0,0.0,0.0,0.0,-0.23951664926946148,0.021633239107791916,-0.09268205361935063,0.22572533654394178,-0.018274457560870396,0.09644746049674342,-0.24087752476193594,1.2134602237626126,-0.22035442369177521,-0.007519701437453029,-2.6038827706387107,-0.1089088378548622,2.468184974087609,0.826480422076264,1.2134413937687574,-0.2202432315892585,-0.0075118285948192216,-2.6038483821997875,-0.10888392708698907,2.4681821257803174,0.826474908251239,0.0005827556334713903,0.0009344626900782287,-0.00063944794832335,-0.0012135651054478317,-8.729839454770103e-05,0.0006199110199518559,0.0013149010788288413,0.0,0.0,0.0,0.0,0.0,0.0,0.0,-1.882999385527384e-05,0.00011119210251672729,7.872842633807262e-06,3.438843892311638e-05,2.491076787312918e-05,-2.848307291802854e-06,-5.513825025005303e-06,-0.0005827556334713903,-0.0009344626900782287,0.00063944794832335,0.0012135651054478317,8.729839454770103e-05,-0.0006199110199518559,-0.0013149010788288413,0.24825400114059448,19.745019912719727,0.2721221148967743,-20.054964065551758,-0.5697532296180725,-2.4566683769226074,0.27591270208358765,0
7,0.030565500259399414,-0.24825400114059448,-19.745019912719727,-0.2721221148967743,20.054964065551758,0.5697532296180725,2.4566683769226074,-0.27591270208358765,0.0,0.0,0.0,0.0,0.0,0.0,0.0,-0.23951664926946148,0.021633239107791916,-0.09268205361935063,0.22572533654394178,-0.018274457560870396,0.09644746049674342,-0.24087752476193594,1.2134602237626126,-0.22035442369177521,-0.007519701437453029,-2.6038827706387107,-0.1089088378548622,2.468184974087609,0.826480422076264,1.2134413937687574,-0.2202432315892585,-0.0075118285948192216,-2.6038483821997875,-0.10888392708698907,2.4681821257803174,0.826474908251239,0.0005827556334713903,0.0009344626900782287,-0.00063944794832335,-0.0012135651054478317,-8.729839454770103e-05,0.0006199110199518559,0.0013149010788288413,0.0,0.0,0.0,0.0,0.0,0.0,0.0,-1.882999385527384e-05,0.00011119210251672729,7.872842633807262e-06,3.438843892311638e-05,2.491076787312918e-05,-2.848307291802854e-06,-5.513825025005303e-06,-0.0005827556334713903,-0.0009344626900782287,0.00063944794832335,0.0012135651054478317,8.729839454770103e-05,-0.0006199110199518559,-0.0013149010788288413,0.24825400114059448,19.745019912719727,0.2721221148967743,-20.054964065551758,-0.5697532296180725,-2.4566683769226074,0.27591270208358765,0
8,0.03496599197387695,-0.22445029020309448,-19.693445205688477,-0.3236968219280243,20.007356643676758,0.5642600655555725,2.4758944511413574,-0.23471395671367645,0.0,0.0,0.0,0.0,0.0,0.0,0.0,-0.23472733810631055,0.02012588354666185,-0.0911524330684619,0.2261724546119489,-0.018422870700038525,0.09651757561662729,-0.2409265539106106,1.2134585533267572,-0.2203581304545232,-0.007516151220135041,-2.60387717603735,-0.1089082275032997,2.46818389749527,0.8264727700716714,1.2134413937687574,-0.2202432315892585,-0.0075118285948192216,-2.6038483821997875,-0.10888392708698907,2.4681821257803174,0.826474908251239,-0.00015603595765227368,-0.0006530069539863789,0.0012369561714519084,-0.0002849347322947181,-1.9464215591617465e-06,-0.0003037967634336,-0.00026509465992507726,0.0,0.0,0.0,0.0,0.0,0.0,0.0,-1.7159557999857356e-05,0.00011489886526472315,4.32262531581927e-06,2.879383756226872e-05,2.4300416310629736e-05,-1.7717149525253717e-06,2.1381795676234105e-06,0.00015603595765227368,0.0006530069539863789,-0.0012369561714519084,0.0002849347322947181,1.9464215591617465e-06,0.0003037967634336,0.00026509465992507726,0.22445029020309448,19.693445205688477,0.3236968219280243,-20.007356643676758,-0.5642600655555725,-2.4758944511413574,0.23471395671367645,0
9,0.03996014595031738,-0.22445029020309448,-19.693445205688477,-0.3236968219280243,20.007356643676758,0.5642600655555725,2.4758944511413574,-0.23471395671367645,0.0,0.0,0.0,0.0,0.0,0.0,0.0,-0.23472733810631055,0.02012588354666185,-0.0911524330684619,0.2261724546119489,-0.018422870700038525,0.09651757561662729,-0.2409265539106106,1.2134585533267572,-0.2203581304545232,-0.007516151220135041,-2.60387717603735,-0.1089082275032997,2.46818389749527,0.8264727700716714,1.2134413937687574,-0.2202432315892585,-0.0075118285948192216,-2.6038483821997875,-0.10888392708698907,2.4681821257803174,0.826474908251239,-0.00015603595765227368,-0.0006530069539863789,0.0012369561714519084,-0.0002849347322947181,-1.9464215591617465e-06,-0.0003037967634336,-0.00026509465992507726,0.0,0.0,0.0,0.0,0.0,0.0,0.0,-1.7159557999857356e-05,0.00011489886526472315,4.32262531581927e-06,2.879383756226872e-05,2.4300416310629736e-05,-1.7717149525253717e-06,2.1381795676234105e-06,0.00015603595765227368,0.0006530069539863789,-0.0012369561714519084,0.0002849347322947181,1.9464215591617465e-06,0.0003037967634336,0.00026509465992507726,0.22445029020309448,19.693445205688477,0.3236968219280243,-20.007356643676758,-0.5642600655555725,-2.4758944511413574,0.23471395671367645,0
10,0.04495692253112793,-0.19667929410934448,-19.717248916625977,-0.2998931109905243,20.031160354614258,0.5642600655555725,2.4694857597351074,-0.24112264811992645,0.0,0.0,0.0,0.0,0.0,0.0,0.0,-0.2346896414199216,0.0271882244912577,-0.09036247001121032,0.22171718948410557,-0.018261582847974286,0.09610653239212254,-0.24099159562849076,1.2134566044849262,-0.2203564600191618,-0.007517121525827936,-2.6038788749585486,-0.1089082275032997,2.4681835513895076,0.8264765187046809,1.2134413937687574,-0.2202432315892585,-0.0075118285948192216,-2.6038483821997875,-0.10888392708698907,2.4681821257803174,0.826474908251239,-0.0009776611309952516,0.0005327405186905894,0.00029890998670645025,-0.0011582534610881303,0.00016827008305156328,-0.00020692917851153177,0.00036293289210876154,0.0,0.0,0.0,0.0,0.0,0.0,0.0,-1.5210716168834182e-05,0.0001132284299033004,5.29293100871419e-06,3.049275876110258e-05,2.4300416310629736e-05,-1.425609190253141e-06,-1.6104534418248662e-06,0.0009776611309952516,-0.0005327405186905894,-0.00029890998670645025,0.0011582534610881303,-0.00016827008305156328,0.00020692917851153177,-0.00036293289210876154,0.19667929410934448,19.717248916625977,0.2998931109905243,-20.031160354614258,-0.5642600655555725,-2.4694857597351074,0.24112264811992645,0
11,0.0499567985534668,-0.19667929410934448,-19.717248916625977,-0.2998931109905243,20.031160354614258,0.5642600655555725,2.4694857597351074,-0.24112264811992645,0.0,0.0,0.0,0.0,0.0,0.0,0.0,-0.2346896414199216,0.0271882244912577,-0.09036247001121032,0.22171718948410557,-0.018261582847974286,0.09610653239212254,-0.24099159562849076,1.2134566044849262,-0.2203564600191618,-0.007517121525827936,-2.6038788749585486,-0.1089082275032997,2.4681835513895076,0.8264765187046809,1.2134413937687574,-0.2202432315892585,-0.0075118285948192216,-2.6038483821997875,-0.10888392708698907,2.4681821257803174,0.826474908251239,-0.0009776611309952516,0.0005327405186905894,0.00029890998670645025,-0.0011582534610881303,0.00016827008305156328,-0.00020692917851153177,0.00036293289210876154,0.0,0.0,0.0,0.0,0.0,0.0,0.0,-1.5210716168834182e-05,0.0001132284299033004,5.29293100871419e-06,3.049275876110258e-05,2.4300416310629736e-05,-1.425609190253141e-06,-1.6104534418248662e-06,0.0009776611309952516,-0.0005327405186905894,-0.00029890998670645025,0.0011582534610881303,-0.00016827008305156328,0.00020692917851153177,-0.00036293289210876154,0.19667929410934448,19.717248916625977,0.2998931109905243,-20.031160354614258,-0.5642600655555725,-2.4694857597351074,0.24112264811992645,0
12,0.05498003959655762,-0.24825400114059448,-19.745019912719727,-0.2998931109905243,20.031160354614258,0.5578513741493225,2.4694857597351074,-0.21457235515117645,0.0,0.0,0.0,0.0,0.0,0.0,0.0,-0.23429452044067497,0.020768567699915603,-0.0904946539186478,0.22809375448934663,-0.017704583770867432,0.09639955284491615,-0.24129654378144075,1.2134602237626126,-0.22035451114132837,-0.007517831719067724,-2.6038787894814734,-0.10890751542647678,2.468183706917398,0.826470533569279,1.2134413937687574,-0.2202432315892585,-0.0075118285948192216,-2.6038483821997875,-0.10888392708698907,2.4681821257803174,0.826474908251239,0.00020873519661261973,0.0006967605532137833,0.000628659403334275,-0.0005324839059351276,0.00027893161169720797,-0.00013312483682653597,-0.0012514058884092604,0.0,0.0,0.0,0.0,0.0,0.0,0.0,-1.882999385527384e-05,0.00011127955206988172,6.0031242485021966e-06,3.0407281685906895e-05,2.3588339487706778e-05,-1.581137080819417e-06,4.374681960017668e-06,-0.00020873519661261973,-0.0006967605532137833,-0.000628659403334275,0.0005324839059351276,-0.00027893161169720797,0.00013312483682653597,0.0012514058884092604,0.24825400114059448,19.745019912719727,0.2998931109905243,-20.031160354614258,-0.5578513741493225,-2.4694857597351074,0.21457235515117645,0
13,0.059957265853881836,-0.24825400114059448,-19.745019912719727,-0.2998931109905243,20.031160354614258,0.5578513741493225,2.4694857597351074,-0.21457235515117645,0.0,0.0,0.0,0.0,0.0,0.0,0.0,-0.23429452044067497,0.020768567699915603,-0.0904946539186478,0.22809375448934663,-0.017704583770867432,0.09639955284491615,-0.24129654378144075,1.2134602237626126,-0.22035451114132837,-0.007517831719067724,-2.6038787894814734,-0.10890751542647678,2.468183706917398,0.826470533569279,1.2134413937687574,-0.2202432315892585,-0.0075118285948192216,-2.6038483821997875,-0.10888392708698907,2.4681821257803174,0.826474908251239,0.00020873519661261973,0.0006967605532137833,0.000628659403334275,-0.0005324839059351276,0.00027893161169720797,-0.00013312483682653597,-0.0012514058884092604,0.0,0.0,0.0,0.0,0.0,0.0,0.0,-1.882999385527384e-05,0.00011127955206988172,6.0031242485021966e-06,3.0407281685906895e-05,2.3588339487706778e-05,-1.581137080819417e-06,4.374681960017668e-06,-0.00020873519661261973,-0.0006967605532137833,-0.000628659403334275,0.0005324839059351276,-0.00027893161169720797,0.00013312483682653597,0.0012514058884092604,0.24825400114059448,19.745019912719727,0.2998931109905243,-20.031160354614258,-0.5578513741493225,-2.4694857597351074,0.21457235515117645,0
14,0.0649569034576416,-0.24825400114059448,-19.745019912719727,-0.3236968219280243,20.031160354614258,0.5642600655555725,2.4566683769226074,-0.23471395671367645,0.0,0.0,0.0,0.0,0.0,0.0,0.0,-0.23478150472537782,0.022523487604737505,-0.08812103790955947,0.22488599051886343,-0.01801334674208682,0.09564947860795799,-0.24155872582640953,1.2134602237626126,-0.22035448493166382,-0.007516082161267612,-2.6038808529409203,-0.1089082275032997,2.468184974088495,0.826472656785076,1.2134413937687574,-0.2202432315892585,-0.0075118285948192216,-2.6038483821997875,-0.10888392708698907,2.4681821257803174,0.826474908251239,0.0004968479472840696,0.00015759079976372707,0.0007639258083287136,-0.0007810760283212597,0.00028088857748246915,0.00035489127277923423,-2.7795327188428547e-06,0.0,0.0,0.0,0.0,0.0,0.0,0.0,-1.882999385527384e-05,0.00011125334240533191,4.253566448390866e-06,3.247074113277293e-05,2.4300416310629736e-05,-2.8483081777608277e-06,2.2514661630612665e-06,-0.0004968479472840696,-0.00015759079976372707,-0.0007639258083287136,0.0007810760283212597,-0.00028088857748246915,-0.00035489127277923423,2.7795327188428547e-06,0.24825400114059448,19.745019912719727,0.3236968219280243,-20.031160354614258,-0.5642600655555725,-2.4566683769226074,0.23471395671367645,0
15,0.06997513771057129,-0.24825400114059448,-19.745019912719727,-0.3236968219280243,20.031160354614258,0.5642600655555725,2.4566683769226074,-0.23471395671367645,0.0,0.0,0.0,0.0,0.0,0.0,0.0,-0.23478150472537782,0.022523487604737505,-0.08812103790955947,0.22488599051886343,-0.01801334674208682,0.09564947860795799,-0.24155872582640953,1.2134602237626126,-0.22035448493166382,-0.007516082161267612,-2.6038808529409203,-0.1089082275032997,2.468184974088495,0.826472656785076,1.2134413937687574,-0.2202432315892585,-0.0075118285948192216,-2.6038483821997875,-0.10888392708698907,2.4681821257803174,0.826474908251239,0.0004968479472840696,0.00015759079976372707,0.0007639258083287136,-0.0007810760283212597,0.00028088857748246915,0.00035489127277923423,-2.7795327188428547e-06,0.0,0.0,0.0,0.0,0.0,0.0,0.0,-1.882999385527384e-05,0.00011125334240533191,4.253566448390866e-06,3.247074113277293e-05,2.4300416310629736e-05,-2.8483081777608277e-06,2.2514661630612665e-06,-0.0004968479472840696,-0.00015759079976372707,-0.0007639258083287136,0.0007810760283212597,-0.00028088857748246915,-0.00035489127277923423,2.7795327188428547e-06,0.24825400114059448,19.745019912719727,0.3236968219280243,-20.031160354614258,-0.5642600655555725,-2.4566683769226074,0.23471395671367645,0
16,0.07499170303344727,-0.24825400114059448,-19.717248916625977,-0.2721221148967743,20.007356643676758,0.5642600655555725,2.4694857597351074,-0.26217979192733765,0.0,0.0,0.0,0.0,0.0,0.0,0.0,-0.2387703813202351,0.022469807928912337,-0.09263012294471723,0.22680332771545383,-0.017690506119885173,0.09528442322755046,-0.2415497861784246,1.2134602237626126,-0.22035645969499307,-0.007519701763237687,-2.6038794294264487,-0.10890858237169407,2.468187086475547,0.8264789653039754,1.2134413937687574,-0.2202432315892585,-0.0075118285948192216,-2.6038483821997875,-0.10888392708698907,2.4681821257803174,0.826474908251239,0.00015241613293339817,0.00010004438482327632,-0.0005504381881050705,9.650671129685133e-05,-0.00010946544978554344,0.00012794567316348263,0.0005183852907844239,0.0,0.0,0.0,0.0,0.0,0.0,0.0,-1.882999385527384e-05,0.00011322810573458075,7.873168418465193e-06,3.104722666114057e-05,2.4655284704994118e-05,-4.960695229705436e-06,-4.057052736317068e-06,-0.00015241613293339817,-0.00010004438482327632,0.0005504381881050705,-9.650671129685133e-05,0.00010946544978554344,-0.00012794567316348263,-0.0005183852907844239,0.24825400114059448,19.717248916625977,0.2721221148967743,-20.007356643676758,-0.5642600655555725,-2.4694857597351074,0.26217979192733765,0
17,0.07997655868530273,-0.24825400114059448,-19.717248916625977,-0.2721221148967743,20.007356643676758,0.5642600655555725,2.4694857597351074,-0.26217979192733765,0.0,0.0,0.0,0.0,0.0,0.0,0.0,-0.2387703813202351,0.022469807928912337,-0.09263012294471723,0.22680332771545383,-0.017690506119885173,0.09528442322755046,-0.2415497861784246,1.2134602237626126,-0.22035645969499307,-0.007519701763237687,-2.6038794294264487,-0.10890858237169407,2.468187086475547,0.8264789653039754,1.2134413937687574,-0.2202432315892585,-0.0075118285948192216,-2.6038483821997875,-0.10888392708698907,2.4681821257803174,0.826474908251239,0.00015241613293339817,0.00010004438482327632,-0.0005504381881050705,9.650671129685133e-05,-0.00010946544978554344,0.00012794567316348263,0.0005183852907844239,0.0,0.0,0.0,0.0,0.0,0.0,0.0,-1.882999385527384e-05,0.00011322810573458075,7.873168418465193e-06,3.104722666114057e-05,2.4655284704994118e-05,-4.960695229705436e-06,-4.057052736317068e-06,-0.00015241613293339817,-0.00010004438482327632,0.0005504381881050705,-9.650671129685133e-05,0.00010946544978554344,-0.00012794567316348263,-0.0005183852907844239,0.24825400114059448,19.717248916625977,0.2721221148967743,-20.007356643676758,-0.5642600655555725,-2.4694857597351074,0.26217979192733765,0
18,0.08497095108032227,-0.24825400114059448,-19.717248916625977,-0.2998931109905243,19.955781936645508,0.5697532296180725,2.4694857597351074,-0.22830526530742645,0.0,0.0,0.0,0.0,0.0,0.0,0.0,-0.23670048402214816,0.02009268155174401,-0.08934272332142458,0.22584986031717094,-0.01858631160033292,0.09561477538876649,-0.24233822450026174,1.2134602237989514,-0.22035643377349332,-0.0075148858774395505,-2.603873582196791,-0.10890883785686545,2.468183549953927,0.8264722541706866,1.2134413937687574,-0.2202432315892585,-0.0075118285948192216,-2.6038483821997875,-0.10888392708698907,2.4681821257803174,0.826474908251239,0.0004104482346598051,-0.00012711975510143727,3.713224824094116e-05,0.0011914829017012059,2.3366007209558772e-05,-0.00015114057858084634,-0.00019136081836892594,0.0,0.0,0.0,0.0,0.0,0.0,0.0,-1.883003019398366e-05,0.00011320218423482853,3.0572826203289355e-06,2.519999700334452e-05,2.4910769876373973e-05,-1.4241736097098112e-06,2.6540805524444266e-06,-0.0004104482346598051,0.00012711975510143727,-3.713224824094116e-05,-0.0011914829017012059,-2.3366007209558772e-05,0.00015114057858084634,0.00019136081836892594,0.24825400114059448,19.717248916625977,0.2998931109905243,-19.955781936645508,-0.5697532296180725,-2.4694857597351074,0.22830526530742645,0
19,0.08995413780212402,-0.24825400114059448,-19.717248916625977,-0.2998931109905243,19.955781936645508,0.5697532296180725,2.4694857597351074,-0.22830526530742645,0.0,0.0,0.0,0.0,0.0,0.0,0.0,-0.23670048402214816,0.02009268155174401,-0.08934272332142458,0.22584986031717094,-0.01858631160033292,0.09561477538876649,-0.24233822450026174,1.2134602237989514,-0.22035643377349332,-0.0075148858774395505,-2.603873582196791,-0.10890883785686545,2.468183549953927,0.8264722541706866,1.2134413937687574,-0.2202432315892585,-0.0075118285948192216,-2.6038483821997875,-0.10888392708698907,2.4681821257803174,0.826474908251239,0.0004104482346598051,-0.00012711975510143727,3.713224824094116e-05,0.0011914829017012059,2.3366007209558772e-05,-0.00015114057858084634,-0.00019136081836892594,0.0,0.0,0.0,0.0,0.0,0.0,0.0,-1.883003019398366e-05,0.00011320218423482853,3.0572826203289355e-06,2.519999700334452e-05,2.4910769876373973e-05,-1.4241736097098112e-06,2.6540805524444266e-06,-0.0004104482346598051,0.00012711975510143727,-3.713224824094116e-05,-0.0011914829017012059,-2.3366007209558772e-05,0.00015114057858084634,0.00019136081836892594,0.24825400114059448,19.717248916625977,0.2998931109905243,-19.955781936645508,-0.5697532296180725,-2.4694857597351074,0.22830526530742645,0
20,0.0949561595916748,-0.24825400114059448,-19.717248916625977,-0.2998931109905243,19.955781936645508,0.5697532296180725,2.4694857597351074,-0.22830526530742645,0.0,0.0,0.0,0.0,0.0,0.0,0.0,-0.23670048402214816,0.02009268155174401,-0.08934272332142458,0.22584986031717094,-0.01858631160033292,0.09561477538876649,-0.24233822450026174,1.2134602237989514,-0.22035643377349332,-0.0075148858774395505,-2.603873582196791,-0.10890883785686545,2.468183549953927,0.8264722541706866,1.2134413937687574,-0.2202432315892585,-0.0075118285948192216,-2.6038483821997875,-0.10888392708698907,2.4681821257803174,0.826474908251239,0.0004104482346598051,-0.00012711975510143727,3.713224824094116e-05,0.0011914829017012059,2.3366007209558772e-05,-0.00015114057858084634,-0.00019136081836892594,0.0,0.0,0.0,0.0,0.0,0.0,0.0,-1.883003019398366e-05,0.00011320218423482853,3.0572826203289355e-06,2.519999700334452e-05,2.4910769876373973e-05,-1.4241736097098112e-06,2.6540805524444266e-06,-0.0004104482346598051,0.00012711975510143727,-3.713224824094116e-05,-0.0011914829017012059,-2.3366007209558772e-05,0.00015114057858084634,0.00019136081836892594,0.24825400114059448,19.717248916625977,0.2998931109905243,-19.955781936645508,-0.5697532296180725,-2.4694857597351074,0.22830526530742645,0
21,0.09997892379760742,-0.24825400114059448,-19.717248916625977,-0.2998931109905243,19.955781936645508,0.5697532296180725,2.4694857597351074,-0.22830526530742645,0.0,0.0,0.0,0.0,0.0,0.0,0.0,-0.23670048402214816,0.02009268155174401,-0.08934272332142458,0.22584986031717094,-0.01858631160033292,0.09561477538876649,-0.24233822450026174,1.2134602237989514,-0.22035643377349332,-0.0075148858774395505,-2.603873582196791,-0.10890883785686545,2.468183549953927,0.8264722541706866,1.2134413937687574,-0.2202432315892585,-0.0075118285948192216,-2.6038483821997875,-0.10888392708698907,2.4681821257803174,0.826474908251239,0.0004104482346598051,-0.00012711975510143727,3.713224824094116e-05,0.0011914829017012059,2.3366007209558772e-05,-0.00015114057858084634,-0.00019136081836892594,0.0,0.0,0.0,0.0,0.0,0.0,0.0,-1.883003019398366e-05,0.00011320218423482853,3.0572826203289355e-06,2.519999700334452e-05,2.4910769876373973e-05,-1.4241736097098112e-06,2.6540805524444266e-06,-0.0004104482346598051,0.00012711975510143727,-3.713224824094116e-05,-0.0011914829017012059,-2.3366007209558772e-05,0.00015114057858084634,0.00019136081836892594,0.24825400114059448,19.717248916625977,0.2998931109905243,-19.955781936645508,-0.5697532296180725,-2.4694857597351074,0.22830526530742645,0
22,0.10501575469970703,-0.24825400114059448,-19.717248916625977,-0.3236968219280243,20.031160354614258,0.5642600655555725,2.4566683769226074,-0.25485557317733765,0.0,0.0,0.0,0.0,0.0,0.0,0.0,-0.23781665029174917,0.025076096069819555,-0.09220754565484046,0.22367260952727236,-0.018098901724549574,0.09556243129714508,-0.2418977028866203,1.2134626079484039,-0.22035642502479147,-0.007514022055507177,-2.6038810177739835,-0.10890822750329972,2.468184974087609,0.8264759282177849,1.2134413937687574,-0.2202432315892585,-0.0075118285948192216,-2.6038483821997875,-0.10888392708698907,2.4681821257803174,0.826474908251239,0.0003297226917558256,0.0003931286036953601,0.0009496517951795984,-0.000956037412000011,8.859086259372258e-05,0.0004323555493975564,0.0005567477886137064,0.0,0.0,0.0,0.0,0.0,0.0,0.0,-2.121417964651151e-05,0.00011319343553298222,2.1934606879558255e-06,3.263557419597163e-05,2.4300416310643613e-05,-2.848307291802854e-06,-1.0199665458898721e-06,-0.0003297226917558256,-0.0003931286036953601,-0.0009496517951795984,0.000956037412000011,-8.859086259372258e-05,-0.0004323555493975564,-0.0005567477886137064,0.24825400114059448,19.717248916625977,0.3236968219280243,-20.031160354614258,-0.5642600655555725,-2.4566683769226074,0.25485557317733765,0
23,0.1099843978881836,-0.24825400114059448,-19.717248916625977,-0.3236968219280243,20.031160354614258,0.5642600655555725,2.4566683769226074,-0.25485557317733765,0.0,0.0,0.0,0.0,0.0,0.0,0.0,-0.23781665029174917,0.025076096069819555,-0.09220754565484046,0.22367260952727236,-0.018098901724549574,0.09556243129714508,-0.2418977028866203,1.2134626079484039,-0.22035642502479147,-0.007514022055507177,-2.6038810177739835,-0.10890822750329972,2.468184974087609,0.8264759282177849,1.2134413937687574,-0.2202432315892585,-0.0075118285948192216,-2.6038483821997875,-0.10888392708698907,2.4681821257803174,0.826474908251239,0.0003297226917558256,0.0003931286036953601,0.0009496517951795984,-0.000956037412000011,8.859086259372258e-05,0.0004323555493975564,0.0005567477886137064,0.0,0.0,0.0,0.0,0.0,0.0,0.0,-2.121417964651151e-05,0.00011319343553298222,2.1934606879558255e-06,3.263557419597163e-05,2.4300416310643613e-05,-2.848307291802854e-06,-1.0199665458898721e-06,-0.0003297226917558256,-0.0003931286036953601,-0.0009496517951795984,0.000956037412000011,-8.859086259372258e-05,-0.0004323555493975564,-0.0005567477886137064,0.24825400114059448,19.717248916625977,0.3236968219280243,-20.031160354614258,-0.5642600655555725,-2.4566683769226074,0.25485557317733765,0
24,0.1152505874633789,-0.22445029020309448,-19.693445205688477,-0.2998931109905243,20.007356643676758,0.5697532296180725,2.4630770683288574,-0.26858848333358765,0.0,0.0,0.0,0.0,0.0,0.0,0.0,-0.23289586396554843,0.027467412550241856,-0.09007365698891935,0.22366880376899256,-0.018370439829224823,0.09558751571368525,-0.24182992460317704,1.2134585562836553,-0.22035813045481953,-0.007517594008408735,-2.6038772045264693,-0.1089088378548622,2.4681854452006866,0.8264774403728037,1.2134413937687574,-0.2202432315892585,-0.0075118285948192216,-2.6038483821997875,-0.10888392708698907,2.4681821257803174,0.826474908251239,8.385315373777554e-06,7.994452335660386e-05,0.0001270391899558375,-8.65089012717789e-05,-7.09340733753355e-05,0.00023017716350191947,0.0013885665246065634,0.0,0.0,0.0,0.0,0.0,0.0,0.0,-1.716251489791709e-05,0.00011489886556104167,5.765413589513789e-06,2.8822326681776644e-05,2.491076787312918e-05,-3.319420369241044e-06,-2.532121564646772e-06,-8.385315373777554e-06,-7.994452335660386e-05,-0.0001270391899558375,8.65089012717789e-05,7.09340733753355e-05,-0.00023017716350191947,-0.0013885665246065634,0.22445029020309448,19.693445205688477,0.2998931109905243,-20.007356643676758,-0.5697532296180725,-2.4630770683288574,0.26858848333358765,0
25,0.11995697021484375,-0.22445029020309448,-19.693445205688477,-0.2998931109905243,20.007356643676758,0.5697532296180725,2.4630770683288574,-0.26858848333358765,0.0,0.0,0.0,0.0,0.0,0.0,0.0,-0.23289586396554843,0.027467412550241856,-0.09007365698891935,0.22366880376899256,-0.018370439829224823,0.09558751571368525,-0.24182992460317704,1.2134585562836553,-0.22035813045481953,-0.007517594008408735,-2.6038772045264693,-0.1089088378548622,2.4681854452006866,0.8264774403728037,1.2134413937687574,-0.2202432315892585,-0.0075118285948192216,-2.6038483821997875,-0.10888392708698907,2.4681821257803174,0.826474908251239,8.385315373777554e-06,7.994452335660386e-05,0.0001270391899558375,-8.65089012717789e-05,-7.09340733753355e-05,0.00023017716350191947,0.0013885665246065634,0.0,0.0,0.0,0.0,0.0,0.0,0.0,-1.716251489791709e-05,0.00011489886556104167,5.765413589513789e-06,2.8822326681776644e-05,2.491076787312918e-05,-3.319420369241044e-06,-2.532121564646772e-06,-8.385315373777554e-06,-7.994452335660386e-05,-0.0001270391899558375,8.65089012717789e-05,7.09340733753355e-05,-0.00023017716350191947,-0.0013885665246065634,0.22445029020309448,19.693445205688477,0.2998931109905243,-20.007356643676758,-0.5697532296180725,-2.4630770683288574,0.26858848333358765,0
26,0.12496328353881836,-0.19667929410934448,-19.693445205688477,-0.2998931109905243,20.007356643676758,0.5761619210243225,2.4694857597351074,-0.21457235515117645,0.0,0.0,0.0,0.0,0.0,0.0,0.0,-0.2316125007305245,0.02843436294417834,-0.0910279292376541,0.2233672945169049,-0.01749479480762361,0.09543823721185468,-0.24155070330361852,1.2134566048119806,-0.22035813045501706,-0.007517565876743726,-2.603879429762819,-0.10890954993168511,2.468184611027869,0.8264750070605006,1.2134413937687574,-0.2202432315892585,-0.0075118285948192216,-2.6038483821997875,-0.10888392708698907,2.4681821257803174,0.826474908251239,-0.0007644434272603787,-0.0005366921129584019,0.000449345813966133,-0.00024506990241531906,-0.0002577529918012488,-7.241610644115146e-05,-0.0011622447220670058,0.0,0.0,0.0,0.0,0.0,0.0,0.0,-1.5211043223217757e-05,0.0001148988657585781,5.737281924504158e-06,3.104756303162759e-05,2.562284469603826e-05,-2.485247551753389e-06,-9.8809261550592e-08,0.0007644434272603787,0.0005366921129584019,-0.000449345813966133,0.00024506990241531906,0.0002577529918012488,7.241610644115146e-05,0.0011622447220670058,0.19667929410934448,19.693445205688477,0.2998931109905243,-20.007356643676758,-0.5761619210243225,-2.4694857597351074,0.21457235515117645,0
27,0.12996554374694824,-0.19667929410934448,-19.693445205688477,-0.2998931109905243,20.007356643676758,0.5761619210243225,2.4694857597351074,-0.21457235515117645,0.0,0.0,0.0,0.0,0.0,0.0,0.0,-0.2316125007305245,0.02843436294417834,-0.0910279292376541,0.2233672945169049,-0.01749479480762361,0.09543823721185468,-0.24155070330361852,1.2134566048119806,-0.22035813045501706,-0.007517565876743726,-2.603879429762819,-0.10890954993168511,2.468184611027869,0.8264750070605006,1.2134413937687574,-0.2202432315892585,-0.0075118285948192216,-2.6038483821997875,-0.10888392708698907,2.4681821257803174,0.826474908251239,-0.0007644434272603787,-0.0005366921129584019,0.000449345813966133,-0.00024506990241531906,-0.0002577529918012488,-7.241610644115146e-05,-0.0011622447220670058,0.0,0.0,0.0,0.0,0.0,0.0,0.0,-1.5211043223217757e-05,0.0001148988657585781,5.737281924504158e-06,3.104756303162759e-05,2.562284469603826e-05,-2.485247551753389e-06,-9.8809261550592e-08,0.0007644434272603787,0.0005366921129584019,-0.000449345813966133,0.00024506990241531906,0.0002577529918012488,7.241610644115146e-05,0.0011622447220670058,0.19667929410934448,19.693445205688477,0.2998931109905243,-20.007356643676758,-0.5761619210243225,-2.4694857597351074,0.21457235515117645,0
28,0.13496708869934082,-0.22445029020309448,-19.693445205688477,-0.3236968219280243,19.983552932739258,0.5761619210243225,2.4630770683288574,-0.24844686686992645,0.0,0.0,0.0,0.0,0.0,0.0,0.0,-0.23305793069476097,0.023509740482719803,-0.0927089470779827,0.22812847948225057,-0.01633414730160804,0.09622372918145324,-0.2417945933894493,1.2134614143497082,-0.22035813045501706,-0.007514019111981853,-2.6038776768771674,-0.10890954993168511,2.468184262016776,0.826474654500878,1.2134413937687574,-0.2202432315892585,-0.0075118285948192216,-2.6038483821997875,-0.10888392708698907,2.4681821257803174,0.826474908251239,0.00018373161320938658,-0.0010477435812440965,0.0005524357434861711,0.0009032972791159859,-6.355094128581887e-05,9.725138132071679e-05,0.0002426990917926647,0.0,0.0,0.0,0.0,0.0,0.0,0.0,-2.0020580950852462e-05,0.0001148988657585781,2.1905171626313003e-06,2.9294677379887446e-05,2.562284469603826e-05,-2.1362364588384253e-06,2.537503610566816e-07,-0.00018373161320938658,0.0010477435812440965,-0.0005524357434861711,-0.0009032972791159859,6.355094128581887e-05,-9.725138132071679e-05,-0.0002426990917926647,0.22445029020309448,19.693445205688477,0.3236968219280243,-19.983552932739258,-0.5761619210243225,-2.4630770683288574,0.24844686686992645,0
29,0.13995862007141113,-0.22445029020309448,-19.693445205688477,-0.3236968219280243,19.983552932739258,0.5761619210243225,2.4630770683288574,-0.24844686686992645,0.0,0.0,0.0,0.0,0.0,0.0,0.0,-0.23305793069476097,0.023509740482719803,-0.0927089470779827,0.22812847948225057,-0.01633414730160804,0.09622372918145324,-0.2417945933894493,1.2134614143497082,-0.22035813045501706,-0.007514019111981853,-2.6038776768771674,-0.10890954993168511,2.468184262016776,0.826474654500878,1.2134413937687574,-0.2202432315892585,-0.0075118285948192216,-2.6038483821997875,-0.10888392708698907,2.4681821257803174,0.826474908251239,0.00018373161320938658,-0.0010477435812440965,0.0005524357434861711,0.0009032972791159859,-6.355094128581887e-05,9.725138132071679e-05,0.0002426990917926647,0.0,0.0,0.0,0.0,0.0,0.0,0.0,-2.0020580950852462e-05,0.0001148988657585781,2.1905171626313003e-06,2.9294677379887446e-05,2.562284469603826e-05,-2.1362364588384253e-06,2.537503610566816e-07,-0.00018373161320938658,0.0010477435812440965,-0.0005524357434861711,-0.0009032972791159859,6.355094128581887e-05,-9.725138132071679e-05,-0.0002426990917926647,0.22445029020309448,19.693445205688477,0.3236968219280243,-19.983552932739258,-0.5761619210243225,-2.4630770683288574,0.24844686686992645,0
30,0.14496684074401855,-0.24825400114059448,-19.717248916625977,-0.2998931109905243,20.007356643676758,0.5642600655555725,2.4630770683288574,-0.26217979192733765,0.0,0.0,0.0,0.0,0.0,0.0,0.0,-0.23399158422606875,0.02400559656111989,-0.09749851003846761,0.22554260723056668,-0.015814465840875987,0.09530175954084263,-0.24279178433261522,1.2134602512508628,-0.2203564571029766,-0.007515619431577858,-2.6038794205714897,-0.1089082275032997,2.4681842620107863,0.8264788887529926,1.2134413937687574,-0.2202432315892585,-0.0075118285948192216,-2.6038483821997875,-0.10888392708698907,2.4681821257803174,0.826474908251239,-8.556227694648676e-05,-4.069428176424399e-05,3.4496535008773296e-05,4.3748594491687766e-05,5.9505002431518576e-05,0.00012582328817008283,0.0007205408709789041,0.0,0.0,0.0,0.0,0.0,0.0,0.0,-1.8857482105394396e-05,0.00011322551371811818,3.7908367586363817e-06,3.103837170215229e-05,2.4300416310629736e-05,-2.136230468963163e-06,-3.980501753542143e-06,8.556227694648676e-05,4.069428176424399e-05,-3.4496535008773296e-05,-4.3748594491687766e-05,-5.9505002431518576e-05,-0.00012582328817008283,-0.0007205408709789041,0.24825400114059448,19.717248916625977,0.2998931109905243,-20.007356643676758,-0.5642600655555725,-2.4630770683288574,0.26217979192733765,0
31,0.14996600151062012,-0.24825400114059448,-19.717248916625977,-0.2998931109905243,20.007356643676758,0.5642600655555725,2.4630770683288574,-0.26217979192733765,0.0,0.0,0.0,0.0,0.0,0.0,0.0,-0.23399158422606875,0.02400559656111989,-0.09749851003846761,0.22554260723056668,-0.015814465840875987,0.09530175954084263,-0.24279178433261522,1.2134602512508628,-0.2203564571029766,-0.007515619431577858,-2.6038794205714897,-0.1089082275032997,2.4681842620107863,0.8264788887529926,1.2134413937687574,-0.2202432315892585,-0.0075118285948192216,-2.6038483821997875,-0.10888392708698907,2.4681821257803174,0.826474908251239,-8.556227694648676e-05,-4.069428176424399e-05,3.4496535008773296e-05,4.3748594491687766e-05,5.9505002431518576e-05,0.00012582328817008283,0.0007205408709789041,0.0,0.0,0.0,0.0,0.0,0.0,0.0,-1.8857482105394396e-05,0.00011322551371811818,3.7908367586363817e-06,3.103837170215229e-05,2.4300416310629736e-05,-2.136230468963163e-06,-3.980501753542143e-06,8.556227694648676e-05,4.069428176424399e-05,-3.4496535008773296e-05,-4.3748594491687766e-05,-5.9505002431518576e-05,-0.00012582328817008283,-0.0007205408709789041,0.24825400114059448,19.717248916625977,0.2998931109905243,-20.007356643676758,-0.5642600655555725,-2.4630770683288574,0.26217979192733765,0
32,0.15495705604553223,-0.22445029020309448,-19.717248916625977,-0.2721221148967743,20.007356643676758,0.5578513741493225,2.4694857597351074,-0.23471395671367645,0.0,0.0,0.0,0.0,0.0,0.0,0.0,-0.23062947612741583,0.02108078928497333,-0.09706646951170282,0.2250255825016294,-0.016274079842424547,0.09533254237308658,-0.2434244196982555,1.2134585533269124,-0.22035645969512474,-0.00751741326840854,-2.6038794296539005,-0.10890751542647678,2.4681835499339635,0.8264758110602496,1.2134413937687574,-0.2202432315892585,-0.0075118285948192216,-2.6038483821997875,-0.10888392708698907,2.4681821257803174,0.826474908251239,-0.0004397040859247112,-0.000373738815795456,-0.0006298560380500563,-0.00025155844426109675,0.00025796274305044304,-0.00010118825370457729,-0.0005189190564870172,0.0,0.0,0.0,0.0,0.0,0.0,0.0,-1.7159558155066534e-05,0.0001132281058662532,5.584673589318322e-06,3.1047454112975714e-05,2.3588339487706778e-05,-1.4241536461234716e-06,-9.028090105500652e-07,0.0004397040859247112,0.000373738815795456,0.0006298560380500563,0.00025155844426109675,-0.00025796274305044304,0.00010118825370457729,0.0005189190564870172,0.22445029020309448,19.717248916625977,0.2721221148967743,-20.007356643676758,-0.5578513741493225,-2.4694857597351074,0.23471395671367645,0
33,0.1599578857421875,-0.22445029020309448,-19.717248916625977,-0.2721221148967743,20.007356643676758,0.5578513741493225,2.4694857597351074,-0.23471395671367645,0.0,0.0,0.0,0.0,0.0,0.0,0.0,-0.23062947612741583,0.02108078928497333,-0.09706646951170282,0.2250255825016294,-0.016274079842424547,0.09533254237308658,-0.2434244196982555,1.2134585533269124,-0.22035645969512474,-0.00751741326840854,-2.6038794296539005,-0.10890751542647678,2.4681835499339635,0.8264758110602496,1.2134413937687574,-0.2202432315892585,-0.0075118285948192216,-2.6038483821997875,-0.10888392708698907,2.4681821257803174,0.826474908251239,-0.0004397040859247112,-0.000373738815795456,-0.0006298560380500563,-0.00025155844426109675,0.00025796274305044304,-0.00010118825370457729,-0.0005189190564870172,0.0,0.0,0.0,0.0,0.0,0.0,0.0,-1.7159558155066534e-05,0.0001132281058662532,5.584673589318322e-06,3.1047454112975714e-05,2.3588339487706778e-05,-1.4241536461234716e-06,-9.028090105500652e-07,0.0004397040859247112,0.000373738815795456,0.0006298560380500563,0.00025155844426109675,-0.00025796274305044304,0.00010118825370457729,0.0005189190564870172,0.22445029020309448,19.717248916625977,0.2721221148967743,-20.007356643676758,-0.5578513741493225,-2.4694857597351074,0.23471395671367645,0
34,0.1649634838104248,-0.24825400114059448,-19.669641494750977,-0.2998931109905243,19.955781936645508,0.5578513741493225,2.4566683769226074,-0.22098104655742645,0.0,0.0,0.0,0.0,0.0,0.0,0.0,-0.23187438640756025,0.027709604923621494,-0.09593051094829831,0.22048538821421093,-0.016914427861430523,0.09536606646054738,-0.244128826485173,1.2134603032354723,-0.22035906601220487,-0.007517752908489757,-2.6038757189156536,-0.10890751542647678,2.468184974087609,0.8264721870621696,1.2134413937687574,-0.2202432315892585,-0.0075118285948192216,-2.6038483821997875,-0.10888392708698907,2.4681821257803174,0.826474908251239,0.00047583862603545364,-0.0007324036554462003,0.0002566166668330156,0.000780663411477633,0.0004631305244982311,0.0005221421294262117,-0.0007320406571337513,0.0,0.0,0.0,0.0,0.0,0.0,0.0,-1.8909466714900347e-05,0.00011583442294638147,5.924313670535759e-06,2.7336715866077554e-05,2.3588339487706778e-05,-2.848307291802854e-06,2.7211890694101015e-06,-0.00047583862603545364,0.0007324036554462003,-0.0002566166668330156,-0.000780663411477633,-0.0004631305244982311,-0.0005221421294262117,0.0007320406571337513,0.24825400114059448,19.669641494750977,0.2998931109905243,-19.955781936645508,-0.5578513741493225,-2.4566683769226074,0.22098104655742645,0
35,0.1699657440185547,-0.24825400114059448,-19.669641494750977,-0.2998931109905243,19.955781936645508,0.5578513741493225,2.4566683769226074,-0.22098104655742645,0.0,0.0,0.0,0.0,0.0,0.0,0.0,-0.23187438640756025,0.027709604923621494,-0.09593051094829831,0.22048538821421093,-0.016914427861430523,0.09536606646054738,-0.244128826485173,1.2134603032354723,-0.22035906601220487,-0.007517752908489757,-2.6038757189156536,-0.10890751542647678,2.468184974087609,0.8264721870621696,1.2134413937687574,-0.2202432315892585,-0.0075118285948192216,-2.6038483821997875,-0.10888392708698907,2.4681821257803174,0.826474908251239,0.00047583862603545364,-0.0007324036554462003,0.0002566166668330156,0.000780663411477633,0.0004631305244982311,0.0005221421294262117,-0.0007320406571337513,0.0,0.0,0.0,0.0,0.0,0.0,0.0,-1.8909466714900347e-05,0.00011583442294638147,5.924313670535759e-06,2.7336715866077554e-05,2.3588339487706778e-05,-2.848307291802854e-06,2.7211890694101015e-06,-0.00047583862603545364,0.0007324036554462003,-0.0002566166668330156,-0.000780663411477633,-0.0004631305244982311,-0.0005221421294262117,0.0007320406571337513,0.24825400114059448,19.669641494750977,0.2998931109905243,-19.955781936645508,-0.5578513741493225,-2.4566683769226074,0.22098104655742645,0
36,0.17496609687805176,-0.19667929410934448,-19.717248916625977,-0.2721221148967743,20.031160354614258,0.5761619210243225,2.4758944511413574,-0.26217979192733765,0.0,0.0,0.0,0.0,0.0,0.0,0.0,-0.23010153054546098,0.02131710474841834,-0.09216373087999462,0.22823198724186106,-0.016879555058105483,0.09728703009967624,-0.24407145669289385,1.2134568517342716,-0.22035646001501338,-0.007518745071644405,-2.6038788738317336,-0.10890954993168511,2.4681829555947106,0.8264761882214396,1.2134413937687574,-0.2202432315892585,-0.0075118285948192216,-2.6038483821997875,-0.10888392708698907,2.4681821257803174,0.826474908251239,5.041464707129694e-05,0.00044495783396825866,-0.0005107846621771805,-0.00022421421419090503,-0.000278782438967499,-0.000359803940942984,0.0008167264946317207,0.0,0.0,0.0,0.0,0.0,0.0,0.0,-1.545796551427614e-05,0.00011322842575489656,6.916476825183544e-06,3.0491631946016895e-05,2.562284469603826e-05,-8.298143931995128e-07,-1.2799702006072167e-06,-5.041464707129694e-05,-0.00044495783396825866,0.0005107846621771805,0.00022421421419090503,0.000278782438967499,0.000359803940942984,-0.0008167264946317207,0.19667929410934448,19.717248916625977,0.2721221148967743,-20.031160354614258,-0.5761619210243225,-2.4758944511413574,0.26217979192733765,0
37,0.17996430397033691,-0.19667929410934448,-19.717248916625977,-0.2721221148967743,20.031160354614258,0.5761619210243225,2.4758944511413574,-0.26217979192733765,0.0,0.0,0.0,0.0,0.0,0.0,0.0,-0.23010153054546098,0.02131710474841834,-0.09216373087999462,0.22823198724186106,-0.016879555058105483,0.09728703009967624,-0.24407145669289385,1.2134568517342716,-0.22035646001501338,-0.007518745071644405,-2.6038788738317336,-0.10890954993168511,2.4681829555947106,0.8264761882214396,1.2134413937687574,-0.2202432315892585,-0.0075118285948192216,-2.6038483821997875,-0.10888392708698907,2.4681821257803174,0.826474908251239,5.041464707129694e-05,0.00044495783396825866,-0.0005107846621771805,-0.00022421421419090503,-0.000278782438967499,-0.000359803940942984,0.0008167264946317207,0.0,0.0,0.0,0.0,0.0,0.0,0.0,-1.545796551427614e-05,0.00011322842575489656,6.916476825183544e-06,3.0491631946016895e-05,2.562284469603826e-05,-8.298143931995128e-07,-1.2799702006072167e-06,-5.041464707129694e-05,-0.00044495783396825866,0.0005107846621771805,0.00022421421419090503,0.000278782438967499,0.000359803940942984,-0.0008167264946317207,0.19667929410934448,19.717248916625977,0.2721221148967743,-20.031160354614258,-0.5761619210243225,-2.4758944511413574,0.26217979192733765,0
38,0.1849658489227295,-0.19667929410934448,-19.693445205688477,-0.3236968219280243,20.054964065551758,0.5761619210243225,2.4758944511413574,-0.24112264811992645,0.0,0.0,0.0,0.0,0.0,0.0,0.0,-0.23551022372715336,0.028707405045271223,-0.09917703558000847,0.22521910514863994,-0.016392679419811342,0.09628998102534381,-0.24435912322592424,1.213456604486322,-0.2203581303110079,-0.0075161349782204775,-2.6038827431163645,-0.10890954993168511,2.468182877103662,0.8264775651020135,1.2134413937687574,-0.2202432315892585,-0.0075118285948192216,-2.6038483821997875,-0.10888392708698907,2.4681821257803174,0.826474908251239,-0.0007563154760006393,-0.0001742456720495369,0.0003811131715889919,-0.0010188265273042923,-0.0003932579870922597,-0.0004087741102711142,-0.0004243337259958855,0.0,0.0,0.0,0.0,0.0,0.0,0.0,-1.5210717564606568e-05,0.0001148987217494124,4.306383401255984e-06,3.436091657693652e-05,2.562284469603826e-05,-7.513233444278455e-07,-2.656850774496178e-06,0.0007563154760006393,0.0001742456720495369,-0.0003811131715889919,0.0010188265273042923,0.0003932579870922597,0.0004087741102711142,0.0004243337259958855,0.19667929410934448,19.693445205688477,0.3236968219280243,-20.054964065551758,-0.5761619210243225,-2.4758944511413574,0.24112264811992645,0
39,0.18996500968933105,-0.19667929410934448,-19.693445205688477,-0.3236968219280243,20.054964065551758,0.5761619210243225,2.4758944511413574,-0.24112264811992645,0.0,0.0,0.0,0.0,0.0,0.0,0.0,-0.23551022372715336,0.028707405045271223,-0.09917703558000847,0.22521910514863994,-0.016392679419811342,0.09628998102534381,-0.24435912322592424,1.213456604486322,-0.2203581303110079,-0.0075161349782204775,-2.6038827431163645,-0.10890954993168511,2.468182877103662,0.8264775651020135,1.2134413937687574,-0.2202432315892585,-0.0075118285948192216,-2.6038483821997875,-0.10888392708698907,2.4681821257803174,0.826474908251239,-0.0007563154760006393,-0.0001742456720495369,0.0003811131715889919,-0.0010188265273042923,-0.0003932579870922597,-0.0004087741102711142,-0.0004243337259958855,0.0,0.0,0.0,0.0,0.0,0.0,0.0,-1.5210717564606568e-05,0.0001148987217494124,4.306383401255984e-06,3.436091657693652e-05,2.562284469603826e-05,-7.513233444278455e-07,-2.656850774496178e-06,0.0007563154760006393,0.0001742456720495369,-0.0003811131715889919,0.0010188265273042923,0.0003932579870922597,0.0004087741102711142,0.0004243337259958855,0.19667929410934448,19.693445205688477,0.3236968219280243,-20.054964065551758,-0.5761619210243225,-2.4758944511413574,0.24112264811992645,0
40,0.19497132301330566,-0.24825400114059448,-19.768823623657227,-0.3236968219280243,19.983552932739258,0.5642600655555725,2.4630770683288574,-0.24844686686992645,0.0,0.0,0.0,0.0,0.0,0.0,0.0,-0.23493163614869686,0.026294673776693762,-0.10166152035829533,0.22662873352618396,-0.017098468530606654,0.09593569340146242,-0.24460055844330536,1.2134602237626126,-0.22035070609392043,-0.007513004042145988,-2.603877512081788,-0.1089082275032997,2.4681842620114507,0.8264784343693673,1.2134413937687574,-0.2202432315892585,-0.0075118285948192216,-2.6038483821997875,-0.10888392708698907,2.4681821257803174,0.826474908251239,-0.00029206384873957066,0.0011593299813849774,0.00010635602149680805,0.0006793724044391034,-0.00013924049130773408,9.456930563210011e-05,0.00018074041078557982,0.0,0.0,0.0,0.0,0.0,0.0,0.0,-1.882999385527384e-05,0.00010747450466194741,1.1754473267667348e-06,2.9129882000322738e-05,2.4300416310629736e-05,-2.1362311333206208e-06,-3.526118128260869e-06,0.00029206384873957066,-0.0011593299813849774,-0.00010635602149680805,-0.0006793724044391034,0.00013924049130773408,-9.456930563210011e-05,-0.00018074041078557982,0.24825400114059448,19.768823623657227,0.3236968219280243,-19.983552932739258,-0.5642600655555725,-2.4630770683288574,0.24844686686992645,0
41,0.1999647617340088,-0.24825400114059448,-19.768823623657227,-0.3236968219280243,19.983552932739258,0.5642600655555725,2.4630770683288574,-0.24844686686992645,0.0,0.0,0.0,0.0,0.0,0.0,0.0,-0.23493163614869686,0.026294673776693762,-0.10166152035829533,0.22662873352618396,-0.017098468530606654,0.09593569340146242,-0.24460055844330536,1.2134602237626126,-0.22035070609392043,-0.007513004042145988,-2.603877512081788,-0.1089082275032997,2.4681842620114507,0.8264784343693673,1.2134413937687574,-0.2202432315892585,-0.0075118285948192216,-2.6038483821997875,-0.10888392708698907,2.4681821257803174,0.826474908251239,-0.00029206384873957066,0.0011593299813849774,0.00010635602149680805,0.0006793724044391034,-0.00013924049130773408,9.456930563210011e-05,0.00018074041078557982,0.0,0.0,0.0,0.0,0.0,0.0,0.0,-1.882999385527384e-05,0.00010747450466194741,1.1754473267667348e-06,2.9129882000322738e-05,2.4300416310629736e-05,-2.1362311333206208e-06,-3.526118128260869e-06,0.00029206384873957066,-0.0011593299813849774,-0.00010635602149680805,-0.0006793724044391034,0.00013924049130773408,-9.456930563210011e-05,-0.00018074041078557982,0.24825400114059448,19.768823623657227,0.3236968219280243,-19.983552932739258,-0.5642600655555725,-2.4630770683288574,0.24844686686992645,0
42,0.20496416091918945,-0.22445029020309448,-19.693445205688477,-0.2721221148967743,20.007356643676758,0.5761619210243225,2.4630770683288574,-0.20083944499492645,0.0,0.0,0.0,0.0,0.0,0.0,0.0,-0.22893574748552517,0.02607446285587704,-0.09754633313911111,0.22779654488970924,-0.018561748430877874,0.09609777491003588,-0.24392648255487728,1.2134607000751156,-0.2203581041973003,-0.007519780330598329,-2.6038793473493116,-0.10890954993168511,2.4681842750927383,0.8264730917959378,1.2134413937687574,-0.2202432315892585,-0.0075118285948192216,-2.6038483821997875,-0.10888392708698907,2.4681821257803174,0.826474908251239,-0.00037227425728896706,-0.0008261776796294035,-0.000761153655145575,0.0003603537617105492,-0.00037460238362478334,0.0001358937729368545,-0.001541377529596676,0.0,0.0,0.0,0.0,0.0,0.0,0.0,-1.93063063582688e-05,0.00011487260804179944,7.951735779107745e-06,3.0965149524053714e-05,2.562284469603826e-05,-2.1493124209293057e-06,1.816455301284492e-06,0.00037227425728896706,0.0008261776796294035,0.000761153655145575,-0.0003603537617105492,0.00037460238362478334,-0.0001358937729368545,0.001541377529596676,0.22445029020309448,19.693445205688477,0.2721221148967743,-20.007356643676758,-0.5761619210243225,-2.4630770683288574,0.20083944499492645,0
43,0.2099616527557373,-0.22445029020309448,-19.693445205688477,-0.2721221148967743,20.007356643676758,0.5761619210243225,2.4630770683288574,-0.20083944499492645,0.0,0.0,0.0,0.0,0.0,0.0,0.0,-0.22893574748552517,0.02607446285587704,-0.09754633313911111,0.22779654488970924,-0.018561748430877874,0.09609777491003588,-0.24392648255487728,1.2134607000751156,-0.2203581041973003,-0.007519780330598329,-2.6038793473493116,-0.10890954993168511,2.4681842750927383,0.8264730917959378,1.2134413937687574,-0.2202432315892585,-0.0075118285948192216,-2.6038483821997875,-0.10888392708698907,2.4681821257803174,0.826474908251239,-0.00037227425728896706,-0.0008261776796294035,-0.000761153655145575,0.0003603537617105492,-0.00037460238362478334,0.0001358937729368545,-0.001541377529596676,0.0,0.0,0.0,0.0,0.0,0.0,0.0,-1.93063063582688e-05,0.00011487260804179944,7.951735779107745e-06,3.0965149524053714e-05,2.562284469603826e-05,-2.1493124209293057e-06,1.816455301284492e-06,0.00037227425728896706,0.0008261776796294035,0.000761153655145575,-0.0003603537617105492,0.00037460238362478334,-0.0001358937729368545,0.001541377529596676,0.22445029020309448,19.693445205688477,0.2721221148967743,-20.007356643676758,-0.5761619210243225,-2.4630770683288574,0.20083944499492645,0
44,0.2149672508239746,-0.24825400114059448,-19.717248916625977,-0.2998931109905243,19.983552932739258,0.5642600655555725,2.4758944511413574,-0.21457235515117645,0.0,0.0,0.0,0.0,0.0,0.0,0.0,-0.23522288715715695,0.02610299546243155,-0.10562979252697985,0.22641108943975408,-0.01830313199814688,0.09574428749486473,-0.2437704071227968,1.2134602237747312,-0.22035638117400683,-0.007517805528163247,-2.603877511742627,-0.1089082275032997,2.4681860168254377,0.8264708520642101,1.2134413937687574,-0.2202432315892585,-0.0075118285948192216,-2.6038483821997875,-0.10888392708698907,2.4681821257803174,0.826474908251239,0.00011541508430565148,7.320951978758867e-05,-0.0007137547550977905,0.0004726315308385515,0.0001836588416453037,-0.00029279919755264644,-0.001232199773874096,0.0,0.0,0.0,0.0,0.0,0.0,0.0,-1.8830005973802244e-05,0.00011314958474833992,5.976933344025749e-06,2.9129542839623213e-05,2.4300416310629736e-05,-3.891045120330006e-06,4.056187028922409e-06,-0.00011541508430565148,-7.320951978758867e-05,0.0007137547550977905,-0.0004726315308385515,-0.0001836588416453037,0.00029279919755264644,0.001232199773874096,0.24825400114059448,19.717248916625977,0.2998931109905243,-19.983552932739258,-0.5642600655555725,-2.4758944511413574,0.21457235515117645,0
45,0.21996450424194336,-0.24825400114059448,-19.717248916625977,-0.2998931109905243,19.983552932739258,0.5642600655555725,2.4758944511413574,-0.21457235515117645,0.0,0.0,0.0,0.0,0.0,0.0,0.0,-0.23522288715715695,0.02610299546243155,-0.10562979252697985,0.22641108943975408,-0.01830313199814688,0.09574428749486473,-0.2437704071227968,1.2134602237747312,-0.22035638117400683,-0.007517805528163247,-2.603877511742627,-0.1089082275032997,2.4681860168254377,0.8264708520642101,1.2134413937687574,-0.2202432315892585,-0.0075118285948192216,-2.6038483821997875,-0.10888392708698907,2.4681821257803174,0.826474908251239,0.00011541508430565148,7.320951978758867e-05,-0.0007137547550977905,0.0004726315308385515,0.0001836588416453037,-0.00029279919755264644,-0.001232199773874096,0.0,0.0,0.0,0.0,0.0,0.0,0.0,-1.8830005973802244e-05,0.00011314958474833992,5.976933344025749e-06,2.9129542839623213e-05,2.4300416310629736e-05,-3.891045120330006e-06,4.056187028922409e-06,-0.00011541508430565148,-7.320951978758867e-05,0.0007137547550977905,-0.0004726315308385515,-0.0001836588416453037,0.00029279919755264644,0.001232199773874096,0.24825400114059448,19.717248916625977,0.2998931109905243,-19.983552932739258,-0.5642600655555725,-2.4758944511413574,0.21457235515117645,0
46,0.22496390342712402,-0.22445029020309448,-19.745019912719727,-0.3236968219280243,20.007356643676758,0.5642600655555725,2.4630770683288574,-0.21457235515117645,0.0,0.0,0.0,0.0,0.0,0.0,0.0,-0.23143404957609984,0.020747113151596278,-0.10228636199635072,0.22692876641441326,-0.017954161099891494,0.09646933445495716,-0.24349369396793097,1.2134585533267572,-0.22035237652933304,-0.007515135572245698,-2.6038794297656085,-0.1089082275032997,2.4681842620287315,0.8264714532744031,1.2134413937687574,-0.2202432315892585,-0.0075118285948192216,-2.6038483821997875,-0.10888392708698907,2.4681821257803174,0.826474908251239,-0.0004731284210331706,0.0006159477674093739,0.0007086475446595006,-0.00013301044420386513,0.00012722077054050918,0.000289337136061292,-0.0010990780141587264,0.0,0.0,0.0,0.0,0.0,0.0,0.0,-1.7159557999857356e-05,0.00010914494007455144,3.306977426476357e-06,3.104756582095192e-05,2.4300416310629736e-05,-2.1362484141640437e-06,3.4549768359593003e-06,0.0004731284210331706,-0.0006159477674093739,-0.0007086475446595006,0.00013301044420386513,-0.00012722077054050918,-0.000289337136061292,0.0010990780141587264,0.22445029020309448,19.745019912719727,0.3236968219280243,-20.007356643676758,-0.5642600655555725,-2.4630770683288574,0.21457235515117645,0
47,0.2299656867980957,-0.22445029020309448,-19.745019912719727,-0.3236968219280243,20.007356643676758,0.5642600655555725,2.4630770683288574,-0.21457235515117645,0.0,0.0,0.0,0.0,0.0,0.0,0.0,-0.23143404957609984,0.020747113151596278,-0.10228636199635072,0.22692876641441326,-0.017954161099891494,0.09646933445495716,-0.24349369396793097,1.2134585533267572,-0.22035237652933304,-0.007515135572245698,-2.6038794297656085,-0.1089082275032997,2.4681842620287315,0.8264714532744031,1.2134413937687574,-0.2202432315892585,-0.0075118285948192216,-2.6038483821997875,-0.10888392708698907,2.4681821257803174,0.826474908251239,-0.0004731284210331706,0.0006159477674093739,0.0007086475446595006,-0.00013301044420386513,0.00012722077054050918,0.000289337136061292,-0.0010990780141587264,0.0,0.0,0.0,0.0,0.0,0.0,0.0,-1.7159557999857356e-05,0.00010914494007455144,3.306977426476357e-06,3.104756582095192e-05,2.4300416310629736e-05,-2.1362484141640437e-06,3.4549768359593003e-06,0.0004731284210331706,-0.0006159477674093739,-0.0007086475446595006,0.00013301044420386513,-0.00012722077054050918,-0.000289337136061292,0.0010990780141587264,0.22445029020309448,19.745019912719727,0.3236968219280243,-20.007356643676758,-0.5642600655555725,-2.4630770683288574,0.21457235515117645,0
48,0.23497438430786133,-0.22445029020309448,-19.745019912719727,-0.3236968219280243,20.007356643676758,0.5642600655555725,2.4630770683288574,-0.21457235515117645,0.0,0.0,0.0,0.0,0.0,0.0,0.0,-0.23143404957609984,0.020747113151596278,-0.10228636199635072,0.22692876641441326,-0.017954161099891494,0.09646933445495716,-0.24349369396793097,1.2134585533267572,-0.22035237652933304,-0.007515135572245698,-2.6038794297656085,-0.1089082275032997,2.4681842620287315,0.8264714532744031,1.2134413937687574,-0.2202432315892585,-0.0075118285948192216,-2.6038483821997875,-0.10888392708698907,2.4681821257803174,0.826474908251239,-0.0004731284210331706,0.0006159477674093739,0.0007086475446595006,-0.00013301044420386513,0.00012722077054050918,0.000289337136061292,-0.0010990780141587264,0.0,0.0,0.0,0.0,0.0,0.0,0.0,-1.7159557999857356e-05,0.00010914494007455144,3.306977426476357e-06,3.104756582095192e-05,2.4300416310629736e-05,-2.1362484141640437e-06,3.4549768359593003e-06,0.0004731284210331706,-0.0006159477674093739,-0.0007086475446595006,0.00013301044420386513,-0.00012722077054050918,-0.000289337136061292,0.0010990780141587264,0.22445029020309448,19.745019912719727,0.3236968219280243,-20.007356643676758,-0.5642600655555725,-2.4630770683288574,0.21457235515117645,0
49,0.23996829986572266,-0.22445029020309448,-19.745019912719727,-0.3236968219280243,20.007356643676758,0.5642600655555725,2.4630770683288574,-0.21457235515117645,0.0,0.0,0.0,0.0,0.0,0.0,0.0,-0.23143404957609984,0.020747113151596278,-0.10228636199635072,0.22692876641441326,-0.017954161099891494,0.09646933445495716,-0.24349369396793097,1.2134585533267572,-0.22035237652933304,-0.007515135572245698,-2.6038794297656085,-0.1089082275032997,2.4681842620287315,0.8264714532744031,1.2134413937687574,-0.2202432315892585,-0.0075118285948192216,-2.6038483821997875,-0.10888392708698907,2.4681821257803174,0.826474908251239,-0.0004731284210331706,0.0006159477674093739,0.0007086475446595006,-0.00013301044420386513,0.00012722077054050918,0.000289337136061292,-0.0010990780141587264,0.0,0.0,0.0,0.0,0.0,0.0,0.0,-1.7159557999857356e-05,0.00010914494007455144,3.306977426476357e-06,3.104756582095192e-05,2.4300416310629736e-05,-2.1362484141640437e-06,3.4549768359593003e-06,0.0004731284210331706,-0.0006159477674093739,-0.0007086475446595006,0.00013301044420386513,-0.00012722077054050918,-0.000289337136061292,0.0010990780141587264,0.22445029020309448,19.745019912719727,0.3236968219280243,-20.007356643676758,-0.5642600655555725,-2.4630770683288574,0.21457235515117645,0
50,0.24496722221374512,-0.22445029020309448,-19.693445205688477,-0.2721221148967743,19.931978225708008,0.5761619210243225,2.4694857597351074,-0.26858848333358765,0.0,0.0,0.0,0.0,0.0,0.0,0.0,-0.23046146156415426,0.02975950549926142,-0.1000163403088614,0.21975016666372899,-0.018757862520759002,0.09560730135785143,-0.2438485740771307,1.2134585533267572,-0.22035813044296693,-0.007519464055302117,-2.603874140053464,-0.10890954993168511,2.4681839031466732,0.8264774418801946,1.2134413937687574,-0.2202432315892585,-0.0075118285948192216,-2.6038483821997875,-0.10888392708698907,2.4681821257803174,0.826474908251239,-8.855457516638494e-05,8.6333265727428e-05,-0.00042653032123562734,0.0016170019889308442,0.002595877443511163,-1.2396091290781891e-05,0.0010878599085257072,0.0,0.0,0.0,0.0,0.0,0.0,0.0,-1.7159557999857356e-05,0.00011489885370843944,7.635460482895498e-06,2.5757853676644515e-05,2.562284469603826e-05,-1.7773663558706687e-06,-2.5336289555255576e-06,8.855457516638494e-05,-8.6333265727428e-05,0.00042653032123562734,-0.0016170019889308442,-0.002595877443511163,1.2396091290781891e-05,-0.0010878599085257072,0.22445029020309448,19.693445205688477,0.2721221148967743,-19.931978225708008,-0.5761619210243225,-2.4694857597351074,0.26858848333358765,0
51,0.24996685981750488,-0.22445029020309448,-19.693445205688477,-0.2721221148967743,19.931978225708008,0.5761619210243225,2.4694857597351074,-0.26858848333358765,0.0,0.0,0.0,0.0,0.0,0.0,0.0,-0.23046146156415426,0.02975950549926142,-0.1000163403088614,0.21975016666372899,-0.018757862520759002,0.09560730135785143,-0.2438485740771307,1.2134585533267572,-0.22035813044296693,-0.007519464055302117,-2.603874140053464,-0.10890954993168511,2.4681839031466732,0.8264774418801946,1.2134413937687574,-0.2202432315892585,-0.0075118285948192216,-2.6038483821997875,-0.10888392708698907,2.4681821257803174,0.826474908251239,-8.855457516638494e-05,8.6333265727428e-05,-0.00042653032123562734,0.0016170019889308442,0.002595877443511163,-1.2396091290781891e-05,0.0010878599085257072,0.0,0.0,0.0,0.0,0.0,0.0,0.0,-1.7159557999857356e-05,0.00011489885370843944,7.635460482895498e-06,2.5757853676644515e-05,2.562284469603826e-05,-1.7773663558706687e-06,-2.5336289555255576e-06,8.855457516638494e-05,-8.6333265727428e-05,0.00042653032123562734,-0.0016170019889308442,-0.002595877443511163,1.2396091290781891e-05,-0.0010878599085257072,0.22445029020309448,19.693445205688477,0.2721221148967743,-19.931978225708008,-0.5761619210243225,-2.4694857597351074,0.26858848333358765,0
52,0.25496530532836914,-0.24825400114059448,-19.717248916625977,-0.2721221148967743,20.007356643676758,0.5642600655555725,2.4630770683288574,-0.23471395671367645,0.0,0.0,0.0,0.0,0.0,0.0,0.0,-0.23154533200467695,0.020252147302669565,-0.09913999966753709,0.22922022413421603,-0.017967181064906988,0.09698116841937517,-0.24401740998287322,1.2134602237626126,-0.22035646001916173,-0.007519780238390925,-2.6038772045269347,-0.1089082275032997,2.468185322135426,0.8264730100567382,1.2134413937687574,-0.2202432315892585,-0.0075118285948192216,-2.6038483821997875,-0.10888392708698907,2.4681821257803174,0.826474908251239,0.0003094006028062704,-0.00015502032727083618,-0.00023276112379494836,0.0001968047402411142,0.00023361086198121515,0.00016696744830085219,-0.00029593782462775076,0.0,0.0,0.0,0.0,0.0,0.0,0.0,-1.882999385527384e-05,0.00011322842990324489,7.951643571703707e-06,2.8822327147182136e-05,2.4300416310629736e-05,-3.196355108592286e-06,1.8981945008045287e-06,-0.0003094006028062704,0.00015502032727083618,0.00023276112379494836,-0.0001968047402411142,-0.00023361086198121515,-0.00016696744830085219,0.00029593782462775076,0.24825400114059448,19.717248916625977,0.2721221148967743,-20.007356643676758,-0.5642600655555725,-2.4630770683288574,0.23471395671367645,0
53,0.25995874404907227,-0.24825400114059448,-19.717248916625977,-0.2721221148967743,20.007356643676758,0.5642600655555725,2.4630770683288574,-0.23471395671367645,0.0,0.0,0.0,0.0,0.0,0.0,0.0,-0.23154533200467695,0.020252147302669565,-0.09913999966753709,0.22922022413421603,-0.017967181064906988,0.09698116841937517,-0.24401740998287322,1.2134602237626126,-0.22035646001916173,-0.007519780238390925,-2.6038772045269347,-0.1089082275032997,2.468185322135426,0.8264730100567382,1.2134413937687574,-0.2202432315892585,-0.0075118285948192216,-2.6038483821997875,-0.10888392708698907,2.4681821257803174,0.826474908251239,0.0003094006028062704,-0.00015502032727083618,-0.00023276112379494836,0.0001968047402411142,0.00023361086198121515,0.00016696744830085219,-0.00029593782462775076,0.0,0.0,0.0,0.0,0.0,0.0,0.0,-1.882999385527384e-05,0.00011322842990324489,7.951643571703707e-06,2.8822327147182136e-05,2.4300416310629736e-05,-3.196355108592286e-06,1.8981945008045287e-06,-0.0003094006028062704,0.00015502032727083618,0.00023276112379494836,-0.0001968047402411142,-0.00023361086198121515,-0.00016696744830085219,0.00029593782462775076,0.24825400114059448,19.717248916625977,0.2721221148967743,-20.007356643676758,-0.5642600655555725,-2.4630770683288574,0.23471395671367645,0
54,0.2649662494659424,-0.24825400114059448,-19.745019912719727,-0.2998931109905243,19.983552932739258,0.5642600655555725,2.4758944511413574,-0.26858848333358765,0.0,0.0,0.0,0.0,0.0,0.0,0.0,-0.23557417550070148,0.032236891214504196,-0.09833784090642496,0.22164827470535373,-0.017437794179907495,0.09559727535532471,-0.2446757228771044,1.213460223871629,-0.22035451117733065,-0.007517752777526787,-2.6038777308290046,-0.1089082275032997,2.468186134515083,0.8264796793208594,1.2134413937687574,-0.2202432315892585,-0.0075118285948192216,-2.6038483821997875,-0.10888392708698907,2.4681821257803174,0.826474908251239,0.00014521989882106457,0.0009719379999314758,0.0004850063079518751,0.0004375200476406339,0.00015680618213468822,-0.00010278272792008346,0.0008091981446117917,0.0,0.0,0.0,0.0,0.0,0.0,0.0,-1.8830102871625343e-05,0.0001112795880721662,5.9241827075652564e-06,2.9348629217107458e-05,2.4300416310629736e-05,-4.008734765470479e-06,-4.771069620379542e-06,-0.00014521989882106457,-0.0009719379999314758,-0.0004850063079518751,-0.0004375200476406339,-0.00015680618213468822,0.00010278272792008346,-0.0008091981446117917,0.24825400114059448,19.745019912719727,0.2998931109905243,-19.983552932739258,-0.5642600655555725,-2.4758944511413574,0.26858848333358765,0
55,0.26996445655822754,-0.24825400114059448,-19.745019912719727,-0.2998931109905243,19.983552932739258,0.5642600655555725,2.4758944511413574,-0.26858848333358765,0.0,0.0,0.0,0.0,0.0,0.0,0.0,-0.23557417550070148,0.032236891214504196,-0.09833784090642496,0.22164827470535373,-0.017437794179907495,0.09559727535532471,-0.2446757228771044,1.213460223871629,-0.22035451117733065,-0.007517752777526787,-2.6038777308290046,-0.1089082275032997,2.468186134515083,0.8264796793208594,1.2134413937687574,-0.2202432315892585,-0.0075118285948192216,-2.6038483821997875,-0.10888392708698907,2.4681821257803174,0.826474908251239,0.00014521989882106457,0.0009719379999314758,0.0004850063079518751,0.0004375200476406339,0.00015680618213468822,-0.00010278272792008346,0.0008091981446117917,0.0,0.0,0.0,0.0,0.0,0.0,0.0,-1.8830102871625343e-05,0.0001112795880721662,5.9241827075652564e-06,2.9348629217107458e-05,2.4300416310629736e-05,-4.008734765470479e-06,-4.771069620379542e-06,-0.00014521989882106457,-0.0009719379999314758,-0.0004850063079518751,-0.0004375200476406339,-0.00015680618213468822,0.00010278272792008346,-0.0008091981446117917,0.24825400114059448,19.745019912719727,0.2998931109905243,-19.983552932739258,-0.5642600655555725,-2.4758944511413574,0.26858848333358765,0
56,0.2749645709991455,-0.22445029020309448,-19.745019912719727,-0.2998931109905243,19.931978225708008,0.5642600655555725,2.4630770683288574,-0.24844686686992645,0.0,0.0,0.0,0.0,0.0,0.0,0.0,-0.23501268345752355,0.024795898658671357,-0.0959243537150595,0.2260453593796153,-0.016852553257740602,0.0970211324616155,-0.2452244217570051,1.2134586327996175,-0.22035451117733065,-0.007515455743063933,-2.6038741400533034,-0.1089082275032997,2.468184262083231,0.8264745105380632,1.2134413937687574,-0.2202432315892585,-0.0075118285948192216,-2.6038483821997875,-0.10888392708698907,2.4681821257803174,0.826474908251239,1.7014465920068818e-07,0.0005491452226876153,-0.00019873040611986342,0.0017760472051599478,0.00024982446926531107,0.0001613118969920396,0.00022923447654854345,0.0,0.0,0.0,0.0,0.0,0.0,0.0,-1.7239030860149995e-05,0.0001112795880721662,3.6271482447116157e-06,2.575785351588422e-05,2.4300416310629736e-05,-2.136302913680055e-06,3.9771317583703336e-07,-1.7014465920068818e-07,-0.0005491452226876153,0.00019873040611986342,-0.0017760472051599478,-0.00024982446926531107,-0.0001613118969920396,-0.00022923447654854345,0.22445029020309448,19.745019912719727,0.2998931109905243,-19.931978225708008,-0.5642600655555725,-2.4630770683288574,0.24844686686992645,0
57,0.2799689769744873,-0.22445029020309448,-19.745019912719727,-0.2998931109905243,19.931978225708008,0.5642600655555725,2.4630770683288574,-0.24844686686992645,0.0,0.0,0.0,0.0,0.0,0.0,0.0,-0.23501268345752355,0.024795898658671357,-0.0959243537150595,0.2260453593796153,-0.016852553257740602,0.0970211324616155,-0.2452244217570051,1.2134586327996175,-0.22035451117733065,-0.007515455743063933,-2.6038741400533034,-0.1089082275032997,2.468184262083231,0.8264745105380632,1.2134413937687574,-0.2202432315892585,-0.0075118285948192216,-2.6038483821997875,-0.10888392708698907,2.4681821257803174,0.826474908251239,1.7014465920068818e-07,0.0005491452226876153,-0.00019873040611986342,0.0017760472051599478,0.00024982446926531107,0.0001613118969920396,0.00022923447654854345,0.0,0.0,0.0,0.0,0.0,0.0,0.0,-1.7239030860149995e-05,0.0001112795880721662,3.6271482447116157e-06,2.575785351588422e-05,2.4300416310629736e-05,-2.136302913680055e-06,3.9771317583703336e-07,-1.7014465920068818e-07,-0.0005491452226876153,0.00019873040611986342,-0.0017760472051599478,-0.00024982446926531107,-0.0001613118969920396,-0.00022923447654854345,0.22445029020309448,19.745019912719727,0.2998931109905243,-19.931978225708008,-0.5642600655555725,-2.4630770683288574,0.24844686686992645,0
58,0.28496599197387695,-0.22445029020309448,-19.717248916625977,-0.2721221148967743,20.031160354614258,0.5697532296180725,2.4694857597351074,-0.25485557317733765,0.0,0.0,0.0,0.0,0.0,0.0,0.0,-0.23071545176752034,0.023923080697844858,-0.09581098585087221,0.22717760357320768,-0.01676062496953691,0.09737860428793786,-0.24496575272338877,1.2134587917457849,-0.2203563812821619,-0.0075190704745356236,-2.603878874623628,-0.1089088378548622,2.4681867290098576,0.8264763869475794,1.2134413937687574,-0.2202432315892585,-0.0075118285948192216,-2.6038483821997875,-0.10888392708698907,2.4681821257803174,0.826474908251239,8.742905320628857e-05,-3.09512491310514e-06,-0.0006986920096682447,-0.00030962460054197703,-1.9266039684742893e-05,2.6867429894840804e-05,3.9030386370923845e-05,0.0,0.0,0.0,0.0,0.0,0.0,0.0,-1.739797702748902e-05,0.00011314969290340815,7.241879716402e-06,3.049242384056683e-05,2.491076787312918e-05,-4.603229540212084e-06,-1.4786963403734532e-06,-8.742905320628857e-05,3.09512491310514e-06,0.0006986920096682447,0.00030962460054197703,1.9266039684742893e-05,-2.6867429894840804e-05,-3.9030386370923845e-05,0.22445029020309448,19.717248916625977,0.2721221148967743,-20.031160354614258,-0.5697532296180725,-2.4694857597351074,0.25485557317733765,0
59,0.2899644374847412,-0.22445029020309448,-19.717248916625977,-0.2721221148967743,20.031160354614258,0.5697532296180725,2.4694857597351074,-0.25485557317733765,0.0,0.0,0.0,0.0,0.0,0.0,0.0,-0.23071545176752034,0.023923080697844858,-0.09581098585087221,0.22717760357320768,-0.01676062496953691,0.09737860428793786,-0.24496575272338877,1.2134587917457849,-0.2203563812821619,-0.0075190704745356236,-2.603878874623628,-0.1089088378548622,2.4681867290098576,0.8264763869475794,1.2134413937687574,-0.2202432315892585,-0.0075118285948192216,-2.6038483821997875,-0.10888392708698907,2.4681821257803174,0.826474908251239,8.742905320628857e-05,-3.09512491310514e-06,-0.0006986920096682447,-0.00030962460054197703,-1.9266039684742893e-05,2.6867429894840804e-05,3.9030386370923845e-05,0.0,0.0,0.0,0.0,0.0,0.0,0.0,-1.739797702748902e-05,0.00011314969290340815,7.241879716402e-06,3.049242384056683e-05,2.491076787312918e-05,-4.603229540212084e-06,-1.4786963403734532e-06,-8.742905320628857e-05,3.09512491310514e-06,0.0006986920096682447,0.00030962460054197703,1.9266039684742893e-05,-2.6867429894840804e-05,-3.9030386370923845e-05,0.22445029020309448,19.717248916625977,0.2721221148967743,-20.031160354614258,-0.5697532296180725,-2.4694857597351074,0.25485557317733765,0
60,0.2949814796447754,-0.22445029020309448,-19.717248916625977,-0.2998931109905243,20.007356643676758,0.5642600655555725,2.4758944511413574,-0.22098104655742645,0.0,0.0,0.0,0.0,0.0,0.0,0.0,-0.22847078846090438,0.01975157692670753,-0.09323678898480633,0.22487099142034728,-0.017316192652156656,0.09695771430683611,-0.24619964147678783,1.213458553328103,-0.22035362548672136,-0.007515461584646809,-2.6038794297544428,-0.1089082275032997,2.468183191087796,0.8264746368771388,1.2134413937687574,-0.2202432315892585,-0.0075118285948192216,-2.6038483821997875,-0.10888392708698907,2.4681821257803174,0.826474908251239,6.170005625520142e-05,-0.00042598292284890026,0.0003561539993088793,-2.778551159415901e-05,0.0004855923628211019,-0.0003503233173001704,-0.0007755646325287416,0.0,0.0,0.0,0.0,0.0,0.0,0.0,-1.7159559345669706e-05,0.00011039389746286821,3.632989827587023e-06,3.1047554655216913e-05,2.4300416310629736e-05,-1.0653074786759476e-06,2.713741001914016e-07,-6.170005625520142e-05,0.00042598292284890026,-0.0003561539993088793,2.778551159415901e-05,-0.0004855923628211019,0.0003503233173001704,0.0007755646325287416,0.22445029020309448,19.717248916625977,0.2998931109905243,-20.007356643676758,-0.5642600655555725,-2.4758944511413574,0.22098104655742645,0
61,0.2999703884124756,-0.22445029020309448,-19.717248916625977,-0.2998931109905243,20.007356643676758,0.5642600655555725,2.4758944511413574,-0.22098104655742645,0.0,0.0,0.0,0.0,0.0,0.0,0.0,-0.22847078846090438,0.01975157692670753,-0.09323678898480633,0.22487099142034728,-0.017316192652156656,0.09695771430683611,-0.24619964147678783,1.213458553328103,-0.22035362548672136,-0.007515461584646809,-2.6038794297544428,-0.1089082275032997,2.468183191087796,0.8264746368771388,1.2134413937687574,-0.2202432315892585,-0.0075118285948192216,-2.6038483821997875,-0.10888392708698907,2.4681821257803174,0.826474908251239,6.170005625520142e-05,-0.00042598292284890026,0.0003561539993088793,-2.778551159415901e-05,0.0004855923628211019,-0.0003503233173001704,-0.0007755646325287416,0.0,0.0,0.0,0.0,0.0,0.0,0.0,-1.7159559345669706e-05,0.00011039389746286821,3.632989827587023e-06,3.1047554655216913e-05,2.4300416310629736e-05,-1.0653074786759476e-06,2.713741001914016e-07,-6.170005625520142e-05,0.00042598292284890026,-0.0003561539993088793,2.778551159415901e-05,-0.0004855923628211019,0.0003503233173001704,0.0007755646325287416,0.22445029020309448,19.717248916625977,0.2998931109905243,-20.007356643676758,-0.5642600655555725,-2.4758944511413574,0.22098104655742645,0
62,0.3049650192260742,-0.22445029020309448,-19.717248916625977,-0.2998931109905243,20.007356643676758,0.5578513741493225,2.4630770683288574,-0.26217979192733765,0.0,0.0,0.0,0.0,0.0,0.0,0.0,-0.23042583878747658,0.0235784858761031,-0.09637300550052724,0.22394360751174128,-0.01696872327485383,0.09582727263129293,-0.24607651213831574,1.2134592685824945,-0.22035645125460523,-0.007515700252058786,-2.603879429767006,-0.10890751542647678,2.4681885011036497,0.8264789784057189,1.2134413937687574,-0.2202432315892585,-0.0075118285948192216,-2.6038483821997875,-0.10888392708698907,2.4681821257803174,0.826474908251239,0.00022087228598828787,-0.00036059111477380055,0.00033980865958794317,-4.395226241509859e-05,-0.006804389222511164,9.27521882710315e-05,0.0009247453923214385,0.0,0.0,0.0,0.0,0.0,0.0,0.0,-1.7874813737162043e-05,0.00011321966534674766,3.8716572395647644e-06,3.104756721850066e-05,2.3588339487706778e-05,-6.3753233323637915e-06,-4.070154479896004e-06,-0.00022087228598828787,0.00036059111477380055,-0.00033980865958794317,4.395226241509859e-05,0.006804389222511164,-9.27521882710315e-05,-0.0009247453923214385,0.22445029020309448,19.717248916625977,0.2998931109905243,-20.007356643676758,-0.5578513741493225,-2.4630770683288574,0.26217979192733765,0
63,0.3099653720855713,-0.22445029020309448,-19.717248916625977,-0.2998931109905243,20.007356643676758,0.5578513741493225,2.4630770683288574,-0.26217979192733765,0.0,0.0,0.0,0.0,0.0,0.0,0.0,-0.23042583878747658,0.0235784858761031,-0.09637300550052724,0.22394360751174128,-0.01696872327485383,0.09582727263129293,-0.24607651213831574,1.2134592685824945,-0.22035645125460523,-0.007515700252058786,-2.603879429767006,-0.10890751542647678,2.4681885011036497,0.8264789784057189,1.2134413937687574,-0.2202432315892585,-0.0075118285948192216,-2.6038483821997875,-0.10888392708698907,2.4681821257803174,0.826474908251239,0.00022087228598828787,-0.00036059111477380055,0.00033980865958794317,-4.395226241509859e-05,-0.006804389222511164,9.27521882710315e-05,0.0009247453923214385,0.0,0.0,0.0,0.0,0.0,0.0,0.0,-1.7874813737162043e-05,0.00011321966534674766,3.8716572395647644e-06,3.104756721850066e-05,2.3588339487706778e-05,-6.3753233323637915e-06,-4.070154479896004e-06,-0.00022087228598828787,0.00036059111477380055,-0.00033980865958794317,4.395226241509859e-05,0.006804389222511164,-9.27521882710315e-05,-0.0009247453923214385,0.22445029020309448,19.717248916625977,0.2998931109905243,-20.007356643676758,-0.5578513741493225,-2.4630770683288574,0.26217979192733765,0
64,0.31496405601501465,-0.2720577120780945,-19.745019912719727,-0.2998931109905243,20.007356643676758,0.5642600655555725,2.4630770683288574,-0.26858848333358765,0.0,0.0,0.0,0.0,0.0,0.0,0.0,-0.23635505163361767,0.025725014578087662,-0.10453143272928432,0.22594407688320367,-0.016731250841975517,0.09526470965118303,-0.24547599582538374,1.2134618942025055,-0.22035451117728116,-0.007517595090886935,-2.6038793473507074,-0.10891142083054689,2.468184262034716,0.8264768475522686,1.2134413937687574,-0.2202432315892585,-0.0075118285948192216,-2.6038483821997875,-0.10888392708698907,2.4681821257803174,0.826474908251239,0.00036060710202205724,0.0011943644695678094,0.00014442574336753954,-2.9428898042406708e-05,-0.00021762856394027201,5.585672634089383e-05,0.001219156836561632,0.0,0.0,0.0,0.0,0.0,0.0,0.0,-2.0500433748127378e-05,0.00011127958802267801,5.766496067713747e-06,3.09651509198261e-05,2.7493743557815975e-05,-2.1362543987102356e-06,-1.939301029540985e-06,-0.00036060710202205724,-0.0011943644695678094,-0.00014442574336753954,2.9428898042406708e-05,0.00021762856394027201,-5.585672634089383e-05,-0.001219156836561632,0.2720577120780945,19.745019912719727,0.2998931109905243,-20.007356643676758,-0.5642600655555725,-2.4630770683288574,0.26858848333358765,0
65,0.31996846199035645,-0.2720577120780945,-19.745019912719727,-0.2998931109905243,20.007356643676758,0.5642600655555725,2.4630770683288574,-0.26858848333358765,0.0,0.0,0.0,0.0,0.0,0.0,0.0,-0.23635505163361767,0.025725014578087662,-0.10453143272928432,0.22594407688320367,-0.016731250841975517,0.09526470965118303,-0.24547599582538374,1.2134618942025055,-0.22035451117728116,-0.007517595090886935,-2.6038793473507074,-0.10891142083054689,2.468184262034716,0.8264768475522686,1.2134413937687574,-0.2202432315892585,-0.0075118285948192216,-2.6038483821997875,-0.10888392708698907,2.4681821257803174,0.826474908251239,0.00036060710202205724,0.0011943644695678094,0.00014442574336753954,-2.9428898042406708e-05,-0.00021762856394027201,5.585672634089383e-05,0.001219156836561632,0.0,0.0,0.0,0.0,0.0,0.0,0.0,-2.0500433748127378e-05,0.00011127958802267801,5.766496067713747e-06,3.09651509198261e-05,2.7493743557815975e-05,-2.1362543987102356e-06,-1.939301029540985e-06,-0.00036060710202205724,-0.0011943644695678094,-0.00014442574336753954,2.9428898042406708e-05,0.00021762856394027201,-5.585672634089383e-05,-0.001219156836561632,0.2720577120780945,19.745019912719727,0.2998931109905243,-20.007356643676758,-0.5642600655555725,-2.4630770683288574,0.26858848333358765,0
66,0.32496213912963867,-0.22445029020309448,-19.693445205688477,-0.3236968219280243,20.007356643676758,0.5642600655555725,2.4630770683288574,-0.26217979192733765,0.0,0.0,0.0,0.0,0.0,0.0,0.0,-0.2330490247449844,0.025694137617919548,-0.09643470891605689,0.22507915760989292,-0.018087531127362517,0.09450130819682694,-0.24511866962751885,1.2134586327996169,-0.22035813002298962,-0.007515451208925901,-2.6038786866632035,-0.10890822752132613,2.4681842620107863,0.8264802624115568,1.2134413937687574,-0.2202432315892585,-0.0075118285948192216,-2.6038483821997875,-0.10888392708698907,2.4681821257803174,0.826474908251239,-0.00035232871343651186,-0.00019630359697482208,0.0007259036898399204,-0.0003563381554694172,0.00010873316277842737,0.00021899154667906639,0.0005147753981243991,0.0,0.0,0.0,0.0,0.0,0.0,0.0,-1.723903085948386e-05,0.0001148984337311365,3.622614106679571e-06,3.0304463416008787e-05,2.430043433705731e-05,-2.136230468963163e-06,-5.354160317772028e-06,0.00035232871343651186,0.00019630359697482208,-0.0007259036898399204,0.0003563381554694172,-0.00010873316277842737,-0.00021899154667906639,-0.0005147753981243991,0.22445029020309448,19.693445205688477,0.3236968219280243,-20.007356643676758,-0.5642600655555725,-2.4630770683288574,0.26217979192733765,0
67,0.32996225357055664,-0.22445029020309448,-19.693445205688477,-0.3236968219280243,20.007356643676758,0.5642600655555725,2.4630770683288574,-0.26217979192733765,0.0,0.0,0.0,0.0,0.0,0.0,0.0,-0.2330490247449844,0.025694137617919548,-0.09643470891605689,0.22507915760989292,-0.018087531127362517,0.09450130819682694,-0.24511866962751885,1.2134586327996169,-0.22035813002298962,-0.007515451208925901,-2.6038786866632035,-0.10890822752132613,2.4681842620107863,0.8264802624115568,1.2134413937687574,-0.2202432315892585,-0.0075118285948192216,-2.6038483821997875,-0.10888392708698907,2.4681821257803174,0.826474908251239,-0.00035232871343651186,-0.00019630359697482208,0.0007259036898399204,-0.0003563381554694172,0.00010873316277842737,0.00021899154667906639,0.0005147753981243991,0.0,0.0,0.0,0.0,0.0,0.0,0.0,-1.723903085948386e-05,0.0001148984337311365,3.622614106679571e-06,3.0304463416008787e-05,2.430043433705731e-05,-2.136230468963163e-06,-5.354160317772028e-06,0.00035232871343651186,0.00019630359697482208,-0.0007259036898399204,0.0003563381554694172,-0.00010873316277842737,-0.00021899154667906639,-0.0005147753981243991,0.22445029020309448,19.693445205688477,0.3236968219280243,-20.007356643676758,-0.5642600655555725,-2.4630770683288574,0.26217979192733765,0
68,0.3349616527557373,-0.22445029020309448,-19.669641494750977,-0.2721221148967743,19.983552932739258,0.5761619210243225,2.4823031425476074,-0.21457235515117645,0.0,0.0,0.0,0.0,0.0,0.0,0.0,-0.23230864807349588,0.025687889303876933,-0.09612486174834835,0.22683652202770307,-0.018217559041287835,0.09475732133127994,-0.24502308194488145,1.2134585621575236,-0.22035979981080128,-0.007516939928329825,-2.603877759213902,-0.10890954993168521,2.4681821257803174,0.8264739130815267,1.2134413937687574,-0.2202432315892585,-0.0075118285948192216,-2.6038483821997875,-0.10888392708698907,2.4681821257803174,0.826474908251239,-0.00015602280917446245,-0.0008276412615166224,-0.00041027997086580306,0.00020724146576230282,-0.00025289360134059615,-0.0005106304745752893,-0.0008750825539281541,0.0,0.0,0.0,0.0,0.0,0.0,0.0,-1.716838876619775e-05,0.00011656822154279545,5.1113335106031665e-06,2.937701411465099e-05,2.5622844696135405e-05,0.0,9.95169712303401e-07,0.00015602280917446245,0.0008276412615166224,0.00041027997086580306,-0.00020724146576230282,0.00025289360134059615,0.0005106304745752893,0.0008750825539281541,0.22445029020309448,19.669641494750977,0.2721221148967743,-19.983552932739258,-0.5761619210243225,-2.4823031425476074,0.21457235515117645,0
69,0.33996057510375977,-0.22445029020309448,-19.669641494750977,-0.2721221148967743,19.983552932739258,0.5761619210243225,2.4823031425476074,-0.21457235515117645,0.0,0.0,0.0,0.0,0.0,0.0,0.0,-0.23230864807349588,0.025687889303876933,-0.09612486174834835,0.22683652202770307,-0.018217559041287835,0.09475732133127994,-0.24502308194488145,1.2134585621575236,-0.22035979981080128,-0.007516939928329825,-2.603877759213902,-0.10890954993168521,2.4681821257803174,0.8264739130815267,1.2134413937687574,-0.2202432315892585,-0.0075118285948192216,-2.6038483821997875,-0.10888392708698907,2.4681821257803174,0.826474908251239,-0.00015602280917446245,-0.0008276412615166224,-0.00041027997086580306,0.00020724146576230282,-0.00025289360134059615,-0.0005106304745752893,-0.0008750825539281541,0.0,0.0,0.0,0.0,0.0,0.0,0.0,-1.716838876619775e-05,0.00011656822154279545,5.1113335106031665e-06,2.937701411465099e-05,2.5622844696135405e-05,0.0,9.95169712303401e-07,0.00015602280917446245,0.0008276412615166224,0.00041027997086580306,-0.00020724146576230282,0.00025289360134059615,0.0005106304745752893,0.0008750825539281541,0.22445029020309448,19.669641494750977,0.2721221148967743,-19.983552932739258,-0.5761619210243225,-2.4823031425476074,0.21457235515117645,0
70,0.3449559211730957,-0.22445029020309448,-19.717248916625977,-0.2721221148967743,20.007356643676758,0.5761619210243225,2.4630770683288574,-0.24844686686992645,0.0,0.0,0.0,0.0,0.0,0.0,0.0,-0.2323689714987094,0.016345121329340417,-0.09631290504557528,0.23498497456886466,-0.017450007878076462,0.09671393096135375,-0.24433170809402044,1.2134585533268072,-0.22035645872307338,-0.007517615030631812,-2.6038791825181087,-0.10890954993168511,2.4681853216489156,0.8264785388654764,1.2134413937687574,-0.2202432315892585,-0.0075118285948192216,-2.6038483821997875,-0.10888392708698907,2.4681821257803174,0.826474908251239,-0.0003599956775969329,-0.0005051676955668425,-0.00026863069870726995,0.00039051126967240487,-0.0003280625277448019,0.0001456310344424817,0.0004904992119671905,0.0,0.0,0.0,0.0,0.0,0.0,0.0,-1.715955804981739e-05,0.00011322713381489713,5.786435812590689e-06,3.0800318321144715e-05,2.562284469603826e-05,-3.195868598204754e-06,-3.630614237359886e-06,0.0003599956775969329,0.0005051676955668425,0.00026863069870726995,-0.00039051126967240487,0.0003280625277448019,-0.0001456310344424817,-0.0004904992119671905,0.22445029020309448,19.717248916625977,0.2721221148967743,-20.007356643676758,-0.5761619210243225,-2.4630770683288574,0.24844686686992645,0
71,0.34996724128723145,-0.22445029020309448,-19.717248916625977,-0.2721221148967743,20.007356643676758,0.5761619210243225,2.4630770683288574,-0.24844686686992645,0.0,0.0,0.0,0.0,0.0,0.0,0.0,-0.2323689714987094,0.016345121329340417,-0.09631290504557528,0.23498497456886466,-0.017450007878076462,0.09671393096135375,-0.24433170809402044,1.2134585533268072,-0.22035645872307338,-0.007517615030631812,-2.6038791825181087,-0.10890954993168511,2.4681853216489156,0.8264785388654764,1.2134413937687574,-0.2202432315892585,-0.0075118285948192216,-2.6038483821997875,-0.10888392708698907,2.4681821257803174,0.826474908251239,-0.0003599956775969329,-0.0005051676955668425,-0.00026863069870726995,0.00039051126967240487,-0.0003280625277448019,0.0001456310344424817,0.0004904992119671905,0.0,0.0,0.0,0.0,0.0,0.0,0.0,-1.715955804981739e-05,0.00011322713381489713,5.786435812590689e-06,3.0800318321144715e-05,2.562284469603826e-05,-3.195868598204754e-06,-3.630614237359886e-06,0.0003599956775969329,0.0005051676955668425,0.00026863069870726995,-0.00039051126967240487,0.0003280625277448019,-0.0001456310344424817,-0.0004904992119671905,0.22445029020309448,19.717248916625977,0.2721221148967743,-20.007356643676758,-0.5761619210243225,-2.4630770683288574,0.24844686686992645,0
72,0.35495471954345703,-0.22445029020309448,-19.717248916625977,-0.2721221148967743,20.007356643676758,0.5761619210243225,2.4630770683288574,-0.24844686686992645,0.0,0.0,0.0,0.0,0.0,0.0,0.0,-0.2323689714987094,0.016345121329340417,-0.09631290504557528,0.23498497456886466,-0.017450007878076462,0.09671393096135375,-0.24433170809402044,1.2134585533268072,-0.22035645872307338,-0.007517615030631812,-2.6038791825181087,-0.10890954993168511,2.4681853216489156,0.8264785388654764,1.2134413937687574,-0.2202432315892585,-0.0075118285948192216,-2.6038483821997875,-0.10888392708698907,2.4681821257803174,0.826474908251239,-0.0003599956775969329,-0.0005051676955668425,-0.00026863069870726995,0.00039051126967240487,-0.0003280625277448019,0.0001456310344424817,0.0004904992119671905,0.0,0.0,0.0,0.0,0.0,0.0,0.0,-1.715955804981739e-05,0.00011322713381489713,5.786435812590689e-06,3.0800318321144715e-05,2.562284469603826e-05,-3.195868598204754e-06,-3.630614237359886e-06,0.0003599956775969329,0.0005051676955668425,0.00026863069870726995,-0.00039051126967240487,0.0003280625277448019,-0.0001456310344424817,-0.0004904992119671905,0.22445029020309448,19.717248916625977,0.2721221148967743,-20.007356643676758,-0.5761619210243225,-2.4630770683288574,0.24844686686992645,0
73,0.35996532440185547,-0.22445029020309448,-19.717248916625977,-0.2721221148967743,20.007356643676758,0.5761619210243225,2.4630770683288574,-0.24844686686992645,0.0,0.0,0.0,0.0,0.0,0.0,0.0,-0.2323689714987094,0.016345121329340417,-0.09631290504557528,0.23498497456886466,-0.017450007878076462,0.09671393096135375,-0.24433170809402044,1.2134585533268072,-0.22035645872307338,-0.007517615030631812,-2.6038791825181087,-0.10890954993168511,2.4681853216489156,0.8264785388654764,1.2134413937687574,-0.2202432315892585,-0.0075118285948192216,-2.6038483821997875,-0.10888392708698907,2.4681821257803174,0.826474908251239,-0.0003599956775969329,-0.0005051676955668425,-0.00026863069870726995,0.00039051126967240487,-0.0003280625277448019,0.0001456310344424817,0.0004904992119671905,0.0,0.0,0.0,0.0,0.0,0.0,0.0,-1.715955804981739e-05,0.00011322713381489713,5.786435812590689e-06,3.0800318321144715e-05,2.562284469603826e-05,-3.195868598204754e-06,-3.630614237359886e-06,0.0003599956775969329,0.0005051676955668425,0.00026863069870726995,-0.00039051126967240487,0.0003280625277448019,-0.0001456310344424817,-0.0004904992119671905,0.22445029020309448,19.717248916625977,0.2721221148967743,-20.007356643676758,-0.5761619210243225,-2.4630770683288574,0.24844686686992645,0
74,0.36496806144714355,-0.24825400114059448,-19.745019912719727,-0.3236968219280243,19.983552932739258,0.5816550850868225,2.4758944511413574,-0.25485557317733765,0.0,0.0,0.0,0.0,0.0,0.0,0.0,-0.2297691792901869,0.02096411794841022,-0.09245099860677274,0.2283415131437069,-0.017495079043233056,0.09559791589579128,-0.24302216176555272,1.2134602237626126,-0.22035427496632368,-0.007513688742282227,-2.6038777592167013,-0.10891016174361137,2.468182855305725,0.826475217293053,1.2134413937687574,-0.2202432315892585,-0.0075118285948192216,-2.6038483821997875,-0.10888392708698907,2.4681821257803174,0.826474908251239,0.0008173735747850425,0.000200287383571859,0.000914877974014911,0.00033142842348137837,-0.0005741909420167668,-0.0003205873244546039,0.0005658791480247326,0.0,0.0,0.0,0.0,0.0,0.0,0.0,-1.882999385527384e-05,0.00011104337706518974,1.8601474630055778e-06,2.937701691374528e-05,2.623465662229818e-05,-7.295254076389313e-07,-3.090418139173323e-07,-0.0008173735747850425,-0.000200287383571859,-0.000914877974014911,-0.00033142842348137837,0.0005741909420167668,0.0003205873244546039,-0.0005658791480247326,0.24825400114059448,19.745019912719727,0.3236968219280243,-19.983552932739258,-0.5816550850868225,-2.4758944511413574,0.25485557317733765,0
75,0.3699817657470703,-0.24825400114059448,-19.745019912719727,-0.3236968219280243,19.983552932739258,0.5816550850868225,2.4758944511413574,-0.25485557317733765,0.0,0.0,0.0,0.0,0.0,0.0,0.0,-0.2297691792901869,0.02096411794841022,-0.09245099860677274,0.2283415131437069,-0.017495079043233056,0.09559791589579128,-0.24302216176555272,1.2134602237626126,-0.22035427496632368,-0.007513688742282227,-2.6038777592167013,-0.10891016174361137,2.468182855305725,0.826475217293053,1.2134413937687574,-0.2202432315892585,-0.0075118285948192216,-2.6038483821997875,-0.10888392708698907,2.4681821257803174,0.826474908251239,0.0008173735747850425,0.000200287383571859,0.000914877974014911,0.00033142842348137837,-0.0005741909420167668,-0.0003205873244546039,0.0005658791480247326,0.0,0.0,0.0,0.0,0.0,0.0,0.0,-1.882999385527384e-05,0.00011104337706518974,1.8601474630055778e-06,2.937701691374528e-05,2.623465662229818e-05,-7.295254076389313e-07,-3.090418139173323e-07,-0.0008173735747850425,-0.000200287383571859,-0.000914877974014911,-0.00033142842348137837,0.0005741909420167668,0.0003205873244546039,-0.0005658791480247326,0.24825400114059448,19.745019912719727,0.3236968219280243,-19.983552932739258,-0.5816550850868225,-2.4758944511413574,0.25485557317733765,0
76,0.3749685287475586,-0.24825400114059448,-19.745019912719727,-0.3236968219280243,19.983552932739258,0.5816550850868225,2.4758944511413574,-0.25485557317733765,0.0,0.0,0.0,0.0,0.0,0.0,0.0,-0.2297691792901869,0.02096411794841022,-0.09245099860677274,0.2283415131437069,-0.017495079043233056,0.09559791589579128,-0.24302216176555272,1.2134602237626126,-0.22035427496632368,-0.007513688742282227,-2.6038777592167013,-0.10891016174361137,2.468182855305725,0.826475217293053,1.2134413937687574,-0.2202432315892585,-0.0075118285948192216,-2.6038483821997875,-0.10888392708698907,2.4681821257803174,0.826474908251239,0.0008173735747850425,0.000200287383571859,0.000914877974014911,0.00033142842348137837,-0.0005741909420167668,-0.0003205873244546039,0.0005658791480247326,0.0,0.0,0.0,0.0,0.0,0.0,0.0,-1.882999385527384e-05,0.00011104337706518974,1.8601474630055778e-06,2.937701691374528e-05,2.623465662229818e-05,-7.295254076389313e-07,-3.090418139173323e-07,-0.0008173735747850425,-0.000200287383571859,-0.000914877974014911,-0.00033142842348137837,0.0005741909420167668,0.0003205873244546039,-0.0005658791480247326,0.24825400114059448,19.745019912719727,0.3236968219280243,-19.983552932739258,-0.5816550850868225,-2.4758944511413574,0.25485557317733765,0
77,0.3799707889556885,-0.24825400114059448,-19.745019912719727,-0.3236968219280243,19.983552932739258,0.5816550850868225,2.4758944511413574,-0.25485557317733765,0.0,0.0,0.0,0.0,0.0,0.0,0.0,-0.2297691792901869,0.02096411794841022,-0.09245099860677274,0.2283415131437069,-0.017495079043233056,0.09559791589579128,-0.24302216176555272,1.2134602237626126,-0.22035427496632368,-0.007513688742282227,-2.6038777592167013,-0.10891016174361137,2.468182855305725,0.826475217293053,1.2134413937687574,-0.2202432315892585,-0.0075118285948192216,-2.6038483821997875,-0.10888392708698907,2.4681821257803174,0.826474908251239,0.0008173735747850425,0.000200287383571859,0.000914877974014911,0.00033142842348137837,-0.0005741909420167668,-0.0003205873244546039,0.0005658791480247326,0.0,0.0,0.0,0.0,0.0,0.0,0.0,-1.882999385527384e-05,0.00011104337706518974,1.8601474630055778e-06,2.937701691374528e-05,2.623465662229818e-05,-7.295254076389313e-07,-3.090418139173323e-07,-0.0008173735747850425,-0.000200287383571859,-0.000914877974014911,-0.00033142842348137837,0.0005741909420167668,0.0003205873244546039,-0.0005658791480247326,0.24825400114059448,19.745019912719727,0.3236968219280243,-19.983552932739258,-0.5816550850868225,-2.4758944511413574,0.25485557317733765,0
78,0.38497281074523926,-0.24825400114059448,-19.745019912719727,-0.3236968219280243,19.983552932739258,0.5816550850868225,2.4758944511413574,-0.25485557317733765,0.0,0.0,0.0,0.0,0.0,0.0,0.0,-0.2297691792901869,0.02096411794841022,-0.09245099860677274,0.2283415131437069,-0.017495079043233056,0.09559791589579128,-0.24302216176555272,1.2134602237626126,-0.22035427496632368,-0.007513688742282227,-2.6038777592167013,-0.10891016174361137,2.468182855305725,0.826475217293053,1.2134413937687574,-0.2202432315892585,-0.0075118285948192216,-2.6038483821997875,-0.10888392708698907,2.4681821257803174,0.826474908251239,0.0008173735747850425,0.000200287383571859,0.000914877974014911,0.00033142842348137837,-0.0005741909420167668,-0.0003205873244546039,0.0005658791480247326,0.0,0.0,0.0,0.0,0.0,0.0,0.0,-1.882999385527384e-05,0.00011104337706518974,1.8601474630055778e-06,2.937701691374528e-05,2.623465662229818e-05,-7.295254076389313e-07,-3.090418139173323e-07,-0.0008173735747850425,-0.000200287383571859,-0.000914877974014911,-0.00033142842348137837,0.0005741909420167668,0.0003205873244546039,-0.0005658791480247326,0.24825400114059448,19.745019912719727,0.3236968219280243,-19.983552932739258,-0.5816550850868225,-2.4758944511413574,0.25485557317733765,0
79,0.3899707794189453,-0.2720577120780945,-19.717248916625977,-0.2998931109905243,19.983552932739258,0.5642600655555725,2.4758944511413574,-0.21457235515117645,0.0,0.0,0.0,0.0,0.0,0.0,0.0,-0.23344006576201393,0.025323666932328945,-0.09803099541705536,0.22490808701047507,-0.01725536178777361,0.09574925657194867,-0.24307307273888534,1.2134619298468374,-0.2203564600191618,-0.007515701226263939,-2.6038755340910273,-0.1089082275032997,2.4681828378571407,0.8264737299322489,1.2134413937687574,-0.2202432315892585,-0.0075118285948192216,-2.6038483821997875,-0.10888392708698907,2.4681821257803174,0.826474908251239,0.0009309660970491724,0.0004209594268782757,4.098842905825754e-05,0.0003423136226612498,5.42935987659052e-05,-0.0002110449296961744,-0.0010125768514494455,0.0,0.0,0.0,0.0,0.0,0.0,0.0,-2.0536078080057862e-05,0.0001132284299033004,3.872631444717077e-06,2.7151891239807213e-05,2.4300416310629736e-05,-7.120768232837804e-07,1.1783189901581892e-06,-0.0009309660970491724,-0.0004209594268782757,-4.098842905825754e-05,-0.0003423136226612498,-5.42935987659052e-05,0.0002110449296961744,0.0010125768514494455,0.2720577120780945,19.717248916625977,0.2998931109905243,-19.983552932739258,-0.5642600655555725,-2.4758944511413574,0.21457235515117645,0
