rezayati/contactInterpretation/dataset/franka_main/labeled_data/link5/c6_5.csv
index,time,tau_J0,tau_J1,tau_J2,tau_J3,tau_J4,tau_J5,tau_J6,tau_J_d0,tau_J_d1,tau_J_d2,tau_J_d3,tau_J_d4,tau_J_d5,tau_J_d6,tau_ext0,tau_ext1,tau_ext2,tau_ext3,tau_ext4,tau_ext5,tau_ext6,q0,q1,q2,q3,q4,q5,q6,q_d0,q_d1,q_d2,q_d3,q_d4,q_d5,q_d6,dq0,dq1,dq2,dq3,dq4,dq5,dq6,dq_d0,dq_d1,dq_d2,dq_d3,dq_d4,dq_d5,dq_d6,e0,e1,e2,e3,e4,e5,e6,de0,de1,de2,de3,de4,de5,de6,etau_J0,etau_J1,etau_J2,etau_J3,etau_J4,etau_J5,etau_J6,label
1,0.0,-0.6568843722343445,-46.34963607788086,-5.536709308624268,19.487642288208008,0.5642600655555725,2.4237093925476074,-0.11844198405742645,0.0,0.0,0.0,0.0,0.0,0.0,0.0,-0.6498007986589706,-0.022844414944208802,-0.38929051579746854,0.2920730099464401,-0.013866063537341823,0.15163827210132666,-0.14479793309556518,0.8780967820778227,0.7551940750211302,-0.28253187917771705,-1.6688775864985952,0.14143756832441448,2.4034451173676383,1.0273392672455972,0.878092876070424,0.7554597494309409,-0.2825552651693207,-1.6690993614607135,0.1414185955172306,2.4034451173676383,1.0273381002308042,-7.3719375334242e-05,-0.00033999696259078547,-0.0007378913015566694,0.0001978086360785346,0.00031288641031069304,-0.0001369659087801424,-0.0017507908538399715,0.0,0.0,0.0,0.0,0.0,0.0,0.0,-3.906007398746247e-06,0.0002656744098106234,-2.3385991603674938e-05,-0.00022177496211828185,-1.897280718388128e-05,0.0,-1.1670147930242791e-06,7.3719375334242e-05,0.00033999696259078547,0.0007378913015566694,-0.0001978086360785346,-0.00031288641031069304,0.0001369659087801424,0.0017507908538399715,0.6568843722343445,46.34963607788086,5.536709308624268,-19.487642288208008,-0.5642600655555725,-2.4237093925476074,0.11844198405742645,0
2,0.0049169063568115234,-0.6568843722343445,-46.32583236694336,-5.588284015655518,19.487642288208008,0.5697532296180725,2.4237093925476074,-0.17978231608867645,0.0,0.0,0.0,0.0,0.0,0.0,0.0,-0.6340502969961251,-0.023250173642308143,-0.37566334762056397,0.29297507007020357,-0.014424526242568049,0.15198503068205363,-0.14542668765569725,0.8780967820778227,0.7551923780944713,-0.2825282861336966,-1.6688783017502948,0.14144003952842055,2.4034451173676383,1.0273460828380452,0.878092876070424,0.7554597494309409,-0.2825552651693207,-1.6690993614607135,0.1414185955172306,2.4034451173676383,1.0273381002308042,0.0006623026632936484,-0.0008090303075063461,0.0008855140810943592,0.0003033853205591782,0.0001195940862016765,-0.0002306578161953447,0.0016272130644056494,0.0,0.0,0.0,0.0,0.0,0.0,0.0,-3.906007398746247e-06,0.00026737133646959066,-2.6979035624097314e-05,-0.00022105971041863626,-2.144401118994721e-05,0.0,-7.982607240997197e-06,-0.0006623026632936484,0.0008090303075063461,-0.0008855140810943592,-0.0003033853205591782,-0.0001195940862016765,0.0002306578161953447,-0.0016272130644056494,0.6568843722343445,46.32583236694336,5.588284015655518,-19.487642288208008,-0.5697532296180725,-2.4237093925476074,0.17978231608867645,0
3,0.009948968887329102,-0.6568843722343445,-46.32583236694336,-5.588284015655518,19.487642288208008,0.5697532296180725,2.4237093925476074,-0.17978231608867645,0.0,0.0,0.0,0.0,0.0,0.0,0.0,-0.6340502969961251,-0.023250173642308143,-0.37566334762056397,0.29297507007020357,-0.014424526242568049,0.15198503068205363,-0.14542668765569725,0.8780967820778227,0.7551923780944713,-0.2825282861336966,-1.6688783017502948,0.14144003952842055,2.4034451173676383,1.0273460828380452,0.878092876070424,0.7554597494309409,-0.2825552651693207,-1.6690993614607135,0.1414185955172306,2.4034451173676383,1.0273381002308042,0.0006623026632936484,-0.0008090303075063461,0.0008855140810943592,0.0003033853205591782,0.0001195940862016765,-0.0002306578161953447,0.0016272130644056494,0.0,0.0,0.0,0.0,0.0,0.0,0.0,-3.906007398746247e-06,0.00026737133646959066,-2.6979035624097314e-05,-0.00022105971041863626,-2.144401118994721e-05,0.0,-7.982607240997197e-06,-0.0006623026632936484,0.0008090303075063461,-0.0008855140810943592,-0.0003033853205591782,-0.0001195940862016765,0.0002306578161953447,-0.0016272130644056494,0.6568843722343445,46.32583236694336,5.588284015655518,-19.487642288208008,-0.5697532296180725,-2.4237093925476074,0.17978231608867645,0
4,0.014951944351196289,-0.6291133761405945,-46.34963607788086,-5.512905597686768,19.487642288208008,0.5761619210243225,2.4108920097351074,-0.11111776530742645,0.0,0.0,0.0,0.0,0.0,0.0,0.0,-0.6475685849671008,-0.02416091134897175,-0.3849582866670603,0.29164181667416517,-0.014213915162332696,0.15202256146620732,-0.14628428003358912,0.8780948332359915,0.755194048530177,-0.2825335496017197,-1.6688781928470804,0.1414361272237552,2.4034465415212845,1.027338453443514,0.878092876070424,0.7554597494309409,-0.2825552651693207,-1.6690993614607135,0.1414185955172306,2.4034451173676383,1.0273381002308042,-0.0008236948730210954,4.602245869396541e-05,-0.0007305110116349245,9.821894170812013e-05,-0.00022261025287702803,0.00023229254373800817,-0.001552994544517872,0.0,0.0,0.0,0.0,0.0,0.0,0.0,-1.957165567501029e-06,0.00026570090076383224,-2.1715567600999464e-05,-0.0002211686136330826,-1.7531706524603896e-05,-1.4241536461234716e-06,-3.532127097471971e-07,0.0008236948730210954,-4.602245869396541e-05,0.0007305110116349245,-9.821894170812013e-05,0.00022261025287702803,-0.00023229254373800817,0.001552994544517872,0.6291133761405945,46.34963607788086,5.512905597686768,-19.487642288208008,-0.5761619210243225,-2.4108920097351074,0.11111776530742645,0
5,0.019953012466430664,-0.6291133761405945,-46.34963607788086,-5.512905597686768,19.487642288208008,0.5761619210243225,2.4108920097351074,-0.11111776530742645,0.0,0.0,0.0,0.0,0.0,0.0,0.0,-0.6475685849671008,-0.02416091134897175,-0.3849582866670603,0.29164181667416517,-0.014213915162332696,0.15202256146620732,-0.14628428003358912,0.8780948332359915,0.755194048530177,-0.2825335496017197,-1.6688781928470804,0.1414361272237552,2.4034465415212845,1.027338453443514,0.878092876070424,0.7554597494309409,-0.2825552651693207,-1.6690993614607135,0.1414185955172306,2.4034451173676383,1.0273381002308042,-0.0008236948730210954,4.602245869396541e-05,-0.0007305110116349245,9.821894170812013e-05,-0.00022261025287702803,0.00023229254373800817,-0.001552994544517872,0.0,0.0,0.0,0.0,0.0,0.0,0.0,-1.957165567501029e-06,0.00026570090076383224,-2.1715567600999464e-05,-0.0002211686136330826,-1.7531706524603896e-05,-1.4241536461234716e-06,-3.532127097471971e-07,0.0008236948730210954,-4.602245869396541e-05,0.0007305110116349245,-9.821894170812013e-05,0.00022261025287702803,-0.00023229254373800817,0.001552994544517872,0.6291133761405945,46.34963607788086,5.512905597686768,-19.487642288208008,-0.5761619210243225,-2.4108920097351074,0.11111776530742645,0
6,0.02495288848876953,-0.6568843722343445,-46.37740707397461,-5.512905597686768,19.511445999145508,0.5761619210243225,2.4237093925476074,-0.16604940593242645,0.0,0.0,0.0,0.0,0.0,0.0,0.0,-0.6442210294778746,-0.03145352944389993,-0.3822493049591322,0.2951396111924652,-0.013802375645209395,0.1522648524647758,-0.1468203139117494,0.8780967820778227,0.7551959973720082,-0.2825335496015716,-1.66887996292319,0.14143616669683307,2.4034451173676383,1.027344556959139,0.878092876070424,0.7554597494309409,-0.2825552651693207,-1.6690993614607135,0.1414185955172306,2.4034451173676383,1.0273381002308042,0.0003749244566328062,0.00039966125557378283,-0.0008866846289332695,6.192852462361657e-05,-2.7191359221181587e-05,-0.00015816253698586473,0.00043407709948437153,0.0,0.0,0.0,0.0,0.0,0.0,0.0,-3.906007398746247e-06,0.00026375205893269804,-2.1715567749103215e-05,-0.00021939853752339644,-1.7571179602465792e-05,0.0,-6.456728334880424e-06,-0.0003749244566328062,-0.00039966125557378283,0.0008866846289332695,-6.192852462361657e-05,2.7191359221181587e-05,0.00015816253698586473,-0.00043407709948437153,0.6568843722343445,46.37740707397461,5.512905597686768,-19.511445999145508,-0.5761619210243225,-2.4237093925476074,0.16604940593242645,0
7,0.02995443344116211,-0.6568843722343445,-46.37740707397461,-5.512905597686768,19.511445999145508,0.5761619210243225,2.4237093925476074,-0.16604940593242645,0.0,0.0,0.0,0.0,0.0,0.0,0.0,-0.6442210294778746,-0.03145352944389993,-0.3822493049591322,0.2951396111924652,-0.013802375645209395,0.1522648524647758,-0.1468203139117494,0.8780967820778227,0.7551959973720082,-0.2825335496015716,-1.66887996292319,0.14143616669683307,2.4034451173676383,1.027344556959139,0.878092876070424,0.7554597494309409,-0.2825552651693207,-1.6690993614607135,0.1414185955172306,2.4034451173676383,1.0273381002308042,0.0003749244566328062,0.00039966125557378283,-0.0008866846289332695,6.192852462361657e-05,-2.7191359221181587e-05,-0.00015816253698586473,0.00043407709948437153,0.0,0.0,0.0,0.0,0.0,0.0,0.0,-3.906007398746247e-06,0.00026375205893269804,-2.1715567749103215e-05,-0.00021939853752339644,-1.7571179602465792e-05,0.0,-6.456728334880424e-06,-0.0003749244566328062,-0.00039966125557378283,0.0008866846289332695,-6.192852462361657e-05,2.7191359221181587e-05,0.00015816253698586473,-0.00043407709948437153,0.6568843722343445,46.37740707397461,5.512905597686768,-19.511445999145508,-0.5761619210243225,-2.4237093925476074,0.16604940593242645,0
8,0.03495597839355469,-0.6291133761405945,-46.34963607788086,-5.512905597686768,19.511445999145508,0.5761619210243225,2.4237093925476074,-0.19351522624492645,0.0,0.0,0.0,0.0,0.0,0.0,0.0,-0.6327319878468898,-0.022225853066097905,-0.37495977327340996,0.2895945451394681,-0.013512763031625175,0.1514808386741881,-0.14570391116362816,0.8780948332359915,0.7551940750211302,-0.2825335496015716,-1.6688777909926362,0.14143648262620187,2.4034451173676383,1.0273476087169515,0.878092876070424,0.7554597494309409,-0.2825552651693207,-1.6690993614607135,0.1414185955172306,2.4034451173676383,1.0273381002308042,0.00024616126497970284,-0.000324523337581338,-0.0006356196967332468,-4.943411444626245e-05,-0.00019116600960900166,-0.0002457837799034675,0.002608858182083325,0.0,0.0,0.0,0.0,0.0,0.0,0.0,-1.957165567501029e-06,0.0002656744098106234,-2.1715567749103215e-05,-0.0002215704680772479,-1.788710897127066e-05,0.0,-9.508486147336015e-06,-0.00024616126497970284,0.000324523337581338,0.0006356196967332468,4.943411444626245e-05,0.00019116600960900166,0.0002457837799034675,-0.002608858182083325,0.6291133761405945,46.34963607788086,5.512905597686768,-19.511445999145508,-0.5761619210243225,-2.4237093925476074,0.19351522624492645,0
9,0.03995919227600098,-0.6291133761405945,-46.34963607788086,-5.512905597686768,19.511445999145508,0.5761619210243225,2.4237093925476074,-0.19351522624492645,0.0,0.0,0.0,0.0,0.0,0.0,0.0,-0.6327319878468898,-0.022225853066097905,-0.37495977327340996,0.2895945451394681,-0.013512763031625175,0.1514808386741881,-0.14570391116362816,0.8780948332359915,0.7551940750211302,-0.2825335496015716,-1.6688777909926362,0.14143648262620187,2.4034451173676383,1.0273476087169515,0.878092876070424,0.7554597494309409,-0.2825552651693207,-1.6690993614607135,0.1414185955172306,2.4034451173676383,1.0273381002308042,0.00024616126497970284,-0.000324523337581338,-0.0006356196967332468,-4.943411444626245e-05,-0.00019116600960900166,-0.0002457837799034675,0.002608858182083325,0.0,0.0,0.0,0.0,0.0,0.0,0.0,-1.957165567501029e-06,0.0002656744098106234,-2.1715567749103215e-05,-0.0002215704680772479,-1.788710897127066e-05,0.0,-9.508486147336015e-06,-0.00024616126497970284,0.000324523337581338,0.0006356196967332468,4.943411444626245e-05,0.00019116600960900166,0.0002457837799034675,-0.002608858182083325,0.6291133761405945,46.34963607788086,5.512905597686768,-19.511445999145508,-0.5761619210243225,-2.4237093925476074,0.19351522624492645,0
10,0.04496884346008301,-0.6053096652030945,-46.34963607788086,-5.564480304718018,19.487642288208008,0.5816550850868225,2.4237093925476074,-0.12485067546367645,0.0,0.0,0.0,0.0,0.0,0.0,0.0,-0.6440603459512487,-0.026262942540989324,-0.385489398540424,0.2903541781109389,-0.013746240440027084,0.15220698268496294,-0.14448745285851178,0.8780931628001363,0.7551940485303265,-0.28253213495988205,-1.6688780633234406,0.1414355168561336,2.4034451173676383,1.0273389196842908,0.878092876070424,0.7554597494309409,-0.2825552651693207,-1.6690993614607135,0.1414185955172306,2.4034451173676383,1.0273381002308042,-0.0005943250182463269,0.00014654751873682825,0.00015779321125570288,0.0005397856875002911,-0.00036954698540543585,-7.544553755100572e-06,-0.0011131434200266916,0.0,0.0,0.0,0.0,0.0,0.0,0.0,-2.8672971230658817e-07,0.0002657009006143962,-2.3130209438670946e-05,-0.00022129813727289616,-1.6921338902992078e-05,0.0,-8.19453486622379e-07,0.0005943250182463269,-0.00014654751873682825,-0.00015779321125570288,-0.0005397856875002911,0.00036954698540543585,7.544553755100572e-06,0.0011131434200266916,0.6053096652030945,46.34963607788086,5.564480304718018,-19.487642288208008,-0.5816550850868225,-2.4237093925476074,0.12485067546367645,0
11,0.04995393753051758,-0.6053096652030945,-46.34963607788086,-5.564480304718018,19.487642288208008,0.5816550850868225,2.4237093925476074,-0.12485067546367645,0.0,0.0,0.0,0.0,0.0,0.0,0.0,-0.6440603459512487,-0.026262942540989324,-0.385489398540424,0.2903541781109389,-0.013746240440027084,0.15220698268496294,-0.14448745285851178,0.8780931628001363,0.7551940485303265,-0.28253213495988205,-1.6688780633234406,0.1414355168561336,2.4034451173676383,1.0273389196842908,0.878092876070424,0.7554597494309409,-0.2825552651693207,-1.6690993614607135,0.1414185955172306,2.4034451173676383,1.0273381002308042,-0.0005943250182463269,0.00014654751873682825,0.00015779321125570288,0.0005397856875002911,-0.00036954698540543585,-7.544553755100572e-06,-0.0011131434200266916,0.0,0.0,0.0,0.0,0.0,0.0,0.0,-2.8672971230658817e-07,0.0002657009006143962,-2.3130209438670946e-05,-0.00022129813727289616,-1.6921338902992078e-05,0.0,-8.19453486622379e-07,0.0005943250182463269,-0.00014654751873682825,-0.00015779321125570288,-0.0005397856875002911,0.00036954698540543585,7.544553755100572e-06,0.0011131434200266916,0.6053096652030945,46.34963607788086,5.564480304718018,-19.487642288208008,-0.5816550850868225,-2.4237093925476074,0.12485067546367645,0
12,0.05495333671569824,-0.6568843722343445,-46.34963607788086,-5.564480304718018,19.511445999145508,0.5697532296180725,2.4237093925476074,-0.17978231608867645,0.0,0.0,0.0,0.0,0.0,0.0,0.0,-0.6306916364177596,-0.0156962902627175,-0.3770819845067026,0.2864381714059682,-0.014338921079866602,0.15175687905147922,-0.1452890734236692,0.8780967820778227,0.755194048530177,-0.2825299303363304,-1.6688778172642633,0.1414379061934403,2.4034451173676383,1.0273460828320635,0.878092876070424,0.7554597494309409,-0.2825552651693207,-1.6690993614607135,0.1414185955172306,2.4034451173676383,1.0273381002308042,0.0008094656031126366,-7.726501332606845e-05,0.0003211926663202422,-0.000428792143680884,0.00012423097667288137,-0.00019250597911501954,0.001377744815825651,0.0,0.0,0.0,0.0,0.0,0.0,0.0,-3.906007398746247e-06,0.00026570090076383224,-2.5334832990331346e-05,-0.0002215441964501519,-1.9310676209693955e-05,0.0,-7.982601259337585e-06,-0.0008094656031126366,7.726501332606845e-05,-0.0003211926663202422,0.000428792143680884,-0.00012423097667288137,0.00019250597911501954,-0.001377744815825651,0.6568843722343445,46.34963607788086,5.564480304718018,-19.511445999145508,-0.5697532296180725,-2.4237093925476074,0.17978231608867645,0
13,0.059953927993774414,-0.6568843722343445,-46.34963607788086,-5.564480304718018,19.511445999145508,0.5697532296180725,2.4237093925476074,-0.17978231608867645,0.0,0.0,0.0,0.0,0.0,0.0,0.0,-0.6306916364177596,-0.0156962902627175,-0.3770819845067026,0.2864381714059682,-0.014338921079866602,0.15175687905147922,-0.1452890734236692,0.8780967820778227,0.755194048530177,-0.2825299303363304,-1.6688778172642633,0.1414379061934403,2.4034451173676383,1.0273460828320635,0.878092876070424,0.7554597494309409,-0.2825552651693207,-1.6690993614607135,0.1414185955172306,2.4034451173676383,1.0273381002308042,0.0008094656031126366,-7.726501332606845e-05,0.0003211926663202422,-0.000428792143680884,0.00012423097667288137,-0.00019250597911501954,0.001377744815825651,0.0,0.0,0.0,0.0,0.0,0.0,0.0,-3.906007398746247e-06,0.00026570090076383224,-2.5334832990331346e-05,-0.0002215441964501519,-1.9310676209693955e-05,0.0,-7.982601259337585e-06,-0.0008094656031126366,7.726501332606845e-05,-0.0003211926663202422,0.000428792143680884,-0.00012423097667288137,0.00019250597911501954,-0.001377744815825651,0.6568843722343445,46.34963607788086,5.564480304718018,-19.511445999145508,-0.5697532296180725,-2.4237093925476074,0.17978231608867645,0
14,0.06495523452758789,-0.6291133761405945,-46.32583236694336,-5.588284015655518,19.487642288208008,0.5761619210243225,2.4108920097351074,-0.13858358561992645,0.0,0.0,0.0,0.0,0.0,0.0,0.0,-0.6393317143417551,-0.031085486257665117,-0.3879331515136127,0.29276958957743093,-0.014086619245413122,0.15251715466908192,-0.14550720947712595,0.8780948332359915,0.7551923784213705,-0.28252825988803,-1.668877557052038,0.14143612737422745,2.4034465415212845,1.0273415052013264,0.878092876070424,0.7554597494309409,-0.2825552651693207,-1.6690993614607135,0.1414185955172306,2.4034451173676383,1.0273381002308042,-0.00040280744500584433,-0.0008695346173653707,0.0005709104646799243,0.00017912853424663648,-0.00015481847657996712,0.00037947658557747676,-7.097134329558399e-05,0.0,0.0,0.0,0.0,0.0,0.0,0.0,-1.957165567501029e-06,0.00026737100957030524,-2.7005281290737315e-05,-0.00022180440867547446,-1.753185699684967e-05,-1.4241536461234716e-06,-3.404970522202788e-06,0.00040280744500584433,0.0008695346173653707,-0.0005709104646799243,-0.00017912853424663648,0.00015481847657996712,-0.00037947658557747676,7.097134329558399e-05,0.6291133761405945,46.32583236694336,5.588284015655518,-19.487642288208008,-0.5761619210243225,-2.4108920097351074,0.13858358561992645,0
15,0.06995463371276855,-0.6291133761405945,-46.32583236694336,-5.588284015655518,19.487642288208008,0.5761619210243225,2.4108920097351074,-0.13858358561992645,0.0,0.0,0.0,0.0,0.0,0.0,0.0,-0.6393317143417551,-0.031085486257665117,-0.3879331515136127,0.29276958957743093,-0.014086619245413122,0.15251715466908192,-0.14550720947712595,0.8780948332359915,0.7551923784213705,-0.28252825988803,-1.668877557052038,0.14143612737422745,2.4034465415212845,1.0273415052013264,0.878092876070424,0.7554597494309409,-0.2825552651693207,-1.6690993614607135,0.1414185955172306,2.4034451173676383,1.0273381002308042,-0.00040280744500584433,-0.0008695346173653707,0.0005709104646799243,0.00017912853424663648,-0.00015481847657996712,0.00037947658557747676,-7.097134329558399e-05,0.0,0.0,0.0,0.0,0.0,0.0,0.0,-1.957165567501029e-06,0.00026737100957030524,-2.7005281290737315e-05,-0.00022180440867547446,-1.753185699684967e-05,-1.4241536461234716e-06,-3.404970522202788e-06,0.00040280744500584433,0.0008695346173653707,-0.0005709104646799243,-0.00017912853424663648,0.00015481847657996712,-0.00037947658557747676,7.097134329558399e-05,0.6291133761405945,46.32583236694336,5.588284015655518,-19.487642288208008,-0.5761619210243225,-2.4108920097351074,0.13858358561992645,0
16,0.0749504566192627,-0.6291133761405945,-46.32583236694336,-5.588284015655518,19.511445999145508,0.5642600655555725,2.4108920097351074,-0.15964071452617645,0.0,0.0,0.0,0.0,0.0,0.0,0.0,-0.633049148208191,-0.011497720068774392,-0.3822420219723473,0.2814278466505038,-0.01450388928441327,0.15128155519417397,-0.14432069266822303,0.8780948332359915,0.7551923780943236,-0.28252825988802993,-1.6688799712048374,0.1414374540219809,2.4034465415212845,1.027343844882316,0.878092876070424,0.7554597494309409,-0.2825552651693207,-1.6690993614607135,0.1414185955172306,2.4034451173676383,1.0273381002308042,-0.00042922098825660124,-0.0003496178815127681,0.0010471396364054473,-0.0007842919542633844,0.00020386575089629928,0.0005007108762962526,0.0004885141385425042,0.0,0.0,0.0,0.0,0.0,0.0,0.0,-1.957165567501029e-06,0.0002673713366172503,-2.7005281290792826e-05,-0.00021939025587602856,-1.8858504750307592e-05,-1.4241536461234716e-06,-5.744651511818688e-06,0.00042922098825660124,0.0003496178815127681,-0.0010471396364054473,0.0007842919542633844,-0.00020386575089629928,-0.0005007108762962526,-0.0004885141385425042,0.6291133761405945,46.32583236694336,5.588284015655518,-19.511445999145508,-0.5642600655555725,-2.4108920097351074,0.15964071452617645,0
17,0.07995367050170898,-0.6291133761405945,-46.32583236694336,-5.588284015655518,19.511445999145508,0.5642600655555725,2.4108920097351074,-0.15964071452617645,0.0,0.0,0.0,0.0,0.0,0.0,0.0,-0.633049148208191,-0.011497720068774392,-0.3822420219723473,0.2814278466505038,-0.01450388928441327,0.15128155519417397,-0.14432069266822303,0.8780948332359915,0.7551923780943236,-0.28252825988802993,-1.6688799712048374,0.1414374540219809,2.4034465415212845,1.027343844882316,0.878092876070424,0.7554597494309409,-0.2825552651693207,-1.6690993614607135,0.1414185955172306,2.4034451173676383,1.0273381002308042,-0.00042922098825660124,-0.0003496178815127681,0.0010471396364054473,-0.0007842919542633844,0.00020386575089629928,0.0005007108762962526,0.0004885141385425042,0.0,0.0,0.0,0.0,0.0,0.0,0.0,-1.957165567501029e-06,0.0002673713366172503,-2.7005281290792826e-05,-0.00021939025587602856,-1.8858504750307592e-05,-1.4241536461234716e-06,-5.744651511818688e-06,0.00042922098825660124,0.0003496178815127681,-0.0010471396364054473,0.0007842919542633844,-0.00020386575089629928,-0.0005007108762962526,-0.0004885141385425042,0.6291133761405945,46.32583236694336,5.588284015655518,-19.511445999145508,-0.5642600655555725,-2.4108920097351074,0.15964071452617645,0
18,0.08495855331420898,-0.6053096652030945,-46.34963607788086,-5.536709308624268,19.459871292114258,0.5642600655555725,2.4173007011413574,-0.15231649577617645,0.0,0.0,0.0,0.0,0.0,0.0,0.0,-0.6286890409115634,-0.022866198921767104,-0.3798006144370144,0.285322180232652,-0.014755779404938536,0.15259189765765585,-0.14518344592450355,0.878092447544399,0.755194048530177,-0.2825318791657163,-1.6688763496420076,0.14143744963409993,2.4034458294444616,1.0273441172093152,0.878092876070424,0.7554597494309409,-0.2825552651693207,-1.6690993614607135,0.1414185955172306,2.4034451173676383,1.0273381002308042,-0.0005785872666842673,-0.00017122822700456726,0.00011076852743188874,0.0007318981248257823,0.00019600510466779355,-7.151372861208004e-07,-0.00022877052562040258,0.0,0.0,0.0,0.0,0.0,0.0,0.0,4.2852602499809933e-07,0.00026570090076383224,-2.338600360440868e-05,-0.00022301181870587605,-1.885411686933236e-05,-7.120768232837804e-07,-6.016978510992033e-06,0.0005785872666842673,0.00017122822700456726,-0.00011076852743188874,-0.0007318981248257823,-0.00019600510466779355,7.151372861208004e-07,0.00022877052562040258,0.6053096652030945,46.34963607788086,5.536709308624268,-19.459871292114258,-0.5642600655555725,-2.4173007011413574,0.15231649577617645,0
19,0.08995842933654785,-0.6053096652030945,-46.34963607788086,-5.536709308624268,19.459871292114258,0.5642600655555725,2.4173007011413574,-0.15231649577617645,0.0,0.0,0.0,0.0,0.0,0.0,0.0,-0.6286890409115634,-0.022866198921767104,-0.3798006144370144,0.285322180232652,-0.014755779404938536,0.15259189765765585,-0.14518344592450355,0.878092447544399,0.755194048530177,-0.2825318791657163,-1.6688763496420076,0.14143744963409993,2.4034458294444616,1.0273441172093152,0.878092876070424,0.7554597494309409,-0.2825552651693207,-1.6690993614607135,0.1414185955172306,2.4034451173676383,1.0273381002308042,-0.0005785872666842673,-0.00017122822700456726,0.00011076852743188874,0.0007318981248257823,0.00019600510466779355,-7.151372861208004e-07,-0.00022877052562040258,0.0,0.0,0.0,0.0,0.0,0.0,0.0,4.2852602499809933e-07,0.00026570090076383224,-2.338600360440868e-05,-0.00022301181870587605,-1.885411686933236e-05,-7.120768232837804e-07,-6.016978510992033e-06,0.0005785872666842673,0.00017122822700456726,-0.00011076852743188874,-0.0007318981248257823,-0.00019600510466779355,7.151372861208004e-07,0.00022877052562040258,0.6053096652030945,46.34963607788086,5.536709308624268,-19.459871292114258,-0.5642600655555725,-2.4173007011413574,0.15231649577617645,0
20,0.09491586685180664,-0.6053096652030945,-46.34963607788086,-5.512905597686768,19.487642288208008,0.5697532296180725,2.4108920097351074,-0.17978231608867645,0.0,0.0,0.0,0.0,0.0,0.0,0.0,-0.6460410307496516,-0.03048951861180309,-0.39122052606519914,0.28828168477934435,-0.014540570832916367,0.15325663414765364,-0.1460813626813099,0.8780931627960987,0.755194048530177,-0.2825335496015716,-1.6688775835551375,0.14143683928251266,2.4034465415212845,1.0273460828441765,0.878092876070424,0.7554597494309409,-0.2825552651693207,-1.6690993614607135,0.1414185955172306,2.4034451173676383,1.0273381002308042,-0.001086003147090624,-9.232985348952741e-05,-0.0008937260852414482,0.0005952157520561438,2.6657525195560614e-05,0.00046445939323394147,0.0015056341403607613,0.0,0.0,0.0,0.0,0.0,0.0,0.0,-2.867256747585145e-07,0.00026570090076383224,-2.1715567749103215e-05,-0.00022177790557598165,-1.8243765282061064e-05,-1.4241536461234716e-06,-7.982613372314873e-06,0.001086003147090624,9.232985348952741e-05,0.0008937260852414482,-0.0005952157520561438,-2.6657525195560614e-05,-0.00046445939323394147,-0.0015056341403607613,0.6053096652030945,46.34963607788086,5.512905597686768,-19.487642288208008,-0.5697532296180725,-2.4108920097351074,0.17978231608867645,0
21,0.10040068626403809,-0.6053096652030945,-46.34963607788086,-5.512905597686768,19.487642288208008,0.5697532296180725,2.4108920097351074,-0.17978231608867645,0.0,0.0,0.0,0.0,0.0,0.0,0.0,-0.6460410307496516,-0.03048951861180309,-0.39122052606519914,0.28828168477934435,-0.014540570832916367,0.15325663414765364,-0.1460813626813099,0.8780931627960987,0.755194048530177,-0.2825335496015716,-1.6688775835551375,0.14143683928251266,2.4034465415212845,1.0273460828441765,0.878092876070424,0.7554597494309409,-0.2825552651693207,-1.6690993614607135,0.1414185955172306,2.4034451173676383,1.0273381002308042,-0.001086003147090624,-9.232985348952741e-05,-0.0008937260852414482,0.0005952157520561438,2.6657525195560614e-05,0.00046445939323394147,0.0015056341403607613,0.0,0.0,0.0,0.0,0.0,0.0,0.0,-2.867256747585145e-07,0.00026570090076383224,-2.1715567749103215e-05,-0.00022177790557598165,-1.8243765282061064e-05,-1.4241536461234716e-06,-7.982613372314873e-06,0.001086003147090624,9.232985348952741e-05,0.0008937260852414482,-0.0005952157520561438,-2.6657525195560614e-05,-0.00046445939323394147,-0.0015056341403607613,0.6053096652030945,46.34963607788086,5.512905597686768,-19.487642288208008,-0.5697532296180725,-2.4108920097351074,0.17978231608867645,0
22,0.104949951171875,-0.6053096652030945,-46.32583236694336,-5.588284015655518,19.487642288208008,0.5697532296180725,2.4237093925476074,-0.12485067546367645,0.0,0.0,0.0,0.0,0.0,0.0,0.0,-0.6403142103630126,-0.020589274678792808,-0.3852962681592502,0.2849815210015387,-0.014913875729094014,0.1524064021325053,-0.14467402229969314,0.8780931628001363,0.755192404585275,-0.2825282599240322,-1.6688783014232293,0.1414400380651156,2.4034451173676383,1.0273399793224203,0.878092876070424,0.7554597494309409,-0.2825552651693207,-1.6690993614607135,0.1414185955172306,2.4034451173676383,1.0273381002308042,-0.0005596829957002971,-0.00031137865538195136,0.0008637734574713773,0.0003867645555687794,7.922972165616978e-05,-0.0002612446532893622,-0.0007848847346652164,0.0,0.0,0.0,0.0,0.0,0.0,0.0,-2.8672971230658817e-07,0.00026734484566581784,-2.7005245288536095e-05,-0.00022106003748412206,-2.1442547884997776e-05,0.0,-1.879091616086015e-06,0.0005596829957002971,0.00031137865538195136,-0.0008637734574713773,-0.0003867645555687794,-7.922972165616978e-05,0.0002612446532893622,0.0007848847346652164,0.6053096652030945,46.32583236694336,5.588284015655518,-19.487642288208008,-0.5697532296180725,-2.4237093925476074,0.12485067546367645,0
23,0.10994696617126465,-0.6053096652030945,-46.32583236694336,-5.588284015655518,19.487642288208008,0.5697532296180725,2.4237093925476074,-0.12485067546367645,0.0,0.0,0.0,0.0,0.0,0.0,0.0,-0.6403142103630126,-0.020589274678792808,-0.3852962681592502,0.2849815210015387,-0.014913875729094014,0.1524064021325053,-0.14467402229969314,0.8780931628001363,0.755192404585275,-0.2825282599240322,-1.6688783014232293,0.1414400380651156,2.4034451173676383,1.0273399793224203,0.878092876070424,0.7554597494309409,-0.2825552651693207,-1.6690993614607135,0.1414185955172306,2.4034451173676383,1.0273381002308042,-0.0005596829957002971,-0.00031137865538195136,0.0008637734574713773,0.0003867645555687794,7.922972165616978e-05,-0.0002612446532893622,-0.0007848847346652164,0.0,0.0,0.0,0.0,0.0,0.0,0.0,-2.8672971230658817e-07,0.00026734484566581784,-2.7005245288536095e-05,-0.00022106003748412206,-2.1442547884997776e-05,0.0,-1.879091616086015e-06,0.0005596829957002971,0.00031137865538195136,-0.0008637734574713773,-0.0003867645555687794,-7.922972165616978e-05,0.0002612446532893622,0.0007848847346652164,0.6053096652030945,46.32583236694336,5.588284015655518,-19.487642288208008,-0.5697532296180725,-2.4237093925476074,0.12485067546367645,0
24,0.11495327949523926,-0.6053096652030945,-46.32583236694336,-5.588284015655518,19.487642288208008,0.5697532296180725,2.4237093925476074,-0.12485067546367645,0.0,0.0,0.0,0.0,0.0,0.0,0.0,-0.6403142103630126,-0.020589274678792808,-0.3852962681592502,0.2849815210015387,-0.014913875729094014,0.1524064021325053,-0.14467402229969314,0.8780931628001363,0.755192404585275,-0.2825282599240322,-1.6688783014232293,0.1414400380651156,2.4034451173676383,1.0273399793224203,0.878092876070424,0.7554597494309409,-0.2825552651693207,-1.6690993614607135,0.1414185955172306,2.4034451173676383,1.0273381002308042,-0.0005596829957002971,-0.00031137865538195136,0.0008637734574713773,0.0003867645555687794,7.922972165616978e-05,-0.0002612446532893622,-0.0007848847346652164,0.0,0.0,0.0,0.0,0.0,0.0,0.0,-2.8672971230658817e-07,0.00026734484566581784,-2.7005245288536095e-05,-0.00022106003748412206,-2.1442547884997776e-05,0.0,-1.879091616086015e-06,0.0005596829957002971,0.00031137865538195136,-0.0008637734574713773,-0.0003867645555687794,-7.922972165616978e-05,0.0002612446532893622,0.0007848847346652164,0.6053096652030945,46.32583236694336,5.588284015655518,-19.487642288208008,-0.5697532296180725,-2.4237093925476074,0.12485067546367645,0
25,0.12009763717651367,-0.6053096652030945,-46.32583236694336,-5.588284015655518,19.487642288208008,0.5697532296180725,2.4237093925476074,-0.12485067546367645,0.0,0.0,0.0,0.0,0.0,0.0,0.0,-0.6403142103630126,-0.020589274678792808,-0.3852962681592502,0.2849815210015387,-0.014913875729094014,0.1524064021325053,-0.14467402229969314,0.8780931628001363,0.755192404585275,-0.2825282599240322,-1.6688783014232293,0.1414400380651156,2.4034451173676383,1.0273399793224203,0.878092876070424,0.7554597494309409,-0.2825552651693207,-1.6690993614607135,0.1414185955172306,2.4034451173676383,1.0273381002308042,-0.0005596829957002971,-0.00031137865538195136,0.0008637734574713773,0.0003867645555687794,7.922972165616978e-05,-0.0002612446532893622,-0.0007848847346652164,0.0,0.0,0.0,0.0,0.0,0.0,0.0,-2.8672971230658817e-07,0.00026734484566581784,-2.7005245288536095e-05,-0.00022106003748412206,-2.1442547884997776e-05,0.0,-1.879091616086015e-06,0.0005596829957002971,0.00031137865538195136,-0.0008637734574713773,-0.0003867645555687794,-7.922972165616978e-05,0.0002612446532893622,0.0007848847346652164,0.6053096652030945,46.32583236694336,5.588284015655518,-19.487642288208008,-0.5697532296180725,-2.4237093925476074,0.12485067546367645,0
26,0.12495183944702148,-0.6291133761405945,-46.34963607788086,-5.564480304718018,19.487642288208008,0.5816550850868225,2.4173007011413574,-0.15231649577617645,0.0,0.0,0.0,0.0,0.0,0.0,0.0,-0.6309272271170067,-0.030637455455281345,-0.38190683110048007,0.29234292447698773,-0.014355818757920354,0.15262229979120395,-0.1454079059976934,0.8780948332359915,0.7551940485303265,-0.28252993032388535,-1.6688779573719386,0.14143587229247367,2.4034458294444616,1.0273430310802327,0.878092876070424,0.7554597494309409,-0.2825552651693207,-1.6690993614607135,0.1414185955172306,2.4034451173676383,1.0273381002308042,7.006689500824233e-05,-0.0006965367965828351,0.00031310721506016593,0.0003257776035836999,-0.00038320775346884845,0.0001682468692333136,0.0001093300533412306,0.0,0.0,0.0,0.0,0.0,0.0,0.0,-1.957165567501029e-06,0.0002657009006143962,-2.533484543537634e-05,-0.00022140408877491247,-1.7276775243074693e-05,-7.120768232837804e-07,-4.930849428541606e-06,-7.006689500824233e-05,0.0006965367965828351,-0.00031310721506016593,-0.0003257776035836999,0.00038320775346884845,-0.0001682468692333136,-0.0001093300533412306,0.6291133761405945,46.34963607788086,5.564480304718018,-19.487642288208008,-0.5816550850868225,-2.4173007011413574,0.15231649577617645,0
27,0.12994980812072754,-0.6291133761405945,-46.34963607788086,-5.564480304718018,19.487642288208008,0.5816550850868225,2.4173007011413574,-0.15231649577617645,0.0,0.0,0.0,0.0,0.0,0.0,0.0,-0.6309272271170067,-0.030637455455281345,-0.38190683110048007,0.29234292447698773,-0.014355818757920354,0.15262229979120395,-0.1454079059976934,0.8780948332359915,0.7551940485303265,-0.28252993032388535,-1.6688779573719386,0.14143587229247367,2.4034458294444616,1.0273430310802327,0.878092876070424,0.7554597494309409,-0.2825552651693207,-1.6690993614607135,0.1414185955172306,2.4034451173676383,1.0273381002308042,7.006689500824233e-05,-0.0006965367965828351,0.00031310721506016593,0.0003257776035836999,-0.00038320775346884845,0.0001682468692333136,0.0001093300533412306,0.0,0.0,0.0,0.0,0.0,0.0,0.0,-1.957165567501029e-06,0.0002657009006143962,-2.533484543537634e-05,-0.00022140408877491247,-1.7276775243074693e-05,-7.120768232837804e-07,-4.930849428541606e-06,-7.006689500824233e-05,0.0006965367965828351,-0.00031310721506016593,-0.0003257776035836999,0.00038320775346884845,-0.0001682468692333136,-0.0001093300533412306,0.6291133761405945,46.34963607788086,5.564480304718018,-19.487642288208008,-0.5816550850868225,-2.4173007011413574,0.15231649577617645,0
28,0.1349492073059082,-0.5815059542655945,-46.34963607788086,-5.588284015655518,19.511445999145508,0.5761619210243225,2.4173007011413574,-0.15964071452617645,0.0,0.0,0.0,0.0,0.0,0.0,0.0,-0.6244642629987347,-0.02350443943347491,-0.37828842829012077,0.29085088347520516,-0.014418415748730267,0.1517261328995053,-0.14644813551835528,0.878091492364281,0.755194048530177,-0.28252825988802993,-1.6688799718611949,0.1414361272076962,2.4034458294444616,1.027343844882316,0.878092876070424,0.7554597494309409,-0.2825552651693207,-1.6690993614607135,0.1414185955172306,2.4034451173676383,1.0273381002308042,-0.0005135150054169322,-0.00024624115477779124,0.0004611374781280877,-0.00028099995969986893,-0.00021724840424248667,5.700688077417245e-05,0.00024510897210822276,0.0,0.0,0.0,0.0,0.0,0.0,0.0,1.383706142998875e-06,0.00026570090076383224,-2.7005281290792826e-05,-0.0002193895995186157,-1.7531690465588667e-05,-7.120768232837804e-07,-5.744651511818688e-06,0.0005135150054169322,0.00024624115477779124,-0.0004611374781280877,0.00028099995969986893,0.00021724840424248667,-5.700688077417245e-05,-0.00024510897210822276,0.5815059542655945,46.34963607788086,5.588284015655518,-19.511445999145508,-0.5761619210243225,-2.4173007011413574,0.15964071452617645,0
29,0.1399669647216797,-0.5815059542655945,-46.34963607788086,-5.588284015655518,19.511445999145508,0.5761619210243225,2.4173007011413574,-0.15964071452617645,0.0,0.0,0.0,0.0,0.0,0.0,0.0,-0.6244642629987347,-0.02350443943347491,-0.37828842829012077,0.29085088347520516,-0.014418415748730267,0.1517261328995053,-0.14644813551835528,0.878091492364281,0.755194048530177,-0.28252825988802993,-1.6688799718611949,0.1414361272076962,2.4034458294444616,1.027343844882316,0.878092876070424,0.7554597494309409,-0.2825552651693207,-1.6690993614607135,0.1414185955172306,2.4034451173676383,1.0273381002308042,-0.0005135150054169322,-0.00024624115477779124,0.0004611374781280877,-0.00028099995969986893,-0.00021724840424248667,5.700688077417245e-05,0.00024510897210822276,0.0,0.0,0.0,0.0,0.0,0.0,0.0,1.383706142998875e-06,0.00026570090076383224,-2.7005281290792826e-05,-0.0002193895995186157,-1.7531690465588667e-05,-7.120768232837804e-07,-5.744651511818688e-06,0.0005135150054169322,0.00024624115477779124,-0.0004611374781280877,0.00028099995969986893,0.00021724840424248667,-5.700688077417245e-05,-0.00024510897210822276,0.5815059542655945,46.34963607788086,5.588284015655518,-19.511445999145508,-0.5761619210243225,-2.4173007011413574,0.15964071452617645,0
30,0.14494705200195312,-0.6291133761405945,-46.32583236694336,-5.536709308624268,19.511445999145508,0.5761619210243225,2.4237093925476074,-0.19351522624492645,0.0,0.0,0.0,0.0,0.0,0.0,0.0,-0.6333357481802696,-0.019217901034481996,-0.38819016181499044,0.29051224650281404,-0.014404481208903083,0.151551158062108,-0.1476825396310954,0.8780948322548451,0.7551923780943218,-0.2825318791657163,-1.6688798923902786,0.14143932598829267,2.4034451173676383,1.0273476087169515,0.878092876070424,0.7554597494309409,-0.2825552651693207,-1.6690993614607135,0.1414185955172306,2.4034451173676383,1.0273381002308042,7.369854937414291e-05,-0.00019864037296050719,-0.0005181600895979905,1.1164630932201982e-05,-0.0003390973278293046,-0.000141447804934671,0.001308626169181635,0.0,0.0,0.0,0.0,0.0,0.0,0.0,-1.9561844211146706e-06,0.0002673713366190267,-2.338600360440868e-05,-0.00021946907043490782,-2.0730471062074818e-05,0.0,-9.508486147336015e-06,-7.369854937414291e-05,0.00019864037296050719,0.0005181600895979905,-1.1164630932201982e-05,0.0003390973278293046,0.000141447804934671,-0.001308626169181635,0.6291133761405945,46.32583236694336,5.536709308624268,-19.511445999145508,-0.5761619210243225,-2.4237093925476074,0.19351522624492645,0
31,0.14996838569641113,-0.6291133761405945,-46.32583236694336,-5.536709308624268,19.511445999145508,0.5761619210243225,2.4237093925476074,-0.19351522624492645,0.0,0.0,0.0,0.0,0.0,0.0,0.0,-0.6333357481802696,-0.019217901034481996,-0.38819016181499044,0.29051224650281404,-0.014404481208903083,0.151551158062108,-0.1476825396310954,0.8780948322548451,0.7551923780943218,-0.2825318791657163,-1.6688798923902786,0.14143932598829267,2.4034451173676383,1.0273476087169515,0.878092876070424,0.7554597494309409,-0.2825552651693207,-1.6690993614607135,0.1414185955172306,2.4034451173676383,1.0273381002308042,7.369854937414291e-05,-0.00019864037296050719,-0.0005181600895979905,1.1164630932201982e-05,-0.0003390973278293046,-0.000141447804934671,0.001308626169181635,0.0,0.0,0.0,0.0,0.0,0.0,0.0,-1.9561844211146706e-06,0.0002673713366190267,-2.338600360440868e-05,-0.00021946907043490782,-2.0730471062074818e-05,0.0,-9.508486147336015e-06,-7.369854937414291e-05,0.00019864037296050719,0.0005181600895979905,-1.1164630932201982e-05,0.0003390973278293046,0.000141447804934671,-0.001308626169181635,0.6291133761405945,46.32583236694336,5.536709308624268,-19.511445999145508,-0.5761619210243225,-2.4237093925476074,0.19351522624492645,0
32,0.15495681762695312,-0.5815059542655945,-46.34963607788086,-5.536709308624268,19.487642288208008,0.5697532296180725,2.4237093925476074,-0.17337362468242645,0.0,0.0,0.0,0.0,0.0,0.0,0.0,-0.6307105917003111,-0.031651376088388396,-0.3854329494443082,0.2987328067651645,-0.014545381566556255,0.1524341118603473,-0.1495994484204412,0.8780914923642755,0.755194048530177,-0.2825318791657163,-1.668878301753882,0.14143685246428428,2.4034451173676383,1.0273450175485126,0.878092876070424,0.7554597494309409,-0.2825552651693207,-1.6690993614607135,0.1414185955172306,2.4034451173676383,1.0273381002308042,-0.0013349425041667626,-0.0003065381560511067,-0.00014553055738838867,0.0005875119817120612,-3.0296397843896596e-05,-0.0001684244650927617,0.0012856545689350078,0.0,0.0,0.0,0.0,0.0,0.0,0.0,1.3837061484389679e-06,0.00026570090076383224,-2.338600360440868e-05,-0.00022105970683150566,-1.825694705367975e-05,0.0,-6.917317708410309e-06,0.0013349425041667626,0.0003065381560511067,0.00014553055738838867,-0.0005875119817120612,3.0296397843896596e-05,0.0001684244650927617,-0.0012856545689350078,0.5815059542655945,46.34963607788086,5.536709308624268,-19.487642288208008,-0.5697532296180725,-2.4237093925476074,0.17337362468242645,0
33,0.15995335578918457,-0.5815059542655945,-46.34963607788086,-5.536709308624268,19.487642288208008,0.5697532296180725,2.4237093925476074,-0.17337362468242645,0.0,0.0,0.0,0.0,0.0,0.0,0.0,-0.6307105917003111,-0.031651376088388396,-0.3854329494443082,0.2987328067651645,-0.014545381566556255,0.1524341118603473,-0.1495994484204412,0.8780914923642755,0.755194048530177,-0.2825318791657163,-1.668878301753882,0.14143685246428428,2.4034451173676383,1.0273450175485126,0.878092876070424,0.7554597494309409,-0.2825552651693207,-1.6690993614607135,0.1414185955172306,2.4034451173676383,1.0273381002308042,-0.0013349425041667626,-0.0003065381560511067,-0.00014553055738838867,0.0005875119817120612,-3.0296397843896596e-05,-0.0001684244650927617,0.0012856545689350078,0.0,0.0,0.0,0.0,0.0,0.0,0.0,1.3837061484389679e-06,0.00026570090076383224,-2.338600360440868e-05,-0.00022105970683150566,-1.825694705367975e-05,0.0,-6.917317708410309e-06,0.0013349425041667626,0.0003065381560511067,0.00014553055738838867,-0.0005875119817120612,3.0296397843896596e-05,0.0001684244650927617,-0.0012856545689350078,0.5815059542655945,46.34963607788086,5.536709308624268,-19.487642288208008,-0.5697532296180725,-2.4237093925476074,0.17337362468242645,0
34,0.16495299339294434,-0.7084590792655945,-46.37740707397461,-5.564480304718018,19.511445999145508,0.5761619210243225,2.4173007011413574,-0.13858358561992645,0.0,0.0,0.0,0.0,0.0,0.0,0.0,-0.6364212957038815,-0.012137197418977076,-0.38581521738613583,0.287786353311509,-0.014810250852658594,0.1508894319702619,-0.1494555134781982,0.878100401355509,0.7551959973720082,-0.2825299303238852,-1.6688778264229758,0.14143612720576412,2.4034458294444616,1.0273415051993324,0.878092876070424,0.7554597494309409,-0.2825552651693207,-1.6690993614607135,0.1414185955172306,2.4034451173676383,1.0273381002308042,0.001804622962394111,0.001002935506025211,0.0002939011902178609,-0.0006548303770887336,-0.00017054527119057507,-4.471670815956981e-05,-0.0003930930204835077,0.0,0.0,0.0,0.0,0.0,0.0,0.0,-7.525285085074884e-06,0.00026375205893269804,-2.5334845435542874e-05,-0.00022153503773769678,-1.753168853352305e-05,-7.120768232837804e-07,-3.404968528242236e-06,-0.001804622962394111,-0.001002935506025211,-0.0002939011902178609,0.0006548303770887336,0.00017054527119057507,4.471670815956981e-05,0.0003930930204835077,0.7084590792655945,46.37740707397461,5.564480304718018,-19.511445999145508,-0.5761619210243225,-2.4173007011413574,0.13858358561992645,0
35,0.1699514389038086,-0.7084590792655945,-46.37740707397461,-5.564480304718018,19.511445999145508,0.5761619210243225,2.4173007011413574,-0.13858358561992645,0.0,0.0,0.0,0.0,0.0,0.0,0.0,-0.6364212957038815,-0.012137197418977076,-0.38581521738613583,0.287786353311509,-0.014810250852658594,0.1508894319702619,-0.1494555134781982,0.878100401355509,0.7551959973720082,-0.2825299303238852,-1.6688778264229758,0.14143612720576412,2.4034458294444616,1.0273415051993324,0.878092876070424,0.7554597494309409,-0.2825552651693207,-1.6690993614607135,0.1414185955172306,2.4034451173676383,1.0273381002308042,0.001804622962394111,0.001002935506025211,0.0002939011902178609,-0.0006548303770887336,-0.00017054527119057507,-4.471670815956981e-05,-0.0003930930204835077,0.0,0.0,0.0,0.0,0.0,0.0,0.0,-7.525285085074884e-06,0.00026375205893269804,-2.5334845435542874e-05,-0.00022153503773769678,-1.753168853352305e-05,-7.120768232837804e-07,-3.404968528242236e-06,-0.001804622962394111,-0.001002935506025211,-0.0002939011902178609,0.0006548303770887336,0.00017054527119057507,4.471670815956981e-05,0.0003930930204835077,0.7084590792655945,46.37740707397461,5.564480304718018,-19.511445999145508,-0.5761619210243225,-2.4173007011413574,0.13858358561992645,0
36,0.17495155334472656,-0.7084590792655945,-46.37740707397461,-5.564480304718018,19.511445999145508,0.5697532296180725,2.4301180839538574,-0.12485067546367645,0.0,0.0,0.0,0.0,0.0,0.0,0.0,-0.6430615889128707,-0.0317144863340599,-0.38986257506350813,0.29940441701775516,-0.013913966815451853,0.1528226915678406,-0.1485753445173453,0.878100401355509,0.7551959973720082,-0.2825299303238852,-1.6688799456871215,0.14143719470280186,2.4034444052908155,1.0273399793224203,0.878092876070424,0.7554597494309409,-0.2825552651693207,-1.6690993614607135,0.1414185955172306,2.4034451173676383,1.0273381002308042,0.001227691509657225,0.0005688013832225158,0.00011377510279808957,-0.00019172232343597087,0.00023765666836116122,-0.0003633788136396395,-0.003753456525382287,0.0,0.0,0.0,0.0,0.0,0.0,0.0,-7.525285085074884e-06,0.00026375205893269804,-2.5334845435542874e-05,-0.00021941577359196884,-1.8599185571260834e-05,7.120768228396912e-07,-1.879091616086015e-06,-0.001227691509657225,-0.0005688013832225158,-0.00011377510279808957,0.00019172232343597087,-0.00023765666836116122,0.0003633788136396395,0.003753456525382287,0.7084590792655945,46.37740707397461,5.564480304718018,-19.511445999145508,-0.5697532296180725,-2.4301180839538574,0.12485067546367645,0
37,0.1799912452697754,-0.7084590792655945,-46.37740707397461,-5.564480304718018,19.511445999145508,0.5697532296180725,2.4301180839538574,-0.12485067546367645,0.0,0.0,0.0,0.0,0.0,0.0,0.0,-0.6430615889128707,-0.0317144863340599,-0.38986257506350813,0.29940441701775516,-0.013913966815451853,0.1528226915678406,-0.1485753445173453,0.878100401355509,0.7551959973720082,-0.2825299303238852,-1.6688799456871215,0.14143719470280186,2.4034444052908155,1.0273399793224203,0.878092876070424,0.7554597494309409,-0.2825552651693207,-1.6690993614607135,0.1414185955172306,2.4034451173676383,1.0273381002308042,0.001227691509657225,0.0005688013832225158,0.00011377510279808957,-0.00019172232343597087,0.00023765666836116122,-0.0003633788136396395,-0.003753456525382287,0.0,0.0,0.0,0.0,0.0,0.0,0.0,-7.525285085074884e-06,0.00026375205893269804,-2.5334845435542874e-05,-0.00021941577359196884,-1.8599185571260834e-05,7.120768228396912e-07,-1.879091616086015e-06,-0.001227691509657225,-0.0005688013832225158,-0.00011377510279808957,0.00019172232343597087,-0.00023765666836116122,0.0003633788136396395,0.003753456525382287,0.7084590792655945,46.37740707397461,5.564480304718018,-19.511445999145508,-0.5697532296180725,-2.4301180839538574,0.12485067546367645,0
38,0.1849536895751953,-0.6291133761405945,-46.32583236694336,-5.536709308624268,19.535249710083008,0.5642600655555725,2.4173007011413574,-0.13217489421367645,0.0,0.0,0.0,0.0,0.0,0.0,0.0,-0.6337787893186125,-0.021056118223276712,-0.37804321006219915,0.295029181226402,-0.014148371856488982,0.15205879626518057,-0.147720288870935,0.8780948332359915,0.7551923780943218,-0.2825318791657163,-1.668881641644747,0.14143756810951125,2.4034458294444616,1.0273407931245035,0.878092876070424,0.7554597494309409,-0.2825552651693207,-1.6690993614607135,0.1414185955172306,2.4034451173676383,1.0273381002308042,-0.00047718303665336356,-0.0003837428198734182,-0.0005223560579269269,-0.0006843140539823375,0.0003131414724455038,0.0001474982213061362,-0.0006055062301812336,0.0,0.0,0.0,0.0,0.0,0.0,0.0,-1.957165567501029e-06,0.0002673713366190267,-2.338600360440868e-05,-0.00021771981596652168,-1.8972592280647183e-05,-7.120768232837804e-07,-2.692893699363097e-06,0.00047718303665336356,0.0003837428198734182,0.0005223560579269269,0.0006843140539823375,-0.0003131414724455038,-0.0001474982213061362,0.0006055062301812336,0.6291133761405945,46.32583236694336,5.536709308624268,-19.535249710083008,-0.5642600655555725,-2.4173007011413574,0.13217489421367645,0
39,0.18995094299316406,-0.6291133761405945,-46.32583236694336,-5.536709308624268,19.535249710083008,0.5642600655555725,2.4173007011413574,-0.13217489421367645,0.0,0.0,0.0,0.0,0.0,0.0,0.0,-0.6337787893186125,-0.021056118223276712,-0.37804321006219915,0.295029181226402,-0.014148371856488982,0.15205879626518057,-0.147720288870935,0.8780948332359915,0.7551923780943218,-0.2825318791657163,-1.668881641644747,0.14143756810951125,2.4034458294444616,1.0273407931245035,0.878092876070424,0.7554597494309409,-0.2825552651693207,-1.6690993614607135,0.1414185955172306,2.4034451173676383,1.0273381002308042,-0.00047718303665336356,-0.0003837428198734182,-0.0005223560579269269,-0.0006843140539823375,0.0003131414724455038,0.0001474982213061362,-0.0006055062301812336,0.0,0.0,0.0,0.0,0.0,0.0,0.0,-1.957165567501029e-06,0.0002673713366190267,-2.338600360440868e-05,-0.00021771981596652168,-1.8972592280647183e-05,-7.120768232837804e-07,-2.692893699363097e-06,0.00047718303665336356,0.0003837428198734182,0.0005223560579269269,0.0006843140539823375,-0.0003131414724455038,-0.0001474982213061362,0.0006055062301812336,0.6291133761405945,46.32583236694336,5.536709308624268,-19.535249710083008,-0.5642600655555725,-2.4173007011413574,0.13217489421367645,0
40,0.1949472427368164,-0.6568843722343445,-46.32583236694336,-5.536709308624268,19.511445999145508,0.5642600655555725,2.4237093925476074,-0.13858358561992645,0.0,0.0,0.0,0.0,0.0,0.0,0.0,-0.642176215938105,-0.031028862371694,-0.38355572634262625,0.29872745062049766,-0.014036060463138163,0.15281938862116234,-0.1465895491574881,0.8780967820778227,0.7551923780943218,-0.2825340050647133,-1.668877710647693,0.1414374496889156,2.4034451173676383,1.0273415052013264,0.878092876070424,0.7554597494309409,-0.2825552651693207,-1.6690993614607135,0.1414185955172306,2.4034451173676383,1.0273381002308042,1.983020158332502e-05,-0.0010564045345974303,-0.00023576747178618405,-0.00044595676135046364,0.00015556124173853294,-9.737220034217365e-05,-0.00029875717025496163,0.0,0.0,0.0,0.0,0.0,0.0,0.0,-3.906007398746247e-06,0.0002673713366190267,-2.1260104607401242e-05,-0.0002216508130203909,-1.8854171685012133e-05,0.0,-3.404970522202788e-06,-1.983020158332502e-05,0.0010564045345974303,0.00023576747178618405,0.00044595676135046364,-0.00015556124173853294,9.737220034217365e-05,0.00029875717025496163,0.6568843722343445,46.32583236694336,5.536709308624268,-19.511445999145508,-0.5642600655555725,-2.4237093925476074,0.13858358561992645,0
41,0.2000260353088379,-0.6568843722343445,-46.32583236694336,-5.536709308624268,19.511445999145508,0.5642600655555725,2.4237093925476074,-0.13858358561992645,0.0,0.0,0.0,0.0,0.0,0.0,0.0,-0.642176215938105,-0.031028862371694,-0.38355572634262625,0.29872745062049766,-0.014036060463138163,0.15281938862116234,-0.1465895491574881,0.8780967820778227,0.7551923780943218,-0.2825340050647133,-1.668877710647693,0.1414374496889156,2.4034451173676383,1.0273415052013264,0.878092876070424,0.7554597494309409,-0.2825552651693207,-1.6690993614607135,0.1414185955172306,2.4034451173676383,1.0273381002308042,1.983020158332502e-05,-0.0010564045345974303,-0.00023576747178618405,-0.00044595676135046364,0.00015556124173853294,-9.737220034217365e-05,-0.00029875717025496163,0.0,0.0,0.0,0.0,0.0,0.0,0.0,-3.906007398746247e-06,0.0002673713366190267,-2.1260104607401242e-05,-0.0002216508130203909,-1.8854171685012133e-05,0.0,-3.404970522202788e-06,-1.983020158332502e-05,0.0010564045345974303,0.00023576747178618405,0.00044595676135046364,-0.00015556124173853294,9.737220034217365e-05,0.00029875717025496163,0.6568843722343445,46.32583236694336,5.536709308624268,-19.511445999145508,-0.5642600655555725,-2.4237093925476074,0.13858358561992645,0
42,0.20494961738586426,-0.6568843722343445,-46.37740707397461,-5.588284015655518,19.535249710083008,0.5697532296180725,2.4173007011413574,-0.13858358561992645,0.0,0.0,0.0,0.0,0.0,0.0,0.0,-0.6459648133435272,-0.0275214122900808,-0.38454903348441155,0.2964906871794856,-0.014405871414677054,0.1527802956681305,-0.1455160941997556,0.8780967820778227,0.7551959973720082,-0.28252825990003066,-1.6688816161223232,0.14143695824348768,2.4034458294444616,1.0273415052013264,0.878092876070424,0.7554597494309409,-0.2825552651693207,-1.6690993614607135,0.1414185955172306,2.4034451173676383,1.0273381002308042,0.00016616611520296797,0.0004391988210829126,0.0008326336600775747,-0.0008507321233800382,-0.00014994272407086763,4.276934207155204e-05,-0.000878581352353306,0.0,0.0,0.0,0.0,0.0,0.0,0.0,-3.906007398746247e-06,0.00026375205893269804,-2.7005269290059086e-05,-0.00021774533839025167,-1.8362726257076245e-05,-7.120768232837804e-07,-3.404970522202788e-06,-0.00016616611520296797,-0.0004391988210829126,-0.0008326336600775747,0.0008507321233800382,0.00014994272407086763,-4.276934207155204e-05,0.000878581352353306,0.6568843722343445,46.37740707397461,5.588284015655518,-19.535249710083008,-0.5697532296180725,-2.4173007011413574,0.13858358561992645,0
43,0.21022295951843262,-0.6568843722343445,-46.37740707397461,-5.588284015655518,19.535249710083008,0.5697532296180725,2.4173007011413574,-0.13858358561992645,0.0,0.0,0.0,0.0,0.0,0.0,0.0,-0.6459648133435272,-0.0275214122900808,-0.38454903348441155,0.2964906871794856,-0.014405871414677054,0.1527802956681305,-0.1455160941997556,0.8780967820778227,0.7551959973720082,-0.28252825990003066,-1.6688816161223232,0.14143695824348768,2.4034458294444616,1.0273415052013264,0.878092876070424,0.7554597494309409,-0.2825552651693207,-1.6690993614607135,0.1414185955172306,2.4034451173676383,1.0273381002308042,0.00016616611520296797,0.0004391988210829126,0.0008326336600775747,-0.0008507321233800382,-0.00014994272407086763,4.276934207155204e-05,-0.000878581352353306,0.0,0.0,0.0,0.0,0.0,0.0,0.0,-3.906007398746247e-06,0.00026375205893269804,-2.7005269290059086e-05,-0.00021774533839025167,-1.8362726257076245e-05,-7.120768232837804e-07,-3.404970522202788e-06,-0.00016616611520296797,-0.0004391988210829126,-0.0008326336600775747,0.0008507321233800382,0.00014994272407086763,-4.276934207155204e-05,0.000878581352353306,0.6568843722343445,46.37740707397461,5.588284015655518,-19.535249710083008,-0.5697532296180725,-2.4173007011413574,0.13858358561992645,0
44,0.2149522304534912,-0.6053096652030945,-46.32583236694336,-5.536709308624268,19.487642288208008,0.5697532296180725,2.4237093925476074,-0.11844198405742645,0.0,0.0,0.0,0.0,0.0,0.0,0.0,-0.6389389121521469,-0.013316694345760176,-0.3792175965037674,0.29047263770288667,-0.014542504945317987,0.15218704122650145,-0.14549116924923058,0.8780931539698186,0.7551923780943218,-0.2825318791657165,-1.6688775776678286,0.14143683928452727,2.403445117529144,1.0273392672455972,0.878092876070424,0.7554597494309409,-0.2825552651693207,-1.6690993614607135,0.1414185955172306,2.4034451173676383,1.0273381002308042,-0.0009735219267793154,-6.136157825355937e-05,-0.0002822698030450676,0.0007195722914288116,0.00022881185383430457,-4.2936314693269954e-05,0.008887942186536501,0.0,0.0,0.0,0.0,0.0,0.0,0.0,-2.7789939460731716e-07,0.0002673713366190267,-2.3386003604242145e-05,-0.0002217837928848443,-1.8243767296671765e-05,-1.6150547565985107e-10,-1.1670147930242791e-06,0.0009735219267793154,6.136157825355937e-05,0.0002822698030450676,-0.0007195722914288116,-0.00022881185383430457,4.2936314693269954e-05,-0.008887942186536501,0.6053096652030945,46.32583236694336,5.536709308624268,-19.487642288208008,-0.5697532296180725,-2.4237093925476074,0.11844198405742645,0
45,0.21994924545288086,-0.6053096652030945,-46.32583236694336,-5.536709308624268,19.487642288208008,0.5697532296180725,2.4237093925476074,-0.11844198405742645,0.0,0.0,0.0,0.0,0.0,0.0,0.0,-0.6389389121521469,-0.013316694345760176,-0.3792175965037674,0.29047263770288667,-0.014542504945317987,0.15218704122650145,-0.14549116924923058,0.8780931539698186,0.7551923780943218,-0.2825318791657165,-1.6688775776678286,0.14143683928452727,2.403445117529144,1.0273392672455972,0.878092876070424,0.7554597494309409,-0.2825552651693207,-1.6690993614607135,0.1414185955172306,2.4034451173676383,1.0273381002308042,-0.0009735219267793154,-6.136157825355937e-05,-0.0002822698030450676,0.0007195722914288116,0.00022881185383430457,-4.2936314693269954e-05,0.008887942186536501,0.0,0.0,0.0,0.0,0.0,0.0,0.0,-2.7789939460731716e-07,0.0002673713366190267,-2.3386003604242145e-05,-0.0002217837928848443,-1.8243767296671765e-05,-1.6150547565985107e-10,-1.1670147930242791e-06,0.0009735219267793154,6.136157825355937e-05,0.0002822698030450676,-0.0007195722914288116,-0.00022881185383430457,4.2936314693269954e-05,-0.008887942186536501,0.6053096652030945,46.32583236694336,5.536709308624268,-19.487642288208008,-0.5697532296180725,-2.4237093925476074,0.11844198405742645,0
46,0.22494840621948242,-0.6053096652030945,-46.32583236694336,-5.536709308624268,19.487642288208008,0.5697532296180725,2.4237093925476074,-0.11844198405742645,0.0,0.0,0.0,0.0,0.0,0.0,0.0,-0.6389389121521469,-0.013316694345760176,-0.3792175965037674,0.29047263770288667,-0.014542504945317987,0.15218704122650145,-0.14549116924923058,0.8780931539698186,0.7551923780943218,-0.2825318791657165,-1.6688775776678286,0.14143683928452727,2.403445117529144,1.0273392672455972,0.878092876070424,0.7554597494309409,-0.2825552651693207,-1.6690993614607135,0.1414185955172306,2.4034451173676383,1.0273381002308042,-0.0009735219267793154,-6.136157825355937e-05,-0.0002822698030450676,0.0007195722914288116,0.00022881185383430457,-4.2936314693269954e-05,0.008887942186536501,0.0,0.0,0.0,0.0,0.0,0.0,0.0,-2.7789939460731716e-07,0.0002673713366190267,-2.3386003604242145e-05,-0.0002217837928848443,-1.8243767296671765e-05,-1.6150547565985107e-10,-1.1670147930242791e-06,0.0009735219267793154,6.136157825355937e-05,0.0002822698030450676,-0.0007195722914288116,-0.00022881185383430457,4.2936314693269954e-05,-0.008887942186536501,0.6053096652030945,46.32583236694336,5.536709308624268,-19.487642288208008,-0.5697532296180725,-2.4237093925476074,0.11844198405742645,0
47,0.23000192642211914,-0.6053096652030945,-46.32583236694336,-5.536709308624268,19.487642288208008,0.5697532296180725,2.4237093925476074,-0.11844198405742645,0.0,0.0,0.0,0.0,0.0,0.0,0.0,-0.6389389121521469,-0.013316694345760176,-0.3792175965037674,0.29047263770288667,-0.014542504945317987,0.15218704122650145,-0.14549116924923058,0.8780931539698186,0.7551923780943218,-0.2825318791657165,-1.6688775776678286,0.14143683928452727,2.403445117529144,1.0273392672455972,0.878092876070424,0.7554597494309409,-0.2825552651693207,-1.6690993614607135,0.1414185955172306,2.4034451173676383,1.0273381002308042,-0.0009735219267793154,-6.136157825355937e-05,-0.0002822698030450676,0.0007195722914288116,0.00022881185383430457,-4.2936314693269954e-05,0.008887942186536501,0.0,0.0,0.0,0.0,0.0,0.0,0.0,-2.7789939460731716e-07,0.0002673713366190267,-2.3386003604242145e-05,-0.0002217837928848443,-1.8243767296671765e-05,-1.6150547565985107e-10,-1.1670147930242791e-06,0.0009735219267793154,6.136157825355937e-05,0.0002822698030450676,-0.0007195722914288116,-0.00022881185383430457,4.2936314693269954e-05,-0.008887942186536501,0.6053096652030945,46.32583236694336,5.536709308624268,-19.487642288208008,-0.5697532296180725,-2.4237093925476074,0.11844198405742645,0
48,0.23495936393737793,-0.5815059542655945,-46.32583236694336,-5.564480304718018,19.511445999145508,0.5578513741493225,2.4237093925476074,-0.11844198405742645,0.0,0.0,0.0,0.0,0.0,0.0,0.0,-0.6417724685275673,-0.029514438159161487,-0.38550271168333533,0.29785787264133323,-0.013942440080810836,0.15424535870700062,-0.14494607765715642,0.8780914923642644,0.7551923782033381,-0.28253016653488483,-1.668879706952244,0.14143816171089807,2.4034451173676383,1.0273392672455972,0.878092876070424,0.7554597494309409,-0.2825552651693207,-1.6690993614607135,0.1414185955172306,2.4034451173676383,1.0273381002308042,-0.0011190149307673974,-0.000917679130811587,-0.00029421733830384066,0.0001707944857932347,0.0004291123770685565,-8.108658771560932e-05,-0.0009100460106391915,0.0,0.0,0.0,0.0,0.0,0.0,0.0,1.3837061595411981e-06,0.0002673712276027862,-2.5098634435893885e-05,-0.00021965450846939127,-1.956619366746959e-05,0.0,-1.1670147930242791e-06,0.0011190149307673974,0.000917679130811587,0.00029421733830384066,-0.0001707944857932347,-0.0004291123770685565,8.108658771560932e-05,0.0009100460106391915,0.5815059542655945,46.32583236694336,5.564480304718018,-19.511445999145508,-0.5578513741493225,-2.4237093925476074,0.11844198405742645,0
49,0.23996448516845703,-0.5815059542655945,-46.32583236694336,-5.564480304718018,19.511445999145508,0.5578513741493225,2.4237093925476074,-0.11844198405742645,0.0,0.0,0.0,0.0,0.0,0.0,0.0,-0.6417724685275673,-0.029514438159161487,-0.38550271168333533,0.29785787264133323,-0.013942440080810836,0.15424535870700062,-0.14494607765715642,0.8780914923642644,0.7551923782033381,-0.28253016653488483,-1.668879706952244,0.14143816171089807,2.4034451173676383,1.0273392672455972,0.878092876070424,0.7554597494309409,-0.2825552651693207,-1.6690993614607135,0.1414185955172306,2.4034451173676383,1.0273381002308042,-0.0011190149307673974,-0.000917679130811587,-0.00029421733830384066,0.0001707944857932347,0.0004291123770685565,-8.108658771560932e-05,-0.0009100460106391915,0.0,0.0,0.0,0.0,0.0,0.0,0.0,1.3837061595411981e-06,0.0002673712276027862,-2.5098634435893885e-05,-0.00021965450846939127,-1.956619366746959e-05,0.0,-1.1670147930242791e-06,0.0011190149307673974,0.000917679130811587,0.00029421733830384066,-0.0001707944857932347,-0.0004291123770685565,8.108658771560932e-05,0.0009100460106391915,0.5815059542655945,46.32583236694336,5.564480304718018,-19.511445999145508,-0.5578513741493225,-2.4237093925476074,0.11844198405742645,0
50,0.24497461318969727,-0.6291133761405945,-46.40121078491211,-5.564480304718018,19.535249710083008,0.5642600655555725,2.4301180839538574,-0.16604940593242645,0.0,0.0,0.0,0.0,0.0,0.0,0.0,-0.6317818495126836,-0.012722646858682532,-0.3801592501304013,0.2888858112928797,-0.014196884187204935,0.1527632542898565,-0.14601466704725627,0.8780948332359915,0.755197667807864,-0.28252993032521856,-1.66888140322482,0.14143744963407517,2.4034444052908155,1.027344556959139,0.878092876070424,0.7554597494309409,-0.2825552651693207,-1.6690993614607135,0.1414185955172306,2.4034451173676383,1.0273381002308042,0.0002853325992515669,0.0013138444909194952,0.0004147237851462629,-0.0009889883369331724,0.0002390806181907243,-0.00029458416681823514,0.0003142436510468889,0.0,0.0,0.0,0.0,0.0,0.0,0.0,-1.957165567501029e-06,0.00026208162307683747,-2.5334844102165022e-05,-0.000217958235893434,-1.8854116844574387e-05,7.120768228396912e-07,-6.456728334880424e-06,-0.0002853325992515669,-0.0013138444909194952,-0.0004147237851462629,0.0009889883369331724,-0.0002390806181907243,0.00029458416681823514,-0.0003142436510468889,0.6291133761405945,46.40121078491211,5.564480304718018,-19.535249710083008,-0.5642600655555725,-2.4301180839538574,0.16604940593242645,0
51,0.24995040893554688,-0.6291133761405945,-46.40121078491211,-5.564480304718018,19.535249710083008,0.5642600655555725,2.4301180839538574,-0.16604940593242645,0.0,0.0,0.0,0.0,0.0,0.0,0.0,-0.6317818495126836,-0.012722646858682532,-0.3801592501304013,0.2888858112928797,-0.014196884187204935,0.1527632542898565,-0.14601466704725627,0.8780948332359915,0.755197667807864,-0.28252993032521856,-1.66888140322482,0.14143744963407517,2.4034444052908155,1.027344556959139,0.878092876070424,0.7554597494309409,-0.2825552651693207,-1.6690993614607135,0.1414185955172306,2.4034451173676383,1.0273381002308042,0.0002853325992515669,0.0013138444909194952,0.0004147237851462629,-0.0009889883369331724,0.0002390806181907243,-0.00029458416681823514,0.0003142436510468889,0.0,0.0,0.0,0.0,0.0,0.0,0.0,-1.957165567501029e-06,0.00026208162307683747,-2.5334844102165022e-05,-0.000217958235893434,-1.8854116844574387e-05,7.120768228396912e-07,-6.456728334880424e-06,-0.0002853325992515669,-0.0013138444909194952,-0.0004147237851462629,0.0009889883369331724,-0.0002390806181907243,0.00029458416681823514,-0.0003142436510468889,0.6291133761405945,46.40121078491211,5.564480304718018,-19.535249710083008,-0.5642600655555725,-2.4301180839538574,0.16604940593242645,0
52,0.2549452781677246,-0.6568843722343445,-46.32583236694336,-5.588284015655518,19.535249710083008,0.5642600655555725,2.4173007011413574,-0.13217489421367645,0.0,0.0,0.0,0.0,0.0,0.0,0.0,-0.6352773569814549,-0.020882193759411232,-0.38582942667876163,0.29197169021522146,-0.014247349975803441,0.15321983835868289,-0.1476000147154407,0.8780967820778227,0.7551923782033381,-0.28252896852102893,-1.6688794968547767,0.14143744963407517,2.4034458294444616,1.0273407931245035,0.878092876070424,0.7554597494309409,-0.2825552651693207,-1.6690993614607135,0.1414185955172306,2.4034451173676383,1.0273381002308042,0.0008769417026908636,-0.0007824616820160243,0.0009783667002845368,-0.0009049152748884483,0.0003828546508100654,4.780671835486563e-05,-0.0006416067349626595,0.0,0.0,0.0,0.0,0.0,0.0,0.0,-3.906007398746247e-06,0.0002673712276027862,-2.6296648291790348e-05,-0.00021986460593681478,-1.8854116844574387e-05,-7.120768232837804e-07,-2.692893699363097e-06,-0.0008769417026908636,0.0007824616820160243,-0.0009783667002845368,0.0009049152748884483,-0.0003828546508100654,-4.780671835486563e-05,0.0006416067349626595,0.6568843722343445,46.32583236694336,5.588284015655518,-19.535249710083008,-0.5642600655555725,-2.4173007011413574,0.13217489421367645,0
53,0.2599468231201172,-0.6568843722343445,-46.32583236694336,-5.588284015655518,19.535249710083008,0.5642600655555725,2.4173007011413574,-0.13217489421367645,0.0,0.0,0.0,0.0,0.0,0.0,0.0,-0.6352773569814549,-0.020882193759411232,-0.38582942667876163,0.29197169021522146,-0.014247349975803441,0.15321983835868289,-0.1476000147154407,0.8780967820778227,0.7551923782033381,-0.28252896852102893,-1.6688794968547767,0.14143744963407517,2.4034458294444616,1.0273407931245035,0.878092876070424,0.7554597494309409,-0.2825552651693207,-1.6690993614607135,0.1414185955172306,2.4034451173676383,1.0273381002308042,0.0008769417026908636,-0.0007824616820160243,0.0009783667002845368,-0.0009049152748884483,0.0003828546508100654,4.780671835486563e-05,-0.0006416067349626595,0.0,0.0,0.0,0.0,0.0,0.0,0.0,-3.906007398746247e-06,0.0002673712276027862,-2.6296648291790348e-05,-0.00021986460593681478,-1.8854116844574387e-05,-7.120768232837804e-07,-2.692893699363097e-06,-0.0008769417026908636,0.0007824616820160243,-0.0009783667002845368,0.0009049152748884483,-0.0003828546508100654,-4.780671835486563e-05,0.0006416067349626595,0.6568843722343445,46.32583236694336,5.588284015655518,-19.535249710083008,-0.5642600655555725,-2.4173007011413574,0.13217489421367645,0
54,0.26495933532714844,-0.6291133761405945,-46.32583236694336,-5.564480304718018,19.511445999145508,0.5816550850868225,2.4301180839538574,-0.16604940593242645,0.0,0.0,0.0,0.0,0.0,0.0,0.0,-0.6317771328050757,-0.014997989575919905,-0.3833342627164975,0.2905884065235617,-0.014282763914909208,0.15230748156149157,-0.14776101310341133,0.8780948332359915,0.7551923869246401,-0.2825299303278854,-1.6688777969764703,0.14143563532755699,2.4034444052908155,1.027344556959139,0.878092876070424,0.7554597494309409,-0.2825552651693207,-1.6690993614607135,0.1414185955172306,2.4034451173676383,1.0273381002308042,0.0001812237923368848,-2.881062099499508e-05,0.00013695169739091852,-7.13396239538377e-05,-0.00044352224899721555,-0.0004432175595069988,0.0008546272650796913,0.0,0.0,0.0,0.0,0.0,0.0,0.0,-1.957165567501029e-06,0.0002673625063007723,-2.5334841435298294e-05,-0.000221564484243153,-1.7039810326385796e-05,7.120768228396912e-07,-6.456728334880424e-06,-0.0001812237923368848,2.881062099499508e-05,-0.00013695169739091852,7.13396239538377e-05,0.00044352224899721555,0.0004432175595069988,-0.0008546272650796913,0.6291133761405945,46.32583236694336,5.564480304718018,-19.511445999145508,-0.5816550850868225,-2.4301180839538574,0.16604940593242645,0
55,0.2699546813964844,-0.6291133761405945,-46.32583236694336,-5.564480304718018,19.511445999145508,0.5816550850868225,2.4301180839538574,-0.16604940593242645,0.0,0.0,0.0,0.0,0.0,0.0,0.0,-0.6317771328050757,-0.014997989575919905,-0.3833342627164975,0.2905884065235617,-0.014282763914909208,0.15230748156149157,-0.14776101310341133,0.8780948332359915,0.7551923869246401,-0.2825299303278854,-1.6688777969764703,0.14143563532755699,2.4034444052908155,1.027344556959139,0.878092876070424,0.7554597494309409,-0.2825552651693207,-1.6690993614607135,0.1414185955172306,2.4034451173676383,1.0273381002308042,0.0001812237923368848,-2.881062099499508e-05,0.00013695169739091852,-7.13396239538377e-05,-0.00044352224899721555,-0.0004432175595069988,0.0008546272650796913,0.0,0.0,0.0,0.0,0.0,0.0,0.0,-1.957165567501029e-06,0.0002673625063007723,-2.5334841435298294e-05,-0.000221564484243153,-1.7039810326385796e-05,7.120768228396912e-07,-6.456728334880424e-06,-0.0001812237923368848,2.881062099499508e-05,-0.00013695169739091852,7.13396239538377e-05,0.00044352224899721555,0.0004432175595069988,-0.0008546272650796913,0.6291133761405945,46.32583236694336,5.564480304718018,-19.511445999145508,-0.5816550850868225,-2.4301180839538574,0.16604940593242645,0
56,0.27497124671936035,-0.6806880831718445,-46.34963607788086,-5.536709308624268,19.487642288208008,0.5880637764930725,2.4173007011413574,-0.16604940593242645,0.0,0.0,0.0,0.0,0.0,0.0,0.0,-0.6365524399229998,-0.023948131597725072,-0.3867480368417879,0.2958007382285088,-0.01381604548453287,0.15284862037023936,-0.14653162671900902,0.8780984525136779,0.75519404951134,-0.2825318791657163,-1.6688782752592861,0.14143480477752723,2.4034458294444616,1.027344556959139,0.878092876070424,0.7554597494309409,-0.2825552651693207,-1.6690993614607135,0.1414185955172306,2.4034451173676383,1.0273381002308042,0.000863311619292722,9.859553727717536e-05,-3.5896157356998115e-05,0.00018961495658729026,-0.0005788510474383501,4.2646987896094794e-05,0.000432712194688621,0.0,0.0,0.0,0.0,0.0,0.0,0.0,-5.576443253940688e-06,0.00026569991960090356,-2.338600360440868e-05,-0.00022108620142735624,-1.620926029663461e-05,-7.120768232837804e-07,-6.456728334880424e-06,-0.000863311619292722,-9.859553727717536e-05,3.5896157356998115e-05,-0.00018961495658729026,0.0005788510474383501,-4.2646987896094794e-05,-0.000432712194688621,0.6806880831718445,46.34963607788086,5.536709308624268,-19.487642288208008,-0.5880637764930725,-2.4173007011413574,0.16604940593242645,0
57,0.2799496650695801,-0.6806880831718445,-46.34963607788086,-5.536709308624268,19.487642288208008,0.5880637764930725,2.4173007011413574,-0.16604940593242645,0.0,0.0,0.0,0.0,0.0,0.0,0.0,-0.6365524399229998,-0.023948131597725072,-0.3867480368417879,0.2958007382285088,-0.01381604548453287,0.15284862037023936,-0.14653162671900902,0.8780984525136779,0.75519404951134,-0.2825318791657163,-1.6688782752592861,0.14143480477752723,2.4034458294444616,1.027344556959139,0.878092876070424,0.7554597494309409,-0.2825552651693207,-1.6690993614607135,0.1414185955172306,2.4034451173676383,1.0273381002308042,0.000863311619292722,9.859553727717536e-05,-3.5896157356998115e-05,0.00018961495658729026,-0.0005788510474383501,4.2646987896094794e-05,0.000432712194688621,0.0,0.0,0.0,0.0,0.0,0.0,0.0,-5.576443253940688e-06,0.00026569991960090356,-2.338600360440868e-05,-0.00022108620142735624,-1.620926029663461e-05,-7.120768232837804e-07,-6.456728334880424e-06,-0.000863311619292722,-9.859553727717536e-05,3.5896157356998115e-05,-0.00018961495658729026,0.0005788510474383501,-4.2646987896094794e-05,-0.000432712194688621,0.6806880831718445,46.34963607788086,5.536709308624268,-19.487642288208008,-0.5880637764930725,-2.4173007011413574,0.16604940593242645,0
58,0.28495168685913086,-0.6291133761405945,-46.37740707397461,-5.564480304718018,19.487642288208008,0.5697532296180725,2.4173007011413574,-0.17337362468242645,0.0,0.0,0.0,0.0,0.0,0.0,0.0,-0.6325815989948657,-0.027387389961731547,-0.38047802115868645,0.29900650061206213,-0.01319424253057986,0.15322458771474118,-0.147060502377476,0.8780948332359915,0.7551959973720136,-0.2825299306479057,-1.6688783017541828,0.1414368393366843,2.4034458294444616,1.0273453707612223,0.878092876070424,0.7554597494309409,-0.2825552651693207,-1.6690993614607135,0.1414185955172306,2.4034451173676383,1.0273381002308042,-0.00017304892408195676,0.0007828319032220106,0.000452930018940722,0.0005729977084440352,0.00010443866281812334,0.00023546428511239228,0.0008138191373793292,0.0,0.0,0.0,0.0,0.0,0.0,0.0,-1.957165567501029e-06,0.00026375205892725795,-2.5334521415010247e-05,-0.00022105970653063522,-1.824381945370046e-05,-7.120768232837804e-07,-7.270530418157506e-06,0.00017304892408195676,-0.0007828319032220106,-0.000452930018940722,-0.0005729977084440352,-0.00010443866281812334,-0.00023546428511239228,-0.0008138191373793292,0.6291133761405945,46.37740707397461,5.564480304718018,-19.487642288208008,-0.5697532296180725,-2.4173007011413574,0.17337362468242645,0
59,0.28995728492736816,-0.6291133761405945,-46.37740707397461,-5.564480304718018,19.487642288208008,0.5697532296180725,2.4173007011413574,-0.17337362468242645,0.0,0.0,0.0,0.0,0.0,0.0,0.0,-0.6325815989948657,-0.027387389961731547,-0.38047802115868645,0.29900650061206213,-0.01319424253057986,0.15322458771474118,-0.147060502377476,0.8780948332359915,0.7551959973720136,-0.2825299306479057,-1.6688783017541828,0.1414368393366843,2.4034458294444616,1.0273453707612223,0.878092876070424,0.7554597494309409,-0.2825552651693207,-1.6690993614607135,0.1414185955172306,2.4034451173676383,1.0273381002308042,-0.00017304892408195676,0.0007828319032220106,0.000452930018940722,0.0005729977084440352,0.00010443866281812334,0.00023546428511239228,0.0008138191373793292,0.0,0.0,0.0,0.0,0.0,0.0,0.0,-1.957165567501029e-06,0.00026375205892725795,-2.5334521415010247e-05,-0.00022105970653063522,-1.824381945370046e-05,-7.120768232837804e-07,-7.270530418157506e-06,0.00017304892408195676,-0.0007828319032220106,-0.000452930018940722,-0.0005729977084440352,-0.00010443866281812334,-0.00023546428511239228,-0.0008138191373793292,0.6291133761405945,46.37740707397461,5.564480304718018,-19.487642288208008,-0.5697532296180725,-2.4173007011413574,0.17337362468242645,0
60,0.2949533462524414,-0.6806880831718445,-46.34963607788086,-5.512905597686768,19.487642288208008,0.5642600655555725,2.4301180839538574,-0.18710653483867645,0.0,0.0,0.0,0.0,0.0,0.0,0.0,-0.6314274723984423,-0.017400167214176334,-0.3756099878947501,0.2909919828481347,-0.013400070878811387,0.15275184966944266,-0.14851450048559725,0.8780984525136779,0.755194048530177,-0.2825335496015734,-1.6688775557196687,0.14143852028284792,2.4034444052908155,1.0273468966401285,0.878092876070424,0.7554597494309409,-0.2825552651693207,-1.6690993614607135,0.1414185955172306,2.4034451173676383,1.0273381002308042,0.0007295303435628809,-9.121994687543188e-05,-0.00017686610411748283,0.00048588372842154617,8.951895730895726e-05,-0.0002433675101462123,0.0017707221425572385,0.0,0.0,0.0,0.0,0.0,0.0,0.0,-5.576443253940688e-06,0.00026570090076383224,-2.1715567747326858e-05,-0.00022180574104480044,-1.9924765617324036e-05,7.120768228396912e-07,-8.796409324274279e-06,-0.0007295303435628809,9.121994687543188e-05,0.00017686610411748283,-0.00048588372842154617,-8.951895730895726e-05,0.0002433675101462123,-0.0017707221425572385,0.6806880831718445,46.34963607788086,5.512905597686768,-19.487642288208008,-0.5642600655555725,-2.4301180839538574,0.18710653483867645,0
61,0.29995131492614746,-0.6806880831718445,-46.34963607788086,-5.512905597686768,19.487642288208008,0.5642600655555725,2.4301180839538574,-0.18710653483867645,0.0,0.0,0.0,0.0,0.0,0.0,0.0,-0.6314274723984423,-0.017400167214176334,-0.3756099878947501,0.2909919828481347,-0.013400070878811387,0.15275184966944266,-0.14851450048559725,0.8780984525136779,0.755194048530177,-0.2825335496015734,-1.6688775557196687,0.14143852028284792,2.4034444052908155,1.0273468966401285,0.878092876070424,0.7554597494309409,-0.2825552651693207,-1.6690993614607135,0.1414185955172306,2.4034451173676383,1.0273381002308042,0.0007295303435628809,-9.121994687543188e-05,-0.00017686610411748283,0.00048588372842154617,8.951895730895726e-05,-0.0002433675101462123,0.0017707221425572385,0.0,0.0,0.0,0.0,0.0,0.0,0.0,-5.576443253940688e-06,0.00026570090076383224,-2.1715567747326858e-05,-0.00022180574104480044,-1.9924765617324036e-05,7.120768228396912e-07,-8.796409324274279e-06,-0.0007295303435628809,9.121994687543188e-05,0.00017686610411748283,-0.00048588372842154617,-8.951895730895726e-05,0.0002433675101462123,-0.0017707221425572385,0.6806880831718445,46.34963607788086,5.512905597686768,-19.487642288208008,-0.5642600655555725,-2.4301180839538574,0.18710653483867645,0
62,0.30495238304138184,-0.6568843722343445,-46.37740707397461,-5.588284015655518,19.535249710083008,0.5697532296180725,2.4173007011413574,-0.17978231608867645,0.0,0.0,0.0,0.0,0.0,0.0,0.0,-0.6558217251371352,-0.0198259190884248,-0.39132488704619234,0.2904929623325019,-0.013653710410172278,0.1531621332915158,-0.14816476918319763,0.8780967820778227,0.7551959973720082,-0.28252825988802993,-1.6688816426246391,0.14143683944704225,2.4034458294444616,1.0273471690223088,0.878092876070424,0.7554597494309409,-0.2825552651693207,-1.6690993614607135,0.1414185955172306,2.4034451173676383,1.0273381002308042,-0.00019317438177839474,0.0007746690072911072,0.0002839343168410991,-0.00043232343337568796,4.017158450036863e-05,0.0001304620047144491,0.0019183332981395943,0.0,0.0,0.0,0.0,0.0,0.0,0.0,-3.906007398746247e-06,0.00026375205893269804,-2.7005281290792826e-05,-0.00021771883607435427,-1.8243929811645465e-05,-7.120768232837804e-07,-9.068791504640572e-06,0.00019317438177839474,-0.0007746690072911072,-0.0002839343168410991,0.00043232343337568796,-4.017158450036863e-05,-0.0001304620047144491,-0.0019183332981395943,0.6568843722343445,46.37740707397461,5.588284015655518,-19.535249710083008,-0.5697532296180725,-2.4173007011413574,0.17978231608867645,0
63,0.3099327087402344,-0.6568843722343445,-46.37740707397461,-5.588284015655518,19.535249710083008,0.5697532296180725,2.4173007011413574,-0.17978231608867645,0.0,0.0,0.0,0.0,0.0,0.0,0.0,-0.6558217251371352,-0.0198259190884248,-0.39132488704619234,0.2904929623325019,-0.013653710410172278,0.1531621332915158,-0.14816476918319763,0.8780967820778227,0.7551959973720082,-0.28252825988802993,-1.6688816426246391,0.14143683944704225,2.4034458294444616,1.0273471690223088,0.878092876070424,0.7554597494309409,-0.2825552651693207,-1.6690993614607135,0.1414185955172306,2.4034451173676383,1.0273381002308042,-0.00019317438177839474,0.0007746690072911072,0.0002839343168410991,-0.00043232343337568796,4.017158450036863e-05,0.0001304620047144491,0.0019183332981395943,0.0,0.0,0.0,0.0,0.0,0.0,0.0,-3.906007398746247e-06,0.00026375205893269804,-2.7005281290792826e-05,-0.00021771883607435427,-1.8243929811645465e-05,-7.120768232837804e-07,-9.068791504640572e-06,0.00019317438177839474,-0.0007746690072911072,-0.0002839343168410991,0.00043232343337568796,-4.017158450036863e-05,-0.0001304620047144491,-0.0019183332981395943,0.6568843722343445,46.37740707397461,5.588284015655518,-19.535249710083008,-0.5697532296180725,-2.4173007011413574,0.17978231608867645,0
64,0.31498169898986816,-0.7322627902030945,-46.34963607788086,-5.612087726593018,19.487642288208008,0.5642600655555725,2.4237093925476074,-0.12485067546367645,0.0,0.0,0.0,0.0,0.0,0.0,0.0,-0.6638786646708585,-0.02043037792290113,-0.39782972392405896,0.29210835115554534,-0.014163049551014814,0.15294527202510663,-0.1460311872572241,0.8781020714643156,0.755194048530177,-0.2825265894521747,-1.6688782929240147,0.1414374496340761,2.4034451173676383,1.0273399793285518,0.878092876070424,0.7554597494309409,-0.2825552651693207,-1.6690993614607135,0.1414185955172306,2.4034451173676383,1.0273381002308042,0.0007103896342472231,-0.00016249567308189482,0.0003512369983127069,0.0005406491353127584,0.00036826589768198923,-4.5960298600415065e-05,-0.0001576781730380885,0.0,0.0,0.0,0.0,0.0,0.0,0.0,-9.19539389165891e-06,0.00026570090076383224,-2.867571714604278e-05,-0.00022106853669878745,-1.885411684549032e-05,0.0,-1.8790977476257353e-06,-0.0007103896342472231,0.00016249567308189482,-0.0003512369983127069,-0.0005406491353127584,-0.00036826589768198923,4.5960298600415065e-05,0.0001576781730380885,0.7322627902030945,46.34963607788086,5.612087726593018,-19.487642288208008,-0.5642600655555725,-2.4237093925476074,0.12485067546367645,0
65,0.3199610710144043,-0.7322627902030945,-46.34963607788086,-5.612087726593018,19.487642288208008,0.5642600655555725,2.4237093925476074,-0.12485067546367645,0.0,0.0,0.0,0.0,0.0,0.0,0.0,-0.6638786646708585,-0.02043037792290113,-0.39782972392405896,0.29210835115554534,-0.014163049551014814,0.15294527202510663,-0.1460311872572241,0.8781020714643156,0.755194048530177,-0.2825265894521747,-1.6688782929240147,0.1414374496340761,2.4034451173676383,1.0273399793285518,0.878092876070424,0.7554597494309409,-0.2825552651693207,-1.6690993614607135,0.1414185955172306,2.4034451173676383,1.0273381002308042,0.0007103896342472231,-0.00016249567308189482,0.0003512369983127069,0.0005406491353127584,0.00036826589768198923,-4.5960298600415065e-05,-0.0001576781730380885,0.0,0.0,0.0,0.0,0.0,0.0,0.0,-9.19539389165891e-06,0.00026570090076383224,-2.867571714604278e-05,-0.00022106853669878745,-1.885411684549032e-05,0.0,-1.8790977476257353e-06,-0.0007103896342472231,0.00016249567308189482,-0.0003512369983127069,-0.0005406491353127584,-0.00036826589768198923,4.5960298600415065e-05,0.0001576781730380885,0.7322627902030945,46.34963607788086,5.612087726593018,-19.487642288208008,-0.5642600655555725,-2.4237093925476074,0.12485067546367645,0
66,0.32496166229248047,-0.6291133761405945,-46.34963607788086,-5.564480304718018,19.511445999145508,0.5761619210243225,2.4173007011413574,-0.18710653483867645,0.0,0.0,0.0,0.0,0.0,0.0,0.0,-0.6333167944104844,-0.01858400581676896,-0.3746387837712877,0.29589509411873527,-0.014632639593422056,0.15283461040471458,-0.14450997241912705,0.8780948332359897,0.755194048530177,-0.2825299303238852,-1.668879972190138,0.14143648278849394,2.4034458294444616,1.0273468966401285,0.878092876070424,0.7554597494309409,-0.2825552651693207,-1.6690993614607135,0.1414185955172306,2.4034451173676383,1.0273381002308042,-0.0005570968176602701,2.9533151006710432e-05,-0.00013117951567703548,-0.0003968721942867059,-0.00027315824159358353,-3.923970093060097e-06,0.0015945786546702459,0.0,0.0,0.0,0.0,0.0,0.0,0.0,-1.9571655657246723e-06,0.00026570090076383224,-2.5334845435542874e-05,-0.0002193892705755207,-1.7887271263339333e-05,-7.120768232837804e-07,-8.796409324274279e-06,0.0005570968176602701,-2.9533151006710432e-05,0.00013117951567703548,0.0003968721942867059,0.00027315824159358353,3.923970093060097e-06,-0.0015945786546702459,0.6291133761405945,46.34963607788086,5.564480304718018,-19.511445999145508,-0.5761619210243225,-2.4173007011413574,0.18710653483867645,0
67,0.3303682804107666,-0.6291133761405945,-46.34963607788086,-5.564480304718018,19.511445999145508,0.5761619210243225,2.4173007011413574,-0.18710653483867645,0.0,0.0,0.0,0.0,0.0,0.0,0.0,-0.6333167944104844,-0.01858400581676896,-0.3746387837712877,0.29589509411873527,-0.014632639593422056,0.15283461040471458,-0.14450997241912705,0.8780948332359897,0.755194048530177,-0.2825299303238852,-1.668879972190138,0.14143648278849394,2.4034458294444616,1.0273468966401285,0.878092876070424,0.7554597494309409,-0.2825552651693207,-1.6690993614607135,0.1414185955172306,2.4034451173676383,1.0273381002308042,-0.0005570968176602701,2.9533151006710432e-05,-0.00013117951567703548,-0.0003968721942867059,-0.00027315824159358353,-3.923970093060097e-06,0.0015945786546702459,0.0,0.0,0.0,0.0,0.0,0.0,0.0,-1.9571655657246723e-06,0.00026570090076383224,-2.5334845435542874e-05,-0.0002193892705755207,-1.7887271263339333e-05,-7.120768232837804e-07,-8.796409324274279e-06,0.0005570968176602701,-2.9533151006710432e-05,0.00013117951567703548,0.0003968721942867059,0.00027315824159358353,3.923970093060097e-06,-0.0015945786546702459,0.6291133761405945,46.34963607788086,5.564480304718018,-19.511445999145508,-0.5761619210243225,-2.4173007011413574,0.18710653483867645,0
68,0.3350074291229248,-0.6291133761405945,-46.34963607788086,-5.564480304718018,19.511445999145508,0.5761619210243225,2.4173007011413574,-0.18710653483867645,0.0,0.0,0.0,0.0,0.0,0.0,0.0,-0.6333167944104844,-0.01858400581676896,-0.3746387837712877,0.29589509411873527,-0.014632639593422056,0.15283461040471458,-0.14450997241912705,0.8780948332359897,0.755194048530177,-0.2825299303238852,-1.668879972190138,0.14143648278849394,2.4034458294444616,1.0273468966401285,0.878092876070424,0.7554597494309409,-0.2825552651693207,-1.6690993614607135,0.1414185955172306,2.4034451173676383,1.0273381002308042,-0.0005570968176602701,2.9533151006710432e-05,-0.00013117951567703548,-0.0003968721942867059,-0.00027315824159358353,-3.923970093060097e-06,0.0015945786546702459,0.0,0.0,0.0,0.0,0.0,0.0,0.0,-1.9571655657246723e-06,0.00026570090076383224,-2.5334845435542874e-05,-0.0002193892705755207,-1.7887271263339333e-05,-7.120768232837804e-07,-8.796409324274279e-06,0.0005570968176602701,-2.9533151006710432e-05,0.00013117951567703548,0.0003968721942867059,0.00027315824159358353,3.923970093060097e-06,-0.0015945786546702459,0.6291133761405945,46.34963607788086,5.564480304718018,-19.511445999145508,-0.5761619210243225,-2.4173007011413574,0.18710653483867645,0
69,0.3399510383605957,-0.6291133761405945,-46.34963607788086,-5.564480304718018,19.511445999145508,0.5761619210243225,2.4173007011413574,-0.18710653483867645,0.0,0.0,0.0,0.0,0.0,0.0,0.0,-0.6333167944104844,-0.01858400581676896,-0.3746387837712877,0.29589509411873527,-0.014632639593422056,0.15283461040471458,-0.14450997241912705,0.8780948332359897,0.755194048530177,-0.2825299303238852,-1.668879972190138,0.14143648278849394,2.4034458294444616,1.0273468966401285,0.878092876070424,0.7554597494309409,-0.2825552651693207,-1.6690993614607135,0.1414185955172306,2.4034451173676383,1.0273381002308042,-0.0005570968176602701,2.9533151006710432e-05,-0.00013117951567703548,-0.0003968721942867059,-0.00027315824159358353,-3.923970093060097e-06,0.0015945786546702459,0.0,0.0,0.0,0.0,0.0,0.0,0.0,-1.9571655657246723e-06,0.00026570090076383224,-2.5334845435542874e-05,-0.0002193892705755207,-1.7887271263339333e-05,-7.120768232837804e-07,-8.796409324274279e-06,0.0005570968176602701,-2.9533151006710432e-05,0.00013117951567703548,0.0003968721942867059,0.00027315824159358353,3.923970093060097e-06,-0.0015945786546702459,0.6291133761405945,46.34963607788086,5.564480304718018,-19.511445999145508,-0.5761619210243225,-2.4173007011413574,0.18710653483867645,0
70,0.34494662284851074,-0.6568843722343445,-46.32583236694336,-5.564480304718018,19.487642288208008,0.5642600655555725,2.4173007011413574,-0.16604940593242645,0.0,0.0,0.0,0.0,0.0,0.0,0.0,-0.657701092753821,-0.020082617029409614,-0.39624367420386,0.2933038257478151,-0.014101835292369184,0.152315218680528,-0.14505659598785348,0.8780967820778227,0.7551923780943218,-0.2825299303238852,-1.66887827231994,0.14144175563333122,2.4034458294444616,1.027344556959139,0.878092876070424,0.7554597494309409,-0.2825552651693207,-1.6690993614607135,0.1414185955172306,2.4034451173676383,1.0273381002308042,0.0004280356594614043,-0.00048776130594815296,-0.000278613393841939,7.788355284725346e-05,0.0003111608756494,4.241868768052002e-05,0.0009731945177717552,0.0,0.0,0.0,0.0,0.0,0.0,0.0,-3.906007398746247e-06,0.0002673713366190267,-2.5334845435542874e-05,-0.0002210891407734561,-2.3160116100623407e-05,-7.120768232837804e-07,-6.456728334880424e-06,-0.0004280356594614043,0.00048776130594815296,0.000278613393841939,-7.788355284725346e-05,-0.0003111608756494,-4.241868768052002e-05,-0.0009731945177717552,0.6568843722343445,46.32583236694336,5.564480304718018,-19.487642288208008,-0.5642600655555725,-2.4173007011413574,0.16604940593242645,0
71,0.3499729633331299,-0.6568843722343445,-46.32583236694336,-5.564480304718018,19.487642288208008,0.5642600655555725,2.4173007011413574,-0.16604940593242645,0.0,0.0,0.0,0.0,0.0,0.0,0.0,-0.657701092753821,-0.020082617029409614,-0.39624367420386,0.2933038257478151,-0.014101835292369184,0.152315218680528,-0.14505659598785348,0.8780967820778227,0.7551923780943218,-0.2825299303238852,-1.66887827231994,0.14144175563333122,2.4034458294444616,1.027344556959139,0.878092876070424,0.7554597494309409,-0.2825552651693207,-1.6690993614607135,0.1414185955172306,2.4034451173676383,1.0273381002308042,0.0004280356594614043,-0.00048776130594815296,-0.000278613393841939,7.788355284725346e-05,0.0003111608756494,4.241868768052002e-05,0.0009731945177717552,0.0,0.0,0.0,0.0,0.0,0.0,0.0,-3.906007398746247e-06,0.0002673713366190267,-2.5334845435542874e-05,-0.0002210891407734561,-2.3160116100623407e-05,-7.120768232837804e-07,-6.456728334880424e-06,-0.0004280356594614043,0.00048776130594815296,0.000278613393841939,-7.788355284725346e-05,-0.0003111608756494,-4.241868768052002e-05,-0.0009731945177717552,0.6568843722343445,46.32583236694336,5.564480304718018,-19.487642288208008,-0.5642600655555725,-2.4173007011413574,0.16604940593242645,0
72,0.35494303703308105,-0.5815059542655945,-46.32583236694336,-5.536709308624268,19.459871292114258,0.5642600655555725,2.4173007011413574,-0.11844198405742645,0.0,0.0,0.0,0.0,0.0,0.0,0.0,-0.6242659304822348,-0.017388293918691962,-0.3753707644956816,0.29306972250842434,-0.014907827813494345,0.15192189273857523,-0.1445844342721447,0.878091492364281,0.7551923780943218,-0.2825318791657163,-1.6688756376565979,0.1414406484409856,2.403445829605967,1.0273392672455972,0.878092876070424,0.7554597494309409,-0.2825552651693207,-1.6690993614607135,0.1414185955172306,2.4034451173676383,1.0273381002308042,-0.00044236307599671286,-0.000632276025415411,0.000216952059893485,0.0008642847332557339,0.0002066435915034358,0.00013486075129032975,-0.0010196799291043084,0.0,0.0,0.0,0.0,0.0,0.0,0.0,1.383706142998875e-06,0.0002673713366190267,-2.338600360440868e-05,-0.00022372380411561643,-2.2052923755011555e-05,-7.122383287594403e-07,-1.1670147930242791e-06,0.00044236307599671286,0.000632276025415411,-0.000216952059893485,-0.0008642847332557339,-0.0002066435915034358,-0.00013486075129032975,0.0010196799291043084,0.5815059542655945,46.32583236694336,5.536709308624268,-19.459871292114258,-0.5642600655555725,-2.4173007011413574,0.11844198405742645,0
73,0.36000728607177734,-0.5815059542655945,-46.32583236694336,-5.536709308624268,19.459871292114258,0.5642600655555725,2.4173007011413574,-0.11844198405742645,0.0,0.0,0.0,0.0,0.0,0.0,0.0,-0.6242659304822348,-0.017388293918691962,-0.3753707644956816,0.29306972250842434,-0.014907827813494345,0.15192189273857523,-0.1445844342721447,0.878091492364281,0.7551923780943218,-0.2825318791657163,-1.6688756376565979,0.1414406484409856,2.403445829605967,1.0273392672455972,0.878092876070424,0.7554597494309409,-0.2825552651693207,-1.6690993614607135,0.1414185955172306,2.4034451173676383,1.0273381002308042,-0.00044236307599671286,-0.000632276025415411,0.000216952059893485,0.0008642847332557339,0.0002066435915034358,0.00013486075129032975,-0.0010196799291043084,0.0,0.0,0.0,0.0,0.0,0.0,0.0,1.383706142998875e-06,0.0002673713366190267,-2.338600360440868e-05,-0.00022372380411561643,-2.2052923755011555e-05,-7.122383287594403e-07,-1.1670147930242791e-06,0.00044236307599671286,0.000632276025415411,-0.000216952059893485,-0.0008642847332557339,-0.0002066435915034358,-0.00013486075129032975,0.0010196799291043084,0.5815059542655945,46.32583236694336,5.536709308624268,-19.459871292114258,-0.5642600655555725,-2.4173007011413574,0.11844198405742645,0
74,0.3655893802642822,-0.5537349581718445,-46.37740707397461,-5.512905597686768,19.511445999145508,0.5697532296180725,2.4108920097351074,-0.15231649577617645,0.0,0.0,0.0,0.0,0.0,0.0,0.0,-0.6182538042217727,-0.02355712378956234,-0.37228006518369133,0.29337028043857777,-0.01517173338811754,0.15253569843254994,-0.14329628654275986,0.8780895434134336,0.7551959973720082,-0.2825335496015716,-1.66887997218615,0.1414401609445075,2.4034465415212853,1.0273430310802327,0.878092876070424,0.7554597494309409,-0.2825552651693207,-1.6690993614607135,0.1414185955172306,2.4034451173676383,1.0273381002308042,-0.00013861928465318095,0.00044129214076620585,2.276309525855431e-05,-0.00012294418049326543,-0.0001096467661457065,0.00036602482882858167,0.0002591038410410127,0.0,0.0,0.0,0.0,0.0,0.0,0.0,3.3326569903735503e-06,0.00026375205893269804,-2.1715567749103215e-05,-0.00021938927456344182,-2.1565427276909466e-05,-1.42415364701165e-06,-4.930849428541606e-06,0.00013861928465318095,-0.00044129214076620585,-2.276309525855431e-05,0.00012294418049326543,0.0001096467661457065,-0.00036602482882858167,-0.0002591038410410127,0.5537349581718445,46.37740707397461,5.512905597686768,-19.511445999145508,-0.5697532296180725,-2.4108920097351074,0.15231649577617645,0
75,0.369981050491333,-0.5537349581718445,-46.37740707397461,-5.512905597686768,19.511445999145508,0.5697532296180725,2.4108920097351074,-0.15231649577617645,0.0,0.0,0.0,0.0,0.0,0.0,0.0,-0.6182538042217727,-0.02355712378956234,-0.37228006518369133,0.29337028043857777,-0.01517173338811754,0.15253569843254994,-0.14329628654275986,0.8780895434134336,0.7551959973720082,-0.2825335496015716,-1.66887997218615,0.1414401609445075,2.4034465415212853,1.0273430310802327,0.878092876070424,0.7554597494309409,-0.2825552651693207,-1.6690993614607135,0.1414185955172306,2.4034451173676383,1.0273381002308042,-0.00013861928465318095,0.00044129214076620585,2.276309525855431e-05,-0.00012294418049326543,-0.0001096467661457065,0.00036602482882858167,0.0002591038410410127,0.0,0.0,0.0,0.0,0.0,0.0,0.0,3.3326569903735503e-06,0.00026375205893269804,-2.1715567749103215e-05,-0.00021938927456344182,-2.1565427276909466e-05,-1.42415364701165e-06,-4.930849428541606e-06,0.00013861928465318095,-0.00044129214076620585,-2.276309525855431e-05,0.00012294418049326543,0.0001096467661457065,-0.00036602482882858167,-0.0002591038410410127,0.5537349581718445,46.37740707397461,5.512905597686768,-19.511445999145508,-0.5697532296180725,-2.4108920097351074,0.15231649577617645,0
76,0.37494683265686035,-0.6291133761405945,-46.34963607788086,-5.588284015655518,19.535249710083008,0.5697532296180725,2.4173007011413574,-0.14590780436992645,0.0,0.0,0.0,0.0,0.0,0.0,0.0,-0.649430225009495,-0.015687196302307093,-0.39830741669458486,0.28375245240685315,-0.014557896521378962,0.1518078176837919,-0.14236585671281868,0.8780948302925516,0.755194048530177,-0.2825282686365854,-1.6688816426260429,0.14143683930126352,2.4034458294444616,1.0273423190034099,0.878092876070424,0.7554597494309409,-0.2825552651693207,-1.6690993614607135,0.1414185955172306,2.4034451173676383,1.0273381002308042,0.0008970596666687439,-1.6875605358134633e-05,0.000922639433100409,-0.000866932068241824,6.0795306261162166e-05,0.0003445711149054134,0.0002835184995094347,0.0,0.0,0.0,0.0,0.0,0.0,0.0,-1.95422212767582e-06,0.00026570090076383224,-2.699653273530167e-05,-0.00021771883467058828,-1.8243784032923038e-05,-7.120768232837804e-07,-4.218772605701915e-06,-0.0008970596666687439,1.6875605358134633e-05,-0.000922639433100409,0.000866932068241824,-6.0795306261162166e-05,-0.0003445711149054134,-0.0002835184995094347,0.6291133761405945,46.34963607788086,5.588284015655518,-19.535249710083008,-0.5697532296180725,-2.4173007011413574,0.14590780436992645,0
77,0.37995004653930664,-0.6291133761405945,-46.34963607788086,-5.588284015655518,19.535249710083008,0.5697532296180725,2.4173007011413574,-0.14590780436992645,0.0,0.0,0.0,0.0,0.0,0.0,0.0,-0.649430225009495,-0.015687196302307093,-0.39830741669458486,0.28375245240685315,-0.014557896521378962,0.1518078176837919,-0.14236585671281868,0.8780948302925516,0.755194048530177,-0.2825282686365854,-1.6688816426260429,0.14143683930126352,2.4034458294444616,1.0273423190034099,0.878092876070424,0.7554597494309409,-0.2825552651693207,-1.6690993614607135,0.1414185955172306,2.4034451173676383,1.0273381002308042,0.0008970596666687439,-1.6875605358134633e-05,0.000922639433100409,-0.000866932068241824,6.0795306261162166e-05,0.0003445711149054134,0.0002835184995094347,0.0,0.0,0.0,0.0,0.0,0.0,0.0,-1.95422212767582e-06,0.00026570090076383224,-2.699653273530167e-05,-0.00021771883467058828,-1.8243784032923038e-05,-7.120768232837804e-07,-4.218772605701915e-06,-0.0008970596666687439,1.6875605358134633e-05,-0.000922639433100409,0.000866932068241824,-6.0795306261162166e-05,-0.0003445711149054134,-0.0002835184995094347,0.6291133761405945,46.34963607788086,5.588284015655518,-19.535249710083008,-0.5697532296180725,-2.4173007011413574,0.14590780436992645,0
78,0.3849632740020752,-0.6568843722343445,-46.32583236694336,-5.536709308624268,19.511445999145508,0.5761619210243225,2.4237093925476074,-0.11111776530742645,0.0,0.0,0.0,0.0,0.0,0.0,0.0,-0.6280563931002903,-0.01573593158681407,-0.3870756958979665,0.28733486820844145,-0.014819810105657463,0.15224592693241287,-0.14250835558876376,0.8780967820778062,0.7551923780943218,-0.28253187916576566,-1.6688799721901877,0.14143612866832478,2.4034451173676383,1.027338453443514,0.878092876070424,0.7554597494309409,-0.2825552651693207,-1.6690993614607135,0.1414185955172306,2.4034451173676383,1.0273381002308042,0.0008743681724994046,-0.0005322384792143422,-0.00017876262948534369,0.00016985756179467186,-0.00015167227818895968,-2.7832288495199613e-05,-0.001408997111294366,0.0,0.0,0.0,0.0,0.0,0.0,0.0,-3.906007382203924e-06,0.0002673713366190267,-2.3386003555059265e-05,-0.00021938927052578272,-1.7533151094178967e-05,0.0,-3.532127097471971e-07,-0.0008743681724994046,0.0005322384792143422,0.00017876262948534369,-0.00016985756179467186,0.00015167227818895968,2.7832288495199613e-05,0.001408997111294366,0.6568843722343445,46.32583236694336,5.536709308624268,-19.511445999145508,-0.5761619210243225,-2.4237093925476074,0.11111776530742645,0
79,0.38996267318725586,-0.6568843722343445,-46.32583236694336,-5.536709308624268,19.511445999145508,0.5761619210243225,2.4237093925476074,-0.11111776530742645,0.0,0.0,0.0,0.0,0.0,0.0,0.0,-0.6280563931002903,-0.01573593158681407,-0.3870756958979665,0.28733486820844145,-0.014819810105657463,0.15224592693241287,-0.14250835558876376,0.8780967820778062,0.7551923780943218,-0.28253187916576566,-1.6688799721901877,0.14143612866832478,2.4034451173676383,1.027338453443514,0.878092876070424,0.7554597494309409,-0.2825552651693207,-1.6690993614607135,0.1414185955172306,2.4034451173676383,1.0273381002308042,0.0008743681724994046,-0.0005322384792143422,-0.00017876262948534369,0.00016985756179467186,-0.00015167227818895968,-2.7832288495199613e-05,-0.001408997111294366,0.0,0.0,0.0,0.0,0.0,0.0,0.0,-3.906007382203924e-06,0.0002673713366190267,-2.3386003555059265e-05,-0.00021938927052578272,-1.7533151094178967e-05,0.0,-3.532127097471971e-07,-0.0008743681724994046,0.0005322384792143422,0.00017876262948534369,-0.00016985756179467186,0.00015167227818895968,2.7832288495199613e-05,0.001408997111294366,0.6568843722343445,46.32583236694336,5.536709308624268,-19.511445999145508,-0.5761619210243225,-2.4237093925476074,0.11111776530742645,0
80,0.3952300548553467,-0.6568843722343445,-46.34963607788086,-5.536709308624268,19.535249710083008,0.5697532296180725,2.4301180839538574,-0.16604940593242645,0.0,0.0,0.0,0.0,0.0,0.0,0.0,-0.6170376711440985,-0.008892483487261649,-0.37478078626066463,0.2870106683264988,-0.014652782579854435,0.15167096115358367,-0.1424907353898494,0.8780967791343836,0.755194048530177,-0.2825318791657163,-1.6688816426260429,0.14143790554338856,2.4034444052908155,1.027344556959139,0.878092876070424,0.7554597494309409,-0.2825552651693207,-1.6690993614607135,0.1414185955172306,2.4034451173676383,1.0273381002308042,0.0005760625943221766,0.0006188728874266961,0.00015137902417517452,-0.0009783625130446066,0.00015782321753525,-0.0004996080244165429,0.0006013837052197843,0.0,0.0,0.0,0.0,0.0,0.0,0.0,-3.903063959587172e-06,0.00026570090076383224,-2.338600360440868e-05,-0.00021771883467058828,-1.9310026157959292e-05,7.120768228396912e-07,-6.456728334880424e-06,-0.0005760625943221766,-0.0006188728874266961,-0.00015137902417517452,0.0009783625130446066,-0.00015782321753525,0.0004996080244165429,-0.0006013837052197843,0.6568843722343445,46.34963607788086,5.536709308624268,-19.535249710083008,-0.5697532296180725,-2.4301180839538574,0.16604940593242645,0
