rezayati/contactInterpretation/dataset/franka_main/labeled_data/link5/c6_6.csv
index,time,tau_J0,tau_J1,tau_J2,tau_J3,tau_J4,tau_J5,tau_J6,tau_J_d0,tau_J_d1,tau_J_d2,tau_J_d3,tau_J_d4,tau_J_d5,tau_J_d6,tau_ext0,tau_ext1,tau_ext2,tau_ext3,tau_ext4,tau_ext5,tau_ext6,q0,q1,q2,q3,q4,q5,q6,q_d0,q_d1,q_d2,q_d3,q_d4,q_d5,q_d6,dq0,dq1,dq2,dq3,dq4,dq5,dq6,dq_d0,dq_d1,dq_d2,dq_d3,dq_d4,dq_d5,dq_d6,e0,e1,e2,e3,e4,e5,e6,de0,de1,de2,de3,de4,de5,de6,etau_J0,etau_J1,etau_J2,etau_J3,etau_J4,etau_J5,etau_J6,label
1,0.0,0.18418008089065552,-18.205713272094727,1.1164276599884033,18.047517776489258,0.6658836007118225,2.2552523612976074,-0.22830526530742645,0.0,0.0,0.0,0.0,0.0,0.0,0.0,0.12490250005579298,0.49676731901235666,0.3083305690261463,0.41915199559988103,0.2353611960296469,0.0669680774604655,-0.19730635071000874,-0.6092621921948339,-0.05773272789413167,-0.6665419007237231,-2.5945601504466493,-0.05568400839848074,2.5079567375712926,0.8763215298567648,-0.6090851748156966,-0.05753196718556838,-0.666603097082616,-2.5945565370258534,-0.05562143941554,2.507976027223799,0.8763108487046415,-0.0005143988094296127,0.0014016335396173682,0.0004623348763937712,5.2649153768442115e-05,1.3514157334969605e-05,-6.515339215294814e-05,0.0007085027312162065,0.0,0.0,0.0,0.0,0.0,0.0,0.0,0.00017701737913733417,0.00020076070856328565,-6.119635889290098e-05,3.613420795911537e-06,6.256898294074165e-05,1.9289652506415678e-05,-1.068115212332632e-05,0.0005143988094296127,-0.0014016335396173682,-0.0004623348763937712,-5.2649153768442115e-05,-1.3514157334969605e-05,6.515339215294814e-05,-0.0007085027312162065,-0.18418008089065552,18.205713272094727,-1.1164276599884033,-18.047517776489258,-0.6658836007118225,-2.2552523612976074,0.22830526530742645,0
2,0.004997968673706055,0.18418008089065552,-18.205713272094727,1.1164276599884033,18.047517776489258,0.6658836007118225,2.2552523612976074,-0.22830526530742645,0.0,0.0,0.0,0.0,0.0,0.0,0.0,0.12490250005579298,0.49676731901235666,0.3083305690261463,0.41915199559988103,0.2353611960296469,0.0669680774604655,-0.19730635071000874,-0.6092621921948339,-0.05773272789413167,-0.6665419007237231,-2.5945601504466493,-0.05568400839848074,2.5079567375712926,0.8763215298567648,-0.6090851748156966,-0.05753196718556838,-0.666603097082616,-2.5945565370258534,-0.05562143941554,2.507976027223799,0.8763108487046415,-0.0005143988094296127,0.0014016335396173682,0.0004623348763937712,5.2649153768442115e-05,1.3514157334969605e-05,-6.515339215294814e-05,0.0007085027312162065,0.0,0.0,0.0,0.0,0.0,0.0,0.0,0.00017701737913733417,0.00020076070856328565,-6.119635889290098e-05,3.613420795911537e-06,6.256898294074165e-05,1.9289652506415678e-05,-1.068115212332632e-05,0.0005143988094296127,-0.0014016335396173682,-0.0004623348763937712,-5.2649153768442115e-05,-1.3514157334969605e-05,6.515339215294814e-05,-0.0007085027312162065,-0.18418008089065552,18.205713272094727,-1.1164276599884033,-18.047517776489258,-0.6658836007118225,-2.2552523612976074,0.22830526530742645,0
3,0.00999593734741211,0.21195107698440552,-18.154138565063477,1.1680023670196533,18.047517776489258,0.6594749093055725,2.2552523612976074,-0.18710653483867645,0.0,0.0,0.0,0.0,0.0,0.0,0.0,0.13350100125851602,0.5028981308470721,0.31232013335410297,0.41764816008686895,0.2360265771441761,0.0666895797836879,-0.20025327038070428,-0.6092641675638073,-0.057736352699869514,-0.6665477443329679,-2.5945602878062424,-0.05568020619201831,2.5079567375712926,0.8763155393694285,-0.6090851748156966,-0.05753196718556838,-0.666603097082616,-2.5945565370258534,-0.05562143941554,2.507976027223799,0.8763108487046415,-0.001533092870719726,0.00046104220414273076,-0.0004995157527476235,0.00010075165963754681,-0.00010247632544873788,-0.0003031018670977739,-0.0006069198665909671,0.0,0.0,0.0,0.0,0.0,0.0,0.0,0.00017899274811072896,0.00020438551430113083,-5.535274964807435e-05,3.750780388944719e-06,5.8766776478307026e-05,1.9289652506415678e-05,-4.690664787032617e-06,0.001533092870719726,-0.00046104220414273076,0.0004995157527476235,-0.00010075165963754681,0.00010247632544873788,0.0003031018670977739,0.0006069198665909671,-0.21195107698440552,18.154138565063477,-1.1680023670196533,-18.047517776489258,-0.6594749093055725,-2.2552523612976074,0.18710653483867645,0
4,0.014996528625488281,0.21195107698440552,-18.154138565063477,1.1680023670196533,18.047517776489258,0.6594749093055725,2.2552523612976074,-0.18710653483867645,0.0,0.0,0.0,0.0,0.0,0.0,0.0,0.13350100125851602,0.5028981308470721,0.31232013335410297,0.41764816008686895,0.2360265771441761,0.0666895797836879,-0.20025327038070428,-0.6092641675638073,-0.057736352699869514,-0.6665477443329679,-2.5945602878062424,-0.05568020619201831,2.5079567375712926,0.8763155393694285,-0.6090851748156966,-0.05753196718556838,-0.666603097082616,-2.5945565370258534,-0.05562143941554,2.507976027223799,0.8763108487046415,-0.001533092870719726,0.00046104220414273076,-0.0004995157527476235,0.00010075165963754681,-0.00010247632544873788,-0.0003031018670977739,-0.0006069198665909671,0.0,0.0,0.0,0.0,0.0,0.0,0.0,0.00017899274811072896,0.00020438551430113083,-5.535274964807435e-05,3.750780388944719e-06,5.8766776478307026e-05,1.9289652506415678e-05,-4.690664787032617e-06,0.001533092870719726,-0.00046104220414273076,0.0004995157527476235,-0.00010075165963754681,0.00010247632544873788,0.0003031018670977739,0.0006069198665909671,-0.21195107698440552,18.154138565063477,-1.1680023670196533,-18.047517776489258,-0.6594749093055725,-2.2552523612976074,0.18710653483867645,0
5,0.019994497299194336,0.16037636995315552,-18.154138565063477,1.1680023670196533,18.047517776489258,0.6594749093055725,2.2424349784851074,-0.15964071452617645,0.0,0.0,0.0,0.0,0.0,0.0,0.0,0.14164192744154314,0.5096741483545816,0.3190658272003982,0.41802055727985354,0.23551920867293205,0.06636728837585694,-0.2020655027514879,-0.6092605482862706,-0.05773635595146234,-0.6665458726452114,-2.5945601230121045,-0.0556805617461069,2.5079581617249382,0.8763139004544795,-0.6090851748156966,-0.05753196718556838,-0.666603097082616,-2.5945565370258534,-0.05562143941554,2.507976027223799,0.8763108487046415,0.00016563246453175245,0.0010309941597151403,-0.00044309422073852,8.640891197997502e-05,-6.701354506508163e-05,0.00023291704369893867,-0.0015335754215458372,0.0,0.0,0.0,0.0,0.0,0.0,0.0,0.0001753734705740584,0.00020438876589395916,-5.72244374046349e-05,3.5859862510534413e-06,5.912233056690197e-05,1.7865498860736295e-05,-3.051749838056672e-06,-0.00016563246453175245,-0.0010309941597151403,0.00044309422073852,-8.640891197997502e-05,6.701354506508163e-05,-0.00023291704369893867,0.0015335754215458372,-0.16037636995315552,18.154138565063477,-1.1680023670196533,-18.047517776489258,-0.6594749093055725,-2.2424349784851074,0.15964071452617645,0
6,0.025096893310546875,0.16037636995315552,-18.154138565063477,1.1680023670196533,18.047517776489258,0.6594749093055725,2.2424349784851074,-0.15964071452617645,0.0,0.0,0.0,0.0,0.0,0.0,0.0,0.14164192744154314,0.5096741483545816,0.3190658272003982,0.41802055727985354,0.23551920867293205,0.06636728837585694,-0.2020655027514879,-0.6092605482862706,-0.05773635595146234,-0.6665458726452114,-2.5945601230121045,-0.0556805617461069,2.5079581617249382,0.8763139004544795,-0.6090851748156966,-0.05753196718556838,-0.666603097082616,-2.5945565370258534,-0.05562143941554,2.507976027223799,0.8763108487046415,0.00016563246453175245,0.0010309941597151403,-0.00044309422073852,8.640891197997502e-05,-6.701354506508163e-05,0.00023291704369893867,-0.0015335754215458372,0.0,0.0,0.0,0.0,0.0,0.0,0.0,0.0001753734705740584,0.00020438876589395916,-5.72244374046349e-05,3.5859862510534413e-06,5.912233056690197e-05,1.7865498860736295e-05,-3.051749838056672e-06,-0.00016563246453175245,-0.0010309941597151403,0.00044309422073852,-8.640891197997502e-05,6.701354506508163e-05,-0.00023291704369893867,0.0015335754215458372,-0.16037636995315552,18.154138565063477,-1.1680023670196533,-18.047517776489258,-0.6594749093055725,-2.2424349784851074,0.15964071452617645,0
7,0.030001401901245117,0.10880166292190552,-18.177942276000977,1.0926239490509033,18.023714065551758,0.6658836007118225,2.2296175956726074,-0.18710653483867645,0.0,0.0,0.0,0.0,0.0,0.0,0.0,0.1385952226065762,0.5128610034483617,0.3142170673883247,0.4163624487817177,0.23529263057755007,0.06585152553453623,-0.19976319838811016,-0.6092569290085843,-0.057733974399099566,-0.6665404690354422,-2.5945557603095537,-0.055680795745111034,2.507959585878584,0.8763169522202676,-0.6090851748156966,-0.05753196718556838,-0.666603097082616,-2.5945565370258534,-0.05562143941554,2.507976027223799,0.8763108487046415,0.0004748028642480715,0.0011541528338545584,0.0010301989632038166,0.00047955418441373687,-0.00031235791922593217,0.0007628393856784641,-0.0004564592530529191,0.0,0.0,0.0,0.0,0.0,0.0,0.0,0.00017175419288772975,0.0002020072135311829,-6.262804717382942e-05,-7.767162997218691e-07,5.935632957103365e-05,1.6441345215056913e-05,-6.1035156261324275e-06,-0.0004748028642480715,-0.0011541528338545584,-0.0010301989632038166,-0.00047955418441373687,0.00031235791922593217,-0.0007628393856784641,0.0004564592530529191,-0.10880166292190552,18.177942276000977,-1.0926239490509033,-18.023714065551758,-0.6658836007118225,-2.2296175956726074,0.18710653483867645,0
8,0.03499722480773926,0.10880166292190552,-18.177942276000977,1.0926239490509033,18.023714065551758,0.6658836007118225,2.2296175956726074,-0.18710653483867645,0.0,0.0,0.0,0.0,0.0,0.0,0.0,0.1385952226065762,0.5128610034483617,0.3142170673883247,0.4163624487817177,0.23529263057755007,0.06585152553453623,-0.19976319838811016,-0.6092569290085843,-0.057733974399099566,-0.6665404690354422,-2.5945557603095537,-0.055680795745111034,2.507959585878584,0.8763169522202676,-0.6090851748156966,-0.05753196718556838,-0.666603097082616,-2.5945565370258534,-0.05562143941554,2.507976027223799,0.8763108487046415,0.0004748028642480715,0.0011541528338545584,0.0010301989632038166,0.00047955418441373687,-0.00031235791922593217,0.0007628393856784641,-0.0004564592530529191,0.0,0.0,0.0,0.0,0.0,0.0,0.0,0.00017175419288772975,0.0002020072135311829,-6.262804717382942e-05,-7.767162997218691e-07,5.935632957103365e-05,1.6441345215056913e-05,-6.1035156261324275e-06,-0.0004748028642480715,-0.0011541528338545584,-0.0010301989632038166,-0.00047955418441373687,0.00031235791922593217,-0.0007628393856784641,0.0004564592530529191,-0.10880166292190552,18.177942276000977,-1.0926239490509033,-18.023714065551758,-0.6658836007118225,-2.2296175956726074,0.18710653483867645,0
9,0.03999471664428711,0.10880166292190552,-18.177942276000977,1.1441986560821533,18.047517776489258,0.6594749093055725,2.2424349784851074,-0.21457235515117645,0.0,0.0,0.0,0.0,0.0,0.0,0.0,0.13196319669697568,0.5058999660586565,0.3100962495491105,0.42168603463206084,0.23522219199534095,0.0655752207482467,-0.1968515391947073,-0.6092569290085843,-0.05773468551161116,-0.6665438526193133,-2.5945571742108937,-0.05568045200178286,2.5079581617249382,0.8763200039780801,-0.6090851748156966,-0.05753196718556838,-0.666603097082616,-2.5945565370258534,-0.05562143941554,2.507976027223799,0.8763108487046415,-0.0006211886637034483,3.277022632281184e-06,-0.0008526025850839176,0.00014458446180592728,4.117511158440142e-05,0.00028134989503447884,0.001458322347749196,0.0,0.0,0.0,0.0,0.0,0.0,0.0,0.00017175419288772975,0.00020271832604277368,-5.9244463302743355e-05,6.371850402864254e-07,5.901258624285699e-05,1.7865498860736295e-05,-9.155273438588019e-06,0.0006211886637034483,-3.277022632281184e-06,0.0008526025850839176,-0.00014458446180592728,-4.117511158440142e-05,-0.00028134989503447884,-0.001458322347749196,-0.10880166292190552,18.177942276000977,-1.1441986560821533,-18.047517776489258,-0.6594749093055725,-2.2424349784851074,0.21457235515117645,0
10,0.04495120048522949,0.10880166292190552,-18.177942276000977,1.1441986560821533,18.047517776489258,0.6594749093055725,2.2424349784851074,-0.21457235515117645,0.0,0.0,0.0,0.0,0.0,0.0,0.0,0.13196319669697568,0.5058999660586565,0.3100962495491105,0.42168603463206084,0.23522219199534095,0.0655752207482467,-0.1968515391947073,-0.6092569290085843,-0.05773468551161116,-0.6665438526193133,-2.5945571742108937,-0.05568045200178286,2.5079581617249382,0.8763200039780801,-0.6090851748156966,-0.05753196718556838,-0.666603097082616,-2.5945565370258534,-0.05562143941554,2.507976027223799,0.8763108487046415,-0.0006211886637034483,3.277022632281184e-06,-0.0008526025850839176,0.00014458446180592728,4.117511158440142e-05,0.00028134989503447884,0.001458322347749196,0.0,0.0,0.0,0.0,0.0,0.0,0.0,0.00017175419288772975,0.00020271832604277368,-5.9244463302743355e-05,6.371850402864254e-07,5.901258624285699e-05,1.7865498860736295e-05,-9.155273438588019e-06,0.0006211886637034483,-3.277022632281184e-06,0.0008526025850839176,-0.00014458446180592728,-4.117511158440142e-05,-0.00028134989503447884,-0.001458322347749196,-0.10880166292190552,18.177942276000977,-1.1441986560821533,-18.047517776489258,-0.6594749093055725,-2.2424349784851074,0.21457235515117645,0
11,0.049996137619018555,0.10880166292190552,-18.229516983032227,1.0926239490509033,18.047517776489258,0.6539817452430725,2.2625765800476074,-0.18710653483867645,0.0,0.0,0.0,0.0,0.0,0.0,0.0,0.13457805586149815,0.505048574270868,0.31746521761002205,0.4204169671667048,0.23489666100621429,0.06487056749203625,-0.1945332064464075,-0.6092566905900052,-0.05773106623793901,-0.6665433290752716,-2.594559561191975,-0.055679474830557414,2.507955923769209,0.8763169522202676,-0.6090851748156966,-0.05753196718556838,-0.666603097082616,-2.5945565370258534,-0.05562143941554,2.507976027223799,0.8763108487046415,-0.000332396379151259,0.0012487086548367773,0.0009629271283870564,0.0005964048704587351,0.00017855882932491483,-0.0002981141418349119,-0.00010795813737312359,0.0,0.0,0.0,0.0,0.0,0.0,0.0,0.0001715157743086282,0.00019909905237062986,-5.976800734441845e-05,3.024166121523564e-06,5.8035415017414216e-05,2.0103454589914804e-05,-6.1035156261324275e-06,0.000332396379151259,-0.0012487086548367773,-0.0009629271283870564,-0.0005964048704587351,-0.00017855882932491483,0.0002981141418349119,0.00010795813737312359,-0.10880166292190552,18.229516983032227,-1.0926239490509033,-18.047517776489258,-0.6539817452430725,-2.2625765800476074,0.18710653483867645,0
12,0.054998159408569336,0.10880166292190552,-18.229516983032227,1.0926239490509033,18.047517776489258,0.6539817452430725,2.2625765800476074,-0.18710653483867645,0.0,0.0,0.0,0.0,0.0,0.0,0.0,0.13457805586149815,0.505048574270868,0.31746521761002205,0.4204169671667048,0.23489666100621429,0.06487056749203625,-0.1945332064464075,-0.6092566905900052,-0.05773106623793901,-0.6665433290752716,-2.594559561191975,-0.055679474830557414,2.507955923769209,0.8763169522202676,-0.6090851748156966,-0.05753196718556838,-0.666603097082616,-2.5945565370258534,-0.05562143941554,2.507976027223799,0.8763108487046415,-0.000332396379151259,0.0012487086548367773,0.0009629271283870564,0.0005964048704587351,0.00017855882932491483,-0.0002981141418349119,-0.00010795813737312359,0.0,0.0,0.0,0.0,0.0,0.0,0.0,0.0001715157743086282,0.00019909905237062986,-5.976800734441845e-05,3.024166121523564e-06,5.8035415017414216e-05,2.0103454589914804e-05,-6.1035156261324275e-06,0.000332396379151259,-0.0012487086548367773,-0.0009629271283870564,-0.0005964048704587351,-0.00017855882932491483,0.0002981141418349119,0.00010795813737312359,-0.10880166292190552,18.229516983032227,-1.0926239490509033,-18.047517776489258,-0.6539817452430725,-2.2625765800476074,0.18710653483867645,0
13,0.05999279022216797,0.10880166292190552,-18.154138565063477,1.1441986560821533,18.023714065551758,0.6539817452430725,2.2552523612976074,-0.17978231608867645,0.0,0.0,0.0,0.0,0.0,0.0,0.0,0.12140748784225065,0.4932211576561371,0.30901482117240664,0.42049011888940807,0.23511679573965838,0.0658687108469396,-0.1941838896394847,-0.6092569288982221,-0.05773627693853338,-0.6665446462375538,-2.5945579855464533,-0.055679486295046626,2.5079567375712926,0.8763150787800549,-0.6090851748156966,-0.05753196718556838,-0.666603097082616,-2.5945565370258534,-0.05562143941554,2.507976027223799,0.8763108487046415,-0.00011068088098942302,-0.0013425246308024189,-0.0011545667772337239,0.0007784297721797777,0.00036045856174773597,-0.00015622303268510244,-0.0009004147190417571,0.0,0.0,0.0,0.0,0.0,0.0,0.0,0.0001717540825255659,0.00020430975296499565,-5.845084506217457e-05,1.448520599911518e-06,5.804687950662635e-05,1.9289652506415678e-05,-4.2300754133917096e-06,0.00011068088098942302,0.0013425246308024189,0.0011545667772337239,-0.0007784297721797777,-0.00036045856174773597,0.00015622303268510244,0.0009004147190417571,-0.10880166292190552,18.154138565063477,-1.1441986560821533,-18.023714065551758,-0.6539817452430725,-2.2552523612976074,0.17978231608867645,0
14,0.06499481201171875,0.10880166292190552,-18.154138565063477,1.1441986560821533,18.023714065551758,0.6539817452430725,2.2552523612976074,-0.17978231608867645,0.0,0.0,0.0,0.0,0.0,0.0,0.0,0.12140748784225065,0.4932211576561371,0.30901482117240664,0.42049011888940807,0.23511679573965838,0.0658687108469396,-0.1941838896394847,-0.6092569288982221,-0.05773627693853338,-0.6665446462375538,-2.5945579855464533,-0.055679486295046626,2.5079567375712926,0.8763150787800549,-0.6090851748156966,-0.05753196718556838,-0.666603097082616,-2.5945565370258534,-0.05562143941554,2.507976027223799,0.8763108487046415,-0.00011068088098942302,-0.0013425246308024189,-0.0011545667772337239,0.0007784297721797777,0.00036045856174773597,-0.00015622303268510244,-0.0009004147190417571,0.0,0.0,0.0,0.0,0.0,0.0,0.0,0.0001717540825255659,0.00020430975296499565,-5.845084506217457e-05,1.448520599911518e-06,5.804687950662635e-05,1.9289652506415678e-05,-4.2300754133917096e-06,0.00011068088098942302,0.0013425246308024189,0.0011545667772337239,-0.0007784297721797777,-0.00036045856174773597,0.00015622303268510244,0.0009004147190417571,-0.10880166292190552,18.154138565063477,-1.1441986560821533,-18.023714065551758,-0.6539817452430725,-2.2552523612976074,0.17978231608867645,0
15,0.0699918270111084,0.13260537385940552,-18.229516983032227,1.0926239490509033,18.071321487426758,0.6539817452430725,2.2488436698913574,-0.23471395671367645,0.0,0.0,0.0,0.0,0.0,0.0,0.0,0.1262608588679245,0.49704920847172657,0.31545107273914097,0.41693178647101997,0.23485979845679772,0.0662015066477762,-0.19504117078597116,-0.6092585199715792,-0.05773103112062753,-0.6665402323272912,-2.594562057990538,-0.05567988059332729,2.5079574496481154,0.8763222419278276,-0.6090851748156966,-0.05753196718556838,-0.666603097082616,-2.5945565370258534,-0.05562143941554,2.507976027223799,0.8763108487046415,0.00020665540486780715,0.0018040025295266496,0.0009989652461070311,-0.00040742374203826283,0.0001614326480478371,-1.1203569112983457e-05,0.0016101588402698183,0.0,0.0,0.0,0.0,0.0,0.0,0.0,0.00017334515588263155,0.0001990639350591475,-6.286475532479852e-05,5.5209646845355564e-06,5.844117778729119e-05,1.8577575683575986e-05,-1.1393223186106916e-05,-0.00020665540486780715,-0.0018040025295266496,-0.0009989652461070311,0.00040742374203826283,-0.0001614326480478371,1.1203569112983457e-05,-0.0016101588402698183,-0.13260537385940552,18.229516983032227,-1.0926239490509033,-18.071321487426758,-0.6539817452430725,-2.2488436698913574,0.23471395671367645,0
16,0.07499289512634277,0.13260537385940552,-18.229516983032227,1.0926239490509033,18.071321487426758,0.6539817452430725,2.2488436698913574,-0.23471395671367645,0.0,0.0,0.0,0.0,0.0,0.0,0.0,0.1262608588679245,0.49704920847172657,0.31545107273914097,0.41693178647101997,0.23485979845679772,0.0662015066477762,-0.19504117078597116,-0.6092585199715792,-0.05773103112062753,-0.6665402323272912,-2.594562057990538,-0.05567988059332729,2.5079574496481154,0.8763222419278276,-0.6090851748156966,-0.05753196718556838,-0.666603097082616,-2.5945565370258534,-0.05562143941554,2.507976027223799,0.8763108487046415,0.00020665540486780715,0.0018040025295266496,0.0009989652461070311,-0.00040742374203826283,0.0001614326480478371,-1.1203569112983457e-05,0.0016101588402698183,0.0,0.0,0.0,0.0,0.0,0.0,0.0,0.00017334515588263155,0.0001990639350591475,-6.286475532479852e-05,5.5209646845355564e-06,5.844117778729119e-05,1.8577575683575986e-05,-1.1393223186106916e-05,-0.00020665540486780715,-0.0018040025295266496,-0.0009989652461070311,0.00040742374203826283,-0.0001614326480478371,1.1203569112983457e-05,-0.0016101588402698183,-0.13260537385940552,18.229516983032227,-1.0926239490509033,-18.071321487426758,-0.6539817452430725,-2.2488436698913574,0.23471395671367645,0
17,0.07999658584594727,0.13260537385940552,-18.106531143188477,1.1164276599884033,18.047517776489258,0.6539817452430725,2.2424349784851074,-0.19351522624492645,0.0,0.0,0.0,0.0,0.0,0.0,0.0,0.11893249402682447,0.49380092539385206,0.3065376206001968,0.42065508017710274,0.23512918026617732,0.06618164772205844,-0.1932641518536765,-0.6092585994439909,-0.057738748342469004,-0.6665422180337092,-2.5945574001092933,-0.055679473154063304,2.5079581617249382,0.8763166046589612,-0.6090851748156966,-0.05753196718556838,-0.666603097082616,-2.5945565370258534,-0.05562143941554,2.507976027223799,0.8763108487046415,-0.0004051418681862741,-0.001094311115190826,0.0007343497298609792,0.0003862528700535229,0.00019583496179593487,0.0001442860398842978,0.0009088476331637573,0.0,0.0,0.0,0.0,0.0,0.0,0.0,0.00017342462829428307,0.0002067811569006206,-6.087904890683671e-05,8.630834398282161e-07,5.803373852330401e-05,1.7865498860736295e-05,-5.755954319730527e-06,0.0004051418681862741,0.001094311115190826,-0.0007343497298609792,-0.0003862528700535229,-0.00019583496179593487,-0.0001442860398842978,-0.0009088476331637573,-0.13260537385940552,18.106531143188477,-1.1164276599884033,-18.047517776489258,-0.6539817452430725,-2.2424349784851074,0.19351522624492645,0
18,0.08499407768249512,0.13260537385940552,-18.106531143188477,1.1164276599884033,18.047517776489258,0.6539817452430725,2.2424349784851074,-0.19351522624492645,0.0,0.0,0.0,0.0,0.0,0.0,0.0,0.11893249402682447,0.49380092539385206,0.3065376206001968,0.42065508017710274,0.23512918026617732,0.06618164772205844,-0.1932641518536765,-0.6092585994439909,-0.057738748342469004,-0.6665422180337092,-2.5945574001092933,-0.055679473154063304,2.5079581617249382,0.8763166046589612,-0.6090851748156966,-0.05753196718556838,-0.666603097082616,-2.5945565370258534,-0.05562143941554,2.507976027223799,0.8763108487046415,-0.0004051418681862741,-0.001094311115190826,0.0007343497298609792,0.0003862528700535229,0.00019583496179593487,0.0001442860398842978,0.0009088476331637573,0.0,0.0,0.0,0.0,0.0,0.0,0.0,0.00017342462829428307,0.0002067811569006206,-6.087904890683671e-05,8.630834398282161e-07,5.803373852330401e-05,1.7865498860736295e-05,-5.755954319730527e-06,0.0004051418681862741,0.001094311115190826,-0.0007343497298609792,-0.0003862528700535229,-0.00019583496179593487,-0.0001442860398842978,-0.0009088476331637573,-0.13260537385940552,18.106531143188477,-1.1164276599884033,-18.047517776489258,-0.6539817452430725,-2.2424349784851074,0.19351522624492645,0
19,0.0899958610534668,0.18418008089065552,-18.177942276000977,1.1441986560821533,18.023714065551758,0.6594749093055725,2.2424349784851074,-0.15964071452617645,0.0,0.0,0.0,0.0,0.0,0.0,0.0,0.12534255091402452,0.5050151230161124,0.31219805659089117,0.42081152170786024,0.23446908268399427,0.06569625942726033,-0.19044924365357907,-0.6092622187221259,-0.05773468551027123,-0.6665438486588323,-2.5945586906514784,-0.05568043837172015,2.5079581617249382,0.8763139004564734,-0.6090851748156966,-0.05753196718556838,-0.666603097082616,-2.5945565370258534,-0.05562143941554,2.507976027223799,0.8763108487046415,-0.0010053797286110303,0.0021974203299828057,9.926287547330863e-05,0.000757838676908242,-0.0002104346375118678,0.0002856463031705643,-0.0009510967477921432,0.0,0.0,0.0,0.0,0.0,0.0,0.0,0.00017704390642936385,0.0002027183247028455,-5.9248423783686555e-05,2.1536256249454766e-06,5.8998956180153495e-05,1.7865498860736295e-05,-3.051751831906202e-06,0.0010053797286110303,-0.0021974203299828057,-9.926287547330863e-05,-0.000757838676908242,0.0002104346375118678,-0.0002856463031705643,0.0009510967477921432,-0.18418008089065552,18.177942276000977,-1.1441986560821533,-18.023714065551758,-0.6594749093055725,-2.2424349784851074,0.15964071452617645,0
20,0.09499478340148926,0.18418008089065552,-18.177942276000977,1.1441986560821533,18.023714065551758,0.6594749093055725,2.2424349784851074,-0.15964071452617645,0.0,0.0,0.0,0.0,0.0,0.0,0.0,0.12534255091402452,0.5050151230161124,0.31219805659089117,0.42081152170786024,0.23446908268399427,0.06569625942726033,-0.19044924365357907,-0.6092622187221259,-0.05773468551027123,-0.6665438486588323,-2.5945586906514784,-0.05568043837172015,2.5079581617249382,0.8763139004564734,-0.6090851748156966,-0.05753196718556838,-0.666603097082616,-2.5945565370258534,-0.05562143941554,2.507976027223799,0.8763108487046415,-0.0010053797286110303,0.0021974203299828057,9.926287547330863e-05,0.000757838676908242,-0.0002104346375118678,0.0002856463031705643,-0.0009510967477921432,0.0,0.0,0.0,0.0,0.0,0.0,0.0,0.00017704390642936385,0.0002027183247028455,-5.9248423783686555e-05,2.1536256249454766e-06,5.8998956180153495e-05,1.7865498860736295e-05,-3.051751831906202e-06,0.0010053797286110303,-0.0021974203299828057,-9.926287547330863e-05,-0.000757838676908242,0.0002104346375118678,-0.0002856463031705643,0.0009510967477921432,-0.18418008089065552,18.177942276000977,-1.1441986560821533,-18.023714065551758,-0.6594749093055725,-2.2424349784851074,0.15964071452617645,0
21,0.10000109672546387,0.18418008089065552,-18.130334854125977,1.1680023670196533,18.071321487426758,0.6539817452430725,2.2488436698913574,-0.20724813640117645,0.0,0.0,0.0,0.0,0.0,0.0,0.0,0.13286568664640885,0.5114332011873921,0.31840237725795356,0.42199047481366775,0.23347673612481754,0.06609419805852629,-0.1899537962797597,-0.6092622187221259,-0.057737305516125215,-0.666546273630824,-2.5945612984606794,-0.055680596227587656,2.5079574496481154,0.8763191901759968,-0.6090851748156966,-0.05753196718556838,-0.666603097082616,-2.5945565370258534,-0.05562143941554,2.507976027223799,0.8763108487046415,-0.0006695478318664191,0.0003567815072310718,-0.0005484931157769379,-0.0006851766691751086,8.093849625435058e-05,0.00013328033299138324,0.00030165217062754147,0.0,0.0,0.0,0.0,0.0,0.0,0.0,0.00017704390642936385,0.00020533833055683126,-5.6823451792031854e-05,4.761434825972799e-06,5.915681204765599e-05,1.8577575683575986e-05,-8.341471355310937e-06,0.0006695478318664191,-0.0003567815072310718,0.0005484931157769379,0.0006851766691751086,-8.093849625435058e-05,-0.00013328033299138324,-0.00030165217062754147,-0.18418008089065552,18.130334854125977,-1.1680023670196533,-18.071321487426758,-0.6539817452430725,-2.2488436698913574,0.20724813640117645,0
22,0.10500741004943848,0.18418008089065552,-18.130334854125977,1.1680023670196533,18.071321487426758,0.6539817452430725,2.2488436698913574,-0.20724813640117645,0.0,0.0,0.0,0.0,0.0,0.0,0.0,0.13286568664640885,0.5114332011873921,0.31840237725795356,0.42199047481366775,0.23347673612481754,0.06609419805852629,-0.1899537962797597,-0.6092622187221259,-0.057737305516125215,-0.666546273630824,-2.5945612984606794,-0.055680596227587656,2.5079574496481154,0.8763191901759968,-0.6090851748156966,-0.05753196718556838,-0.666603097082616,-2.5945565370258534,-0.05562143941554,2.507976027223799,0.8763108487046415,-0.0006695478318664191,0.0003567815072310718,-0.0005484931157769379,-0.0006851766691751086,8.093849625435058e-05,0.00013328033299138324,0.00030165217062754147,0.0,0.0,0.0,0.0,0.0,0.0,0.0,0.00017704390642936385,0.00020533833055683126,-5.6823451792031854e-05,4.761434825972799e-06,5.915681204765599e-05,1.8577575683575986e-05,-8.341471355310937e-06,0.0006695478318664191,-0.0003567815072310718,0.0005484931157769379,0.0006851766691751086,-8.093849625435058e-05,-0.00013328033299138324,-0.00030165217062754147,-0.18418008089065552,18.130334854125977,-1.1680023670196533,-18.071321487426758,-0.6539817452430725,-2.2488436698913574,0.20724813640117645,0
23,0.1100001335144043,0.18418008089065552,-18.177942276000977,1.1164276599884033,18.047517776489258,0.6539817452430725,2.2552523612976074,-0.26858848333358765,0.0,0.0,0.0,0.0,0.0,0.0,0.0,0.1351789388653569,0.5075455604562347,0.31878572929532534,0.4252609885529298,0.23332292701374002,0.0670075828697252,-0.1925314325883673,-0.6092622187221259,-0.05773468551155609,-0.6665419008006107,-2.5945603965988377,-0.055679592150705975,2.5079567375712926,0.8763260057701003,-0.6090851748156966,-0.05753196718556838,-0.666603097082616,-2.5945565370258534,-0.05562143941554,2.507976027223799,0.8763108487046415,-0.0006338008822401594,-0.00012943222131456082,0.0009717832744079962,6.625235888290167e-05,0.0002327842456139637,-5.1500735164582603e-05,0.0023666939232229287,0.0,0.0,0.0,0.0,0.0,0.0,0.0,0.00017704390642936385,0.00020271832598770662,-6.119628200529359e-05,3.859572984321602e-06,5.815273516597552e-05,1.9289652506415678e-05,-1.5157065458848429e-05,0.0006338008822401594,0.00012943222131456082,-0.0009717832744079962,-6.625235888290167e-05,-0.0002327842456139637,5.1500735164582603e-05,-0.0023666939232229287,-0.18418008089065552,18.177942276000977,-1.1164276599884033,-18.047517776489258,-0.6539817452430725,-2.2552523612976074,0.26858848333358765,0
24,0.11500334739685059,0.18418008089065552,-18.177942276000977,1.1164276599884033,18.047517776489258,0.6539817452430725,2.2552523612976074,-0.26858848333358765,0.0,0.0,0.0,0.0,0.0,0.0,0.0,0.1351789388653569,0.5075455604562347,0.31878572929532534,0.4252609885529298,0.23332292701374002,0.0670075828697252,-0.1925314325883673,-0.6092622187221259,-0.05773468551155609,-0.6665419008006107,-2.5945603965988377,-0.055679592150705975,2.5079567375712926,0.8763260057701003,-0.6090851748156966,-0.05753196718556838,-0.666603097082616,-2.5945565370258534,-0.05562143941554,2.507976027223799,0.8763108487046415,-0.0006338008822401594,-0.00012943222131456082,0.0009717832744079962,6.625235888290167e-05,0.0002327842456139637,-5.1500735164582603e-05,0.0023666939232229287,0.0,0.0,0.0,0.0,0.0,0.0,0.0,0.00017704390642936385,0.00020271832598770662,-6.119628200529359e-05,3.859572984321602e-06,5.815273516597552e-05,1.9289652506415678e-05,-1.5157065458848429e-05,0.0006338008822401594,0.00012943222131456082,-0.0009717832744079962,-6.625235888290167e-05,-0.0002327842456139637,5.1500735164582603e-05,-0.0023666939232229287,-0.18418008089065552,18.177942276000977,-1.1164276599884033,-18.047517776489258,-0.6539817452430725,-2.2552523612976074,0.26858848333358765,0
25,0.12009763717651367,0.13260537385940552,-18.205713272094727,1.1164276599884033,18.071321487426758,0.6658836007118225,2.2689852714538574,-0.20724813640117645,0.0,0.0,0.0,0.0,0.0,0.0,0.0,0.13714318003318904,0.5084238282530708,0.31893771118053477,0.4214582961542026,0.23381326542505612,0.06704770203062879,-0.19644533996416766,-0.6092585994444395,-0.05773202555726841,-0.6665427239055224,-2.5945619480686353,-0.055681163592488675,2.507955211692386,0.8763191901759968,-0.6090851748156966,-0.05753196718556838,-0.666603097082616,-2.5945565370258534,-0.05562143941554,2.507976027223799,0.8763108487046415,0.00020421916361057035,0.0006313202087959656,0.0006402103685514,-0.0005404304911182591,-0.00029846026949977337,-0.0007208052144158076,0.0007738456454933143,0.0,0.0,0.0,0.0,0.0,0.0,0.0,0.0001734246287429242,0.00020005837170002788,-6.037317709362e-05,5.411042781844344e-06,5.9724176948675045e-05,2.0815531412754495e-05,-8.341471355310937e-06,-0.00020421916361057035,-0.0006313202087959656,-0.0006402103685514,0.0005404304911182591,0.00029846026949977337,0.0007208052144158076,-0.0007738456454933143,-0.13260537385940552,18.205713272094727,-1.1164276599884033,-18.071321487426758,-0.6658836007118225,-2.2689852714538574,0.20724813640117645,0
26,0.12609148025512695,0.13260537385940552,-18.205713272094727,1.1164276599884033,18.071321487426758,0.6658836007118225,2.2689852714538574,-0.20724813640117645,0.0,0.0,0.0,0.0,0.0,0.0,0.0,0.13714318003318904,0.5084238282530708,0.31893771118053477,0.4214582961542026,0.23381326542505612,0.06704770203062879,-0.19644533996416766,-0.6092585994444395,-0.05773202555726841,-0.6665427239055224,-2.5945619480686353,-0.055681163592488675,2.507955211692386,0.8763191901759968,-0.6090851748156966,-0.05753196718556838,-0.666603097082616,-2.5945565370258534,-0.05562143941554,2.507976027223799,0.8763108487046415,0.00020421916361057035,0.0006313202087959656,0.0006402103685514,-0.0005404304911182591,-0.00029846026949977337,-0.0007208052144158076,0.0007738456454933143,0.0,0.0,0.0,0.0,0.0,0.0,0.0,0.0001734246287429242,0.00020005837170002788,-6.037317709362e-05,5.411042781844344e-06,5.9724176948675045e-05,2.0815531412754495e-05,-8.341471355310937e-06,-0.00020421916361057035,-0.0006313202087959656,-0.0006402103685514,0.0005404304911182591,0.00029846026949977337,0.0007208052144158076,-0.0007738456454933143,-0.13260537385940552,18.205713272094727,-1.1164276599884033,-18.071321487426758,-0.6658836007118225,-2.2689852714538574,0.20724813640117645,0
27,0.1299901008605957,0.08103066682815552,-18.154138565063477,1.0926239490509033,18.023714065551758,0.6594749093055725,2.2552523612976074,-0.19351522624492645,0.0,0.0,0.0,0.0,0.0,0.0,0.0,0.13488274947519963,0.5034318929897749,0.31518421389219436,0.41876349828481413,0.23401077442738552,0.06692571815644155,-0.19666491136348654,-0.6092549801667532,-0.05773635594746642,-0.6665402323274409,-2.5945586418284337,-0.05568012444967613,2.5079567375712926,0.8763175073136641,-0.6090851748156966,-0.05753196718556838,-0.666603097082616,-2.5945565370258534,-0.05562143941554,2.507976027223799,0.8763108487046415,0.0006299519562516662,-0.0006008923165122597,0.0004852306103323413,0.0004017922893593296,-0.00012880410410185536,-0.00040542852749622394,-6.904826182967932e-05,0.0,0.0,0.0,0.0,0.0,0.0,0.0,0.00016980535105659555,0.0002043887618980375,-6.286475517514045e-05,2.104802580227272e-06,5.8685034136127245e-05,1.9289652506415678e-05,-6.658609022602846e-06,-0.0006299519562516662,0.0006008923165122597,-0.0004852306103323413,-0.0004017922893593296,0.00012880410410185536,0.00040542852749622394,6.904826182967932e-05,-0.08103066682815552,18.154138565063477,-1.0926239490509033,-18.023714065551758,-0.6594749093055725,-2.2552523612976074,0.19351522624492645,0
28,0.1349964141845703,0.08103066682815552,-18.154138565063477,1.0926239490509033,18.023714065551758,0.6594749093055725,2.2552523612976074,-0.19351522624492645,0.0,0.0,0.0,0.0,0.0,0.0,0.0,0.13488274947519963,0.5034318929897749,0.31518421389219436,0.41876349828481413,0.23401077442738552,0.06692571815644155,-0.19666491136348654,-0.6092549801667532,-0.05773635594746642,-0.6665402323274409,-2.5945586418284337,-0.05568012444967613,2.5079567375712926,0.8763175073136641,-0.6090851748156966,-0.05753196718556838,-0.666603097082616,-2.5945565370258534,-0.05562143941554,2.507976027223799,0.8763108487046415,0.0006299519562516662,-0.0006008923165122597,0.0004852306103323413,0.0004017922893593296,-0.00012880410410185536,-0.00040542852749622394,-6.904826182967932e-05,0.0,0.0,0.0,0.0,0.0,0.0,0.0,0.00016980535105659555,0.0002043887618980375,-6.286475517514045e-05,2.104802580227272e-06,5.8685034136127245e-05,1.9289652506415678e-05,-6.658609022602846e-06,-0.0006299519562516662,0.0006008923165122597,-0.0004852306103323413,-0.0004017922893593296,0.00012880410410185536,0.00040542852749622394,6.904826182967932e-05,-0.08103066682815552,18.154138565063477,-1.0926239490509033,-18.023714065551758,-0.6594749093055725,-2.2552523612976074,0.19351522624492645,0
29,0.13999438285827637,0.08103066682815552,-18.154138565063477,1.0926239490509033,18.023714065551758,0.6594749093055725,2.2552523612976074,-0.19351522624492645,0.0,0.0,0.0,0.0,0.0,0.0,0.0,0.13488274947519963,0.5034318929897749,0.31518421389219436,0.41876349828481413,0.23401077442738552,0.06692571815644155,-0.19666491136348654,-0.6092549801667532,-0.05773635594746642,-0.6665402323274409,-2.5945586418284337,-0.05568012444967613,2.5079567375712926,0.8763175073136641,-0.6090851748156966,-0.05753196718556838,-0.666603097082616,-2.5945565370258534,-0.05562143941554,2.507976027223799,0.8763108487046415,0.0006299519562516662,-0.0006008923165122597,0.0004852306103323413,0.0004017922893593296,-0.00012880410410185536,-0.00040542852749622394,-6.904826182967932e-05,0.0,0.0,0.0,0.0,0.0,0.0,0.0,0.00016980535105659555,0.0002043887618980375,-6.286475517514045e-05,2.104802580227272e-06,5.8685034136127245e-05,1.9289652506415678e-05,-6.658609022602846e-06,-0.0006299519562516662,0.0006008923165122597,-0.0004852306103323413,-0.0004017922893593296,0.00012880410410185536,0.00040542852749622394,6.904826182967932e-05,-0.08103066682815552,18.154138565063477,-1.0926239490509033,-18.023714065551758,-0.6594749093055725,-2.2552523612976074,0.19351522624492645,0
30,0.14499402046203613,0.08103066682815552,-18.154138565063477,1.0926239490509033,18.023714065551758,0.6594749093055725,2.2552523612976074,-0.19351522624492645,0.0,0.0,0.0,0.0,0.0,0.0,0.0,0.13488274947519963,0.5034318929897749,0.31518421389219436,0.41876349828481413,0.23401077442738552,0.06692571815644155,-0.19666491136348654,-0.6092549801667532,-0.05773635594746642,-0.6665402323274409,-2.5945586418284337,-0.05568012444967613,2.5079567375712926,0.8763175073136641,-0.6090851748156966,-0.05753196718556838,-0.666603097082616,-2.5945565370258534,-0.05562143941554,2.507976027223799,0.8763108487046415,0.0006299519562516662,-0.0006008923165122597,0.0004852306103323413,0.0004017922893593296,-0.00012880410410185536,-0.00040542852749622394,-6.904826182967932e-05,0.0,0.0,0.0,0.0,0.0,0.0,0.0,0.00016980535105659555,0.0002043887618980375,-6.286475517514045e-05,2.104802580227272e-06,5.8685034136127245e-05,1.9289652506415678e-05,-6.658609022602846e-06,-0.0006299519562516662,0.0006008923165122597,-0.0004852306103323413,-0.0004017922893593296,0.00012880410410185536,0.00040542852749622394,6.904826182967932e-05,-0.08103066682815552,18.154138565063477,-1.0926239490509033,-18.023714065551758,-0.6594749093055725,-2.2552523612976074,0.19351522624492645,0
31,0.15001153945922852,0.03342324495315552,-18.177942276000977,1.1164276599884033,18.047517776489258,0.6594749093055725,2.2488436698913574,-0.21457235515117645,0.0,0.0,0.0,0.0,0.0,0.0,0.0,0.13511239851115303,0.5050112514732635,0.3165895018301941,0.41551177646048504,0.23334436547192203,0.06611637313294079,-0.19578987842059348,-0.6092516392950426,-0.05773468551562541,-0.6665419795424525,-2.5945596529340933,-0.055680439021001844,2.5079574496481154,0.876320003977194,-0.6090851748156966,-0.05753196718556838,-0.666603097082616,-2.5945565370258534,-0.05562143941554,2.507976027223799,0.8763108487046415,0.0013555858647516343,0.000691891408791789,0.0002542038687771358,-0.00014692721484920487,-0.00017989635662603293,0.0001052486062770269,0.0006132209782849361,0.0,0.0,0.0,0.0,0.0,0.0,0.0,0.00016646447934598463,0.00020271833005702788,-6.111754016346893e-05,3.11590823987018e-06,5.8999605461844407e-05,1.8577575683575986e-05,-9.155272552519023e-06,-0.0013555858647516343,-0.000691891408791789,-0.0002542038687771358,0.00014692721484920487,0.00017989635662603293,-0.0001052486062770269,-0.0006132209782849361,-0.03342324495315552,18.177942276000977,-1.1164276599884033,-18.047517776489258,-0.6594749093055725,-2.2488436698913574,0.21457235515117645,0
32,0.15499329566955566,0.03342324495315552,-18.177942276000977,1.1164276599884033,18.047517776489258,0.6594749093055725,2.2488436698913574,-0.21457235515117645,0.0,0.0,0.0,0.0,0.0,0.0,0.0,0.13511239851115303,0.5050112514732635,0.3165895018301941,0.41551177646048504,0.23334436547192203,0.06611637313294079,-0.19578987842059348,-0.6092516392950426,-0.05773468551562541,-0.6665419795424525,-2.5945596529340933,-0.055680439021001844,2.5079574496481154,0.876320003977194,-0.6090851748156966,-0.05753196718556838,-0.666603097082616,-2.5945565370258534,-0.05562143941554,2.507976027223799,0.8763108487046415,0.0013555858647516343,0.000691891408791789,0.0002542038687771358,-0.00014692721484920487,-0.00017989635662603293,0.0001052486062770269,0.0006132209782849361,0.0,0.0,0.0,0.0,0.0,0.0,0.0,0.00016646447934598463,0.00020271833005702788,-6.111754016346893e-05,3.11590823987018e-06,5.8999605461844407e-05,1.8577575683575986e-05,-9.155272552519023e-06,-0.0013555858647516343,-0.000691891408791789,-0.0002542038687771358,0.00014692721484920487,0.00017989635662603293,-0.0001052486062770269,-0.0006132209782849361,-0.03342324495315552,18.177942276000977,-1.1164276599884033,-18.047517776489258,-0.6594749093055725,-2.2488436698913574,0.21457235515117645,0
33,0.15499329566955566,0.03342324495315552,-18.177942276000977,1.1164276599884033,18.047517776489258,0.6594749093055725,2.2488436698913574,-0.21457235515117645,0.0,0.0,0.0,0.0,0.0,0.0,0.0,0.13511239851115303,0.5050112514732635,0.3165895018301941,0.41551177646048504,0.23334436547192203,0.06611637313294079,-0.19578987842059348,-0.6092516392950426,-0.05773468551562541,-0.6665419795424525,-2.5945596529340933,-0.055680439021001844,2.5079574496481154,0.876320003977194,-0.6090851748156966,-0.05753196718556838,-0.666603097082616,-2.5945565370258534,-0.05562143941554,2.507976027223799,0.8763108487046415,0.0013555858647516343,0.000691891408791789,0.0002542038687771358,-0.00014692721484920487,-0.00017989635662603293,0.0001052486062770269,0.0006132209782849361,0.0,0.0,0.0,0.0,0.0,0.0,0.0,0.00016646447934598463,0.00020271833005702788,-6.111754016346893e-05,3.11590823987018e-06,5.8999605461844407e-05,1.8577575683575986e-05,-9.155272552519023e-06,-0.0013555858647516343,-0.000691891408791789,-0.0002542038687771358,0.00014692721484920487,0.00017989635662603293,-0.0001052486062770269,-0.0006132209782849361,-0.03342324495315552,18.177942276000977,-1.1164276599884033,-18.047517776489258,-0.6594749093055725,-2.2488436698913574,0.21457235515117645,0
34,0.16501116752624512,0.10880166292190552,-18.205713272094727,1.1441986560821533,18.071321487426758,0.6475730538368225,2.2488436698913574,-0.24112264811992645,0.0,0.0,0.0,0.0,0.0,0.0,0.0,0.12320914235488695,0.4995292160536948,0.3126268259522888,0.4198647114860086,0.2336513833686597,0.06688345026318476,-0.19734121926014378,-0.6092569191971201,-0.05773249959882388,-0.6665438573787875,-2.59456181989899,-0.05568313827393226,2.5079574496481154,0.8763226007979225,-0.6090851748156966,-0.05753196718556838,-0.666603097082616,-2.5945565370258534,-0.05562143941554,2.507976027223799,0.8763108487046415,-0.0002573355407123325,0.001214223699778907,-0.0009004272193651744,-0.0005510611493719198,0.0005063604622850578,-3.062264471544621e-05,0.0016159348608443627,0.0,0.0,0.0,0.0,0.0,0.0,0.0,0.0001717443814235331,0.0002005324132554956,-5.92397038284842e-05,5.28287313672493e-06,6.169885839225897e-05,1.8577575683575986e-05,-1.1752093280970044e-05,0.0002573355407123325,-0.001214223699778907,0.0009004272193651744,0.0005510611493719198,-0.0005063604622850578,3.062264471544621e-05,-0.0016159348608443627,-0.10880166292190552,18.205713272094727,-1.1441986560821533,-18.071321487426758,-0.6475730538368225,-2.2488436698913574,0.24112264811992645,0
35,0.1699976921081543,0.10880166292190552,-18.205713272094727,1.1441986560821533,18.071321487426758,0.6475730538368225,2.2488436698913574,-0.24112264811992645,0.0,0.0,0.0,0.0,0.0,0.0,0.0,0.12320914235488695,0.4995292160536948,0.3126268259522888,0.4198647114860086,0.2336513833686597,0.06688345026318476,-0.19734121926014378,-0.6092569191971201,-0.05773249959882388,-0.6665438573787875,-2.59456181989899,-0.05568313827393226,2.5079574496481154,0.8763226007979225,-0.6090851748156966,-0.05753196718556838,-0.666603097082616,-2.5945565370258534,-0.05562143941554,2.507976027223799,0.8763108487046415,-0.0002573355407123325,0.001214223699778907,-0.0009004272193651744,-0.0005510611493719198,0.0005063604622850578,-3.062264471544621e-05,0.0016159348608443627,0.0,0.0,0.0,0.0,0.0,0.0,0.0,0.0001717443814235331,0.0002005324132554956,-5.92397038284842e-05,5.28287313672493e-06,6.169885839225897e-05,1.8577575683575986e-05,-1.1752093280970044e-05,0.0002573355407123325,-0.001214223699778907,0.0009004272193651744,0.0005510611493719198,-0.0005063604622850578,3.062264471544621e-05,-0.0016159348608443627,-0.10880166292190552,18.205713272094727,-1.1441986560821533,-18.071321487426758,-0.6475730538368225,-2.2488436698913574,0.24112264811992645,0
36,0.17571735382080078,0.10880166292190552,-18.205713272094727,1.1441986560821533,18.071321487426758,0.6475730538368225,2.2488436698913574,-0.24112264811992645,0.0,0.0,0.0,0.0,0.0,0.0,0.0,0.12320914235488695,0.4995292160536948,0.3126268259522888,0.4198647114860086,0.2336513833686597,0.06688345026318476,-0.19734121926014378,-0.6092569191971201,-0.05773249959882388,-0.6665438573787875,-2.59456181989899,-0.05568313827393226,2.5079574496481154,0.8763226007979225,-0.6090851748156966,-0.05753196718556838,-0.666603097082616,-2.5945565370258534,-0.05562143941554,2.507976027223799,0.8763108487046415,-0.0002573355407123325,0.001214223699778907,-0.0009004272193651744,-0.0005510611493719198,0.0005063604622850578,-3.062264471544621e-05,0.0016159348608443627,0.0,0.0,0.0,0.0,0.0,0.0,0.0,0.0001717443814235331,0.0002005324132554956,-5.92397038284842e-05,5.28287313672493e-06,6.169885839225897e-05,1.8577575683575986e-05,-1.1752093280970044e-05,0.0002573355407123325,-0.001214223699778907,0.0009004272193651744,0.0005510611493719198,-0.0005063604622850578,3.062264471544621e-05,-0.0016159348608443627,-0.10880166292190552,18.205713272094727,-1.1441986560821533,-18.071321487426758,-0.6475730538368225,-2.2488436698913574,0.24112264811992645,0
37,0.18008637428283691,0.10880166292190552,-18.205713272094727,1.1441986560821533,18.071321487426758,0.6475730538368225,2.2488436698913574,-0.24112264811992645,0.0,0.0,0.0,0.0,0.0,0.0,0.0,0.12320914235488695,0.4995292160536948,0.3126268259522888,0.4198647114860086,0.2336513833686597,0.06688345026318476,-0.19734121926014378,-0.6092569191971201,-0.05773249959882388,-0.6665438573787875,-2.59456181989899,-0.05568313827393226,2.5079574496481154,0.8763226007979225,-0.6090851748156966,-0.05753196718556838,-0.666603097082616,-2.5945565370258534,-0.05562143941554,2.507976027223799,0.8763108487046415,-0.0002573355407123325,0.001214223699778907,-0.0009004272193651744,-0.0005510611493719198,0.0005063604622850578,-3.062264471544621e-05,0.0016159348608443627,0.0,0.0,0.0,0.0,0.0,0.0,0.0,0.0001717443814235331,0.0002005324132554956,-5.92397038284842e-05,5.28287313672493e-06,6.169885839225897e-05,1.8577575683575986e-05,-1.1752093280970044e-05,0.0002573355407123325,-0.001214223699778907,0.0009004272193651744,0.0005510611493719198,-0.0005063604622850578,3.062264471544621e-05,-0.0016159348608443627,-0.10880166292190552,18.205713272094727,-1.1441986560821533,-18.071321487426758,-0.6475730538368225,-2.2488436698913574,0.24112264811992645,0
38,0.18501996994018555,0.10880166292190552,-18.205713272094727,1.1441986560821533,18.071321487426758,0.6475730538368225,2.2488436698913574,-0.24112264811992645,0.0,0.0,0.0,0.0,0.0,0.0,0.0,0.12320914235488695,0.4995292160536948,0.3126268259522888,0.4198647114860086,0.2336513833686597,0.06688345026318476,-0.19734121926014378,-0.6092569191971201,-0.05773249959882388,-0.6665438573787875,-2.59456181989899,-0.05568313827393226,2.5079574496481154,0.8763226007979225,-0.6090851748156966,-0.05753196718556838,-0.666603097082616,-2.5945565370258534,-0.05562143941554,2.507976027223799,0.8763108487046415,-0.0002573355407123325,0.001214223699778907,-0.0009004272193651744,-0.0005510611493719198,0.0005063604622850578,-3.062264471544621e-05,0.0016159348608443627,0.0,0.0,0.0,0.0,0.0,0.0,0.0,0.0001717443814235331,0.0002005324132554956,-5.92397038284842e-05,5.28287313672493e-06,6.169885839225897e-05,1.8577575683575986e-05,-1.1752093280970044e-05,0.0002573355407123325,-0.001214223699778907,0.0009004272193651744,0.0005510611493719198,-0.0005063604622850578,3.062264471544621e-05,-0.0016159348608443627,-0.10880166292190552,18.205713272094727,-1.1441986560821533,-18.071321487426758,-0.6475730538368225,-2.2488436698913574,0.24112264811992645,0
39,0.18999242782592773,0.10880166292190552,-18.205713272094727,1.1441986560821533,18.071321487426758,0.6475730538368225,2.2488436698913574,-0.24112264811992645,0.0,0.0,0.0,0.0,0.0,0.0,0.0,0.12320914235488695,0.4995292160536948,0.3126268259522888,0.4198647114860086,0.2336513833686597,0.06688345026318476,-0.19734121926014378,-0.6092569191971201,-0.05773249959882388,-0.6665438573787875,-2.59456181989899,-0.05568313827393226,2.5079574496481154,0.8763226007979225,-0.6090851748156966,-0.05753196718556838,-0.666603097082616,-2.5945565370258534,-0.05562143941554,2.507976027223799,0.8763108487046415,-0.0002573355407123325,0.001214223699778907,-0.0009004272193651744,-0.0005510611493719198,0.0005063604622850578,-3.062264471544621e-05,0.0016159348608443627,0.0,0.0,0.0,0.0,0.0,0.0,0.0,0.0001717443814235331,0.0002005324132554956,-5.92397038284842e-05,5.28287313672493e-06,6.169885839225897e-05,1.8577575683575986e-05,-1.1752093280970044e-05,0.0002573355407123325,-0.001214223699778907,0.0009004272193651744,0.0005510611493719198,-0.0005063604622850578,3.062264471544621e-05,-0.0016159348608443627,-0.10880166292190552,18.205713272094727,-1.1441986560821533,-18.071321487426758,-0.6475730538368225,-2.2488436698913574,0.24112264811992645,0
40,0.19500279426574707,0.18418008089065552,-18.177942276000977,1.1680023670196533,18.023714065551758,0.6594749093055725,2.2424349784851074,-0.22830526530742645,0.0,0.0,0.0,0.0,0.0,0.0,0.0,0.13071411825317517,0.5066336996210565,0.3133043609737737,0.4186327292733812,0.23350376966941425,0.0662737285080029,-0.20007715297910889,-0.6092622187221259,-0.05773468551547675,-0.6665479839507258,-2.594558631315046,-0.05568059609100652,2.5079581617249382,0.8763215293724697,-0.6090851748156966,-0.05753196718556838,-0.666603097082616,-2.5945565370258534,-0.05562143941554,2.507976027223799,0.8763108487046415,-0.00023198799776139264,0.0009451291660023183,-0.0005864823116550497,0.0005744596936995095,-0.00015480511987548052,0.00031877461488233425,0.001021277306147842,0.0,0.0,0.0,0.0,0.0,0.0,0.0,0.00017704390642936385,0.00020271832990836902,-5.5113131890216494e-05,2.0942891927333562e-06,5.91566754665207e-05,1.7865498860736295e-05,-1.068066782816679e-05,0.00023198799776139264,-0.0009451291660023183,0.0005864823116550497,-0.0005744596936995095,0.00015480511987548052,-0.00031877461488233425,-0.001021277306147842,-0.18418008089065552,18.177942276000977,-1.1680023670196533,-18.023714065551758,-0.6594749093055725,-2.2424349784851074,0.22830526530742645,0
41,0.2010960578918457,0.18418008089065552,-18.130334854125977,1.1164276599884033,17.999910354614258,0.6594749093055725,2.2552523612976074,-0.21457235515117645,0.0,0.0,0.0,0.0,0.0,0.0,0.0,0.13351448194434096,0.5025869376805538,0.312381297091023,0.42163781325722555,0.23362177242275406,0.06652110515172022,-0.20227740816302056,-0.6092622187221259,-0.05773802638733596,-0.6665448402522505,-2.5945570171418626,-0.05568012293604095,2.5079567375712926,0.8763199647322207,-0.6090851748156966,-0.05753196718556838,-0.666603097082616,-2.5945565370258534,-0.05562143941554,2.507976027223799,0.8763108487046415,-0.0003593400214117865,-0.0007338796971662822,0.0008973495440630938,0.001349792580402296,6.317946876196754e-05,-0.000331560033453985,-0.00014329922192932073,0.0,0.0,0.0,0.0,0.0,0.0,0.0,0.00017704390642936385,0.00020605920176757636,-5.8256830365532863e-05,4.801160091716383e-07,5.8683520500951714e-05,1.9289652506415678e-05,-9.116027579247898e-06,0.0003593400214117865,0.0007338796971662822,-0.0008973495440630938,-0.001349792580402296,-6.317946876196754e-05,0.000331560033453985,0.00014329922192932073,-0.18418008089065552,18.130334854125977,-1.1164276599884033,-17.999910354614258,-0.6594749093055725,-2.2552523612976074,0.21457235515117645,0
42,0.20499372482299805,0.18418008089065552,-18.130334854125977,1.1164276599884033,17.999910354614258,0.6594749093055725,2.2552523612976074,-0.21457235515117645,0.0,0.0,0.0,0.0,0.0,0.0,0.0,0.13351448194434096,0.5025869376805538,0.312381297091023,0.42163781325722555,0.23362177242275406,0.06652110515172022,-0.20227740816302056,-0.6092622187221259,-0.05773802638733596,-0.6665448402522505,-2.5945570171418626,-0.05568012293604095,2.5079567375712926,0.8763199647322207,-0.6090851748156966,-0.05753196718556838,-0.666603097082616,-2.5945565370258534,-0.05562143941554,2.507976027223799,0.8763108487046415,-0.0003593400214117865,-0.0007338796971662822,0.0008973495440630938,0.001349792580402296,6.317946876196754e-05,-0.000331560033453985,-0.00014329922192932073,0.0,0.0,0.0,0.0,0.0,0.0,0.0,0.00017704390642936385,0.00020605920176757636,-5.8256830365532863e-05,4.801160091716383e-07,5.8683520500951714e-05,1.9289652506415678e-05,-9.116027579247898e-06,0.0003593400214117865,0.0007338796971662822,-0.0008973495440630938,-0.001349792580402296,-6.317946876196754e-05,0.000331560033453985,0.00014329922192932073,-0.18418008089065552,18.130334854125977,-1.1164276599884033,-17.999910354614258,-0.6594749093055725,-2.2552523612976074,0.21457235515117645,0
43,0.20999431610107422,0.18418008089065552,-18.130334854125977,1.1164276599884033,17.999910354614258,0.6594749093055725,2.2552523612976074,-0.21457235515117645,0.0,0.0,0.0,0.0,0.0,0.0,0.0,0.13351448194434096,0.5025869376805538,0.312381297091023,0.42163781325722555,0.23362177242275406,0.06652110515172022,-0.20227740816302056,-0.6092622187221259,-0.05773802638733596,-0.6665448402522505,-2.5945570171418626,-0.05568012293604095,2.5079567375712926,0.8763199647322207,-0.6090851748156966,-0.05753196718556838,-0.666603097082616,-2.5945565370258534,-0.05562143941554,2.507976027223799,0.8763108487046415,-0.0003593400214117865,-0.0007338796971662822,0.0008973495440630938,0.001349792580402296,6.317946876196754e-05,-0.000331560033453985,-0.00014329922192932073,0.0,0.0,0.0,0.0,0.0,0.0,0.0,0.00017704390642936385,0.00020605920176757636,-5.8256830365532863e-05,4.801160091716383e-07,5.8683520500951714e-05,1.9289652506415678e-05,-9.116027579247898e-06,0.0003593400214117865,0.0007338796971662822,-0.0008973495440630938,-0.001349792580402296,-6.317946876196754e-05,0.000331560033453985,0.00014329922192932073,-0.18418008089065552,18.130334854125977,-1.1164276599884033,-17.999910354614258,-0.6594749093055725,-2.2552523612976074,0.21457235515117645,0
44,0.21499872207641602,0.16037636995315552,-18.177942276000977,1.0926239490509033,18.047517776489258,0.6594749093055725,2.2625765800476074,-0.21457235515117645,0.0,0.0,0.0,0.0,0.0,0.0,0.0,0.13823432998582819,0.5034328768658874,0.313270335901053,0.42031819787836916,0.23378229049764965,0.06563880656769283,-0.20487164570440067,-0.6092605482862706,-0.05773468551562543,-0.6665423750904829,-2.594560396565274,-0.055683751937320496,2.507955923769209,0.8763200039778586,-0.6090851748156966,-0.05753196718556838,-0.666603097082616,-2.5945565370258534,-0.05562143941554,2.507976027223799,0.8763108487046415,-0.00019480633201529588,0.0005591150841733628,0.0009187144966159781,1.1323913621875778e-05,-6.297599642444123e-05,-0.0006476016035841892,0.0009147871489350371,0.0,0.0,0.0,0.0,0.0,0.0,0.0,0.0001753734705740584,0.0002027183300570487,-6.0721992133139224e-05,3.859539420503211e-06,6.231252178049568e-05,2.0103454589914804e-05,-9.155273217098525e-06,0.00019480633201529588,-0.0005591150841733628,-0.0009187144966159781,-1.1323913621875778e-05,6.297599642444123e-05,0.0006476016035841892,-0.0009147871489350371,-0.16037636995315552,18.177942276000977,-1.0926239490509033,-18.047517776489258,-0.6594749093055725,-2.2625765800476074,0.21457235515117645,0
45,0.220001220703125,0.16037636995315552,-18.177942276000977,1.0926239490509033,18.047517776489258,0.6594749093055725,2.2625765800476074,-0.21457235515117645,0.0,0.0,0.0,0.0,0.0,0.0,0.0,0.13823432998582819,0.5034328768658874,0.313270335901053,0.42031819787836916,0.23378229049764965,0.06563880656769283,-0.20487164570440067,-0.6092605482862706,-0.05773468551562543,-0.6665423750904829,-2.594560396565274,-0.055683751937320496,2.507955923769209,0.8763200039778586,-0.6090851748156966,-0.05753196718556838,-0.666603097082616,-2.5945565370258534,-0.05562143941554,2.507976027223799,0.8763108487046415,-0.00019480633201529588,0.0005591150841733628,0.0009187144966159781,1.1323913621875778e-05,-6.297599642444123e-05,-0.0006476016035841892,0.0009147871489350371,0.0,0.0,0.0,0.0,0.0,0.0,0.0,0.0001753734705740584,0.0002027183300570487,-6.0721992133139224e-05,3.859539420503211e-06,6.231252178049568e-05,2.0103454589914804e-05,-9.155273217098525e-06,0.00019480633201529588,-0.0005591150841733628,-0.0009187144966159781,-1.1323913621875778e-05,6.297599642444123e-05,0.0006476016035841892,-0.0009147871489350371,-0.16037636995315552,18.177942276000977,-1.0926239490509033,-18.047517776489258,-0.6594749093055725,-2.2625765800476074,0.21457235515117645,0
46,0.22500944137573242,0.08103066682815552,-18.177942276000977,1.0688202381134033,18.023714065551758,0.6539817452430725,2.2424349784851074,-0.17978231608867645,0.0,0.0,0.0,0.0,0.0,0.0,0.0,0.13601563995965876,0.5027140181904571,0.30891990320356716,0.4221180350634155,0.23402906863161438,0.06509593716551218,-0.20136333509040438,-0.6092549801667532,-0.05773468454015695,-0.6665393137842496,-2.59455872729786,-0.05568053826444269,2.5079581617249382,0.8763161384181842,-0.6090851748156966,-0.05753196718556838,-0.666603097082616,-2.5945565370258534,-0.05562143941554,2.507976027223799,0.8763108487046415,0.0008768199699066942,0.0005244822740507523,0.0010838390900446257,0.0011834164275473056,0.00018709043638516455,0.00028089111709058014,-1.6592668460738043e-05,0.0,0.0,0.0,0.0,0.0,0.0,0.0,0.00016980535105659555,0.00020271735458856494,-6.37832983664266e-05,2.190272006430405e-06,5.909884890269168e-05,1.7865498860736295e-05,-5.289713542744323e-06,-0.0008768199699066942,-0.0005244822740507523,-0.0010838390900446257,-0.0011834164275473056,-0.00018709043638516455,-0.00028089111709058014,1.6592668460738043e-05,-0.08103066682815552,18.177942276000977,-1.0688202381134033,-18.023714065551758,-0.6539817452430725,-2.2424349784851074,0.17978231608867645,0
47,0.22995448112487793,0.08103066682815552,-18.177942276000977,1.0688202381134033,18.023714065551758,0.6539817452430725,2.2424349784851074,-0.17978231608867645,0.0,0.0,0.0,0.0,0.0,0.0,0.0,0.13601563995965876,0.5027140181904571,0.30891990320356716,0.4221180350634155,0.23402906863161438,0.06509593716551218,-0.20136333509040438,-0.6092549801667532,-0.05773468454015695,-0.6665393137842496,-2.59455872729786,-0.05568053826444269,2.5079581617249382,0.8763161384181842,-0.6090851748156966,-0.05753196718556838,-0.666603097082616,-2.5945565370258534,-0.05562143941554,2.507976027223799,0.8763108487046415,0.0008768199699066942,0.0005244822740507523,0.0010838390900446257,0.0011834164275473056,0.00018709043638516455,0.00028089111709058014,-1.6592668460738043e-05,0.0,0.0,0.0,0.0,0.0,0.0,0.0,0.00016980535105659555,0.00020271735458856494,-6.37832983664266e-05,2.190272006430405e-06,5.909884890269168e-05,1.7865498860736295e-05,-5.289713542744323e-06,-0.0008768199699066942,-0.0005244822740507523,-0.0010838390900446257,-0.0011834164275473056,-0.00018709043638516455,-0.00028089111709058014,1.6592668460738043e-05,-0.08103066682815552,18.177942276000977,-1.0688202381134033,-18.023714065551758,-0.6539817452430725,-2.2424349784851074,0.17978231608867645,0
48,0.23499464988708496,0.10880166292190552,-18.205713272094727,1.0688202381134033,18.023714065551758,0.6594749093055725,2.2488436698913574,-0.20083944499492645,0.0,0.0,0.0,0.0,0.0,0.0,0.0,0.130143239534183,0.5029476008614197,0.30547973660440003,0.41708481894636884,0.2339981294857951,0.06434892170731524,-0.1979675092973263,-0.6092569290085843,-0.05773059454498382,-0.666538568767743,-2.594556419641496,-0.05568020197309098,2.5079574496481154,0.8763184780991738,-0.6090851748156966,-0.05753196718556838,-0.666603097082616,-2.5945565370258534,-0.05562143941554,2.507976027223799,0.8763108487046415,-0.0007386911461261464,0.000863012267060814,0.0008831085693925547,0.0003392541652366414,4.029682988535072e-05,5.4606187609102954e-05,0.0004919140880692722,0.0,0.0,0.0,0.0,0.0,0.0,0.0,0.00017175419288772975,0.00019862735941543475,-6.452831487302468e-05,-1.1738435734542918e-07,5.8762557550981476e-05,1.8577575683575986e-05,-7.629394532360223e-06,0.0007386911461261464,-0.000863012267060814,-0.0008831085693925547,-0.0003392541652366414,-4.029682988535072e-05,-5.4606187609102954e-05,-0.0004919140880692722,-0.10880166292190552,18.205713272094727,-1.0688202381134033,-18.023714065551758,-0.6594749093055725,-2.2488436698913574,0.20083944499492645,0
49,0.240020751953125,0.10880166292190552,-18.205713272094727,1.0688202381134033,18.023714065551758,0.6594749093055725,2.2488436698913574,-0.20083944499492645,0.0,0.0,0.0,0.0,0.0,0.0,0.0,0.130143239534183,0.5029476008614197,0.30547973660440003,0.41708481894636884,0.2339981294857951,0.06434892170731524,-0.1979675092973263,-0.6092569290085843,-0.05773059454498382,-0.666538568767743,-2.594556419641496,-0.05568020197309098,2.5079574496481154,0.8763184780991738,-0.6090851748156966,-0.05753196718556838,-0.666603097082616,-2.5945565370258534,-0.05562143941554,2.507976027223799,0.8763108487046415,-0.0007386911461261464,0.000863012267060814,0.0008831085693925547,0.0003392541652366414,4.029682988535072e-05,5.4606187609102954e-05,0.0004919140880692722,0.0,0.0,0.0,0.0,0.0,0.0,0.0,0.00017175419288772975,0.00019862735941543475,-6.452831487302468e-05,-1.1738435734542918e-07,5.8762557550981476e-05,1.8577575683575986e-05,-7.629394532360223e-06,0.0007386911461261464,-0.000863012267060814,-0.0008831085693925547,-0.0003392541652366414,-4.029682988535072e-05,-5.4606187609102954e-05,-0.0004919140880692722,-0.10880166292190552,18.205713272094727,-1.0688202381134033,-18.023714065551758,-0.6594749093055725,-2.2488436698913574,0.20083944499492645,0
50,0.24501681327819824,0.10880166292190552,-18.205713272094727,1.0688202381134033,18.023714065551758,0.6594749093055725,2.2488436698913574,-0.20083944499492645,0.0,0.0,0.0,0.0,0.0,0.0,0.0,0.130143239534183,0.5029476008614197,0.30547973660440003,0.41708481894636884,0.2339981294857951,0.06434892170731524,-0.1979675092973263,-0.6092569290085843,-0.05773059454498382,-0.666538568767743,-2.594556419641496,-0.05568020197309098,2.5079574496481154,0.8763184780991738,-0.6090851748156966,-0.05753196718556838,-0.666603097082616,-2.5945565370258534,-0.05562143941554,2.507976027223799,0.8763108487046415,-0.0007386911461261464,0.000863012267060814,0.0008831085693925547,0.0003392541652366414,4.029682988535072e-05,5.4606187609102954e-05,0.0004919140880692722,0.0,0.0,0.0,0.0,0.0,0.0,0.0,0.00017175419288772975,0.00019862735941543475,-6.452831487302468e-05,-1.1738435734542918e-07,5.8762557550981476e-05,1.8577575683575986e-05,-7.629394532360223e-06,0.0007386911461261464,-0.000863012267060814,-0.0008831085693925547,-0.0003392541652366414,-4.029682988535072e-05,-5.4606187609102954e-05,-0.0004919140880692722,-0.10880166292190552,18.205713272094727,-1.0688202381134033,-18.023714065551758,-0.6594749093055725,-2.2488436698913574,0.20083944499492645,0
51,0.24999284744262695,0.10880166292190552,-18.205713272094727,1.0688202381134033,18.023714065551758,0.6594749093055725,2.2488436698913574,-0.20083944499492645,0.0,0.0,0.0,0.0,0.0,0.0,0.0,0.130143239534183,0.5029476008614197,0.30547973660440003,0.41708481894636884,0.2339981294857951,0.06434892170731524,-0.1979675092973263,-0.6092569290085843,-0.05773059454498382,-0.666538568767743,-2.594556419641496,-0.05568020197309098,2.5079574496481154,0.8763184780991738,-0.6090851748156966,-0.05753196718556838,-0.666603097082616,-2.5945565370258534,-0.05562143941554,2.507976027223799,0.8763108487046415,-0.0007386911461261464,0.000863012267060814,0.0008831085693925547,0.0003392541652366414,4.029682988535072e-05,5.4606187609102954e-05,0.0004919140880692722,0.0,0.0,0.0,0.0,0.0,0.0,0.0,0.00017175419288772975,0.00019862735941543475,-6.452831487302468e-05,-1.1738435734542918e-07,5.8762557550981476e-05,1.8577575683575986e-05,-7.629394532360223e-06,0.0007386911461261464,-0.000863012267060814,-0.0008831085693925547,-0.0003392541652366414,-4.029682988535072e-05,-5.4606187609102954e-05,-0.0004919140880692722,-0.10880166292190552,18.205713272094727,-1.0688202381134033,-18.023714065551758,-0.6594749093055725,-2.2488436698913574,0.20083944499492645,0
52,0.2550177574157715,0.10880166292190552,-18.130334854125977,1.0926239490509033,18.071321487426758,0.6713767647743225,2.2488436698913574,-0.20724813640117645,0.0,0.0,0.0,0.0,0.0,0.0,0.0,0.1280076662781199,0.5011050266742911,0.30799572603463105,0.4179121433559111,0.2342540026662002,0.065074573217536,-0.19666313210268452,-0.609256213752847,-0.05773778640959786,-0.6665424556046067,-2.594561725841861,-0.055681524768085945,2.5079574496481154,0.8763190724384269,-0.6090851748156966,-0.05753196718556838,-0.666603097082616,-2.5945565370258534,-0.05562143941554,2.507976027223799,0.8763108487046415,-0.00036233596609791676,-0.0007176926683281717,0.0005992306530947439,-0.0004731808346616455,-0.00036436964818657274,-7.402130423009733e-06,-0.00018731556683835752,0.0,0.0,0.0,0.0,0.0,0.0,0.0,0.00017103893715042506,0.00020581922402947844,-6.064147800932673e-05,5.188816007528629e-06,6.0085352545945214e-05,1.8577575683575986e-05,-8.223733785395204e-06,0.00036233596609791676,0.0007176926683281717,-0.0005992306530947439,0.0004731808346616455,0.00036436964818657274,7.402130423009733e-06,0.00018731556683835752,-0.10880166292190552,18.130334854125977,-1.0926239490509033,-18.071321487426758,-0.6713767647743225,-2.2488436698913574,0.20724813640117645,0
53,0.2599916458129883,0.10880166292190552,-18.130334854125977,1.0926239490509033,18.071321487426758,0.6713767647743225,2.2488436698913574,-0.20724813640117645,0.0,0.0,0.0,0.0,0.0,0.0,0.0,0.1280076662781199,0.5011050266742911,0.30799572603463105,0.4179121433559111,0.2342540026662002,0.065074573217536,-0.19666313210268452,-0.609256213752847,-0.05773778640959786,-0.6665424556046067,-2.594561725841861,-0.055681524768085945,2.5079574496481154,0.8763190724384269,-0.6090851748156966,-0.05753196718556838,-0.666603097082616,-2.5945565370258534,-0.05562143941554,2.507976027223799,0.8763108487046415,-0.00036233596609791676,-0.0007176926683281717,0.0005992306530947439,-0.0004731808346616455,-0.00036436964818657274,-7.402130423009733e-06,-0.00018731556683835752,0.0,0.0,0.0,0.0,0.0,0.0,0.0,0.00017103893715042506,0.00020581922402947844,-6.064147800932673e-05,5.188816007528629e-06,6.0085352545945214e-05,1.8577575683575986e-05,-8.223733785395204e-06,0.00036233596609791676,0.0007176926683281717,-0.0005992306530947439,0.0004731808346616455,0.00036436964818657274,7.402130423009733e-06,0.00018731556683835752,-0.10880166292190552,18.130334854125977,-1.0926239490509033,-18.071321487426758,-0.6713767647743225,-2.2488436698913574,0.20724813640117645,0
54,0.26499223709106445,0.10880166292190552,-18.177942276000977,1.1164276599884033,18.047517776489258,0.6594749093055725,2.2488436698913574,-0.20724813640117645,0.0,0.0,0.0,0.0,0.0,0.0,0.0,0.12327684471113211,0.4977590765398078,0.30768375679526316,0.418041538503791,0.23451075342302716,0.06500408210720482,-0.19807720635963144,-0.6092569288591917,-0.05773468551427075,-0.6665421499110918,-2.5945594082839865,-0.055680215477610734,2.5079574496481154,0.8763191901753322,-0.6090851748156966,-0.05753196718556838,-0.666603097082616,-2.5945565370258534,-0.05562143941554,2.507976027223799,0.8763108487046415,0.0003074078316578831,-8.44341897120851e-06,0.0005388217945968,0.00020964836444721825,-0.0001488215689183198,-5.8265485994576965e-05,0.0005353365056948374,0.0,0.0,0.0,0.0,0.0,0.0,0.0,0.00017175404349512036,0.00020271832870236844,-6.0947171524161625e-05,2.871258133030352e-06,5.8776062070733937e-05,1.8577575683575986e-05,-8.341470690731434e-06,-0.0003074078316578831,8.44341897120851e-06,-0.0005388217945968,-0.00020964836444721825,0.0001488215689183198,5.8265485994576965e-05,-0.0005353365056948374,-0.10880166292190552,18.177942276000977,-1.1164276599884033,-18.047517776489258,-0.6594749093055725,-2.2488436698913574,0.20724813640117645,0
55,0.2699911594390869,0.10880166292190552,-18.177942276000977,1.1164276599884033,18.047517776489258,0.6594749093055725,2.2488436698913574,-0.20724813640117645,0.0,0.0,0.0,0.0,0.0,0.0,0.0,0.12327684471113211,0.4977590765398078,0.30768375679526316,0.418041538503791,0.23451075342302716,0.06500408210720482,-0.19807720635963144,-0.6092569288591917,-0.05773468551427075,-0.6665421499110918,-2.5945594082839865,-0.055680215477610734,2.5079574496481154,0.8763191901753322,-0.6090851748156966,-0.05753196718556838,-0.666603097082616,-2.5945565370258534,-0.05562143941554,2.507976027223799,0.8763108487046415,0.0003074078316578831,-8.44341897120851e-06,0.0005388217945968,0.00020964836444721825,-0.0001488215689183198,-5.8265485994576965e-05,0.0005353365056948374,0.0,0.0,0.0,0.0,0.0,0.0,0.0,0.00017175404349512036,0.00020271832870236844,-6.0947171524161625e-05,2.871258133030352e-06,5.8776062070733937e-05,1.8577575683575986e-05,-8.341470690731434e-06,-0.0003074078316578831,8.44341897120851e-06,-0.0005388217945968,-0.00020964836444721825,0.0001488215689183198,5.8265485994576965e-05,-0.0005353365056948374,-0.10880166292190552,18.177942276000977,-1.1164276599884033,-18.047517776489258,-0.6594749093055725,-2.2488436698913574,0.20724813640117645,0
56,0.2750113010406494,0.16037636995315552,-18.177942276000977,1.0926239490509033,18.047517776489258,0.6594749093055725,2.2552523612976074,-0.23471395671367645,0.0,0.0,0.0,0.0,0.0,0.0,0.0,0.12104266909276366,0.4990307587074125,0.30925547974148726,0.4165830826567788,0.2339601830523636,0.06467756048070208,-0.1969859936496555,-0.6092605482862697,-0.0577339743629711,-0.6665431167856476,-2.5945601494240695,-0.05568367307819971,2.5079567375712926,0.8763222419338093,-0.6090851748156966,-0.05753196718556838,-0.666603097082616,-2.5945565370258534,-0.05562143941554,2.507976027223799,0.8763108487046415,-0.0007741053392176533,0.0002375675183548103,0.0015091708615360409,-0.0002349302052105937,-3.20129469347193e-05,-0.00029273255227564197,0.001391789217589044,0.0,0.0,0.0,0.0,0.0,0.0,0.0,0.0001753734705731702,0.00020200717740271462,-5.998029696840934e-05,3.612398216112922e-06,6.22336626597067e-05,1.9289652506415678e-05,-1.1393229167766528e-05,0.0007741053392176533,-0.0002375675183548103,-0.0015091708615360409,0.0002349302052105937,3.20129469347193e-05,0.00029273255227564197,-0.001391789217589044,-0.16037636995315552,18.177942276000977,-1.0926239490509033,-18.047517776489258,-0.6594749093055725,-2.2552523612976074,0.23471395671367645,0
57,0.2800929546356201,0.16037636995315552,-18.177942276000977,1.0926239490509033,18.047517776489258,0.6594749093055725,2.2552523612976074,-0.23471395671367645,0.0,0.0,0.0,0.0,0.0,0.0,0.0,0.12104266909276366,0.4990307587074125,0.30925547974148726,0.4165830826567788,0.2339601830523636,0.06467756048070208,-0.1969859936496555,-0.6092605482862697,-0.0577339743629711,-0.6665431167856476,-2.5945601494240695,-0.05568367307819971,2.5079567375712926,0.8763222419338093,-0.6090851748156966,-0.05753196718556838,-0.666603097082616,-2.5945565370258534,-0.05562143941554,2.507976027223799,0.8763108487046415,-0.0007741053392176533,0.0002375675183548103,0.0015091708615360409,-0.0002349302052105937,-3.20129469347193e-05,-0.00029273255227564197,0.001391789217589044,0.0,0.0,0.0,0.0,0.0,0.0,0.0,0.0001753734705731702,0.00020200717740271462,-5.998029696840934e-05,3.612398216112922e-06,6.22336626597067e-05,1.9289652506415678e-05,-1.1393229167766528e-05,0.0007741053392176533,-0.0002375675183548103,-0.0015091708615360409,0.0002349302052105937,3.20129469347193e-05,0.00029273255227564197,-0.001391789217589044,-0.16037636995315552,18.177942276000977,-1.0926239490509033,-18.047517776489258,-0.6594749093055725,-2.2552523612976074,0.23471395671367645,0
58,0.2850210666656494,0.16037636995315552,-18.205713272094727,1.1680023670196533,18.047517776489258,0.6475730538368225,2.2424349784851074,-0.19351522624492645,0.0,0.0,0.0,0.0,0.0,0.0,0.0,0.1276282058166145,0.5027712074991642,0.31480911810504913,0.4155220311952153,0.2334082155868517,0.06432603025795719,-0.1983307343948481,-0.6092605482862706,-0.05773273666977982,-0.6665465554178386,-2.5945574304063963,-0.055678802039476526,2.5079581617249382,0.8763176642970906,-0.6090851748156966,-0.05753196718556838,-0.666603097082616,-2.5945565370258534,-0.05562143941554,2.507976027223799,0.8763108487046415,-8.949447265365786e-06,0.001449902190446604,-0.000362913469363706,-0.00017073055889966235,0.00019759698096508235,0.00021090964701321447,-0.0007642068524691743,0.0,0.0,0.0,0.0,0.0,0.0,0.0,0.0001753734705740584,0.00020076948421143825,-5.654166477742084e-05,8.933805428767982e-07,5.736262393652575e-05,1.7865498860736295e-05,-6.815592449083141e-06,8.949447265365786e-06,-0.001449902190446604,0.000362913469363706,0.00017073055889966235,-0.00019759698096508235,-0.00021090964701321447,0.0007642068524691743,-0.16037636995315552,18.205713272094727,-1.1680023670196533,-18.047517776489258,-0.6475730538368225,-2.2424349784851074,0.19351522624492645,0
59,0.2900090217590332,0.16037636995315552,-18.205713272094727,1.1680023670196533,18.047517776489258,0.6475730538368225,2.2424349784851074,-0.19351522624492645,0.0,0.0,0.0,0.0,0.0,0.0,0.0,0.1276282058166145,0.5027712074991642,0.31480911810504913,0.4155220311952153,0.2334082155868517,0.06432603025795719,-0.1983307343948481,-0.6092605482862706,-0.05773273666977982,-0.6665465554178386,-2.5945574304063963,-0.055678802039476526,2.5079581617249382,0.8763176642970906,-0.6090851748156966,-0.05753196718556838,-0.666603097082616,-2.5945565370258534,-0.05562143941554,2.507976027223799,0.8763108487046415,-8.949447265365786e-06,0.001449902190446604,-0.000362913469363706,-0.00017073055889966235,0.00019759698096508235,0.00021090964701321447,-0.0007642068524691743,0.0,0.0,0.0,0.0,0.0,0.0,0.0,0.0001753734705740584,0.00020076948421143825,-5.654166477742084e-05,8.933805428767982e-07,5.736262393652575e-05,1.7865498860736295e-05,-6.815592449083141e-06,8.949447265365786e-06,-0.001449902190446604,0.000362913469363706,0.00017073055889966235,-0.00019759698096508235,-0.00021090964701321447,0.0007642068524691743,-0.16037636995315552,18.205713272094727,-1.1680023670196533,-18.047517776489258,-0.6475730538368225,-2.2424349784851074,0.19351522624492645,0
60,0.2949991226196289,0.10880166292190552,-18.177942276000977,1.1441986560821533,18.047517776489258,0.6713767647743225,2.2360262870788574,-0.22830526530742645,0.0,0.0,0.0,0.0,0.0,0.0,0.0,0.12835976323786516,0.496409345131695,0.31240510828934437,0.422148122434601,0.23314522454991796,0.06513612006369655,-0.2001071861972855,-0.6092569290085843,-0.05773468551562541,-0.6665439312972176,-2.594560315300672,-0.055681412260185414,2.507958873801761,0.8763215298569863,-0.6090851748156966,-0.05753196718556838,-0.666603097082616,-2.5945565370258534,-0.05562143941554,2.507976027223799,0.8763108487046415,0.0011578021188232638,0.00023047928963894744,-0.0003564594321683271,0.00043783491981632446,-0.00043556424704197037,0.0004144351964534853,0.0004913614177964216,0.0,0.0,0.0,0.0,0.0,0.0,0.0,0.00017175419288772975,0.00020271833005702788,-5.916578539844064e-05,3.778274818788674e-06,5.9972844645414525e-05,1.7153422037896604e-05,-1.0681152344815814e-05,-0.0011578021188232638,-0.00023047928963894744,0.0003564594321683271,-0.00043783491981632446,0.00043556424704197037,-0.0004144351964534853,-0.0004913614177964216,-0.10880166292190552,18.177942276000977,-1.1441986560821533,-18.047517776489258,-0.6713767647743225,-2.2360262870788574,0.22830526530742645,0
61,0.30000972747802734,0.10880166292190552,-18.177942276000977,1.1441986560821533,18.047517776489258,0.6713767647743225,2.2360262870788574,-0.22830526530742645,0.0,0.0,0.0,0.0,0.0,0.0,0.0,0.12835976323786516,0.496409345131695,0.31240510828934437,0.422148122434601,0.23314522454991796,0.06513612006369655,-0.2001071861972855,-0.6092569290085843,-0.05773468551562541,-0.6665439312972176,-2.594560315300672,-0.055681412260185414,2.507958873801761,0.8763215298569863,-0.6090851748156966,-0.05753196718556838,-0.666603097082616,-2.5945565370258534,-0.05562143941554,2.507976027223799,0.8763108487046415,0.0011578021188232638,0.00023047928963894744,-0.0003564594321683271,0.00043783491981632446,-0.00043556424704197037,0.0004144351964534853,0.0004913614177964216,0.0,0.0,0.0,0.0,0.0,0.0,0.0,0.00017175419288772975,0.00020271833005702788,-5.916578539844064e-05,3.778274818788674e-06,5.9972844645414525e-05,1.7153422037896604e-05,-1.0681152344815814e-05,-0.0011578021188232638,-0.00023047928963894744,0.0003564594321683271,-0.00043783491981632446,0.00043556424704197037,-0.0004144351964534853,-0.0004913614177964216,-0.10880166292190552,18.177942276000977,-1.1441986560821533,-18.047517776489258,-0.6713767647743225,-2.2360262870788574,0.22830526530742645,0
62,0.3050508499145508,0.16037636995315552,-18.130334854125977,1.1441986560821533,18.047517776489258,0.6658836007118225,2.2488436698913574,-0.23471395671367645,0.0,0.0,0.0,0.0,0.0,0.0,0.0,0.14061094453545742,0.4984496206217811,0.32038633799367333,0.4233921137481251,0.23314249643485907,0.06556889672957175,-0.20322567742992217,-0.6092605482862706,-0.05773802342480204,-0.6665438750394395,-2.5945579238499565,-0.05568517229038149,2.5079574452874644,0.8763222419338093,-0.6090851748156966,-0.05753196718556838,-0.666603097082616,-2.5945565370258534,-0.05562143941554,2.507976027223799,0.8763108487046415,-0.00010377500014306158,-0.0007348290778559671,0.0006054687202281798,0.00019904876927217234,-0.00036656976216006506,0.0023490370335781407,0.0011175126353839796,0.0,0.0,0.0,0.0,0.0,0.0,0.0,0.0001753734705740584,0.0002060562392336568,-5.922204317654334e-05,1.386824103111195e-06,6.373287484148782e-05,1.8581936334527427e-05,-1.1393229167766528e-05,0.00010377500014306158,0.0007348290778559671,-0.0006054687202281798,-0.00019904876927217234,0.00036656976216006506,-0.0023490370335781407,-0.0011175126353839796,-0.16037636995315552,18.130334854125977,-1.1441986560821533,-18.047517776489258,-0.6658836007118225,-2.2488436698913574,0.23471395671367645,0
63,0.30999302864074707,0.16037636995315552,-18.130334854125977,1.1441986560821533,18.047517776489258,0.6658836007118225,2.2488436698913574,-0.23471395671367645,0.0,0.0,0.0,0.0,0.0,0.0,0.0,0.14061094453545742,0.4984496206217811,0.32038633799367333,0.4233921137481251,0.23314249643485907,0.06556889672957175,-0.20322567742992217,-0.6092605482862706,-0.05773802342480204,-0.6665438750394395,-2.5945579238499565,-0.05568517229038149,2.5079574452874644,0.8763222419338093,-0.6090851748156966,-0.05753196718556838,-0.666603097082616,-2.5945565370258534,-0.05562143941554,2.507976027223799,0.8763108487046415,-0.00010377500014306158,-0.0007348290778559671,0.0006054687202281798,0.00019904876927217234,-0.00036656976216006506,0.0023490370335781407,0.0011175126353839796,0.0,0.0,0.0,0.0,0.0,0.0,0.0,0.0001753734705740584,0.0002060562392336568,-5.922204317654334e-05,1.386824103111195e-06,6.373287484148782e-05,1.8581936334527427e-05,-1.1393229167766528e-05,0.00010377500014306158,0.0007348290778559671,-0.0006054687202281798,-0.00019904876927217234,0.00036656976216006506,-0.0023490370335781407,-0.0011175126353839796,-0.16037636995315552,18.130334854125977,-1.1441986560821533,-18.047517776489258,-0.6658836007118225,-2.2488436698913574,0.23471395671367645,0
64,0.31502437591552734,0.13260537385940552,-18.154138565063477,1.1441986560821533,18.071321487426758,0.6594749093055725,2.2488436698913574,-0.16604940593242645,0.0,0.0,0.0,0.0,0.0,0.0,0.0,0.13834811534842162,0.5061193382999081,0.3148540354196051,0.41830511256775993,0.23335836817856923,0.0639663614761655,-0.20488482044857853,-0.6092585965010002,-0.05773635497599549,-0.6665438839784559,-2.5945609953870785,-0.05568009813167007,2.50795850928622,0.876314612539278,-0.6090851748156966,-0.05753196718556838,-0.666603097082616,-2.5945565370258534,-0.05562143941554,2.507976027223799,0.8763108487046415,5.1560770523239215e-05,0.0006275445755327848,-0.00023793870747675644,-2.381894945784875e-05,-0.00027109969626207134,3.220350218948587e-05,-0.0015431558397670454,0.0,0.0,0.0,0.0,0.0,0.0,0.0,0.0001734216853036541,0.00020438779042710603,-5.921310416012737e-05,4.458361225090357e-06,5.865871613006807e-05,1.75179375787593e-05,-3.7638346365165276e-06,-5.1560770523239215e-05,-0.0006275445755327848,0.00023793870747675644,2.381894945784875e-05,0.00027109969626207134,-3.220350218948587e-05,0.0015431558397670454,-0.13260537385940552,18.154138565063477,-1.1441986560821533,-18.071321487426758,-0.6594749093055725,-2.2488436698913574,0.16604940593242645,0
65,0.32000160217285156,0.13260537385940552,-18.154138565063477,1.1441986560821533,18.071321487426758,0.6594749093055725,2.2488436698913574,-0.16604940593242645,0.0,0.0,0.0,0.0,0.0,0.0,0.0,0.13834811534842162,0.5061193382999081,0.3148540354196051,0.41830511256775993,0.23335836817856923,0.0639663614761655,-0.20488482044857853,-0.6092585965010002,-0.05773635497599549,-0.6665438839784559,-2.5945609953870785,-0.05568009813167007,2.50795850928622,0.876314612539278,-0.6090851748156966,-0.05753196718556838,-0.666603097082616,-2.5945565370258534,-0.05562143941554,2.507976027223799,0.8763108487046415,5.1560770523239215e-05,0.0006275445755327848,-0.00023793870747675644,-2.381894945784875e-05,-0.00027109969626207134,3.220350218948587e-05,-0.0015431558397670454,0.0,0.0,0.0,0.0,0.0,0.0,0.0,0.0001734216853036541,0.00020438779042710603,-5.921310416012737e-05,4.458361225090357e-06,5.865871613006807e-05,1.75179375787593e-05,-3.7638346365165276e-06,-5.1560770523239215e-05,-0.0006275445755327848,0.00023793870747675644,2.381894945784875e-05,0.00027109969626207134,-3.220350218948587e-05,0.0015431558397670454,-0.13260537385940552,18.154138565063477,-1.1441986560821533,-18.071321487426758,-0.6594749093055725,-2.2488436698913574,0.16604940593242645,0
66,0.3250088691711426,0.08103066682815552,-18.106531143188477,1.0926239490509033,18.047517776489258,0.6594749093055725,2.2360262870788574,-0.22098104655742645,0.0,0.0,0.0,0.0,0.0,0.0,0.0,0.13741118918285655,0.503070733511638,0.31088868632154304,0.42029095239499153,0.2330099773365008,0.06451787725487275,-0.20349587225421872,-0.6092549801667033,-0.0577396968231747,-0.6665412633992552,-2.594558168405542,-0.05568333037900611,2.5079588738197063,0.8763174978946584,-0.6090851748156966,-0.05753196718556838,-0.666603097082616,-2.5945565370258534,-0.05562143941554,2.507976027223799,0.8763108487046415,0.0011548722731094202,-0.0013108067528392424,0.0003554361173921707,-0.00024143514862380298,6.288815692416703e-05,0.0002978495578337023,0.0011232262533380716,0.0,0.0,0.0,0.0,0.0,0.0,0.0,0.00016980535100674654,0.00020772963760631868,-6.1833683360768e-05,1.6313796886713305e-06,6.189096346610745e-05,1.7153404092695723e-05,-6.649190016916329e-06,-0.0011548722731094202,0.0013108067528392424,-0.0003554361173921707,0.00024143514862380298,-6.288815692416703e-05,-0.0002978495578337023,-0.0011232262533380716,-0.08103066682815552,18.106531143188477,-1.0926239490509033,-18.047517776489258,-0.6594749093055725,-2.2360262870788574,0.22098104655742645,0
67,0.3299977779388428,0.08103066682815552,-18.106531143188477,1.0926239490509033,18.047517776489258,0.6594749093055725,2.2360262870788574,-0.22098104655742645,0.0,0.0,0.0,0.0,0.0,0.0,0.0,0.13741118918285655,0.503070733511638,0.31088868632154304,0.42029095239499153,0.2330099773365008,0.06451787725487275,-0.20349587225421872,-0.6092549801667033,-0.0577396968231747,-0.6665412633992552,-2.594558168405542,-0.05568333037900611,2.5079588738197063,0.8763174978946584,-0.6090851748156966,-0.05753196718556838,-0.666603097082616,-2.5945565370258534,-0.05562143941554,2.507976027223799,0.8763108487046415,0.0011548722731094202,-0.0013108067528392424,0.0003554361173921707,-0.00024143514862380298,6.288815692416703e-05,0.0002978495578337023,0.0011232262533380716,0.0,0.0,0.0,0.0,0.0,0.0,0.0,0.00016980535100674654,0.00020772963760631868,-6.1833683360768e-05,1.6313796886713305e-06,6.189096346610745e-05,1.7153404092695723e-05,-6.649190016916329e-06,-0.0011548722731094202,0.0013108067528392424,-0.0003554361173921707,0.00024143514862380298,-6.288815692416703e-05,-0.0002978495578337023,-0.0011232262533380716,-0.08103066682815552,18.106531143188477,-1.0926239490509033,-18.047517776489258,-0.6594749093055725,-2.2360262870788574,0.22098104655742645,0
68,0.3349931240081787,0.10880166292190552,-18.130334854125977,1.0926239490509033,18.047517776489258,0.6475730538368225,2.2552523612976074,-0.22098104655742645,0.0,0.0,0.0,0.0,0.0,0.0,0.0,0.13682150406669605,0.5058235048045459,0.3129089326756795,0.4188237393817795,0.23304729541530164,0.064005254683667,-0.20052944351524465,-0.6092569290085843,-0.05773792103673953,-0.6665404974522989,-2.5945603699182653,-0.05568018558476921,2.5079567375712926,0.8763205983112776,-0.6090851748156966,-0.05753196718556838,-0.666603097082616,-2.5945565370258534,-0.05562143941554,2.507976027223799,0.8763108487046415,-0.00014486321451471373,-0.0007545461544292049,0.0006590867136818715,-0.00043875056016973136,0.0004001887665963487,-0.00024939391172365923,0.00045892336574702443,0.0,0.0,0.0,0.0,0.0,0.0,0.0,0.00017175419288772975,0.00020595385117114923,-6.259963031707283e-05,3.8328924119035435e-06,5.8746169229212386e-05,1.9289652506415678e-05,-9.749606636133556e-06,0.00014486321451471373,0.0007545461544292049,-0.0006590867136818715,0.00043875056016973136,-0.0004001887665963487,0.00024939391172365923,-0.00045892336574702443,-0.10880166292190552,18.130334854125977,-1.0926239490509033,-18.047517776489258,-0.6475730538368225,-2.2552523612976074,0.22098104655742645,0
69,0.3399972915649414,0.10880166292190552,-18.130334854125977,1.0926239490509033,18.047517776489258,0.6475730538368225,2.2552523612976074,-0.22098104655742645,0.0,0.0,0.0,0.0,0.0,0.0,0.0,0.13682150406669605,0.5058235048045459,0.3129089326756795,0.4188237393817795,0.23304729541530164,0.064005254683667,-0.20052944351524465,-0.6092569290085843,-0.05773792103673953,-0.6665404974522989,-2.5945603699182653,-0.05568018558476921,2.5079567375712926,0.8763205983112776,-0.6090851748156966,-0.05753196718556838,-0.666603097082616,-2.5945565370258534,-0.05562143941554,2.507976027223799,0.8763108487046415,-0.00014486321451471373,-0.0007545461544292049,0.0006590867136818715,-0.00043875056016973136,0.0004001887665963487,-0.00024939391172365923,0.00045892336574702443,0.0,0.0,0.0,0.0,0.0,0.0,0.0,0.00017175419288772975,0.00020595385117114923,-6.259963031707283e-05,3.8328924119035435e-06,5.8746169229212386e-05,1.9289652506415678e-05,-9.749606636133556e-06,0.00014486321451471373,0.0007545461544292049,-0.0006590867136818715,0.00043875056016973136,-0.0004001887665963487,0.00024939391172365923,-0.00045892336574702443,-0.10880166292190552,18.130334854125977,-1.0926239490509033,-18.047517776489258,-0.6475730538368225,-2.2552523612976074,0.22098104655742645,0
70,0.34499430656433105,0.13260537385940552,-18.154138565063477,1.1441986560821533,18.023714065551758,0.6658836007118225,2.2552523612976074,-0.23471395671367645,0.0,0.0,0.0,0.0,0.0,0.0,0.0,0.13172144811038022,0.5024521136313161,0.3116138391544301,0.42101946498807813,0.23300822726385093,0.06524777804735289,-0.20073115850181583,-0.6092585729534863,-0.05773634717166962,-0.6665448817330479,-2.5945584434193463,-0.05568116798094961,2.5079567375712926,0.876322237572494,-0.6090851748156966,-0.05753196718556838,-0.666603097082616,-2.5945565370258534,-0.05562143941554,2.507976027223799,0.8763108487046415,-0.0005958281690776724,-0.00013055452124095246,-0.0006089055546030565,0.0006339850361553504,-0.00029830160746630534,-0.00019041667941273327,0.0014131720401152122,0.0,0.0,0.0,0.0,0.0,0.0,0.0,0.00017339813778971536,0.00020437998610123992,-5.8215349568069286e-05,1.9063934928453818e-06,5.972856540960997e-05,1.9289652506415678e-05,-1.138886785245763e-05,0.0005958281690776724,0.00013055452124095246,0.0006089055546030565,-0.0006339850361553504,0.00029830160746630534,0.00019041667941273327,-0.0014131720401152122,-0.13260537385940552,18.154138565063477,-1.1441986560821533,-18.023714065551758,-0.6658836007118225,-2.2552523612976074,0.23471395671367645,0
71,0.34999799728393555,0.13260537385940552,-18.154138565063477,1.1441986560821533,18.023714065551758,0.6658836007118225,2.2552523612976074,-0.23471395671367645,0.0,0.0,0.0,0.0,0.0,0.0,0.0,0.13172144811038022,0.5024521136313161,0.3116138391544301,0.42101946498807813,0.23300822726385093,0.06524777804735289,-0.20073115850181583,-0.6092585729534863,-0.05773634717166962,-0.6665448817330479,-2.5945584434193463,-0.05568116798094961,2.5079567375712926,0.876322237572494,-0.6090851748156966,-0.05753196718556838,-0.666603097082616,-2.5945565370258534,-0.05562143941554,2.507976027223799,0.8763108487046415,-0.0005958281690776724,-0.00013055452124095246,-0.0006089055546030565,0.0006339850361553504,-0.00029830160746630534,-0.00019041667941273327,0.0014131720401152122,0.0,0.0,0.0,0.0,0.0,0.0,0.0,0.00017339813778971536,0.00020437998610123992,-5.8215349568069286e-05,1.9063934928453818e-06,5.972856540960997e-05,1.9289652506415678e-05,-1.138886785245763e-05,0.0005958281690776724,0.00013055452124095246,0.0006089055546030565,-0.0006339850361553504,0.00029830160746630534,0.00019041667941273327,-0.0014131720401152122,-0.13260537385940552,18.154138565063477,-1.1441986560821533,-18.023714065551758,-0.6658836007118225,-2.2552523612976074,0.23471395671367645,0
72,0.3549983501434326,0.10880166292190552,-18.154138565063477,1.1164276599884033,17.999910354614258,0.6658836007118225,2.2488436698913574,-0.16604940593242645,0.0,0.0,0.0,0.0,0.0,0.0,0.0,0.12765233454140038,0.5011738660352469,0.3091853667012539,0.42004639705777697,0.23291603278855907,0.06578452937632862,-0.2031552898968413,-0.6092547832412228,-0.05773611891258918,-0.6665419262029736,-2.594557052752783,-0.05568080926640025,2.5079574496481154,0.8763146125392535,-0.6090851748156966,-0.05753196718556838,-0.666603097082616,-2.5945565370258534,-0.05562143941554,2.507976027223799,0.8763108487046415,0.00030865630766764313,-0.000308268733193444,0.0003293650977248385,0.0012305166285131398,-0.0003270794438091279,-0.0001111268640541084,-0.0018139038505854267,0.0,0.0,0.0,0.0,0.0,0.0,0.0,0.00016960842552626865,0.00020415172702079737,-6.117087964241374e-05,5.157269296063305e-07,5.936985086024693e-05,1.8577575683575986e-05,-3.7638346119805988e-06,-0.00030865630766764313,0.000308268733193444,-0.0003293650977248385,-0.0012305166285131398,0.0003270794438091279,0.0001111268640541084,0.0018139038505854267,-0.10880166292190552,18.154138565063477,-1.1164276599884033,-17.999910354614258,-0.6658836007118225,-2.2488436698913574,0.16604940593242645,0
73,0.3600039482116699,0.10880166292190552,-18.154138565063477,1.1164276599884033,17.999910354614258,0.6658836007118225,2.2488436698913574,-0.16604940593242645,0.0,0.0,0.0,0.0,0.0,0.0,0.0,0.12765233454140038,0.5011738660352469,0.3091853667012539,0.42004639705777697,0.23291603278855907,0.06578452937632862,-0.2031552898968413,-0.6092547832412228,-0.05773611891258918,-0.6665419262029736,-2.594557052752783,-0.05568080926640025,2.5079574496481154,0.8763146125392535,-0.6090851748156966,-0.05753196718556838,-0.666603097082616,-2.5945565370258534,-0.05562143941554,2.507976027223799,0.8763108487046415,0.00030865630766764313,-0.000308268733193444,0.0003293650977248385,0.0012305166285131398,-0.0003270794438091279,-0.0001111268640541084,-0.0018139038505854267,0.0,0.0,0.0,0.0,0.0,0.0,0.0,0.00016960842552626865,0.00020415172702079737,-6.117087964241374e-05,5.157269296063305e-07,5.936985086024693e-05,1.8577575683575986e-05,-3.7638346119805988e-06,-0.00030865630766764313,0.000308268733193444,-0.0003293650977248385,-0.0012305166285131398,0.0003270794438091279,0.0001111268640541084,0.0018139038505854267,-0.10880166292190552,18.154138565063477,-1.1164276599884033,-17.999910354614258,-0.6658836007118225,-2.2488436698913574,0.16604940593242645,0
74,0.36508893966674805,0.10880166292190552,-18.154138565063477,1.1164276599884033,17.999910354614258,0.6658836007118225,2.2488436698913574,-0.16604940593242645,0.0,0.0,0.0,0.0,0.0,0.0,0.0,0.12765233454140038,0.5011738660352469,0.3091853667012539,0.42004639705777697,0.23291603278855907,0.06578452937632862,-0.2031552898968413,-0.6092547832412228,-0.05773611891258918,-0.6665419262029736,-2.594557052752783,-0.05568080926640025,2.5079574496481154,0.8763146125392535,-0.6090851748156966,-0.05753196718556838,-0.666603097082616,-2.5945565370258534,-0.05562143941554,2.507976027223799,0.8763108487046415,0.00030865630766764313,-0.000308268733193444,0.0003293650977248385,0.0012305166285131398,-0.0003270794438091279,-0.0001111268640541084,-0.0018139038505854267,0.0,0.0,0.0,0.0,0.0,0.0,0.0,0.00016960842552626865,0.00020415172702079737,-6.117087964241374e-05,5.157269296063305e-07,5.936985086024693e-05,1.8577575683575986e-05,-3.7638346119805988e-06,-0.00030865630766764313,0.000308268733193444,-0.0003293650977248385,-0.0012305166285131398,0.0003270794438091279,0.0001111268640541084,0.0018139038505854267,-0.10880166292190552,18.154138565063477,-1.1164276599884033,-17.999910354614258,-0.6658836007118225,-2.2488436698913574,0.16604940593242645,0
75,0.37000608444213867,0.10880166292190552,-18.154138565063477,1.1164276599884033,17.999910354614258,0.6658836007118225,2.2488436698913574,-0.16604940593242645,0.0,0.0,0.0,0.0,0.0,0.0,0.0,0.12765233454140038,0.5011738660352469,0.3091853667012539,0.42004639705777697,0.23291603278855907,0.06578452937632862,-0.2031552898968413,-0.6092547832412228,-0.05773611891258918,-0.6665419262029736,-2.594557052752783,-0.05568080926640025,2.5079574496481154,0.8763146125392535,-0.6090851748156966,-0.05753196718556838,-0.666603097082616,-2.5945565370258534,-0.05562143941554,2.507976027223799,0.8763108487046415,0.00030865630766764313,-0.000308268733193444,0.0003293650977248385,0.0012305166285131398,-0.0003270794438091279,-0.0001111268640541084,-0.0018139038505854267,0.0,0.0,0.0,0.0,0.0,0.0,0.0,0.00016960842552626865,0.00020415172702079737,-6.117087964241374e-05,5.157269296063305e-07,5.936985086024693e-05,1.8577575683575986e-05,-3.7638346119805988e-06,-0.00030865630766764313,0.000308268733193444,-0.0003293650977248385,-0.0012305166285131398,0.0003270794438091279,0.0001111268640541084,0.0018139038505854267,-0.10880166292190552,18.154138565063477,-1.1164276599884033,-17.999910354614258,-0.6658836007118225,-2.2488436698913574,0.16604940593242645,0
76,0.3750028610229492,0.18418008089065552,-18.154138565063477,1.2156097888946533,18.023714065551758,0.6594749093055725,2.2552523612976074,-0.19351522624492645,0.0,0.0,0.0,0.0,0.0,0.0,0.0,0.13203468662951434,0.5019286418179574,0.31481200634478484,0.41545686649508873,0.23230661738242908,0.0649463319316544,-0.20490583890917527,-0.6092622187100131,-0.05773627690106682,-0.6665510057319627,-2.5945579844206135,-0.05568024122268942,2.5079567375712926,0.8763176642432554,-0.6090851748156966,-0.05753196718556838,-0.666603097082616,-2.5945565370258534,-0.05562143941554,2.507976027223799,0.8763108487046415,-0.0004145002779777043,-0.00043530085182816444,-0.0018105765227787198,0.000293174208570225,5.89867320032689e-05,-0.0003813106686625772,-0.00051506453654756,0.0,0.0,0.0,0.0,0.0,0.0,0.0,0.00017704389431649759,0.00020430971549843802,-5.209135065331605e-05,1.4473947600457393e-06,5.8801807149420904e-05,1.9289652506415678e-05,-6.815538613924588e-06,0.0004145002779777043,0.00043530085182816444,0.0018105765227787198,-0.000293174208570225,-5.89867320032689e-05,0.0003813106686625772,0.00051506453654756,-0.18418008089065552,18.154138565063477,-1.2156097888946533,-18.023714065551758,-0.6594749093055725,-2.2552523612976074,0.19351522624492645,0
77,0.3799936771392822,0.18418008089065552,-18.154138565063477,1.2156097888946533,18.023714065551758,0.6594749093055725,2.2552523612976074,-0.19351522624492645,0.0,0.0,0.0,0.0,0.0,0.0,0.0,0.13203468662951434,0.5019286418179574,0.31481200634478484,0.41545686649508873,0.23230661738242908,0.0649463319316544,-0.20490583890917527,-0.6092622187100131,-0.05773627690106682,-0.6665510057319627,-2.5945579844206135,-0.05568024122268942,2.5079567375712926,0.8763176642432554,-0.6090851748156966,-0.05753196718556838,-0.666603097082616,-2.5945565370258534,-0.05562143941554,2.507976027223799,0.8763108487046415,-0.0004145002779777043,-0.00043530085182816444,-0.0018105765227787198,0.000293174208570225,5.89867320032689e-05,-0.0003813106686625772,-0.00051506453654756,0.0,0.0,0.0,0.0,0.0,0.0,0.0,0.00017704389431649759,0.00020430971549843802,-5.209135065331605e-05,1.4473947600457393e-06,5.8801807149420904e-05,1.9289652506415678e-05,-6.815538613924588e-06,0.0004145002779777043,0.00043530085182816444,0.0018105765227787198,-0.000293174208570225,-5.89867320032689e-05,0.0003813106686625772,0.00051506453654756,-0.18418008089065552,18.154138565063477,-1.2156097888946533,-18.023714065551758,-0.6594749093055725,-2.2552523612976074,0.19351522624492645,0
78,0.38500118255615234,0.13260537385940552,-18.177942276000977,1.1680023670196533,18.047517776489258,0.6594749093055725,2.2424349784851074,-0.20083944499492645,0.0,0.0,0.0,0.0,0.0,0.0,0.0,0.1257168902173568,0.5015400702442262,0.3072517129156466,0.41699871065108796,0.23326544936118182,0.06487257799477426,-0.2046816498428982,-0.6092585994444394,-0.057734682588773734,-0.6665463150691189,-2.594559628510738,-0.05568344964268933,2.5079581617249382,0.8763184780991736,-0.6090851748156966,-0.05753196718556838,-0.666603097082616,-2.5945565370258534,-0.05562143941554,2.507976027223799,0.8763108487046415,0.0003586317381071731,0.0007318670631549273,-0.00044702069622726807,0.0002823281444997166,-8.557150947225922e-05,0.00014387015115474333,0.00045032142640678006,0.0,0.0,0.0,0.0,0.0,0.0,0.0,0.00017342462874281317,0.0002027154032053502,-5.6782013497125305e-05,3.0914848845320364e-06,6.201022714932836e-05,1.7865498860736295e-05,-7.629394532138178e-06,-0.0003586317381071731,-0.0007318670631549273,0.00044702069622726807,-0.0002823281444997166,8.557150947225922e-05,-0.00014387015115474333,-0.00045032142640678006,-0.13260537385940552,18.177942276000977,-1.1680023670196533,-18.047517776489258,-0.6594749093055725,-2.2424349784851074,0.20083944499492645,0
79,0.38999223709106445,0.13260537385940552,-18.177942276000977,1.1680023670196533,18.047517776489258,0.6594749093055725,2.2424349784851074,-0.20083944499492645,0.0,0.0,0.0,0.0,0.0,0.0,0.0,0.1257168902173568,0.5015400702442262,0.3072517129156466,0.41699871065108796,0.23326544936118182,0.06487257799477426,-0.2046816498428982,-0.6092585994444394,-0.057734682588773734,-0.6665463150691189,-2.594559628510738,-0.05568344964268933,2.5079581617249382,0.8763184780991736,-0.6090851748156966,-0.05753196718556838,-0.666603097082616,-2.5945565370258534,-0.05562143941554,2.507976027223799,0.8763108487046415,0.0003586317381071731,0.0007318670631549273,-0.00044702069622726807,0.0002823281444997166,-8.557150947225922e-05,0.00014387015115474333,0.00045032142640678006,0.0,0.0,0.0,0.0,0.0,0.0,0.0,0.00017342462874281317,0.0002027154032053502,-5.6782013497125305e-05,3.0914848845320364e-06,6.201022714932836e-05,1.7865498860736295e-05,-7.629394532138178e-06,-0.0003586317381071731,-0.0007318670631549273,0.00044702069622726807,-0.0002823281444997166,8.557150947225922e-05,-0.00014387015115474333,-0.00045032142640678006,-0.13260537385940552,18.177942276000977,-1.1680023670196533,-18.047517776489258,-0.6594749093055725,-2.2424349784851074,0.20083944499492645,0
