rezayati/contactInterpretation/dataset/franka_main/labeled_data/link5/c6_7.csv
index,time,tau_J0,tau_J1,tau_J2,tau_J3,tau_J4,tau_J5,tau_J6,tau_J_d0,tau_J_d1,tau_J_d2,tau_J_d3,tau_J_d4,tau_J_d5,tau_J_d6,tau_ext0,tau_ext1,tau_ext2,tau_ext3,tau_ext4,tau_ext5,tau_ext6,q0,q1,q2,q3,q4,q5,q6,q_d0,q_d1,q_d2,q_d3,q_d4,q_d5,q_d6,dq0,dq1,dq2,dq3,dq4,dq5,dq6,dq_d0,dq_d1,dq_d2,dq_d3,dq_d4,dq_d5,dq_d6,e0,e1,e2,e3,e4,e5,e6,de0,de1,de2,de3,de4,de5,de6,etau_J0,etau_J1,etau_J2,etau_J3,etau_J4,etau_J5,etau_J6,label
1,0.0,-0.14510458707809448,-12.048486709594727,1.3147919178009033,21.618074417114258,0.3555198311805725,2.5143465995788574,-0.24844686686992645,0.0,0.0,0.0,0.0,0.0,0.0,0.0,-0.13920020988445375,0.33804435751345013,0.09421806746510128,0.3666591078589833,-0.19678615643787736,0.12487401733071418,-0.21598781455672675,0.17281951538721718,-0.48746214701836565,-0.11145608683068811,-1.9466954109736918,0.13361812410333257,2.5955517839325797,0.9452521883563862,0.1728802376190821,-0.48752024683155326,-0.11147110072896137,-1.9463801863486305,0.1336059019074957,2.595550359778934,0.9452445589611904,7.680057783093399e-05,-8.236183943002428e-05,-0.0005074662752859158,0.0004405327349953735,-0.0007306106584293404,0.000455505509182097,0.0016696877944680317,0.0,0.0,0.0,0.0,0.0,0.0,0.0,6.07222318649292e-05,-5.8099813187606486e-05,-1.501389827325561e-05,0.00031522462506128335,-1.2222195836880667e-05,-1.4241536456793824e-06,-7.629395195829503e-06,-7.680057783093399e-05,8.236183943002428e-05,0.0005074662752859158,-0.0004405327349953735,0.0007306106584293404,-0.000455505509182097,-0.0016696877944680317,0.14510458707809448,12.048486709594727,-1.3147919178009033,-21.618074417114258,-0.3555198311805725,-2.5143465995788574,0.24844686686992645,0
2,0.0049970149993896484,-0.14510458707809448,-12.100061416625977,1.3425629138946533,21.641878128051758,0.3381248116493225,2.5335726737976074,-0.23471395671367645,0.0,0.0,0.0,0.0,0.0,0.0,0.0,-0.14876282782748365,0.3272811641316134,0.08257212145803064,0.36541099885915024,-0.19607525172409163,0.12590489997989138,-0.21678003127101428,0.17281951538721718,-0.4874585277406792,-0.1114580356729658,-1.9466967631603647,0.133619028650723,2.595549647702111,0.9452495897573985,0.1728802376190821,-0.48752024683155326,-0.11147110072896137,-1.9463801863486305,0.1336059019074957,2.595550359778934,0.9452445589611904,-0.0006937903924758051,0.0010228966453153753,-0.0016352412315892718,0.00019421739779042346,-6.245177434339347e-05,-0.00020372986825123384,0.0006316785012672266,0.0,0.0,0.0,0.0,0.0,0.0,0.0,6.07222318649292e-05,-6.171909087404615e-05,-1.3065055995561958e-05,0.0003165768117341372,-1.3126743227315218e-05,7.120768228396912e-07,-5.030796208060906e-06,0.0006937903924758051,-0.0010228966453153753,0.0016352412315892718,-0.00019421739779042346,6.245177434339347e-05,0.00020372986825123384,-0.0006316785012672266,0.14510458707809448,12.100061416625977,-1.3425629138946533,-21.641878128051758,-0.3381248116493225,-2.5335726737976074,0.23471395671367645,0
3,0.009998321533203125,-0.14510458707809448,-12.100061416625977,1.3425629138946533,21.641878128051758,0.3381248116493225,2.5335726737976074,-0.23471395671367645,0.0,0.0,0.0,0.0,0.0,0.0,0.0,-0.14876282782748365,0.3272811641316134,0.08257212145803064,0.36541099885915024,-0.19607525172409163,0.12590489997989138,-0.21678003127101428,0.17281951538721718,-0.4874585277406792,-0.1114580356729658,-1.9466967631603647,0.133619028650723,2.595549647702111,0.9452495897573985,0.1728802376190821,-0.48752024683155326,-0.11147110072896137,-1.9463801863486305,0.1336059019074957,2.595550359778934,0.9452445589611904,-0.0006937903924758051,0.0010228966453153753,-0.0016352412315892718,0.00019421739779042346,-6.245177434339347e-05,-0.00020372986825123384,0.0006316785012672266,0.0,0.0,0.0,0.0,0.0,0.0,0.0,6.07222318649292e-05,-6.171909087404615e-05,-1.3065055995561958e-05,0.0003165768117341372,-1.3126743227315218e-05,7.120768228396912e-07,-5.030796208060906e-06,0.0006937903924758051,-0.0010228966453153753,0.0016352412315892718,-0.00019421739779042346,6.245177434339347e-05,0.00020372986825123384,-0.0006316785012672266,0.14510458707809448,12.100061416625977,-1.3425629138946533,-21.641878128051758,-0.3381248116493225,-2.5335726737976074,0.23471395671367645,0
4,0.014999866485595703,-0.12130087614059448,-12.048486709594727,1.3147919178009033,21.641878128051758,0.3317161202430725,2.5207552909851074,-0.22830526530742645,0.0,0.0,0.0,0.0,0.0,0.0,0.0,-0.14672903672948598,0.325477276723232,0.0938502532504036,0.36006175361865383,-0.1965206183988318,0.12542106168827433,-0.21876141842393665,0.1728178449513619,-0.48746214701836565,-0.11145608683113466,-1.946696134607103,0.13362082160895852,2.595551071855757,0.9452499503946016,0.1728802376190821,-0.48752024683155326,-0.11147110072896137,-1.9463801863486305,0.1336059019074957,2.595550359778934,0.9452445589611904,-0.0009364510343342989,0.0001316704117264031,-0.0002957158483378018,0.0005485463760687018,0.0003678776634644588,0.00021370325470706423,0.0012864317140237212,0.0,0.0,0.0,0.0,0.0,0.0,0.0,6.239266772020691e-05,-5.8099813187606486e-05,-1.5013897826710032e-05,0.000315948258472476,-1.491970146283439e-05,-7.120768228396912e-07,-5.39143341116155e-06,0.0009364510343342989,-0.0001316704117264031,0.0002957158483378018,-0.0005485463760687018,-0.0003678776634644588,-0.00021370325470706423,-0.0012864317140237212,0.12130087614059448,12.048486709594727,-1.3147919178009033,-21.641878128051758,-0.3317161202430725,-2.5207552909851074,0.22830526530742645,0
5,0.01999688148498535,-0.12130087614059448,-12.048486709594727,1.3147919178009033,21.641878128051758,0.3317161202430725,2.5207552909851074,-0.22830526530742645,0.0,0.0,0.0,0.0,0.0,0.0,0.0,-0.14672903672948598,0.325477276723232,0.0938502532504036,0.36006175361865383,-0.1965206183988318,0.12542106168827433,-0.21876141842393665,0.1728178449513619,-0.48746214701836565,-0.11145608683113466,-1.946696134607103,0.13362082160895852,2.595551071855757,0.9452499503946016,0.1728802376190821,-0.48752024683155326,-0.11147110072896137,-1.9463801863486305,0.1336059019074957,2.595550359778934,0.9452445589611904,-0.0009364510343342989,0.0001316704117264031,-0.0002957158483378018,0.0005485463760687018,0.0003678776634644588,0.00021370325470706423,0.0012864317140237212,0.0,0.0,0.0,0.0,0.0,0.0,0.0,6.239266772020691e-05,-5.8099813187606486e-05,-1.5013897826710032e-05,0.000315948258472476,-1.491970146283439e-05,-7.120768228396912e-07,-5.39143341116155e-06,0.0009364510343342989,-0.0001316704117264031,0.0002957158483378018,-0.0005485463760687018,-0.0003678776634644588,-0.00021370325470706423,-0.0012864317140237212,0.12130087614059448,12.048486709594727,-1.3147919178009033,-21.641878128051758,-0.3317161202430725,-2.5207552909851074,0.22830526530742645,0
6,0.0249936580657959,-0.17287558317184448,-11.949304580688477,1.3147919178009033,21.717256546020508,0.3317161202430725,2.5271639823913574,-0.24112264811992645,0.0,0.0,0.0,0.0,0.0,0.0,0.0,-0.14738484860315595,0.3339409485667781,0.09456079721549973,0.3527389572354423,-0.1966381909046827,0.12443645128329463,-0.21825142260371408,0.17282146422904832,-0.4874691071677626,-0.11145608683113466,-1.9467034807999843,0.1336176221823972,2.595550359778934,0.945251374554303,0.1728802376190821,-0.48752024683155326,-0.11147110072896137,-1.9463801863486305,0.1336059019074957,2.595550359778934,0.9452445589611904,0.0009688916975951455,-0.0006651640976124057,-0.0005971195557396935,-0.0016247582759170837,9.211724627495221e-05,6.933824572168212e-05,0.0014972108802651053,0.0,0.0,0.0,0.0,0.0,0.0,0.0,5.8773390033795e-05,-5.113966379066692e-05,-1.5013897826710032e-05,0.0003232944513538172,-1.1720274901511063e-05,0.0,-6.8155931125524205e-06,-0.0009688916975951455,0.0006651640976124057,0.0005971195557396935,0.0016247582759170837,-9.211724627495221e-05,-6.933824572168212e-05,-0.0014972108802651053,0.17287558317184448,11.949304580688477,-1.3147919178009033,-21.717256546020508,-0.3317161202430725,-2.5271639823913574,0.24112264811992645,0
7,0.029996156692504883,-0.17287558317184448,-11.949304580688477,1.3147919178009033,21.717256546020508,0.3317161202430725,2.5271639823913574,-0.24112264811992645,0.0,0.0,0.0,0.0,0.0,0.0,0.0,-0.14738484860315595,0.3339409485667781,0.09456079721549973,0.3527389572354423,-0.1966381909046827,0.12443645128329463,-0.21825142260371408,0.17282146422904832,-0.4874691071677626,-0.11145608683113466,-1.9467034807999843,0.1336176221823972,2.595550359778934,0.945251374554303,0.1728802376190821,-0.48752024683155326,-0.11147110072896137,-1.9463801863486305,0.1336059019074957,2.595550359778934,0.9452445589611904,0.0009688916975951455,-0.0006651640976124057,-0.0005971195557396935,-0.0016247582759170837,9.211724627495221e-05,6.933824572168212e-05,0.0014972108802651053,0.0,0.0,0.0,0.0,0.0,0.0,0.0,5.8773390033795e-05,-5.113966379066692e-05,-1.5013897826710032e-05,0.0003232944513538172,-1.1720274901511063e-05,0.0,-6.8155931125524205e-06,-0.0009688916975951455,0.0006651640976124057,0.0005971195557396935,0.0016247582759170837,-9.211724627495221e-05,-6.933824572168212e-05,-0.0014972108802651053,0.17287558317184448,11.949304580688477,-1.3147919178009033,-21.717256546020508,-0.3317161202430725,-2.5271639823913574,0.24112264811992645,0
8,0.035003662109375,-0.14510458707809448,-11.873926162719727,1.2433807849884033,21.669649124145508,0.3436179757118225,2.5271639823913574,-0.22830526530742645,0.0,0.0,0.0,0.0,0.0,0.0,0.0,-0.148277513930269,0.34135078643234135,0.08899411539014782,0.3563748560407798,-0.19675334150531287,0.12501918720559835,-0.21885072632810518,0.17281951538721718,-0.48747439688130423,-0.11144822774609627,-1.9467011727600103,0.13361933974140594,2.595550359778934,0.9452499371571993,0.1728802376190821,-0.48752024683155326,-0.11147110072896137,-1.9463801863486305,0.1336059019074957,2.595550359778934,0.9452445589611904,0.00016581635649191409,-0.0009712549957044056,0.0006174438605377119,-0.00020672011581581782,-0.00019704395175360333,-0.00012515148685573468,0.0002722544283138249,0.0,0.0,0.0,0.0,0.0,0.0,0.0,6.07222318649292e-05,-4.584995024903282e-05,-2.2872982865101976e-05,0.0003209864113797867,-1.343783391025144e-05,0.0,-5.378196008876124e-06,-0.00016581635649191409,0.0009712549957044056,-0.0006174438605377119,0.00020672011581581782,0.00019704395175360333,0.00012515148685573468,-0.0002722544283138249,0.14510458707809448,11.873926162719727,-1.2433807849884033,-21.669649124145508,-0.3436179757118225,-2.5271639823913574,0.22830526530742645,0
9,0.04001641273498535,-0.14510458707809448,-11.873926162719727,1.2433807849884033,21.669649124145508,0.3436179757118225,2.5271639823913574,-0.22830526530742645,0.0,0.0,0.0,0.0,0.0,0.0,0.0,-0.148277513930269,0.34135078643234135,0.08899411539014782,0.3563748560407798,-0.19675334150531287,0.12501918720559835,-0.21885072632810518,0.17281951538721718,-0.48747439688130423,-0.11144822774609627,-1.9467011727600103,0.13361933974140594,2.595550359778934,0.9452499371571993,0.1728802376190821,-0.48752024683155326,-0.11147110072896137,-1.9463801863486305,0.1336059019074957,2.595550359778934,0.9452445589611904,0.00016581635649191409,-0.0009712549957044056,0.0006174438605377119,-0.00020672011581581782,-0.00019704395175360333,-0.00012515148685573468,0.0002722544283138249,0.0,0.0,0.0,0.0,0.0,0.0,0.0,6.07222318649292e-05,-4.584995024903282e-05,-2.2872982865101976e-05,0.0003209864113797867,-1.343783391025144e-05,0.0,-5.378196008876124e-06,-0.00016581635649191409,0.0009712549957044056,-0.0006174438605377119,0.00020672011581581782,0.00019704395175360333,0.00012515148685573468,-0.0002722544283138249,0.14510458707809448,11.873926162719727,-1.2433807849884033,-21.669649124145508,-0.3436179757118225,-2.5271639823913574,0.22830526530742645,0
10,0.045031070709228516,-0.14510458707809448,-11.901697158813477,1.2671844959259033,21.641878128051758,0.3381248116493225,2.5207552909851074,-0.24844686686992645,0.0,0.0,0.0,0.0,0.0,0.0,0.0,-0.1420996681233523,0.34719083427876907,0.0937339052809905,0.3655937612602739,-0.19686542997126552,0.12596367973351066,-0.22005429699031634,0.17281951538721718,-0.4874724480394731,-0.11145274594334834,-1.94669629658283,0.13361999106390743,2.595551071855757,0.9452521883563115,0.1728802376190821,-0.48752024683155326,-0.11147110072896137,-1.9463801863486305,0.1336059019074957,2.595550359778934,0.9452445589611904,0.00013095246400738646,9.893801117623701e-05,0.00013802195181083428,0.0002006086667172614,-4.187316843887494e-05,4.522367508062246e-06,0.001428431287577732,0.0,0.0,0.0,0.0,0.0,0.0,0.0,6.07222318649292e-05,-4.779879208016702e-05,-1.8354785613031166e-05,0.0003161102341995292,-1.4089156411739578e-05,-7.120768228396912e-07,-7.629395121111493e-06,-0.00013095246400738646,-9.893801117623701e-05,-0.00013802195181083428,-0.0002006086667172614,4.187316843887494e-05,-4.522367508062246e-06,-0.001428431287577732,0.14510458707809448,11.901697158813477,-1.2671844959259033,-21.641878128051758,-0.3381248116493225,-2.5207552909851074,0.24844686686992645,0
11,0.04996299743652344,-0.14510458707809448,-11.901697158813477,1.2671844959259033,21.641878128051758,0.3381248116493225,2.5207552909851074,-0.24844686686992645,0.0,0.0,0.0,0.0,0.0,0.0,0.0,-0.1420996681233523,0.34719083427876907,0.0937339052809905,0.3655937612602739,-0.19686542997126552,0.12596367973351066,-0.22005429699031634,0.17281951538721718,-0.4874724480394731,-0.11145274594334834,-1.94669629658283,0.13361999106390743,2.595551071855757,0.9452521883563115,0.1728802376190821,-0.48752024683155326,-0.11147110072896137,-1.9463801863486305,0.1336059019074957,2.595550359778934,0.9452445589611904,0.00013095246400738646,9.893801117623701e-05,0.00013802195181083428,0.0002006086667172614,-4.187316843887494e-05,4.522367508062246e-06,0.001428431287577732,0.0,0.0,0.0,0.0,0.0,0.0,0.0,6.07222318649292e-05,-4.779879208016702e-05,-1.8354785613031166e-05,0.0003161102341995292,-1.4089156411739578e-05,-7.120768228396912e-07,-7.629395121111493e-06,-0.00013095246400738646,-9.893801117623701e-05,-0.00013802195181083428,-0.0002006086667172614,4.187316843887494e-05,-4.522367508062246e-06,-0.001428431287577732,0.14510458707809448,11.901697158813477,-1.2671844959259033,-21.641878128051758,-0.3381248116493225,-2.5207552909851074,0.24844686686992645,0
12,0.04996299743652344,-0.14510458707809448,-11.901697158813477,1.2671844959259033,21.641878128051758,0.3381248116493225,2.5207552909851074,-0.24844686686992645,0.0,0.0,0.0,0.0,0.0,0.0,0.0,-0.1420996681233523,0.34719083427876907,0.0937339052809905,0.3655937612602739,-0.19686542997126552,0.12596367973351066,-0.22005429699031634,0.17281951538721718,-0.4874724480394731,-0.11145274594334834,-1.94669629658283,0.13361999106390743,2.595551071855757,0.9452521883563115,0.1728802376190821,-0.48752024683155326,-0.11147110072896137,-1.9463801863486305,0.1336059019074957,2.595550359778934,0.9452445589611904,0.00013095246400738646,9.893801117623701e-05,0.00013802195181083428,0.0002006086667172614,-4.187316843887494e-05,4.522367508062246e-06,0.001428431287577732,0.0,0.0,0.0,0.0,0.0,0.0,0.0,6.07222318649292e-05,-4.779879208016702e-05,-1.8354785613031166e-05,0.0003161102341995292,-1.4089156411739578e-05,-7.120768228396912e-07,-7.629395121111493e-06,-0.00013095246400738646,-9.893801117623701e-05,-0.00013802195181083428,-0.0002006086667172614,4.187316843887494e-05,-4.522367508062246e-06,-0.001428431287577732,0.14510458707809448,11.901697158813477,-1.2671844959259033,-21.641878128051758,-0.3381248116493225,-2.5207552909851074,0.24844686686992645,0
13,0.05999898910522461,-0.14510458707809448,-11.973108291625977,1.2671844959259033,21.693452835083008,0.3262229561805725,2.5271639823913574,-0.23471395671367645,0.0,0.0,0.0,0.0,0.0,0.0,0.0,-0.1476453204760968,0.3353201259358342,0.0877687205749381,0.3793633950885284,-0.19639885928294346,0.12832763216501913,-0.21995687580905346,0.17281951538721718,-0.4874674367319073,-0.11145274592325352,-1.946699985105661,0.13361817597807346,2.595550359778934,0.94525066247748,0.1728802376190821,-0.48752024683155326,-0.11147110072896137,-1.9463801863486305,0.1336059019074957,2.595550359778934,0.9452445589611904,-0.00028405385806421965,0.0004672613129683375,0.000295706747971834,-0.0011706879421268844,0.0003715202543855745,0.00012703041297775912,0.0013671946438152303,0.0,0.0,0.0,0.0,0.0,0.0,0.0,6.07222318649292e-05,-5.2810099645972386e-05,-1.8354805707845867e-05,0.0003197987570304761,-1.2274070577772411e-05,0.0,-6.103516289601707e-06,0.00028405385806421965,-0.0004672613129683375,-0.000295706747971834,0.0011706879421268844,-0.0003715202543855745,-0.00012703041297775912,-0.0013671946438152303,0.14510458707809448,11.973108291625977,-1.2671844959259033,-21.693452835083008,-0.3262229561805725,-2.5271639823913574,0.23471395671367645,0
14,0.06499910354614258,-0.14510458707809448,-11.973108291625977,1.2671844959259033,21.693452835083008,0.3262229561805725,2.5271639823913574,-0.23471395671367645,0.0,0.0,0.0,0.0,0.0,0.0,0.0,-0.1476453204760968,0.3353201259358342,0.0877687205749381,0.3793633950885284,-0.19639885928294346,0.12832763216501913,-0.21995687580905346,0.17281951538721718,-0.4874674367319073,-0.11145274592325352,-1.946699985105661,0.13361817597807346,2.595550359778934,0.94525066247748,0.1728802376190821,-0.48752024683155326,-0.11147110072896137,-1.9463801863486305,0.1336059019074957,2.595550359778934,0.9452445589611904,-0.00028405385806421965,0.0004672613129683375,0.000295706747971834,-0.0011706879421268844,0.0003715202543855745,0.00012703041297775912,0.0013671946438152303,0.0,0.0,0.0,0.0,0.0,0.0,0.0,6.07222318649292e-05,-5.2810099645972386e-05,-1.8354805707845867e-05,0.0003197987570304761,-1.2274070577772411e-05,0.0,-6.103516289601707e-06,0.00028405385806421965,-0.0004672613129683375,-0.000295706747971834,0.0011706879421268844,-0.0003715202543855745,-0.00012703041297775912,-0.0013671946438152303,0.14510458707809448,11.973108291625977,-1.2671844959259033,-21.693452835083008,-0.3262229561805725,-2.5271639823913574,0.23471395671367645,0
15,0.06999707221984863,-0.17287558317184448,-11.949304580688477,1.2671844959259033,21.669649124145508,0.3317161202430725,2.5335726737976074,-0.23471395671367645,0.0,0.0,0.0,0.0,0.0,0.0,0.0,-0.14956592153857998,0.34911277065140645,0.08736846544884116,0.37497243789106766,-0.1965712847884161,0.1282751916143869,-0.21909079214499663,0.17282146422904832,-0.4874691071677626,-0.1114498981819513,-1.946699028399706,0.13362082159668,2.595549647702111,0.94525066247748,0.1728802376190821,-0.48752024683155326,-0.11147110072896137,-1.9463801863486305,0.1336059019074957,2.595550359778934,0.9452445589611904,0.0005356415073620233,-0.0009828781399618606,0.00035787956453786076,3.0115621972668476e-06,0.00017253602122867587,-0.00023515473573943702,0.0011226502941387322,0.0,0.0,0.0,0.0,0.0,0.0,0.0,5.8773390033795e-05,-5.113966379066692e-05,-2.120254701006019e-05,0.00031884205107557406,-1.4919689184322849e-05,7.120768228396912e-07,-6.103516289601707e-06,-0.0005356415073620233,0.0009828781399618606,-0.00035787956453786076,-3.0115621972668476e-06,-0.00017253602122867587,0.00023515473573943702,-0.0011226502941387322,0.17287558317184448,11.949304580688477,-1.2671844959259033,-21.669649124145508,-0.3317161202430725,-2.5335726737976074,0.23471395671367645,0
16,0.0749979019165039,-0.17287558317184448,-11.949304580688477,1.2671844959259033,21.669649124145508,0.3317161202430725,2.5335726737976074,-0.23471395671367645,0.0,0.0,0.0,0.0,0.0,0.0,0.0,-0.14956592153857998,0.34911277065140645,0.08736846544884116,0.37497243789106766,-0.1965712847884161,0.1282751916143869,-0.21909079214499663,0.17282146422904832,-0.4874691071677626,-0.1114498981819513,-1.946699028399706,0.13362082159668,2.595549647702111,0.94525066247748,0.1728802376190821,-0.48752024683155326,-0.11147110072896137,-1.9463801863486305,0.1336059019074957,2.595550359778934,0.9452445589611904,0.0005356415073620233,-0.0009828781399618606,0.00035787956453786076,3.0115621972668476e-06,0.00017253602122867587,-0.00023515473573943702,0.0011226502941387322,0.0,0.0,0.0,0.0,0.0,0.0,0.0,5.8773390033795e-05,-5.113966379066692e-05,-2.120254701006019e-05,0.00031884205107557406,-1.4919689184322849e-05,7.120768228396912e-07,-6.103516289601707e-06,-0.0005356415073620233,0.0009828781399618606,-0.00035787956453786076,-3.0115621972668476e-06,-0.00017253602122867587,0.00023515473573943702,-0.0011226502941387322,0.17287558317184448,11.949304580688477,-1.2671844959259033,-21.669649124145508,-0.3317161202430725,-2.5335726737976074,0.23471395671367645,0
17,0.08000683784484863,-0.17287558317184448,-11.949304580688477,1.2671844959259033,21.669649124145508,0.3317161202430725,2.5335726737976074,-0.23471395671367645,0.0,0.0,0.0,0.0,0.0,0.0,0.0,-0.14956592153857998,0.34911277065140645,0.08736846544884116,0.37497243789106766,-0.1965712847884161,0.1282751916143869,-0.21909079214499663,0.17282146422904832,-0.4874691071677626,-0.1114498981819513,-1.946699028399706,0.13362082159668,2.595549647702111,0.94525066247748,0.1728802376190821,-0.48752024683155326,-0.11147110072896137,-1.9463801863486305,0.1336059019074957,2.595550359778934,0.9452445589611904,0.0005356415073620233,-0.0009828781399618606,0.00035787956453786076,3.0115621972668476e-06,0.00017253602122867587,-0.00023515473573943702,0.0011226502941387322,0.0,0.0,0.0,0.0,0.0,0.0,0.0,5.8773390033795e-05,-5.113966379066692e-05,-2.120254701006019e-05,0.00031884205107557406,-1.4919689184322849e-05,7.120768228396912e-07,-6.103516289601707e-06,-0.0005356415073620233,0.0009828781399618606,-0.00035787956453786076,-3.0115621972668476e-06,-0.00017253602122867587,0.00023515473573943702,-0.0011226502941387322,0.17287558317184448,11.949304580688477,-1.2671844959259033,-21.669649124145508,-0.3317161202430725,-2.5335726737976074,0.23471395671367645,0
18,0.08499646186828613,-0.17287558317184448,-11.949304580688477,1.2671844959259033,21.669649124145508,0.3317161202430725,2.5335726737976074,-0.23471395671367645,0.0,0.0,0.0,0.0,0.0,0.0,0.0,-0.14956592153857998,0.34911277065140645,0.08736846544884116,0.37497243789106766,-0.1965712847884161,0.1282751916143869,-0.21909079214499663,0.17282146422904832,-0.4874691071677626,-0.1114498981819513,-1.946699028399706,0.13362082159668,2.595549647702111,0.94525066247748,0.1728802376190821,-0.48752024683155326,-0.11147110072896137,-1.9463801863486305,0.1336059019074957,2.595550359778934,0.9452445589611904,0.0005356415073620233,-0.0009828781399618606,0.00035787956453786076,3.0115621972668476e-06,0.00017253602122867587,-0.00023515473573943702,0.0011226502941387322,0.0,0.0,0.0,0.0,0.0,0.0,0.0,5.8773390033795e-05,-5.113966379066692e-05,-2.120254701006019e-05,0.00031884205107557406,-1.4919689184322849e-05,7.120768228396912e-07,-6.103516289601707e-06,-0.0005356415073620233,0.0009828781399618606,-0.00035787956453786076,-3.0115621972668476e-06,-0.00017253602122867587,0.00023515473573943702,-0.0011226502941387322,0.17287558317184448,11.949304580688477,-1.2671844959259033,-21.669649124145508,-0.3317161202430725,-2.5335726737976074,0.23471395671367645,0
19,0.0904238224029541,-0.12130087614059448,-11.973108291625977,1.3147919178009033,21.693452835083008,0.3381248116493225,2.5271639823913574,-0.20724813640117645,0.0,0.0,0.0,0.0,0.0,0.0,0.0,-0.14926219537416835,0.3640918496500857,0.08834303111520957,0.3655010571483194,-0.19716508671139432,0.1264212759699581,-0.218528814449677,0.1728178449513619,-0.4874674367319073,-0.11145598032904455,-1.9466997440387726,0.13362010953823714,2.595550359778934,0.9452476107196676,0.1728802376190821,-0.48752024683155326,-0.11147110072896137,-1.9463801863486305,0.1336059019074957,2.595550359778934,0.9452445589611904,-0.0007706322002932975,-0.0004098070408806422,-0.0007392120191596609,-0.0007564690299297312,6.280979907028295e-05,-9.92594084169618e-06,0.0001730615934748718,0.0,0.0,0.0,0.0,0.0,0.0,0.0,6.239266772020691e-05,-5.2810099645972386e-05,-1.5120399916815352e-05,0.00031955769014202495,-1.4207630741447375e-05,0.0,-3.051758477146116e-06,0.0007706322002932975,0.0004098070408806422,0.0007392120191596609,0.0007564690299297312,-6.280979907028295e-05,9.92594084169618e-06,-0.0001730615934748718,0.12130087614059448,11.973108291625977,-1.3147919178009033,-21.693452835083008,-0.3381248116493225,-2.5271639823913574,0.20724813640117645,0
20,0.09525418281555176,-0.12130087614059448,-11.973108291625977,1.3147919178009033,21.693452835083008,0.3381248116493225,2.5271639823913574,-0.20724813640117645,0.0,0.0,0.0,0.0,0.0,0.0,0.0,-0.14926219537416835,0.3640918496500857,0.08834303111520957,0.3655010571483194,-0.19716508671139432,0.1264212759699581,-0.218528814449677,0.1728178449513619,-0.4874674367319073,-0.11145598032904455,-1.9466997440387726,0.13362010953823714,2.595550359778934,0.9452476107196676,0.1728802376190821,-0.48752024683155326,-0.11147110072896137,-1.9463801863486305,0.1336059019074957,2.595550359778934,0.9452445589611904,-0.0007706322002932975,-0.0004098070408806422,-0.0007392120191596609,-0.0007564690299297312,6.280979907028295e-05,-9.92594084169618e-06,0.0001730615934748718,0.0,0.0,0.0,0.0,0.0,0.0,0.0,6.239266772020691e-05,-5.2810099645972386e-05,-1.5120399916815352e-05,0.00031955769014202495,-1.4207630741447375e-05,0.0,-3.051758477146116e-06,0.0007706322002932975,0.0004098070408806422,0.0007392120191596609,0.0007564690299297312,-6.280979907028295e-05,9.92594084169618e-06,-0.0001730615934748718,0.12130087614059448,11.973108291625977,-1.3147919178009033,-21.693452835083008,-0.3381248116493225,-2.5271639823913574,0.20724813640117645,0
21,0.09999823570251465,-0.12130087614059448,-11.973108291625977,1.2909882068634033,21.669649124145508,0.3436179757118225,2.5271639823913574,-0.19351522624492645,0.0,0.0,0.0,0.0,0.0,0.0,0.0,-0.15141173932090052,0.3520950871335041,0.08590709597622954,0.3696353623618007,-0.19682325060601039,0.12676962040417616,-0.2173848238486759,0.1728178449513619,-0.4874674367319073,-0.11145441639467818,-1.94669802911889,0.13361949902415976,2.595550359778934,0.9452460848407613,0.1728802376190821,-0.48752024683155326,-0.11147110072896137,-1.9463801863486305,0.1336059019074957,2.595550359778934,0.9452445589611904,-0.0006206207224112006,-0.0009610734022186467,0.00011507993169070187,-0.0001166350003742063,-0.0004940856152055443,-5.2097443370771886e-05,-0.0005797833993437185,0.0,0.0,0.0,0.0,0.0,0.0,0.0,6.239266772020691e-05,-5.2810099645972386e-05,-1.6684334283187385e-05,0.00031784277025947993,-1.3597116664071374e-05,0.0,-1.5258795709183204e-06,0.0006206207224112006,0.0009610734022186467,-0.00011507993169070187,0.0001166350003742063,0.0004940856152055443,5.2097443370771886e-05,0.0005797833993437185,0.12130087614059448,11.973108291625977,-1.2909882068634033,-21.669649124145508,-0.3436179757118225,-2.5271639823913574,0.19351522624492645,0
22,0.10499715805053711,-0.12130087614059448,-11.973108291625977,1.2909882068634033,21.669649124145508,0.3436179757118225,2.5271639823913574,-0.19351522624492645,0.0,0.0,0.0,0.0,0.0,0.0,0.0,-0.15141173932090052,0.3520950871335041,0.08590709597622954,0.3696353623618007,-0.19682325060601039,0.12676962040417616,-0.2173848238486759,0.1728178449513619,-0.4874674367319073,-0.11145441639467818,-1.94669802911889,0.13361949902415976,2.595550359778934,0.9452460848407613,0.1728802376190821,-0.48752024683155326,-0.11147110072896137,-1.9463801863486305,0.1336059019074957,2.595550359778934,0.9452445589611904,-0.0006206207224112006,-0.0009610734022186467,0.00011507993169070187,-0.0001166350003742063,-0.0004940856152055443,-5.2097443370771886e-05,-0.0005797833993437185,0.0,0.0,0.0,0.0,0.0,0.0,0.0,6.239266772020691e-05,-5.2810099645972386e-05,-1.6684334283187385e-05,0.00031784277025947993,-1.3597116664071374e-05,0.0,-1.5258795709183204e-06,0.0006206207224112006,0.0009610734022186467,-0.00011507993169070187,0.0001166350003742063,0.0004940856152055443,5.2097443370771886e-05,0.0005797833993437185,0.12130087614059448,11.973108291625977,-1.2909882068634033,-21.669649124145508,-0.3436179757118225,-2.5271639823913574,0.19351522624492645,0
23,0.11000943183898926,-0.14510458707809448,-12.024682998657227,1.3147919178009033,21.693452835083008,0.3381248116493225,2.5207552909851074,-0.20724813640117645,0.0,0.0,0.0,0.0,0.0,0.0,0.0,-0.14853713755956222,0.3390125908439416,0.08938221739942913,0.3743049827170783,-0.19696361151877584,0.1264380485851212,-0.21738364318348893,0.17281951538721718,-0.4874638174542209,-0.1114553748867665,-1.9466999822336781,0.13361963564451737,2.595551071855757,0.9452476107196676,0.1728802376190821,-0.48752024683155326,-0.11147110072896137,-1.9463801863486305,0.1336059019074957,2.595550359778934,0.9452445589611904,0.0004218084817918943,-6.144651009127181e-05,-0.0005156852049211636,-0.0007148765939854844,-0.00012805842689142186,0.00018997543671232784,-0.00025022075860765597,0.0,0.0,0.0,0.0,0.0,0.0,0.0,6.07222318649292e-05,-5.6429377332356534e-05,-1.5725842194863615e-05,0.00031979588504760237,-1.373373702168168e-05,-7.120768228396912e-07,-3.051758477146116e-06,-0.0004218084817918943,6.144651009127181e-05,0.0005156852049211636,0.0007148765939854844,0.00012805842689142186,-0.00018997543671232784,0.00025022075860765597,0.14510458707809448,12.024682998657227,-1.3147919178009033,-21.693452835083008,-0.3381248116493225,-2.5207552909851074,0.20724813640117645,0
24,0.1150052547454834,-0.14510458707809448,-12.024682998657227,1.3147919178009033,21.693452835083008,0.3381248116493225,2.5207552909851074,-0.20724813640117645,0.0,0.0,0.0,0.0,0.0,0.0,0.0,-0.14853713755956222,0.3390125908439416,0.08938221739942913,0.3743049827170783,-0.19696361151877584,0.1264380485851212,-0.21738364318348893,0.17281951538721718,-0.4874638174542209,-0.1114553748867665,-1.9466999822336781,0.13361963564451737,2.595551071855757,0.9452476107196676,0.1728802376190821,-0.48752024683155326,-0.11147110072896137,-1.9463801863486305,0.1336059019074957,2.595550359778934,0.9452445589611904,0.0004218084817918943,-6.144651009127181e-05,-0.0005156852049211636,-0.0007148765939854844,-0.00012805842689142186,0.00018997543671232784,-0.00025022075860765597,0.0,0.0,0.0,0.0,0.0,0.0,0.0,6.07222318649292e-05,-5.6429377332356534e-05,-1.5725842194863615e-05,0.00031979588504760237,-1.373373702168168e-05,-7.120768228396912e-07,-3.051758477146116e-06,-0.0004218084817918943,6.144651009127181e-05,0.0005156852049211636,0.0007148765939854844,0.00012805842689142186,-0.00018997543671232784,0.00025022075860765597,0.14510458707809448,12.024682998657227,-1.3147919178009033,-21.693452835083008,-0.3381248116493225,-2.5207552909851074,0.20724813640117645,0
25,0.12002706527709961,-0.14510458707809448,-12.024682998657227,1.3147919178009033,21.669649124145508,0.3381248116493225,2.5335726737976074,-0.16604940593242645,0.0,0.0,0.0,0.0,0.0,0.0,0.0,-0.14465882981795386,0.3421510850439266,0.09260412155068971,0.3699778986799429,-0.19769912339701734,0.12554701604166257,-0.21785677944357232,0.17281951538721718,-0.4874638174542209,-0.11145584951232633,-1.946701093676557,0.13362007004441884,2.595549647702111,0.9452430330829488,0.1728802376190821,-0.48752024683155326,-0.11147110072896137,-1.9463801863486305,0.1336059019074957,2.595550359778934,0.9452445589611904,0.00041979097494252804,-0.00014819968537337913,-0.0004745121876850841,0.00024148925354658973,-0.00017869503505235464,-0.0002143727711668524,-0.0019687875726920024,0.0,0.0,0.0,0.0,0.0,0.0,0.0,6.07222318649292e-05,-5.6429377332356534e-05,-1.5251216635037146e-05,0.00032090732792644516,-1.4168136923148333e-05,7.120768228396912e-07,1.525878241648293e-06,-0.00041979097494252804,0.00014819968537337913,0.0004745121876850841,-0.00024148925354658973,0.00017869503505235464,0.0002143727711668524,0.0019687875726920024,0.14510458707809448,12.024682998657227,-1.3147919178009033,-21.669649124145508,-0.3381248116493225,-2.5335726737976074,0.16604940593242645,0
26,0.1250007152557373,-0.14510458707809448,-12.024682998657227,1.3147919178009033,21.669649124145508,0.3381248116493225,2.5335726737976074,-0.16604940593242645,0.0,0.0,0.0,0.0,0.0,0.0,0.0,-0.14465882981795386,0.3421510850439266,0.09260412155068971,0.3699778986799429,-0.19769912339701734,0.12554701604166257,-0.21785677944357232,0.17281951538721718,-0.4874638174542209,-0.11145584951232633,-1.946701093676557,0.13362007004441884,2.595549647702111,0.9452430330829488,0.1728802376190821,-0.48752024683155326,-0.11147110072896137,-1.9463801863486305,0.1336059019074957,2.595550359778934,0.9452445589611904,0.00041979097494252804,-0.00014819968537337913,-0.0004745121876850841,0.00024148925354658973,-0.00017869503505235464,-0.0002143727711668524,-0.0019687875726920024,0.0,0.0,0.0,0.0,0.0,0.0,0.0,6.07222318649292e-05,-5.6429377332356534e-05,-1.5251216635037146e-05,0.00032090732792644516,-1.4168136923148333e-05,7.120768228396912e-07,1.525878241648293e-06,-0.00041979097494252804,0.00014819968537337913,0.0004745121876850841,-0.00024148925354658973,0.00017869503505235464,0.0002143727711668524,0.0019687875726920024,0.14510458707809448,12.024682998657227,-1.3147919178009033,-21.669649124145508,-0.3381248116493225,-2.5335726737976074,0.16604940593242645,0
27,0.13016676902770996,-0.14510458707809448,-12.000879287719727,1.3425629138946533,21.693452835083008,0.3381248116493225,2.5207552909851074,-0.20083944499492645,0.0,0.0,0.0,0.0,0.0,0.0,0.0,-0.14635016070184556,0.3376212102021797,0.09024387526414702,0.36851154306372946,-0.19749375285485074,0.12551843743456853,-0.2178887057010855,0.17281951538721718,-0.48746548789007615,-0.1114580093033162,-1.9466997438323985,0.1336201095380143,2.595551071855757,0.9452468986428446,0.1728802376190821,-0.48752024683155326,-0.11147110072896137,-1.9463801863486305,0.1336059019074957,2.595550359778934,0.9452445589611904,-0.00015165084349788786,-0.0006703893394980764,-0.001133692716475085,-0.0010108729380677508,-0.00013119628594863858,0.00039726819180253706,3.640698803072515e-05,0.0,0.0,0.0,0.0,0.0,0.0,0.0,6.07222318649292e-05,-5.475894147710658e-05,-1.3091425645164745e-05,0.000319557483767996,-1.4207630518597858e-05,-7.120768228396912e-07,-2.3396816541954024e-06,0.00015165084349788786,0.0006703893394980764,0.001133692716475085,0.0010108729380677508,0.00013119628594863858,-0.00039726819180253706,-3.640698803072515e-05,0.14510458707809448,12.000879287719727,-1.3425629138946533,-21.693452835083008,-0.3381248116493225,-2.5207552909851074,0.20083944499492645,0
28,0.13541603088378906,-0.14510458707809448,-12.000879287719727,1.3425629138946533,21.693452835083008,0.3381248116493225,2.5207552909851074,-0.20083944499492645,0.0,0.0,0.0,0.0,0.0,0.0,0.0,-0.14635016070184556,0.3376212102021797,0.09024387526414702,0.36851154306372946,-0.19749375285485074,0.12551843743456853,-0.2178887057010855,0.17281951538721718,-0.48746548789007615,-0.1114580093033162,-1.9466997438323985,0.1336201095380143,2.595551071855757,0.9452468986428446,0.1728802376190821,-0.48752024683155326,-0.11147110072896137,-1.9463801863486305,0.1336059019074957,2.595550359778934,0.9452445589611904,-0.00015165084349788786,-0.0006703893394980764,-0.001133692716475085,-0.0010108729380677508,-0.00013119628594863858,0.00039726819180253706,3.640698803072515e-05,0.0,0.0,0.0,0.0,0.0,0.0,0.0,6.07222318649292e-05,-5.475894147710658e-05,-1.3091425645164745e-05,0.000319557483767996,-1.4207630518597858e-05,-7.120768228396912e-07,-2.3396816541954024e-06,0.00015165084349788786,0.0006703893394980764,0.001133692716475085,0.0010108729380677508,0.00013119628594863858,-0.00039726819180253706,-3.640698803072515e-05,0.14510458707809448,12.000879287719727,-1.3425629138946533,-21.693452835083008,-0.3381248116493225,-2.5207552909851074,0.20083944499492645,0
29,0.13999652862548828,-0.17287558317184448,-12.024682998657227,1.2909882068634033,21.693452835083008,0.3381248116493225,2.5143465995788574,-0.22830526530742645,0.0,0.0,0.0,0.0,0.0,0.0,0.0,-0.14623463384517177,0.32126764910975986,0.09533124062426952,0.37574219383188184,-0.19678446983000014,0.12714550787072015,-0.21727935529370587,0.17282146422904832,-0.4874638174542209,-0.11145441639513054,-1.9466999030154397,0.13361975411794802,2.5955517839325797,0.9452499504006571,0.1728802376190821,-0.48752024683155326,-0.11147110072896137,-1.9463801863486305,0.1336059019074957,2.595550359778934,0.9452445589611904,0.0008730189667312729,-4.6213964791447064e-05,6.0460414500219786e-05,-0.00048396177836577953,-0.00012710063292319787,0.0005339061982335476,0.0008770054452762481,0.0,0.0,0.0,0.0,0.0,0.0,0.0,5.8773390033795e-05,-5.6429377332356534e-05,-1.6684333830827014e-05,0.00031971666680918887,-1.3852210452330871e-05,-1.4241536456793824e-06,-5.3914394666509935e-06,-0.0008730189667312729,4.6213964791447064e-05,-6.0460414500219786e-05,0.00048396177836577953,0.00012710063292319787,-0.0005339061982335476,-0.0008770054452762481,0.17287558317184448,12.024682998657227,-1.2909882068634033,-21.693452835083008,-0.3381248116493225,-2.5143465995788574,0.22830526530742645,0
30,0.14499640464782715,-0.17287558317184448,-12.024682998657227,1.2909882068634033,21.693452835083008,0.3381248116493225,2.5143465995788574,-0.22830526530742645,0.0,0.0,0.0,0.0,0.0,0.0,0.0,-0.14623463384517177,0.32126764910975986,0.09533124062426952,0.37574219383188184,-0.19678446983000014,0.12714550787072015,-0.21727935529370587,0.17282146422904832,-0.4874638174542209,-0.11145441639513054,-1.9466999030154397,0.13361975411794802,2.5955517839325797,0.9452499504006571,0.1728802376190821,-0.48752024683155326,-0.11147110072896137,-1.9463801863486305,0.1336059019074957,2.595550359778934,0.9452445589611904,0.0008730189667312729,-4.6213964791447064e-05,6.0460414500219786e-05,-0.00048396177836577953,-0.00012710063292319787,0.0005339061982335476,0.0008770054452762481,0.0,0.0,0.0,0.0,0.0,0.0,0.0,5.8773390033795e-05,-5.6429377332356534e-05,-1.6684333830827014e-05,0.00031971666680918887,-1.3852210452330871e-05,-1.4241536456793824e-06,-5.3914394666509935e-06,-0.0008730189667312729,4.6213964791447064e-05,-6.0460414500219786e-05,0.00048396177836577953,0.00012710063292319787,-0.0005339061982335476,-0.0008770054452762481,0.17287558317184448,12.024682998657227,-1.2909882068634033,-21.693452835083008,-0.3381248116493225,-2.5143465995788574,0.22830526530742645,0
31,0.14999604225158691,-0.14510458707809448,-11.925500869750977,1.3425629138946533,21.641878128051758,0.3317161202430725,2.5207552909851074,-0.20724813640117645,0.0,0.0,0.0,0.0,0.0,0.0,0.0,-0.14016465411000417,0.35385457410058574,0.10145594377496957,0.3558112470450057,-0.1972426257677261,0.12389309438243601,-0.21686614517856273,0.17281951538721718,-0.48747077760361784,-0.11145589983986134,-1.9466960832213953,0.1336163986050102,2.5955510587738044,0.9452476107196676,0.1728802376190821,-0.48752024683155326,-0.11147110072896137,-1.9463801863486305,0.1336059019074957,2.595550359778934,0.9452445589611904,3.4377505592079026e-05,-0.0005546210607865558,-0.0010725235441983037,0.00024031313495252748,0.00015169817504508002,8.046449409320023e-05,0.00020479393245263075,0.0,0.0,0.0,0.0,0.0,0.0,0.0,6.07222318649292e-05,-4.946922793541697e-05,-1.5200889100022708e-05,0.00031589687276478706,-1.0496697514517095e-05,-6.989948704294591e-07,-3.051758477146116e-06,-3.4377505592079026e-05,0.0005546210607865558,0.0010725235441983037,-0.00024031313495252748,-0.00015169817504508002,-8.046449409320023e-05,-0.00020479393245263075,0.14510458707809448,11.925500869750977,-1.3425629138946533,-21.641878128051758,-0.3317161202430725,-2.5207552909851074,0.20724813640117645,0
32,0.15541362762451172,-0.14510458707809448,-11.925500869750977,1.3425629138946533,21.641878128051758,0.3317161202430725,2.5207552909851074,-0.20724813640117645,0.0,0.0,0.0,0.0,0.0,0.0,0.0,-0.14016465411000417,0.35385457410058574,0.10145594377496957,0.3558112470450057,-0.1972426257677261,0.12389309438243601,-0.21686614517856273,0.17281951538721718,-0.48747077760361784,-0.11145589983986134,-1.9466960832213953,0.1336163986050102,2.5955510587738044,0.9452476107196676,0.1728802376190821,-0.48752024683155326,-0.11147110072896137,-1.9463801863486305,0.1336059019074957,2.595550359778934,0.9452445589611904,3.4377505592079026e-05,-0.0005546210607865558,-0.0010725235441983037,0.00024031313495252748,0.00015169817504508002,8.046449409320023e-05,0.00020479393245263075,0.0,0.0,0.0,0.0,0.0,0.0,0.0,6.07222318649292e-05,-4.946922793541697e-05,-1.5200889100022708e-05,0.00031589687276478706,-1.0496697514517095e-05,-6.989948704294591e-07,-3.051758477146116e-06,-3.4377505592079026e-05,0.0005546210607865558,0.0010725235441983037,-0.00024031313495252748,-0.00015169817504508002,-8.046449409320023e-05,-0.00020479393245263075,0.14510458707809448,11.925500869750977,-1.3425629138946533,-21.641878128051758,-0.3317161202430725,-2.5207552909851074,0.20724813640117645,0
33,0.15999841690063477,-0.14510458707809448,-11.949304580688477,1.2671844959259033,21.693452835083008,0.3500266671180725,2.5271639823913574,-0.22830526530742645,0.0,0.0,0.0,0.0,0.0,0.0,0.0,-0.14566872612716233,0.34014777681130987,0.09657705509896793,0.364591775967253,-0.19689974008374322,0.12558556814570132,-0.2154825950399833,0.17281951538721718,-0.4874691071677626,-0.11145274595808448,-1.9466999292919727,0.13361866668346795,2.595550359778926,0.9452499504006571,0.1728802376190821,-0.48752024683155326,-0.11147110072896137,-1.9463801863486305,0.1336059019074957,2.595550359778934,0.9452445589611904,-4.908110661994349e-05,0.00044274773110488026,0.0004484870579109535,-0.0013019944217676324,-0.00039496412172398797,-8.106520660083822e-06,0.0010763423166951296,0.0,0.0,0.0,0.0,0.0,0.0,0.0,6.07222318649292e-05,-5.113966379066692e-05,-1.8354770876888304e-05,0.0003197429433421384,-1.2764775972257114e-05,7.993605777301127e-15,-5.3914394666509935e-06,4.908110661994349e-05,-0.00044274773110488026,-0.0004484870579109535,0.0013019944217676324,0.00039496412172398797,8.106520660083822e-06,-0.0010763423166951296,0.14510458707809448,11.949304580688477,-1.2671844959259033,-21.693452835083008,-0.3500266671180725,-2.5271639823913574,0.22830526530742645,0
34,0.16499567031860352,-0.14510458707809448,-11.949304580688477,1.2671844959259033,21.693452835083008,0.3500266671180725,2.5271639823913574,-0.22830526530742645,0.0,0.0,0.0,0.0,0.0,0.0,0.0,-0.14566872612716233,0.34014777681130987,0.09657705509896793,0.364591775967253,-0.19689974008374322,0.12558556814570132,-0.2154825950399833,0.17281951538721718,-0.4874691071677626,-0.11145274595808448,-1.9466999292919727,0.13361866668346795,2.595550359778926,0.9452499504006571,0.1728802376190821,-0.48752024683155326,-0.11147110072896137,-1.9463801863486305,0.1336059019074957,2.595550359778934,0.9452445589611904,-4.908110661994349e-05,0.00044274773110488026,0.0004484870579109535,-0.0013019944217676324,-0.00039496412172398797,-8.106520660083822e-06,0.0010763423166951296,0.0,0.0,0.0,0.0,0.0,0.0,0.0,6.07222318649292e-05,-5.113966379066692e-05,-1.8354770876888304e-05,0.0003197429433421384,-1.2764775972257114e-05,7.993605777301127e-15,-5.3914394666509935e-06,4.908110661994349e-05,-0.00044274773110488026,-0.0004484870579109535,0.0013019944217676324,0.00039496412172398797,8.106520660083822e-06,-0.0010763423166951296,0.14510458707809448,11.949304580688477,-1.2671844959259033,-21.693452835083008,-0.3500266671180725,-2.5271639823913574,0.22830526530742645,0
35,0.16999483108520508,-0.12130087614059448,-11.901697158813477,1.2909882068634033,21.669649124145508,0.3381248116493225,2.5207552909851074,-0.21457235515117645,0.0,0.0,0.0,0.0,0.0,0.0,0.0,-0.14929264754197322,0.3383311909086644,0.08858485587602315,0.37102030756935755,-0.196221773179433,0.12671818100343976,-0.21548156615578612,0.1728178449513619,-0.4874724480394731,-0.11145441639527938,-1.9466989474729812,0.13362010953755743,2.595551071855757,0.9452495106508334,0.1728802376190821,-0.48752024683155326,-0.11147110072896137,-1.9463801863486305,0.1336059019074957,2.595550359778934,0.9452445589611904,-0.0007218609265025494,-0.0009168097443361777,-0.0008215226922960856,-0.00021525190837494486,-0.00022392149160366053,0.0002191926748195627,0.0007163926156123043,0.0,0.0,0.0,0.0,0.0,0.0,0.0,6.239266772020691e-05,-4.779879208016702e-05,-1.668433368198774e-05,0.00031876112435069714,-1.4207630061741083e-05,-7.120768228396912e-07,-4.951689642984647e-06,0.0007218609265025494,0.0009168097443361777,0.0008215226922960856,0.00021525190837494486,0.00022392149160366053,-0.0002191926748195627,-0.0007163926156123043,0.12130087614059448,11.901697158813477,-1.2909882068634033,-21.669649124145508,-0.3381248116493225,-2.5207552909851074,0.21457235515117645,0
36,0.1750197410583496,-0.12130087614059448,-11.901697158813477,1.2909882068634033,21.669649124145508,0.3381248116493225,2.5207552909851074,-0.21457235515117645,0.0,0.0,0.0,0.0,0.0,0.0,0.0,-0.14929264754197322,0.3383311909086644,0.08858485587602315,0.37102030756935755,-0.196221773179433,0.12671818100343976,-0.21548156615578612,0.1728178449513619,-0.4874724480394731,-0.11145441639527938,-1.9466989474729812,0.13362010953755743,2.595551071855757,0.9452495106508334,0.1728802376190821,-0.48752024683155326,-0.11147110072896137,-1.9463801863486305,0.1336059019074957,2.595550359778934,0.9452445589611904,-0.0007218609265025494,-0.0009168097443361777,-0.0008215226922960856,-0.00021525190837494486,-0.00022392149160366053,0.0002191926748195627,0.0007163926156123043,0.0,0.0,0.0,0.0,0.0,0.0,0.0,6.239266772020691e-05,-4.779879208016702e-05,-1.668433368198774e-05,0.00031876112435069714,-1.4207630061741083e-05,-7.120768228396912e-07,-4.951689642984647e-06,0.0007218609265025494,0.0009168097443361777,0.0008215226922960856,0.00021525190837494486,0.00022392149160366053,-0.0002191926748195627,-0.0007163926156123043,0.12130087614059448,11.901697158813477,-1.2909882068634033,-21.669649124145508,-0.3381248116493225,-2.5207552909851074,0.21457235515117645,0
37,0.180419921875,-0.12130087614059448,-11.901697158813477,1.2909882068634033,21.669649124145508,0.3381248116493225,2.5207552909851074,-0.21457235515117645,0.0,0.0,0.0,0.0,0.0,0.0,0.0,-0.14929264754197322,0.3383311909086644,0.08858485587602315,0.37102030756935755,-0.196221773179433,0.12671818100343976,-0.21548156615578612,0.1728178449513619,-0.4874724480394731,-0.11145441639527938,-1.9466989474729812,0.13362010953755743,2.595551071855757,0.9452495106508334,0.1728802376190821,-0.48752024683155326,-0.11147110072896137,-1.9463801863486305,0.1336059019074957,2.595550359778934,0.9452445589611904,-0.0007218609265025494,-0.0009168097443361777,-0.0008215226922960856,-0.00021525190837494486,-0.00022392149160366053,0.0002191926748195627,0.0007163926156123043,0.0,0.0,0.0,0.0,0.0,0.0,0.0,6.239266772020691e-05,-4.779879208016702e-05,-1.668433368198774e-05,0.00031876112435069714,-1.4207630061741083e-05,-7.120768228396912e-07,-4.951689642984647e-06,0.0007218609265025494,0.0009168097443361777,0.0008215226922960856,0.00021525190837494486,0.00022392149160366053,-0.0002191926748195627,-0.0007163926156123043,0.12130087614059448,11.901697158813477,-1.2909882068634033,-21.669649124145508,-0.3381248116493225,-2.5207552909851074,0.21457235515117645,0
38,0.1849989891052246,-0.12130087614059448,-11.901697158813477,1.2909882068634033,21.669649124145508,0.3381248116493225,2.5207552909851074,-0.21457235515117645,0.0,0.0,0.0,0.0,0.0,0.0,0.0,-0.14929264754197322,0.3383311909086644,0.08858485587602315,0.37102030756935755,-0.196221773179433,0.12671818100343976,-0.21548156615578612,0.1728178449513619,-0.4874724480394731,-0.11145441639527938,-1.9466989474729812,0.13362010953755743,2.595551071855757,0.9452495106508334,0.1728802376190821,-0.48752024683155326,-0.11147110072896137,-1.9463801863486305,0.1336059019074957,2.595550359778934,0.9452445589611904,-0.0007218609265025494,-0.0009168097443361777,-0.0008215226922960856,-0.00021525190837494486,-0.00022392149160366053,0.0002191926748195627,0.0007163926156123043,0.0,0.0,0.0,0.0,0.0,0.0,0.0,6.239266772020691e-05,-4.779879208016702e-05,-1.668433368198774e-05,0.00031876112435069714,-1.4207630061741083e-05,-7.120768228396912e-07,-4.951689642984647e-06,0.0007218609265025494,0.0009168097443361777,0.0008215226922960856,0.00021525190837494486,0.00022392149160366053,-0.0002191926748195627,-0.0007163926156123043,0.12130087614059448,11.901697158813477,-1.2909882068634033,-21.669649124145508,-0.3381248116493225,-2.5207552909851074,0.21457235515117645,0
39,0.1900033950805664,-0.12130087614059448,-11.925500869750977,1.2433807849884033,21.669649124145508,0.3500266671180725,2.5399813652038574,-0.19351522624492645,0.0,0.0,0.0,0.0,0.0,0.0,0.0,-0.14686596214258124,0.3461294620130425,0.08738235519571504,0.3703920457465887,-0.19667343287445102,0.1261606179973409,-0.21559649600658368,0.1728178449513619,-0.48747077760361784,-0.11145107552356888,-1.9467001399331514,0.13361874761870857,2.5955489356252883,0.9452460848468925,0.1728802376190821,-0.48752024683155326,-0.11147110072896137,-1.9463801863486305,0.1336059019074957,2.595550359778934,0.9452445589611904,-0.0007728393598716262,-0.00113643928286543,0.0003048306227343377,-0.000218836348047702,-0.0003814593242121546,-0.0006644899959916809,-0.0003399938649266038,0.0,0.0,0.0,0.0,0.0,0.0,0.0,6.239266772020691e-05,-4.946922793541697e-05,-2.0025205392487644e-05,0.0003199535845208601,-1.2845711212877697e-05,1.4241536456793824e-06,-1.5258857021249739e-06,0.0007728393598716262,0.00113643928286543,-0.0003048306227343377,0.000218836348047702,0.0003814593242121546,0.0006644899959916809,0.0003399938649266038,0.12130087614059448,11.925500869750977,-1.2433807849884033,-21.669649124145508,-0.3500266671180725,-2.5399813652038574,0.19351522624492645,0
40,0.19495630264282227,-0.12130087614059448,-11.925500869750977,1.2433807849884033,21.669649124145508,0.3500266671180725,2.5399813652038574,-0.19351522624492645,0.0,0.0,0.0,0.0,0.0,0.0,0.0,-0.14686596214258124,0.3461294620130425,0.08738235519571504,0.3703920457465887,-0.19667343287445102,0.1261606179973409,-0.21559649600658368,0.1728178449513619,-0.48747077760361784,-0.11145107552356888,-1.9467001399331514,0.13361874761870857,2.5955489356252883,0.9452460848468925,0.1728802376190821,-0.48752024683155326,-0.11147110072896137,-1.9463801863486305,0.1336059019074957,2.595550359778934,0.9452445589611904,-0.0007728393598716262,-0.00113643928286543,0.0003048306227343377,-0.000218836348047702,-0.0003814593242121546,-0.0006644899959916809,-0.0003399938649266038,0.0,0.0,0.0,0.0,0.0,0.0,0.0,6.239266772020691e-05,-4.946922793541697e-05,-2.0025205392487644e-05,0.0003199535845208601,-1.2845711212877697e-05,1.4241536456793824e-06,-1.5258857021249739e-06,0.0007728393598716262,0.00113643928286543,-0.0003048306227343377,0.000218836348047702,0.0003814593242121546,0.0006644899959916809,0.0003399938649266038,0.12130087614059448,11.925500869750977,-1.2433807849884033,-21.669649124145508,-0.3500266671180725,-2.5399813652038574,0.19351522624492645,0
41,0.19995832443237305,-0.19667929410934448,-12.000879287719727,1.2909882068634033,21.618074417114258,0.3317161202430725,2.5143465995788574,-0.19351522624492645,0.0,0.0,0.0,0.0,0.0,0.0,0.0,-0.14731128306927868,0.36173776564620014,0.08448749923599738,0.3656803280750367,-0.19658245092045776,0.1257151587696534,-0.21622803913668823,0.17282313466490357,-0.48746548789007615,-0.1114544163952794,-1.9466952055626114,0.133620466194548,2.5955517839325797,0.9452460848407613,0.1728802376190821,-0.48752024683155326,-0.11147110072896137,-1.9463801863486305,0.1336059019074957,2.595550359778934,0.9452445589611904,0.0009005605426512562,0.0009839302025695029,-0.0005312601147305883,0.0009180593766813697,-1.1926887583987664e-05,0.0004837696880829121,-0.0003968816548527077,0.0,0.0,0.0,0.0,0.0,0.0,0.0,5.710295417854505e-05,-5.475894147710658e-05,-1.6684333681973862e-05,0.00031501921398091604,-1.4564287052321045e-05,-1.4241536456793824e-06,-1.5258795709183204e-06,-0.0009005605426512562,-0.0009839302025695029,0.0005312601147305883,-0.0009180593766813697,1.1926887583987664e-05,-0.0004837696880829121,0.0003968816548527077,0.19667929410934448,12.000879287719727,-1.2909882068634033,-21.618074417114258,-0.3317161202430725,-2.5143465995788574,0.19351522624492645,0
42,0.2049999237060547,-0.19667929410934448,-12.000879287719727,1.2909882068634033,21.618074417114258,0.3317161202430725,2.5143465995788574,-0.19351522624492645,0.0,0.0,0.0,0.0,0.0,0.0,0.0,-0.14731128306927868,0.36173776564620014,0.08448749923599738,0.3656803280750367,-0.19658245092045776,0.1257151587696534,-0.21622803913668823,0.17282313466490357,-0.48746548789007615,-0.1114544163952794,-1.9466952055626114,0.133620466194548,2.5955517839325797,0.9452460848407613,0.1728802376190821,-0.48752024683155326,-0.11147110072896137,-1.9463801863486305,0.1336059019074957,2.595550359778934,0.9452445589611904,0.0009005605426512562,0.0009839302025695029,-0.0005312601147305883,0.0009180593766813697,-1.1926887583987664e-05,0.0004837696880829121,-0.0003968816548527077,0.0,0.0,0.0,0.0,0.0,0.0,0.0,5.710295417854505e-05,-5.475894147710658e-05,-1.6684333681973862e-05,0.00031501921398091604,-1.4564287052321045e-05,-1.4241536456793824e-06,-1.5258795709183204e-06,-0.0009005605426512562,-0.0009839302025695029,0.0005312601147305883,-0.0009180593766813697,1.1926887583987664e-05,-0.0004837696880829121,0.0003968816548527077,0.19667929410934448,12.000879287719727,-1.2909882068634033,-21.618074417114258,-0.3317161202430725,-2.5143465995788574,0.19351522624492645,0
43,0.20999646186828613,-0.14510458707809448,-12.024682998657227,1.2909882068634033,21.641878128051758,0.3381248116493225,2.5271639823913574,-0.17978231608867645,0.0,0.0,0.0,0.0,0.0,0.0,0.0,-0.14423695318157487,0.35914714292604255,0.09239256830202582,0.3660654611406113,-0.19756839778887217,0.12575214353597264,-0.21637557774712776,0.17281951538721718,-0.4874638174542209,-0.11145433696481491,-1.946698229001333,0.13361975411192895,2.595550359778934,0.945244558961855,0.1728802376190821,-0.48752024683155326,-0.11147110072896137,-1.9463801863486305,0.1336059019074957,2.595550359778934,0.9452445589611904,0.0003015620860755455,0.0010012693995472839,-4.092558175100126e-06,0.0005001194144927401,-0.0001508575154712711,-0.0001418427560043173,-0.0010878794547569677,0.0,0.0,0.0,0.0,0.0,0.0,0.0,6.07222318649292e-05,-5.6429377332356534e-05,-1.6763764146457416e-05,0.0003180426527025215,-1.3852204433256743e-05,0.0,-6.645795025406187e-13,-0.0003015620860755455,-0.0010012693995472839,4.092558175100126e-06,-0.0005001194144927401,0.0001508575154712711,0.0001418427560043173,0.0010878794547569677,0.14510458707809448,12.024682998657227,-1.2909882068634033,-21.641878128051758,-0.3381248116493225,-2.5271639823913574,0.17978231608867645,0
44,0.21499395370483398,-0.14510458707809448,-12.024682998657227,1.2909882068634033,21.641878128051758,0.3381248116493225,2.5271639823913574,-0.17978231608867645,0.0,0.0,0.0,0.0,0.0,0.0,0.0,-0.14423695318157487,0.35914714292604255,0.09239256830202582,0.3660654611406113,-0.19756839778887217,0.12575214353597264,-0.21637557774712776,0.17281951538721718,-0.4874638174542209,-0.11145433696481491,-1.946698229001333,0.13361975411192895,2.595550359778934,0.945244558961855,0.1728802376190821,-0.48752024683155326,-0.11147110072896137,-1.9463801863486305,0.1336059019074957,2.595550359778934,0.9452445589611904,0.0003015620860755455,0.0010012693995472839,-4.092558175100126e-06,0.0005001194144927401,-0.0001508575154712711,-0.0001418427560043173,-0.0010878794547569677,0.0,0.0,0.0,0.0,0.0,0.0,0.0,6.07222318649292e-05,-5.6429377332356534e-05,-1.6763764146457416e-05,0.0003180426527025215,-1.3852204433256743e-05,0.0,-6.645795025406187e-13,-0.0003015620860755455,-0.0010012693995472839,4.092558175100126e-06,-0.0005001194144927401,0.0001508575154712711,0.0001418427560043173,0.0010878794547569677,0.14510458707809448,12.024682998657227,-1.2909882068634033,-21.641878128051758,-0.3381248116493225,-2.5271639823913574,0.17978231608867645,0
45,0.21999740600585938,-0.06972616910934448,-12.024682998657227,1.2909882068634033,21.693452835083008,0.3381248116493225,2.5143465995788574,-0.23471395671367645,0.0,0.0,0.0,0.0,0.0,0.0,0.0,-0.14012535128603293,0.35619744824510874,0.09442851563840056,0.36380129127088806,-0.19742822753657127,0.12543700370170646,-0.2156321236839958,0.17281422567367552,-0.4874638174542209,-0.11145441639512993,-1.9466996740485976,0.13361971022017394,2.5955517839325797,0.94525066247748,0.1728802376190821,-0.48752024683155326,-0.11147110072896137,-1.9463801863486305,0.1336059019074957,2.595550359778934,0.9452445589611904,-0.0005237627350214601,0.00035897508231780913,0.00014452513423929923,-0.0006597618702141515,-6.70437814147555e-05,0.0006076024084895675,0.0011401075203348124,0.0,0.0,0.0,0.0,0.0,0.0,0.0,6.601194540659105e-05,-5.6429377332356534e-05,-1.6684333831437637e-05,0.00031948769996703597,-1.3808312678248447e-05,-1.4241536456793824e-06,-6.103516289601707e-06,0.0005237627350214601,-0.00035897508231780913,-0.00014452513423929923,0.0006597618702141515,6.70437814147555e-05,-0.0006076024084895675,-0.0011401075203348124,0.06972616910934448,12.024682998657227,-1.2909882068634033,-21.693452835083008,-0.3381248116493225,-2.5143465995788574,0.23471395671367645,0
46,0.22499585151672363,-0.06972616910934448,-12.024682998657227,1.2909882068634033,21.693452835083008,0.3381248116493225,2.5143465995788574,-0.23471395671367645,0.0,0.0,0.0,0.0,0.0,0.0,0.0,-0.14012535128603293,0.35619744824510874,0.09442851563840056,0.36380129127088806,-0.19742822753657127,0.12543700370170646,-0.2156321236839958,0.17281422567367552,-0.4874638174542209,-0.11145441639512993,-1.9466996740485976,0.13361971022017394,2.5955517839325797,0.94525066247748,0.1728802376190821,-0.48752024683155326,-0.11147110072896137,-1.9463801863486305,0.1336059019074957,2.595550359778934,0.9452445589611904,-0.0005237627350214601,0.00035897508231780913,0.00014452513423929923,-0.0006597618702141515,-6.70437814147555e-05,0.0006076024084895675,0.0011401075203348124,0.0,0.0,0.0,0.0,0.0,0.0,0.0,6.601194540659105e-05,-5.6429377332356534e-05,-1.6684333831437637e-05,0.00031948769996703597,-1.3808312678248447e-05,-1.4241536456793824e-06,-6.103516289601707e-06,0.0005237627350214601,-0.00035897508231780913,-0.00014452513423929923,0.0006597618702141515,6.70437814147555e-05,-0.0006076024084895675,-0.0011401075203348124,0.06972616910934448,12.024682998657227,-1.2909882068634033,-21.693452835083008,-0.3381248116493225,-2.5143465995788574,0.23471395671367645,0
47,0.2299954891204834,-0.17287558317184448,-12.024682998657227,1.2671844959259033,21.693452835083008,0.3317161202430725,2.5207552909851074,-0.20724813640117645,0.0,0.0,0.0,0.0,0.0,0.0,0.0,-0.1440418664438823,0.3446603626730794,0.07893466709707583,0.3670125370258802,-0.1964305706872523,0.1259701114349535,-0.21601245287282186,0.17282146422904832,-0.4874638174542209,-0.11145274595942413,-1.9467018198480939,0.13362070313937627,2.5955510326099,0.9452476107196676,0.1728802376190821,-0.48752024683155326,-0.11147110072896137,-1.9463801863486305,0.1336059019074957,2.595550359778934,0.9452445589611904,0.0006855301258133581,-5.449293307419664e-05,0.0004960867541537817,-0.0004170444674423748,0.000207890118599631,0.00017784544135239833,0.00018654850716218898,0.0,0.0,0.0,0.0,0.0,0.0,0.0,5.8773390033795e-05,-5.6429377332356534e-05,-1.8354769537237692e-05,0.0003216334994633474,-1.4801231880579024e-05,-6.72830966053084e-07,-3.051758477146116e-06,-0.0006855301258133581,5.449293307419664e-05,-0.0004960867541537817,0.0004170444674423748,-0.000207890118599631,-0.00017784544135239833,-0.00018654850716218898,0.17287558317184448,12.024682998657227,-1.2671844959259033,-21.693452835083008,-0.3317161202430725,-2.5207552909851074,0.20724813640117645,0
48,0.23499560356140137,-0.17287558317184448,-12.024682998657227,1.2671844959259033,21.693452835083008,0.3317161202430725,2.5207552909851074,-0.20724813640117645,0.0,0.0,0.0,0.0,0.0,0.0,0.0,-0.1440418664438823,0.3446603626730794,0.07893466709707583,0.3670125370258802,-0.1964305706872523,0.1259701114349535,-0.21601245287282186,0.17282146422904832,-0.4874638174542209,-0.11145274595942413,-1.9467018198480939,0.13362070313937627,2.5955510326099,0.9452476107196676,0.1728802376190821,-0.48752024683155326,-0.11147110072896137,-1.9463801863486305,0.1336059019074957,2.595550359778934,0.9452445589611904,0.0006855301258133581,-5.449293307419664e-05,0.0004960867541537817,-0.0004170444674423748,0.000207890118599631,0.00017784544135239833,0.00018654850716218898,0.0,0.0,0.0,0.0,0.0,0.0,0.0,5.8773390033795e-05,-5.6429377332356534e-05,-1.8354769537237692e-05,0.0003216334994633474,-1.4801231880579024e-05,-6.72830966053084e-07,-3.051758477146116e-06,-0.0006855301258133581,5.449293307419664e-05,-0.0004960867541537817,0.0004170444674423748,-0.000207890118599631,-0.00017784544135239833,-0.00018654850716218898,0.17287558317184448,12.024682998657227,-1.2671844959259033,-21.693452835083008,-0.3317161202430725,-2.5207552909851074,0.20724813640117645,0
49,0.2400059700012207,-0.17287558317184448,-12.000879287719727,1.2909882068634033,21.669649124145508,0.3381248116493225,2.5271639823913574,-0.22830526530742645,0.0,0.0,0.0,0.0,0.0,0.0,0.0,-0.14318402705179703,0.3187376803446193,0.08709851994147975,0.3745316698321868,-0.19685424056893616,0.12650365951595338,-0.21573001739143363,0.17282146422904832,-0.48746548789007615,-0.1114544163952794,-1.9466980026759935,0.1336190431141858,2.5955503597787124,0.9452499504006571,0.1728802376190821,-0.48752024683155326,-0.11147110072896137,-1.9463801863486305,0.1336059019074957,2.595550359778934,0.9452445589611904,-0.00029972349350651306,0.004519127587771964,-0.00031046949630551194,-0.0008545044843968397,-9.933964011364642e-05,-8.574611243249413e-05,0.000986570688020645,0.0,0.0,0.0,0.0,0.0,0.0,0.0,5.8773390033795e-05,-5.475894147710658e-05,-1.6684333681973862e-05,0.00031781632736294085,-1.3141206690103768e-05,2.2160051571518125e-13,-5.3914394666509935e-06,0.00029972349350651306,-0.004519127587771964,0.00031046949630551194,0.0008545044843968397,9.933964011364642e-05,8.574611243249413e-05,-0.000986570688020645,0.17287558317184448,12.000879287719727,-1.2909882068634033,-21.669649124145508,-0.3381248116493225,-2.5271639823913574,0.22830526530742645,0
50,0.24500393867492676,-0.17287558317184448,-12.000879287719727,1.2909882068634033,21.669649124145508,0.3381248116493225,2.5271639823913574,-0.22830526530742645,0.0,0.0,0.0,0.0,0.0,0.0,0.0,-0.14318402705179703,0.3187376803446193,0.08709851994147975,0.3745316698321868,-0.19685424056893616,0.12650365951595338,-0.21573001739143363,0.17282146422904832,-0.48746548789007615,-0.1114544163952794,-1.9466980026759935,0.1336190431141858,2.5955503597787124,0.9452499504006571,0.1728802376190821,-0.48752024683155326,-0.11147110072896137,-1.9463801863486305,0.1336059019074957,2.595550359778934,0.9452445589611904,-0.00029972349350651306,0.004519127587771964,-0.00031046949630551194,-0.0008545044843968397,-9.933964011364642e-05,-8.574611243249413e-05,0.000986570688020645,0.0,0.0,0.0,0.0,0.0,0.0,0.0,5.8773390033795e-05,-5.475894147710658e-05,-1.6684333681973862e-05,0.00031781632736294085,-1.3141206690103768e-05,2.2160051571518125e-13,-5.3914394666509935e-06,0.00029972349350651306,-0.004519127587771964,0.00031046949630551194,0.0008545044843968397,9.933964011364642e-05,8.574611243249413e-05,-0.000986570688020645,0.17287558317184448,12.000879287719727,-1.2909882068634033,-21.669649124145508,-0.3381248116493225,-2.5271639823913574,0.22830526530742645,0
51,0.2500011920928955,-0.09352988004684448,-12.048486709594727,1.3147919178009033,21.669649124145508,0.3436179757118225,2.5335726737976074,-0.21457235515117645,0.0,0.0,0.0,0.0,0.0,0.0,0.0,-0.14091823321037106,0.2562891673031793,0.1019999474780543,0.4036208589168816,-0.19688424348962477,0.13089458472069912,-0.21561970901472982,0.17281589610953077,-0.48746214701836565,-0.11145608683113466,-1.9466990545256109,0.1336184329077471,2.595549647702111,0.9452484245217508,0.1728802376190821,-0.48752024683155326,-0.11147110072896137,-1.9463801863486305,0.1336059019074957,2.595550359778934,0.9452445589611904,-0.0010387307562094914,0.0007735037097769937,-0.00010715361400745225,-1.4818415079380907e-05,-0.00010866265401787284,-0.00011206876467470586,0.0001475414152053417,0.0,0.0,0.0,0.0,0.0,0.0,0.0,6.43415095513411e-05,-5.8099813187606486e-05,-1.5013897826710032e-05,0.000318868176980347,-1.2531000251420066e-05,7.120768228396912e-07,-3.865560560423198e-06,0.0010387307562094914,-0.0007735037097769937,0.00010715361400745225,1.4818415079380907e-05,0.00010866265401787284,0.00011206876467470586,-0.0001475414152053417,0.09352988004684448,12.048486709594727,-1.3147919178009033,-21.669649124145508,-0.3436179757118225,-2.5335726737976074,0.21457235515117645,0
52,0.25499916076660156,-0.09352988004684448,-12.048486709594727,1.3147919178009033,21.669649124145508,0.3436179757118225,2.5335726737976074,-0.21457235515117645,0.0,0.0,0.0,0.0,0.0,0.0,0.0,-0.14091823321037106,0.2562891673031793,0.1019999474780543,0.4036208589168816,-0.19688424348962477,0.13089458472069912,-0.21561970901472982,0.17281589610953077,-0.48746214701836565,-0.11145608683113466,-1.9466990545256109,0.1336184329077471,2.595549647702111,0.9452484245217508,0.1728802376190821,-0.48752024683155326,-0.11147110072896137,-1.9463801863486305,0.1336059019074957,2.595550359778934,0.9452445589611904,-0.0010387307562094914,0.0007735037097769937,-0.00010715361400745225,-1.4818415079380907e-05,-0.00010866265401787284,-0.00011206876467470586,0.0001475414152053417,0.0,0.0,0.0,0.0,0.0,0.0,0.0,6.43415095513411e-05,-5.8099813187606486e-05,-1.5013897826710032e-05,0.000318868176980347,-1.2531000251420066e-05,7.120768228396912e-07,-3.865560560423198e-06,0.0010387307562094914,-0.0007735037097769937,0.00010715361400745225,1.4818415079380907e-05,0.00010866265401787284,0.00011206876467470586,-0.0001475414152053417,0.09352988004684448,12.048486709594727,-1.3147919178009033,-21.669649124145508,-0.3436179757118225,-2.5335726737976074,0.21457235515117645,0
53,0.26000428199768066,-0.12130087614059448,-12.000879287719727,1.3147919178009033,21.669649124145508,0.3381248116493225,2.5271639823913574,-0.17978231608867645,0.0,0.0,0.0,0.0,0.0,0.0,0.0,-0.1353999544561596,0.35811125621358164,0.09836749178259961,0.35090607343042374,-0.1967903233298057,0.12327808433039188,-0.21711299678648405,0.1728178449513619,-0.48746548789007615,-0.11145608683113466,-1.9467002455786409,0.13362010953623085,2.595550359778934,0.945244558961855,0.1728802376190821,-0.48752024683155326,-0.11147110072896137,-1.9463801863486305,0.1336059019074957,2.595550359778934,0.9452445589611904,0.00033710186065298093,0.00022055252265838662,-0.0004258080416258531,-0.00041261465655383306,4.5189532682675256e-05,9.066335122150341e-05,-0.0012009193750067352,0.0,0.0,0.0,0.0,0.0,0.0,0.0,6.239266772020691e-05,-5.475894147710658e-05,-1.5013897826710032e-05,0.00032005923001032777,-1.4207628735163347e-05,0.0,-6.645795025406187e-13,-0.00033710186065298093,-0.00022055252265838662,0.0004258080416258531,0.00041261465655383306,-4.5189532682675256e-05,-9.066335122150341e-05,0.0012009193750067352,0.12130087614059448,12.000879287719727,-1.3147919178009033,-21.669649124145508,-0.3381248116493225,-2.5271639823913574,0.17978231608867645,0
54,0.26500892639160156,-0.12130087614059448,-12.000879287719727,1.3147919178009033,21.669649124145508,0.3381248116493225,2.5271639823913574,-0.17978231608867645,0.0,0.0,0.0,0.0,0.0,0.0,0.0,-0.1353999544561596,0.35811125621358164,0.09836749178259961,0.35090607343042374,-0.1967903233298057,0.12327808433039188,-0.21711299678648405,0.1728178449513619,-0.48746548789007615,-0.11145608683113466,-1.9467002455786409,0.13362010953623085,2.595550359778934,0.945244558961855,0.1728802376190821,-0.48752024683155326,-0.11147110072896137,-1.9463801863486305,0.1336059019074957,2.595550359778934,0.9452445589611904,0.00033710186065298093,0.00022055252265838662,-0.0004258080416258531,-0.00041261465655383306,4.5189532682675256e-05,9.066335122150341e-05,-0.0012009193750067352,0.0,0.0,0.0,0.0,0.0,0.0,0.0,6.239266772020691e-05,-5.475894147710658e-05,-1.5013897826710032e-05,0.00032005923001032777,-1.4207628735163347e-05,0.0,-6.645795025406187e-13,-0.00033710186065298093,-0.00022055252265838662,0.0004258080416258531,0.00041261465655383306,-4.5189532682675256e-05,-9.066335122150341e-05,0.0012009193750067352,0.12130087614059448,12.000879287719727,-1.3147919178009033,-21.669649124145508,-0.3381248116493225,-2.5271639823913574,0.17978231608867645,0
55,0.26999855041503906,-0.19667929410934448,-11.949304580688477,1.3147919178009033,21.669649124145508,0.3381248116493225,2.5207552909851074,-0.22830526530742645,0.0,0.0,0.0,0.0,0.0,0.0,0.0,-0.1372643217812326,0.36182441807688615,0.08958929461947247,0.3516528690478515,-0.19622824085858376,0.12374037124255469,-0.21668295388889916,0.17282313466490357,-0.4874691071677626,-0.11145608683113466,-1.9466982420653458,0.13362010937572222,2.595551071855757,0.9452499504006571,0.1728802376190821,-0.48752024683155326,-0.11147110072896137,-1.9463801863486305,0.1336059019074957,2.595550359778934,0.9452445589611904,0.001089313715082179,-0.0004038132869576363,-0.0007066594072867427,-0.00042378129124454733,2.216963845852194e-06,9.66460557084086e-05,0.0012055847376903678,0.0,0.0,0.0,0.0,0.0,0.0,0.0,5.710295417854505e-05,-5.113966379066692e-05,-1.5013897826710032e-05,0.000318055716715282,-1.4207468226529185e-05,-7.120768228396912e-07,-5.3914394666509935e-06,-0.001089313715082179,0.0004038132869576363,0.0007066594072867427,0.00042378129124454733,-2.216963845852194e-06,-9.66460557084086e-05,-0.0012055847376903678,0.19667929410934448,11.949304580688477,-1.3147919178009033,-21.669649124145508,-0.3381248116493225,-2.5207552909851074,0.22830526530742645,0
56,0.2772223949432373,-0.12130087614059448,-11.973108291625977,1.2156097888946533,21.641878128051758,0.3262229561805725,2.5143465995788574,-0.20724813640117645,0.0,0.0,0.0,0.0,0.0,0.0,0.0,-0.14181639733961268,0.36411204806647296,0.08894342342698823,0.3526455399905482,-0.19619105958122413,0.12348075436193888,-0.21546586759572856,0.1728178449513619,-0.4874674367319073,-0.11144841473736958,-1.946696393735186,0.13361823312984775,2.5955517839325797,0.9452476107196676,0.1728802376190821,-0.48752024683155326,-0.11147110072896137,-1.9463801863486305,0.1336059019074957,2.595550359778934,0.9452445589611904,-0.001217962381349051,0.0005602236918395754,0.0011604004592976988,9.858823557636194e-05,0.0004708226576133454,0.00028328385198983047,0.0001063603995010864,0.0,0.0,0.0,0.0,0.0,0.0,0.0,6.239266772020691e-05,-5.2810099645972386e-05,-2.26859915917893e-05,0.0003162073865554671,-1.2331222352057747e-05,-1.4241536456793824e-06,-3.051758477146116e-06,0.001217962381349051,-0.0005602236918395754,-0.0011604004592976988,-9.858823557636194e-05,-0.0004708226576133454,-0.00028328385198983047,-0.0001063603995010864,0.12130087614059448,11.973108291625977,-1.2156097888946533,-21.641878128051758,-0.3262229561805725,-2.5143465995788574,0.20724813640117645,0
57,0.27999329566955566,-0.12130087614059448,-11.973108291625977,1.2156097888946533,21.641878128051758,0.3262229561805725,2.5143465995788574,-0.20724813640117645,0.0,0.0,0.0,0.0,0.0,0.0,0.0,-0.14181639733961268,0.36411204806647296,0.08894342342698823,0.3526455399905482,-0.19619105958122413,0.12348075436193888,-0.21546586759572856,0.1728178449513619,-0.4874674367319073,-0.11144841473736958,-1.946696393735186,0.13361823312984775,2.5955517839325797,0.9452476107196676,0.1728802376190821,-0.48752024683155326,-0.11147110072896137,-1.9463801863486305,0.1336059019074957,2.595550359778934,0.9452445589611904,-0.001217962381349051,0.0005602236918395754,0.0011604004592976988,9.858823557636194e-05,0.0004708226576133454,0.00028328385198983047,0.0001063603995010864,0.0,0.0,0.0,0.0,0.0,0.0,0.0,6.239266772020691e-05,-5.2810099645972386e-05,-2.26859915917893e-05,0.0003162073865554671,-1.2331222352057747e-05,-1.4241536456793824e-06,-3.051758477146116e-06,0.001217962381349051,-0.0005602236918395754,-0.0011604004592976988,-9.858823557636194e-05,-0.0004708226576133454,-0.00028328385198983047,-0.0001063603995010864,0.12130087614059448,11.973108291625977,-1.2156097888946533,-21.641878128051758,-0.3262229561805725,-2.5143465995788574,0.20724813640117645,0
58,0.28499937057495117,-0.12130087614059448,-11.973108291625977,1.2156097888946533,21.641878128051758,0.3262229561805725,2.5143465995788574,-0.20724813640117645,0.0,0.0,0.0,0.0,0.0,0.0,0.0,-0.14181639733961268,0.36411204806647296,0.08894342342698823,0.3526455399905482,-0.19619105958122413,0.12348075436193888,-0.21546586759572856,0.1728178449513619,-0.4874674367319073,-0.11144841473736958,-1.946696393735186,0.13361823312984775,2.5955517839325797,0.9452476107196676,0.1728802376190821,-0.48752024683155326,-0.11147110072896137,-1.9463801863486305,0.1336059019074957,2.595550359778934,0.9452445589611904,-0.001217962381349051,0.0005602236918395754,0.0011604004592976988,9.858823557636194e-05,0.0004708226576133454,0.00028328385198983047,0.0001063603995010864,0.0,0.0,0.0,0.0,0.0,0.0,0.0,6.239266772020691e-05,-5.2810099645972386e-05,-2.26859915917893e-05,0.0003162073865554671,-1.2331222352057747e-05,-1.4241536456793824e-06,-3.051758477146116e-06,0.001217962381349051,-0.0005602236918395754,-0.0011604004592976988,-9.858823557636194e-05,-0.0004708226576133454,-0.00028328385198983047,-0.0001063603995010864,0.12130087614059448,11.973108291625977,-1.2156097888946533,-21.641878128051758,-0.3262229561805725,-2.5143465995788574,0.20724813640117645,0
59,0.2899956703186035,-0.14510458707809448,-11.949304580688477,1.2156097888946533,21.641878128051758,0.3381248116493225,2.5207552909851074,-0.18710653483867645,0.0,0.0,0.0,0.0,0.0,0.0,0.0,-0.14432355811889797,0.35492638420887923,0.08675948012128756,0.3600576488632589,-0.19634086297613315,0.12470572353931238,-0.21448108387290007,0.17281951538721718,-0.4874691071677626,-0.11144911788828214,-1.9466960488818918,0.13362010952017972,2.595551067495106,0.9452453727639384,0.1728802376190821,-0.48752024683155326,-0.11147110072896137,-1.9463801863486305,0.1336059019074957,2.595550359778934,0.9452445589611904,-0.00041753671839950127,-0.00026180602055698424,0.0007316144118439992,0.0001416039854271332,5.961603876994606e-05,0.00022601034261664375,-0.0006069220064203911,0.0,0.0,0.0,0.0,0.0,0.0,0.0,6.07222318649292e-05,-5.113966379066692e-05,-2.1982840679224402e-05,0.0003158625332613241,-1.4207612684030702e-05,-7.077161718882508e-07,-8.138027479676069e-07,0.00041753671839950127,0.00026180602055698424,-0.0007316144118439992,-0.0001416039854271332,-5.961603876994606e-05,-0.00022601034261664375,0.0006069220064203911,0.14510458707809448,11.949304580688477,-1.2156097888946533,-21.641878128051758,-0.3381248116493225,-2.5207552909851074,0.18710653483867645,0
60,0.29500532150268555,-0.14510458707809448,-11.949304580688477,1.2156097888946533,21.641878128051758,0.3381248116493225,2.5207552909851074,-0.18710653483867645,0.0,0.0,0.0,0.0,0.0,0.0,0.0,-0.14432355811889797,0.35492638420887923,0.08675948012128756,0.3600576488632589,-0.19634086297613315,0.12470572353931238,-0.21448108387290007,0.17281951538721718,-0.4874691071677626,-0.11144911788828214,-1.9466960488818918,0.13362010952017972,2.595551067495106,0.9452453727639384,0.1728802376190821,-0.48752024683155326,-0.11147110072896137,-1.9463801863486305,0.1336059019074957,2.595550359778934,0.9452445589611904,-0.00041753671839950127,-0.00026180602055698424,0.0007316144118439992,0.0001416039854271332,5.961603876994606e-05,0.00022601034261664375,-0.0006069220064203911,0.0,0.0,0.0,0.0,0.0,0.0,0.0,6.07222318649292e-05,-5.113966379066692e-05,-2.1982840679224402e-05,0.0003158625332613241,-1.4207612684030702e-05,-7.077161718882508e-07,-8.138027479676069e-07,0.00041753671839950127,0.00026180602055698424,-0.0007316144118439992,-0.0001416039854271332,-5.961603876994606e-05,-0.00022601034261664375,0.0006069220064203911,0.14510458707809448,11.949304580688477,-1.2156097888946533,-21.641878128051758,-0.3381248116493225,-2.5207552909851074,0.18710653483867645,0
61,0.3000068664550781,-0.14510458707809448,-11.949304580688477,1.2156097888946533,21.641878128051758,0.3381248116493225,2.5207552909851074,-0.18710653483867645,0.0,0.0,0.0,0.0,0.0,0.0,0.0,-0.14432355811889797,0.35492638420887923,0.08675948012128756,0.3600576488632589,-0.19634086297613315,0.12470572353931238,-0.21448108387290007,0.17281951538721718,-0.4874691071677626,-0.11144911788828214,-1.9466960488818918,0.13362010952017972,2.595551067495106,0.9452453727639384,0.1728802376190821,-0.48752024683155326,-0.11147110072896137,-1.9463801863486305,0.1336059019074957,2.595550359778934,0.9452445589611904,-0.00041753671839950127,-0.00026180602055698424,0.0007316144118439992,0.0001416039854271332,5.961603876994606e-05,0.00022601034261664375,-0.0006069220064203911,0.0,0.0,0.0,0.0,0.0,0.0,0.0,6.07222318649292e-05,-5.113966379066692e-05,-2.1982840679224402e-05,0.0003158625332613241,-1.4207612684030702e-05,-7.077161718882508e-07,-8.138027479676069e-07,0.00041753671839950127,0.00026180602055698424,-0.0007316144118439992,-0.0001416039854271332,-5.961603876994606e-05,-0.00022601034261664375,0.0006069220064203911,0.14510458707809448,11.949304580688477,-1.2156097888946533,-21.641878128051758,-0.3381248116493225,-2.5207552909851074,0.18710653483867645,0
62,0.3050045967102051,-0.14510458707809448,-11.949304580688477,1.2156097888946533,21.641878128051758,0.3381248116493225,2.5207552909851074,-0.18710653483867645,0.0,0.0,0.0,0.0,0.0,0.0,0.0,-0.14432355811889797,0.35492638420887923,0.08675948012128756,0.3600576488632589,-0.19634086297613315,0.12470572353931238,-0.21448108387290007,0.17281951538721718,-0.4874691071677626,-0.11144911788828214,-1.9466960488818918,0.13362010952017972,2.595551067495106,0.9452453727639384,0.1728802376190821,-0.48752024683155326,-0.11147110072896137,-1.9463801863486305,0.1336059019074957,2.595550359778934,0.9452445589611904,-0.00041753671839950127,-0.00026180602055698424,0.0007316144118439992,0.0001416039854271332,5.961603876994606e-05,0.00022601034261664375,-0.0006069220064203911,0.0,0.0,0.0,0.0,0.0,0.0,0.0,6.07222318649292e-05,-5.113966379066692e-05,-2.1982840679224402e-05,0.0003158625332613241,-1.4207612684030702e-05,-7.077161718882508e-07,-8.138027479676069e-07,0.00041753671839950127,0.00026180602055698424,-0.0007316144118439992,-0.0001416039854271332,-5.961603876994606e-05,-0.00022601034261664375,0.0006069220064203911,0.14510458707809448,11.949304580688477,-1.2156097888946533,-21.641878128051758,-0.3381248116493225,-2.5207552909851074,0.18710653483867645,0
63,0.3099937438964844,-0.17287558317184448,-11.925500869750977,1.2671844959259033,21.693452835083008,0.3381248116493225,2.5271639823913574,-0.14590780436992645,0.0,0.0,0.0,0.0,0.0,0.0,0.0,-0.1433024438862266,0.3564412782784212,0.08702578380181049,0.36326144771752467,-0.19674398031161658,0.12507867263695086,-0.21353530324245876,0.17282146422904832,-0.48747077760361784,-0.11145264016060007,-1.946701837799406,0.13362010953823714,2.5955503597789096,0.9452407951272196,0.1728802376190821,-0.48752024683155326,-0.11147110072896137,-1.9463801863486305,0.1336059019074957,2.595550359778934,0.9452445589611904,0.00042260516105840836,-0.0007126274465712794,0.00021387705012481666,-0.0004791215198147883,-6.579422797224426e-05,0.00010007040341238334,-0.0026462948304845865,0.0,0.0,0.0,0.0,0.0,0.0,0.0,5.8773390033795e-05,-4.946922793541697e-05,-1.846056836130039e-05,0.0003216514507755619,-1.4207630741447375e-05,2.4424906541753444e-14,3.763833970826802e-06,-0.00042260516105840836,0.0007126274465712794,-0.00021387705012481666,0.0004791215198147883,6.579422797224426e-05,-0.00010007040341238334,0.0026462948304845865,0.17287558317184448,11.925500869750977,-1.2671844959259033,-21.693452835083008,-0.3381248116493225,-2.5271639823913574,0.14590780436992645,0
64,0.31534528732299805,-0.17287558317184448,-11.925500869750977,1.2671844959259033,21.693452835083008,0.3381248116493225,2.5271639823913574,-0.14590780436992645,0.0,0.0,0.0,0.0,0.0,0.0,0.0,-0.1433024438862266,0.3564412782784212,0.08702578380181049,0.36326144771752467,-0.19674398031161658,0.12507867263695086,-0.21353530324245876,0.17282146422904832,-0.48747077760361784,-0.11145264016060007,-1.946701837799406,0.13362010953823714,2.5955503597789096,0.9452407951272196,0.1728802376190821,-0.48752024683155326,-0.11147110072896137,-1.9463801863486305,0.1336059019074957,2.595550359778934,0.9452445589611904,0.00042260516105840836,-0.0007126274465712794,0.00021387705012481666,-0.0004791215198147883,-6.579422797224426e-05,0.00010007040341238334,-0.0026462948304845865,0.0,0.0,0.0,0.0,0.0,0.0,0.0,5.8773390033795e-05,-4.946922793541697e-05,-1.846056836130039e-05,0.0003216514507755619,-1.4207630741447375e-05,2.4424906541753444e-14,3.763833970826802e-06,-0.00042260516105840836,0.0007126274465712794,-0.00021387705012481666,0.0004791215198147883,6.579422797224426e-05,-0.00010007040341238334,0.0026462948304845865,0.17287558317184448,11.925500869750977,-1.2671844959259033,-21.693452835083008,-0.3381248116493225,-2.5271639823913574,0.14590780436992645,0
65,0.3200194835662842,-0.12130087614059448,-11.973108291625977,1.2671844959259033,21.641878128051758,0.3381248116493225,2.5207552909851074,-0.21457235515117645,0.0,0.0,0.0,0.0,0.0,0.0,0.0,-0.1463776263837516,0.33992409770983234,0.0860714329322271,0.3745160026891755,-0.19677985815907148,0.12687092727304775,-0.21411307215977415,0.1728178449513619,-0.4874681519876446,-0.11145274563209773,-1.946698227061776,0.13362009182410303,2.595551071855757,0.9452484245217508,0.1728802376190821,-0.48752024683155326,-0.11147110072896137,-1.9463801863486305,0.1336059019074957,2.595550359778934,0.9452445589611904,-0.00036071098226980763,-0.0008091878337823785,0.0003336150153839482,0.000875802010910824,5.140217706082669e-05,0.00041281747209098436,0.00074960903902974,0.0,0.0,0.0,0.0,0.0,0.0,0.0,6.239266772020691e-05,-5.20948439086677e-05,-1.8355096863639786e-05,0.00031804071314556204,-1.4189916607343367e-05,-7.120768228396912e-07,-3.865560560423198e-06,0.00036071098226980763,0.0008091878337823785,-0.0003336150153839482,-0.000875802010910824,-5.140217706082669e-05,-0.00041281747209098436,-0.00074960903902974,0.12130087614059448,11.973108291625977,-1.2671844959259033,-21.641878128051758,-0.3381248116493225,-2.5207552909851074,0.21457235515117645,0
66,0.32504940032958984,-0.12130087614059448,-11.973108291625977,1.2671844959259033,21.641878128051758,0.3381248116493225,2.5207552909851074,-0.21457235515117645,0.0,0.0,0.0,0.0,0.0,0.0,0.0,-0.1463776263837516,0.33992409770983234,0.0860714329322271,0.3745160026891755,-0.19677985815907148,0.12687092727304775,-0.21411307215977415,0.1728178449513619,-0.4874681519876446,-0.11145274563209773,-1.946698227061776,0.13362009182410303,2.595551071855757,0.9452484245217508,0.1728802376190821,-0.48752024683155326,-0.11147110072896137,-1.9463801863486305,0.1336059019074957,2.595550359778934,0.9452445589611904,-0.00036071098226980763,-0.0008091878337823785,0.0003336150153839482,0.000875802010910824,5.140217706082669e-05,0.00041281747209098436,0.00074960903902974,0.0,0.0,0.0,0.0,0.0,0.0,0.0,6.239266772020691e-05,-5.20948439086677e-05,-1.8355096863639786e-05,0.00031804071314556204,-1.4189916607343367e-05,-7.120768228396912e-07,-3.865560560423198e-06,0.00036071098226980763,0.0008091878337823785,-0.0003336150153839482,-0.000875802010910824,-5.140217706082669e-05,-0.00041281747209098436,-0.00074960903902974,0.12130087614059448,11.973108291625977,-1.2671844959259033,-21.641878128051758,-0.3381248116493225,-2.5207552909851074,0.21457235515117645,0
67,0.330000638961792,-0.09352988004684448,-12.024682998657227,1.2909882068634033,21.641878128051758,0.3262229561805725,2.5271639823913574,-0.18710653483867645,0.0,0.0,0.0,0.0,0.0,0.0,0.0,-0.14136646451215898,0.3517390556811462,0.08823646322136067,0.36626806672103757,-0.1965600863031074,0.12519443824049065,-0.21394864864191862,0.17281589610953077,-0.4874638174555668,-0.11145441639527878,-1.9466960714867352,0.1336213089427398,2.595550359778934,0.9452453727639384,0.1728802376190821,-0.48752024683155326,-0.11147110072896137,-1.9463801863486305,0.1336059019074957,2.595550359778934,0.9452445589611904,-0.000617576622947132,0.00040469214492256874,0.00017871732220878705,0.00013356016788585665,0.0004237165196416863,6.497917081185734e-05,-0.0010112961353538439,0.0,0.0,0.0,0.0,0.0,0.0,0.0,6.43415095513411e-05,-5.642937598648867e-05,-1.6684333682584485e-05,0.00031588513810465457,-1.5407035244108247e-05,0.0,-8.138027479676069e-07,0.000617576622947132,-0.00040469214492256874,-0.00017871732220878705,-0.00013356016788585665,-0.0004237165196416863,-6.497917081185734e-05,0.0010112961353538439,0.09352988004684448,12.024682998657227,-1.2909882068634033,-21.641878128051758,-0.3262229561805725,-2.5271639823913574,0.18710653483867645,0
68,0.3349947929382324,-0.09352988004684448,-12.024682998657227,1.2909882068634033,21.641878128051758,0.3262229561805725,2.5271639823913574,-0.18710653483867645,0.0,0.0,0.0,0.0,0.0,0.0,0.0,-0.14136646451215898,0.3517390556811462,0.08823646322136067,0.36626806672103757,-0.1965600863031074,0.12519443824049065,-0.21394864864191862,0.17281589610953077,-0.4874638174555668,-0.11145441639527878,-1.9466960714867352,0.1336213089427398,2.595550359778934,0.9452453727639384,0.1728802376190821,-0.48752024683155326,-0.11147110072896137,-1.9463801863486305,0.1336059019074957,2.595550359778934,0.9452445589611904,-0.000617576622947132,0.00040469214492256874,0.00017871732220878705,0.00013356016788585665,0.0004237165196416863,6.497917081185734e-05,-0.0010112961353538439,0.0,0.0,0.0,0.0,0.0,0.0,0.0,6.43415095513411e-05,-5.642937598648867e-05,-1.6684333682584485e-05,0.00031588513810465457,-1.5407035244108247e-05,0.0,-8.138027479676069e-07,0.000617576622947132,-0.00040469214492256874,-0.00017871732220878705,-0.00013356016788585665,-0.0004237165196416863,-6.497917081185734e-05,0.0010112961353538439,0.09352988004684448,12.024682998657227,-1.2909882068634033,-21.641878128051758,-0.3262229561805725,-2.5271639823913574,0.18710653483867645,0
69,0.3399977684020996,-0.12130087614059448,-12.024682998657227,1.3425629138946533,21.669649124145508,0.3381248116493225,2.5207552909851074,-0.16604940593242645,0.0,0.0,0.0,0.0,0.0,0.0,0.0,-0.13981938266478278,0.34573980598711623,0.08706278966235619,0.3660605671433006,-0.19654891885348286,0.12531772613160905,-0.21444955813602867,0.1728178449513619,-0.4874638174542209,-0.1114580356729658,-1.9466983499534674,0.13362009637382835,2.595551071855757,0.9452430330829488,0.1728802376190821,-0.48752024683155326,-0.11147110072896137,-1.9463801863486305,0.1336059019074957,2.595550359778934,0.9452445589611904,-8.118150044495278e-05,0.0004349917262620252,-0.0009784313906549668,0.00019448435061485508,-0.0001100813207999152,0.00025437787013368946,-0.0015187164310737017,0.0,0.0,0.0,0.0,0.0,0.0,0.0,6.239266772020691e-05,-5.6429377332356534e-05,-1.3065055995561958e-05,0.0003181636048368297,-1.4194466332662081e-05,-7.120768228396912e-07,1.525878241648293e-06,8.118150044495278e-05,-0.0004349917262620252,0.0009784313906549668,-0.00019448435061485508,0.0001100813207999152,-0.00025437787013368946,0.0015187164310737017,0.12130087614059448,12.024682998657227,-1.3425629138946533,-21.669649124145508,-0.3381248116493225,-2.5207552909851074,0.16604940593242645,0
70,0.345050573348999,-0.12130087614059448,-12.024682998657227,1.3425629138946533,21.669649124145508,0.3381248116493225,2.5207552909851074,-0.16604940593242645,0.0,0.0,0.0,0.0,0.0,0.0,0.0,-0.13981938266478278,0.34573980598711623,0.08706278966235619,0.3660605671433006,-0.19654891885348286,0.12531772613160905,-0.21444955813602867,0.1728178449513619,-0.4874638174542209,-0.1114580356729658,-1.9466983499534674,0.13362009637382835,2.595551071855757,0.9452430330829488,0.1728802376190821,-0.48752024683155326,-0.11147110072896137,-1.9463801863486305,0.1336059019074957,2.595550359778934,0.9452445589611904,-8.118150044495278e-05,0.0004349917262620252,-0.0009784313906549668,0.00019448435061485508,-0.0001100813207999152,0.00025437787013368946,-0.0015187164310737017,0.0,0.0,0.0,0.0,0.0,0.0,0.0,6.239266772020691e-05,-5.6429377332356534e-05,-1.3065055995561958e-05,0.0003181636048368297,-1.4194466332662081e-05,-7.120768228396912e-07,1.525878241648293e-06,8.118150044495278e-05,-0.0004349917262620252,0.0009784313906549668,-0.00019448435061485508,0.0001100813207999152,-0.00025437787013368946,0.0015187164310737017,0.12130087614059448,12.024682998657227,-1.3425629138946533,-21.669649124145508,-0.3381248116493225,-2.5207552909851074,0.16604940593242645,0
71,0.3500041961669922,-0.17287558317184448,-12.024682998657227,1.2433807849884033,21.669649124145508,0.3381248116493225,2.5335726737976074,-0.16604940593242645,0.0,0.0,0.0,0.0,0.0,0.0,0.0,-0.14643790034760173,0.3435014183006632,0.08296987355479439,0.36409832293971095,-0.19660358743375494,0.1250166635379696,-0.21499950940198403,0.17282146422904832,-0.4874638174542209,-0.11145107552356888,-1.9466988179621685,0.13361690880538005,2.595549647702111,0.9452430330829488,0.1728802376190821,-0.48752024683155326,-0.11147110072896137,-1.9463801863486305,0.1336059019074957,2.595550359778934,0.9452445589611904,8.633767066603952e-05,0.0006484240314307104,0.0006212455968362435,-0.00011187715739027417,-0.00016391121484410018,-7.784293288693828e-05,-0.0015610310200579968,0.0,0.0,0.0,0.0,0.0,0.0,0.0,5.8773390033795e-05,-5.6429377332356534e-05,-2.0025205392487644e-05,0.0003186316135379563,-1.1006897884358047e-05,7.120768228396912e-07,1.525878241648293e-06,-8.633767066603952e-05,-0.0006484240314307104,-0.0006212455968362435,0.00011187715739027417,0.00016391121484410018,7.784293288693828e-05,0.0015610310200579968,0.17287558317184448,12.024682998657227,-1.2433807849884033,-21.669649124145508,-0.3381248116493225,-2.5335726737976074,0.16604940593242645,0
72,0.3550381660461426,-0.17287558317184448,-12.024682998657227,1.2433807849884033,21.669649124145508,0.3381248116493225,2.5335726737976074,-0.16604940593242645,0.0,0.0,0.0,0.0,0.0,0.0,0.0,-0.14643790034760173,0.3435014183006632,0.08296987355479439,0.36409832293971095,-0.19660358743375494,0.1250166635379696,-0.21499950940198403,0.17282146422904832,-0.4874638174542209,-0.11145107552356888,-1.9466988179621685,0.13361690880538005,2.595549647702111,0.9452430330829488,0.1728802376190821,-0.48752024683155326,-0.11147110072896137,-1.9463801863486305,0.1336059019074957,2.595550359778934,0.9452445589611904,8.633767066603952e-05,0.0006484240314307104,0.0006212455968362435,-0.00011187715739027417,-0.00016391121484410018,-7.784293288693828e-05,-0.0015610310200579968,0.0,0.0,0.0,0.0,0.0,0.0,0.0,5.8773390033795e-05,-5.6429377332356534e-05,-2.0025205392487644e-05,0.0003186316135379563,-1.1006897884358047e-05,7.120768228396912e-07,1.525878241648293e-06,-8.633767066603952e-05,-0.0006484240314307104,-0.0006212455968362435,0.00011187715739027417,0.00016391121484410018,7.784293288693828e-05,0.0015610310200579968,0.17287558317184448,12.024682998657227,-1.2433807849884033,-21.669649124145508,-0.3381248116493225,-2.5335726737976074,0.16604940593242645,0
73,0.35999584197998047,-0.19667929410934448,-12.024682998657227,1.3147919178009033,21.669649124145508,0.3317161202430725,2.5335726737976074,-0.22830526530742645,0.0,0.0,0.0,0.0,0.0,0.0,0.0,-0.14145021696463134,0.3328507017995385,0.10028356110642134,0.36979609486209963,-0.19765944768104335,0.1258590948151997,-0.21540309397984678,0.17282313466490357,-0.4874638174542209,-0.11145599893676822,-1.9466988164718197,0.13362068997189325,2.595549647702111,0.9452499504006571,0.1728802376190821,-0.48752024683155326,-0.11147110072896137,-1.9463801863486305,0.1336059019074957,2.595550359778934,0.9452445589611904,0.0010912856840117901,0.00010198796106923727,-0.0006575605434356347,0.00010135523073396169,-3.531472696416712e-05,-0.0002469456004591775,0.0010116854400061554,0.0,0.0,0.0,0.0,0.0,0.0,0.0,5.710295417854505e-05,-5.6429377332356534e-05,-1.510179219314789e-05,0.000318630123189223,-1.478806439755842e-05,7.120768228396912e-07,-5.3914394666509935e-06,-0.0010912856840117901,-0.00010198796106923727,0.0006575605434356347,-0.00010135523073396169,3.531472696416712e-05,0.0002469456004591775,-0.0010116854400061554,0.19667929410934448,12.024682998657227,-1.3147919178009033,-21.669649124145508,-0.3317161202430725,-2.5335726737976074,0.22830526530742645,0
74,0.3650083541870117,-0.19667929410934448,-12.024682998657227,1.3147919178009033,21.669649124145508,0.3317161202430725,2.5335726737976074,-0.22830526530742645,0.0,0.0,0.0,0.0,0.0,0.0,0.0,-0.14145021696463134,0.3328507017995385,0.10028356110642134,0.36979609486209963,-0.19765944768104335,0.1258590948151997,-0.21540309397984678,0.17282313466490357,-0.4874638174542209,-0.11145599893676822,-1.9466988164718197,0.13362068997189325,2.595549647702111,0.9452499504006571,0.1728802376190821,-0.48752024683155326,-0.11147110072896137,-1.9463801863486305,0.1336059019074957,2.595550359778934,0.9452445589611904,0.0010912856840117901,0.00010198796106923727,-0.0006575605434356347,0.00010135523073396169,-3.531472696416712e-05,-0.0002469456004591775,0.0010116854400061554,0.0,0.0,0.0,0.0,0.0,0.0,0.0,5.710295417854505e-05,-5.6429377332356534e-05,-1.510179219314789e-05,0.000318630123189223,-1.478806439755842e-05,7.120768228396912e-07,-5.3914394666509935e-06,-0.0010912856840117901,-0.00010198796106923727,0.0006575605434356347,-0.00010135523073396169,3.531472696416712e-05,0.0002469456004591775,-0.0010116854400061554,0.19667929410934448,12.024682998657227,-1.3147919178009033,-21.669649124145508,-0.3317161202430725,-2.5335726737976074,0.22830526530742645,0
75,0.3699944019317627,-0.14510458707809448,-11.973108291625977,1.2909882068634033,21.669649124145508,0.3317161202430725,2.5271639823913574,-0.20083944499492645,0.0,0.0,0.0,0.0,0.0,0.0,0.0,-0.14274097821430048,0.34756702176324966,0.09929846025575931,0.36101094663694355,-0.19873817036851485,0.12438576914146908,-0.2159603375150104,0.17281951538721718,-0.4874674367319073,-0.11145433728985343,-1.9466990652500376,0.1336197553534494,2.595550359778934,0.9452468986428446,0.1728802376190821,-0.48752024683155326,-0.11147110072896137,-1.9463801863486305,0.1336059019074957,2.595550359778934,0.9452445589611904,0.0002705301301749988,-0.00026709472211195796,-0.00015222475517579883,-0.0001844416437334915,4.719007688447712e-05,0.00010907345054883341,-0.00031562129153249544,0.0,0.0,0.0,0.0,0.0,0.0,0.0,6.07222318649292e-05,-5.2810099645972386e-05,-1.6763439107933542e-05,0.000318878901407027,-1.3853445953698751e-05,0.0,-2.3396816541954024e-06,-0.0002705301301749988,0.00026709472211195796,0.00015222475517579883,0.0001844416437334915,-4.719007688447712e-05,-0.00010907345054883341,0.00031562129153249544,0.14510458707809448,11.973108291625977,-1.2909882068634033,-21.669649124145508,-0.3317161202430725,-2.5271639823913574,0.20083944499492645,0
76,0.3750033378601074,-0.14510458707809448,-11.973108291625977,1.2909882068634033,21.669649124145508,0.3317161202430725,2.5271639823913574,-0.20083944499492645,0.0,0.0,0.0,0.0,0.0,0.0,0.0,-0.14274097821430048,0.34756702176324966,0.09929846025575931,0.36101094663694355,-0.19873817036851485,0.12438576914146908,-0.2159603375150104,0.17281951538721718,-0.4874674367319073,-0.11145433728985343,-1.9466990652500376,0.1336197553534494,2.595550359778934,0.9452468986428446,0.1728802376190821,-0.48752024683155326,-0.11147110072896137,-1.9463801863486305,0.1336059019074957,2.595550359778934,0.9452445589611904,0.0002705301301749988,-0.00026709472211195796,-0.00015222475517579883,-0.0001844416437334915,4.719007688447712e-05,0.00010907345054883341,-0.00031562129153249544,0.0,0.0,0.0,0.0,0.0,0.0,0.0,6.07222318649292e-05,-5.2810099645972386e-05,-1.6763439107933542e-05,0.000318878901407027,-1.3853445953698751e-05,0.0,-2.3396816541954024e-06,-0.0002705301301749988,0.00026709472211195796,0.00015222475517579883,0.0001844416437334915,-4.719007688447712e-05,-0.00010907345054883341,0.00031562129153249544,0.14510458707809448,11.973108291625977,-1.2909882068634033,-21.669649124145508,-0.3317161202430725,-2.5271639823913574,0.20083944499492645,0
77,0.37999653816223145,-0.14510458707809448,-11.973108291625977,1.2671844959259033,21.618074417114258,0.3436179757118225,2.5271639823913574,-0.22098104655742645,0.0,0.0,0.0,0.0,0.0,0.0,0.0,-0.14509197290484432,0.334454355104097,0.09395846855484474,0.36912535853431383,-0.19851129760469124,0.12602830701349446,-0.21601332265404616,0.17281951538721718,-0.4874674367319073,-0.11145274302916536,-1.9466954077817227,0.13361944636328302,2.595550359778934,0.9452491365985738,0.1728802376190821,-0.48752024683155326,-0.11147110072896137,-1.9463801863486305,0.1336059019074957,2.595550359778934,0.9452445589611904,-0.00022959167235893753,-0.00012125409126397664,0.0006838517946444118,0.001261641606563099,-0.00022953370879915975,-3.956563133566029e-06,0.001092713584996052,0.0,0.0,0.0,0.0,0.0,0.0,0.0,6.07222318649292e-05,-5.2810099645972386e-05,-1.835769979600943e-05,0.0003152214330921499,-1.3544455787328769e-05,0.0,-4.5776373833739115e-06,0.00022959167235893753,0.00012125409126397664,-0.0006838517946444118,-0.001261641606563099,0.00022953370879915975,3.956563133566029e-06,-0.001092713584996052,0.14510458707809448,11.973108291625977,-1.2671844959259033,-21.618074417114258,-0.3436179757118225,-2.5271639823913574,0.22098104655742645,0
78,0.3850076198577881,-0.14510458707809448,-11.973108291625977,1.2671844959259033,21.618074417114258,0.3436179757118225,2.5271639823913574,-0.22098104655742645,0.0,0.0,0.0,0.0,0.0,0.0,0.0,-0.14509197290484432,0.334454355104097,0.09395846855484474,0.36912535853431383,-0.19851129760469124,0.12602830701349446,-0.21601332265404616,0.17281951538721718,-0.4874674367319073,-0.11145274302916536,-1.9466954077817227,0.13361944636328302,2.595550359778934,0.9452491365985738,0.1728802376190821,-0.48752024683155326,-0.11147110072896137,-1.9463801863486305,0.1336059019074957,2.595550359778934,0.9452445589611904,-0.00022959167235893753,-0.00012125409126397664,0.0006838517946444118,0.001261641606563099,-0.00022953370879915975,-3.956563133566029e-06,0.001092713584996052,0.0,0.0,0.0,0.0,0.0,0.0,0.0,6.07222318649292e-05,-5.2810099645972386e-05,-1.835769979600943e-05,0.0003152214330921499,-1.3544455787328769e-05,0.0,-4.5776373833739115e-06,0.00022959167235893753,0.00012125409126397664,-0.0006838517946444118,-0.001261641606563099,0.00022953370879915975,3.956563133566029e-06,-0.001092713584996052,0.14510458707809448,11.973108291625977,-1.2671844959259033,-21.618074417114258,-0.3436179757118225,-2.5271639823913574,0.22098104655742645,0
79,0.39000892639160156,-0.17287558317184448,-11.973108291625977,1.2433807849884033,21.693452835083008,0.3436179757118225,2.5335726737976074,-0.23471395671367645,0.0,0.0,0.0,0.0,0.0,0.0,0.0,-0.14637678123434017,0.3401513104742128,0.09188919391749688,0.3690706026834316,-0.19833103940009889,0.12609369472832577,-0.21495073681011145,0.17282146422904832,-0.4874674367319073,-0.11145107552355234,-1.9466999850737345,0.1336193675492324,2.595549647702111,0.9452496028393507,0.1728802376190821,-0.48752024683155326,-0.11147110072896137,-1.9463801863486305,0.1336059019074957,2.595550359778934,0.9452445589611904,0.0008820944707892643,0.0003562840154387795,0.0005841147851622792,-0.00043580923960663445,-0.00010271819612822641,-0.00038078718595935187,0.001086327166779444,0.0,0.0,0.0,0.0,0.0,0.0,0.0,5.8773390033795e-05,-5.2810099645972386e-05,-2.0025205409029967e-05,0.00031979872510401464,-1.346564173670961e-05,7.120768228396912e-07,-5.043878160249093e-06,-0.0008820944707892643,-0.0003562840154387795,-0.0005841147851622792,0.00043580923960663445,0.00010271819612822641,0.00038078718595935187,-0.001086327166779444,0.17287558317184448,11.973108291625977,-1.2433807849884033,-21.693452835083008,-0.3436179757118225,-2.5335726737976074,0.23471395671367645,0
