rezayati/contactInterpretation/dataset/franka_main/labeled_data/link5/c6_8.csv
index,time,tau_J0,tau_J1,tau_J2,tau_J3,tau_J4,tau_J5,tau_J6,tau_J_d0,tau_J_d1,tau_J_d2,tau_J_d3,tau_J_d4,tau_J_d5,tau_J_d6,tau_ext0,tau_ext1,tau_ext2,tau_ext3,tau_ext4,tau_ext5,tau_ext6,q0,q1,q2,q3,q4,q5,q6,q_d0,q_d1,q_d2,q_d3,q_d4,q_d5,q_d6,dq0,dq1,dq2,dq3,dq4,dq5,dq6,dq_d0,dq_d1,dq_d2,dq_d3,dq_d4,dq_d5,dq_d6,e0,e1,e2,e3,e4,e5,e6,de0,de1,de2,de3,de4,de5,de6,etau_J0,etau_J1,etau_J2,etau_J3,etau_J4,etau_J5,etau_J6,label
1,0.0,-0.22445029020309448,-22.720483779907227,0.04922797530889511,14.056428909301758,0.2191062569618225,2.1453890800476074,-0.26858848333358765,0.0,0.0,0.0,0.0,0.0,0.0,0.0,-0.27466571588509414,0.0960809134859172,-0.05758750152176515,0.21876689716144526,-0.017171531981641917,-0.04889015415270608,-0.26375969511381825,1.6755412174981623,0.05226372866620097,0.02994657222012758,-2.7526062318902267,0.034231364360126554,2.7663679543071322,0.7691678813232314,1.6754973547542302,0.052104326824870026,0.029969505109285054,-2.752394845125968,0.0342448039870148,2.7663679543071322,0.7691630533470046,-0.0008900735603568124,0.00014689857671934038,-0.0008938940893909609,0.0006918692513157586,-5.7635053050642085e-05,-0.00041438716538050123,-0.00032300409764589175,0.0,0.0,0.0,0.0,0.0,0.0,0.0,-4.386274393208822e-05,-0.00015940184133094587,2.2932889157473157e-05,0.00021138676425858094,1.343962688824668e-05,0.0,-4.827976226806641e-06,0.0008900735603568124,-0.00014689857671934038,0.0008938940893909609,-0.0006918692513157586,5.7635053050642085e-05,0.00041438716538050123,0.00032300409764589175,0.22445029020309448,22.720483779907227,-0.04922797530889511,-14.056428909301758,-0.2191062569618225,-2.1453890800476074,0.26858848333358765,0
2,0.005047321319580078,-0.2720577120780945,-22.720483779907227,0.07303168624639511,14.108003616333008,0.2191062569618225,2.1389803886413574,-0.26217979192733765,0.0,0.0,0.0,0.0,0.0,0.0,0.0,-0.2728386113082416,0.09553954605759135,-0.05902574498791176,0.21890955618312222,-0.016599613009391806,-0.048718226404377306,-0.265731738971058,1.6755448762599665,0.05226372866620097,0.029943406323737994,-2.752609851167913,0.0342313643594583,2.766368666383955,0.7691671692464086,1.6754973547542302,0.052104326824870026,0.029969505109285054,-2.752394845125968,0.0342448039870148,2.7663679543071322,0.7691630533470046,0.00023959581315440245,0.00023474918364972818,-0.0011158110052724218,-0.000715540615159293,-0.00013781542538266129,-0.00010845865963138017,-0.0007072066317320798,0.0,0.0,0.0,0.0,0.0,0.0,0.0,-4.7521505736281e-05,-0.00015940184133094587,2.6098785547060133e-05,0.0002150060419450206,1.3439627556503797e-05,-7.120768228396912e-07,-4.115899403966949e-06,-0.00023959581315440245,-0.00023474918364972818,0.0011158110052724218,0.000715540615159293,0.00013781542538266129,0.00010845865963138017,0.0007072066317320798,0.2720577120780945,22.720483779907227,-0.07303168624639511,-14.108003616333008,-0.2191062569618225,-2.1389803886413574,0.26217979192733765,0
3,0.01001286506652832,-0.2720577120780945,-22.720483779907227,0.07303168624639511,14.108003616333008,0.2191062569618225,2.1389803886413574,-0.26217979192733765,0.0,0.0,0.0,0.0,0.0,0.0,0.0,-0.2728386113082416,0.09553954605759135,-0.05902574498791176,0.21890955618312222,-0.016599613009391806,-0.048718226404377306,-0.265731738971058,1.6755448762599665,0.05226372866620097,0.029943406323737994,-2.752609851167913,0.0342313643594583,2.766368666383955,0.7691671692464086,1.6754973547542302,0.052104326824870026,0.029969505109285054,-2.752394845125968,0.0342448039870148,2.7663679543071322,0.7691630533470046,0.00023959581315440245,0.00023474918364972818,-0.0011158110052724218,-0.000715540615159293,-0.00013781542538266129,-0.00010845865963138017,-0.0007072066317320798,0.0,0.0,0.0,0.0,0.0,0.0,0.0,-4.7521505736281e-05,-0.00015940184133094587,2.6098785547060133e-05,0.0002150060419450206,1.3439627556503797e-05,-7.120768228396912e-07,-4.115899403966949e-06,-0.00023959581315440245,-0.00023474918364972818,0.0011158110052724218,0.000715540615159293,0.00013781542538266129,0.00010845865963138017,0.0007072066317320798,0.2720577120780945,22.720483779907227,-0.07303168624639511,-14.108003616333008,-0.2191062569618225,-2.1389803886413574,0.26217979192733765,0
4,0.01500391960144043,-0.2720577120780945,-22.720483779907227,0.04922797530889511,14.131807327270508,0.2126975655555725,2.1453890800476074,-0.26858848333358765,0.0,0.0,0.0,0.0,0.0,0.0,0.0,-0.2659547411525825,0.09457145549618265,-0.05589310489027162,0.21754336650250133,-0.016601653036753504,-0.0500425462598085,-0.26845035425558145,1.6755448751715984,0.05226372866620097,0.029947206534609944,-2.7526115216037685,0.03423207659867002,2.7663676010944225,0.7691678813232314,1.6754973547542302,0.052104326824870026,0.029969505109285054,-2.752394845125968,0.0342448039870148,2.7663679543071322,0.7691630533470046,0.0002885640859097585,0.0003015587023947041,-0.000275751666154428,-0.0012348117380681766,9.141842432716932e-05,0.006590275408405795,-0.0005135600634031684,0.0,0.0,0.0,0.0,0.0,0.0,0.0,-4.752041736821866e-05,-0.00015940184133094587,2.229857467511004e-05,0.00021667647780043708,1.2727388344777046e-05,3.532127097471971e-07,-4.827976226806641e-06,-0.0002885640859097585,-0.0003015587023947041,0.000275751666154428,0.0012348117380681766,-9.141842432716932e-05,-0.006590275408405795,0.0005135600634031684,0.2720577120780945,22.720483779907227,-0.04922797530889511,-14.131807327270508,-0.2126975655555725,-2.1453890800476074,0.26858848333358765,0
5,0.01999664306640625,-0.2720577120780945,-22.720483779907227,0.04922797530889511,14.131807327270508,0.2126975655555725,2.1453890800476074,-0.26858848333358765,0.0,0.0,0.0,0.0,0.0,0.0,0.0,-0.2659547411525825,0.09457145549618265,-0.05589310489027162,0.21754336650250133,-0.016601653036753504,-0.0500425462598085,-0.26845035425558145,1.6755448751715984,0.05226372866620097,0.029947206534609944,-2.7526115216037685,0.03423207659867002,2.7663676010944225,0.7691678813232314,1.6754973547542302,0.052104326824870026,0.029969505109285054,-2.752394845125968,0.0342448039870148,2.7663679543071322,0.7691630533470046,0.0002885640859097585,0.0003015587023947041,-0.000275751666154428,-0.0012348117380681766,9.141842432716932e-05,0.006590275408405795,-0.0005135600634031684,0.0,0.0,0.0,0.0,0.0,0.0,0.0,-4.752041736821866e-05,-0.00015940184133094587,2.229857467511004e-05,0.00021667647780043708,1.2727388344777046e-05,3.532127097471971e-07,-4.827976226806641e-06,-0.0002885640859097585,-0.0003015587023947041,0.000275751666154428,0.0012348117380681766,-9.141842432716932e-05,-0.006590275408405795,0.0005135600634031684,0.2720577120780945,22.720483779907227,-0.04922797530889511,-14.131807327270508,-0.2126975655555725,-2.1453890800476074,0.26858848333358765,0
6,0.026453495025634766,-0.2720577120780945,-22.672876358032227,0.04922797530889511,14.056428909301758,0.2126975655555725,2.1325716972351074,-0.28232139348983765,0.0,0.0,0.0,0.0,0.0,0.0,0.0,-0.2676114053097392,0.09546680832269645,-0.05845398571697966,0.21657508848433574,-0.01631637505286511,-0.05079298936212042,-0.2691260696165175,1.6755445573891696,0.052260387794490444,0.029945151642461608,-2.7526062318902267,0.034232089643905866,2.7663693784587844,0.7691694072021378,1.6754973547542302,0.052104326824870026,0.029969505109285054,-2.752394845125968,0.0342448039870148,2.7663679543071322,0.7691630533470046,-2.3406418610437274e-05,-0.0008668476526762912,-0.0006731746931338769,0.0007264963486045362,4.623366255438727e-05,0.00045441920117604085,0.000331505907215351,0.0,0.0,0.0,0.0,0.0,0.0,0.0,-4.72026349394028e-05,-0.0001560609696204182,2.4353466823445746e-05,0.00021138676425858094,1.27143431089341e-05,-1.4241516521629194e-06,-6.3538551331454585e-06,2.3406418610437274e-05,0.0008668476526762912,0.0006731746931338769,-0.0007264963486045362,-4.623366255438727e-05,-0.00045441920117604085,-0.000331505907215351,0.2720577120780945,22.672876358032227,-0.04922797530889511,-14.056428909301758,-0.2126975655555725,-2.1325716972351074,0.28232139348983765,0
7,0.02999711036682129,-0.2720577120780945,-22.672876358032227,0.04922797530889511,14.056428909301758,0.2126975655555725,2.1325716972351074,-0.28232139348983765,0.0,0.0,0.0,0.0,0.0,0.0,0.0,-0.2676114053097392,0.09546680832269645,-0.05845398571697966,0.21657508848433574,-0.01631637505286511,-0.05079298936212042,-0.2691260696165175,1.6755445573891696,0.052260387794490444,0.029945151642461608,-2.7526062318902267,0.034232089643905866,2.7663693784587844,0.7691694072021378,1.6754973547542302,0.052104326824870026,0.029969505109285054,-2.752394845125968,0.0342448039870148,2.7663679543071322,0.7691630533470046,-2.3406418610437274e-05,-0.0008668476526762912,-0.0006731746931338769,0.0007264963486045362,4.623366255438727e-05,0.00045441920117604085,0.000331505907215351,0.0,0.0,0.0,0.0,0.0,0.0,0.0,-4.72026349394028e-05,-0.0001560609696204182,2.4353466823445746e-05,0.00021138676425858094,1.27143431089341e-05,-1.4241516521629194e-06,-6.3538551331454585e-06,2.3406418610437274e-05,0.0008668476526762912,0.0006731746931338769,-0.0007264963486045362,-4.623366255438727e-05,-0.00045441920117604085,-0.000331505907215351,0.2720577120780945,22.672876358032227,-0.04922797530889511,-14.056428909301758,-0.2126975655555725,-2.1325716972351074,0.28232139348983765,0
8,0.03499627113342285,-0.2998287081718445,-22.672876358032227,0.02542426437139511,14.032625198364258,0.2007957100868225,2.1389803886413574,-0.25485557317733765,0.0,0.0,0.0,0.0,0.0,0.0,0.0,-0.26716683259457435,0.07194850054511455,-0.05577345368024356,0.25281683443677866,-0.015907405869509606,-0.04405814860107684,-0.2684387526162647,1.6755467456289326,0.052260387794490444,0.02994694616785919,-2.7526045614543713,0.03423375595774877,2.766368666383955,0.7691663554443252,1.6754973547542302,0.052104326824870026,0.029969505109285054,-2.752394845125968,0.0342448039870148,2.7663679543071322,0.7691630533470046,0.0005095643586805018,-0.0007756471134200092,-0.00015370184882503176,0.00019175991035373023,0.000657685076977177,-6.377163804108242e-05,-0.00020110454357498417,0.0,0.0,0.0,0.0,0.0,0.0,0.0,-4.93908747023486e-05,-0.0001560609696204182,2.255894142586326e-05,0.00020971632840316445,1.1048029266033654e-05,-7.120768228396912e-07,-3.302097320578845e-06,-0.0005095643586805018,0.0007756471134200092,0.00015370184882503176,-0.00019175991035373023,-0.000657685076977177,6.377163804108242e-05,0.00020110454357498417,0.2998287081718445,22.672876358032227,-0.02542426437139511,-14.032625198364258,-0.2007957100868225,-2.1389803886413574,0.25485557317733765,0
9,0.03999662399291992,-0.2998287081718445,-22.672876358032227,0.02542426437139511,14.032625198364258,0.2007957100868225,2.1389803886413574,-0.25485557317733765,0.0,0.0,0.0,0.0,0.0,0.0,0.0,-0.26716683259457435,0.07194850054511455,-0.05577345368024356,0.25281683443677866,-0.015907405869509606,-0.04405814860107684,-0.2684387526162647,1.6755467456289326,0.052260387794490444,0.02994694616785919,-2.7526045614543713,0.03423375595774877,2.766368666383955,0.7691663554443252,1.6754973547542302,0.052104326824870026,0.029969505109285054,-2.752394845125968,0.0342448039870148,2.7663679543071322,0.7691630533470046,0.0005095643586805018,-0.0007756471134200092,-0.00015370184882503176,0.00019175991035373023,0.000657685076977177,-6.377163804108242e-05,-0.00020110454357498417,0.0,0.0,0.0,0.0,0.0,0.0,0.0,-4.93908747023486e-05,-0.0001560609696204182,2.255894142586326e-05,0.00020971632840316445,1.1048029266033654e-05,-7.120768228396912e-07,-3.302097320578845e-06,-0.0005095643586805018,0.0007756471134200092,0.00015370184882503176,-0.00019175991035373023,-0.000657685076977177,6.377163804108242e-05,0.00020110454357498417,0.2998287081718445,22.672876358032227,-0.02542426437139511,-14.032625198364258,-0.2007957100868225,-2.1389803886413574,0.25485557317733765,0
10,0.04570460319519043,-0.24825400114059448,-22.672876358032227,0.001620553433895111,14.080232620239258,0.2126975655555725,2.1389803886413574,-0.28964561223983765,0.0,0.0,0.0,0.0,0.0,0.0,0.0,-0.2642948706883003,0.09185029569619117,-0.0493935764528358,0.215773559425216,-0.017160626476780422,-0.04907580614089748,-0.2652021552341292,1.675543178317019,0.052260387794490444,0.029948023343938493,-2.752607902326082,0.034235391118820346,2.766368666383955,0.769170221004221,1.6754973547542302,0.052104326824870026,0.029969505109285054,-2.752394845125968,0.0342448039870148,2.7663679543071322,0.7691630533470046,-0.00028119175032576,-0.00039183029847346504,0.0009556823657722771,3.2216048278833735e-05,3.55237340986187e-05,-8.061375876423717e-05,0.0016738220751909827,0.0,0.0,0.0,0.0,0.0,0.0,0.0,-4.582356278870492e-05,-0.0001560609696204182,2.148176534656071e-05,0.00021305720011399742,9.412868194454138e-06,-7.120768228396912e-07,-7.1676572164225405e-06,0.00028119175032576,0.00039183029847346504,-0.0009556823657722771,-3.2216048278833735e-05,-3.55237340986187e-05,8.061375876423717e-05,-0.0016738220751909827,0.24825400114059448,22.672876358032227,-0.001620553433895111,-14.080232620239258,-0.2126975655555725,-2.1389803886413574,0.28964561223983765,0
11,0.04999399185180664,-0.24825400114059448,-22.672876358032227,0.001620553433895111,14.080232620239258,0.2126975655555725,2.1389803886413574,-0.28964561223983765,0.0,0.0,0.0,0.0,0.0,0.0,0.0,-0.2642948706883003,0.09185029569619117,-0.0493935764528358,0.215773559425216,-0.017160626476780422,-0.04907580614089748,-0.2652021552341292,1.675543178317019,0.052260387794490444,0.029948023343938493,-2.752607902326082,0.034235391118820346,2.766368666383955,0.769170221004221,1.6754973547542302,0.052104326824870026,0.029969505109285054,-2.752394845125968,0.0342448039870148,2.7663679543071322,0.7691630533470046,-0.00028119175032576,-0.00039183029847346504,0.0009556823657722771,3.2216048278833735e-05,3.55237340986187e-05,-8.061375876423717e-05,0.0016738220751909827,0.0,0.0,0.0,0.0,0.0,0.0,0.0,-4.582356278870492e-05,-0.0001560609696204182,2.148176534656071e-05,0.00021305720011399742,9.412868194454138e-06,-7.120768228396912e-07,-7.1676572164225405e-06,0.00028119175032576,0.00039183029847346504,-0.0009556823657722771,-3.2216048278833735e-05,-3.55237340986187e-05,8.061375876423717e-05,-0.0016738220751909827,0.24825400114059448,22.672876358032227,-0.001620553433895111,-14.080232620239258,-0.2126975655555725,-2.1389803886413574,0.28964561223983765,0
12,0.054991960525512695,-0.2998287081718445,-22.720483779907227,0.02542426437139511,14.108003616333008,0.2072044014930725,2.1261630058288574,-0.26217979192733765,0.0,0.0,0.0,0.0,0.0,0.0,0.0,-0.27076432593862393,0.0926802398500438,-0.054133467582426625,0.20873354725192664,-0.01724736296411639,-0.04987365689787458,-0.262480088985956,1.6755443613357701,0.052263725743202274,0.02994623854692101,-2.752609851167913,0.034232739420531746,2.766370090537601,0.7691671692464086,1.6754973547542302,0.052104326824870026,0.029969505109285054,-2.752394845125968,0.0342448039870148,2.7663679543071322,0.7691630533470046,0.0003339160343450484,0.0002351248331060617,0.00011799042896374816,-0.000768536301067911,0.0003095981269668612,0.00020206276640384192,-0.00023753650403446976,0.0,0.0,0.0,0.0,0.0,0.0,0.0,-4.7006581539887904e-05,-0.00015939891833224862,2.3266562364045174e-05,0.0002150060419450206,1.206456648305404e-05,-2.136230468963163e-06,-4.115899403966949e-06,-0.0003339160343450484,-0.0002351248331060617,-0.00011799042896374816,0.000768536301067911,-0.0003095981269668612,-0.00020206276640384192,0.00023753650403446976,0.2998287081718445,22.720483779907227,-0.02542426437139511,-14.108003616333008,-0.2072044014930725,-2.1261630058288574,0.26217979192733765,0
13,0.059995412826538086,-0.2998287081718445,-22.720483779907227,0.02542426437139511,14.108003616333008,0.2072044014930725,2.1261630058288574,-0.26217979192733765,0.0,0.0,0.0,0.0,0.0,0.0,0.0,-0.27076432593862393,0.0926802398500438,-0.054133467582426625,0.20873354725192664,-0.01724736296411639,-0.04987365689787458,-0.262480088985956,1.6755443613357701,0.052263725743202274,0.02994623854692101,-2.752609851167913,0.034232739420531746,2.766370090537601,0.7691671692464086,1.6754973547542302,0.052104326824870026,0.029969505109285054,-2.752394845125968,0.0342448039870148,2.7663679543071322,0.7691630533470046,0.0003339160343450484,0.0002351248331060617,0.00011799042896374816,-0.000768536301067911,0.0003095981269668612,0.00020206276640384192,-0.00023753650403446976,0.0,0.0,0.0,0.0,0.0,0.0,0.0,-4.7006581539887904e-05,-0.00015939891833224862,2.3266562364045174e-05,0.0002150060419450206,1.206456648305404e-05,-2.136230468963163e-06,-4.115899403966949e-06,-0.0003339160343450484,-0.0002351248331060617,-0.00011799042896374816,0.000768536301067911,-0.0003095981269668612,-0.00020206276640384192,0.00023753650403446976,0.2998287081718445,22.720483779907227,-0.02542426437139511,-14.108003616333008,-0.2072044014930725,-2.1261630058288574,0.26217979192733765,0
14,0.06499743461608887,-0.2720577120780945,-22.696680068969727,0.02542426437139511,14.080232620239258,0.2126975655555725,2.1325716972351074,-0.23471395671367645,0.0,0.0,0.0,0.0,0.0,0.0,0.0,-0.2730468897437451,0.09890490646678311,-0.05244618422083357,0.20858664419783324,-0.01729263523744367,-0.05094055524705558,-0.26261498625929575,1.6755420122814646,0.05226205823032921,0.029948137412836917,-2.752607902326082,0.03423219530519203,2.7663693784607783,0.7691641174869404,1.6754973547542302,0.052104326824870026,0.029969505109285054,-2.752394845125968,0.0342448039870148,2.7663679543071322,0.7691630533470046,-0.00024410348251811904,0.0001949324579692878,-3.388397674505315e-05,0.00027447239160808363,-5.70853851443704e-05,5.4278830622154055e-06,-0.0008311348296153303,0.0,0.0,0.0,0.0,0.0,0.0,0.0,-4.4657527234370775e-05,-0.00015773140545918135,2.1367696448136575e-05,0.00021305720011399742,1.2608681822769141e-05,-1.4241536461234716e-06,-1.0641399357247394e-06,0.00024410348251811904,-0.0001949324579692878,3.388397674505315e-05,-0.00027447239160808363,5.70853851443704e-05,-5.4278830622154055e-06,0.0008311348296153303,0.2720577120780945,22.696680068969727,-0.02542426437139511,-14.080232620239258,-0.2126975655555725,-2.1325716972351074,0.23471395671367645,0
15,0.07002019882202148,-0.2720577120780945,-22.696680068969727,0.02542426437139511,14.080232620239258,0.2126975655555725,2.1325716972351074,-0.23471395671367645,0.0,0.0,0.0,0.0,0.0,0.0,0.0,-0.2730468897437451,0.09890490646678311,-0.05244618422083357,0.20858664419783324,-0.01729263523744367,-0.05094055524705558,-0.26261498625929575,1.6755420122814646,0.05226205823032921,0.029948137412836917,-2.752607902326082,0.03423219530519203,2.7663693784607783,0.7691641174869404,1.6754973547542302,0.052104326824870026,0.029969505109285054,-2.752394845125968,0.0342448039870148,2.7663679543071322,0.7691630533470046,-0.00024410348251811904,0.0001949324579692878,-3.388397674505315e-05,0.00027447239160808363,-5.70853851443704e-05,5.4278830622154055e-06,-0.0008311348296153303,0.0,0.0,0.0,0.0,0.0,0.0,0.0,-4.4657527234370775e-05,-0.00015773140545918135,2.1367696448136575e-05,0.00021305720011399742,1.2608681822769141e-05,-1.4241536461234716e-06,-1.0641399357247394e-06,0.00024410348251811904,-0.0001949324579692878,3.388397674505315e-05,-0.00027447239160808363,5.70853851443704e-05,-5.4278830622154055e-06,0.0008311348296153303,0.2720577120780945,22.696680068969727,-0.02542426437139511,-14.080232620239258,-0.2126975655555725,-2.1325716972351074,0.23471395671367645,0
16,0.07500481605529785,-0.2720577120780945,-22.696680068969727,0.02542426437139511,14.080232620239258,0.2126975655555725,2.1325716972351074,-0.23471395671367645,0.0,0.0,0.0,0.0,0.0,0.0,0.0,-0.2730468897437451,0.09890490646678311,-0.05244618422083357,0.20858664419783324,-0.01729263523744367,-0.05094055524705558,-0.26261498625929575,1.6755420122814646,0.05226205823032921,0.029948137412836917,-2.752607902326082,0.03423219530519203,2.7663693784607783,0.7691641174869404,1.6754973547542302,0.052104326824870026,0.029969505109285054,-2.752394845125968,0.0342448039870148,2.7663679543071322,0.7691630533470046,-0.00024410348251811904,0.0001949324579692878,-3.388397674505315e-05,0.00027447239160808363,-5.70853851443704e-05,5.4278830622154055e-06,-0.0008311348296153303,0.0,0.0,0.0,0.0,0.0,0.0,0.0,-4.4657527234370775e-05,-0.00015773140545918135,2.1367696448136575e-05,0.00021305720011399742,1.2608681822769141e-05,-1.4241536461234716e-06,-1.0641399357247394e-06,0.00024410348251811904,-0.0001949324579692878,3.388397674505315e-05,-0.00027447239160808363,5.70853851443704e-05,-5.4278830622154055e-06,0.0008311348296153303,0.2720577120780945,22.696680068969727,-0.02542426437139511,-14.080232620239258,-0.2126975655555725,-2.1325716972351074,0.23471395671367645,0
17,0.08000826835632324,-0.2720577120780945,-22.696680068969727,0.02542426437139511,14.080232620239258,0.2126975655555725,2.1325716972351074,-0.23471395671367645,0.0,0.0,0.0,0.0,0.0,0.0,0.0,-0.2730468897437451,0.09890490646678311,-0.05244618422083357,0.20858664419783324,-0.01729263523744367,-0.05094055524705558,-0.26261498625929575,1.6755420122814646,0.05226205823032921,0.029948137412836917,-2.752607902326082,0.03423219530519203,2.7663693784607783,0.7691641174869404,1.6754973547542302,0.052104326824870026,0.029969505109285054,-2.752394845125968,0.0342448039870148,2.7663679543071322,0.7691630533470046,-0.00024410348251811904,0.0001949324579692878,-3.388397674505315e-05,0.00027447239160808363,-5.70853851443704e-05,5.4278830622154055e-06,-0.0008311348296153303,0.0,0.0,0.0,0.0,0.0,0.0,0.0,-4.4657527234370775e-05,-0.00015773140545918135,2.1367696448136575e-05,0.00021305720011399742,1.2608681822769141e-05,-1.4241536461234716e-06,-1.0641399357247394e-06,0.00024410348251811904,-0.0001949324579692878,3.388397674505315e-05,-0.00027447239160808363,5.70853851443704e-05,-5.4278830622154055e-06,0.0008311348296153303,0.2720577120780945,22.696680068969727,-0.02542426437139511,-14.080232620239258,-0.2126975655555725,-2.1325716972351074,0.23471395671367645,0
18,0.08555722236633301,-0.2998287081718445,-22.696680068969727,0.04922797530889511,14.108003616333008,0.2245994210243225,2.1325716972351074,-0.22830526530742645,0.0,0.0,0.0,0.0,0.0,0.0,0.0,-0.2704483863654661,0.09654363434856612,-0.05077294916714222,0.20959962296910575,-0.01816922932152271,-0.05155439967786268,-0.262686059391345,1.675546735803101,0.05226205823034571,0.029947510498235935,-2.7526098236958134,0.03423431860547881,2.7663693784607783,0.7691634054101174,1.6754973547542302,0.052104326824870026,0.029969505109285054,-2.752394845125968,0.0342448039870148,2.7663679543071322,0.7691630533470046,0.0008140645847308878,0.0003136398272983516,-0.0004609771551920117,-0.0007314751117783868,-0.0002866686946303461,5.898346294153647e-05,-0.0018502043886826967,0.0,0.0,0.0,0.0,0.0,0.0,0.0,-4.9381048870866806e-05,-0.00015773140547568204,2.199461104911843e-05,0.00021497856984531438,1.0485381535987881e-05,-1.4241536461234716e-06,-3.520631127740259e-07,-0.0008140645847308878,-0.0003136398272983516,0.0004609771551920117,0.0007314751117783868,0.0002866686946303461,-5.898346294153647e-05,0.0018502043886826967,0.2998287081718445,22.696680068969727,-0.04922797530889511,-14.108003616333008,-0.2245994210243225,-2.1325716972351074,0.22830526530742645,0
19,0.0899968147277832,-0.2998287081718445,-22.696680068969727,0.04922797530889511,14.108003616333008,0.2245994210243225,2.1325716972351074,-0.22830526530742645,0.0,0.0,0.0,0.0,0.0,0.0,0.0,-0.2704483863654661,0.09654363434856612,-0.05077294916714222,0.20959962296910575,-0.01816922932152271,-0.05155439967786268,-0.262686059391345,1.675546735803101,0.05226205823034571,0.029947510498235935,-2.7526098236958134,0.03423431860547881,2.7663693784607783,0.7691634054101174,1.6754973547542302,0.052104326824870026,0.029969505109285054,-2.752394845125968,0.0342448039870148,2.7663679543071322,0.7691630533470046,0.0008140645847308878,0.0003136398272983516,-0.0004609771551920117,-0.0007314751117783868,-0.0002866686946303461,5.898346294153647e-05,-0.0018502043886826967,0.0,0.0,0.0,0.0,0.0,0.0,0.0,-4.9381048870866806e-05,-0.00015773140547568204,2.199461104911843e-05,0.00021497856984531438,1.0485381535987881e-05,-1.4241536461234716e-06,-3.520631127740259e-07,-0.0008140645847308878,-0.0003136398272983516,0.0004609771551920117,0.0007314751117783868,0.0002866686946303461,-5.898346294153647e-05,0.0018502043886826967,0.2998287081718445,22.696680068969727,-0.04922797530889511,-14.108003616333008,-0.2245994210243225,-2.1325716972351074,0.22830526530742645,0
20,0.09499526023864746,-0.2720577120780945,-22.649072647094727,0.04922797530889511,14.108003616333008,0.2072044014930725,2.1389803886413574,-0.27591270208358765,0.0,0.0,0.0,0.0,0.0,0.0,0.0,-0.2742874702389157,0.09919751302771392,-0.05379689793440606,0.2118199435077257,-0.01709993825361144,-0.05204551937853408,-0.2635029471381489,1.6755448762252543,0.05225871735863518,0.029947408620229717,-2.752609851167861,0.03423268825605048,2.766368666383955,0.7691686818798382,1.6754973547542302,0.052104326824870026,0.029969505109285054,-2.752394845125968,0.0342448039870148,2.7663679543071322,0.7691630533470046,0.00023774307692583032,-0.0009800840169159573,-0.0010703506977792245,-0.0007881250322994266,0.00019629492745161728,-0.0003043588275513301,0.0008820535240092965,0.0,0.0,0.0,0.0,0.0,0.0,0.0,-4.752147102404791e-05,-0.00015439053376515438,2.209648905533712e-05,0.00021500604189306216,1.2115730964323834e-05,-7.120768228396912e-07,-5.628532833590327e-06,-0.00023774307692583032,0.0009800840169159573,0.0010703506977792245,0.0007881250322994266,-0.00019629492745161728,0.0003043588275513301,-0.0008820535240092965,0.2720577120780945,22.649072647094727,-0.04922797530889511,-14.108003616333008,-0.2072044014930725,-2.1389803886413574,0.27591270208358765,0
21,0.09999537467956543,-0.2720577120780945,-22.649072647094727,0.04922797530889511,14.108003616333008,0.2072044014930725,2.1389803886413574,-0.27591270208358765,0.0,0.0,0.0,0.0,0.0,0.0,0.0,-0.2742874702389157,0.09919751302771392,-0.05379689793440606,0.2118199435077257,-0.01709993825361144,-0.05204551937853408,-0.2635029471381489,1.6755448762252543,0.05225871735863518,0.029947408620229717,-2.752609851167861,0.03423268825605048,2.766368666383955,0.7691686818798382,1.6754973547542302,0.052104326824870026,0.029969505109285054,-2.752394845125968,0.0342448039870148,2.7663679543071322,0.7691630533470046,0.00023774307692583032,-0.0009800840169159573,-0.0010703506977792245,-0.0007881250322994266,0.00019629492745161728,-0.0003043588275513301,0.0008820535240092965,0.0,0.0,0.0,0.0,0.0,0.0,0.0,-4.752147102404791e-05,-0.00015439053376515438,2.209648905533712e-05,0.00021500604189306216,1.2115730964323834e-05,-7.120768228396912e-07,-5.628532833590327e-06,-0.00023774307692583032,0.0009800840169159573,0.0010703506977792245,0.0007881250322994266,-0.00019629492745161728,0.0003043588275513301,-0.0008820535240092965,0.2720577120780945,22.649072647094727,-0.04922797530889511,-14.108003616333008,-0.2072044014930725,-2.1389803886413574,0.27591270208358765,0
22,0.10500526428222656,-0.2720577120780945,-22.696680068969727,0.02542426437139511,14.108003616333008,0.2072044014930725,2.1389803886413574,-0.24844686686992645,0.0,0.0,0.0,0.0,0.0,0.0,0.0,-0.2712834160499194,0.09941828489813563,-0.05242673583441281,0.2151000332836964,-0.01786054748734374,-0.05181498218308271,-0.26361010074566804,1.675544867431443,0.05226205823034571,0.02994673453384233,-2.7526098236958134,0.0342328095537973,2.7663686794659075,0.7691656433657719,1.6754973547542302,0.052104326824870026,0.029969505109285054,-2.752394845125968,0.0342448039870148,2.7663679543071322,0.7691630533470046,-5.195761595039782e-05,0.0001116131270316583,0.00025670098224007384,-0.0008658982319805291,0.0003586709891403401,-0.000225823883478347,-0.0005554169424520167,0.0,0.0,0.0,0.0,0.0,0.0,0.0,-4.751267721281316e-05,-0.00015773140547568204,2.2770575442723068e-05,0.00021497856984531438,1.199443321749788e-05,-7.251587752499233e-07,-2.5900187672345254e-06,5.195761595039782e-05,-0.0001116131270316583,-0.00025670098224007384,0.0008658982319805291,-0.0003586709891403401,0.000225823883478347,0.0005554169424520167,0.2720577120780945,22.696680068969727,-0.02542426437139511,-14.108003616333008,-0.2072044014930725,-2.1389803886413574,0.24844686686992645,0
23,0.11089134216308594,-0.2720577120780945,-22.696680068969727,0.02542426437139511,14.108003616333008,0.2072044014930725,2.1389803886413574,-0.24844686686992645,0.0,0.0,0.0,0.0,0.0,0.0,0.0,-0.2712834160499194,0.09941828489813563,-0.05242673583441281,0.2151000332836964,-0.01786054748734374,-0.05181498218308271,-0.26361010074566804,1.675544867431443,0.05226205823034571,0.02994673453384233,-2.7526098236958134,0.0342328095537973,2.7663686794659075,0.7691656433657719,1.6754973547542302,0.052104326824870026,0.029969505109285054,-2.752394845125968,0.0342448039870148,2.7663679543071322,0.7691630533470046,-5.195761595039782e-05,0.0001116131270316583,0.00025670098224007384,-0.0008658982319805291,0.0003586709891403401,-0.000225823883478347,-0.0005554169424520167,0.0,0.0,0.0,0.0,0.0,0.0,0.0,-4.751267721281316e-05,-0.00015773140547568204,2.2770575442723068e-05,0.00021497856984531438,1.199443321749788e-05,-7.251587752499233e-07,-2.5900187672345254e-06,5.195761595039782e-05,-0.0001116131270316583,-0.00025670098224007384,0.0008658982319805291,-0.0003586709891403401,0.000225823883478347,0.0005554169424520167,0.2720577120780945,22.696680068969727,-0.02542426437139511,-14.108003616333008,-0.2072044014930725,-2.1389803886413574,0.24844686686992645,0
24,0.11500358581542969,-0.24825400114059448,-22.696680068969727,0.07303168624639511,14.080232620239258,0.2245994210243225,2.1389803886413574,-0.22830526530742645,0.0,0.0,0.0,0.0,0.0,0.0,0.0,-0.27117638622311185,0.10105477388341198,-0.05175270509146525,0.21831127600010397,-0.01811027324569036,-0.051295889678296264,-0.26320131937759955,1.6755432054988073,0.05226205823034571,0.029943368496673547,-2.7526079023259267,0.03423075547008816,2.766368666384029,0.7691623325265114,1.6754973547542302,0.052104326824870026,0.029969505109285054,-2.752394845125968,0.0342448039870148,2.7663679543071322,0.7691630533470046,-0.0005602352461378181,0.0002194549590539453,-0.000828483053567636,0.000220267899665703,-0.0003203977896545134,-0.0001002933506453478,-0.000899776644420745,0.0,0.0,0.0,0.0,0.0,0.0,0.0,-4.5850744577080604e-05,-0.00015773140547568204,2.6136612611506183e-05,0.0002130571999585662,1.4048516926642995e-05,-7.120768965585e-07,7.208204931830053e-07,0.0005602352461378181,-0.0002194549590539453,0.000828483053567636,-0.000220267899665703,0.0003203977896545134,0.0001002933506453478,0.000899776644420745,0.24825400114059448,22.696680068969727,-0.07303168624639511,-14.080232620239258,-0.2245994210243225,-2.1389803886413574,0.22830526530742645,0
25,0.1199948787689209,-0.24825400114059448,-22.696680068969727,0.07303168624639511,14.080232620239258,0.2245994210243225,2.1389803886413574,-0.22830526530742645,0.0,0.0,0.0,0.0,0.0,0.0,0.0,-0.27117638622311185,0.10105477388341198,-0.05175270509146525,0.21831127600010397,-0.01811027324569036,-0.051295889678296264,-0.26320131937759955,1.6755432054988073,0.05226205823034571,0.029943368496673547,-2.7526079023259267,0.03423075547008816,2.766368666384029,0.7691623325265114,1.6754973547542302,0.052104326824870026,0.029969505109285054,-2.752394845125968,0.0342448039870148,2.7663679543071322,0.7691630533470046,-0.0005602352461378181,0.0002194549590539453,-0.000828483053567636,0.000220267899665703,-0.0003203977896545134,-0.0001002933506453478,-0.000899776644420745,0.0,0.0,0.0,0.0,0.0,0.0,0.0,-4.5850744577080604e-05,-0.00015773140547568204,2.6136612611506183e-05,0.0002130571999585662,1.4048516926642995e-05,-7.120768965585e-07,7.208204931830053e-07,0.0005602352461378181,-0.0002194549590539453,0.000828483053567636,-0.000220267899665703,0.0003203977896545134,0.0001002933506453478,0.000899776644420745,0.24825400114059448,22.696680068969727,-0.07303168624639511,-14.080232620239258,-0.2245994210243225,-2.1389803886413574,0.22830526530742645,0
26,0.12499642372131348,-0.2720577120780945,-22.696680068969727,0.02542426437139511,14.131807327270508,0.2126975655555725,2.1389803886413574,-0.23471395671367645,0.0,0.0,0.0,0.0,0.0,0.0,0.0,-0.2718826161519283,0.09571967806816237,-0.054355028909636095,0.22428433407817525,-0.01772429600202634,-0.04964195096531283,-0.2602768601634019,1.6755445553905424,0.05226205823034571,0.02994823791612896,-2.752611521603768,0.034232435965129294,2.766368666383955,0.7691641174808839,1.6754973547542302,0.052104326824870026,0.029969505109285054,-2.752394845125968,0.0342448039870148,2.7663679543071322,0.7691630533470046,-2.0974992021075033e-05,-0.00014782822397152554,0.00023120824101135348,-0.0006131253634993539,0.00010566889110201117,-0.00011947518156016518,-0.0003831068781244988,0.0,0.0,0.0,0.0,0.0,0.0,0.0,-4.720063631213911e-05,-0.00015773140547568204,2.126719315609371e-05,0.000216676477799993,1.2368021885506009e-05,-7.120768228396912e-07,-1.0641338792360955e-06,2.0974992021075033e-05,0.00014782822397152554,-0.00023120824101135348,0.0006131253634993539,-0.00010566889110201117,0.00011947518156016518,0.0003831068781244988,0.2720577120780945,22.696680068969727,-0.02542426437139511,-14.131807327270508,-0.2126975655555725,-2.1389803886413574,0.23471395671367645,0
27,0.12999749183654785,-0.2720577120780945,-22.696680068969727,0.02542426437139511,14.131807327270508,0.2126975655555725,2.1389803886413574,-0.23471395671367645,0.0,0.0,0.0,0.0,0.0,0.0,0.0,-0.2718826161519283,0.09571967806816237,-0.054355028909636095,0.22428433407817525,-0.01772429600202634,-0.04964195096531283,-0.2602768601634019,1.6755445553905424,0.05226205823034571,0.02994823791612896,-2.752611521603768,0.034232435965129294,2.766368666383955,0.7691641174808839,1.6754973547542302,0.052104326824870026,0.029969505109285054,-2.752394845125968,0.0342448039870148,2.7663679543071322,0.7691630533470046,-2.0974992021075033e-05,-0.00014782822397152554,0.00023120824101135348,-0.0006131253634993539,0.00010566889110201117,-0.00011947518156016518,-0.0003831068781244988,0.0,0.0,0.0,0.0,0.0,0.0,0.0,-4.720063631213911e-05,-0.00015773140547568204,2.126719315609371e-05,0.000216676477799993,1.2368021885506009e-05,-7.120768228396912e-07,-1.0641338792360955e-06,2.0974992021075033e-05,0.00014782822397152554,-0.00023120824101135348,0.0006131253634993539,-0.00010566889110201117,0.00011947518156016518,0.0003831068781244988,0.2720577120780945,22.696680068969727,-0.02542426437139511,-14.131807327270508,-0.2126975655555725,-2.1389803886413574,0.23471395671367645,0
28,0.13586044311523438,-0.2720577120780945,-22.720483779907227,0.07303168624639511,14.080232620239258,0.2072044014930725,2.1389803886413574,-0.30337852239608765,0.0,0.0,0.0,0.0,0.0,0.0,0.0,-0.26962529722961576,0.1026756213202806,-0.05512506300036873,0.22021693961142744,-0.017768352523423795,-0.050478374949747294,-0.25814527752296224,1.6755439196277035,0.05226372866620097,0.029942683650297224,-2.7526081319143434,0.03423268680610966,2.766368666383955,0.769171746883127,1.6754973547542302,0.052104326824870026,0.029969505109285054,-2.752394845125968,0.0342448039870148,2.7663679543071322,0.7691630533470046,-0.00015334852173530997,0.0007849079300991905,-0.0012613036634276749,0.0006743164071873498,0.0002818716830172008,5.4558713751483726e-05,0.001836190991688724,0.0,0.0,0.0,0.0,0.0,0.0,0.0,-4.656487347332039e-05,-0.00015940184133094587,2.682145898783017e-05,0.0002132867883752887,1.2117180905137082e-05,-7.120768228396912e-07,-8.693536122317269e-06,0.00015334852173530997,-0.0007849079300991905,0.0012613036634276749,-0.0006743164071873498,-0.0002818716830172008,-5.4558713751483726e-05,-0.001836190991688724,0.2720577120780945,22.720483779907227,-0.07303168624639511,-14.080232620239258,-0.2072044014930725,-2.1389803886413574,0.30337852239608765,0
29,0.14000916481018066,-0.2720577120780945,-22.720483779907227,0.07303168624639511,14.080232620239258,0.2072044014930725,2.1389803886413574,-0.30337852239608765,0.0,0.0,0.0,0.0,0.0,0.0,0.0,-0.26962529722961576,0.1026756213202806,-0.05512506300036873,0.22021693961142744,-0.017768352523423795,-0.050478374949747294,-0.25814527752296224,1.6755439196277035,0.05226372866620097,0.029942683650297224,-2.7526081319143434,0.03423268680610966,2.766368666383955,0.769171746883127,1.6754973547542302,0.052104326824870026,0.029969505109285054,-2.752394845125968,0.0342448039870148,2.7663679543071322,0.7691630533470046,-0.00015334852173530997,0.0007849079300991905,-0.0012613036634276749,0.0006743164071873498,0.0002818716830172008,5.4558713751483726e-05,0.001836190991688724,0.0,0.0,0.0,0.0,0.0,0.0,0.0,-4.656487347332039e-05,-0.00015940184133094587,2.682145898783017e-05,0.0002132867883752887,1.2117180905137082e-05,-7.120768228396912e-07,-8.693536122317269e-06,0.00015334852173530997,-0.0007849079300991905,0.0012613036634276749,-0.0006743164071873498,-0.0002818716830172008,-5.4558713751483726e-05,-0.001836190991688724,0.2720577120780945,22.720483779907227,-0.07303168624639511,-14.080232620239258,-0.2072044014930725,-2.1389803886413574,0.30337852239608765,0
30,0.14503026008605957,-0.22445029020309448,-22.696680068969727,0.04922797530889511,14.056428909301758,0.2072044014930725,2.1325716972351074,-0.24112264811992645,0.0,0.0,0.0,0.0,0.0,0.0,0.0,-0.2665817663038479,0.1015012375076116,-0.050102089704648814,0.22197297527420473,-0.018531442833071697,-0.050147293719915255,-0.2591896412150074,1.6755405813880853,0.05226205823034571,0.02994647037177082,-2.7526062318903706,0.0342358830869198,2.7663693784607783,0.7691648295637633,1.6754973547542302,0.052104326824870026,0.029969505109285054,-2.752394845125968,0.0342448039870148,2.7663679543071322,0.7691630533470046,-0.0009037312524448937,2.0798972554051852e-05,-0.00023686211464645735,0.000996579222844369,0.00028762013594676745,0.00017468550067141893,-0.0014609095213300738,0.0,0.0,0.0,0.0,0.0,0.0,0.0,-4.322663385503134e-05,-0.00015773140547568204,2.303473751423535e-05,0.00021138676440246584,8.920900095001072e-06,-1.4241536461234716e-06,-1.776216758675453e-06,0.0009037312524448937,-2.0798972554051852e-05,0.00023686211464645735,-0.000996579222844369,-0.00028762013594676745,-0.00017468550067141893,0.0014609095213300738,0.22445029020309448,22.696680068969727,-0.04922797530889511,-14.056428909301758,-0.2072044014930725,-2.1325716972351074,0.24112264811992645,0
31,0.14999771118164062,-0.22445029020309448,-22.696680068969727,0.04922797530889511,14.056428909301758,0.2072044014930725,2.1325716972351074,-0.24112264811992645,0.0,0.0,0.0,0.0,0.0,0.0,0.0,-0.2665817663038479,0.1015012375076116,-0.050102089704648814,0.22197297527420473,-0.018531442833071697,-0.050147293719915255,-0.2591896412150074,1.6755405813880853,0.05226205823034571,0.02994647037177082,-2.7526062318903706,0.0342358830869198,2.7663693784607783,0.7691648295637633,1.6754973547542302,0.052104326824870026,0.029969505109285054,-2.752394845125968,0.0342448039870148,2.7663679543071322,0.7691630533470046,-0.0009037312524448937,2.0798972554051852e-05,-0.00023686211464645735,0.000996579222844369,0.00028762013594676745,0.00017468550067141893,-0.0014609095213300738,0.0,0.0,0.0,0.0,0.0,0.0,0.0,-4.322663385503134e-05,-0.00015773140547568204,2.303473751423535e-05,0.00021138676440246584,8.920900095001072e-06,-1.4241536461234716e-06,-1.776216758675453e-06,0.0009037312524448937,-2.0798972554051852e-05,0.00023686211464645735,-0.000996579222844369,-0.00028762013594676745,-0.00017468550067141893,0.0014609095213300738,0.22445029020309448,22.696680068969727,-0.04922797530889511,-14.056428909301758,-0.2072044014930725,-2.1325716972351074,0.24112264811992645,0
32,0.1549994945526123,-0.3236324191093445,-22.672876358032227,0.04922797530889511,14.080232620239258,0.2126975655555725,2.1453890800476074,-0.26217979192733765,0.0,0.0,0.0,0.0,0.0,0.0,0.0,-0.274091667824299,0.09738258711378087,-0.0551961869517913,0.22468394520655638,-0.01805383143746918,-0.04966573152730279,-0.2615578788636736,1.6755477768624818,0.05226038487149175,0.029945151638305946,-2.752607902326082,0.034232076454324405,2.7663679543071322,0.7691671692464086,1.6754973547542302,0.052104326824870026,0.029969505109285054,-2.752394845125968,0.0342448039870148,2.7663679543071322,0.7691630533470046,0.0013308879759786145,-0.0009068173296396945,-0.0009851485620398738,0.00032458458927978566,0.00023449723901108158,-0.00015950384183692276,-0.0003434276685830297,0.0,0.0,0.0,0.0,0.0,0.0,0.0,-5.042210825156879e-05,-0.00015605804662172096,2.4353470979107672e-05,0.00021305720011399742,1.2727532690395837e-05,0.0,-4.115899403966949e-06,-0.0013308879759786145,0.0009068173296396945,0.0009851485620398738,-0.00032458458927978566,-0.00023449723901108158,0.00015950384183692276,0.0003434276685830297,0.3236324191093445,22.672876358032227,-0.04922797530889511,-14.080232620239258,-0.2126975655555725,-2.1453890800476074,0.26217979192733765,0
33,0.15999817848205566,-0.3236324191093445,-22.672876358032227,0.04922797530889511,14.080232620239258,0.2126975655555725,2.1453890800476074,-0.26217979192733765,0.0,0.0,0.0,0.0,0.0,0.0,0.0,-0.274091667824299,0.09738258711378087,-0.0551961869517913,0.22468394520655638,-0.01805383143746918,-0.04966573152730279,-0.2615578788636736,1.6755477768624818,0.05226038487149175,0.029945151638305946,-2.752607902326082,0.034232076454324405,2.7663679543071322,0.7691671692464086,1.6754973547542302,0.052104326824870026,0.029969505109285054,-2.752394845125968,0.0342448039870148,2.7663679543071322,0.7691630533470046,0.0013308879759786145,-0.0009068173296396945,-0.0009851485620398738,0.00032458458927978566,0.00023449723901108158,-0.00015950384183692276,-0.0003434276685830297,0.0,0.0,0.0,0.0,0.0,0.0,0.0,-5.042210825156879e-05,-0.00015605804662172096,2.4353470979107672e-05,0.00021305720011399742,1.2727532690395837e-05,0.0,-4.115899403966949e-06,-0.0013308879759786145,0.0009068173296396945,0.0009851485620398738,-0.00032458458927978566,-0.00023449723901108158,0.00015950384183692276,0.0003434276685830297,0.3236324191093445,22.672876358032227,-0.04922797530889511,-14.080232620239258,-0.2126975655555725,-2.1453890800476074,0.26217979192733765,0
34,0.1650097370147705,-0.2720577120780945,-22.672876358032227,0.02542426437139511,14.080232620239258,0.2007957100868225,2.1325716972351074,-0.27591270208358765,0.0,0.0,0.0,0.0,0.0,0.0,0.0,-0.271158828520826,0.09931422198242684,-0.05288531407157716,0.22546914968119858,-0.01808724684441319,-0.0491702086187728,-0.2629035736626969,1.6755447879545267,0.05226038779447394,0.02994845710558112,-2.752607902326082,0.034233398864666725,2.7663693784607783,0.7691686951253148,1.6754973547542302,0.052104326824870026,0.029969505109285054,-2.752394845125968,0.0342448039870148,2.7663679543071322,0.7691630533470046,-8.349298494180127e-05,-0.0003798340581884238,-1.6377611940884547e-05,0.0002093568201945439,0.0004298920019559727,7.277758174026644e-05,0.0003907408221074475,0.0,0.0,0.0,0.0,0.0,0.0,0.0,-4.743320029643172e-05,-0.00015606096960391752,2.10480037039322e-05,0.00021305720011399742,1.140512234807517e-05,-1.4241536461234716e-06,-5.641778310194745e-06,8.349298494180127e-05,0.0003798340581884238,1.6377611940884547e-05,-0.0002093568201945439,-0.0004298920019559727,-7.277758174026644e-05,-0.0003907408221074475,0.2720577120780945,22.672876358032227,-0.02542426437139511,-14.080232620239258,-0.2007957100868225,-2.1325716972351074,0.27591270208358765,0
35,0.16999554634094238,-0.2720577120780945,-22.672876358032227,0.02542426437139511,14.080232620239258,0.2007957100868225,2.1325716972351074,-0.27591270208358765,0.0,0.0,0.0,0.0,0.0,0.0,0.0,-0.271158828520826,0.09931422198242684,-0.05288531407157716,0.22546914968119858,-0.01808724684441319,-0.0491702086187728,-0.2629035736626969,1.6755447879545267,0.05226038779447394,0.02994845710558112,-2.752607902326082,0.034233398864666725,2.7663693784607783,0.7691686951253148,1.6754973547542302,0.052104326824870026,0.029969505109285054,-2.752394845125968,0.0342448039870148,2.7663679543071322,0.7691630533470046,-8.349298494180127e-05,-0.0003798340581884238,-1.6377611940884547e-05,0.0002093568201945439,0.0004298920019559727,7.277758174026644e-05,0.0003907408221074475,0.0,0.0,0.0,0.0,0.0,0.0,0.0,-4.743320029643172e-05,-0.00015606096960391752,2.10480037039322e-05,0.00021305720011399742,1.140512234807517e-05,-1.4241536461234716e-06,-5.641778310194745e-06,8.349298494180127e-05,0.0003798340581884238,1.6377611940884547e-05,-0.0002093568201945439,-0.0004298920019559727,-7.277758174026644e-05,-0.0003907408221074475,0.2720577120780945,22.672876358032227,-0.02542426437139511,-14.080232620239258,-0.2007957100868225,-2.1325716972351074,0.27591270208358765,0
36,0.17499732971191406,-0.2998287081718445,-22.720483779907227,0.07303168624639511,14.080232620239258,0.2245994210243225,2.1389803886413574,-0.29605430364608765,0.0,0.0,0.0,0.0,0.0,0.0,0.0,-0.2709264261805838,0.09837057038717242,-0.05421019991764208,0.22433440300430157,-0.018397865737964723,-0.04941859159137685,-0.2620591444775789,1.6755468241219473,0.05226372866620097,0.029942656918603407,-2.752607902326082,0.03423395030697187,2.766368666383955,0.769170933081044,1.6754973547542302,0.052104326824870026,0.029969505109285054,-2.752394845125968,0.0342448039870148,2.7663679543071322,0.7691630533470046,0.0005828343725947182,0.0005158430342241105,-0.001063411716471302,1.6413992768542152e-05,-0.0004309239596566482,-0.00020226172130550534,0.0016665833850688745,0.0,0.0,0.0,0.0,0.0,0.0,0.0,-4.9469367717103196e-05,-0.00015940184133094587,2.684819068164701e-05,0.00021305720011399742,1.0853680042929859e-05,-7.120768228396912e-07,-7.879734039373254e-06,-0.0005828343725947182,-0.0005158430342241105,0.001063411716471302,-1.6413992768542152e-05,0.0004309239596566482,0.00020226172130550534,-0.0016665833850688745,0.2998287081718445,22.720483779907227,-0.07303168624639511,-14.080232620239258,-0.2245994210243225,-2.1389803886413574,0.29605430364608765,0
37,0.17999792098999023,-0.2998287081718445,-22.720483779907227,0.07303168624639511,14.080232620239258,0.2245994210243225,2.1389803886413574,-0.29605430364608765,0.0,0.0,0.0,0.0,0.0,0.0,0.0,-0.2709264261805838,0.09837057038717242,-0.05421019991764208,0.22433440300430157,-0.018397865737964723,-0.04941859159137685,-0.2620591444775789,1.6755468241219473,0.05226372866620097,0.029942656918603407,-2.752607902326082,0.03423395030697187,2.766368666383955,0.769170933081044,1.6754973547542302,0.052104326824870026,0.029969505109285054,-2.752394845125968,0.0342448039870148,2.7663679543071322,0.7691630533470046,0.0005828343725947182,0.0005158430342241105,-0.001063411716471302,1.6413992768542152e-05,-0.0004309239596566482,-0.00020226172130550534,0.0016665833850688745,0.0,0.0,0.0,0.0,0.0,0.0,0.0,-4.9469367717103196e-05,-0.00015940184133094587,2.684819068164701e-05,0.00021305720011399742,1.0853680042929859e-05,-7.120768228396912e-07,-7.879734039373254e-06,-0.0005828343725947182,-0.0005158430342241105,0.001063411716471302,-1.6413992768542152e-05,0.0004309239596566482,0.00020226172130550534,-0.0016665833850688745,0.2998287081718445,22.720483779907227,-0.07303168624639511,-14.080232620239258,-0.2245994210243225,-2.1389803886413574,0.29605430364608765,0
38,0.1849968433380127,-0.2998287081718445,-22.672876358032227,0.04922797530889511,14.108003616333008,0.2072044014930725,2.1389803886413574,-0.27591270208358765,0.0,0.0,0.0,0.0,0.0,0.0,0.0,-0.26921705651487626,0.10201526900390846,-0.05302315030475321,0.220876403303583,-0.018388636972958478,-0.050137606831085056,-0.26037395226103394,1.6755465866850077,0.052260387794490444,0.02994672131259569,-2.752609851167913,0.034233752238912264,2.766368666383955,0.7691686951253148,1.6754973547542302,0.052104326824870026,0.029969505109285054,-2.752394845125968,0.0342448039870148,2.7663679543071322,0.7691630533470046,0.0002909763799571618,-0.000470375567717926,-0.00020930799572866816,-0.0009211398138225567,0.00019151797429593702,-0.0004504860530438958,0.0012701979438634698,0.0,0.0,0.0,0.0,0.0,0.0,0.0,-4.923193077743804e-05,-0.0001560609696204182,2.278379668936223e-05,0.0002150060419450206,1.1051748102536285e-05,-7.120768228396912e-07,-5.641778310194745e-06,-0.0002909763799571618,0.000470375567717926,0.00020930799572866816,0.0009211398138225567,-0.00019151797429593702,0.0004504860530438958,-0.0012701979438634698,0.2998287081718445,22.672876358032227,-0.04922797530889511,-14.108003616333008,-0.2072044014930725,-2.1389803886413574,0.27591270208358765,0
39,0.1900022029876709,-0.2998287081718445,-22.672876358032227,0.04922797530889511,14.108003616333008,0.2072044014930725,2.1389803886413574,-0.27591270208358765,0.0,0.0,0.0,0.0,0.0,0.0,0.0,-0.26921705651487626,0.10201526900390846,-0.05302315030475321,0.220876403303583,-0.018388636972958478,-0.050137606831085056,-0.26037395226103394,1.6755465866850077,0.052260387794490444,0.02994672131259569,-2.752609851167913,0.034233752238912264,2.766368666383955,0.7691686951253148,1.6754973547542302,0.052104326824870026,0.029969505109285054,-2.752394845125968,0.0342448039870148,2.7663679543071322,0.7691630533470046,0.0002909763799571618,-0.000470375567717926,-0.00020930799572866816,-0.0009211398138225567,0.00019151797429593702,-0.0004504860530438958,0.0012701979438634698,0.0,0.0,0.0,0.0,0.0,0.0,0.0,-4.923193077743804e-05,-0.0001560609696204182,2.278379668936223e-05,0.0002150060419450206,1.1051748102536285e-05,-7.120768228396912e-07,-5.641778310194745e-06,-0.0002909763799571618,0.000470375567717926,0.00020930799572866816,0.0009211398138225567,-0.00019151797429593702,0.0004504860530438958,-0.0012701979438634698,0.2998287081718445,22.672876358032227,-0.04922797530889511,-14.108003616333008,-0.2072044014930725,-2.1389803886413574,0.27591270208358765,0
40,0.19501090049743652,-0.2998287081718445,-22.696680068969727,-0.02615044265985489,14.080232620239258,0.2191062569618225,2.1325716972351074,-0.30337852239608765,0.0,0.0,0.0,0.0,0.0,0.0,0.0,-0.27334903274768824,0.10019629717932049,-0.0550553991079728,0.22268591156608053,-0.018163533804019028,-0.049741546292271385,-0.2583481510912812,1.675546797593808,0.05226205823034571,0.02995248788538951,-2.752607902326082,0.03423468050749549,2.7663693784607783,0.7691717336376507,1.6754973547542302,0.052104326824870026,0.029969505109285054,-2.752394845125968,0.0342448039870148,2.7663679543071322,0.7691630533470046,0.0006033810627694873,0.00017929843394341542,0.001183930336914163,7.292261135970137e-05,-0.00029530469433487354,1.622091317569502e-05,0.0018494161541277325,0.0,0.0,0.0,0.0,0.0,0.0,0.0,-4.944283957786233e-05,-0.00015773140547568204,1.701722389554211e-05,0.00021305720011399742,1.0123479519313916e-05,-1.4241536461234716e-06,-8.680290646045918e-06,-0.0006033810627694873,-0.00017929843394341542,-0.001183930336914163,-7.292261135970137e-05,0.00029530469433487354,-1.622091317569502e-05,-0.0018494161541277325,0.2998287081718445,22.696680068969727,0.02615044265985489,-14.080232620239258,-0.2191062569618225,-2.1325716972351074,0.30337852239608765,0
41,0.20000171661376953,-0.2998287081718445,-22.696680068969727,-0.02615044265985489,14.080232620239258,0.2191062569618225,2.1325716972351074,-0.30337852239608765,0.0,0.0,0.0,0.0,0.0,0.0,0.0,-0.27334903274768824,0.10019629717932049,-0.0550553991079728,0.22268591156608053,-0.018163533804019028,-0.049741546292271385,-0.2583481510912812,1.675546797593808,0.05226205823034571,0.02995248788538951,-2.752607902326082,0.03423468050749549,2.7663693784607783,0.7691717336376507,1.6754973547542302,0.052104326824870026,0.029969505109285054,-2.752394845125968,0.0342448039870148,2.7663679543071322,0.7691630533470046,0.0006033810627694873,0.00017929843394341542,0.001183930336914163,7.292261135970137e-05,-0.00029530469433487354,1.622091317569502e-05,0.0018494161541277325,0.0,0.0,0.0,0.0,0.0,0.0,0.0,-4.944283957786233e-05,-0.00015773140547568204,1.701722389554211e-05,0.00021305720011399742,1.0123479519313916e-05,-1.4241536461234716e-06,-8.680290646045918e-06,-0.0006033810627694873,-0.00017929843394341542,-0.001183930336914163,-7.292261135970137e-05,0.00029530469433487354,-1.622091317569502e-05,-0.0018494161541277325,0.2998287081718445,22.696680068969727,0.02615044265985489,-14.080232620239258,-0.2191062569618225,-2.1325716972351074,0.30337852239608765,0
42,0.20531344413757324,-0.2998287081718445,-22.696680068969727,-0.02615044265985489,14.080232620239258,0.2191062569618225,2.1325716972351074,-0.30337852239608765,0.0,0.0,0.0,0.0,0.0,0.0,0.0,-0.27334903274768824,0.10019629717932049,-0.0550553991079728,0.22268591156608053,-0.018163533804019028,-0.049741546292271385,-0.2583481510912812,1.675546797593808,0.05226205823034571,0.02995248788538951,-2.752607902326082,0.03423468050749549,2.7663693784607783,0.7691717336376507,1.6754973547542302,0.052104326824870026,0.029969505109285054,-2.752394845125968,0.0342448039870148,2.7663679543071322,0.7691630533470046,0.0006033810627694873,0.00017929843394341542,0.001183930336914163,7.292261135970137e-05,-0.00029530469433487354,1.622091317569502e-05,0.0018494161541277325,0.0,0.0,0.0,0.0,0.0,0.0,0.0,-4.944283957786233e-05,-0.00015773140547568204,1.701722389554211e-05,0.00021305720011399742,1.0123479519313916e-05,-1.4241536461234716e-06,-8.680290646045918e-06,-0.0006033810627694873,-0.00017929843394341542,-0.001183930336914163,-7.292261135970137e-05,0.00029530469433487354,-1.622091317569502e-05,-0.0018494161541277325,0.2998287081718445,22.696680068969727,0.02615044265985489,-14.080232620239258,-0.2191062569618225,-2.1325716972351074,0.30337852239608765,0
43,0.21001458168029785,-0.2998287081718445,-22.696680068969727,-0.02615044265985489,14.080232620239258,0.2191062569618225,2.1325716972351074,-0.30337852239608765,0.0,0.0,0.0,0.0,0.0,0.0,0.0,-0.27334903274768824,0.10019629717932049,-0.0550553991079728,0.22268591156608053,-0.018163533804019028,-0.049741546292271385,-0.2583481510912812,1.675546797593808,0.05226205823034571,0.02995248788538951,-2.752607902326082,0.03423468050749549,2.7663693784607783,0.7691717336376507,1.6754973547542302,0.052104326824870026,0.029969505109285054,-2.752394845125968,0.0342448039870148,2.7663679543071322,0.7691630533470046,0.0006033810627694873,0.00017929843394341542,0.001183930336914163,7.292261135970137e-05,-0.00029530469433487354,1.622091317569502e-05,0.0018494161541277325,0.0,0.0,0.0,0.0,0.0,0.0,0.0,-4.944283957786233e-05,-0.00015773140547568204,1.701722389554211e-05,0.00021305720011399742,1.0123479519313916e-05,-1.4241536461234716e-06,-8.680290646045918e-06,-0.0006033810627694873,-0.00017929843394341542,-0.001183930336914163,-7.292261135970137e-05,0.00029530469433487354,-1.622091317569502e-05,-0.0018494161541277325,0.2998287081718445,22.696680068969727,0.02615044265985489,-14.080232620239258,-0.2191062569618225,-2.1325716972351074,0.30337852239608765,0
44,0.21500277519226074,-0.2998287081718445,-22.696680068969727,0.02542426437139511,14.108003616333008,0.2126975655555725,2.1453890800476074,-0.28232139348983765,0.0,0.0,0.0,0.0,0.0,0.0,0.0,-0.27306318834066223,0.09996475293123296,-0.054796676293196574,0.22410421981040973,-0.018239495940380806,-0.049662199381511146,-0.2596921708117626,1.675546574911101,0.05226205823034571,0.029949112121447,-2.752609851167913,0.034232080893628614,2.7663679543071322,0.7691694072020631,1.6754973547542302,0.052104326824870026,0.029969505109285054,-2.752394845125968,0.0342448039870148,2.7663679543071322,0.7691630533470046,0.0008152750940624376,-4.0058844962656276e-05,-0.0002465114331497548,-0.00018349420658844376,0.000189776514263296,-0.0002147937713483454,0.00047854333386326137,0.0,0.0,0.0,0.0,0.0,0.0,0.0,-4.922015687069958e-05,-0.00015773140547568204,2.0392987838051962e-05,0.0002150060419450206,1.2723093386186879e-05,0.0,-6.353855058427449e-06,-0.0008152750940624376,4.0058844962656276e-05,0.0002465114331497548,0.00018349420658844376,-0.000189776514263296,0.0002147937713483454,-0.00047854333386326137,0.2998287081718445,22.696680068969727,-0.02542426437139511,-14.108003616333008,-0.2126975655555725,-2.1453890800476074,0.28232139348983765,0
45,0.22001051902770996,-0.2998287081718445,-22.696680068969727,0.02542426437139511,14.108003616333008,0.2126975655555725,2.1453890800476074,-0.28232139348983765,0.0,0.0,0.0,0.0,0.0,0.0,0.0,-0.27306318834066223,0.09996475293123296,-0.054796676293196574,0.22410421981040973,-0.018239495940380806,-0.049662199381511146,-0.2596921708117626,1.675546574911101,0.05226205823034571,0.029949112121447,-2.752609851167913,0.034232080893628614,2.7663679543071322,0.7691694072020631,1.6754973547542302,0.052104326824870026,0.029969505109285054,-2.752394845125968,0.0342448039870148,2.7663679543071322,0.7691630533470046,0.0008152750940624376,-4.0058844962656276e-05,-0.0002465114331497548,-0.00018349420658844376,0.000189776514263296,-0.0002147937713483454,0.00047854333386326137,0.0,0.0,0.0,0.0,0.0,0.0,0.0,-4.922015687069958e-05,-0.00015773140547568204,2.0392987838051962e-05,0.0002150060419450206,1.2723093386186879e-05,0.0,-6.353855058427449e-06,-0.0008152750940624376,4.0058844962656276e-05,0.0002465114331497548,0.00018349420658844376,-0.000189776514263296,0.0002147937713483454,-0.00047854333386326137,0.2998287081718445,22.696680068969727,-0.02542426437139511,-14.108003616333008,-0.2126975655555725,-2.1453890800476074,0.28232139348983765,0
46,0.22499871253967285,-0.2998287081718445,-22.621301651000977,0.02542426437139511,14.080232620239258,0.2191062569618225,2.1389803886413574,-0.26858848333358765,0.0,0.0,0.0,0.0,0.0,0.0,0.0,-0.2754177761930235,0.10361538174287743,-0.0571643127722929,0.22070377160838345,-0.017747227085652215,-0.04959720331015792,-0.26197325473103045,1.6755465598655988,0.05225676851680404,0.029948374191952856,-2.752607902326082,0.034231364413613054,2.766368666383955,0.7691678813232314,1.6754973547542302,0.052104326824870026,0.029969505109285054,-2.752394845125968,0.0342448039870148,2.7663679543071322,0.7691630533470046,0.0004931747915432903,-0.001783710705353333,0.0001826251883127126,0.0001389478944922556,1.8895840744861498e-05,-0.00023125208888411742,2.1220944357450075e-05,0.0,0.0,0.0,0.0,0.0,0.0,0.0,-4.9205111368522125e-05,-0.00015244169193401325,2.1130917332197463e-05,0.00021305720011399742,1.343957340174673e-05,-7.120768228396912e-07,-4.827976226806641e-06,-0.0004931747915432903,0.001783710705353333,-0.0001826251883127126,-0.0001389478944922556,-1.8895840744861498e-05,0.00023125208888411742,-2.1220944357450075e-05,0.2998287081718445,22.621301651000977,-0.02542426437139511,-14.080232620239258,-0.2191062569618225,-2.1389803886413574,0.26858848333358765,0
47,0.22999882698059082,-0.2998287081718445,-22.621301651000977,0.02542426437139511,14.080232620239258,0.2191062569618225,2.1389803886413574,-0.26858848333358765,0.0,0.0,0.0,0.0,0.0,0.0,0.0,-0.2754177761930235,0.10361538174287743,-0.0571643127722929,0.22070377160838345,-0.017747227085652215,-0.04959720331015792,-0.26197325473103045,1.6755465598655988,0.05225676851680404,0.029948374191952856,-2.752607902326082,0.034231364413613054,2.766368666383955,0.7691678813232314,1.6754973547542302,0.052104326824870026,0.029969505109285054,-2.752394845125968,0.0342448039870148,2.7663679543071322,0.7691630533470046,0.0004931747915432903,-0.001783710705353333,0.0001826251883127126,0.0001389478944922556,1.8895840744861498e-05,-0.00023125208888411742,2.1220944357450075e-05,0.0,0.0,0.0,0.0,0.0,0.0,0.0,-4.9205111368522125e-05,-0.00015244169193401325,2.1130917332197463e-05,0.00021305720011399742,1.343957340174673e-05,-7.120768228396912e-07,-4.827976226806641e-06,-0.0004931747915432903,0.001783710705353333,-0.0001826251883127126,-0.0001389478944922556,-1.8895840744861498e-05,0.00023125208888411742,-2.1220944357450075e-05,0.2998287081718445,22.621301651000977,-0.02542426437139511,-14.080232620239258,-0.2191062569618225,-2.1389803886413574,0.26858848333358765,0
48,0.23500633239746094,-0.2720577120780945,-22.748254776000977,0.02542426437139511,14.131807327270508,0.2126975655555725,2.1389803886413574,-0.23471395671367645,0.0,0.0,0.0,0.0,0.0,0.0,0.0,-0.2732722887181177,0.10075314794360563,-0.05454267545818603,0.22233912055892235,-0.017534050848891133,-0.04936554445985138,-0.26436418544578144,1.6755448671028972,0.05226567750803211,0.029948865251568455,-2.7526115216037685,0.03423349771733353,2.766368666383955,0.7691641174869404,1.6754973547542302,0.052104326824870026,0.029969505109285054,-2.752394845125968,0.0342448039870148,2.7663679543071322,0.7691630533470046,0.0001341901411646624,0.0014915485102145562,-0.0001369572818492925,-0.0012395583809339705,0.00011441969887544935,-0.00010732223681940519,-0.0014382424638307168,0.0,0.0,0.0,0.0,0.0,0.0,0.0,-4.751234866695597e-05,-0.000161350683162087,2.0639857716598514e-05,0.00021667647780043708,1.1306269681272962e-05,-7.120768228396912e-07,-1.0641399357247394e-06,-0.0001341901411646624,-0.0014915485102145562,0.0001369572818492925,0.0012395583809339705,-0.00011441969887544935,0.00010732223681940519,0.0014382424638307168,0.2720577120780945,22.748254776000977,-0.02542426437139511,-14.131807327270508,-0.2126975655555725,-2.1389803886413574,0.23471395671367645,0
49,0.24001860618591309,-0.2720577120780945,-22.748254776000977,0.02542426437139511,14.131807327270508,0.2126975655555725,2.1389803886413574,-0.23471395671367645,0.0,0.0,0.0,0.0,0.0,0.0,0.0,-0.2732722887181177,0.10075314794360563,-0.05454267545818603,0.22233912055892235,-0.017534050848891133,-0.04936554445985138,-0.26436418544578144,1.6755448671028972,0.05226567750803211,0.029948865251568455,-2.7526115216037685,0.03423349771733353,2.766368666383955,0.7691641174869404,1.6754973547542302,0.052104326824870026,0.029969505109285054,-2.752394845125968,0.0342448039870148,2.7663679543071322,0.7691630533470046,0.0001341901411646624,0.0014915485102145562,-0.0001369572818492925,-0.0012395583809339705,0.00011441969887544935,-0.00010732223681940519,-0.0014382424638307168,0.0,0.0,0.0,0.0,0.0,0.0,0.0,-4.751234866695597e-05,-0.000161350683162087,2.0639857716598514e-05,0.00021667647780043708,1.1306269681272962e-05,-7.120768228396912e-07,-1.0641399357247394e-06,-0.0001341901411646624,-0.0014915485102145562,0.0001369572818492925,0.0012395583809339705,-0.00011441969887544935,0.00010732223681940519,0.0014382424638307168,0.2720577120780945,22.748254776000977,-0.02542426437139511,-14.131807327270508,-0.2126975655555725,-2.1389803886413574,0.23471395671367645,0
50,0.2449953556060791,-0.24825400114059448,-22.696680068969727,0.04922797530889511,14.131807327270508,0.2191062569618225,2.1261630058288574,-0.24844686686992645,0.0,0.0,0.0,0.0,0.0,0.0,0.0,-0.2741946079544999,0.10008801044821533,-0.05764369364589076,0.2229220107857067,-0.017397792453644166,-0.04932424870364307,-0.26598877175175545,1.6755410571152374,0.05226205823034571,0.029946694974916588,-2.7526115216037685,0.03423136484929913,2.766370090537601,0.7691656433658466,1.6754973547542302,0.052104326824870026,0.029969505109285054,-2.752394845125968,0.0342448039870148,2.7663679543071322,0.7691630533470046,-0.0005321406891875358,-1.9248998881234e-05,-0.0006050786898730244,-0.0013051496030972174,-0.00011589982386307132,0.00038930830043784305,-0.0005220976073744875,0.0,0.0,0.0,0.0,0.0,0.0,0.0,-4.370236100714742e-05,-0.00015773140547568204,2.281013436846585e-05,0.00021667647780043708,1.3439137715669236e-05,-2.136230468963163e-06,-2.590018841952535e-06,0.0005321406891875358,1.9248998881234e-05,0.0006050786898730244,0.0013051496030972174,0.00011589982386307132,-0.00038930830043784305,0.0005220976073744875,0.24825400114059448,22.696680068969727,-0.04922797530889511,-14.131807327270508,-0.2191062569618225,-2.1261630058288574,0.24844686686992645,0
51,0.2500271797180176,-0.24825400114059448,-22.696680068969727,0.04922797530889511,14.131807327270508,0.2191062569618225,2.1261630058288574,-0.24844686686992645,0.0,0.0,0.0,0.0,0.0,0.0,0.0,-0.2741946079544999,0.10008801044821533,-0.05764369364589076,0.2229220107857067,-0.017397792453644166,-0.04932424870364307,-0.26598877175175545,1.6755410571152374,0.05226205823034571,0.029946694974916588,-2.7526115216037685,0.03423136484929913,2.766370090537601,0.7691656433658466,1.6754973547542302,0.052104326824870026,0.029969505109285054,-2.752394845125968,0.0342448039870148,2.7663679543071322,0.7691630533470046,-0.0005321406891875358,-1.9248998881234e-05,-0.0006050786898730244,-0.0013051496030972174,-0.00011589982386307132,0.00038930830043784305,-0.0005220976073744875,0.0,0.0,0.0,0.0,0.0,0.0,0.0,-4.370236100714742e-05,-0.00015773140547568204,2.281013436846585e-05,0.00021667647780043708,1.3439137715669236e-05,-2.136230468963163e-06,-2.590018841952535e-06,0.0005321406891875358,1.9248998881234e-05,0.0006050786898730244,0.0013051496030972174,0.00011589982386307132,-0.00038930830043784305,0.0005220976073744875,0.24825400114059448,22.696680068969727,-0.04922797530889511,-14.131807327270508,-0.2191062569618225,-2.1261630058288574,0.24844686686992645,0
52,0.2550339698791504,-0.24825400114059448,-22.696680068969727,0.04922797530889511,14.131807327270508,0.2191062569618225,2.1261630058288574,-0.24844686686992645,0.0,0.0,0.0,0.0,0.0,0.0,0.0,-0.2741946079544999,0.10008801044821533,-0.05764369364589076,0.2229220107857067,-0.017397792453644166,-0.04932424870364307,-0.26598877175175545,1.6755410571152374,0.05226205823034571,0.029946694974916588,-2.7526115216037685,0.03423136484929913,2.766370090537601,0.7691656433658466,1.6754973547542302,0.052104326824870026,0.029969505109285054,-2.752394845125968,0.0342448039870148,2.7663679543071322,0.7691630533470046,-0.0005321406891875358,-1.9248998881234e-05,-0.0006050786898730244,-0.0013051496030972174,-0.00011589982386307132,0.00038930830043784305,-0.0005220976073744875,0.0,0.0,0.0,0.0,0.0,0.0,0.0,-4.370236100714742e-05,-0.00015773140547568204,2.281013436846585e-05,0.00021667647780043708,1.3439137715669236e-05,-2.136230468963163e-06,-2.590018841952535e-06,0.0005321406891875358,1.9248998881234e-05,0.0006050786898730244,0.0013051496030972174,0.00011589982386307132,-0.00038930830043784305,0.0005220976073744875,0.24825400114059448,22.696680068969727,-0.04922797530889511,-14.131807327270508,-0.2191062569618225,-2.1261630058288574,0.24844686686992645,0
53,0.26004576683044434,-0.2720577120780945,-22.748254776000977,0.02542426437139511,14.108003616333008,0.2191062569618225,2.1389803886413574,-0.22830526530742645,0.0,0.0,0.0,0.0,0.0,0.0,0.0,-0.26989667846090387,0.10176636364560118,-0.054058309067724734,0.2192456802990579,-0.017539148099295576,-0.0505366559378823,-0.26543498359188805,1.67554487483242,0.05226567750803211,0.029949180935378253,-2.752609851167913,0.03423137767534401,2.766368666383955,0.7691634054101174,1.6754973547542302,0.052104326824870026,0.029969505109285054,-2.752394845125968,0.0342448039870148,2.7663679543071322,0.7691630533470046,0.00046605695943231936,0.0010000961509610288,0.00011687267770764894,-0.00103575361115261,-0.0002995834511259876,-0.00032325704972527037,-0.0014482011901871482,0.0,0.0,0.0,0.0,0.0,0.0,0.0,-4.7520078189755566e-05,-0.000161350683162087,2.0324173906800802e-05,0.0002150060419450206,1.342631167079028e-05,-7.120768228396912e-07,-3.520631127740259e-07,-0.00046605695943231936,-0.0010000961509610288,-0.00011687267770764894,0.00103575361115261,0.0002995834511259876,0.00032325704972527037,0.0014482011901871482,0.2720577120780945,22.748254776000977,-0.02542426437139511,-14.108003616333008,-0.2191062569618225,-2.1389803886413574,0.22830526530742645,0
54,0.26505041122436523,-0.2720577120780945,-22.748254776000977,0.02542426437139511,14.108003616333008,0.2191062569618225,2.1389803886413574,-0.22830526530742645,0.0,0.0,0.0,0.0,0.0,0.0,0.0,-0.26989667846090387,0.10176636364560118,-0.054058309067724734,0.2192456802990579,-0.017539148099295576,-0.0505366559378823,-0.26543498359188805,1.67554487483242,0.05226567750803211,0.029949180935378253,-2.752609851167913,0.03423137767534401,2.766368666383955,0.7691634054101174,1.6754973547542302,0.052104326824870026,0.029969505109285054,-2.752394845125968,0.0342448039870148,2.7663679543071322,0.7691630533470046,0.00046605695943231936,0.0010000961509610288,0.00011687267770764894,-0.00103575361115261,-0.0002995834511259876,-0.00032325704972527037,-0.0014482011901871482,0.0,0.0,0.0,0.0,0.0,0.0,0.0,-4.7520078189755566e-05,-0.000161350683162087,2.0324173906800802e-05,0.0002150060419450206,1.342631167079028e-05,-7.120768228396912e-07,-3.520631127740259e-07,-0.00046605695943231936,-0.0010000961509610288,-0.00011687267770764894,0.00103575361115261,0.0002995834511259876,0.00032325704972527037,0.0014482011901871482,0.2720577120780945,22.748254776000977,-0.02542426437139511,-14.108003616333008,-0.2191062569618225,-2.1389803886413574,0.22830526530742645,0
55,0.2700185775756836,-0.2998287081718445,-22.672876358032227,0.001620553433895111,14.056428909301758,0.2191062569618225,2.1389803886413574,-0.22098104655742645,0.0,0.0,0.0,0.0,0.0,0.0,0.0,-0.26874246978543004,0.09660314380200256,-0.05697619632783805,0.22063264709570027,-0.01770057663737793,-0.050533188465795194,-0.2639517415868405,1.6755446705060546,0.052260387794490444,0.02995058974941052,-2.7526062318902267,0.03423138189752564,2.766368666383955,0.7691625916080341,1.6754973547542302,0.052104326824870026,0.029969505109285054,-2.752394845125968,0.0342448039870148,2.7663679543071322,0.7691630533470046,0.0010958291799331701,-0.001155868979513103,0.0006437372772211363,0.0004541808391296134,-0.0002841501440796096,-0.00030203067120999715,-0.0013652558845716953,0.0,0.0,0.0,0.0,0.0,0.0,0.0,-4.7315751824372754e-05,-0.0001560609696204182,1.8915359874534243e-05,0.00021138676425858094,1.3422089489158184e-05,-7.120768228396912e-07,4.617389705030561e-07,-0.0010958291799331701,0.001155868979513103,-0.0006437372772211363,-0.0004541808391296134,0.0002841501440796096,0.00030203067120999715,0.0013652558845716953,0.2998287081718445,22.672876358032227,-0.001620553433895111,-14.056428909301758,-0.2191062569618225,-2.1389803886413574,0.22098104655742645,0
56,0.2749934196472168,-0.2998287081718445,-22.672876358032227,0.001620553433895111,14.056428909301758,0.2191062569618225,2.1389803886413574,-0.22098104655742645,0.0,0.0,0.0,0.0,0.0,0.0,0.0,-0.26874246978543004,0.09660314380200256,-0.05697619632783805,0.22063264709570027,-0.01770057663737793,-0.050533188465795194,-0.2639517415868405,1.6755446705060546,0.052260387794490444,0.02995058974941052,-2.7526062318902267,0.03423138189752564,2.766368666383955,0.7691625916080341,1.6754973547542302,0.052104326824870026,0.029969505109285054,-2.752394845125968,0.0342448039870148,2.7663679543071322,0.7691630533470046,0.0010958291799331701,-0.001155868979513103,0.0006437372772211363,0.0004541808391296134,-0.0002841501440796096,-0.00030203067120999715,-0.0013652558845716953,0.0,0.0,0.0,0.0,0.0,0.0,0.0,-4.7315751824372754e-05,-0.0001560609696204182,1.8915359874534243e-05,0.00021138676425858094,1.3422089489158184e-05,-7.120768228396912e-07,4.617389705030561e-07,-0.0010958291799331701,0.001155868979513103,-0.0006437372772211363,-0.0004541808391296134,0.0002841501440796096,0.00030203067120999715,0.0013652558845716953,0.2998287081718445,22.672876358032227,-0.001620553433895111,-14.056428909301758,-0.2191062569618225,-2.1389803886413574,0.22098104655742645,0
57,0.28003883361816406,-0.3236324191093445,-22.720483779907227,0.02542426437139511,14.080232620239258,0.2245994210243225,2.1389803886413574,-0.23471395671367645,0.0,0.0,0.0,0.0,0.0,0.0,0.0,-0.26651156038157414,0.09953322682254795,-0.0569326537092392,0.21606200998937614,-0.017958904652337595,-0.05124497249818351,-0.2628659991442075,1.6755463455084383,0.05226372866620097,0.029945997829009512,-2.752607902326082,0.034235015740096235,2.766367606745826,0.7691641174869404,1.6754973547542302,0.052104326824870026,0.029969505109285054,-2.752394845125968,0.0342448039870148,2.7663679543071322,0.7691630533470046,0.0015183104608051557,0.0008903189446236551,8.599132143412527e-05,-0.0003919358854567226,-0.0003757315827995961,-0.00015613566184059327,-0.0013324930505620653,0.0,0.0,0.0,0.0,0.0,0.0,0.0,-4.8990754208055876e-05,-0.00015940184133094587,2.350728027554136e-05,0.00021305720011399742,9.788246918565613e-06,3.475613064019001e-07,-1.0641399357247394e-06,-0.0015183104608051557,-0.0008903189446236551,-8.599132143412527e-05,0.0003919358854567226,0.0003757315827995961,0.00015613566184059327,0.0013324930505620653,0.3236324191093445,22.720483779907227,-0.02542426437139511,-14.080232620239258,-0.2245994210243225,-2.1389803886413574,0.23471395671367645,0
58,0.28500795364379883,-0.3236324191093445,-22.720483779907227,0.02542426437139511,14.080232620239258,0.2245994210243225,2.1389803886413574,-0.23471395671367645,0.0,0.0,0.0,0.0,0.0,0.0,0.0,-0.26651156038157414,0.09953322682254795,-0.0569326537092392,0.21606200998937614,-0.017958904652337595,-0.05124497249818351,-0.2628659991442075,1.6755463455084383,0.05226372866620097,0.029945997829009512,-2.752607902326082,0.034235015740096235,2.766367606745826,0.7691641174869404,1.6754973547542302,0.052104326824870026,0.029969505109285054,-2.752394845125968,0.0342448039870148,2.7663679543071322,0.7691630533470046,0.0015183104608051557,0.0008903189446236551,8.599132143412527e-05,-0.0003919358854567226,-0.0003757315827995961,-0.00015613566184059327,-0.0013324930505620653,0.0,0.0,0.0,0.0,0.0,0.0,0.0,-4.8990754208055876e-05,-0.00015940184133094587,2.350728027554136e-05,0.00021305720011399742,9.788246918565613e-06,3.475613064019001e-07,-1.0641399357247394e-06,-0.0015183104608051557,-0.0008903189446236551,-8.599132143412527e-05,0.0003919358854567226,0.0003757315827995961,0.00015613566184059327,0.0013324930505620653,0.3236324191093445,22.720483779907227,-0.02542426437139511,-14.080232620239258,-0.2245994210243225,-2.1389803886413574,0.23471395671367645,0
59,0.2900049686431885,-0.2720577120780945,-22.672876358032227,0.02542426437139511,14.056428909301758,0.2126975655555725,2.1325716972351074,-0.27591270208358765,0.0,0.0,0.0,0.0,0.0,0.0,0.0,-0.27041223452114527,0.09213149268075468,-0.059053510881830446,0.22153900351285508,-0.01690584799966745,-0.05021764930715719,-0.2630058002880895,1.6755446373949798,0.05226038487149175,0.029946270914420675,-2.752606461478488,0.03423219630328542,2.7663693784547965,0.769165476474497,1.6754973547542302,0.052104326824870026,0.029969505109285054,-2.752394845125968,0.0342448039870148,2.7663679543071322,0.7691630533470046,-9.733460812119653e-05,-0.0007512368599897718,-9.404738865970232e-05,0.000872969341325204,0.00022987284802922253,-1.147245279098218e-05,-5.703601450574321e-06,0.0,0.0,0.0,0.0,0.0,0.0,0.0,-4.728264074960187e-05,-0.00015605804662172096,2.3234194864378555e-05,0.0002116163525198722,1.2607683729383423e-05,-1.424147664241815e-06,-2.423127492323651e-06,9.733460812119653e-05,0.0007512368599897718,9.404738865970232e-05,-0.000872969341325204,-0.00022987284802922253,1.147245279098218e-05,5.703601450574321e-06,0.2720577120780945,22.672876358032227,-0.02542426437139511,-14.056428909301758,-0.2126975655555725,-2.1325716972351074,0.27591270208358765,0
60,0.29500603675842285,-0.2720577120780945,-22.672876358032227,0.02542426437139511,14.056428909301758,0.2126975655555725,2.1325716972351074,-0.27591270208358765,0.0,0.0,0.0,0.0,0.0,0.0,0.0,-0.27041223452114527,0.09213149268075468,-0.059053510881830446,0.22153900351285508,-0.01690584799966745,-0.05021764930715719,-0.2630058002880895,1.6755446373949798,0.05226038487149175,0.029946270914420675,-2.752606461478488,0.03423219630328542,2.7663693784547965,0.769165476474497,1.6754973547542302,0.052104326824870026,0.029969505109285054,-2.752394845125968,0.0342448039870148,2.7663679543071322,0.7691630533470046,-9.733460812119653e-05,-0.0007512368599897718,-9.404738865970232e-05,0.000872969341325204,0.00022987284802922253,-1.147245279098218e-05,-5.703601450574321e-06,0.0,0.0,0.0,0.0,0.0,0.0,0.0,-4.728264074960187e-05,-0.00015605804662172096,2.3234194864378555e-05,0.0002116163525198722,1.2607683729383423e-05,-1.424147664241815e-06,-2.423127492323651e-06,9.733460812119653e-05,0.0007512368599897718,9.404738865970232e-05,-0.000872969341325204,-0.00022987284802922253,1.147245279098218e-05,5.703601450574321e-06,0.2720577120780945,22.672876358032227,-0.02542426437139511,-14.056428909301758,-0.2126975655555725,-2.1325716972351074,0.27591270208358765,0
61,0.3000156879425049,-0.2720577120780945,-22.720483779907227,0.04922797530889511,14.131807327270508,0.2126975655555725,2.1325716972351074,-0.26217979192733765,0.0,0.0,0.0,0.0,0.0,0.0,0.0,-0.2683980493676472,0.09347437550146802,-0.05774657093913662,0.21834528488936153,-0.01698861359123723,-0.05055993992052999,-0.2654467440681595,1.675541935293099,0.05226372866619547,0.029947171563168246,-2.7526115216042,0.034232076490636365,2.7663693784607783,0.7691671692403521,1.6754973547542302,0.052104326824870026,0.029969505109285054,-2.752394845125968,0.0342448039870148,2.7663679543071322,0.7691630533470046,-0.00026829319993230906,0.00020846229371790335,-0.0008035911940217409,-0.0013334133301909415,0.00011012104385736256,0.0001315632724404877,-0.00045675121749658225,0.0,0.0,0.0,0.0,0.0,0.0,0.0,-4.458053886868818e-05,-0.00015940184132544333,2.2333546116807407e-05,0.0002166764782320918,1.2727496378435454e-05,-1.4241536461234716e-06,-4.1158933474783055e-06,0.00026829319993230906,-0.00020846229371790335,0.0008035911940217409,0.0013334133301909415,-0.00011012104385736256,-0.0001315632724404877,0.00045675121749658225,0.2720577120780945,22.720483779907227,-0.04922797530889511,-14.131807327270508,-0.2126975655555725,-2.1325716972351074,0.26217979192733765,0
62,0.3050093650817871,-0.2720577120780945,-22.720483779907227,0.04922797530889511,14.131807327270508,0.2126975655555725,2.1325716972351074,-0.26217979192733765,0.0,0.0,0.0,0.0,0.0,0.0,0.0,-0.2683980493676472,0.09347437550146802,-0.05774657093913662,0.21834528488936153,-0.01698861359123723,-0.05055993992052999,-0.2654467440681595,1.675541935293099,0.05226372866619547,0.029947171563168246,-2.7526115216042,0.034232076490636365,2.7663693784607783,0.7691671692403521,1.6754973547542302,0.052104326824870026,0.029969505109285054,-2.752394845125968,0.0342448039870148,2.7663679543071322,0.7691630533470046,-0.00026829319993230906,0.00020846229371790335,-0.0008035911940217409,-0.0013334133301909415,0.00011012104385736256,0.0001315632724404877,-0.00045675121749658225,0.0,0.0,0.0,0.0,0.0,0.0,0.0,-4.458053886868818e-05,-0.00015940184132544333,2.2333546116807407e-05,0.0002166764782320918,1.2727496378435454e-05,-1.4241536461234716e-06,-4.1158933474783055e-06,0.00026829319993230906,-0.00020846229371790335,0.0008035911940217409,0.0013334133301909415,-0.00011012104385736256,-0.0001315632724404877,0.00045675121749658225,0.2720577120780945,22.720483779907227,-0.04922797530889511,-14.131807327270508,-0.2126975655555725,-2.1325716972351074,0.26217979192733765,0
63,0.3100161552429199,-0.2720577120780945,-22.720483779907227,0.04922797530889511,14.131807327270508,0.2126975655555725,2.1325716972351074,-0.26217979192733765,0.0,0.0,0.0,0.0,0.0,0.0,0.0,-0.2683980493676472,0.09347437550146802,-0.05774657093913662,0.21834528488936153,-0.01698861359123723,-0.05055993992052999,-0.2654467440681595,1.675541935293099,0.05226372866619547,0.029947171563168246,-2.7526115216042,0.034232076490636365,2.7663693784607783,0.7691671692403521,1.6754973547542302,0.052104326824870026,0.029969505109285054,-2.752394845125968,0.0342448039870148,2.7663679543071322,0.7691630533470046,-0.00026829319993230906,0.00020846229371790335,-0.0008035911940217409,-0.0013334133301909415,0.00011012104385736256,0.0001315632724404877,-0.00045675121749658225,0.0,0.0,0.0,0.0,0.0,0.0,0.0,-4.458053886868818e-05,-0.00015940184132544333,2.2333546116807407e-05,0.0002166764782320918,1.2727496378435454e-05,-1.4241536461234716e-06,-4.1158933474783055e-06,0.00026829319993230906,-0.00020846229371790335,0.0008035911940217409,0.0013334133301909415,-0.00011012104385736256,-0.0001315632724404877,0.00045675121749658225,0.2720577120780945,22.720483779907227,-0.04922797530889511,-14.131807327270508,-0.2126975655555725,-2.1325716972351074,0.26217979192733765,0
64,0.3150167465209961,-0.2720577120780945,-22.720483779907227,0.04922797530889511,14.131807327270508,0.2126975655555725,2.1325716972351074,-0.26217979192733765,0.0,0.0,0.0,0.0,0.0,0.0,0.0,-0.2683980493676472,0.09347437550146802,-0.05774657093913662,0.21834528488936153,-0.01698861359123723,-0.05055993992052999,-0.2654467440681595,1.675541935293099,0.05226372866619547,0.029947171563168246,-2.7526115216042,0.034232076490636365,2.7663693784607783,0.7691671692403521,1.6754973547542302,0.052104326824870026,0.029969505109285054,-2.752394845125968,0.0342448039870148,2.7663679543071322,0.7691630533470046,-0.00026829319993230906,0.00020846229371790335,-0.0008035911940217409,-0.0013334133301909415,0.00011012104385736256,0.0001315632724404877,-0.00045675121749658225,0.0,0.0,0.0,0.0,0.0,0.0,0.0,-4.458053886868818e-05,-0.00015940184132544333,2.2333546116807407e-05,0.0002166764782320918,1.2727496378435454e-05,-1.4241536461234716e-06,-4.1158933474783055e-06,0.00026829319993230906,-0.00020846229371790335,0.0008035911940217409,0.0013334133301909415,-0.00011012104385736256,-0.0001315632724404877,0.00045675121749658225,0.2720577120780945,22.720483779907227,-0.04922797530889511,-14.131807327270508,-0.2126975655555725,-2.1325716972351074,0.26217979192733765,0
65,0.31999921798706055,-0.2720577120780945,-22.696680068969727,0.04922797530889511,14.032625198364258,0.2126975655555725,2.1325716972351074,-0.25485557317733765,0.0,0.0,0.0,0.0,0.0,0.0,0.0,-0.2680252375010828,0.09276141446950704,-0.05681772479460154,0.22094043672966743,-0.01700633501151288,-0.04970217502166304,-0.2670880247427472,1.6755440810804971,0.05226205823034571,0.029947282508314913,-2.7526045607518217,0.03423207643628151,2.7663693784607783,0.7691663554443252,1.6754973547542302,0.052104326824870026,0.029969505109285054,-2.752394845125968,0.0342448039870148,2.7663679543071322,0.7691630533470046,-0.0002742405948151666,-0.00012330618099563726,-0.000758886955047042,0.0014760940236325142,0.00029715650761712664,0.0003100526575382415,-0.0006947217528498054,0.0,0.0,0.0,0.0,0.0,0.0,0.0,-4.672632626689932e-05,-0.00015773140547568204,2.2222600970140532e-05,0.00020971562585359038,1.2727550733289406e-05,-1.4241536461234716e-06,-3.302097320578845e-06,0.0002742405948151666,0.00012330618099563726,0.000758886955047042,-0.0014760940236325142,-0.00029715650761712664,-0.0003100526575382415,0.0006947217528498054,0.2720577120780945,22.696680068969727,-0.04922797530889511,-14.032625198364258,-0.2126975655555725,-2.1325716972351074,0.25485557317733765,0
66,0.3250131607055664,-0.2720577120780945,-22.696680068969727,0.04922797530889511,14.032625198364258,0.2126975655555725,2.1325716972351074,-0.25485557317733765,0.0,0.0,0.0,0.0,0.0,0.0,0.0,-0.2680252375010828,0.09276141446950704,-0.05681772479460154,0.22094043672966743,-0.01700633501151288,-0.04970217502166304,-0.2670880247427472,1.6755440810804971,0.05226205823034571,0.029947282508314913,-2.7526045607518217,0.03423207643628151,2.7663693784607783,0.7691663554443252,1.6754973547542302,0.052104326824870026,0.029969505109285054,-2.752394845125968,0.0342448039870148,2.7663679543071322,0.7691630533470046,-0.0002742405948151666,-0.00012330618099563726,-0.000758886955047042,0.0014760940236325142,0.00029715650761712664,0.0003100526575382415,-0.0006947217528498054,0.0,0.0,0.0,0.0,0.0,0.0,0.0,-4.672632626689932e-05,-0.00015773140547568204,2.2222600970140532e-05,0.00020971562585359038,1.2727550733289406e-05,-1.4241536461234716e-06,-3.302097320578845e-06,0.0002742405948151666,0.00012330618099563726,0.000758886955047042,-0.0014760940236325142,-0.00029715650761712664,-0.0003100526575382415,0.0006947217528498054,0.2720577120780945,22.696680068969727,-0.04922797530889511,-14.032625198364258,-0.2126975655555725,-2.1325716972351074,0.25485557317733765,0
67,0.3299977779388428,-0.2998287081718445,-22.696680068969727,0.02542426437139511,14.080232620239258,0.2191062569618225,2.1453890800476074,-0.28232139348983765,0.0,0.0,0.0,0.0,0.0,0.0,0.0,-0.270797327061588,0.1016496687896768,-0.05996887502287761,0.21679445154552662,-0.016234930784452456,-0.04949906308213088,-0.26658718356764444,1.6755468221193255,0.05226205823034571,0.029948404503633383,-2.752607902326078,0.034231377567082034,2.7663679543071322,0.7691694072021378,1.6754973547542302,0.052104326824870026,0.029969505109285054,-2.752394845125968,0.0342448039870148,2.7663679543071322,0.7691630533470046,0.001029598788891333,0.0005702664089053747,-0.00032630785434733823,5.919687017965406e-05,-0.00022705327650584758,-0.00035978379943526904,0.0005968578476713049,0.0,0.0,0.0,0.0,0.0,0.0,0.0,-4.9467365095257065e-05,-0.00015773140547568204,2.1100605651670767e-05,0.00021305720011000062,1.3426419932766054e-05,0.0,-6.3538551331454585e-06,-0.001029598788891333,-0.0005702664089053747,0.00032630785434733823,-5.919687017965406e-05,0.00022705327650584758,0.00035978379943526904,-0.0005968578476713049,0.2998287081718445,22.696680068969727,-0.02542426437139511,-14.080232620239258,-0.2191062569618225,-2.1453890800476074,0.28232139348983765,0
68,0.33504295349121094,-0.2998287081718445,-22.696680068969727,0.02542426437139511,14.080232620239258,0.2191062569618225,2.1453890800476074,-0.28232139348983765,0.0,0.0,0.0,0.0,0.0,0.0,0.0,-0.270797327061588,0.1016496687896768,-0.05996887502287761,0.21679445154552662,-0.016234930784452456,-0.04949906308213088,-0.26658718356764444,1.6755468221193255,0.05226205823034571,0.029948404503633383,-2.752607902326078,0.034231377567082034,2.7663679543071322,0.7691694072021378,1.6754973547542302,0.052104326824870026,0.029969505109285054,-2.752394845125968,0.0342448039870148,2.7663679543071322,0.7691630533470046,0.001029598788891333,0.0005702664089053747,-0.00032630785434733823,5.919687017965406e-05,-0.00022705327650584758,-0.00035978379943526904,0.0005968578476713049,0.0,0.0,0.0,0.0,0.0,0.0,0.0,-4.9467365095257065e-05,-0.00015773140547568204,2.1100605651670767e-05,0.00021305720011000062,1.3426419932766054e-05,0.0,-6.3538551331454585e-06,-0.001029598788891333,-0.0005702664089053747,0.00032630785434733823,-5.919687017965406e-05,0.00022705327650584758,0.00035978379943526904,-0.0005968578476713049,0.2998287081718445,22.696680068969727,-0.02542426437139511,-14.080232620239258,-0.2191062569618225,-2.1453890800476074,0.28232139348983765,0
69,0.34001851081848145,-0.24825400114059448,-22.672876358032227,0.04922797530889511,14.056428909301758,0.2126975655555725,2.1389803886413574,-0.28964561223983765,0.0,0.0,0.0,0.0,0.0,0.0,0.0,-0.2659563294709142,0.10021208323967276,-0.059194873954804834,0.21905106541289734,-0.0169276988614306,-0.0485633671898227,-0.2657776751756435,1.675543205389824,0.052260387794490444,0.02994743493481437,-2.7526062318902262,0.034232076436355764,2.766368666383955,0.769170221004221,1.6754973547542302,0.052104326824870026,0.029969505109285054,-2.752394845125968,0.0342448039870148,2.7663679543071322,0.7691630533470046,-0.0005244903840267589,-0.0003583443830779029,-0.00020167271125173577,0.0007104532597775289,-0.00010884252360782183,6.280060342485283e-05,0.0016332845588041501,0.0,0.0,0.0,0.0,0.0,0.0,0.0,-4.585063559381375e-05,-0.0001560609696204182,2.2070174470683462e-05,0.00021138676425813685,1.2727550659036302e-05,-7.120768228396912e-07,-7.1676572164225405e-06,0.0005244903840267589,0.0003583443830779029,0.00020167271125173577,-0.0007104532597775289,0.00010884252360782183,-6.280060342485283e-05,-0.0016332845588041501,0.24825400114059448,22.672876358032227,-0.04922797530889511,-14.056428909301758,-0.2126975655555725,-2.1389803886413574,0.28964561223983765,0
70,0.34504270553588867,-0.24825400114059448,-22.672876358032227,0.04922797530889511,14.056428909301758,0.2126975655555725,2.1389803886413574,-0.28964561223983765,0.0,0.0,0.0,0.0,0.0,0.0,0.0,-0.2659563294709142,0.10021208323967276,-0.059194873954804834,0.21905106541289734,-0.0169276988614306,-0.0485633671898227,-0.2657776751756435,1.675543205389824,0.052260387794490444,0.02994743493481437,-2.7526062318902262,0.034232076436355764,2.766368666383955,0.769170221004221,1.6754973547542302,0.052104326824870026,0.029969505109285054,-2.752394845125968,0.0342448039870148,2.7663679543071322,0.7691630533470046,-0.0005244903840267589,-0.0003583443830779029,-0.00020167271125173577,0.0007104532597775289,-0.00010884252360782183,6.280060342485283e-05,0.0016332845588041501,0.0,0.0,0.0,0.0,0.0,0.0,0.0,-4.585063559381375e-05,-0.0001560609696204182,2.2070174470683462e-05,0.00021138676425813685,1.2727550659036302e-05,-7.120768228396912e-07,-7.1676572164225405e-06,0.0005244903840267589,0.0003583443830779029,0.00020167271125173577,-0.0007104532597775289,0.00010884252360782183,-6.280060342485283e-05,-0.0016332845588041501,0.24825400114059448,22.672876358032227,-0.04922797530889511,-14.056428909301758,-0.2126975655555725,-2.1389803886413574,0.28964561223983765,0
71,0.35001707077026367,-0.2720577120780945,-22.720483779907227,0.02542426437139511,14.056428909301758,0.2191062569618225,2.1325716972351074,-0.28964561223983765,0.0,0.0,0.0,0.0,0.0,0.0,0.0,-0.27282923780494506,0.09830212311363878,-0.062091635366336884,0.22260724065799842,-0.016840472409378283,-0.04747017669491938,-0.2629007173478907,1.6755448644839663,0.05226372866620097,0.029948480714126827,-2.7526062318902262,0.03423136435945829,2.7663693784607783,0.769170221004221,1.6754973547542302,0.052104326824870026,0.029969505109285054,-2.752394845125968,0.0342448039870148,2.7663679543071322,0.7691630533470046,0.00011748645743503577,0.0002593650560087342,-0.00021518460394737322,0.0007121072134415934,-0.00013191757316345144,0.0003437211457958563,0.0013366541877138113,0.0,0.0,0.0,0.0,0.0,0.0,0.0,-4.750972973610601e-05,-0.00015940184133094587,2.1024395158227016e-05,0.00021138676425813685,1.3439627556510736e-05,-1.4241536461234716e-06,-7.1676572164225405e-06,-0.00011748645743503577,-0.0002593650560087342,0.00021518460394737322,-0.0007121072134415934,0.00013191757316345144,-0.0003437211457958563,-0.0013366541877138113,0.2720577120780945,22.720483779907227,-0.02542426437139511,-14.056428909301758,-0.2191062569618225,-2.1325716972351074,0.28964561223983765,0
72,0.35500383377075195,-0.2720577120780945,-22.720483779907227,0.02542426437139511,14.056428909301758,0.2191062569618225,2.1325716972351074,-0.28964561223983765,0.0,0.0,0.0,0.0,0.0,0.0,0.0,-0.27282923780494506,0.09830212311363878,-0.062091635366336884,0.22260724065799842,-0.016840472409378283,-0.04747017669491938,-0.2629007173478907,1.6755448644839663,0.05226372866620097,0.029948480714126827,-2.7526062318902262,0.03423136435945829,2.7663693784607783,0.769170221004221,1.6754973547542302,0.052104326824870026,0.029969505109285054,-2.752394845125968,0.0342448039870148,2.7663679543071322,0.7691630533470046,0.00011748645743503577,0.0002593650560087342,-0.00021518460394737322,0.0007121072134415934,-0.00013191757316345144,0.0003437211457958563,0.0013366541877138113,0.0,0.0,0.0,0.0,0.0,0.0,0.0,-4.750972973610601e-05,-0.00015940184133094587,2.1024395158227016e-05,0.00021138676425813685,1.3439627556510736e-05,-1.4241536461234716e-06,-7.1676572164225405e-06,-0.00011748645743503577,-0.0002593650560087342,0.00021518460394737322,-0.0007121072134415934,0.00013191757316345144,-0.0003437211457958563,-0.0013366541877138113,0.2720577120780945,22.720483779907227,-0.02542426437139511,-14.056428909301758,-0.2191062569618225,-2.1325716972351074,0.28964561223983765,0
73,0.36078906059265137,-0.2720577120780945,-22.696680068969727,0.001620553433895111,14.131807327270508,0.2072044014930725,2.1261630058288574,-0.26217979192733765,0.0,0.0,0.0,0.0,0.0,0.0,0.0,-0.2708785203260785,0.09956420794520116,-0.05927702510453333,0.22257487482920993,-0.017083424699349672,-0.04735602620992171,-0.26100705869160296,1.6755447879585172,0.05226205823034571,0.029950075153341315,-2.752611521603768,0.034233041932185494,2.766370090537601,0.7691671692464086,1.6754973547542302,0.052104326824870026,0.029969505109285054,-2.752394845125968,0.0342448039870148,2.7663679543071322,0.7691630533470046,0.0002465199753075908,-0.00018925336913636344,0.000178523986343248,-0.0008549080347193743,0.00029089446615725454,0.0005743563585496575,0.00038781900058427874,0.0,0.0,0.0,0.0,0.0,0.0,0.0,-4.743320428701736e-05,-0.00015773140547568204,1.9429955943738725e-05,0.000216676477799993,1.1762054829306257e-05,-2.136230468963163e-06,-4.115899403966949e-06,-0.0002465199753075908,0.00018925336913636344,-0.000178523986343248,0.0008549080347193743,-0.00029089446615725454,-0.0005743563585496575,-0.00038781900058427874,0.2720577120780945,22.696680068969727,-0.001620553433895111,-14.131807327270508,-0.2072044014930725,-2.1261630058288574,0.26217979192733765,0
74,0.36499691009521484,-0.2720577120780945,-22.696680068969727,0.001620553433895111,14.131807327270508,0.2072044014930725,2.1261630058288574,-0.26217979192733765,0.0,0.0,0.0,0.0,0.0,0.0,0.0,-0.2708785203260785,0.09956420794520116,-0.05927702510453333,0.22257487482920993,-0.017083424699349672,-0.04735602620992171,-0.26100705869160296,1.6755447879585172,0.05226205823034571,0.029950075153341315,-2.752611521603768,0.034233041932185494,2.766370090537601,0.7691671692464086,1.6754973547542302,0.052104326824870026,0.029969505109285054,-2.752394845125968,0.0342448039870148,2.7663679543071322,0.7691630533470046,0.0002465199753075908,-0.00018925336913636344,0.000178523986343248,-0.0008549080347193743,0.00029089446615725454,0.0005743563585496575,0.00038781900058427874,0.0,0.0,0.0,0.0,0.0,0.0,0.0,-4.743320428701736e-05,-0.00015773140547568204,1.9429955943738725e-05,0.000216676477799993,1.1762054829306257e-05,-2.136230468963163e-06,-4.115899403966949e-06,-0.0002465199753075908,0.00018925336913636344,-0.000178523986343248,0.0008549080347193743,-0.00029089446615725454,-0.0005743563585496575,-0.00038781900058427874,0.2720577120780945,22.696680068969727,-0.001620553433895111,-14.131807327270508,-0.2072044014930725,-2.1261630058288574,0.26217979192733765,0
75,0.37000441551208496,-0.2998287081718445,-22.672876358032227,0.001620553433895111,14.108003616333008,0.2126975655555725,2.1325716972351074,-0.26858848333358765,0.0,0.0,0.0,0.0,0.0,0.0,0.0,-0.2717355362244256,0.10338830363440542,-0.06196360289427881,0.2204561225619735,-0.017173376906036934,-0.047758594694484915,-0.26061741326382204,1.675544679335882,0.052260387794490444,0.029949914207551914,-2.7526098511679127,0.034233260415147446,2.7663693784607783,0.7691678813232314,1.6754973547542302,0.052104326824870026,0.029969505109285054,-2.752394845125968,0.0342448039870148,2.7663679543071322,0.7691630533470046,0.0004418619553534022,-0.00022048457467150657,0.0007099673020166684,-0.0003184063448974977,2.016765673436969e-05,0.000270931039488434,0.0005178907069553985,0.0,0.0,0.0,0.0,0.0,0.0,0.0,-4.7324581651686515e-05,-0.0001560609696204182,1.9590901733139432e-05,0.0002150060419445765,1.154357186735483e-05,-1.4241536461234716e-06,-4.827976226806641e-06,-0.0004418619553534022,0.00022048457467150657,-0.0007099673020166684,0.0003184063448974977,-2.016765673436969e-05,-0.000270931039488434,-0.0005178907069553985,0.2998287081718445,22.672876358032227,-0.001620553433895111,-14.108003616333008,-0.2126975655555725,-2.1325716972351074,0.26858848333358765,0
76,0.37499308586120605,-0.2998287081718445,-22.672876358032227,0.001620553433895111,14.108003616333008,0.2126975655555725,2.1325716972351074,-0.26858848333358765,0.0,0.0,0.0,0.0,0.0,0.0,0.0,-0.2717355362244256,0.10338830363440542,-0.06196360289427881,0.2204561225619735,-0.017173376906036934,-0.047758594694484915,-0.26061741326382204,1.675544679335882,0.052260387794490444,0.029949914207551914,-2.7526098511679127,0.034233260415147446,2.7663693784607783,0.7691678813232314,1.6754973547542302,0.052104326824870026,0.029969505109285054,-2.752394845125968,0.0342448039870148,2.7663679543071322,0.7691630533470046,0.0004418619553534022,-0.00022048457467150657,0.0007099673020166684,-0.0003184063448974977,2.016765673436969e-05,0.000270931039488434,0.0005178907069553985,0.0,0.0,0.0,0.0,0.0,0.0,0.0,-4.7324581651686515e-05,-0.0001560609696204182,1.9590901733139432e-05,0.0002150060419445765,1.154357186735483e-05,-1.4241536461234716e-06,-4.827976226806641e-06,-0.0004418619553534022,0.00022048457467150657,-0.0007099673020166684,0.0003184063448974977,-2.016765673436969e-05,-0.000270931039488434,-0.0005178907069553985,0.2998287081718445,22.672876358032227,-0.001620553433895111,-14.108003616333008,-0.2126975655555725,-2.1325716972351074,0.26858848333358765,0
77,0.37999844551086426,-0.24825400114059448,-22.748254776000977,0.04922797530889511,14.056428909301758,0.2126975655555725,2.1389803886413574,-0.24112264811992645,0.0,0.0,0.0,0.0,0.0,0.0,0.0,-0.26940610526566444,0.1138268091071314,-0.05814751615395592,0.19745014987437803,-0.01826040433405805,-0.051220183780172075,-0.26181868751542864,1.6755432027249988,0.05226565120104383,0.029946567380676237,-2.7526062403934954,0.03423318133647258,2.766371845298343,0.7691648300482801,1.6754973547542302,0.052104326824870026,0.029969505109285054,-2.752394845125968,0.0342448039870148,2.7663679543071322,0.7691630533470046,-0.0003798401781617527,0.001728901439171172,-0.0005751390668744861,0.004219896979918951,8.888981801250225e-05,-0.0001520762051718969,-0.0011965363478216693,0.0,0.0,0.0,0.0,0.0,0.0,0.0,-4.5847970768564394e-05,-0.0001613243761738048,2.2937728608816293e-05,0.00021139526752733673,1.1622650542220114e-05,-3.890991210564465e-06,-1.7767012754354994e-06,0.0003798401781617527,-0.001728901439171172,0.0005751390668744861,-0.004219896979918951,-8.888981801250225e-05,0.0001520762051718969,0.0011965363478216693,0.24825400114059448,22.748254776000977,-0.04922797530889511,-14.056428909301758,-0.2126975655555725,-2.1389803886413574,0.24112264811992645,0
78,0.38499927520751953,-0.24825400114059448,-22.748254776000977,0.04922797530889511,14.056428909301758,0.2126975655555725,2.1389803886413574,-0.24112264811992645,0.0,0.0,0.0,0.0,0.0,0.0,0.0,-0.26940610526566444,0.1138268091071314,-0.05814751615395592,0.19745014987437803,-0.01826040433405805,-0.051220183780172075,-0.26181868751542864,1.6755432027249988,0.05226565120104383,0.029946567380676237,-2.7526062403934954,0.03423318133647258,2.766371845298343,0.7691648300482801,1.6754973547542302,0.052104326824870026,0.029969505109285054,-2.752394845125968,0.0342448039870148,2.7663679543071322,0.7691630533470046,-0.0003798401781617527,0.001728901439171172,-0.0005751390668744861,0.004219896979918951,8.888981801250225e-05,-0.0001520762051718969,-0.0011965363478216693,0.0,0.0,0.0,0.0,0.0,0.0,0.0,-4.5847970768564394e-05,-0.0001613243761738048,2.2937728608816293e-05,0.00021139526752733673,1.1622650542220114e-05,-3.890991210564465e-06,-1.7767012754354994e-06,0.0003798401781617527,-0.001728901439171172,0.0005751390668744861,-0.004219896979918951,-8.888981801250225e-05,0.0001520762051718969,0.0011965363478216693,0.24825400114059448,22.748254776000977,-0.04922797530889511,-14.056428909301758,-0.2126975655555725,-2.1389803886413574,0.24112264811992645,0
79,0.3900160789489746,-0.24825400114059448,-22.748254776000977,0.04922797530889511,14.056428909301758,0.2126975655555725,2.1389803886413574,-0.24112264811992645,0.0,0.0,0.0,0.0,0.0,0.0,0.0,-0.26940610526566444,0.1138268091071314,-0.05814751615395592,0.19745014987437803,-0.01826040433405805,-0.051220183780172075,-0.26181868751542864,1.6755432027249988,0.05226565120104383,0.029946567380676237,-2.7526062403934954,0.03423318133647258,2.766371845298343,0.7691648300482801,1.6754973547542302,0.052104326824870026,0.029969505109285054,-2.752394845125968,0.0342448039870148,2.7663679543071322,0.7691630533470046,-0.0003798401781617527,0.001728901439171172,-0.0005751390668744861,0.004219896979918951,8.888981801250225e-05,-0.0001520762051718969,-0.0011965363478216693,0.0,0.0,0.0,0.0,0.0,0.0,0.0,-4.5847970768564394e-05,-0.0001613243761738048,2.2937728608816293e-05,0.00021139526752733673,1.1622650542220114e-05,-3.890991210564465e-06,-1.7767012754354994e-06,0.0003798401781617527,-0.001728901439171172,0.0005751390668744861,-0.004219896979918951,-8.888981801250225e-05,0.0001520762051718969,0.0011965363478216693,0.24825400114059448,22.748254776000977,-0.04922797530889511,-14.056428909301758,-0.2126975655555725,-2.1389803886413574,0.24112264811992645,0
