rezayati/contactInterpretation/dataset/franka_main/labeled_data/link5/c7_2.csv
index,time,tau_J0,tau_J1,tau_J2,tau_J3,tau_J4,tau_J5,tau_J6,tau_J_d0,tau_J_d1,tau_J_d2,tau_J_d3,tau_J_d4,tau_J_d5,tau_J_d6,tau_ext0,tau_ext1,tau_ext2,tau_ext3,tau_ext4,tau_ext5,tau_ext6,q0,q1,q2,q3,q4,q5,q6,q_d0,q_d1,q_d2,q_d3,q_d4,q_d5,q_d6,dq0,dq1,dq2,dq3,dq4,dq5,dq6,dq_d0,dq_d1,dq_d2,dq_d3,dq_d4,dq_d5,dq_d6,e0,e1,e2,e3,e4,e5,e6,de0,de1,de2,de3,de4,de5,de6,etau_J0,etau_J1,etau_J2,etau_J3,etau_J4,etau_J5,etau_J6,label
1,0.0,-0.17287558317184448,-13.365625381469727,0.4975312054157257,18.099092483520508,0.3912253975868225,2.2882113456726074,-0.24112264811992645,0.0,0.0,0.0,0.0,0.0,0.0,0.0,-0.16772532927631945,0.5145850767350555,0.07101843777627401,0.36264467906701625,-0.035294546973371234,0.07530261214316504,-0.2543452434087786,0.07139018374626216,-0.33430400497453255,-0.12049369147159696,-2.8744547926919504,-0.06438917201757431,2.5182787457042264,0.76874777586427,0.07165585495296277,-0.33419673383382315,-0.1203439052763738,-2.874768336042937,-0.06453255302590709,2.518161157661014,0.7687020283728597,-0.000256203997850059,-0.000829142418305092,-0.0003300628549464579,-8.246861939512605e-05,0.0002814244816394203,-0.00016583533880829064,0.00026044470253272885,0.0,0.0,0.0,0.0,0.0,0.0,0.0,0.00026567120670061006,0.00010727114070940846,0.00014978619522315606,-0.00031354335098665587,-0.0001433810083327769,-0.0001175880432122689,-4.574749141028622e-05,0.000256203997850059,0.000829142418305092,0.0003300628549464579,8.246861939512605e-05,-0.0002814244816394203,0.00016583533880829064,-0.00026044470253272885,0.17287558317184448,13.365625381469727,-0.4975312054157257,-18.099092483520508,-0.3912253975868225,-2.2882113456726074,0.24112264811992645,0
2,0.004995107650756836,-0.19667929410934448,-13.413232803344727,0.4975312054157257,18.122896194458008,0.4031272530555725,2.2882113456726074,-0.24112264811992645,0.0,0.0,0.0,0.0,0.0,0.0,0.0,-0.17339518861001074,0.5173979928838226,0.06860907474159422,0.36400535287345853,-0.034894886792604315,0.07506548867695986,-0.2499285177079536,0.07139185429037602,-0.334300664102822,-0.12049150862109456,-2.8744564631278053,-0.06439049444595972,2.5182787457042264,0.76874777586427,0.07165585495296277,-0.33419673383382315,-0.1203439052763738,-2.874768336042937,-0.06453255302590709,2.518161157661014,0.7687020283728597,0.00015791272288619162,0.0004343531979499815,-0.0007341665498523827,-0.000333207466639111,-0.0002047863094317994,-0.00015015953940074138,0.0002684900026352494,0.0,0.0,0.0,0.0,0.0,0.0,0.0,0.0002640006625867497,0.00010393026899885305,0.00014760334472076198,-0.00031187291513168347,-0.00014205857994736837,-0.0001175880432122689,-4.574749141028622e-05,-0.00015791272288619162,-0.0004343531979499815,0.0007341665498523827,0.000333207466639111,0.0002047863094317994,0.00015015953940074138,-0.0002684900026352494,0.19667929410934448,13.413232803344727,-0.4975312054157257,-18.122896194458008,-0.4031272530555725,-2.2882113456726074,0.24112264811992645,0
3,0.01000666618347168,-0.19667929410934448,-13.413232803344727,0.4975312054157257,18.122896194458008,0.4031272530555725,2.2882113456726074,-0.24112264811992645,0.0,0.0,0.0,0.0,0.0,0.0,0.0,-0.17339518861001074,0.5173979928838226,0.06860907474159422,0.36400535287345853,-0.034894886792604315,0.07506548867695986,-0.2499285177079536,0.07139185429037602,-0.334300664102822,-0.12049150862109456,-2.8744564631278053,-0.06439049444595972,2.5182787457042264,0.76874777586427,0.07165585495296277,-0.33419673383382315,-0.1203439052763738,-2.874768336042937,-0.06453255302590709,2.518161157661014,0.7687020283728597,0.00015791272288619162,0.0004343531979499815,-0.0007341665498523827,-0.000333207466639111,-0.0002047863094317994,-0.00015015953940074138,0.0002684900026352494,0.0,0.0,0.0,0.0,0.0,0.0,0.0,0.0002640006625867497,0.00010393026899885305,0.00014760334472076198,-0.00031187291513168347,-0.00014205857994736837,-0.0001175880432122689,-4.574749141028622e-05,-0.00015791272288619162,-0.0004343531979499815,0.0007341665498523827,0.000333207466639111,0.0002047863094317994,0.00015015953940074138,-0.0002684900026352494,0.19667929410934448,13.413232803344727,-0.4975312054157257,-18.122896194458008,-0.4031272530555725,-2.2882113456726074,0.24112264811992645,0
4,0.015003681182861328,-0.14510458707809448,-13.437036514282227,0.4737274944782257,18.122896194458008,0.4031272530555725,2.2882113456726074,-0.22830526530742645,0.0,0.0,0.0,0.0,0.0,0.0,0.0,-0.1708017377799059,0.5163672834318258,0.0731930137885754,0.3624576628717852,-0.03515849699122375,0.07462715259486136,-0.2456087631378854,0.07138823501269023,-0.33429899366696675,-0.1204891243200399,-2.8744564631278053,-0.06439049444595972,2.5182787457042264,0.7687463517106241,0.07165585495296277,-0.33419673383382315,-0.1203439052763738,-2.874768336042937,-0.06453255302590709,2.518161157661014,0.7687020283728597,-0.0003111560504287038,0.0005212507577491231,0.0005344336067305884,-0.00031854126677213697,-0.00033640440857158596,-0.00010468413816213556,-0.00010059220811863604,0.0,0.0,0.0,0.0,0.0,0.0,0.0,0.0002676199402725371,0.0001022598331436031,0.0001452190436661005,-0.00031187291513168347,-0.00014205857994736837,-0.0001175880432122689,-4.4323337764384796e-05,0.0003111560504287038,-0.0005212507577491231,-0.0005344336067305884,0.00031854126677213697,0.00033640440857158596,0.00010468413816213556,0.00010059220811863604,0.14510458707809448,13.437036514282227,-0.4737274944782257,-18.122896194458008,-0.4031272530555725,-2.2882113456726074,0.22830526530742645,0
5,0.020003318786621094,-0.14510458707809448,-13.437036514282227,0.4737274944782257,18.122896194458008,0.4031272530555725,2.2882113456726074,-0.22830526530742645,0.0,0.0,0.0,0.0,0.0,0.0,0.0,-0.1708017377799059,0.5163672834318258,0.0731930137885754,0.3624576628717852,-0.03515849699122375,0.07462715259486136,-0.2456087631378854,0.07138823501269023,-0.33429899366696675,-0.1204891243200399,-2.8744564631278053,-0.06439049444595972,2.5182787457042264,0.7687463517106241,0.07165585495296277,-0.33419673383382315,-0.1203439052763738,-2.874768336042937,-0.06453255302590709,2.518161157661014,0.7687020283728597,-0.0003111560504287038,0.0005212507577491231,0.0005344336067305884,-0.00031854126677213697,-0.00033640440857158596,-0.00010468413816213556,-0.00010059220811863604,0.0,0.0,0.0,0.0,0.0,0.0,0.0,0.0002676199402725371,0.0001022598331436031,0.0001452190436661005,-0.00031187291513168347,-0.00014205857994736837,-0.0001175880432122689,-4.4323337764384796e-05,0.0003111560504287038,-0.0005212507577491231,-0.0005344336067305884,0.00031854126677213697,0.00033640440857158596,0.00010468413816213556,0.00010059220811863604,0.14510458707809448,13.437036514282227,-0.4737274944782257,-18.122896194458008,-0.4031272530555725,-2.2882113456726074,0.22830526530742645,0
6,0.024999618530273438,-0.17287558317184448,-13.437036514282227,0.5213348865509033,18.099092483520508,0.3976340889930725,2.2753939628601074,-0.28232139348983765,0.0,0.0,0.0,0.0,0.0,0.0,0.0,-0.16879878207205345,0.5163213926431304,0.07426264729196377,0.35997991395174733,-0.035164915521089087,0.07345991286405135,-0.24234348278388554,0.07139018093152266,-0.33429899366696675,-0.12049254680471395,-2.8744547926919504,-0.06439000256782695,2.5182801698578725,0.7687534131407738,0.07165585495296277,-0.33419673383382315,-0.1203439052763738,-2.874768336042937,-0.06453255302590709,2.518161157661014,0.7687020283728597,0.0006846656926422717,0.00014875351350648533,-0.0001515982853691945,-0.00020320482297675086,-0.00026507801657342034,0.00042681083544194107,0.001093092330100196,0.0,0.0,0.0,0.0,0.0,0.0,0.0,0.0002656740214401071,0.0001022598331436031,0.00014864152834015432,-0.00031354335098665587,-0.00014255045808013456,-0.00011901219685839237,-5.138476791410884e-05,-0.0006846656926422717,-0.00014875351350648533,0.0001515982853691945,0.00020320482297675086,0.00026507801657342034,-0.00042681083544194107,-0.001093092330100196,0.17287558317184448,13.437036514282227,-0.5213348865509033,-18.099092483520508,-0.3976340889930725,-2.2753939628601074,0.28232139348983765,0
7,0.030001401901245117,-0.17287558317184448,-13.437036514282227,0.5213348865509033,18.099092483520508,0.3976340889930725,2.2753939628601074,-0.28232139348983765,0.0,0.0,0.0,0.0,0.0,0.0,0.0,-0.16879878207205345,0.5163213926431304,0.07426264729196377,0.35997991395174733,-0.035164915521089087,0.07345991286405135,-0.24234348278388554,0.07139018093152266,-0.33429899366696675,-0.12049254680471395,-2.8744547926919504,-0.06439000256782695,2.5182801698578725,0.7687534131407738,0.07165585495296277,-0.33419673383382315,-0.1203439052763738,-2.874768336042937,-0.06453255302590709,2.518161157661014,0.7687020283728597,0.0006846656926422717,0.00014875351350648533,-0.0001515982853691945,-0.00020320482297675086,-0.00026507801657342034,0.00042681083544194107,0.001093092330100196,0.0,0.0,0.0,0.0,0.0,0.0,0.0,0.0002656740214401071,0.0001022598331436031,0.00014864152834015432,-0.00031354335098665587,-0.00014255045808013456,-0.00011901219685839237,-5.138476791410884e-05,-0.0006846656926422717,-0.00014875351350648533,0.0001515982853691945,0.00020320482297675086,0.00026507801657342034,-0.00042681083544194107,-0.001093092330100196,0.17287558317184448,13.437036514282227,-0.5213348865509033,-18.099092483520508,-0.3976340889930725,-2.2753939628601074,0.28232139348983765,0
8,0.034950971603393555,-0.12130087614059448,-13.413232803344727,0.5213348865509033,18.146699905395508,0.3976340889930725,2.2882113456726074,-0.26217979192733765,0.0,0.0,0.0,0.0,0.0,0.0,0.0,-0.16426563806947897,0.5109844788473351,0.07981477288098185,0.36391392613641355,-0.03502740387036491,0.07382066721036845,-0.2464485605999204,0.0713865295008341,-0.334300664102822,-0.12049278096984814,-2.8744581335636608,-0.064389884095066,2.5182787457042264,0.768750115552897,0.07165585495296277,-0.33419673383382315,-0.1203439052763738,-2.874768336042937,-0.06453255302590709,2.518161157661014,0.7687020283728597,-0.0002618639755039364,-0.00013419936675248168,4.273026121876375e-05,-0.0009081371812021727,1.2847101350534042e-05,0.00010432131527826994,-0.0005494526947448924,0.0,0.0,0.0,0.0,0.0,0.0,0.0,0.00026932545212866865,0.00010393026899885305,0.00014887569347434015,-0.000310202479276267,-0.00014266893084108334,-0.0001175880432122689,-4.808718003723733e-05,0.0002618639755039364,0.00013419936675248168,-4.273026121876375e-05,0.0009081371812021727,-1.2847101350534042e-05,-0.00010432131527826994,0.0005494526947448924,0.12130087614059448,13.413232803344727,-0.5213348865509033,-18.146699905395508,-0.3976340889930725,-2.2882113456726074,0.26217979192733765,0
9,0.03994488716125488,-0.12130087614059448,-13.413232803344727,0.5213348865509033,18.146699905395508,0.3976340889930725,2.2882113456726074,-0.26217979192733765,0.0,0.0,0.0,0.0,0.0,0.0,0.0,-0.16426563806947897,0.5109844788473351,0.07981477288098185,0.36391392613641355,-0.03502740387036491,0.07382066721036845,-0.2464485605999204,0.0713865295008341,-0.334300664102822,-0.12049278096984814,-2.8744581335636608,-0.064389884095066,2.5182787457042264,0.768750115552897,0.07165585495296277,-0.33419673383382315,-0.1203439052763738,-2.874768336042937,-0.06453255302590709,2.518161157661014,0.7687020283728597,-0.0002618639755039364,-0.00013419936675248168,4.273026121876375e-05,-0.0009081371812021727,1.2847101350534042e-05,0.00010432131527826994,-0.0005494526947448924,0.0,0.0,0.0,0.0,0.0,0.0,0.0,0.00026932545212866865,0.00010393026899885305,0.00014887569347434015,-0.000310202479276267,-0.00014266893084108334,-0.0001175880432122689,-4.808718003723733e-05,0.0002618639755039364,0.00013419936675248168,-4.273026121876375e-05,0.0009081371812021727,-1.2847101350534042e-05,-0.00010432131527826994,0.0005494526947448924,0.12130087614059448,13.413232803344727,-0.5213348865509033,-18.146699905395508,-0.3976340889930725,-2.2882113456726074,0.26217979192733765,0
10,0.04499530792236328,-0.17287558317184448,-13.389429092407227,0.4737274944782257,18.122896194458008,0.3976340889930725,2.2818026542663574,-0.27591270208358765,0.0,0.0,0.0,0.0,0.0,0.0,0.0,-0.165341783683698,0.5089435653348017,0.07908786241075577,0.3653138164805691,-0.03460869499115928,0.07409402268599938,-0.25126834947473026,0.07139018384917523,-0.3343023345386773,-0.12049008277848546,-2.8744564631278053,-0.06438988409439732,2.5182794577810497,0.7687516414258224,0.07165585495296277,-0.33419673383382315,-0.1203439052763738,-2.874768336042937,-0.06453255302590709,2.518161157661014,0.7687020283728597,1.6091225013694843e-05,-0.0003695699964594139,0.0006605738115827945,-3.950771103063049e-05,-0.00028062697209712905,0.00019910201303040498,0.0008050616939750975,0.0,0.0,0.0,0.0,0.0,0.0,0.0,0.0002656711037875431,0.00010560070485415851,0.00014617750211165514,-0.00031187291513168347,-0.00014266893150977067,-0.00011830012003555268,-4.961305296269369e-05,-1.6091225013694843e-05,0.0003695699964594139,-0.0006605738115827945,3.950771103063049e-05,0.00028062697209712905,-0.00019910201303040498,-0.0008050616939750975,0.17287558317184448,13.389429092407227,-0.4737274944782257,-18.122896194458008,-0.3976340889930725,-2.2818026542663574,0.27591270208358765,0
11,0.04999566078186035,-0.17287558317184448,-13.389429092407227,0.4737274944782257,18.122896194458008,0.3976340889930725,2.2818026542663574,-0.27591270208358765,0.0,0.0,0.0,0.0,0.0,0.0,0.0,-0.165341783683698,0.5089435653348017,0.07908786241075577,0.3653138164805691,-0.03460869499115928,0.07409402268599938,-0.25126834947473026,0.07139018384917523,-0.3343023345386773,-0.12049008277848546,-2.8744564631278053,-0.06438988409439732,2.5182794577810497,0.7687516414258224,0.07165585495296277,-0.33419673383382315,-0.1203439052763738,-2.874768336042937,-0.06453255302590709,2.518161157661014,0.7687020283728597,1.6091225013694843e-05,-0.0003695699964594139,0.0006605738115827945,-3.950771103063049e-05,-0.00028062697209712905,0.00019910201303040498,0.0008050616939750975,0.0,0.0,0.0,0.0,0.0,0.0,0.0,0.0002656711037875431,0.00010560070485415851,0.00014617750211165514,-0.00031187291513168347,-0.00014266893150977067,-0.00011830012003555268,-4.961305296269369e-05,-1.6091225013694843e-05,0.0003695699964594139,-0.0006605738115827945,3.950771103063049e-05,0.00028062697209712905,-0.00019910201303040498,-0.0008050616939750975,0.17287558317184448,13.389429092407227,-0.4737274944782257,-18.122896194458008,-0.3976340889930725,-2.2818026542663574,0.27591270208358765,0
12,0.054997920989990234,-0.24825400114059448,-13.413232803344727,0.4459564983844757,18.099092483520508,0.3912253975868225,2.2946200370788574,-0.22098104655742645,0.0,0.0,0.0,0.0,0.0,0.0,0.0,-0.16849651766994603,0.5131961867345857,0.07595157494850789,0.3645277526282397,-0.034285163243443426,0.07406057902891097,-0.25007986474811383,0.0713952366969093,-0.334300664102822,-0.12048726283640356,-2.8744547926919504,-0.06438917640547911,2.5182780336274035,0.7687455379085408,0.07165585495296277,-0.33419673383382315,-0.1203439052763738,-2.874768336042937,-0.06453255302590709,2.518161157661014,0.7687020283728597,0.000671846982379919,0.0004933881250404427,0.0004806855738367097,-0.00010812937936708334,0.0002473025988474123,-0.000245313903135514,-0.0003606075997272625,0.0,0.0,0.0,0.0,0.0,0.0,0.0,0.0002606182560534742,0.00010393026899885305,0.00014335756002975542,-0.00031354335098665587,-0.0001433766204279735,-0.00011687596638942921,-4.3509535681107714e-05,-0.000671846982379919,-0.0004933881250404427,-0.0004806855738367097,0.00010812937936708334,-0.0002473025988474123,0.000245313903135514,0.0003606075997272625,0.24825400114059448,13.413232803344727,-0.4459564983844757,-18.099092483520508,-0.3912253975868225,-2.2946200370788574,0.22098104655742645,0
13,0.059995412826538086,-0.24825400114059448,-13.413232803344727,0.4459564983844757,18.099092483520508,0.3912253975868225,2.2946200370788574,-0.22098104655742645,0.0,0.0,0.0,0.0,0.0,0.0,0.0,-0.16849651766994603,0.5131961867345857,0.07595157494850789,0.3645277526282397,-0.034285163243443426,0.07406057902891097,-0.25007986474811383,0.0713952366969093,-0.334300664102822,-0.12048726283640356,-2.8744547926919504,-0.06438917640547911,2.5182780336274035,0.7687455379085408,0.07165585495296277,-0.33419673383382315,-0.1203439052763738,-2.874768336042937,-0.06453255302590709,2.518161157661014,0.7687020283728597,0.000671846982379919,0.0004933881250404427,0.0004806855738367097,-0.00010812937936708334,0.0002473025988474123,-0.000245313903135514,-0.0003606075997272625,0.0,0.0,0.0,0.0,0.0,0.0,0.0,0.0002606182560534742,0.00010393026899885305,0.00014335756002975542,-0.00031354335098665587,-0.0001433766204279735,-0.00011687596638942921,-4.3509535681107714e-05,-0.000671846982379919,-0.0004933881250404427,-0.0004806855738367097,0.00010812937936708334,-0.0002473025988474123,0.000245313903135514,0.0003606075997272625,0.24825400114059448,13.413232803344727,-0.4459564983844757,-18.099092483520508,-0.3912253975868225,-2.2946200370788574,0.22098104655742645,0
14,0.06499910354614258,-0.22445029020309448,-13.389429092407227,0.4459564983844757,18.122896194458008,0.4095359444618225,2.2946200370788574,-0.22098104655742645,0.0,0.0,0.0,0.0,0.0,0.0,0.0,-0.17371649326837565,0.5164523549505882,0.07290189475876961,0.3666253274003896,-0.034683922956406064,0.07481980041940403,-0.24472226240890946,0.07139380312819633,-0.3343023345386773,-0.12048952631636634,-2.8744564631278053,-0.06439120652285696,2.5182780336274035,0.7687455379085408,0.07165585495296277,-0.33419673383382315,-0.1203439052763738,-2.874768336042937,-0.06453255302590709,2.518161157661014,0.7687020283728597,0.00046022917690163975,-8.711721828411299e-05,0.0003205754166891208,-0.00027588216868280305,-0.0006676779829786322,-0.0004065330856151307,-0.0003362623671536896,0.0,0.0,0.0,0.0,0.0,0.0,0.0,0.00026205182476643496,0.00010560070485415851,0.00014562103999253562,-0.00031187291513168347,-0.00014134650305012986,-0.00011687596638942921,-4.3509535681107714e-05,-0.00046022917690163975,8.711721828411299e-05,-0.0003205754166891208,0.00027588216868280305,0.0006676779829786322,0.0004065330856151307,0.0003362623671536896,0.22445029020309448,13.389429092407227,-0.4459564983844757,-18.122896194458008,-0.4095359444618225,-2.2946200370788574,0.22098104655742645,0
15,0.06999564170837402,-0.22445029020309448,-13.389429092407227,0.4459564983844757,18.122896194458008,0.4095359444618225,2.2946200370788574,-0.22098104655742645,0.0,0.0,0.0,0.0,0.0,0.0,0.0,-0.17371649326837565,0.5164523549505882,0.07290189475876961,0.3666253274003896,-0.034683922956406064,0.07481980041940403,-0.24472226240890946,0.07139380312819633,-0.3343023345386773,-0.12048952631636634,-2.8744564631278053,-0.06439120652285696,2.5182780336274035,0.7687455379085408,0.07165585495296277,-0.33419673383382315,-0.1203439052763738,-2.874768336042937,-0.06453255302590709,2.518161157661014,0.7687020283728597,0.00046022917690163975,-8.711721828411299e-05,0.0003205754166891208,-0.00027588216868280305,-0.0006676779829786322,-0.0004065330856151307,-0.0003362623671536896,0.0,0.0,0.0,0.0,0.0,0.0,0.0,0.00026205182476643496,0.00010560070485415851,0.00014562103999253562,-0.00031187291513168347,-0.00014134650305012986,-0.00011687596638942921,-4.3509535681107714e-05,-0.00046022917690163975,8.711721828411299e-05,-0.0003205754166891208,0.00027588216868280305,0.0006676779829786322,0.0004065330856151307,0.0003362623671536896,0.22445029020309448,13.389429092407227,-0.4459564983844757,-18.122896194458008,-0.4095359444618225,-2.2946200370788574,0.22098104655742645,0
16,0.07499146461486816,-0.19667929410934448,-13.413232803344727,0.4975312054157257,18.099092483520508,0.3857322335243225,2.2818026542663574,-0.28232139348983765,0.0,0.0,0.0,0.0,0.0,0.0,0.0,-0.17899605640461794,0.5206427163970613,0.07000360398395332,0.3649825525780154,-0.0350371022905048,0.07402708806575192,-0.24628821131285,0.07139185136737793,-0.334300664102822,-0.12049174191969433,-2.8744547926919504,-0.06438856166601181,2.5182794577810497,0.7687523535026445,0.07165585495296277,-0.33419673383382315,-0.1203439052763738,-2.874768336042937,-0.06453255302590709,2.518161157661014,0.7687020283728597,0.0005124328541790467,0.00010031706523896017,-6.757910928451244e-05,0.00012614533589713517,0.00033269073054186,0.0003189420512084471,0.0001267469633012556,0.0,0.0,0.0,0.0,0.0,0.0,0.0,0.00026400358558484327,0.00010393026899885305,0.00014783664332053414,-0.00031354335098665587,-0.00014399135989527634,-0.00011830012003555268,-5.032512978475623e-05,-0.0005124328541790467,-0.00010031706523896017,6.757910928451244e-05,-0.00012614533589713517,-0.00033269073054186,-0.0003189420512084471,-0.0001267469633012556,0.19667929410934448,13.413232803344727,-0.4975312054157257,-18.099092483520508,-0.3857322335243225,-2.2818026542663574,0.28232139348983765,0
17,0.07999944686889648,-0.19667929410934448,-13.413232803344727,0.4975312054157257,18.099092483520508,0.3857322335243225,2.2818026542663574,-0.28232139348983765,0.0,0.0,0.0,0.0,0.0,0.0,0.0,-0.17899605640461794,0.5206427163970613,0.07000360398395332,0.3649825525780154,-0.0350371022905048,0.07402708806575192,-0.24628821131285,0.07139185136737793,-0.334300664102822,-0.12049174191969433,-2.8744547926919504,-0.06438856166601181,2.5182794577810497,0.7687523535026445,0.07165585495296277,-0.33419673383382315,-0.1203439052763738,-2.874768336042937,-0.06453255302590709,2.518161157661014,0.7687020283728597,0.0005124328541790467,0.00010031706523896017,-6.757910928451244e-05,0.00012614533589713517,0.00033269073054186,0.0003189420512084471,0.0001267469633012556,0.0,0.0,0.0,0.0,0.0,0.0,0.0,0.00026400358558484327,0.00010393026899885305,0.00014783664332053414,-0.00031354335098665587,-0.00014399135989527634,-0.00011830012003555268,-5.032512978475623e-05,-0.0005124328541790467,-0.00010031706523896017,6.757910928451244e-05,-0.00012614533589713517,-0.00033269073054186,-0.0003189420512084471,-0.0001267469633012556,0.19667929410934448,13.413232803344727,-0.4975312054157257,-18.099092483520508,-0.3857322335243225,-2.2818026542663574,0.28232139348983765,0
18,0.08500504493713379,-0.17287558317184448,-13.437036514282227,0.4975312054157257,18.122896194458008,0.4031272530555725,2.2882113456726074,-0.26858848333358765,0.0,0.0,0.0,0.0,0.0,0.0,0.0,-0.1779614734951069,0.5216158014740113,0.07122707735633604,0.3668221306380631,-0.035157287655465316,0.0741621081344332,-0.25492300127520356,0.07139018385450487,-0.33429899366696675,-0.12049289898313655,-2.8744564631278053,-0.06439049444595972,2.5182787457042264,0.7687509453613081,0.07165585495296277,-0.33419673383382315,-0.1203439052763738,-2.874768336042937,-0.06453255302590709,2.518161157661014,0.7687020283728597,0.0008995856307837852,0.0009341868362686232,6.937528482675695e-05,-0.0001329331355388078,-0.00026065769381029754,-6.711560363979784e-05,-0.00028043814860735167,0.0,0.0,0.0,0.0,0.0,0.0,0.0,0.0002656710984579036,0.0001022598331436031,0.0001489937067627456,-0.00031187291513168347,-0.00014205857994736837,-0.0001175880432122689,-4.891698844833314e-05,-0.0008995856307837852,-0.0009341868362686232,-6.937528482675695e-05,0.0001329331355388078,0.00026065769381029754,6.711560363979784e-05,0.00028043814860735167,0.17287558317184448,13.437036514282227,-0.4975312054157257,-18.122896194458008,-0.4031272530555725,-2.2882113456726074,0.26858848333358765,0
19,0.09000277519226074,-0.17287558317184448,-13.437036514282227,0.4975312054157257,18.122896194458008,0.4031272530555725,2.2882113456726074,-0.26858848333358765,0.0,0.0,0.0,0.0,0.0,0.0,0.0,-0.1779614734951069,0.5216158014740113,0.07122707735633604,0.3668221306380631,-0.035157287655465316,0.0741621081344332,-0.25492300127520356,0.07139018385450487,-0.33429899366696675,-0.12049289898313655,-2.8744564631278053,-0.06439049444595972,2.5182787457042264,0.7687509453613081,0.07165585495296277,-0.33419673383382315,-0.1203439052763738,-2.874768336042937,-0.06453255302590709,2.518161157661014,0.7687020283728597,0.0008995856307837852,0.0009341868362686232,6.937528482675695e-05,-0.0001329331355388078,-0.00026065769381029754,-6.711560363979784e-05,-0.00028043814860735167,0.0,0.0,0.0,0.0,0.0,0.0,0.0,0.0002656710984579036,0.0001022598331436031,0.0001489937067627456,-0.00031187291513168347,-0.00014205857994736837,-0.0001175880432122689,-4.891698844833314e-05,-0.0008995856307837852,-0.0009341868362686232,-6.937528482675695e-05,0.0001329331355388078,0.00026065769381029754,6.711560363979784e-05,0.00028043814860735167,0.17287558317184448,13.437036514282227,-0.4975312054157257,-18.122896194458008,-0.4031272530555725,-2.2882113456726074,0.26858848333358765,0
20,0.09502840042114258,-0.14510458707809448,-13.389429092407227,0.5451385974884033,18.099092483520508,0.3912253975868225,2.2946200370788574,-0.24844686686992645,0.0,0.0,0.0,0.0,0.0,0.0,0.0,-0.1716742289976429,0.5183214342942436,0.0724333672429733,0.3680231828634212,-0.03491123415739848,0.07356546875155803,-0.2582139872466356,0.07138752472400665,-0.3343023345386773,-0.12049422299018583,-2.8744547926919504,-0.06438810741239123,2.5182780336274035,0.7687485940276686,0.07165585495296277,-0.33419673383382315,-0.1203439052763738,-2.874768336042937,-0.06453255302590709,2.518161157661014,0.7687020283728597,-0.00018605896595868586,-0.0006803372957768393,-0.0010392418503409554,0.0002829936969586109,0.00014882934273926607,-0.010050171707489572,0.0006747160576160894,0.0,0.0,0.0,0.0,0.0,0.0,0.0,0.00026833022895611514,0.00010560070485415851,0.0001503177138120343,-0.00031354335098665587,-0.00014444561351585616,-0.00011687596638942921,-4.65656548088722e-05,0.00018605896595868586,0.0006803372957768393,0.0010392418503409554,-0.0002829936969586109,-0.00014882934273926607,0.010050171707489572,-0.0006747160576160894,0.14510458707809448,13.389429092407227,-0.5451385974884033,-18.099092483520508,-0.3912253975868225,-2.2946200370788574,0.24844686686992645,0
21,0.09999585151672363,-0.14510458707809448,-13.389429092407227,0.5451385974884033,18.099092483520508,0.3912253975868225,2.2946200370788574,-0.24844686686992645,0.0,0.0,0.0,0.0,0.0,0.0,0.0,-0.1716742289976429,0.5183214342942436,0.0724333672429733,0.3680231828634212,-0.03491123415739848,0.07356546875155803,-0.2582139872466356,0.07138752472400665,-0.3343023345386773,-0.12049422299018583,-2.8744547926919504,-0.06438810741239123,2.5182780336274035,0.7687485940276686,0.07165585495296277,-0.33419673383382315,-0.1203439052763738,-2.874768336042937,-0.06453255302590709,2.518161157661014,0.7687020283728597,-0.00018605896595868586,-0.0006803372957768393,-0.0010392418503409554,0.0002829936969586109,0.00014882934273926607,-0.010050171707489572,0.0006747160576160894,0.0,0.0,0.0,0.0,0.0,0.0,0.0,0.00026833022895611514,0.00010560070485415851,0.0001503177138120343,-0.00031354335098665587,-0.00014444561351585616,-0.00011687596638942921,-4.65656548088722e-05,0.00018605896595868586,0.0006803372957768393,0.0010392418503409554,-0.0002829936969586109,-0.00014882934273926607,0.010050171707489572,-0.0006747160576160894,0.14510458707809448,13.389429092407227,-0.5451385974884033,-18.099092483520508,-0.3912253975868225,-2.2946200370788574,0.24844686686992645,0
22,0.10499358177185059,-0.17287558317184448,-13.413232803344727,0.4975312054157257,18.122896194458008,0.3976340889930725,2.2818026542663574,-0.22830526530742645,0.0,0.0,0.0,0.0,0.0,0.0,0.0,-0.17062998466654278,0.5115320397910247,0.0774003049325313,0.37368390007390095,-0.03527176103745247,0.07484728030140776,-0.2522151747272387,0.07139018385051177,-0.334300664102822,-0.120491015087579,-2.8744564631278053,-0.06438988425090249,2.5182794577810497,0.768747411348778,0.07165585495296277,-0.33419673383382315,-0.1203439052763738,-2.874768336042937,-0.06453255302590709,2.518161157661014,0.7687020283728597,-0.00030272456468779206,-0.00012178510699693007,0.0002638056301623037,-0.0006569364701576855,-5.7165608566656404e-05,-0.0002137737742733104,-3.86557778664645e-05,0.0,0.0,0.0,0.0,0.0,0.0,0.0,0.0002656711024510011,0.00010393026899885305,0.0001471098112052066,-0.00031187291513168347,-0.00014266877500460073,-0.00011830012003555268,-4.538297591827334e-05,0.00030272456468779206,0.00012178510699693007,-0.0002638056301623037,0.0006569364701576855,5.7165608566656404e-05,0.0002137737742733104,3.86557778664645e-05,0.17287558317184448,13.413232803344727,-0.4975312054157257,-18.122896194458008,-0.3976340889930725,-2.2818026542663574,0.22830526530742645,0
23,0.10999250411987305,-0.17287558317184448,-13.413232803344727,0.4975312054157257,18.122896194458008,0.3976340889930725,2.2818026542663574,-0.22830526530742645,0.0,0.0,0.0,0.0,0.0,0.0,0.0,-0.17062998466654278,0.5115320397910247,0.0774003049325313,0.37368390007390095,-0.03527176103745247,0.07484728030140776,-0.2522151747272387,0.07139018385051177,-0.334300664102822,-0.120491015087579,-2.8744564631278053,-0.06438988425090249,2.5182794577810497,0.768747411348778,0.07165585495296277,-0.33419673383382315,-0.1203439052763738,-2.874768336042937,-0.06453255302590709,2.518161157661014,0.7687020283728597,-0.00030272456468779206,-0.00012178510699693007,0.0002638056301623037,-0.0006569364701576855,-5.7165608566656404e-05,-0.0002137737742733104,-3.86557778664645e-05,0.0,0.0,0.0,0.0,0.0,0.0,0.0,0.0002656711024510011,0.00010393026899885305,0.0001471098112052066,-0.00031187291513168347,-0.00014266877500460073,-0.00011830012003555268,-4.538297591827334e-05,0.00030272456468779206,0.00012178510699693007,-0.0002638056301623037,0.0006569364701576855,5.7165608566656404e-05,0.0002137737742733104,3.86557778664645e-05,0.17287558317184448,13.413232803344727,-0.4975312054157257,-18.122896194458008,-0.3976340889930725,-2.2818026542663574,0.22830526530742645,0
24,0.11637616157531738,-0.14510458707809448,-13.413232803344727,0.5213348865509033,18.099092483520508,0.3857322335243225,2.2882113456726074,-0.22098104655742645,0.0,0.0,0.0,0.0,0.0,0.0,0.0,-0.1708414132343656,0.51483355250817,0.08273673518054879,0.36451862111837435,-0.03532121968497704,0.07286278021312347,-0.24738957084872032,0.0713882350126902,-0.334300664102822,-0.12049323688625525,-2.8744547926919504,-0.0643885616660127,2.5182787457042264,0.7687455379145225,0.07165585495296277,-0.33419673383382315,-0.1203439052763738,-2.874768336042937,-0.06453255302590709,2.518161157661014,0.7687020283728597,-0.0003193179538629175,0.0002792658488869593,-0.0007866551238033592,0.0001858043133025831,0.0003092472174287061,6.428625659313098e-05,-0.0010448303386447263,0.0,0.0,0.0,0.0,0.0,0.0,0.0,0.00026761994027256486,0.00010393026899885305,0.00014933160988145344,-0.00031354335098665587,-0.00014399135989438816,-0.0001175880432122689,-4.3509541662767326e-05,0.0003193179538629175,-0.0002792658488869593,0.0007866551238033592,-0.0001858043133025831,-0.0003092472174287061,-6.428625659313098e-05,0.0010448303386447263,0.14510458707809448,13.413232803344727,-0.5213348865509033,-18.099092483520508,-0.3857322335243225,-2.2882113456726074,0.22098104655742645,0
25,0.12054133415222168,-0.14510458707809448,-13.413232803344727,0.5213348865509033,18.099092483520508,0.3857322335243225,2.2882113456726074,-0.22098104655742645,0.0,0.0,0.0,0.0,0.0,0.0,0.0,-0.1708414132343656,0.51483355250817,0.08273673518054879,0.36451862111837435,-0.03532121968497704,0.07286278021312347,-0.24738957084872032,0.0713882350126902,-0.334300664102822,-0.12049323688625525,-2.8744547926919504,-0.0643885616660127,2.5182787457042264,0.7687455379145225,0.07165585495296277,-0.33419673383382315,-0.1203439052763738,-2.874768336042937,-0.06453255302590709,2.518161157661014,0.7687020283728597,-0.0003193179538629175,0.0002792658488869593,-0.0007866551238033592,0.0001858043133025831,0.0003092472174287061,6.428625659313098e-05,-0.0010448303386447263,0.0,0.0,0.0,0.0,0.0,0.0,0.0,0.00026761994027256486,0.00010393026899885305,0.00014933160988145344,-0.00031354335098665587,-0.00014399135989438816,-0.0001175880432122689,-4.3509541662767326e-05,0.0003193179538629175,-0.0002792658488869593,0.0007866551238033592,-0.0001858043133025831,-0.0003092472174287061,-6.428625659313098e-05,0.0010448303386447263,0.14510458707809448,13.413232803344727,-0.5213348865509033,-18.099092483520508,-0.3857322335243225,-2.2882113456726074,0.22098104655742645,0
26,0.12499332427978516,-0.14510458707809448,-13.413232803344727,0.5213348865509033,18.099092483520508,0.3857322335243225,2.2882113456726074,-0.22098104655742645,0.0,0.0,0.0,0.0,0.0,0.0,0.0,-0.1708414132343656,0.51483355250817,0.08273673518054879,0.36451862111837435,-0.03532121968497704,0.07286278021312347,-0.24738957084872032,0.0713882350126902,-0.334300664102822,-0.12049323688625525,-2.8744547926919504,-0.0643885616660127,2.5182787457042264,0.7687455379145225,0.07165585495296277,-0.33419673383382315,-0.1203439052763738,-2.874768336042937,-0.06453255302590709,2.518161157661014,0.7687020283728597,-0.0003193179538629175,0.0002792658488869593,-0.0007866551238033592,0.0001858043133025831,0.0003092472174287061,6.428625659313098e-05,-0.0010448303386447263,0.0,0.0,0.0,0.0,0.0,0.0,0.0,0.00026761994027256486,0.00010393026899885305,0.00014933160988145344,-0.00031354335098665587,-0.00014399135989438816,-0.0001175880432122689,-4.3509541662767326e-05,0.0003193179538629175,-0.0002792658488869593,0.0007866551238033592,-0.0001858043133025831,-0.0003092472174287061,-6.428625659313098e-05,0.0010448303386447263,0.14510458707809448,13.413232803344727,-0.5213348865509033,-18.099092483520508,-0.3857322335243225,-2.2882113456726074,0.22098104655742645,0
27,0.12999629974365234,-0.14510458707809448,-13.413232803344727,0.5213348865509033,18.099092483520508,0.3857322335243225,2.2882113456726074,-0.22098104655742645,0.0,0.0,0.0,0.0,0.0,0.0,0.0,-0.1708414132343656,0.51483355250817,0.08273673518054879,0.36451862111837435,-0.03532121968497704,0.07286278021312347,-0.24738957084872032,0.0713882350126902,-0.334300664102822,-0.12049323688625525,-2.8744547926919504,-0.0643885616660127,2.5182787457042264,0.7687455379145225,0.07165585495296277,-0.33419673383382315,-0.1203439052763738,-2.874768336042937,-0.06453255302590709,2.518161157661014,0.7687020283728597,-0.0003193179538629175,0.0002792658488869593,-0.0007866551238033592,0.0001858043133025831,0.0003092472174287061,6.428625659313098e-05,-0.0010448303386447263,0.0,0.0,0.0,0.0,0.0,0.0,0.0,0.00026761994027256486,0.00010393026899885305,0.00014933160988145344,-0.00031354335098665587,-0.00014399135989438816,-0.0001175880432122689,-4.3509541662767326e-05,0.0003193179538629175,-0.0002792658488869593,0.0007866551238033592,-0.0001858043133025831,-0.0003092472174287061,-6.428625659313098e-05,0.0010448303386447263,0.14510458707809448,13.413232803344727,-0.5213348865509033,-18.099092483520508,-0.3857322335243225,-2.2882113456726074,0.22098104655742645,0
28,0.1349949836730957,-0.17287558317184448,-13.389429092407227,0.4221527874469757,18.099092483520508,0.4095359444618225,2.2882113456726074,-0.26217979192733765,0.0,0.0,0.0,0.0,0.0,0.0,0.0,-0.16981296542658442,0.5115355522028461,0.07991223991666999,0.35908141385772696,-0.03529250771501996,0.07266217188200991,-0.2482258987470647,0.07139018385452137,-0.3343023345386773,-0.12048856552221539,-2.8744547926919504,-0.06439120652278264,2.5182787457042264,0.7687501155469153,0.07165585495296277,-0.33419673383382315,-0.1203439052763738,-2.874768336042937,-0.06453255302590709,2.518161157661014,0.7687020283728597,-5.71483797806234e-05,-0.0006049561375489701,0.001787086998622589,-0.00020941574858755995,-0.00040015830914648674,0.00012785959941973563,-0.0003879815937434455,0.0,0.0,0.0,0.0,0.0,0.0,0.0,0.0002656710984414029,0.00010560070485415851,0.000144660245841588,-0.00031354335098665587,-0.0001413465031244454,-0.0001175880432122689,-4.808717405557772e-05,5.71483797806234e-05,0.0006049561375489701,-0.001787086998622589,0.00020941574858755995,0.00040015830914648674,-0.00012785959941973563,0.0003879815937434455,0.17287558317184448,13.389429092407227,-0.4221527874469757,-18.099092483520508,-0.4095359444618225,-2.2882113456726074,0.26217979192733765,0
29,0.13999295234680176,-0.17287558317184448,-13.389429092407227,0.4221527874469757,18.099092483520508,0.4095359444618225,2.2882113456726074,-0.26217979192733765,0.0,0.0,0.0,0.0,0.0,0.0,0.0,-0.16981296542658442,0.5115355522028461,0.07991223991666999,0.35908141385772696,-0.03529250771501996,0.07266217188200991,-0.2482258987470647,0.07139018385452137,-0.3343023345386773,-0.12048856552221539,-2.8744547926919504,-0.06439120652278264,2.5182787457042264,0.7687501155469153,0.07165585495296277,-0.33419673383382315,-0.1203439052763738,-2.874768336042937,-0.06453255302590709,2.518161157661014,0.7687020283728597,-5.71483797806234e-05,-0.0006049561375489701,0.001787086998622589,-0.00020941574858755995,-0.00040015830914648674,0.00012785959941973563,-0.0003879815937434455,0.0,0.0,0.0,0.0,0.0,0.0,0.0,0.0002656710984414029,0.00010560070485415851,0.000144660245841588,-0.00031354335098665587,-0.0001413465031244454,-0.0001175880432122689,-4.808717405557772e-05,5.71483797806234e-05,0.0006049561375489701,-0.001787086998622589,0.00020941574858755995,0.00040015830914648674,-0.00012785959941973563,0.0003879815937434455,0.17287558317184448,13.389429092407227,-0.4221527874469757,-18.099092483520508,-0.4095359444618225,-2.2882113456726074,0.26217979192733765,0
30,0.14499926567077637,-0.17287558317184448,-13.389429092407227,0.4221527874469757,18.099092483520508,0.4095359444618225,2.2882113456726074,-0.26217979192733765,0.0,0.0,0.0,0.0,0.0,0.0,0.0,-0.16981296542658442,0.5115355522028461,0.07991223991666999,0.35908141385772696,-0.03529250771501996,0.07266217188200991,-0.2482258987470647,0.07139018385452137,-0.3343023345386773,-0.12048856552221539,-2.8744547926919504,-0.06439120652278264,2.5182787457042264,0.7687501155469153,0.07165585495296277,-0.33419673383382315,-0.1203439052763738,-2.874768336042937,-0.06453255302590709,2.518161157661014,0.7687020283728597,-5.71483797806234e-05,-0.0006049561375489701,0.001787086998622589,-0.00020941574858755995,-0.00040015830914648674,0.00012785959941973563,-0.0003879815937434455,0.0,0.0,0.0,0.0,0.0,0.0,0.0,0.0002656710984414029,0.00010560070485415851,0.000144660245841588,-0.00031354335098665587,-0.0001413465031244454,-0.0001175880432122689,-4.808717405557772e-05,5.71483797806234e-05,0.0006049561375489701,-0.001787086998622589,0.00020941574858755995,0.00040015830914648674,-0.00012785959941973563,0.0003879815937434455,0.17287558317184448,13.389429092407227,-0.4221527874469757,-18.099092483520508,-0.4095359444618225,-2.2882113456726074,0.26217979192733765,0
31,0.1499648094177246,-0.19667929410934448,-13.437036514282227,0.4459564983844757,18.071321487426758,0.4031272530555725,2.2946200370788574,-0.29605430364608765,0.0,0.0,0.0,0.0,0.0,0.0,0.0,-0.16940590627029498,0.5149629175872552,0.07888314576480095,0.35842996455599085,-0.03485123971109327,0.07364768029152283,-0.2544662196372993,0.07139185429037663,-0.33429899366696675,-0.12048739842530784,-2.874452843850119,-0.0643873006304105,2.5182780336274035,0.7687538793815507,0.07165585495296277,-0.33419673383382315,-0.1203439052763738,-2.874768336042937,-0.06453255302590709,2.518161157661014,0.7687020283728597,0.0002467863450435457,0.0012629099145235005,0.001664816090506697,0.0007028595662522551,-0.0004223694964113362,-0.00015685579363290965,0.0017841524759578404,0.0,0.0,0.0,0.0,0.0,0.0,0.0,0.0002640006625861391,0.0001022598331436031,0.0001434931489340402,-0.00031549219281812313,-0.0001452523954965923,-0.00011687596638942921,-5.1851008690984024e-05,-0.0002467863450435457,-0.0012629099145235005,-0.001664816090506697,-0.0007028595662522551,0.0004223694964113362,0.00015685579363290965,-0.0017841524759578404,0.19667929410934448,13.437036514282227,-0.4459564983844757,-18.071321487426758,-0.4031272530555725,-2.2946200370788574,0.29605430364608765,0
32,0.15499544143676758,-0.19667929410934448,-13.437036514282227,0.4459564983844757,18.071321487426758,0.4031272530555725,2.2946200370788574,-0.29605430364608765,0.0,0.0,0.0,0.0,0.0,0.0,0.0,-0.16940590627029498,0.5149629175872552,0.07888314576480095,0.35842996455599085,-0.03485123971109327,0.07364768029152283,-0.2544662196372993,0.07139185429037663,-0.33429899366696675,-0.12048739842530784,-2.874452843850119,-0.0643873006304105,2.5182780336274035,0.7687538793815507,0.07165585495296277,-0.33419673383382315,-0.1203439052763738,-2.874768336042937,-0.06453255302590709,2.518161157661014,0.7687020283728597,0.0002467863450435457,0.0012629099145235005,0.001664816090506697,0.0007028595662522551,-0.0004223694964113362,-0.00015685579363290965,0.0017841524759578404,0.0,0.0,0.0,0.0,0.0,0.0,0.0,0.0002640006625861391,0.0001022598331436031,0.0001434931489340402,-0.00031549219281812313,-0.0001452523954965923,-0.00011687596638942921,-5.1851008690984024e-05,-0.0002467863450435457,-0.0012629099145235005,-0.001664816090506697,-0.0007028595662522551,0.0004223694964113362,0.00015685579363290965,-0.0017841524759578404,0.19667929410934448,13.437036514282227,-0.4459564983844757,-18.071321487426758,-0.4031272530555725,-2.2946200370788574,0.29605430364608765,0
33,0.15999388694763184,-0.19667929410934448,-13.389429092407227,0.4737274944782257,18.122896194458008,0.3976340889930725,2.2818026542663574,-0.24112264811992645,0.0,0.0,0.0,0.0,0.0,0.0,0.0,-0.17219700594237056,0.5126923298319965,0.07700852079851274,0.35988432285871297,-0.034966032343802425,0.07471847716053055,-0.25537048548454516,0.07138972342432591,-0.3343023345386773,-0.12048912701984538,-2.8744564631278053,-0.06438988263403346,2.5182794577810497,0.76874777586427,0.07165585495296277,-0.33419673383382315,-0.1203439052763738,-2.874768336042937,-0.06453255302590709,2.518161157661014,0.7687020283728597,0.0007548229574153307,-6.586067327578862e-05,9.438258626602861e-05,-0.0004469330073309872,-1.9286318868241168e-06,0.0003994399257302779,8.679351534137386e-05,0.0,0.0,0.0,0.0,0.0,0.0,0.0,0.0002661315286368593,0.00010560070485415851,0.0001452217434715769,-0.00031187291513168347,-0.0001426703918736283,-0.00011830012003555268,-4.574749141028622e-05,-0.0007548229574153307,6.586067327578862e-05,-9.438258626602861e-05,0.0004469330073309872,1.9286318868241168e-06,-0.0003994399257302779,-8.679351534137386e-05,0.19667929410934448,13.389429092407227,-0.4737274944782257,-18.122896194458008,-0.3976340889930725,-2.2818026542663574,0.24112264811992645,0
34,0.16500139236450195,-0.19667929410934448,-13.389429092407227,0.4737274944782257,18.122896194458008,0.3976340889930725,2.2818026542663574,-0.24112264811992645,0.0,0.0,0.0,0.0,0.0,0.0,0.0,-0.17219700594237056,0.5126923298319965,0.07700852079851274,0.35988432285871297,-0.034966032343802425,0.07471847716053055,-0.25537048548454516,0.07138972342432591,-0.3343023345386773,-0.12048912701984538,-2.8744564631278053,-0.06438988263403346,2.5182794577810497,0.76874777586427,0.07165585495296277,-0.33419673383382315,-0.1203439052763738,-2.874768336042937,-0.06453255302590709,2.518161157661014,0.7687020283728597,0.0007548229574153307,-6.586067327578862e-05,9.438258626602861e-05,-0.0004469330073309872,-1.9286318868241168e-06,0.0003994399257302779,8.679351534137386e-05,0.0,0.0,0.0,0.0,0.0,0.0,0.0,0.0002661315286368593,0.00010560070485415851,0.0001452217434715769,-0.00031187291513168347,-0.0001426703918736283,-0.00011830012003555268,-4.574749141028622e-05,-0.0007548229574153307,6.586067327578862e-05,-9.438258626602861e-05,0.0004469330073309872,1.9286318868241168e-06,-0.0003994399257302779,-8.679351534137386e-05,0.19667929410934448,13.389429092407227,-0.4737274944782257,-18.122896194458008,-0.3976340889930725,-2.2818026542663574,0.24112264811992645,0
35,0.17000508308410645,-0.14510458707809448,-13.413232803344727,0.4975312054157257,18.099092483520508,0.3976340889930725,2.2946200370788574,-0.22098104655742645,0.0,0.0,0.0,0.0,0.0,0.0,0.0,-0.17068222658676577,0.5155169850981914,0.07725915297903965,0.3604748013900635,-0.03507342856925163,0.07452230360538717,-0.24917668668222998,0.07138823501264073,-0.334300664102822,-0.12049077118294325,-2.8744547926919504,-0.06438988409439719,2.5182780336274035,0.7687455379085408,0.07165585495296277,-0.33419673383382315,-0.1203439052763738,-2.874768336042937,-0.06453255302590709,2.518161157661014,0.7687020283728597,-0.0005426252670553254,0.00011808293167752819,9.498988172965993e-05,6.344792953301845e-05,-0.00011167613235422791,-0.0004873552905220363,-0.0013859582991308911,0.0,0.0,0.0,0.0,0.0,0.0,0.0,0.0002676199403220392,0.00010393026899885305,0.00014686590656945442,-0.00031354335098665587,-0.00014266893150989557,-0.00011687596638942921,-4.3509535681107714e-05,0.0005426252670553254,-0.00011808293167752819,-9.498988172965993e-05,-6.344792953301845e-05,0.00011167613235422791,0.0004873552905220363,0.0013859582991308911,0.14510458707809448,13.413232803344727,-0.4975312054157257,-18.099092483520508,-0.3976340889930725,-2.2946200370788574,0.22098104655742645,0
36,0.175001859664917,-0.14510458707809448,-13.413232803344727,0.4975312054157257,18.099092483520508,0.3976340889930725,2.2946200370788574,-0.22098104655742645,0.0,0.0,0.0,0.0,0.0,0.0,0.0,-0.17068222658676577,0.5155169850981914,0.07725915297903965,0.3604748013900635,-0.03507342856925163,0.07452230360538717,-0.24917668668222998,0.07138823501264073,-0.334300664102822,-0.12049077118294325,-2.8744547926919504,-0.06438988409439719,2.5182780336274035,0.7687455379085408,0.07165585495296277,-0.33419673383382315,-0.1203439052763738,-2.874768336042937,-0.06453255302590709,2.518161157661014,0.7687020283728597,-0.0005426252670553254,0.00011808293167752819,9.498988172965993e-05,6.344792953301845e-05,-0.00011167613235422791,-0.0004873552905220363,-0.0013859582991308911,0.0,0.0,0.0,0.0,0.0,0.0,0.0,0.0002676199403220392,0.00010393026899885305,0.00014686590656945442,-0.00031354335098665587,-0.00014266893150989557,-0.00011687596638942921,-4.3509535681107714e-05,0.0005426252670553254,-0.00011808293167752819,-9.498988172965993e-05,-6.344792953301845e-05,0.00011167613235422791,0.0004873552905220363,0.0013859582991308911,0.14510458707809448,13.413232803344727,-0.4975312054157257,-18.099092483520508,-0.3976340889930725,-2.2946200370788574,0.22098104655742645,0
37,0.17999815940856934,-0.14510458707809448,-13.389429092407227,0.5451385974884033,18.122896194458008,0.3976340889930725,2.2946200370788574,-0.28232139348983765,0.0,0.0,0.0,0.0,0.0,0.0,0.0,-0.168558990407571,0.5182481290466034,0.08115665181524044,0.3628054438854163,-0.035170023899320044,0.07449473421004678,-0.24830058550232728,0.07138823501269023,-0.3343023345386773,-0.12049489829913275,-2.8744564631278053,-0.06438987095112335,2.5182780336274035,0.7687523535026445,0.07165585495296277,-0.33419673383382315,-0.1203439052763738,-2.874768336042937,-0.06453255302590709,2.518161157661014,0.7687020283728597,-0.00010261927377886582,-0.00020178742073935146,-0.0004955525039734031,-0.0002976617591955579,-6.618963205875042e-05,-3.53077100273715e-05,0.0004579322292356348,0.0,0.0,0.0,0.0,0.0,0.0,0.0,0.0002676199402725371,0.00010560070485415851,0.00015099302275894955,-0.00031187291513168347,-0.00014268207478373984,-0.00011687596638942921,-5.032512978475623e-05,0.00010261927377886582,0.00020178742073935146,0.0004955525039734031,0.0002976617591955579,6.618963205875042e-05,3.53077100273715e-05,-0.0004579322292356348,0.14510458707809448,13.389429092407227,-0.5451385974884033,-18.122896194458008,-0.3976340889930725,-2.2946200370788574,0.28232139348983765,0
38,0.1858055591583252,-0.17287558317184448,-13.413232803344727,0.4737274944782257,18.122896194458008,0.4031272530555725,2.2882113456726074,-0.24112264811992645,0.0,0.0,0.0,0.0,0.0,0.0,0.0,-0.16902663716250127,0.5160843148172083,0.08228037955292518,0.3626489528879918,-0.03476475130421393,0.0750352153775634,-0.25295921213680195,0.07139015657320019,-0.334300664102822,-0.12048936414219387,-2.8744564631278053,-0.06439049444588553,2.5182787457042264,0.7687445572134521,0.07165585495296277,-0.33419673383382315,-0.1203439052763738,-2.874768336042937,-0.06453255302590709,2.518161157661014,0.7687020283728597,0.0008024044668828687,-0.0001188394522142755,0.0008835722735090071,-0.0003017139699380356,-0.0003487002141085986,2.9345585564885098e-05,-0.0014516165198491587,0.0,0.0,0.0,0.0,0.0,0.0,0.0,0.00026569837976257726,0.00010393026899885305,0.0001454588658200695,-0.00031187291513168347,-0.00014205858002155902,-0.0001175880432122689,-4.252884059241513e-05,-0.0008024044668828687,0.0001188394522142755,-0.0008835722735090071,0.0003017139699380356,0.0003487002141085986,-2.9345585564885098e-05,0.0014516165198491587,0.17287558317184448,13.413232803344727,-0.4737274944782257,-18.122896194458008,-0.4031272530555725,-2.2882113456726074,0.24112264811992645,0
39,0.19031286239624023,-0.17287558317184448,-13.413232803344727,0.4737274944782257,18.122896194458008,0.4031272530555725,2.2882113456726074,-0.24112264811992645,0.0,0.0,0.0,0.0,0.0,0.0,0.0,-0.16902663716250127,0.5160843148172083,0.08228037955292518,0.3626489528879918,-0.03476475130421393,0.0750352153775634,-0.25295921213680195,0.07139015657320019,-0.334300664102822,-0.12048936414219387,-2.8744564631278053,-0.06439049444588553,2.5182787457042264,0.7687445572134521,0.07165585495296277,-0.33419673383382315,-0.1203439052763738,-2.874768336042937,-0.06453255302590709,2.518161157661014,0.7687020283728597,0.0008024044668828687,-0.0001188394522142755,0.0008835722735090071,-0.0003017139699380356,-0.0003487002141085986,2.9345585564885098e-05,-0.0014516165198491587,0.0,0.0,0.0,0.0,0.0,0.0,0.0,0.00026569837976257726,0.00010393026899885305,0.0001454588658200695,-0.00031187291513168347,-0.00014205858002155902,-0.0001175880432122689,-4.252884059241513e-05,-0.0008024044668828687,0.0001188394522142755,-0.0008835722735090071,0.0003017139699380356,0.0003487002141085986,-2.9345585564885098e-05,0.0014516165198491587,0.17287558317184448,13.413232803344727,-0.4737274944782257,-18.122896194458008,-0.4031272530555725,-2.2882113456726074,0.24112264811992645,0
40,0.19499421119689941,-0.17287558317184448,-13.413232803344727,0.4737274944782257,18.122896194458008,0.4031272530555725,2.2882113456726074,-0.24112264811992645,0.0,0.0,0.0,0.0,0.0,0.0,0.0,-0.16902663716250127,0.5160843148172083,0.08228037955292518,0.3626489528879918,-0.03476475130421393,0.0750352153775634,-0.25295921213680195,0.07139015657320019,-0.334300664102822,-0.12048936414219387,-2.8744564631278053,-0.06439049444588553,2.5182787457042264,0.7687445572134521,0.07165585495296277,-0.33419673383382315,-0.1203439052763738,-2.874768336042937,-0.06453255302590709,2.518161157661014,0.7687020283728597,0.0008024044668828687,-0.0001188394522142755,0.0008835722735090071,-0.0003017139699380356,-0.0003487002141085986,2.9345585564885098e-05,-0.0014516165198491587,0.0,0.0,0.0,0.0,0.0,0.0,0.0,0.00026569837976257726,0.00010393026899885305,0.0001454588658200695,-0.00031187291513168347,-0.00014205858002155902,-0.0001175880432122689,-4.252884059241513e-05,-0.0008024044668828687,0.0001188394522142755,-0.0008835722735090071,0.0003017139699380356,0.0003487002141085986,-2.9345585564885098e-05,0.0014516165198491587,0.17287558317184448,13.413232803344727,-0.4737274944782257,-18.122896194458008,-0.4031272530555725,-2.2882113456726074,0.24112264811992645,0
41,0.19999361038208008,-0.17287558317184448,-13.413232803344727,0.5213348865509033,18.122896194458008,0.3976340889930725,2.2882113456726074,-0.27591270208358765,0.0,0.0,0.0,0.0,0.0,0.0,0.0,-0.16652169720238585,0.5117583912209572,0.08283411199546989,0.36314951757630337,-0.03465565006617464,0.07542734769059352,-0.2578631103288239,0.07139018385436736,-0.334300664102822,-0.12049316063579431,-2.8744564631278053,-0.06438988409439722,2.5182787457042264,0.7687516414076521,0.07165585495296277,-0.33419673383382315,-0.1203439052763738,-2.874768336042937,-0.06453255302590709,2.518161157661014,0.7687020283728597,0.00012026684717536983,-0.0003188705337648696,-0.0007321250496128657,-0.0006335449515578804,-0.0002458417956479684,-8.22694769249294e-05,0.00047807741154027146,0.0,0.0,0.0,0.0,0.0,0.0,0.0,0.0002656710985954047,0.00010393026899885305,0.00014925535942050816,-0.00031187291513168347,-0.0001426689315098678,-0.0001175880432122689,-4.961303479233958e-05,-0.00012026684717536983,0.0003188705337648696,0.0007321250496128657,0.0006335449515578804,0.0002458417956479684,8.22694769249294e-05,-0.00047807741154027146,0.17287558317184448,13.413232803344727,-0.5213348865509033,-18.122896194458008,-0.3976340889930725,-2.2882113456726074,0.27591270208358765,0
42,0.20499539375305176,-0.17287558317184448,-13.413232803344727,0.5213348865509033,18.122896194458008,0.3976340889930725,2.2882113456726074,-0.27591270208358765,0.0,0.0,0.0,0.0,0.0,0.0,0.0,-0.16652169720238585,0.5117583912209572,0.08283411199546989,0.36314951757630337,-0.03465565006617464,0.07542734769059352,-0.2578631103288239,0.07139018385436736,-0.334300664102822,-0.12049316063579431,-2.8744564631278053,-0.06438988409439722,2.5182787457042264,0.7687516414076521,0.07165585495296277,-0.33419673383382315,-0.1203439052763738,-2.874768336042937,-0.06453255302590709,2.518161157661014,0.7687020283728597,0.00012026684717536983,-0.0003188705337648696,-0.0007321250496128657,-0.0006335449515578804,-0.0002458417956479684,-8.22694769249294e-05,0.00047807741154027146,0.0,0.0,0.0,0.0,0.0,0.0,0.0,0.0002656710985954047,0.00010393026899885305,0.00014925535942050816,-0.00031187291513168347,-0.0001426689315098678,-0.0001175880432122689,-4.961303479233958e-05,-0.00012026684717536983,0.0003188705337648696,0.0007321250496128657,0.0006335449515578804,0.0002458417956479684,8.22694769249294e-05,-0.00047807741154027146,0.17287558317184448,13.413232803344727,-0.5213348865509033,-18.122896194458008,-0.3976340889930725,-2.2882113456726074,0.27591270208358765,0
43,0.20999598503112793,-0.17287558317184448,-13.389429092407227,0.5213348865509033,18.099092483520508,0.3976340889930725,2.2882113456726074,-0.25485557317733765,0.0,0.0,0.0,0.0,0.0,0.0,0.0,-0.16970703670353804,0.5142674230496461,0.07902581008621605,0.36197038907150936,-0.03557146302883383,0.0747138340272931,-0.25919807701246966,0.07139018381843497,-0.3343023345386773,-0.12049467496821022,-2.8744547926919504,-0.06438988409439722,2.5182787457042264,0.7687493017448318,0.07165585495296277,-0.33419673383382315,-0.1203439052763738,-2.874768336042937,-0.06453255302590709,2.518161157661014,0.7687020283728597,-0.0006796745932657385,-0.00042107147800788953,-0.0013402472134044097,-3.206313698269481e-05,-0.0002597552139274254,1.8789600662664084e-05,0.00554406068087805,0.0,0.0,0.0,0.0,0.0,0.0,0.0,0.00026567113452780067,0.00010560070485415851,0.00015076969183641653,-0.00031354335098665587,-0.0001426689315098678,-0.0001175880432122689,-4.727337197207859e-05,0.0006796745932657385,0.00042107147800788953,0.0013402472134044097,3.206313698269481e-05,0.0002597552139274254,-1.8789600662664084e-05,-0.00554406068087805,0.17287558317184448,13.389429092407227,-0.5213348865509033,-18.099092483520508,-0.3976340889930725,-2.2882113456726074,0.25485557317733765,0
44,0.2149965763092041,-0.17287558317184448,-13.389429092407227,0.5213348865509033,18.099092483520508,0.3976340889930725,2.2882113456726074,-0.25485557317733765,0.0,0.0,0.0,0.0,0.0,0.0,0.0,-0.16970703670353804,0.5142674230496461,0.07902581008621605,0.36197038907150936,-0.03557146302883383,0.0747138340272931,-0.25919807701246966,0.07139018381843497,-0.3343023345386773,-0.12049467496821022,-2.8744547926919504,-0.06438988409439722,2.5182787457042264,0.7687493017448318,0.07165585495296277,-0.33419673383382315,-0.1203439052763738,-2.874768336042937,-0.06453255302590709,2.518161157661014,0.7687020283728597,-0.0006796745932657385,-0.00042107147800788953,-0.0013402472134044097,-3.206313698269481e-05,-0.0002597552139274254,1.8789600662664084e-05,0.00554406068087805,0.0,0.0,0.0,0.0,0.0,0.0,0.0,0.00026567113452780067,0.00010560070485415851,0.00015076969183641653,-0.00031354335098665587,-0.0001426689315098678,-0.0001175880432122689,-4.727337197207859e-05,0.0006796745932657385,0.00042107147800788953,0.0013402472134044097,3.206313698269481e-05,0.0002597552139274254,-1.8789600662664084e-05,-0.00554406068087805,0.17287558317184448,13.389429092407227,-0.5213348865509033,-18.099092483520508,-0.3976340889930725,-2.2882113456726074,0.25485557317733765,0
45,0.21999359130859375,-0.19667929410934448,-13.365625381469727,0.4459564983844757,18.122896194458008,0.3976340889930725,2.3010287284851074,-0.22830526530742645,0.0,0.0,0.0,0.0,0.0,0.0,0.0,-0.17798028303290347,0.5122037596489581,0.06998737128118834,0.36624466446847154,-0.035721547255264274,0.07469999842261223,-0.2564892351773621,0.07139185429037642,-0.33430400497453255,-0.12048738672809996,-2.8744564631278053,-0.06438988409439722,2.5182773215505807,0.768746351710624,0.07165585495296277,-0.33419673383382315,-0.1203439052763738,-2.874768336042937,-0.06453255302590709,2.518161157661014,0.7687020283728597,-0.0005061303583745066,-0.0008370543079230491,-7.174569777209412e-05,-0.0005981403594715704,-0.0001600071344922839,-0.0004371496536329389,-0.00041043265558867066,0.0,0.0,0.0,0.0,0.0,0.0,0.0,0.00026400066258634725,0.00010727114070940846,0.00014348145172615734,-0.00031187291513168347,-0.0001426689315098678,-0.00011616388956658952,-4.4323337764273774e-05,0.0005061303583745066,0.0008370543079230491,7.174569777209412e-05,0.0005981403594715704,0.0001600071344922839,0.0004371496536329389,0.00041043265558867066,0.19667929410934448,13.365625381469727,-0.4459564983844757,-18.122896194458008,-0.3976340889930725,-2.3010287284851074,0.22830526530742645,0
46,0.22499513626098633,-0.19667929410934448,-13.365625381469727,0.4459564983844757,18.122896194458008,0.3976340889930725,2.3010287284851074,-0.22830526530742645,0.0,0.0,0.0,0.0,0.0,0.0,0.0,-0.17798028303290347,0.5122037596489581,0.06998737128118834,0.36624466446847154,-0.035721547255264274,0.07469999842261223,-0.2564892351773621,0.07139185429037642,-0.33430400497453255,-0.12048738672809996,-2.8744564631278053,-0.06438988409439722,2.5182773215505807,0.768746351710624,0.07165585495296277,-0.33419673383382315,-0.1203439052763738,-2.874768336042937,-0.06453255302590709,2.518161157661014,0.7687020283728597,-0.0005061303583745066,-0.0008370543079230491,-7.174569777209412e-05,-0.0005981403594715704,-0.0001600071344922839,-0.0004371496536329389,-0.00041043265558867066,0.0,0.0,0.0,0.0,0.0,0.0,0.0,0.00026400066258634725,0.00010727114070940846,0.00014348145172615734,-0.00031187291513168347,-0.0001426689315098678,-0.00011616388956658952,-4.4323337764273774e-05,0.0005061303583745066,0.0008370543079230491,7.174569777209412e-05,0.0005981403594715704,0.0001600071344922839,0.0004371496536329389,0.00041043265558867066,0.19667929410934448,13.365625381469727,-0.4459564983844757,-18.122896194458008,-0.3976340889930725,-2.3010287284851074,0.22830526530742645,0
47,0.22999811172485352,-0.12130087614059448,-13.413232803344727,0.4975312054157257,18.099092483520508,0.3857322335243225,2.2818026542663574,-0.29605430364608765,0.0,0.0,0.0,0.0,0.0,0.0,0.0,-0.17977086961385738,0.5159482203435196,0.06908034074393546,0.365521563424893,-0.036211689380988794,0.07516696969008824,-0.2544999440456344,0.07138656457683497,-0.334300664102822,-0.12049150474468984,-2.8744547896394947,-0.06438856166601181,2.5182794577810497,0.7687538793815506,0.07165585495296277,-0.33419673383382315,-0.1203439052763738,-2.874768336042937,-0.06453255302590709,2.518161157661014,0.7687020283728597,-0.0019321280396130103,0.00047410203896083283,-0.0004917343731594974,1.256996490600923e-07,0.00015752874458028628,0.00026007309476578386,0.0008649817826394714,0.0,0.0,0.0,0.0,0.0,0.0,0.0,0.00026929037612780093,0.00010393026899885305,0.00014759946831603699,-0.00031354640344227747,-0.00014399135989527634,-0.00011830012003555268,-5.1851008690873e-05,0.0019321280396130103,-0.00047410203896083283,0.0004917343731594974,-1.256996490600923e-07,-0.00015752874458028628,-0.00026007309476578386,-0.0008649817826394714,0.12130087614059448,13.413232803344727,-0.4975312054157257,-18.099092483520508,-0.3857322335243225,-2.2818026542663574,0.29605430364608765,0
48,0.23499345779418945,-0.12130087614059448,-13.413232803344727,0.4975312054157257,18.099092483520508,0.3857322335243225,2.2818026542663574,-0.29605430364608765,0.0,0.0,0.0,0.0,0.0,0.0,0.0,-0.17977086961385738,0.5159482203435196,0.06908034074393546,0.365521563424893,-0.036211689380988794,0.07516696969008824,-0.2544999440456344,0.07138656457683497,-0.334300664102822,-0.12049150474468984,-2.8744547896394947,-0.06438856166601181,2.5182794577810497,0.7687538793815506,0.07165585495296277,-0.33419673383382315,-0.1203439052763738,-2.874768336042937,-0.06453255302590709,2.518161157661014,0.7687020283728597,-0.0019321280396130103,0.00047410203896083283,-0.0004917343731594974,1.256996490600923e-07,0.00015752874458028628,0.00026007309476578386,0.0008649817826394714,0.0,0.0,0.0,0.0,0.0,0.0,0.0,0.00026929037612780093,0.00010393026899885305,0.00014759946831603699,-0.00031354640344227747,-0.00014399135989527634,-0.00011830012003555268,-5.1851008690873e-05,0.0019321280396130103,-0.00047410203896083283,0.0004917343731594974,-1.256996490600923e-07,-0.00015752874458028628,-0.00026007309476578386,-0.0008649817826394714,0.12130087614059448,13.413232803344727,-0.4975312054157257,-18.099092483520508,-0.3857322335243225,-2.2818026542663574,0.29605430364608765,0
49,0.24000287055969238,-0.12130087614059448,-13.413232803344727,0.4975312054157257,18.099092483520508,0.3857322335243225,2.2818026542663574,-0.29605430364608765,0.0,0.0,0.0,0.0,0.0,0.0,0.0,-0.17977086961385738,0.5159482203435196,0.06908034074393546,0.365521563424893,-0.036211689380988794,0.07516696969008824,-0.2544999440456344,0.07138656457683497,-0.334300664102822,-0.12049150474468984,-2.8744547896394947,-0.06438856166601181,2.5182794577810497,0.7687538793815506,0.07165585495296277,-0.33419673383382315,-0.1203439052763738,-2.874768336042937,-0.06453255302590709,2.518161157661014,0.7687020283728597,-0.0019321280396130103,0.00047410203896083283,-0.0004917343731594974,1.256996490600923e-07,0.00015752874458028628,0.00026007309476578386,0.0008649817826394714,0.0,0.0,0.0,0.0,0.0,0.0,0.0,0.00026929037612780093,0.00010393026899885305,0.00014759946831603699,-0.00031354640344227747,-0.00014399135989527634,-0.00011830012003555268,-5.1851008690873e-05,0.0019321280396130103,-0.00047410203896083283,0.0004917343731594974,-1.256996490600923e-07,-0.00015752874458028628,-0.00026007309476578386,-0.0008649817826394714,0.12130087614059448,13.413232803344727,-0.4975312054157257,-18.099092483520508,-0.3857322335243225,-2.2818026542663574,0.29605430364608765,0
50,0.24500393867492676,-0.12130087614059448,-13.413232803344727,0.4975312054157257,18.099092483520508,0.3857322335243225,2.2818026542663574,-0.29605430364608765,0.0,0.0,0.0,0.0,0.0,0.0,0.0,-0.17977086961385738,0.5159482203435196,0.06908034074393546,0.365521563424893,-0.036211689380988794,0.07516696969008824,-0.2544999440456344,0.07138656457683497,-0.334300664102822,-0.12049150474468984,-2.8744547896394947,-0.06438856166601181,2.5182794577810497,0.7687538793815506,0.07165585495296277,-0.33419673383382315,-0.1203439052763738,-2.874768336042937,-0.06453255302590709,2.518161157661014,0.7687020283728597,-0.0019321280396130103,0.00047410203896083283,-0.0004917343731594974,1.256996490600923e-07,0.00015752874458028628,0.00026007309476578386,0.0008649817826394714,0.0,0.0,0.0,0.0,0.0,0.0,0.0,0.00026929037612780093,0.00010393026899885305,0.00014759946831603699,-0.00031354640344227747,-0.00014399135989527634,-0.00011830012003555268,-5.1851008690873e-05,0.0019321280396130103,-0.00047410203896083283,0.0004917343731594974,-1.256996490600923e-07,-0.00015752874458028628,-0.00026007309476578386,-0.0008649817826394714,0.12130087614059448,13.413232803344727,-0.4975312054157257,-18.099092483520508,-0.3857322335243225,-2.2818026542663574,0.29605430364608765,0
51,0.2500019073486328,-0.09352988004684448,-13.389429092407227,0.4737274944782257,18.099092483520508,0.3912253975868225,2.2753939628601074,-0.27591270208358765,0.0,0.0,0.0,0.0,0.0,0.0,0.0,-0.17849878019457244,0.518184017145285,0.07068475715828307,0.3629672486353804,-0.03624201808541818,0.07488790751366194,-0.25845357192398183,0.07138458942801554,-0.3343023345386773,-0.12048910071114961,-2.874454792691933,-0.06438917201757431,2.51828016934913,0.7687516414258214,0.07165585495296277,-0.33419673383382315,-0.1203439052763738,-2.874768336042937,-0.06453255302590709,2.518161157661014,0.7687020283728597,-0.0014284488747343877,-0.0003596164454847509,0.0005147284267245365,-0.00010984464791997183,0.0002981398644816312,0.0004224457533130272,-4.626368607107527e-05,0.0,0.0,0.0,0.0,0.0,0.0,0.0,0.0002712655249472312,0.00010560070485415851,0.00014519543477581331,-0.00031354335100397535,-0.0001433810083327769,-0.00011901168811601082,-4.961305296169449e-05,0.0014284488747343877,0.0003596164454847509,-0.0005147284267245365,0.00010984464791997183,-0.0002981398644816312,-0.0004224457533130272,4.626368607107527e-05,0.09352988004684448,13.389429092407227,-0.4737274944782257,-18.099092483520508,-0.3912253975868225,-2.2753939628601074,0.27591270208358765,0
52,0.2549936771392822,-0.09352988004684448,-13.389429092407227,0.4737274944782257,18.099092483520508,0.3912253975868225,2.2753939628601074,-0.27591270208358765,0.0,0.0,0.0,0.0,0.0,0.0,0.0,-0.17849878019457244,0.518184017145285,0.07068475715828307,0.3629672486353804,-0.03624201808541818,0.07488790751366194,-0.25845357192398183,0.07138458942801554,-0.3343023345386773,-0.12048910071114961,-2.874454792691933,-0.06438917201757431,2.51828016934913,0.7687516414258214,0.07165585495296277,-0.33419673383382315,-0.1203439052763738,-2.874768336042937,-0.06453255302590709,2.518161157661014,0.7687020283728597,-0.0014284488747343877,-0.0003596164454847509,0.0005147284267245365,-0.00010984464791997183,0.0002981398644816312,0.0004224457533130272,-4.626368607107527e-05,0.0,0.0,0.0,0.0,0.0,0.0,0.0,0.0002712655249472312,0.00010560070485415851,0.00014519543477581331,-0.00031354335100397535,-0.0001433810083327769,-0.00011901168811601082,-4.961305296169449e-05,0.0014284488747343877,0.0003596164454847509,-0.0005147284267245365,0.00010984464791997183,-0.0002981398644816312,-0.0004224457533130272,4.626368607107527e-05,0.09352988004684448,13.389429092407227,-0.4737274944782257,-18.099092483520508,-0.3912253975868225,-2.2753939628601074,0.27591270208358765,0
53,0.2599918842315674,-0.14510458707809448,-13.413232803344727,0.5213348865509033,18.122896194458008,0.3912253975868225,2.2882113456726074,-0.26217979192733765,0.0,0.0,0.0,0.0,0.0,0.0,0.0,-0.1730749568068455,0.5161964535112584,0.07257937787024749,0.36347691191839016,-0.03567989865944982,0.0745829562315459,-0.26194707625561653,0.07138823497645533,-0.334300664102822,-0.12049267826734929,-2.874456463127805,-0.06438917201757431,2.5182787457042237,0.7687501155469152,0.07165585495296277,-0.33419673383382315,-0.1203439052763738,-2.874768336042937,-0.06453255302590709,2.518161157661014,0.7687020283728597,-4.659672584996485e-06,8.931867970031054e-05,-0.0003621732670424606,-0.0006706012774661831,7.361343975777677e-05,-0.00025871560293779276,-0.0004591318990744831,0.0,0.0,0.0,0.0,0.0,0.0,0.0,0.00026761997650744107,0.00010393026899885305,0.00014877299097548757,-0.00031187291513212756,-0.0001433810083327769,-0.00011758804320960436,-4.80871740554667e-05,4.659672584996485e-06,-8.931867970031054e-05,0.0003621732670424606,0.0006706012774661831,-7.361343975777677e-05,0.00025871560293779276,0.0004591318990744831,0.14510458707809448,13.413232803344727,-0.5213348865509033,-18.122896194458008,-0.3912253975868225,-2.2882113456726074,0.26217979192733765,0
54,0.26499509811401367,-0.14510458707809448,-13.413232803344727,0.5213348865509033,18.122896194458008,0.3912253975868225,2.2882113456726074,-0.26217979192733765,0.0,0.0,0.0,0.0,0.0,0.0,0.0,-0.1730749568068455,0.5161964535112584,0.07257937787024749,0.36347691191839016,-0.03567989865944982,0.0745829562315459,-0.26194707625561653,0.07138823497645533,-0.334300664102822,-0.12049267826734929,-2.874456463127805,-0.06438917201757431,2.5182787457042237,0.7687501155469152,0.07165585495296277,-0.33419673383382315,-0.1203439052763738,-2.874768336042937,-0.06453255302590709,2.518161157661014,0.7687020283728597,-4.659672584996485e-06,8.931867970031054e-05,-0.0003621732670424606,-0.0006706012774661831,7.361343975777677e-05,-0.00025871560293779276,-0.0004591318990744831,0.0,0.0,0.0,0.0,0.0,0.0,0.0,0.00026761997650744107,0.00010393026899885305,0.00014877299097548757,-0.00031187291513212756,-0.0001433810083327769,-0.00011758804320960436,-4.80871740554667e-05,4.659672584996485e-06,-8.931867970031054e-05,0.0003621732670424606,0.0006706012774661831,-7.361343975777677e-05,0.00025871560293779276,0.0004591318990744831,0.14510458707809448,13.413232803344727,-0.5213348865509033,-18.122896194458008,-0.3912253975868225,-2.2882113456726074,0.26217979192733765,0
55,0.27063894271850586,-0.17287558317184448,-13.389429092407227,0.4221527874469757,18.122896194458008,0.3912253975868225,2.2818026542663574,-0.24112264811992645,0.0,0.0,0.0,0.0,0.0,0.0,0.0,-0.16856002574481926,0.5145862808893431,0.07679124390242037,0.36318194273993326,-0.03520675796598741,0.07410171601910262,-0.2632691611245202,0.07139018385452116,-0.3343023345386773,-0.1204877188237725,-2.874456463127805,-0.06438917201757431,2.5182794577810497,0.7687477758642699,0.07165585495296277,-0.33419673383382315,-0.1203439052763738,-2.874768336042937,-0.06453255302590709,2.518161157661014,0.7687020283728597,6.852489827049337e-05,-0.0008013748130746608,0.0022821983319291582,-0.00031710223759936037,0.00016355334981410784,2.749836659388143e-05,0.00017447486155739518,0.0,0.0,0.0,0.0,0.0,0.0,0.0,0.0002656710984416111,0.00010560070485415851,0.00014381354739870233,-0.00031187291513212756,-0.0001433810083327769,-0.00011830012003555268,-4.57474914101752e-05,-6.852489827049337e-05,0.0008013748130746608,-0.0022821983319291582,0.00031710223759936037,-0.00016355334981410784,-2.749836659388143e-05,-0.00017447486155739518,0.17287558317184448,13.389429092407227,-0.4221527874469757,-18.122896194458008,-0.3912253975868225,-2.2818026542663574,0.24112264811992645,0
56,0.2749936580657959,-0.17287558317184448,-13.389429092407227,0.4221527874469757,18.122896194458008,0.3912253975868225,2.2818026542663574,-0.24112264811992645,0.0,0.0,0.0,0.0,0.0,0.0,0.0,-0.16856002574481926,0.5145862808893431,0.07679124390242037,0.36318194273993326,-0.03520675796598741,0.07410171601910262,-0.2632691611245202,0.07139018385452116,-0.3343023345386773,-0.1204877188237725,-2.874456463127805,-0.06438917201757431,2.5182794577810497,0.7687477758642699,0.07165585495296277,-0.33419673383382315,-0.1203439052763738,-2.874768336042937,-0.06453255302590709,2.518161157661014,0.7687020283728597,6.852489827049337e-05,-0.0008013748130746608,0.0022821983319291582,-0.00031710223759936037,0.00016355334981410784,2.749836659388143e-05,0.00017447486155739518,0.0,0.0,0.0,0.0,0.0,0.0,0.0,0.0002656710984416111,0.00010560070485415851,0.00014381354739870233,-0.00031187291513212756,-0.0001433810083327769,-0.00011830012003555268,-4.57474914101752e-05,-6.852489827049337e-05,0.0008013748130746608,-0.0022821983319291582,0.00031710223759936037,-0.00016355334981410784,-2.749836659388143e-05,-0.00017447486155739518,0.17287558317184448,13.389429092407227,-0.4221527874469757,-18.122896194458008,-0.3912253975868225,-2.2818026542663574,0.24112264811992645,0
57,0.279996395111084,-0.14510458707809448,-13.413232803344727,0.4737274944782257,18.122896194458008,0.3976340889930725,2.2818026542663574,-0.23471395671367645,0.0,0.0,0.0,0.0,0.0,0.0,0.0,-0.16908546116692963,0.5103078536077996,0.07927654066140997,0.3650924596253339,-0.03490646653717262,0.07381159392113512,-0.2576773751270969,0.07138752472400665,-0.334300664102822,-0.12049008273894182,-2.874456463127805,-0.06438988409439722,2.5182794577810497,0.768747063787447,0.07165585495296277,-0.33419673383382315,-0.1203439052763738,-2.874768336042937,-0.06453255302590709,2.518161157661014,0.7687020283728597,-0.0008255146818815426,-0.0006672710506831483,0.0002008080209975968,-0.0005446361494306738,-0.00010059758459192485,0.00021786779560397404,0.0002451644243044746,0.0,0.0,0.0,0.0,0.0,0.0,0.0,0.00026833022895611514,0.00010393026899885305,0.0001461774625680229,-0.00031187291513212756,-0.0001426689315098678,-0.00011830012003555268,-4.503541458722449e-05,0.0008255146818815426,0.0006672710506831483,-0.0002008080209975968,0.0005446361494306738,0.00010059758459192485,-0.00021786779560397404,-0.0002451644243044746,0.14510458707809448,13.413232803344727,-0.4737274944782257,-18.122896194458008,-0.3976340889930725,-2.2818026542663574,0.23471395671367645,0
58,0.28499746322631836,-0.14510458707809448,-13.413232803344727,0.4737274944782257,18.122896194458008,0.3976340889930725,2.2818026542663574,-0.23471395671367645,0.0,0.0,0.0,0.0,0.0,0.0,0.0,-0.16908546116692963,0.5103078536077996,0.07927654066140997,0.3650924596253339,-0.03490646653717262,0.07381159392113512,-0.2576773751270969,0.07138752472400665,-0.334300664102822,-0.12049008273894182,-2.874456463127805,-0.06438988409439722,2.5182794577810497,0.768747063787447,0.07165585495296277,-0.33419673383382315,-0.1203439052763738,-2.874768336042937,-0.06453255302590709,2.518161157661014,0.7687020283728597,-0.0008255146818815426,-0.0006672710506831483,0.0002008080209975968,-0.0005446361494306738,-0.00010059758459192485,0.00021786779560397404,0.0002451644243044746,0.0,0.0,0.0,0.0,0.0,0.0,0.0,0.00026833022895611514,0.00010393026899885305,0.0001461774625680229,-0.00031187291513212756,-0.0001426689315098678,-0.00011830012003555268,-4.503541458722449e-05,0.0008255146818815426,0.0006672710506831483,-0.0002008080209975968,0.0005446361494306738,0.00010059758459192485,-0.00021786779560397404,-0.0002451644243044746,0.14510458707809448,13.413232803344727,-0.4737274944782257,-18.122896194458008,-0.3976340889930725,-2.2818026542663574,0.23471395671367645,0
59,0.28994131088256836,-0.19667929410934448,-13.464807510375977,0.5213348865509033,18.122896194458008,0.3976340889930725,2.2818026542663574,-0.22830526530742645,0.0,0.0,0.0,0.0,0.0,0.0,0.0,-0.17162141880966705,0.5115657893741141,0.07563201133459437,0.3643539788433441,-0.03508672771476707,0.07318127628390746,-0.25026151954393117,0.07139185428636703,-0.3342970448251356,-0.12049315288127402,-2.874456463127805,-0.06438988409439722,2.5182794577810497,0.768746351710624,0.07165585495296277,-0.33419673383382315,-0.1203439052763738,-2.874768336042937,-0.06453255302590709,2.518161157661014,0.7687020283728597,0.0001752460982977242,0.0011957695078426366,-0.0015426378511783463,-0.00021389992844082978,-0.00010969131693131559,4.654246817603613e-05,-0.0003564666978833992,0.0,0.0,0.0,0.0,0.0,0.0,0.0,0.0002640006665957373,0.0001003109913124689,0.00014924760490021838,-0.00031187291513212756,-0.0001426689315098678,-0.00011830012003555268,-4.4323337764273774e-05,-0.0001752460982977242,-0.0011957695078426366,0.0015426378511783463,0.00021389992844082978,0.00010969131693131559,-4.654246817603613e-05,0.0003564666978833992,0.19667929410934448,13.464807510375977,-0.5213348865509033,-18.122896194458008,-0.3976340889930725,-2.2818026542663574,0.22830526530742645,0
60,0.294999361038208,-0.19667929410934448,-13.464807510375977,0.5213348865509033,18.122896194458008,0.3976340889930725,2.2818026542663574,-0.22830526530742645,0.0,0.0,0.0,0.0,0.0,0.0,0.0,-0.17162141880966705,0.5115657893741141,0.07563201133459437,0.3643539788433441,-0.03508672771476707,0.07318127628390746,-0.25026151954393117,0.07139185428636703,-0.3342970448251356,-0.12049315288127402,-2.874456463127805,-0.06438988409439722,2.5182794577810497,0.768746351710624,0.07165585495296277,-0.33419673383382315,-0.1203439052763738,-2.874768336042937,-0.06453255302590709,2.518161157661014,0.7687020283728597,0.0001752460982977242,0.0011957695078426366,-0.0015426378511783463,-0.00021389992844082978,-0.00010969131693131559,4.654246817603613e-05,-0.0003564666978833992,0.0,0.0,0.0,0.0,0.0,0.0,0.0,0.0002640006665957373,0.0001003109913124689,0.00014924760490021838,-0.00031187291513212756,-0.0001426689315098678,-0.00011830012003555268,-4.4323337764273774e-05,-0.0001752460982977242,-0.0011957695078426366,0.0015426378511783463,0.00021389992844082978,0.00010969131693131559,-4.654246817603613e-05,0.0003564666978833992,0.19667929410934448,13.464807510375977,-0.5213348865509033,-18.122896194458008,-0.3976340889930725,-2.2818026542663574,0.22830526530742645,0
61,0.29999828338623047,-0.14510458707809448,-13.464807510375977,0.4975312054157257,18.122896194458008,0.3912253975868225,2.2882113456726074,-0.28232139348983765,0.0,0.0,0.0,0.0,0.0,0.0,0.0,-0.17053760559629783,0.5082378704067706,0.07688330252882701,0.3641592761928793,-0.03553185706068351,0.07312374996526265,-0.24897301389542345,0.07138726165412365,-0.3342970448251356,-0.12049085908561795,-2.874456463127805,-0.06438917201757431,2.5182787457042264,0.7687523535026444,0.07165585495296277,-0.33419673383382315,-0.1203439052763738,-2.874768336042937,-0.06453255302590709,2.518161157661014,0.7687020283728597,-0.001204031449091815,0.001035999926038236,0.00019970607542959152,-0.0005515130122577656,0.0002250633556930431,0.00020232001231010926,0.000770228590757417,0.0,0.0,0.0,0.0,0.0,0.0,0.0,0.00026859329883911764,0.0001003109913124689,0.00014695380924414914,-0.00031187291513212756,-0.0001433810083327769,-0.0001175880432122689,-5.0325129784645206e-05,0.001204031449091815,-0.001035999926038236,-0.00019970607542959152,0.0005515130122577656,-0.0002250633556930431,-0.00020232001231010926,-0.000770228590757417,0.14510458707809448,13.464807510375977,-0.4975312054157257,-18.122896194458008,-0.3912253975868225,-2.2882113456726074,0.28232139348983765,0
62,0.3050103187561035,-0.14510458707809448,-13.464807510375977,0.4975312054157257,18.122896194458008,0.3912253975868225,2.2882113456726074,-0.28232139348983765,0.0,0.0,0.0,0.0,0.0,0.0,0.0,-0.17053760559629783,0.5082378704067706,0.07688330252882701,0.3641592761928793,-0.03553185706068351,0.07312374996526265,-0.24897301389542345,0.07138726165412365,-0.3342970448251356,-0.12049085908561795,-2.874456463127805,-0.06438917201757431,2.5182787457042264,0.7687523535026444,0.07165585495296277,-0.33419673383382315,-0.1203439052763738,-2.874768336042937,-0.06453255302590709,2.518161157661014,0.7687020283728597,-0.001204031449091815,0.001035999926038236,0.00019970607542959152,-0.0005515130122577656,0.0002250633556930431,0.00020232001231010926,0.000770228590757417,0.0,0.0,0.0,0.0,0.0,0.0,0.0,0.00026859329883911764,0.0001003109913124689,0.00014695380924414914,-0.00031187291513212756,-0.0001433810083327769,-0.0001175880432122689,-5.0325129784645206e-05,0.001204031449091815,-0.001035999926038236,-0.00019970607542959152,0.0005515130122577656,-0.0002250633556930431,-0.00020232001231010926,-0.000770228590757417,0.14510458707809448,13.464807510375977,-0.4975312054157257,-18.122896194458008,-0.3912253975868225,-2.2882113456726074,0.28232139348983765,0
63,0.31000351905822754,-0.17287558317184448,-13.413232803344727,0.4975312054157257,18.099092483520508,0.3976340889930725,2.2946200370788574,-0.27591270208358765,0.0,0.0,0.0,0.0,0.0,0.0,0.0,-0.17366261725841364,0.5046641705274644,0.07367952705831388,0.3659569034444183,-0.03485395105529744,0.07486133810994018,-0.2537941514771778,0.07139018374443061,-0.334300664102822,-0.1204915577905315,-2.87445479269195,-0.06438988409439722,2.5182780336274035,0.7687516414258214,0.07165585495296277,-0.33419673383382315,-0.1203439052763738,-2.874768336042937,-0.06453255302590709,2.518161157661014,0.7687020283728597,0.00010037866795944873,-0.00017945586146309186,-0.0002648948380163114,0.0003644269739692153,-7.096421366825459e-05,-9.71549673516296e-05,-3.339552636470444e-05,0.0,0.0,0.0,0.0,0.0,0.0,0.0,0.00026567120853215886,0.00010393026899885305,0.00014765251415770064,-0.00031354335098709996,-0.0001426689315098678,-0.00011687596638942921,-4.961305296169449e-05,-0.00010037866795944873,0.00017945586146309186,0.0002648948380163114,-0.0003644269739692153,7.096421366825459e-05,9.71549673516296e-05,3.339552636470444e-05,0.17287558317184448,13.413232803344727,-0.4975312054157257,-18.099092483520508,-0.3976340889930725,-2.2946200370788574,0.27591270208358765,0
64,0.3150005340576172,-0.17287558317184448,-13.413232803344727,0.4975312054157257,18.099092483520508,0.3976340889930725,2.2946200370788574,-0.27591270208358765,0.0,0.0,0.0,0.0,0.0,0.0,0.0,-0.17366261725841364,0.5046641705274644,0.07367952705831388,0.3659569034444183,-0.03485395105529744,0.07486133810994018,-0.2537941514771778,0.07139018374443061,-0.334300664102822,-0.1204915577905315,-2.87445479269195,-0.06438988409439722,2.5182780336274035,0.7687516414258214,0.07165585495296277,-0.33419673383382315,-0.1203439052763738,-2.874768336042937,-0.06453255302590709,2.518161157661014,0.7687020283728597,0.00010037866795944873,-0.00017945586146309186,-0.0002648948380163114,0.0003644269739692153,-7.096421366825459e-05,-9.71549673516296e-05,-3.339552636470444e-05,0.0,0.0,0.0,0.0,0.0,0.0,0.0,0.00026567120853215886,0.00010393026899885305,0.00014765251415770064,-0.00031354335098709996,-0.0001426689315098678,-0.00011687596638942921,-4.961305296169449e-05,-0.00010037866795944873,0.00017945586146309186,0.0002648948380163114,-0.0003644269739692153,7.096421366825459e-05,9.71549673516296e-05,3.339552636470444e-05,0.17287558317184448,13.413232803344727,-0.4975312054157257,-18.099092483520508,-0.3976340889930725,-2.2946200370788574,0.27591270208358765,0
65,0.3205573558807373,-0.12130087614059448,-13.389429092407227,0.4737274944782257,18.099092483520508,0.3976340889930725,2.2882113456726074,-0.26217979192733765,0.0,0.0,0.0,0.0,0.0,0.0,0.0,-0.17013266182526257,0.5086340789116154,0.07454184461193421,0.3638770650112434,-0.03465110803424467,0.0754023799121043,-0.2596154609167337,0.07138656457683434,-0.3343023345386773,-0.12049126795259468,-2.87445479269195,-0.06438988409439722,2.5182787457042264,0.7687501155469152,0.07165585495296277,-0.33419673383382315,-0.1203439052763738,-2.874768336042937,-0.06453255302590709,2.518161157661014,0.7687020283728597,-0.00036552596642172775,-0.0001284069815982697,0.0004937012776735918,0.00012721362336783342,-0.00012299443930781405,0.0002170698270453547,-0.000505622063233561,0.0,0.0,0.0,0.0,0.0,0.0,0.0,0.00026929037612842543,0.00010560070485415851,0.00014736267622088295,-0.00031354335098709996,-0.0001426689315098678,-0.0001175880432122689,-4.80871740554667e-05,0.00036552596642172775,0.0001284069815982697,-0.0004937012776735918,-0.00012721362336783342,0.00012299443930781405,-0.0002170698270453547,0.000505622063233561,0.12130087614059448,13.389429092407227,-0.4737274944782257,-18.099092483520508,-0.3976340889930725,-2.2882113456726074,0.26217979192733765,0
66,0.3250303268432617,-0.12130087614059448,-13.389429092407227,0.4737274944782257,18.099092483520508,0.3976340889930725,2.2882113456726074,-0.26217979192733765,0.0,0.0,0.0,0.0,0.0,0.0,0.0,-0.17013266182526257,0.5086340789116154,0.07454184461193421,0.3638770650112434,-0.03465110803424467,0.0754023799121043,-0.2596154609167337,0.07138656457683434,-0.3343023345386773,-0.12049126795259468,-2.87445479269195,-0.06438988409439722,2.5182787457042264,0.7687501155469152,0.07165585495296277,-0.33419673383382315,-0.1203439052763738,-2.874768336042937,-0.06453255302590709,2.518161157661014,0.7687020283728597,-0.00036552596642172775,-0.0001284069815982697,0.0004937012776735918,0.00012721362336783342,-0.00012299443930781405,0.0002170698270453547,-0.000505622063233561,0.0,0.0,0.0,0.0,0.0,0.0,0.0,0.00026929037612842543,0.00010560070485415851,0.00014736267622088295,-0.00031354335098709996,-0.0001426689315098678,-0.0001175880432122689,-4.80871740554667e-05,0.00036552596642172775,0.0001284069815982697,-0.0004937012776735918,-0.00012721362336783342,0.00012299443930781405,-0.0002170698270453547,0.000505622063233561,0.12130087614059448,13.389429092407227,-0.4737274944782257,-18.099092483520508,-0.3976340889930725,-2.2882113456726074,0.26217979192733765,0
67,0.32999515533447266,-0.19667929410934448,-13.365625381469727,0.5451385974884033,18.099092483520508,0.4031272530555725,2.2882113456726074,-0.26217979192733765,0.0,0.0,0.0,0.0,0.0,0.0,0.0,-0.16698350552129232,0.5078131310713039,0.07419892694054012,0.3687970145038498,-0.0346139731745852,0.07680830912735787,-0.26297298637659716,0.07139185429037663,-0.33430400497453255,-0.12049435874745891,-2.87445479269195,-0.06439049439187218,2.5182787457042264,0.7687511751850445,0.07165585495296277,-0.33419673383382315,-0.1203439052763738,-2.874768336042937,-0.06453255302590709,2.518161157661014,0.7687020283728597,0.0013453517002487145,-0.0007171202189477939,-0.0009341744348691107,0.0004283513955552196,-0.00027337150185906283,4.090969022964996e-05,0.006681686269113379,0.0,0.0,0.0,0.0,0.0,0.0,0.0,0.0002640006625861391,0.00010727114070940846,0.0001504534710851102,-0.00031354335098709996,-0.00014205863403490837,-0.0001175880432122689,-4.914681218481931e-05,-0.0013453517002487145,0.0007171202189477939,0.0009341744348691107,-0.0004283513955552196,0.00027337150185906283,-4.090969022964996e-05,-0.006681686269113379,0.19667929410934448,13.365625381469727,-0.5451385974884033,-18.099092483520508,-0.4031272530555725,-2.2882113456726074,0.26217979192733765,0
68,0.3350100517272949,-0.19667929410934448,-13.365625381469727,0.5451385974884033,18.099092483520508,0.4031272530555725,2.2882113456726074,-0.26217979192733765,0.0,0.0,0.0,0.0,0.0,0.0,0.0,-0.16698350552129232,0.5078131310713039,0.07419892694054012,0.3687970145038498,-0.0346139731745852,0.07680830912735787,-0.26297298637659716,0.07139185429037663,-0.33430400497453255,-0.12049435874745891,-2.87445479269195,-0.06439049439187218,2.5182787457042264,0.7687511751850445,0.07165585495296277,-0.33419673383382315,-0.1203439052763738,-2.874768336042937,-0.06453255302590709,2.518161157661014,0.7687020283728597,0.0013453517002487145,-0.0007171202189477939,-0.0009341744348691107,0.0004283513955552196,-0.00027337150185906283,4.090969022964996e-05,0.006681686269113379,0.0,0.0,0.0,0.0,0.0,0.0,0.0,0.0002640006625861391,0.00010727114070940846,0.0001504534710851102,-0.00031354335098709996,-0.00014205863403490837,-0.0001175880432122689,-4.914681218481931e-05,-0.0013453517002487145,0.0007171202189477939,0.0009341744348691107,-0.0004283513955552196,0.00027337150185906283,-4.090969022964996e-05,-0.006681686269113379,0.19667929410934448,13.365625381469727,-0.5451385974884033,-18.099092483520508,-0.4031272530555725,-2.2882113456726074,0.26217979192733765,0
69,0.3399944305419922,-0.17287558317184448,-13.365625381469727,0.4737274944782257,18.122896194458008,0.4031272530555725,2.2753939628601074,-0.22098104655742645,0.0,0.0,0.0,0.0,0.0,0.0,0.0,-0.16558801310402022,0.514474370765352,0.07670562181739149,0.3691668707639048,-0.03460406318887107,0.07710581388672966,-0.2610904504641922,0.07139018385452137,-0.33430400497453255,-0.12049015399835176,-2.874456463127805,-0.06439049444595941,2.5182801698578725,0.7687455379145225,0.07165585495296277,-0.33419673383382315,-0.1203439052763738,-2.874768336042937,-0.06453255302590709,2.518161157661014,0.7687020283728597,7.013250584188567e-05,-0.0002601191223055596,0.0009089780768647564,-0.00047790766970050747,-0.00014032850875835148,0.0006156791627255349,-3.2787587008294887e-06,0.0,0.0,0.0,0.0,0.0,0.0,0.0,0.0002656710984414029,0.00010727114070940846,0.00014624872197796512,-0.00031187291513212756,-0.00014205857994767368,-0.00011901219685839237,-4.3509541662767326e-05,-7.013250584188567e-05,0.0002601191223055596,-0.0009089780768647564,0.00047790766970050747,0.00014032850875835148,-0.0006156791627255349,3.2787587008294887e-06,0.17287558317184448,13.365625381469727,-0.4737274944782257,-18.122896194458008,-0.4031272530555725,-2.2753939628601074,0.22098104655742645,0
70,0.345001220703125,-0.17287558317184448,-13.365625381469727,0.4737274944782257,18.122896194458008,0.4031272530555725,2.2753939628601074,-0.22098104655742645,0.0,0.0,0.0,0.0,0.0,0.0,0.0,-0.16558801310402022,0.514474370765352,0.07670562181739149,0.3691668707639048,-0.03460406318887107,0.07710581388672966,-0.2610904504641922,0.07139018385452137,-0.33430400497453255,-0.12049015399835176,-2.874456463127805,-0.06439049444595941,2.5182801698578725,0.7687455379145225,0.07165585495296277,-0.33419673383382315,-0.1203439052763738,-2.874768336042937,-0.06453255302590709,2.518161157661014,0.7687020283728597,7.013250584188567e-05,-0.0002601191223055596,0.0009089780768647564,-0.00047790766970050747,-0.00014032850875835148,0.0006156791627255349,-3.2787587008294887e-06,0.0,0.0,0.0,0.0,0.0,0.0,0.0,0.0002656710984414029,0.00010727114070940846,0.00014624872197796512,-0.00031187291513212756,-0.00014205857994767368,-0.00011901219685839237,-4.3509541662767326e-05,-7.013250584188567e-05,0.0002601191223055596,-0.0009089780768647564,0.00047790766970050747,0.00014032850875835148,-0.0006156791627255349,3.2787587008294887e-06,0.17287558317184448,13.365625381469727,-0.4737274944782257,-18.122896194458008,-0.4031272530555725,-2.2753939628601074,0.22098104655742645,0
71,0.3499562740325928,-0.19667929410934448,-13.437036514282227,0.4737274944782257,18.099092483520508,0.3976340889930725,2.2882113456726074,-0.22098104655742645,0.0,0.0,0.0,0.0,0.0,0.0,0.0,-0.16302832074909754,0.5135874769827256,0.08134263052822985,0.3689069347898823,-0.034763913806010245,0.07767669655110838,-0.2539283823404044,0.07139185429037663,-0.33429899366696675,-0.1204891250832027,-2.87445479269195,-0.06438988409439722,2.5182787457042264,0.7687455379085408,0.07165585495296277,-0.33419673383382315,-0.1203439052763738,-2.874768336042937,-0.06453255302590709,2.518161157661014,0.7687020283728597,0.0007713270499722438,0.0006750752522438304,0.00025435213469513976,4.070885954956853e-05,0.0037746463575792635,0.00018262729056545748,-3.095898968964584e-05,0.0,0.0,0.0,0.0,0.0,0.0,0.0,0.0002640006625861391,0.0001022598331436031,0.00014521980682889735,-0.00031354335098709996,-0.0001426689315098678,-0.0001175880432122689,-4.3509535681107714e-05,-0.0007713270499722438,-0.0006750752522438304,-0.00025435213469513976,-4.070885954956853e-05,-0.0037746463575792635,-0.00018262729056545748,3.095898968964584e-05,0.19667929410934448,13.437036514282227,-0.4737274944782257,-18.099092483520508,-0.3976340889930725,-2.2882113456726074,0.22098104655742645,0
72,0.35498857498168945,-0.19667929410934448,-13.437036514282227,0.4737274944782257,18.099092483520508,0.3976340889930725,2.2882113456726074,-0.22098104655742645,0.0,0.0,0.0,0.0,0.0,0.0,0.0,-0.16302832074909754,0.5135874769827256,0.08134263052822985,0.3689069347898823,-0.034763913806010245,0.07767669655110838,-0.2539283823404044,0.07139185429037663,-0.33429899366696675,-0.1204891250832027,-2.87445479269195,-0.06438988409439722,2.5182787457042264,0.7687455379085408,0.07165585495296277,-0.33419673383382315,-0.1203439052763738,-2.874768336042937,-0.06453255302590709,2.518161157661014,0.7687020283728597,0.0007713270499722438,0.0006750752522438304,0.00025435213469513976,4.070885954956853e-05,0.0037746463575792635,0.00018262729056545748,-3.095898968964584e-05,0.0,0.0,0.0,0.0,0.0,0.0,0.0,0.0002640006625861391,0.0001022598331436031,0.00014521980682889735,-0.00031354335098709996,-0.0001426689315098678,-0.0001175880432122689,-4.3509535681107714e-05,-0.0007713270499722438,-0.0006750752522438304,-0.00025435213469513976,-4.070885954956853e-05,-0.0037746463575792635,-0.00018262729056545748,3.095898968964584e-05,0.19667929410934448,13.437036514282227,-0.4737274944782257,-18.099092483520508,-0.3976340889930725,-2.2882113456726074,0.22098104655742645,0
73,0.35995006561279297,-0.17287558317184448,-13.389429092407227,0.4459564983844757,18.099092483520508,0.4031272530555725,2.2946200370788574,-0.27591270208358765,0.0,0.0,0.0,0.0,0.0,0.0,0.0,-0.16730851887921244,0.5143300020731963,0.07725816084209612,0.3662162648174839,-0.034663838554929355,0.07716390440863931,-0.2477966283922218,0.07139018385452137,-0.3343023345386773,-0.12048715209375895,-2.87445479269195,-0.06439049444595972,2.5182780336274035,0.7687516414258215,0.07165585495296277,-0.33419673383382315,-0.1203439052763738,-2.874768336042937,-0.06453255302590709,2.518161157661014,0.7687020283728597,-0.000510031403365546,-0.0009067455979610527,0.0007335981641637035,0.000282169416860983,-0.00019824198172810608,-0.00038971004364368164,0.0002260826602180513,0.0,0.0,0.0,0.0,0.0,0.0,0.0,0.0002656710984414029,0.00010560070485415851,0.00014324681738514533,-0.00031354335098709996,-0.00014205857994736837,-0.00011687596638942921,-4.9613052961805515e-05,0.000510031403365546,0.0009067455979610527,-0.0007335981641637035,-0.000282169416860983,0.00019824198172810608,0.00038971004364368164,-0.0002260826602180513,0.17287558317184448,13.389429092407227,-0.4459564983844757,-18.099092483520508,-0.4031272530555725,-2.2946200370788574,0.27591270208358765,0
74,0.36496710777282715,-0.17287558317184448,-13.389429092407227,0.4459564983844757,18.099092483520508,0.4031272530555725,2.2946200370788574,-0.27591270208358765,0.0,0.0,0.0,0.0,0.0,0.0,0.0,-0.16730851887921244,0.5143300020731963,0.07725816084209612,0.3662162648174839,-0.034663838554929355,0.07716390440863931,-0.2477966283922218,0.07139018385452137,-0.3343023345386773,-0.12048715209375895,-2.87445479269195,-0.06439049444595972,2.5182780336274035,0.7687516414258215,0.07165585495296277,-0.33419673383382315,-0.1203439052763738,-2.874768336042937,-0.06453255302590709,2.518161157661014,0.7687020283728597,-0.000510031403365546,-0.0009067455979610527,0.0007335981641637035,0.000282169416860983,-0.00019824198172810608,-0.00038971004364368164,0.0002260826602180513,0.0,0.0,0.0,0.0,0.0,0.0,0.0,0.0002656710984414029,0.00010560070485415851,0.00014324681738514533,-0.00031354335098709996,-0.00014205857994736837,-0.00011687596638942921,-4.9613052961805515e-05,0.000510031403365546,0.0009067455979610527,-0.0007335981641637035,-0.000282169416860983,0.00019824198172810608,0.00038971004364368164,-0.0002260826602180513,0.17287558317184448,13.389429092407227,-0.4459564983844757,-18.099092483520508,-0.4031272530555725,-2.2946200370788574,0.27591270208358765,0
75,0.3699684143066406,-0.17287558317184448,-13.389429092407227,0.4459564983844757,18.099092483520508,0.4031272530555725,2.2946200370788574,-0.27591270208358765,0.0,0.0,0.0,0.0,0.0,0.0,0.0,-0.16730851887921244,0.5143300020731963,0.07725816084209612,0.3662162648174839,-0.034663838554929355,0.07716390440863931,-0.2477966283922218,0.07139018385452137,-0.3343023345386773,-0.12048715209375895,-2.87445479269195,-0.06439049444595972,2.5182780336274035,0.7687516414258215,0.07165585495296277,-0.33419673383382315,-0.1203439052763738,-2.874768336042937,-0.06453255302590709,2.518161157661014,0.7687020283728597,-0.000510031403365546,-0.0009067455979610527,0.0007335981641637035,0.000282169416860983,-0.00019824198172810608,-0.00038971004364368164,0.0002260826602180513,0.0,0.0,0.0,0.0,0.0,0.0,0.0,0.0002656710984414029,0.00010560070485415851,0.00014324681738514533,-0.00031354335098709996,-0.00014205857994736837,-0.00011687596638942921,-4.9613052961805515e-05,0.000510031403365546,0.0009067455979610527,-0.0007335981641637035,-0.000282169416860983,0.00019824198172810608,0.00038971004364368164,-0.0002260826602180513,0.17287558317184448,13.389429092407227,-0.4459564983844757,-18.099092483520508,-0.4031272530555725,-2.2946200370788574,0.27591270208358765,0
76,0.37499260902404785,-0.17287558317184448,-13.389429092407227,0.4459564983844757,18.099092483520508,0.4031272530555725,2.2946200370788574,-0.27591270208358765,0.0,0.0,0.0,0.0,0.0,0.0,0.0,-0.16730851887921244,0.5143300020731963,0.07725816084209612,0.3662162648174839,-0.034663838554929355,0.07716390440863931,-0.2477966283922218,0.07139018385452137,-0.3343023345386773,-0.12048715209375895,-2.87445479269195,-0.06439049444595972,2.5182780336274035,0.7687516414258215,0.07165585495296277,-0.33419673383382315,-0.1203439052763738,-2.874768336042937,-0.06453255302590709,2.518161157661014,0.7687020283728597,-0.000510031403365546,-0.0009067455979610527,0.0007335981641637035,0.000282169416860983,-0.00019824198172810608,-0.00038971004364368164,0.0002260826602180513,0.0,0.0,0.0,0.0,0.0,0.0,0.0,0.0002656710984414029,0.00010560070485415851,0.00014324681738514533,-0.00031354335098709996,-0.00014205857994736837,-0.00011687596638942921,-4.9613052961805515e-05,0.000510031403365546,0.0009067455979610527,-0.0007335981641637035,-0.000282169416860983,0.00019824198172810608,0.00038971004364368164,-0.0002260826602180513,0.17287558317184448,13.389429092407227,-0.4459564983844757,-18.099092483520508,-0.4031272530555725,-2.2946200370788574,0.27591270208358765,0
77,0.3799910545349121,-0.14510458707809448,-13.437036514282227,0.4975312054157257,18.099092483520508,0.3976340889930725,2.2882113456726074,-0.27591270208358765,0.0,0.0,0.0,0.0,0.0,0.0,0.0,-0.17333255832898206,0.5111027949501176,0.07308040423820751,0.3644850313620228,-0.03488786688916522,0.07650156885714177,-0.25201977609052184,0.07138752472400665,-0.33429899366696675,-0.12049182948491201,-2.87445479269195,-0.06438988409439722,2.5182787457042264,0.7687516414258215,0.07165585495296277,-0.33419673383382315,-0.1203439052763738,-2.874768336042937,-0.06453255302590709,2.518161157661014,0.7687020283728597,-0.001502458850735253,0.00017428812673827716,-0.0005433016571232927,-2.941160320386776e-05,-0.00027435357735715353,3.82641039726954e-05,4.3143074890128816e-06,0.0,0.0,0.0,0.0,0.0,0.0,0.0,0.00026833022895611514,0.0001022598331436031,0.0001479242085382082,-0.00031354335098709996,-0.0001426689315098678,-0.0001175880432122689,-4.9613052961805515e-05,0.001502458850735253,-0.00017428812673827716,0.0005433016571232927,2.941160320386776e-05,0.00027435357735715353,-3.82641039726954e-05,-4.3143074890128816e-06,0.14510458707809448,13.437036514282227,-0.4975312054157257,-18.099092483520508,-0.3976340889930725,-2.2882113456726074,0.27591270208358765,0
78,0.384990930557251,-0.14510458707809448,-13.437036514282227,0.4975312054157257,18.099092483520508,0.3976340889930725,2.2882113456726074,-0.27591270208358765,0.0,0.0,0.0,0.0,0.0,0.0,0.0,-0.17333255832898206,0.5111027949501176,0.07308040423820751,0.3644850313620228,-0.03488786688916522,0.07650156885714177,-0.25201977609052184,0.07138752472400665,-0.33429899366696675,-0.12049182948491201,-2.87445479269195,-0.06438988409439722,2.5182787457042264,0.7687516414258215,0.07165585495296277,-0.33419673383382315,-0.1203439052763738,-2.874768336042937,-0.06453255302590709,2.518161157661014,0.7687020283728597,-0.001502458850735253,0.00017428812673827716,-0.0005433016571232927,-2.941160320386776e-05,-0.00027435357735715353,3.82641039726954e-05,4.3143074890128816e-06,0.0,0.0,0.0,0.0,0.0,0.0,0.0,0.00026833022895611514,0.0001022598331436031,0.0001479242085382082,-0.00031354335098709996,-0.0001426689315098678,-0.0001175880432122689,-4.9613052961805515e-05,0.001502458850735253,-0.00017428812673827716,0.0005433016571232927,2.941160320386776e-05,0.00027435357735715353,-3.82641039726954e-05,-4.3143074890128816e-06,0.14510458707809448,13.437036514282227,-0.4975312054157257,-18.099092483520508,-0.3976340889930725,-2.2882113456726074,0.27591270208358765,0
79,0.39000415802001953,-0.19667929410934448,-13.389429092407227,0.4737274944782257,18.099092483520508,0.3976340889930725,2.2818026542663574,-0.27591270208358765,0.0,0.0,0.0,0.0,0.0,0.0,0.0,-0.1741028099914602,0.5109532527743182,0.07295588216976498,0.360811930313406,-0.03588148209218847,0.07592251141499158,-0.258327811954965,0.0713916165491396,-0.3343023345386773,-0.12048920323445562,-2.87445479269195,-0.06438988409439722,2.5182794577810497,0.7687516370106626,0.07165585495296277,-0.33419673383382315,-0.1203439052763738,-2.874768336042937,-0.06453255302590709,2.518161157661014,0.7687020283728597,0.0007073323639472376,-0.000269898706942869,0.00022589594988625816,-0.00025806676117284805,-3.687484788843514e-05,3.632216524293521e-05,-0.00010982953232431714,0.0,0.0,0.0,0.0,0.0,0.0,0.0,0.0002642384038231693,0.00010560070485415851,0.00014529795808182477,-0.00031354335098709996,-0.0001426689315098678,-0.00011830012003555268,-4.960863780290037e-05,-0.0007073323639472376,0.000269898706942869,-0.00022589594988625816,0.00025806676117284805,3.687484788843514e-05,-3.632216524293521e-05,0.00010982953232431714,0.19667929410934448,13.389429092407227,-0.4737274944782257,-18.099092483520508,-0.3976340889930725,-2.2818026542663574,0.27591270208358765,0
