rezayati/contactInterpretation/dataset/franka_main/labeled_data/link5/c7_3.csv
index,time,tau_J0,tau_J1,tau_J2,tau_J3,tau_J4,tau_J5,tau_J6,tau_J_d0,tau_J_d1,tau_J_d2,tau_J_d3,tau_J_d4,tau_J_d5,tau_J_d6,tau_ext0,tau_ext1,tau_ext2,tau_ext3,tau_ext4,tau_ext5,tau_ext6,q0,q1,q2,q3,q4,q5,q6,q_d0,q_d1,q_d2,q_d3,q_d4,q_d5,q_d6,dq0,dq1,dq2,dq3,dq4,dq5,dq6,dq_d0,dq_d1,dq_d2,dq_d3,dq_d4,dq_d5,dq_d6,e0,e1,e2,e3,e4,e5,e6,de0,de1,de2,de3,de4,de5,de6,etau_J0,etau_J1,etau_J2,etau_J3,etau_J4,etau_J5,etau_J6,label
1,0.0,-0.3514034152030945,-34.03915023803711,-3.7752349376678467,19.237703323364258,0.05797344446182251,1.777347207069397,-0.15964071452617645,0.0,0.0,0.0,0.0,0.0,0.0,0.0,-0.36354084957431704,0.051732427392959524,-0.23262644899291524,0.24075871206722801,0.005446412198481604,-0.12510490349242537,-0.15873292763240138,1.0544287994032848,0.32363413425115767,-0.39252689076128455,-2.153033336930397,0.8648040194583271,2.465882944146792,0.5444995502930735,1.0544104758940245,0.3238615046091247,-0.39250456234122666,-2.153291787532338,0.8647539153680389,2.46587817577521,0.5445020185570556,-0.00026060527234052477,0.0005240259365018998,-0.00045643863744990025,0.0009512573659686541,0.0002487897657357714,0.00016085685036523536,7.840862783816628e-06,0.0,0.0,0.0,0.0,0.0,0.0,0.0,-1.8323509260342874e-05,0.0002273703579670494,2.232842005789326e-05,-0.00025845060194074065,-5.0104090288161096e-05,-4.76837158203125e-06,2.4682639820916563e-06,0.00026060527234052477,-0.0005240259365018998,0.00045643863744990025,-0.0009512573659686541,-0.0002487897657357714,-0.00016085685036523536,-7.840862783816628e-06,0.3514034152030945,34.03915023803711,3.7752349376678467,-19.237703323364258,-0.05797344446182251,-1.777347207069397,0.15964071452617645,0
2,0.0050122737884521484,-0.3236324191093445,-33.99154281616211,-3.7990386486053467,19.289278030395508,0.04607158899307251,1.790164589881897,-0.19351522624492645,0.0,0.0,0.0,0.0,0.0,0.0,0.0,-0.36672099556265136,0.05848859551371276,-0.2349798261591826,0.23804457868713835,0.00616337397982537,-0.12491126309228275,-0.15977394289306882,1.0544268404271797,0.32363288417637964,-0.3925254434145732,-2.1530367341678724,0.8648053477008808,2.4658815199931463,0.5445031963908034,1.0544104758940245,0.3238615046091247,-0.39250456234122666,-2.153291787532338,0.8647539153680389,2.46587817577521,0.5445020185570556,-0.0007511856054235775,-0.00023809446418238968,5.3045546553456984e-05,-0.00012963171852734337,0.0005519154256209049,-0.00048783502018207036,0.0012491653514468916,0.0,0.0,0.0,0.0,0.0,0.0,0.0,-1.636453315523312e-05,0.0002286204327450747,2.088107334652367e-05,-0.0002550533644654074,-5.143233284188309e-05,-3.3442179363518676e-06,-1.1778337477563738e-06,0.0007511856054235775,0.00023809446418238968,-5.3045546553456984e-05,0.00012963171852734337,-0.0005519154256209049,0.00048783502018207036,-0.0012491653514468916,0.3236324191093445,33.99154281616211,3.7990386486053467,-19.289278030395508,-0.04607158899307251,-1.790164589881897,0.19351522624492645,0
3,0.00999903678894043,-0.3236324191093445,-33.99154281616211,-3.7990386486053467,19.289278030395508,0.04607158899307251,1.790164589881897,-0.19351522624492645,0.0,0.0,0.0,0.0,0.0,0.0,0.0,-0.36672099556265136,0.05848859551371276,-0.2349798261591826,0.23804457868713835,0.00616337397982537,-0.12491126309228275,-0.15977394289306882,1.0544268404271797,0.32363288417637964,-0.3925254434145732,-2.1530367341678724,0.8648053477008808,2.4658815199931463,0.5445031963908034,1.0544104758940245,0.3238615046091247,-0.39250456234122666,-2.153291787532338,0.8647539153680389,2.46587817577521,0.5445020185570556,-0.0007511856054235775,-0.00023809446418238968,5.3045546553456984e-05,-0.00012963171852734337,0.0005519154256209049,-0.00048783502018207036,0.0012491653514468916,0.0,0.0,0.0,0.0,0.0,0.0,0.0,-1.636453315523312e-05,0.0002286204327450747,2.088107334652367e-05,-0.0002550533644654074,-5.143233284188309e-05,-3.3442179363518676e-06,-1.1778337477563738e-06,0.0007511856054235775,0.00023809446418238968,-5.3045546553456984e-05,0.00012963171852734337,-0.0005519154256209049,0.00048783502018207036,-0.0012491653514468916,0.3236324191093445,33.99154281616211,3.7990386486053467,-19.289278030395508,-0.04607158899307251,-1.790164589881897,0.19351522624492645,0
4,0.014960765838623047,-0.3752071261405945,-34.01534652709961,-3.7990386486053467,19.289278030395508,0.06438213586807251,1.777347207069397,-0.13858358561992645,0.0,0.0,0.0,0.0,0.0,0.0,0.0,-0.36659686728002633,0.05728194086372164,-0.23726476316295161,0.23988596306976184,0.0060076648949779115,-0.12451502476023721,-0.15998923746515423,1.0544303893893159,0.32363434138249647,-0.3925276264847776,-2.1530369552516113,0.8648033127111885,2.465882944146792,0.5444970930360192,1.0544104758940245,0.3238615046091247,-0.39250456234122666,-2.153291787532338,0.8647539153680389,2.46587817577521,0.5445020185570556,0.00043631686649912046,0.00016975357230739822,0.00011760704350393449,-0.00017267842329866067,-0.00020018450459161538,0.00024360128753868237,-0.0008244864196741578,0.0,0.0,0.0,0.0,0.0,0.0,0.0,-1.9913495291401517e-05,0.0002271632266282464,2.3064143550965976e-05,-0.00025483228072653574,-4.9397343149570894e-05,-4.76837158203125e-06,4.925521036369673e-06,-0.00043631686649912046,-0.00016975357230739822,-0.00011760704350393449,0.00017267842329866067,0.00020018450459161538,-0.00024360128753868237,0.0008244864196741578,0.3752071261405945,34.01534652709961,3.7990386486053467,-19.289278030395508,-0.06438213586807251,-1.777347207069397,0.13858358561992645,0
5,0.02041316032409668,-0.3752071261405945,-34.01534652709961,-3.7990386486053467,19.289278030395508,0.06438213586807251,1.777347207069397,-0.13858358561992645,0.0,0.0,0.0,0.0,0.0,0.0,0.0,-0.36659686728002633,0.05728194086372164,-0.23726476316295161,0.23988596306976184,0.0060076648949779115,-0.12451502476023721,-0.15998923746515423,1.0544303893893159,0.32363434138249647,-0.3925276264847776,-2.1530369552516113,0.8648033127111885,2.465882944146792,0.5444970930360192,1.0544104758940245,0.3238615046091247,-0.39250456234122666,-2.153291787532338,0.8647539153680389,2.46587817577521,0.5445020185570556,0.00043631686649912046,0.00016975357230739822,0.00011760704350393449,-0.00017267842329866067,-0.00020018450459161538,0.00024360128753868237,-0.0008244864196741578,0.0,0.0,0.0,0.0,0.0,0.0,0.0,-1.9913495291401517e-05,0.0002271632266282464,2.3064143550965976e-05,-0.00025483228072653574,-4.9397343149570894e-05,-4.76837158203125e-06,4.925521036369673e-06,-0.00043631686649912046,-0.00016975357230739822,-0.00011760704350393449,0.00017267842329866067,0.00020018450459161538,-0.00024360128753868237,0.0008244864196741578,0.3752071261405945,34.01534652709961,3.7990386486053467,-19.289278030395508,-0.06438213586807251,-1.777347207069397,0.13858358561992645,0
6,0.02500009536743164,-0.3752071261405945,-33.99154281616211,-3.8228423595428467,19.289278030395508,0.06438213586807251,1.783755898475647,-0.13217489421367645,0.0,0.0,0.0,0.0,0.0,0.0,0.0,-0.37311987318806183,0.059375888210442915,-0.24504259322002206,0.24199251523444654,0.006242560702662349,-0.12384783011437145,-0.16040119954173077,1.0544304432066167,0.3236329189291847,-0.39252424110613865,-2.15303695903209,0.8648033131957025,2.465882232069969,0.5444963812822085,1.0544104758940245,0.3238615046091247,-0.39250456234122666,-2.153291787532338,0.8647539153680389,2.46587817577521,0.5445020185570556,-0.00019988580264930478,-0.00066076336052919,0.00041038998864697715,-0.00023483191441626256,-0.00016565232639322548,-0.00015133498532378213,-0.001109961749582991,0.0,0.0,0.0,0.0,0.0,0.0,0.0,-1.9967312592239495e-05,0.00022858567993999657,1.9678764911990054e-05,-0.0002548285002479389,-4.939782766355538e-05,-4.056294759191559e-06,5.637274847147822e-06,0.00019988580264930478,0.00066076336052919,-0.00041038998864697715,0.00023483191441626256,0.00016565232639322548,0.00015133498532378213,0.001109961749582991,0.3752071261405945,33.99154281616211,3.8228423595428467,-19.289278030395508,-0.06438213586807251,-1.783755898475647,0.13217489421367645,0
7,0.029959678649902344,-0.3752071261405945,-33.99154281616211,-3.8228423595428467,19.289278030395508,0.06438213586807251,1.783755898475647,-0.13217489421367645,0.0,0.0,0.0,0.0,0.0,0.0,0.0,-0.37311987318806183,0.059375888210442915,-0.24504259322002206,0.24199251523444654,0.006242560702662349,-0.12384783011437145,-0.16040119954173077,1.0544304432066167,0.3236329189291847,-0.39252424110613865,-2.15303695903209,0.8648033131957025,2.465882232069969,0.5444963812822085,1.0544104758940245,0.3238615046091247,-0.39250456234122666,-2.153291787532338,0.8647539153680389,2.46587817577521,0.5445020185570556,-0.00019988580264930478,-0.00066076336052919,0.00041038998864697715,-0.00023483191441626256,-0.00016565232639322548,-0.00015133498532378213,-0.001109961749582991,0.0,0.0,0.0,0.0,0.0,0.0,0.0,-1.9967312592239495e-05,0.00022858567993999657,1.9678764911990054e-05,-0.0002548285002479389,-4.939782766355538e-05,-4.056294759191559e-06,5.637274847147822e-06,0.00019988580264930478,0.00066076336052919,-0.00041038998864697715,0.00023483191441626256,0.00016565232639322548,0.00015133498532378213,0.001109961749582991,0.3752071261405945,33.99154281616211,3.8228423595428467,-19.289278030395508,-0.06438213586807251,-1.783755898475647,0.13217489421367645,0
8,0.03588390350341797,-0.3514034152030945,-34.01534652709961,-3.7752349376678467,19.261507034301758,0.05797344446182251,1.777347207069397,-0.13858358561992645,0.0,0.0,0.0,0.0,0.0,0.0,0.0,-0.3638083457940088,0.06874268924913018,-0.23635777439126524,0.23931453112933682,0.005554878968529189,-0.12503498981004918,-0.16002392939524443,1.0544266534948064,0.32363246044325084,-0.39252968728563403,-2.153034853352209,0.8648036718983129,2.465882944146792,0.5444972106120863,1.0544104758940245,0.3238615046091247,-0.39250456234122666,-2.153291787532338,0.8647539153680389,2.46587817577521,0.5445020185570556,-0.0005726449669354115,0.0004413729882961721,-0.0010436905703438914,0.00020659525094160106,-5.251100461484197e-05,0.0002338125507438421,-9.906507346664617e-05,0.0,0.0,0.0,0.0,0.0,0.0,0.0,-1.61776007818748e-05,0.00022904416587388177,2.5124944407373118e-05,-0.00025693418012906477,-4.9756530273947774e-05,-4.76837158203125e-06,4.8079449692650655e-06,0.0005726449669354115,-0.0004413729882961721,0.0010436905703438914,-0.00020659525094160106,5.251100461484197e-05,-0.0002338125507438421,9.906507346664617e-05,0.3514034152030945,34.01534652709961,3.7752349376678467,-19.261507034301758,-0.05797344446182251,-1.777347207069397,0.13858358561992645,0
9,0.040009498596191406,-0.3514034152030945,-34.01534652709961,-3.7752349376678467,19.261507034301758,0.05797344446182251,1.777347207069397,-0.13858358561992645,0.0,0.0,0.0,0.0,0.0,0.0,0.0,-0.3638083457940088,0.06874268924913018,-0.23635777439126524,0.23931453112933682,0.005554878968529189,-0.12503498981004918,-0.16002392939524443,1.0544266534948064,0.32363246044325084,-0.39252968728563403,-2.153034853352209,0.8648036718983129,2.465882944146792,0.5444972106120863,1.0544104758940245,0.3238615046091247,-0.39250456234122666,-2.153291787532338,0.8647539153680389,2.46587817577521,0.5445020185570556,-0.0005726449669354115,0.0004413729882961721,-0.0010436905703438914,0.00020659525094160106,-5.251100461484197e-05,0.0002338125507438421,-9.906507346664617e-05,0.0,0.0,0.0,0.0,0.0,0.0,0.0,-1.61776007818748e-05,0.00022904416587388177,2.5124944407373118e-05,-0.00025693418012906477,-4.9756530273947774e-05,-4.76837158203125e-06,4.8079449692650655e-06,0.0005726449669354115,-0.0004413729882961721,0.0010436905703438914,-0.00020659525094160106,5.251100461484197e-05,-0.0002338125507438421,9.906507346664617e-05,0.3514034152030945,34.01534652709961,3.7752349376678467,-19.261507034301758,-0.05797344446182251,-1.777347207069397,0.13858358561992645,0
10,0.045005083084106445,-0.3514034152030945,-34.01534652709961,-3.7752349376678467,19.261507034301758,0.05797344446182251,1.777347207069397,-0.13858358561992645,0.0,0.0,0.0,0.0,0.0,0.0,0.0,-0.3638083457940088,0.06874268924913018,-0.23635777439126524,0.23931453112933682,0.005554878968529189,-0.12503498981004918,-0.16002392939524443,1.0544266534948064,0.32363246044325084,-0.39252968728563403,-2.153034853352209,0.8648036718983129,2.465882944146792,0.5444972106120863,1.0544104758940245,0.3238615046091247,-0.39250456234122666,-2.153291787532338,0.8647539153680389,2.46587817577521,0.5445020185570556,-0.0005726449669354115,0.0004413729882961721,-0.0010436905703438914,0.00020659525094160106,-5.251100461484197e-05,0.0002338125507438421,-9.906507346664617e-05,0.0,0.0,0.0,0.0,0.0,0.0,0.0,-1.61776007818748e-05,0.00022904416587388177,2.5124944407373118e-05,-0.00025693418012906477,-4.9756530273947774e-05,-4.76837158203125e-06,4.8079449692650655e-06,0.0005726449669354115,-0.0004413729882961721,0.0010436905703438914,-0.00020659525094160106,5.251100461484197e-05,-0.0002338125507438421,9.906507346664617e-05,0.3514034152030945,34.01534652709961,3.7752349376678467,-19.261507034301758,-0.05797344446182251,-1.777347207069397,0.13858358561992645,0
11,0.050398826599121094,-0.3514034152030945,-34.01534652709961,-3.7752349376678467,19.261507034301758,0.05797344446182251,1.777347207069397,-0.13858358561992645,0.0,0.0,0.0,0.0,0.0,0.0,0.0,-0.3638083457940088,0.06874268924913018,-0.23635777439126524,0.23931453112933682,0.005554878968529189,-0.12503498981004918,-0.16002392939524443,1.0544266534948064,0.32363246044325084,-0.39252968728563403,-2.153034853352209,0.8648036718983129,2.465882944146792,0.5444972106120863,1.0544104758940245,0.3238615046091247,-0.39250456234122666,-2.153291787532338,0.8647539153680389,2.46587817577521,0.5445020185570556,-0.0005726449669354115,0.0004413729882961721,-0.0010436905703438914,0.00020659525094160106,-5.251100461484197e-05,0.0002338125507438421,-9.906507346664617e-05,0.0,0.0,0.0,0.0,0.0,0.0,0.0,-1.61776007818748e-05,0.00022904416587388177,2.5124944407373118e-05,-0.00025693418012906477,-4.9756530273947774e-05,-4.76837158203125e-06,4.8079449692650655e-06,0.0005726449669354115,-0.0004413729882961721,0.0010436905703438914,-0.00020659525094160106,5.251100461484197e-05,-0.0002338125507438421,9.906507346664617e-05,0.3514034152030945,34.01534652709961,3.7752349376678467,-19.261507034301758,-0.05797344446182251,-1.777347207069397,0.13858358561992645,0
12,0.05500030517578125,-0.3752071261405945,-34.01534652709961,-3.7990386486053467,19.261507034301758,0.06438213586807251,1.783755898475647,-0.11111776530742645,0.0,0.0,0.0,0.0,0.0,0.0,0.0,-0.36451477054068493,0.055250352574126624,-0.2370518315003545,0.24731231539702944,0.00452342437656098,-0.12385105073772222,-0.15926865506026253,1.054427343898784,0.3236324634914274,-0.3925252980208269,-2.1530350077049007,0.8648033131937104,2.465882232069969,0.5444940411173658,1.0544104758940245,0.3238615046091247,-0.39250456234122666,-2.153291787532338,0.8647539153680389,2.46587817577521,0.5445020185570556,2.264930257048168e-05,-9.500254116323236e-05,0.00024861680373184817,0.0005550780708487117,-0.00033837224811998856,9.708553859792559e-05,0.0015664882288274522,0.0,0.0,0.0,0.0,0.0,0.0,0.0,-1.6868004759418298e-05,0.00022904111769733726,2.0735679600258905e-05,-0.0002567798274371036,-4.939782567148221e-05,-4.056294759191559e-06,7.977439689832444e-06,-2.264930257048168e-05,9.500254116323236e-05,-0.00024861680373184817,-0.0005550780708487117,0.00033837224811998856,-9.708553859792559e-05,-0.0015664882288274522,0.3752071261405945,34.01534652709961,3.7990386486053467,-19.261507034301758,-0.06438213586807251,-1.783755898475647,0.11111776530742645,0
13,0.059996604919433594,-0.3752071261405945,-34.01534652709961,-3.7990386486053467,19.261507034301758,0.06438213586807251,1.783755898475647,-0.11111776530742645,0.0,0.0,0.0,0.0,0.0,0.0,0.0,-0.36451477054068493,0.055250352574126624,-0.2370518315003545,0.24731231539702944,0.00452342437656098,-0.12385105073772222,-0.15926865506026253,1.054427343898784,0.3236324634914274,-0.3925252980208269,-2.1530350077049007,0.8648033131937104,2.465882232069969,0.5444940411173658,1.0544104758940245,0.3238615046091247,-0.39250456234122666,-2.153291787532338,0.8647539153680389,2.46587817577521,0.5445020185570556,2.264930257048168e-05,-9.500254116323236e-05,0.00024861680373184817,0.0005550780708487117,-0.00033837224811998856,9.708553859792559e-05,0.0015664882288274522,0.0,0.0,0.0,0.0,0.0,0.0,0.0,-1.6868004759418298e-05,0.00022904111769733726,2.0735679600258905e-05,-0.0002567798274371036,-4.939782567148221e-05,-4.056294759191559e-06,7.977439689832444e-06,-2.264930257048168e-05,9.500254116323236e-05,-0.00024861680373184817,-0.0005550780708487117,0.00033837224811998856,-9.708553859792559e-05,-0.0015664882288274522,0.3752071261405945,34.01534652709961,3.7990386486053467,-19.261507034301758,-0.06438213586807251,-1.783755898475647,0.11111776530742645,0
14,0.06639361381530762,-0.3236324191093445,-34.01534652709961,-3.8506133556365967,19.237703323364258,0.06438213586807251,1.777347207069397,-0.16604940593242645,0.0,0.0,0.0,0.0,0.0,0.0,0.0,-0.3732227801381163,0.06252725045048958,-0.2425989289389834,0.239856768322148,0.005036200257400321,-0.12291250902799906,-0.1585955065008166,1.0544258164314881,0.323631509258851,-0.392521589170591,-2.1530331830321137,0.8648033131957052,2.465882944146792,0.5445001446323262,1.0544104758940245,0.3238615046091247,-0.39250456234122666,-2.153291787532338,0.8647539153680389,2.46587817577521,0.5445020185570556,-0.0012866370794583882,0.000639568366033615,0.0011786009259332794,0.0011080360396339506,-8.356919352322171e-05,0.00011591787913065844,0.0005796531851098201,0.0,0.0,0.0,0.0,0.0,0.0,0.0,-1.5340537463659487e-05,0.0002299953502737373,1.702682936433053e-05,-0.000258604500224191,-4.939782766633094e-05,-4.76837158203125e-06,1.873924729389742e-06,0.0012866370794583882,-0.000639568366033615,-0.0011786009259332794,-0.0011080360396339506,8.356919352322171e-05,-0.00011591787913065844,-0.0005796531851098201,0.3236324191093445,34.01534652709961,3.8506133556365967,-19.237703323364258,-0.06438213586807251,-1.777347207069397,0.16604940593242645,0
15,0.07000017166137695,-0.3236324191093445,-34.01534652709961,-3.8506133556365967,19.237703323364258,0.06438213586807251,1.777347207069397,-0.16604940593242645,0.0,0.0,0.0,0.0,0.0,0.0,0.0,-0.3732227801381163,0.06252725045048958,-0.2425989289389834,0.239856768322148,0.005036200257400321,-0.12291250902799906,-0.1585955065008166,1.0544258164314881,0.323631509258851,-0.392521589170591,-2.1530331830321137,0.8648033131957052,2.465882944146792,0.5445001446323262,1.0544104758940245,0.3238615046091247,-0.39250456234122666,-2.153291787532338,0.8647539153680389,2.46587817577521,0.5445020185570556,-0.0012866370794583882,0.000639568366033615,0.0011786009259332794,0.0011080360396339506,-8.356919352322171e-05,0.00011591787913065844,0.0005796531851098201,0.0,0.0,0.0,0.0,0.0,0.0,0.0,-1.5340537463659487e-05,0.0002299953502737373,1.702682936433053e-05,-0.000258604500224191,-4.939782766633094e-05,-4.76837158203125e-06,1.873924729389742e-06,0.0012866370794583882,-0.000639568366033615,-0.0011786009259332794,-0.0011080360396339506,8.356919352322171e-05,-0.00011591787913065844,-0.0005796531851098201,0.3236324191093445,34.01534652709961,3.8506133556365967,-19.237703323364258,-0.06438213586807251,-1.777347207069397,0.16604940593242645,0
16,0.07500076293945312,-0.3514034152030945,-34.01534652709961,-3.7752349376678467,19.261507034301758,0.05797344446182251,1.777347207069397,-0.17978231608867645,0.0,0.0,0.0,0.0,0.0,0.0,0.0,-0.3658825157634845,0.06019963603205057,-0.23803303397996922,0.2423702969964045,0.005638884445286068,-0.12280800679389417,-0.15847997672948572,1.0544287983115233,0.3236338801040147,-0.39252687888396415,-2.153037617228665,0.8648029656343988,2.465882944146792,0.5445016748718832,1.0544104758940245,0.3238615046091247,-0.39250456234122666,-2.153291787532338,0.8647539153680389,2.46587817577521,0.5445020185570556,-7.412452951108951e-05,0.000666362228370023,-0.0008473083513303554,0.00023249594258546767,3.780553113785128e-05,0.0002098537420990242,0.0007934196642734186,0.0,0.0,0.0,0.0,0.0,0.0,0.0,-1.8322417498772836e-05,0.00022762450510999122,2.2316542737488287e-05,-0.00025417030367291815,-4.905026635992904e-05,-4.76837158203125e-06,3.436851724325507e-07,7.412452951108951e-05,-0.000666362228370023,0.0008473083513303554,-0.00023249594258546767,-3.780553113785128e-05,-0.0002098537420990242,-0.0007934196642734186,0.3514034152030945,34.01534652709961,3.7752349376678467,-19.261507034301758,-0.05797344446182251,-1.777347207069397,0.17978231608867645,0
17,0.08001065254211426,-0.3514034152030945,-34.01534652709961,-3.7752349376678467,19.261507034301758,0.05797344446182251,1.777347207069397,-0.17978231608867645,0.0,0.0,0.0,0.0,0.0,0.0,0.0,-0.3658825157634845,0.06019963603205057,-0.23803303397996922,0.2423702969964045,0.005638884445286068,-0.12280800679389417,-0.15847997672948572,1.0544287983115233,0.3236338801040147,-0.39252687888396415,-2.153037617228665,0.8648029656343988,2.465882944146792,0.5445016748718832,1.0544104758940245,0.3238615046091247,-0.39250456234122666,-2.153291787532338,0.8647539153680389,2.46587817577521,0.5445020185570556,-7.412452951108951e-05,0.000666362228370023,-0.0008473083513303554,0.00023249594258546767,3.780553113785128e-05,0.0002098537420990242,0.0007934196642734186,0.0,0.0,0.0,0.0,0.0,0.0,0.0,-1.8322417498772836e-05,0.00022762450510999122,2.2316542737488287e-05,-0.00025417030367291815,-4.905026635992904e-05,-4.76837158203125e-06,3.436851724325507e-07,7.412452951108951e-05,-0.000666362228370023,0.0008473083513303554,-0.00023249594258546767,-3.780553113785128e-05,-0.0002098537420990242,-0.0007934196642734186,0.3514034152030945,34.01534652709961,3.7752349376678467,-19.261507034301758,-0.05797344446182251,-1.777347207069397,0.17978231608867645,0
18,0.08501362800598145,-0.3236324191093445,-34.03915023803711,-3.7752349376678467,19.261507034301758,0.06438213586807251,1.777347207069397,-0.18710653483867645,0.0,0.0,0.0,0.0,0.0,0.0,0.0,-0.3597565951890969,0.06115505117585373,-0.2355612514228913,0.24300855430232565,0.005546414481451187,-0.1231776399198161,-0.1583122910003667,1.0544268505293477,0.3236341254027548,-0.39252899358153953,-2.1530347768375053,0.8648033131897236,2.465882944146792,0.5445024843133404,1.0544104758940245,0.3238615046091247,-0.39250456234122666,-2.153291787532338,0.8647539153680389,2.46587817577521,0.5445020185570556,-0.0008020715313751351,0.0010400393525618506,-0.00010864686714563752,0.000672607033626056,-0.00034244976189349153,0.0004110562078446623,0.001571772925970102,0.0,0.0,0.0,0.0,0.0,0.0,0.0,-1.637463532322414e-05,0.00022737920636989317,2.4431240312872138e-05,-0.0002570106948325268,-4.939782168467133e-05,-4.76837158203125e-06,-4.6575628476208664e-07,0.0008020715313751351,-0.0010400393525618506,0.00010864686714563752,-0.000672607033626056,0.00034244976189349153,-0.0004110562078446623,-0.001571772925970102,0.3236324191093445,34.03915023803711,3.7752349376678467,-19.261507034301758,-0.06438213586807251,-1.777347207069397,0.18710653483867645,0
19,0.08999776840209961,-0.3236324191093445,-34.03915023803711,-3.7752349376678467,19.261507034301758,0.06438213586807251,1.777347207069397,-0.18710653483867645,0.0,0.0,0.0,0.0,0.0,0.0,0.0,-0.3597565951890969,0.06115505117585373,-0.2355612514228913,0.24300855430232565,0.005546414481451187,-0.1231776399198161,-0.1583122910003667,1.0544268505293477,0.3236341254027548,-0.39252899358153953,-2.1530347768375053,0.8648033131897236,2.465882944146792,0.5445024843133404,1.0544104758940245,0.3238615046091247,-0.39250456234122666,-2.153291787532338,0.8647539153680389,2.46587817577521,0.5445020185570556,-0.0008020715313751351,0.0010400393525618506,-0.00010864686714563752,0.000672607033626056,-0.00034244976189349153,0.0004110562078446623,0.001571772925970102,0.0,0.0,0.0,0.0,0.0,0.0,0.0,-1.637463532322414e-05,0.00022737920636989317,2.4431240312872138e-05,-0.0002570106948325268,-4.939782168467133e-05,-4.76837158203125e-06,-4.6575628476208664e-07,0.0008020715313751351,-0.0010400393525618506,0.00010864686714563752,-0.000672607033626056,0.00034244976189349153,-0.0004110562078446623,-0.001571772925970102,0.3236324191093445,34.03915023803711,3.7752349376678467,-19.261507034301758,-0.06438213586807251,-1.777347207069397,0.18710653483867645,0
20,0.09499502182006836,-0.3514034152030945,-34.06295394897461,-3.7752349376678467,19.237703323364258,0.06987529993057251,1.777347207069397,-0.17978231608867645,0.0,0.0,0.0,0.0,0.0,0.0,0.0,-0.37212200154801384,0.05972228363620454,-0.24641911639975211,0.24255663971208744,0.005776704466838656,-0.12243549332910941,-0.15793472054677463,1.0544280723780293,0.32363784893293945,-0.39252711386229894,-2.1530352785334186,0.8648027028441428,2.465882944146792,0.5445016705112324,1.0544104758940245,0.3238615046091247,-0.39250456234122666,-2.153291787532338,0.8647539153680389,2.46587817577521,0.5445020185570556,-0.0005253643046662512,0.0012557865471467308,-0.0006068287885705898,0.0009739766334092609,-0.00023917780929505554,0.00021650973567102956,0.0007996975464853939,0.0,0.0,0.0,0.0,0.0,0.0,0.0,-1.7596484004789303e-05,0.00022365567618526372,2.2551521072278202e-05,-0.00025650899891926926,-4.878747610392864e-05,-4.76837158203125e-06,3.4804582316194654e-07,0.0005253643046662512,-0.0012557865471467308,0.0006068287885705898,-0.0009739766334092609,0.00023917780929505554,-0.00021650973567102956,-0.0007996975464853939,0.3514034152030945,34.06295394897461,3.7752349376678467,-19.237703323364258,-0.06987529993057251,-1.777347207069397,0.17978231608867645,0
21,0.09999966621398926,-0.3514034152030945,-34.06295394897461,-3.7752349376678467,19.237703323364258,0.06987529993057251,1.777347207069397,-0.17978231608867645,0.0,0.0,0.0,0.0,0.0,0.0,0.0,-0.37212200154801384,0.05972228363620454,-0.24641911639975211,0.24255663971208744,0.005776704466838656,-0.12243549332910941,-0.15793472054677463,1.0544280723780293,0.32363784893293945,-0.39252711386229894,-2.1530352785334186,0.8648027028441428,2.465882944146792,0.5445016705112324,1.0544104758940245,0.3238615046091247,-0.39250456234122666,-2.153291787532338,0.8647539153680389,2.46587817577521,0.5445020185570556,-0.0005253643046662512,0.0012557865471467308,-0.0006068287885705898,0.0009739766334092609,-0.00023917780929505554,0.00021650973567102956,0.0007996975464853939,0.0,0.0,0.0,0.0,0.0,0.0,0.0,-1.7596484004789303e-05,0.00022365567618526372,2.2551521072278202e-05,-0.00025650899891926926,-4.878747610392864e-05,-4.76837158203125e-06,3.4804582316194654e-07,0.0005253643046662512,-0.0012557865471467308,0.0006068287885705898,-0.0009739766334092609,0.00023917780929505554,-0.00021650973567102956,-0.0007996975464853939,0.3514034152030945,34.06295394897461,3.7752349376678467,-19.237703323364258,-0.06987529993057251,-1.777347207069397,0.17978231608867645,0
22,0.10495519638061523,-0.3514034152030945,-34.01534652709961,-3.8228423595428467,19.237703323364258,0.05248028039932251,1.783755898475647,-0.11844198405742645,0.0,0.0,0.0,0.0,0.0,0.0,0.0,-0.35908299066926525,0.066254020922362,-0.232633848629348,0.2359503973569402,0.005532951795754,-0.12433702429060081,-0.15843765658800182,1.0544287992861952,0.3236345547308596,-0.3925236247911638,-2.1530341050840978,0.8648046356240907,2.465882232069969,0.5444959150414306,1.0544104758940245,0.3238615046091247,-0.39250456234122666,-2.153291787532338,0.8647539153680389,2.46587817577521,0.5445020185570556,-0.00012792432793245446,0.0001461544660861082,0.001084189382200372,0.0002778843549131903,0.00029021968782636366,1.957806613364348e-06,-0.0019504151543876353,0.0,0.0,0.0,0.0,0.0,0.0,0.0,-1.8323392170671582e-05,0.0002269498782651036,1.9062449937157222e-05,-0.000257682448240093,-5.0720256051794976e-05,-4.056294759191559e-06,6.1035156250222045e-06,0.00012792432793245446,-0.0001461544660861082,-0.001084189382200372,-0.0002778843549131903,-0.00029021968782636366,-1.957806613364348e-06,0.0019504151543876353,0.3514034152030945,34.01534652709961,3.8228423595428467,-19.237703323364258,-0.05248028039932251,-1.783755898475647,0.11844198405742645,0
23,0.10999941825866699,-0.3514034152030945,-34.01534652709961,-3.8228423595428467,19.237703323364258,0.05248028039932251,1.783755898475647,-0.11844198405742645,0.0,0.0,0.0,0.0,0.0,0.0,0.0,-0.35908299066926525,0.066254020922362,-0.232633848629348,0.2359503973569402,0.005532951795754,-0.12433702429060081,-0.15843765658800182,1.0544287992861952,0.3236345547308596,-0.3925236247911638,-2.1530341050840978,0.8648046356240907,2.465882232069969,0.5444959150414306,1.0544104758940245,0.3238615046091247,-0.39250456234122666,-2.153291787532338,0.8647539153680389,2.46587817577521,0.5445020185570556,-0.00012792432793245446,0.0001461544660861082,0.001084189382200372,0.0002778843549131903,0.00029021968782636366,1.957806613364348e-06,-0.0019504151543876353,0.0,0.0,0.0,0.0,0.0,0.0,0.0,-1.8323392170671582e-05,0.0002269498782651036,1.9062449937157222e-05,-0.000257682448240093,-5.0720256051794976e-05,-4.056294759191559e-06,6.1035156250222045e-06,0.00012792432793245446,-0.0001461544660861082,-0.001084189382200372,-0.0002778843549131903,-0.00029021968782636366,-1.957806613364348e-06,0.0019504151543876353,0.3514034152030945,34.01534652709961,3.8228423595428467,-19.237703323364258,-0.05248028039932251,-1.783755898475647,0.11844198405742645,0
24,0.1149590015411377,-0.3514034152030945,-33.96377182006836,-3.7990386486053467,19.289278030395508,0.06438213586807251,1.783755898475647,-0.17978231608867645,0.0,0.0,0.0,0.0,0.0,0.0,0.0,-0.35969882809100506,0.06176502790307333,-0.2344521014601161,0.23724380776116769,0.0060094538586210325,-0.12365535538463156,-0.1594331507497362,1.0544266505878561,0.32362810857898056,-0.3925252114442008,-2.153036735113258,0.8648031910974846,2.465882232069969,0.5445016705132272,1.0544104758940245,0.3238615046091247,-0.39250456234122666,-2.153291787532338,0.8647539153680389,2.46587817577521,0.5445020185570556,0.0001278939112868904,-0.001058259611717995,0.00014662017441410905,-0.0004707519955456702,-0.00016711807404609725,-5.4529485175971236e-05,0.0010929061200159135,0.0,0.0,0.0,0.0,0.0,0.0,0.0,-1.617469383163872e-05,0.00023339603014416177,2.0649102974112932e-05,-0.00025505241907985976,-4.927572944568581e-05,-4.056294759191559e-06,3.480438284242382e-07,-0.0001278939112868904,0.001058259611717995,-0.00014662017441410905,0.0004707519955456702,0.00016711807404609725,5.4529485175971236e-05,-0.0010929061200159135,0.3514034152030945,33.96377182006836,3.7990386486053467,-19.289278030395508,-0.06438213586807251,-1.783755898475647,0.17978231608867645,0
25,0.12000250816345215,-0.3514034152030945,-33.96377182006836,-3.7990386486053467,19.289278030395508,0.06438213586807251,1.783755898475647,-0.17978231608867645,0.0,0.0,0.0,0.0,0.0,0.0,0.0,-0.35969882809100506,0.06176502790307333,-0.2344521014601161,0.23724380776116769,0.0060094538586210325,-0.12365535538463156,-0.1594331507497362,1.0544266505878561,0.32362810857898056,-0.3925252114442008,-2.153036735113258,0.8648031910974846,2.465882232069969,0.5445016705132272,1.0544104758940245,0.3238615046091247,-0.39250456234122666,-2.153291787532338,0.8647539153680389,2.46587817577521,0.5445020185570556,0.0001278939112868904,-0.001058259611717995,0.00014662017441410905,-0.0004707519955456702,-0.00016711807404609725,-5.4529485175971236e-05,0.0010929061200159135,0.0,0.0,0.0,0.0,0.0,0.0,0.0,-1.617469383163872e-05,0.00023339603014416177,2.0649102974112932e-05,-0.00025505241907985976,-4.927572944568581e-05,-4.056294759191559e-06,3.480438284242382e-07,-0.0001278939112868904,0.001058259611717995,-0.00014662017441410905,0.0004707519955456702,0.00016711807404609725,5.4529485175971236e-05,-0.0010929061200159135,0.3514034152030945,33.96377182006836,3.7990386486053467,-19.289278030395508,-0.06438213586807251,-1.783755898475647,0.17978231608867645,0
26,0.12000250816345215,-0.3514034152030945,-33.96377182006836,-3.7990386486053467,19.289278030395508,0.06438213586807251,1.783755898475647,-0.17978231608867645,0.0,0.0,0.0,0.0,0.0,0.0,0.0,-0.35969882809100506,0.06176502790307333,-0.2344521014601161,0.23724380776116769,0.0060094538586210325,-0.12365535538463156,-0.1594331507497362,1.0544266505878561,0.32362810857898056,-0.3925252114442008,-2.153036735113258,0.8648031910974846,2.465882232069969,0.5445016705132272,1.0544104758940245,0.3238615046091247,-0.39250456234122666,-2.153291787532338,0.8647539153680389,2.46587817577521,0.5445020185570556,0.0001278939112868904,-0.001058259611717995,0.00014662017441410905,-0.0004707519955456702,-0.00016711807404609725,-5.4529485175971236e-05,0.0010929061200159135,0.0,0.0,0.0,0.0,0.0,0.0,0.0,-1.617469383163872e-05,0.00023339603014416177,2.0649102974112932e-05,-0.00025505241907985976,-4.927572944568581e-05,-4.056294759191559e-06,3.480438284242382e-07,-0.0001278939112868904,0.001058259611717995,-0.00014662017441410905,0.0004707519955456702,0.00016711807404609725,5.4529485175971236e-05,-0.0010929061200159135,0.3514034152030945,33.96377182006836,3.7990386486053467,-19.289278030395508,-0.06438213586807251,-1.783755898475647,0.17978231608867645,0
27,0.12994956970214844,-0.3514034152030945,-34.01534652709961,-3.7990386486053467,19.261507034301758,0.05797344446182251,1.783755898475647,-0.19351522624492645,0.0,0.0,0.0,0.0,0.0,0.0,0.0,-0.3646342247509228,0.06681238475887905,-0.23920948451200416,0.23583614819706095,0.007017862665593471,-0.12376272359946781,-0.1584283876934599,1.054428081196217,0.32363245211056946,-0.3925273144789079,-2.1530347768215243,0.864804025271839,2.465882232069969,0.5445033141277087,1.0544104758940245,0.3238615046091247,-0.39250456234122666,-2.153291787532338,0.8647539153680389,2.46587817577521,0.5445020185570556,-0.000638988590137489,0.0006180501532901744,0.00016888293807411855,0.0004395526786163251,0.0001541624444536732,-2.596047079807358e-06,0.0017293570522657138,0.0,0.0,0.0,0.0,0.0,0.0,0.0,-1.7605302192524874e-05,0.00022905249855526,2.2752137681214535e-05,-0.0002570107108135211,-5.01099038000552e-05,-4.056294759191559e-06,-1.2955706530926037e-06,0.000638988590137489,-0.0006180501532901744,-0.00016888293807411855,-0.0004395526786163251,-0.0001541624444536732,2.596047079807358e-06,-0.0017293570522657138,0.3514034152030945,34.01534652709961,3.7990386486053467,-19.261507034301758,-0.05797344446182251,-1.783755898475647,0.19351522624492645,0
28,0.13501238822937012,-0.3514034152030945,-34.01534652709961,-3.7990386486053467,19.261507034301758,0.05797344446182251,1.783755898475647,-0.19351522624492645,0.0,0.0,0.0,0.0,0.0,0.0,0.0,-0.3646342247509228,0.06681238475887905,-0.23920948451200416,0.23583614819706095,0.007017862665593471,-0.12376272359946781,-0.1584283876934599,1.054428081196217,0.32363245211056946,-0.3925273144789079,-2.1530347768215243,0.864804025271839,2.465882232069969,0.5445033141277087,1.0544104758940245,0.3238615046091247,-0.39250456234122666,-2.153291787532338,0.8647539153680389,2.46587817577521,0.5445020185570556,-0.000638988590137489,0.0006180501532901744,0.00016888293807411855,0.0004395526786163251,0.0001541624444536732,-2.596047079807358e-06,0.0017293570522657138,0.0,0.0,0.0,0.0,0.0,0.0,0.0,-1.7605302192524874e-05,0.00022905249855526,2.2752137681214535e-05,-0.0002570107108135211,-5.01099038000552e-05,-4.056294759191559e-06,-1.2955706530926037e-06,0.000638988590137489,-0.0006180501532901744,-0.00016888293807411855,-0.0004395526786163251,-0.0001541624444536732,2.596047079807358e-06,-0.0017293570522657138,0.3514034152030945,34.01534652709961,3.7990386486053467,-19.261507034301758,-0.05797344446182251,-1.783755898475647,0.19351522624492645,0
29,0.14000225067138672,-0.3236324191093445,-34.01534652709961,-3.7990386486053467,19.313081741333008,0.06438213586807251,1.777347207069397,-0.11844198405742645,0.0,0.0,0.0,0.0,0.0,0.0,0.0,-0.3651419842911995,0.06091276426323224,-0.238733698991655,0.2388343269669885,0.007363176262588971,-0.12350586721032183,-0.15837416465958482,1.054426584662851,0.3236345543720213,-0.3925252123356829,-2.15304070048504,0.8648033131957052,2.465882944146792,0.5444948549207784,1.0544104758940245,0.3238615046091247,-0.39250456234122666,-2.153291787532338,0.8647539153680389,2.46587817577521,0.5445020185570556,-0.0008904722063542364,-2.2700777321350163e-05,0.00017495396305514335,-0.0010938748457286354,-0.0001394084321452357,0.00017495640064957822,-0.0018416231337581095,0.0,0.0,0.0,0.0,0.0,0.0,0.0,-1.610876882662815e-05,0.000226950237103396,2.0649994456223286e-05,-0.0002510870472978155,-4.939782766633094e-05,-4.76837158203125e-06,7.163636277174312e-06,0.0008904722063542364,2.2700777321350163e-05,-0.00017495396305514335,0.0010938748457286354,0.0001394084321452357,-0.00017495640064957822,0.0018416231337581095,0.3236324191093445,34.01534652709961,3.7990386486053467,-19.313081741333008,-0.06438213586807251,-1.777347207069397,0.11844198405742645,0
30,0.14500188827514648,-0.3236324191093445,-34.01534652709961,-3.7990386486053467,19.313081741333008,0.06438213586807251,1.777347207069397,-0.11844198405742645,0.0,0.0,0.0,0.0,0.0,0.0,0.0,-0.3651419842911995,0.06091276426323224,-0.238733698991655,0.2388343269669885,0.007363176262588971,-0.12350586721032183,-0.15837416465958482,1.054426584662851,0.3236345543720213,-0.3925252123356829,-2.15304070048504,0.8648033131957052,2.465882944146792,0.5444948549207784,1.0544104758940245,0.3238615046091247,-0.39250456234122666,-2.153291787532338,0.8647539153680389,2.46587817577521,0.5445020185570556,-0.0008904722063542364,-2.2700777321350163e-05,0.00017495396305514335,-0.0010938748457286354,-0.0001394084321452357,0.00017495640064957822,-0.0018416231337581095,0.0,0.0,0.0,0.0,0.0,0.0,0.0,-1.610876882662815e-05,0.000226950237103396,2.0649994456223286e-05,-0.0002510870472978155,-4.939782766633094e-05,-4.76837158203125e-06,7.163636277174312e-06,0.0008904722063542364,2.2700777321350163e-05,-0.00017495396305514335,0.0010938748457286354,0.0001394084321452357,-0.00017495640064957822,0.0018416231337581095,0.3236324191093445,34.01534652709961,3.7990386486053467,-19.313081741333008,-0.06438213586807251,-1.777347207069397,0.11844198405742645,0
31,0.15005207061767578,-0.3752071261405945,-34.09072494506836,-3.8228423595428467,19.237703323364258,0.06987529993057251,1.790164589881897,-0.17337362468242645,0.0,0.0,0.0,0.0,0.0,0.0,0.0,-0.36411310266980806,0.05905165576455158,-0.2385154296698041,0.24146548995121148,0.007640270061248498,-0.12354149080586771,-0.15995520521409978,1.0544283152090104,0.32363750853338463,-0.3925237752256046,-2.1530331347341813,0.8648027028441428,2.4658815199931463,0.5445009584344096,1.0544104758940245,0.3238615046091247,-0.39250456234122666,-2.153291787532338,0.8647539153680389,2.46587817577521,0.5445020185570556,0.0005330172966608237,0.001594666981019335,0.00065246640520855,0.0007732732146532132,-0.00013646773365078824,-0.00043487951751233474,0.0006975472462807744,0.0,0.0,0.0,0.0,0.0,0.0,0.0,-1.7839314985890198e-05,0.00022399607574008495,1.9212884377950434e-05,-0.0002586527981565112,-4.878747610392864e-05,-3.3442179363518676e-06,1.0601226460016377e-06,-0.0005330172966608237,-0.001594666981019335,-0.00065246640520855,-0.0007732732146532132,0.00013646773365078824,0.00043487951751233474,-0.0006975472462807744,0.3752071261405945,34.09072494506836,3.8228423595428467,-19.237703323364258,-0.06987529993057251,-1.790164589881897,0.17337362468242645,0
32,0.1549997329711914,-0.3752071261405945,-34.09072494506836,-3.8228423595428467,19.237703323364258,0.06987529993057251,1.790164589881897,-0.17337362468242645,0.0,0.0,0.0,0.0,0.0,0.0,0.0,-0.36411310266980806,0.05905165576455158,-0.2385154296698041,0.24146548995121148,0.007640270061248498,-0.12354149080586771,-0.15995520521409978,1.0544283152090104,0.32363750853338463,-0.3925237752256046,-2.1530331347341813,0.8648027028441428,2.4658815199931463,0.5445009584344096,1.0544104758940245,0.3238615046091247,-0.39250456234122666,-2.153291787532338,0.8647539153680389,2.46587817577521,0.5445020185570556,0.0005330172966608237,0.001594666981019335,0.00065246640520855,0.0007732732146532132,-0.00013646773365078824,-0.00043487951751233474,0.0006975472462807744,0.0,0.0,0.0,0.0,0.0,0.0,0.0,-1.7839314985890198e-05,0.00022399607574008495,1.9212884377950434e-05,-0.0002586527981565112,-4.878747610392864e-05,-3.3442179363518676e-06,1.0601226460016377e-06,-0.0005330172966608237,-0.001594666981019335,-0.00065246640520855,-0.0007732732146532132,0.00013646773365078824,0.00043487951751233474,-0.0006975472462807744,0.3752071261405945,34.09072494506836,3.8228423595428467,-19.237703323364258,-0.06987529993057251,-1.790164589881897,0.17337362468242645,0
33,0.15999889373779297,-0.4029781222343445,-34.03915023803711,-3.7990386486053467,19.261507034301758,0.06987529993057251,1.796573281288147,-0.18710653483867645,0.0,0.0,0.0,0.0,0.0,0.0,0.0,-0.3707406468748727,0.05991558207498668,-0.2464521448545569,0.23863199949780386,0.00826200477177553,-0.12286937167770556,-0.15983894886053046,1.0544321791643054,0.32363599758426304,-0.39252524311662135,-2.153034806215647,0.8648027028441428,2.4658808079163235,0.5445024843133158,1.0544104758940245,0.3238615046091247,-0.39250456234122666,-2.153291787532338,0.8647539153680389,2.46587817577521,0.5445020185570556,0.0005227268178674012,0.00044809211614246856,-0.0005879068035953636,0.00028560917401357393,-0.0003897521396308936,-0.0005946404608269113,0.0008949054386444901,0.0,0.0,0.0,0.0,0.0,0.0,0.0,-2.1703270280948317e-05,0.00022550702486168195,2.0680775394688045e-05,-0.0002569813166908297,-4.878747610392864e-05,-2.6321411135121764e-06,-4.657562602261578e-07,-0.0005227268178674012,-0.00044809211614246856,0.0005879068035953636,-0.00028560917401357393,0.0003897521396308936,0.0005946404608269113,-0.0008949054386444901,0.4029781222343445,34.03915023803711,3.7990386486053467,-19.261507034301758,-0.06987529993057251,-1.796573281288147,0.18710653483867645,0
34,0.1649641990661621,-0.4029781222343445,-34.03915023803711,-3.7990386486053467,19.261507034301758,0.06987529993057251,1.796573281288147,-0.18710653483867645,0.0,0.0,0.0,0.0,0.0,0.0,0.0,-0.3707406468748727,0.05991558207498668,-0.2464521448545569,0.23863199949780386,0.00826200477177553,-0.12286937167770556,-0.15983894886053046,1.0544321791643054,0.32363599758426304,-0.39252524311662135,-2.153034806215647,0.8648027028441428,2.4658808079163235,0.5445024843133158,1.0544104758940245,0.3238615046091247,-0.39250456234122666,-2.153291787532338,0.8647539153680389,2.46587817577521,0.5445020185570556,0.0005227268178674012,0.00044809211614246856,-0.0005879068035953636,0.00028560917401357393,-0.0003897521396308936,-0.0005946404608269113,0.0008949054386444901,0.0,0.0,0.0,0.0,0.0,0.0,0.0,-2.1703270280948317e-05,0.00022550702486168195,2.0680775394688045e-05,-0.0002569813166908297,-4.878747610392864e-05,-2.6321411135121764e-06,-4.657562602261578e-07,-0.0005227268178674012,-0.00044809211614246856,0.0005879068035953636,-0.00028560917401357393,0.0003897521396308936,0.0005946404608269113,-0.0008949054386444901,0.4029781222343445,34.03915023803711,3.7990386486053467,-19.261507034301758,-0.06987529993057251,-1.796573281288147,0.18710653483867645,0
35,0.17000269889831543,-0.3752071261405945,-34.01534652709961,-3.8506133556365967,19.237703323364258,0.05797344446182251,1.777347207069397,-0.19351522624492645,0.0,0.0,0.0,0.0,0.0,0.0,0.0,-0.35907510427149286,0.05650400226600618,-0.23667009968549058,0.2406702168950791,0.007400510281874846,-0.12336500230914667,-0.1597436679406664,1.0544303608984362,0.32363388109198354,-0.3925244058784542,-2.1530333614838497,0.8648040252725282,2.465882944146792,0.5445063753045268,1.0544104758940245,0.3238615046091247,-0.39250456234122666,-2.153291787532338,0.8647539153680389,2.46587817577521,0.5445020185570556,-0.00029975588096475884,-0.0004925170157379448,0.0011016737924221338,0.0013228774539341618,-0.00012187297248886465,0.00025470295015273,0.0019721676861152062,0.0,0.0,0.0,0.0,0.0,0.0,0.0,-1.988500441174601e-05,0.00022762351714117335,1.9843537227559604e-05,-0.0002584260484881362,-5.0109904489281654e-05,-4.76837158203125e-06,-4.356747471234712e-06,0.00029975588096475884,0.0004925170157379448,-0.0011016737924221338,-0.0013228774539341618,0.00012187297248886465,-0.00025470295015273,-0.0019721676861152062,0.3752071261405945,34.01534652709961,3.8506133556365967,-19.237703323364258,-0.05797344446182251,-1.777347207069397,0.19351522624492645,0
36,0.1750166416168213,-0.3752071261405945,-34.01534652709961,-3.8506133556365967,19.237703323364258,0.05797344446182251,1.777347207069397,-0.19351522624492645,0.0,0.0,0.0,0.0,0.0,0.0,0.0,-0.35907510427149286,0.05650400226600618,-0.23667009968549058,0.2406702168950791,0.007400510281874846,-0.12336500230914667,-0.1597436679406664,1.0544303608984362,0.32363388109198354,-0.3925244058784542,-2.1530333614838497,0.8648040252725282,2.465882944146792,0.5445063753045268,1.0544104758940245,0.3238615046091247,-0.39250456234122666,-2.153291787532338,0.8647539153680389,2.46587817577521,0.5445020185570556,-0.00029975588096475884,-0.0004925170157379448,0.0011016737924221338,0.0013228774539341618,-0.00012187297248886465,0.00025470295015273,0.0019721676861152062,0.0,0.0,0.0,0.0,0.0,0.0,0.0,-1.988500441174601e-05,0.00022762351714117335,1.9843537227559604e-05,-0.0002584260484881362,-5.0109904489281654e-05,-4.76837158203125e-06,-4.356747471234712e-06,0.00029975588096475884,0.0004925170157379448,-0.0011016737924221338,-0.0013228774539341618,0.00012187297248886465,-0.00025470295015273,-0.0019721676861152062,0.3752071261405945,34.01534652709961,3.8506133556365967,-19.237703323364258,-0.05797344446182251,-1.777347207069397,0.19351522624492645,0
37,0.17999768257141113,-0.3752071261405945,-34.01534652709961,-3.8506133556365967,19.237703323364258,0.05797344446182251,1.777347207069397,-0.19351522624492645,0.0,0.0,0.0,0.0,0.0,0.0,0.0,-0.35907510427149286,0.05650400226600618,-0.23667009968549058,0.2406702168950791,0.007400510281874846,-0.12336500230914667,-0.1597436679406664,1.0544303608984362,0.32363388109198354,-0.3925244058784542,-2.1530333614838497,0.8648040252725282,2.465882944146792,0.5445063753045268,1.0544104758940245,0.3238615046091247,-0.39250456234122666,-2.153291787532338,0.8647539153680389,2.46587817577521,0.5445020185570556,-0.00029975588096475884,-0.0004925170157379448,0.0011016737924221338,0.0013228774539341618,-0.00012187297248886465,0.00025470295015273,0.0019721676861152062,0.0,0.0,0.0,0.0,0.0,0.0,0.0,-1.988500441174601e-05,0.00022762351714117335,1.9843537227559604e-05,-0.0002584260484881362,-5.0109904489281654e-05,-4.76837158203125e-06,-4.356747471234712e-06,0.00029975588096475884,0.0004925170157379448,-0.0011016737924221338,-0.0013228774539341618,0.00012187297248886465,-0.00025470295015273,-0.0019721676861152062,0.3752071261405945,34.01534652709961,3.8506133556365967,-19.237703323364258,-0.05797344446182251,-1.777347207069397,0.19351522624492645,0
38,0.18505191802978516,-0.3752071261405945,-34.01534652709961,-3.8506133556365967,19.237703323364258,0.05797344446182251,1.777347207069397,-0.19351522624492645,0.0,0.0,0.0,0.0,0.0,0.0,0.0,-0.35907510427149286,0.05650400226600618,-0.23667009968549058,0.2406702168950791,0.007400510281874846,-0.12336500230914667,-0.1597436679406664,1.0544303608984362,0.32363388109198354,-0.3925244058784542,-2.1530333614838497,0.8648040252725282,2.465882944146792,0.5445063753045268,1.0544104758940245,0.3238615046091247,-0.39250456234122666,-2.153291787532338,0.8647539153680389,2.46587817577521,0.5445020185570556,-0.00029975588096475884,-0.0004925170157379448,0.0011016737924221338,0.0013228774539341618,-0.00012187297248886465,0.00025470295015273,0.0019721676861152062,0.0,0.0,0.0,0.0,0.0,0.0,0.0,-1.988500441174601e-05,0.00022762351714117335,1.9843537227559604e-05,-0.0002584260484881362,-5.0109904489281654e-05,-4.76837158203125e-06,-4.356747471234712e-06,0.00029975588096475884,0.0004925170157379448,-0.0011016737924221338,-0.0013228774539341618,0.00012187297248886465,-0.00025470295015273,-0.0019721676861152062,0.3752071261405945,34.01534652709961,3.8506133556365967,-19.237703323364258,-0.05797344446182251,-1.777347207069397,0.19351522624492645,0
39,0.18999838829040527,-0.3514034152030945,-34.01534652709961,-3.8228423595428467,19.261507034301758,0.06438213586807251,1.796573281288147,-0.14590780436992645,0.0,0.0,0.0,0.0,0.0,0.0,0.0,-0.3657227197107809,0.06483332873787491,-0.2414823229087945,0.23167256161549457,0.00665740959938866,-0.12374824367091798,-0.1587063139605896,1.0544259352955754,0.3236345604552727,-0.39252353813643975,-2.1530348024367365,0.8648032734653318,2.4658808079163235,0.5444979066825787,1.0544104758940245,0.3238615046091247,-0.39250456234122666,-2.153291787532338,0.8647539153680389,2.46587817577521,0.5445020185570556,-0.0003837117520137108,0.00022850680060931754,1.1565574590940944e-05,-0.00012876587073611164,-0.00029944699954787197,-0.0006731044116619708,-0.0007926154297596362,0.0,0.0,0.0,0.0,0.0,0.0,0.0,-1.5459401550899088e-05,0.0002269441538519934,1.8975795213094226e-05,-0.0002569850956013475,-4.935809729289531e-05,-2.6321411135121764e-06,4.111874476908639e-06,0.0003837117520137108,-0.00022850680060931754,-1.1565574590940944e-05,0.00012876587073611164,0.00029944699954787197,0.0006731044116619708,0.0007926154297596362,0.3514034152030945,34.01534652709961,3.8228423595428467,-19.261507034301758,-0.06438213586807251,-1.796573281288147,0.14590780436992645,0
40,0.1949939727783203,-0.3514034152030945,-34.01534652709961,-3.8228423595428467,19.261507034301758,0.06438213586807251,1.796573281288147,-0.14590780436992645,0.0,0.0,0.0,0.0,0.0,0.0,0.0,-0.3657227197107809,0.06483332873787491,-0.2414823229087945,0.23167256161549457,0.00665740959938866,-0.12374824367091798,-0.1587063139605896,1.0544259352955754,0.3236345604552727,-0.39252353813643975,-2.1530348024367365,0.8648032734653318,2.4658808079163235,0.5444979066825787,1.0544104758940245,0.3238615046091247,-0.39250456234122666,-2.153291787532338,0.8647539153680389,2.46587817577521,0.5445020185570556,-0.0003837117520137108,0.00022850680060931754,1.1565574590940944e-05,-0.00012876587073611164,-0.00029944699954787197,-0.0006731044116619708,-0.0007926154297596362,0.0,0.0,0.0,0.0,0.0,0.0,0.0,-1.5459401550899088e-05,0.0002269441538519934,1.8975795213094226e-05,-0.0002569850956013475,-4.935809729289531e-05,-2.6321411135121764e-06,4.111874476908639e-06,0.0003837117520137108,-0.00022850680060931754,-1.1565574590940944e-05,0.00012876587073611164,0.00029944699954787197,0.0006731044116619708,0.0007926154297596362,0.3514034152030945,34.01534652709961,3.8228423595428467,-19.261507034301758,-0.06438213586807251,-1.796573281288147,0.14590780436992645,0
41,0.20000815391540527,-0.3236324191093445,-34.01534652709961,-3.8228423595428467,19.289278030395508,0.04607158899307251,1.783755898475647,-0.16604940593242645,0.0,0.0,0.0,0.0,0.0,0.0,0.0,-0.35892350629238984,0.058402055545731364,-0.23998246959938924,0.23657249621860368,0.00629908519683428,-0.12291633286435587,-0.15854098779430326,1.0544261342870809,0.32363353698355934,-0.3925236160133939,-2.153036737036035,0.8648053040943315,2.465882232069969,0.5445001451168429,1.0544104758940245,0.3238615046091247,-0.39250456234122666,-2.153291787532338,0.8647539153680389,2.46587817577521,0.5445020185570556,-0.0002566037093948636,0.0006383250002375405,0.0005396322422564524,-0.00034511842953866207,0.0005448302876808014,-6.287716469155473e-05,-1.8860198494681682e-05,0.0,0.0,0.0,0.0,0.0,0.0,0.0,-1.5658393056394715e-05,0.00022796762556537287,1.9053672167257396e-05,-0.00025505049630281107,-5.13887262926227e-05,-4.056294759191559e-06,1.873440212740718e-06,0.0002566037093948636,-0.0006383250002375405,-0.0005396322422564524,0.00034511842953866207,-0.0005448302876808014,6.287716469155473e-05,1.8860198494681682e-05,0.3236324191093445,34.01534652709961,3.8228423595428467,-19.289278030395508,-0.04607158899307251,-1.783755898475647,0.16604940593242645,0
42,0.2050178050994873,-0.3236324191093445,-34.01534652709961,-3.8228423595428467,19.289278030395508,0.04607158899307251,1.783755898475647,-0.16604940593242645,0.0,0.0,0.0,0.0,0.0,0.0,0.0,-0.35892350629238984,0.058402055545731364,-0.23998246959938924,0.23657249621860368,0.00629908519683428,-0.12291633286435587,-0.15854098779430326,1.0544261342870809,0.32363353698355934,-0.3925236160133939,-2.153036737036035,0.8648053040943315,2.465882232069969,0.5445001451168429,1.0544104758940245,0.3238615046091247,-0.39250456234122666,-2.153291787532338,0.8647539153680389,2.46587817577521,0.5445020185570556,-0.0002566037093948636,0.0006383250002375405,0.0005396322422564524,-0.00034511842953866207,0.0005448302876808014,-6.287716469155473e-05,-1.8860198494681682e-05,0.0,0.0,0.0,0.0,0.0,0.0,0.0,-1.5658393056394715e-05,0.00022796762556537287,1.9053672167257396e-05,-0.00025505049630281107,-5.13887262926227e-05,-4.056294759191559e-06,1.873440212740718e-06,0.0002566037093948636,-0.0006383250002375405,-0.0005396322422564524,0.00034511842953866207,-0.0005448302876808014,6.287716469155473e-05,1.8860198494681682e-05,0.3236324191093445,34.01534652709961,3.8228423595428467,-19.289278030395508,-0.04607158899307251,-1.783755898475647,0.16604940593242645,0
43,0.21000361442565918,-0.3514034152030945,-34.01534652709961,-3.7514312267303467,19.261507034301758,0.06987529993057251,1.783755898475647,-0.15964071452617645,0.0,0.0,0.0,0.0,0.0,0.0,0.0,-0.3575061336587041,0.06248616548970885,-0.24011580145844613,0.2334361880120481,0.0060086224612319215,-0.12321055272724173,-0.16027946487024433,1.0544287993953936,0.3236316488978917,-0.39252854932114034,-2.1530375318807997,0.8648027023588876,2.465882232069969,0.5444994344935784,1.0544104758940245,0.3238615046091247,-0.39250456234122666,-2.153291787532338,0.8647539153680389,2.46587817577521,0.5445020185570556,-1.243816742431692e-06,0.0004141214593656278,-0.0006793936959477975,-0.0002963995285606728,-0.0004159532077834416,-9.095467664175773e-05,-0.0003411098741357498,0.0,0.0,0.0,0.0,0.0,0.0,0.0,-1.832350136909966e-05,0.00022985571123301796,2.3986979913681594e-05,-0.0002542556515381378,-4.878699084864824e-05,-4.056294759191559e-06,2.5840634771956417e-06,1.243816742431692e-06,-0.0004141214593656278,0.0006793936959477975,0.0002963995285606728,0.0004159532077834416,9.095467664175773e-05,0.0003411098741357498,0.3514034152030945,34.01534652709961,3.7514312267303467,-19.261507034301758,-0.06987529993057251,-1.783755898475647,0.15964071452617645,0
44,0.2149956226348877,-0.3514034152030945,-34.01534652709961,-3.7514312267303467,19.261507034301758,0.06987529993057251,1.783755898475647,-0.15964071452617645,0.0,0.0,0.0,0.0,0.0,0.0,0.0,-0.3575061336587041,0.06248616548970885,-0.24011580145844613,0.2334361880120481,0.0060086224612319215,-0.12321055272724173,-0.16027946487024433,1.0544287993953936,0.3236316488978917,-0.39252854932114034,-2.1530375318807997,0.8648027023588876,2.465882232069969,0.5444994344935784,1.0544104758940245,0.3238615046091247,-0.39250456234122666,-2.153291787532338,0.8647539153680389,2.46587817577521,0.5445020185570556,-1.243816742431692e-06,0.0004141214593656278,-0.0006793936959477975,-0.0002963995285606728,-0.0004159532077834416,-9.095467664175773e-05,-0.0003411098741357498,0.0,0.0,0.0,0.0,0.0,0.0,0.0,-1.832350136909966e-05,0.00022985571123301796,2.3986979913681594e-05,-0.0002542556515381378,-4.878699084864824e-05,-4.056294759191559e-06,2.5840634771956417e-06,1.243816742431692e-06,-0.0004141214593656278,0.0006793936959477975,0.0002963995285606728,0.0004159532077834416,9.095467664175773e-05,0.0003411098741357498,0.3514034152030945,34.01534652709961,3.7514312267303467,-19.261507034301758,-0.06987529993057251,-1.783755898475647,0.15964071452617645,0
45,0.22000741958618164,-0.3514034152030945,-34.01534652709961,-3.7990386486053467,19.213899612426758,0.06438213586807251,1.783755898475647,-0.14590780436992645,0.0,0.0,0.0,0.0,0.0,0.0,0.0,-0.3596952449421601,0.06223955745034556,-0.2402422323792812,0.2350849462208156,0.006496460696167214,-0.12238997910411406,-0.16105863762901806,1.0544266526591655,0.32363388097992524,-0.39252592012380577,-2.1530314372146884,0.8648033131957044,2.465882232069969,0.5444989663147299,1.0544104758940245,0.3238615046091247,-0.39250456234122666,-2.153291787532338,0.8647539153680389,2.46587817577521,0.5445020185570556,0.0005153385816943398,0.00021320286302922478,-0.0001268632115286741,0.00166683282066427,-0.00015086822480209417,-9.271048659849208e-05,-0.0002508566727170044,0.0,0.0,0.0,0.0,0.0,0.0,0.0,-1.6176765140984983e-05,0.00022762362919948043,2.135778257911225e-05,-0.0002603503176494826,-4.939782766544276e-05,-4.056294759191559e-06,3.052242325662924e-06,-0.0005153385816943398,-0.00021320286302922478,0.0001268632115286741,-0.00166683282066427,0.00015086822480209417,9.271048659849208e-05,0.0002508566727170044,0.3514034152030945,34.01534652709961,3.7990386486053467,-19.213899612426758,-0.06438213586807251,-1.783755898475647,0.14590780436992645,0
46,0.22500872611999512,-0.3514034152030945,-34.01534652709961,-3.7990386486053467,19.213899612426758,0.06438213586807251,1.783755898475647,-0.14590780436992645,0.0,0.0,0.0,0.0,0.0,0.0,0.0,-0.3596952449421601,0.06223955745034556,-0.2402422323792812,0.2350849462208156,0.006496460696167214,-0.12238997910411406,-0.16105863762901806,1.0544266526591655,0.32363388097992524,-0.39252592012380577,-2.1530314372146884,0.8648033131957044,2.465882232069969,0.5444989663147299,1.0544104758940245,0.3238615046091247,-0.39250456234122666,-2.153291787532338,0.8647539153680389,2.46587817577521,0.5445020185570556,0.0005153385816943398,0.00021320286302922478,-0.0001268632115286741,0.00166683282066427,-0.00015086822480209417,-9.271048659849208e-05,-0.0002508566727170044,0.0,0.0,0.0,0.0,0.0,0.0,0.0,-1.6176765140984983e-05,0.00022762362919948043,2.135778257911225e-05,-0.0002603503176494826,-4.939782766544276e-05,-4.056294759191559e-06,3.052242325662924e-06,-0.0005153385816943398,-0.00021320286302922478,0.0001268632115286741,-0.00166683282066427,0.00015086822480209417,9.271048659849208e-05,0.0002508566727170044,0.3514034152030945,34.01534652709961,3.7990386486053467,-19.213899612426758,-0.06438213586807251,-1.783755898475647,0.14590780436992645,0
47,0.23005175590515137,-0.3236324191093445,-34.01534652709961,-3.7990386486053467,19.261507034301758,0.06438213586807251,1.770938515663147,-0.19351522624492645,0.0,0.0,0.0,0.0,0.0,0.0,0.0,-0.3617245540407737,0.05972229508608147,-0.2437421609512801,0.23552372662291443,0.007230396289690654,-0.1223077373964648,-0.1595739682033775,1.0544237411915656,0.3236336153565906,-0.3925273145185742,-2.153036919645251,0.8648001342813173,2.465883656223615,0.5445063753105085,1.0544104758940245,0.3238615046091247,-0.39250456234122666,-2.153291787532338,0.8647539153680389,2.46587817577521,0.5445020185570556,-0.0010017379861892084,2.216340082038413e-05,5.0141857206978055e-05,0.0005879526086806723,-0.00012808835710460394,0.00028695536245444247,0.001769046069255304,0.0,0.0,0.0,0.0,0.0,0.0,0.0,-1.3265297541087406e-05,0.00022788925253414138,2.2752177347540314e-05,-0.00025486788708706243,-4.621891327838412e-05,-5.480448404870941e-06,-4.356753452894324e-06,0.0010017379861892084,-2.216340082038413e-05,-5.0141857206978055e-05,-0.0005879526086806723,0.00012808835710460394,-0.00028695536245444247,-0.001769046069255304,0.3236324191093445,34.01534652709961,3.7990386486053467,-19.261507034301758,-0.06438213586807251,-1.770938515663147,0.19351522624492645,0
48,0.23513340950012207,-0.3236324191093445,-34.01534652709961,-3.7990386486053467,19.261507034301758,0.06438213586807251,1.770938515663147,-0.19351522624492645,0.0,0.0,0.0,0.0,0.0,0.0,0.0,-0.3617245540407737,0.05972229508608147,-0.2437421609512801,0.23552372662291443,0.007230396289690654,-0.1223077373964648,-0.1595739682033775,1.0544237411915656,0.3236336153565906,-0.3925273145185742,-2.153036919645251,0.8648001342813173,2.465883656223615,0.5445063753105085,1.0544104758940245,0.3238615046091247,-0.39250456234122666,-2.153291787532338,0.8647539153680389,2.46587817577521,0.5445020185570556,-0.0010017379861892084,2.216340082038413e-05,5.0141857206978055e-05,0.0005879526086806723,-0.00012808835710460394,0.00028695536245444247,0.001769046069255304,0.0,0.0,0.0,0.0,0.0,0.0,0.0,-1.3265297541087406e-05,0.00022788925253414138,2.2752177347540314e-05,-0.00025486788708706243,-4.621891327838412e-05,-5.480448404870941e-06,-4.356753452894324e-06,0.0010017379861892084,-2.216340082038413e-05,-5.0141857206978055e-05,-0.0005879526086806723,0.00012808835710460394,-0.00028695536245444247,-0.001769046069255304,0.3236324191093445,34.01534652709961,3.7990386486053467,-19.261507034301758,-0.06438213586807251,-1.770938515663147,0.19351522624492645,0
49,0.23999881744384766,-0.3752071261405945,-34.01534652709961,-3.8228423595428467,19.261507034301758,0.06987529993057251,1.783755898475647,-0.18710653483867645,0.0,0.0,0.0,0.0,0.0,0.0,0.0,-0.35850486074073606,0.053720874770161825,-0.23917844481389217,0.23573619293716994,0.0075041844499620204,-0.12299748622459471,-0.1582154106177013,1.0544304685176316,0.32363435253790307,-0.3925243267023365,-2.1530347796679905,0.864802698465547,2.465882232069969,0.5445024843312609,1.0544104758940245,0.3238615046091247,-0.39250456234122666,-2.153291787532338,0.8647539153680389,2.46587817577521,0.5445020185570556,0.0002502396639489778,-0.0007049094067156518,0.0006561201755920187,0.0002036210387051999,-0.0005376948717813114,7.965953475441319e-05,0.0014710064020047114,0.0,0.0,0.0,0.0,0.0,0.0,0.0,-1.9992623607079096e-05,0.00022715207122164793,1.976436110984192e-05,-0.00025700786434734724,-4.8783097508109385e-05,-4.056294759191559e-06,-4.657742053160163e-07,-0.0002502396639489778,0.0007049094067156518,-0.0006561201755920187,-0.0002036210387051999,0.0005376948717813114,-7.965953475441319e-05,-0.0014710064020047114,0.3752071261405945,34.01534652709961,3.8228423595428467,-19.261507034301758,-0.06987529993057251,-1.783755898475647,0.18710653483867645,0
50,0.24501848220825195,-0.3752071261405945,-34.01534652709961,-3.8228423595428467,19.261507034301758,0.06987529993057251,1.783755898475647,-0.18710653483867645,0.0,0.0,0.0,0.0,0.0,0.0,0.0,-0.35850486074073606,0.053720874770161825,-0.23917844481389217,0.23573619293716994,0.0075041844499620204,-0.12299748622459471,-0.1582154106177013,1.0544304685176316,0.32363435253790307,-0.3925243267023365,-2.1530347796679905,0.864802698465547,2.465882232069969,0.5445024843312609,1.0544104758940245,0.3238615046091247,-0.39250456234122666,-2.153291787532338,0.8647539153680389,2.46587817577521,0.5445020185570556,0.0002502396639489778,-0.0007049094067156518,0.0006561201755920187,0.0002036210387051999,-0.0005376948717813114,7.965953475441319e-05,0.0014710064020047114,0.0,0.0,0.0,0.0,0.0,0.0,0.0,-1.9992623607079096e-05,0.00022715207122164793,1.976436110984192e-05,-0.00025700786434734724,-4.8783097508109385e-05,-4.056294759191559e-06,-4.657742053160163e-07,-0.0002502396639489778,0.0007049094067156518,-0.0006561201755920187,-0.0002036210387051999,0.0005376948717813114,-7.965953475441319e-05,-0.0014710064020047114,0.3752071261405945,34.01534652709961,3.8228423595428467,-19.261507034301758,-0.06987529993057251,-1.783755898475647,0.18710653483867645,0
51,0.25001978874206543,-0.3514034152030945,-34.06295394897461,-3.8506133556365967,19.289278030395508,0.06438213586807251,1.783755898475647,-0.17978231608867645,0.0,0.0,0.0,0.0,0.0,0.0,0.0,-0.35944608904031194,0.05578540145565086,-0.23628941476437076,0.23413307466016656,0.007516536630105146,-0.12364062679469567,-0.15688447049285875,1.054428549106164,0.3236379295167678,-0.392523695526649,-2.1530377205807767,0.8648001342812925,2.465882232069969,0.5445016705112324,1.0544104758940245,0.3238615046091247,-0.39250456234122666,-2.153291787532338,0.8647539153680389,2.46587817577521,0.5445020185570556,-0.0004132409821952808,0.000941747257447095,0.0012223471327208807,-0.00039340087570349536,-0.0001447585177891443,-0.000254085028632118,0.0008434980190025411,0.0,0.0,0.0,0.0,0.0,0.0,0.0,-1.80732121395355e-05,0.0002235750923569313,1.9133185422348653e-05,-0.00025406695156116044,-4.621891325362615e-05,-4.056294759191559e-06,3.4804582316194654e-07,0.0004132409821952808,-0.000941747257447095,-0.0012223471327208807,0.00039340087570349536,0.0001447585177891443,0.000254085028632118,-0.0008434980190025411,0.3514034152030945,34.06295394897461,3.8506133556365967,-19.289278030395508,-0.06438213586807251,-1.783755898475647,0.17978231608867645,0
52,0.2550077438354492,-0.3514034152030945,-34.06295394897461,-3.8506133556365967,19.289278030395508,0.06438213586807251,1.783755898475647,-0.17978231608867645,0.0,0.0,0.0,0.0,0.0,0.0,0.0,-0.35944608904031194,0.05578540145565086,-0.23628941476437076,0.23413307466016656,0.007516536630105146,-0.12364062679469567,-0.15688447049285875,1.054428549106164,0.3236379295167678,-0.392523695526649,-2.1530377205807767,0.8648001342812925,2.465882232069969,0.5445016705112324,1.0544104758940245,0.3238615046091247,-0.39250456234122666,-2.153291787532338,0.8647539153680389,2.46587817577521,0.5445020185570556,-0.0004132409821952808,0.000941747257447095,0.0012223471327208807,-0.00039340087570349536,-0.0001447585177891443,-0.000254085028632118,0.0008434980190025411,0.0,0.0,0.0,0.0,0.0,0.0,0.0,-1.80732121395355e-05,0.0002235750923569313,1.9133185422348653e-05,-0.00025406695156116044,-4.621891325362615e-05,-4.056294759191559e-06,3.4804582316194654e-07,0.0004132409821952808,-0.000941747257447095,-0.0012223471327208807,0.00039340087570349536,0.0001447585177891443,0.000254085028632118,-0.0008434980190025411,0.3514034152030945,34.06295394897461,3.8506133556365967,-19.289278030395508,-0.06438213586807251,-1.783755898475647,0.17978231608867645,0
53,0.2600088119506836,-0.3514034152030945,-33.99154281616211,-3.7990386486053467,19.237703323364258,0.06987529993057251,1.777347207069397,-0.18710653483867645,0.0,0.0,0.0,0.0,0.0,0.0,0.0,-0.3538830798008487,0.06234131325179937,-0.22872186844705267,0.2313727274306656,0.007033434547107438,-0.125037061263018,-0.15676325088161341,1.054428080225788,0.323632682107542,-0.3925254511302129,-2.1530339061184267,0.8648027022878458,2.465882944146792,0.5445024843133158,1.0544104758940245,0.3238615046091247,-0.39250456234122666,-2.153291787532338,0.8647539153680389,2.46587817577521,0.5445020185570556,-0.00016376154296303505,-0.00011722379236652946,0.00038942573311082063,0.0009425715791242211,-0.00048399153188515335,3.9916481060791356e-05,0.0009000904869023004,0.0,0.0,0.0,0.0,0.0,0.0,0.0,-1.760433176345444e-05,0.0002288225015827372,2.0888788986261897e-05,-0.00025788141391114294,-4.878691980692018e-05,-4.76837158203125e-06,-4.657562602261578e-07,0.00016376154296303505,0.00011722379236652946,-0.00038942573311082063,-0.0009425715791242211,0.00048399153188515335,-3.9916481060791356e-05,-0.0009000904869023004,0.3514034152030945,33.99154281616211,3.7990386486053467,-19.237703323364258,-0.06987529993057251,-1.777347207069397,0.18710653483867645,0
54,0.26500773429870605,-0.3514034152030945,-33.99154281616211,-3.7990386486053467,19.237703323364258,0.06987529993057251,1.777347207069397,-0.18710653483867645,0.0,0.0,0.0,0.0,0.0,0.0,0.0,-0.3538830798008487,0.06234131325179937,-0.22872186844705267,0.2313727274306656,0.007033434547107438,-0.125037061263018,-0.15676325088161341,1.054428080225788,0.323632682107542,-0.3925254511302129,-2.1530339061184267,0.8648027022878458,2.465882944146792,0.5445024843133158,1.0544104758940245,0.3238615046091247,-0.39250456234122666,-2.153291787532338,0.8647539153680389,2.46587817577521,0.5445020185570556,-0.00016376154296303505,-0.00011722379236652946,0.00038942573311082063,0.0009425715791242211,-0.00048399153188515335,3.9916481060791356e-05,0.0009000904869023004,0.0,0.0,0.0,0.0,0.0,0.0,0.0,-1.760433176345444e-05,0.0002288225015827372,2.0888788986261897e-05,-0.00025788141391114294,-4.878691980692018e-05,-4.76837158203125e-06,-4.657562602261578e-07,0.00016376154296303505,0.00011722379236652946,-0.00038942573311082063,-0.0009425715791242211,0.00048399153188515335,-3.9916481060791356e-05,-0.0009000904869023004,0.3514034152030945,33.99154281616211,3.7990386486053467,-19.237703323364258,-0.06987529993057251,-1.777347207069397,0.18710653483867645,0
55,0.2699615955352783,-0.3514034152030945,-33.99154281616211,-3.8228423595428467,19.261507034301758,0.05797344446182251,1.757205605506897,-0.17978231608867645,0.0,0.0,0.0,0.0,0.0,0.0,0.0,-0.3619777360578135,0.054608401809515594,-0.23463320690578882,0.23624927148481042,0.00682650490666383,-0.1242113780406815,-0.15707316641496227,1.054428692450385,0.32363221065359377,-0.39252572493721666,-2.1530354687491573,0.8648039075349488,2.465885182102521,0.5445016709957491,1.0544104758940245,0.3238615046091247,-0.39250456234122666,-2.153291787532338,0.8647539153680389,2.46587817577521,0.5445020185570556,-0.00013632613268690807,-4.3094291305488565e-05,0.0006367770645272784,9.118883906751625e-05,5.261202718461959e-05,0.0009501141949295994,0.001052498906425427,0.0,0.0,0.0,0.0,0.0,0.0,0.0,-1.8216556360473035e-05,0.00022929395553095144,2.116259598999859e-05,-0.00025631878318055357,-4.9992166909929026e-05,-7.006327311209759e-06,3.475613065129224e-07,0.00013632613268690807,4.3094291305488565e-05,-0.0006367770645272784,-9.118883906751625e-05,-5.261202718461959e-05,-0.0009501141949295994,-0.001052498906425427,0.3514034152030945,33.99154281616211,3.8228423595428467,-19.261507034301758,-0.05797344446182251,-1.757205605506897,0.17978231608867645,0
56,0.2749948501586914,-0.3514034152030945,-33.99154281616211,-3.8228423595428467,19.261507034301758,0.05797344446182251,1.757205605506897,-0.17978231608867645,0.0,0.0,0.0,0.0,0.0,0.0,0.0,-0.3619777360578135,0.054608401809515594,-0.23463320690578882,0.23624927148481042,0.00682650490666383,-0.1242113780406815,-0.15707316641496227,1.054428692450385,0.32363221065359377,-0.39252572493721666,-2.1530354687491573,0.8648039075349488,2.465885182102521,0.5445016709957491,1.0544104758940245,0.3238615046091247,-0.39250456234122666,-2.153291787532338,0.8647539153680389,2.46587817577521,0.5445020185570556,-0.00013632613268690807,-4.3094291305488565e-05,0.0006367770645272784,9.118883906751625e-05,5.261202718461959e-05,0.0009501141949295994,0.001052498906425427,0.0,0.0,0.0,0.0,0.0,0.0,0.0,-1.8216556360473035e-05,0.00022929395553095144,2.116259598999859e-05,-0.00025631878318055357,-4.9992166909929026e-05,-7.006327311209759e-06,3.475613065129224e-07,0.00013632613268690807,4.3094291305488565e-05,-0.0006367770645272784,-9.118883906751625e-05,-5.261202718461959e-05,-0.0009501141949295994,-0.001052498906425427,0.3514034152030945,33.99154281616211,3.8228423595428467,-19.261507034301758,-0.05797344446182251,-1.757205605506897,0.17978231608867645,0
57,0.2800025939941406,-0.3514034152030945,-33.96377182006836,-3.7990386486053467,19.237703323364258,0.05248028039932251,1.770938515663147,-0.14590780436992645,0.0,0.0,0.0,0.0,0.0,0.0,0.0,-0.36604413577998124,0.0586957001603522,-0.24020443397342975,0.2348881718303124,0.006696310858819913,-0.12462383299125793,-0.15681410931594214,1.0544287729163693,0.32363089171044507,-0.3925259105694821,-2.1530331101778124,0.8648046356238692,2.465883656223615,0.5445012164105081,1.0544104758940245,0.3238615046091247,-0.39250456234122666,-2.153291787532338,0.8647539153680389,2.46587817577521,0.5445020185570556,-0.000580280107879379,-0.000640653157118328,-0.00016907144792444612,0.00040466942822108476,0.00037626665122430554,0.0003678592133428938,-0.0005845736054829585,0.0,0.0,0.0,0.0,0.0,0.0,0.0,-1.8297022344793135e-05,0.00023061289867964962,2.134822825544669e-05,-0.0002586773545254495,-5.072025583030548e-05,-5.480448404870941e-06,8.02146547518312e-07,0.000580280107879379,0.000640653157118328,0.00016907144792444612,-0.00040466942822108476,-0.00037626665122430554,-0.0003678592133428938,0.0005845736054829585,0.3514034152030945,33.96377182006836,3.7990386486053467,-19.237703323364258,-0.05248028039932251,-1.770938515663147,0.14590780436992645,0
58,0.2850000858306885,-0.3514034152030945,-33.96377182006836,-3.7990386486053467,19.237703323364258,0.05248028039932251,1.770938515663147,-0.14590780436992645,0.0,0.0,0.0,0.0,0.0,0.0,0.0,-0.36604413577998124,0.0586957001603522,-0.24020443397342975,0.2348881718303124,0.006696310858819913,-0.12462383299125793,-0.15681410931594214,1.0544287729163693,0.32363089171044507,-0.3925259105694821,-2.1530331101778124,0.8648046356238692,2.465883656223615,0.5445012164105081,1.0544104758940245,0.3238615046091247,-0.39250456234122666,-2.153291787532338,0.8647539153680389,2.46587817577521,0.5445020185570556,-0.000580280107879379,-0.000640653157118328,-0.00016907144792444612,0.00040466942822108476,0.00037626665122430554,0.0003678592133428938,-0.0005845736054829585,0.0,0.0,0.0,0.0,0.0,0.0,0.0,-1.8297022344793135e-05,0.00023061289867964962,2.134822825544669e-05,-0.0002586773545254495,-5.072025583030548e-05,-5.480448404870941e-06,8.02146547518312e-07,0.000580280107879379,0.000640653157118328,0.00016907144792444612,-0.00040466942822108476,-0.00037626665122430554,-0.0003678592133428938,0.0005845736054829585,0.3514034152030945,33.96377182006836,3.7990386486053467,-19.237703323364258,-0.05248028039932251,-1.770938515663147,0.14590780436992645,0
59,0.2900121212005615,-0.3514034152030945,-33.96377182006836,-3.7990386486053467,19.237703323364258,0.05248028039932251,1.770938515663147,-0.14590780436992645,0.0,0.0,0.0,0.0,0.0,0.0,0.0,-0.36604413577998124,0.0586957001603522,-0.24020443397342975,0.2348881718303124,0.006696310858819913,-0.12462383299125793,-0.15681410931594214,1.0544287729163693,0.32363089171044507,-0.3925259105694821,-2.1530331101778124,0.8648046356238692,2.465883656223615,0.5445012164105081,1.0544104758940245,0.3238615046091247,-0.39250456234122666,-2.153291787532338,0.8647539153680389,2.46587817577521,0.5445020185570556,-0.000580280107879379,-0.000640653157118328,-0.00016907144792444612,0.00040466942822108476,0.00037626665122430554,0.0003678592133428938,-0.0005845736054829585,0.0,0.0,0.0,0.0,0.0,0.0,0.0,-1.8297022344793135e-05,0.00023061289867964962,2.134822825544669e-05,-0.0002586773545254495,-5.072025583030548e-05,-5.480448404870941e-06,8.02146547518312e-07,0.000580280107879379,0.000640653157118328,0.00016907144792444612,-0.00040466942822108476,-0.00037626665122430554,-0.0003678592133428938,0.0005845736054829585,0.3514034152030945,33.96377182006836,3.7990386486053467,-19.237703323364258,-0.05248028039932251,-1.770938515663147,0.14590780436992645,0
60,0.29505395889282227,-0.3514034152030945,-33.96377182006836,-3.7990386486053467,19.237703323364258,0.05248028039932251,1.770938515663147,-0.14590780436992645,0.0,0.0,0.0,0.0,0.0,0.0,0.0,-0.36604413577998124,0.0586957001603522,-0.24020443397342975,0.2348881718303124,0.006696310858819913,-0.12462383299125793,-0.15681410931594214,1.0544287729163693,0.32363089171044507,-0.3925259105694821,-2.1530331101778124,0.8648046356238692,2.465883656223615,0.5445012164105081,1.0544104758940245,0.3238615046091247,-0.39250456234122666,-2.153291787532338,0.8647539153680389,2.46587817577521,0.5445020185570556,-0.000580280107879379,-0.000640653157118328,-0.00016907144792444612,0.00040466942822108476,0.00037626665122430554,0.0003678592133428938,-0.0005845736054829585,0.0,0.0,0.0,0.0,0.0,0.0,0.0,-1.8297022344793135e-05,0.00023061289867964962,2.134822825544669e-05,-0.0002586773545254495,-5.072025583030548e-05,-5.480448404870941e-06,8.02146547518312e-07,0.000580280107879379,0.000640653157118328,0.00016907144792444612,-0.00040466942822108476,-0.00037626665122430554,-0.0003678592133428938,0.0005845736054829585,0.3514034152030945,33.96377182006836,3.7990386486053467,-19.237703323364258,-0.05248028039932251,-1.770938515663147,0.14590780436992645,0
61,0.30002570152282715,-0.4267818331718445,-34.01534652709961,-3.7990386486053467,19.261507034301758,0.05797344446182251,1.777347207069397,-0.13217489421367645,0.0,0.0,0.0,0.0,0.0,0.0,0.0,-0.36083242463541065,0.060652647515167364,-0.24036787034080903,0.23755763656236614,0.006438964988308909,-0.1248824404325274,-0.15698910327241625,1.0544337583655576,0.32363458940199974,-0.3925252094150494,-2.153034776961464,0.864804012190576,2.465882944146792,0.544496385177025,1.0544104758940245,0.3238615046091247,-0.39250456234122666,-2.153291787532338,0.8647539153680389,2.46587817577521,0.5445020185570556,0.0019135220433269453,0.0006225386421058509,-0.00070814025142978,0.0005533949805793356,0.00011964462684880051,5.4896958801748416e-05,-0.0010647234857342346,0.0,0.0,0.0,0.0,0.0,0.0,0.0,-2.328247153315921e-05,0.00022691520712497804,2.0647073822765982e-05,-0.00025701057087390566,-5.0096822537093466e-05,-4.76837158203125e-06,5.633380030567459e-06,-0.0019135220433269453,-0.0006225386421058509,0.00070814025142978,-0.0005533949805793356,-0.00011964462684880051,-5.4896958801748416e-05,0.0010647234857342346,0.4267818331718445,34.01534652709961,3.7990386486053467,-19.261507034301758,-0.05797344446182251,-1.777347207069397,0.13217489421367645,0
62,0.30495405197143555,-0.4267818331718445,-34.01534652709961,-3.7990386486053467,19.261507034301758,0.05797344446182251,1.777347207069397,-0.13217489421367645,0.0,0.0,0.0,0.0,0.0,0.0,0.0,-0.36083242463541065,0.060652647515167364,-0.24036787034080903,0.23755763656236614,0.006438964988308909,-0.1248824404325274,-0.15698910327241625,1.0544337583655576,0.32363458940199974,-0.3925252094150494,-2.153034776961464,0.864804012190576,2.465882944146792,0.544496385177025,1.0544104758940245,0.3238615046091247,-0.39250456234122666,-2.153291787532338,0.8647539153680389,2.46587817577521,0.5445020185570556,0.0019135220433269453,0.0006225386421058509,-0.00070814025142978,0.0005533949805793356,0.00011964462684880051,5.4896958801748416e-05,-0.0010647234857342346,0.0,0.0,0.0,0.0,0.0,0.0,0.0,-2.328247153315921e-05,0.00022691520712497804,2.0647073822765982e-05,-0.00025701057087390566,-5.0096822537093466e-05,-4.76837158203125e-06,5.633380030567459e-06,-0.0019135220433269453,-0.0006225386421058509,0.00070814025142978,-0.0005533949805793356,-0.00011964462684880051,-5.4896958801748416e-05,0.0010647234857342346,0.4267818331718445,34.01534652709961,3.7990386486053467,-19.261507034301758,-0.05797344446182251,-1.777347207069397,0.13217489421367645,0
63,0.3099966049194336,-0.4029781222343445,-34.03915023803711,-3.8228423595428467,19.289278030395508,0.05248028039932251,1.790164589881897,-0.16604940593242645,0.0,0.0,0.0,0.0,0.0,0.0,0.0,-0.3603047832004617,0.06182435991879227,-0.24029493756285494,0.234098872858157,0.006823039339257529,-0.12526097565078115,-0.15747643146333343,1.0544317034276058,0.32363618138931605,-0.39252424879631054,-2.1530388015107103,0.8648046356240169,2.4658815199931463,0.5445001446323509,1.0544104758940245,0.3238615046091247,-0.39250456234122666,-2.153291787532338,0.8647539153680389,2.46587817577521,0.5445020185570556,0.0009695342804383134,0.0005299774930132729,0.0007268362592148016,-0.0006871489159649959,0.00038446699138494964,-0.0005979294306422835,0.0004244862202655001,0.0,0.0,0.0,0.0,0.0,0.0,0.0,-2.1227533581358315e-05,0.00022532321980867076,1.968645508387823e-05,-0.0002529860216275992,-5.0720255977965145e-05,-3.3442179363518676e-06,1.873924704742791e-06,-0.0009695342804383134,-0.0005299774930132729,-0.0007268362592148016,0.0006871489159649959,-0.00038446699138494964,0.0005979294306422835,-0.0004244862202655001,0.4029781222343445,34.03915023803711,3.8228423595428467,-19.289278030395508,-0.05248028039932251,-1.790164589881897,0.16604940593242645,0
64,0.31499648094177246,-0.4029781222343445,-34.03915023803711,-3.8228423595428467,19.289278030395508,0.05248028039932251,1.790164589881897,-0.16604940593242645,0.0,0.0,0.0,0.0,0.0,0.0,0.0,-0.3603047832004617,0.06182435991879227,-0.24029493756285494,0.234098872858157,0.006823039339257529,-0.12526097565078115,-0.15747643146333343,1.0544317034276058,0.32363618138931605,-0.39252424879631054,-2.1530388015107103,0.8648046356240169,2.4658815199931463,0.5445001446323509,1.0544104758940245,0.3238615046091247,-0.39250456234122666,-2.153291787532338,0.8647539153680389,2.46587817577521,0.5445020185570556,0.0009695342804383134,0.0005299774930132729,0.0007268362592148016,-0.0006871489159649959,0.00038446699138494964,-0.0005979294306422835,0.0004244862202655001,0.0,0.0,0.0,0.0,0.0,0.0,0.0,-2.1227533581358315e-05,0.00022532321980867076,1.968645508387823e-05,-0.0002529860216275992,-5.0720255977965145e-05,-3.3442179363518676e-06,1.873924704742791e-06,-0.0009695342804383134,-0.0005299774930132729,-0.0007268362592148016,0.0006871489159649959,-0.00038446699138494964,0.0005979294306422835,-0.0004244862202655001,0.4029781222343445,34.03915023803711,3.8228423595428467,-19.289278030395508,-0.05248028039932251,-1.790164589881897,0.16604940593242645,0
65,0.32003211975097656,-0.4029781222343445,-34.03915023803711,-3.8228423595428467,19.261507034301758,0.06438213586807251,1.783755898475647,-0.12485067546367645,0.0,0.0,0.0,0.0,0.0,0.0,0.0,-0.3642911536590968,0.05651914921491596,-0.24193860529398578,0.23640799332306284,0.0068052013092522136,-0.12431937259833213,-0.15835575860155185,1.054429556350028,0.32363623391620877,-0.39252361601740604,-2.1530348788724165,0.8648022535575759,2.465882232069969,0.5444955713562583,1.0544104758940245,0.3238615046091247,-0.39250456234122666,-2.153291787532338,0.8647539153680389,2.46587817577521,0.5445020185570556,0.001199782783963541,0.00033874888236461143,0.0006701764578640357,0.00038982717575047546,-0.00022928949445545152,-0.00020027605866054034,-0.0012059766661439747,0.0,0.0,0.0,0.0,0.0,0.0,0.0,-1.90804560036284e-05,0.00022527069291594648,1.9053676179381362e-05,-0.00025690865992133993,-4.8338189536978327e-05,-4.056294759191559e-06,6.447200797343733e-06,-0.001199782783963541,-0.00033874888236461143,-0.0006701764578640357,-0.00038982717575047546,0.00022928949445545152,0.00020027605866054034,0.0012059766661439747,0.4029781222343445,34.03915023803711,3.8228423595428467,-19.261507034301758,-0.06438213586807251,-1.783755898475647,0.12485067546367645,0
66,0.32501792907714844,-0.4029781222343445,-34.03915023803711,-3.8228423595428467,19.261507034301758,0.06438213586807251,1.783755898475647,-0.12485067546367645,0.0,0.0,0.0,0.0,0.0,0.0,0.0,-0.3642911536590968,0.05651914921491596,-0.24193860529398578,0.23640799332306284,0.0068052013092522136,-0.12431937259833213,-0.15835575860155185,1.054429556350028,0.32363623391620877,-0.39252361601740604,-2.1530348788724165,0.8648022535575759,2.465882232069969,0.5444955713562583,1.0544104758940245,0.3238615046091247,-0.39250456234122666,-2.153291787532338,0.8647539153680389,2.46587817577521,0.5445020185570556,0.001199782783963541,0.00033874888236461143,0.0006701764578640357,0.00038982717575047546,-0.00022928949445545152,-0.00020027605866054034,-0.0012059766661439747,0.0,0.0,0.0,0.0,0.0,0.0,0.0,-1.90804560036284e-05,0.00022527069291594648,1.9053676179381362e-05,-0.00025690865992133993,-4.8338189536978327e-05,-4.056294759191559e-06,6.447200797343733e-06,-0.001199782783963541,-0.00033874888236461143,-0.0006701764578640357,-0.00038982717575047546,0.00022928949445545152,0.00020027605866054034,0.0012059766661439747,0.4029781222343445,34.03915023803711,3.8228423595428467,-19.261507034301758,-0.06438213586807251,-1.783755898475647,0.12485067546367645,0
67,0.3300189971923828,-0.3752071261405945,-34.03915023803711,-3.7752349376678467,19.261507034301758,0.05797344446182251,1.783755898475647,-0.17337362468242645,0.0,0.0,0.0,0.0,0.0,0.0,0.0,-0.3640608116581286,0.06073484279484632,-0.23968886815399812,0.22945168549039216,0.0064987546499120025,-0.12493550626616157,-0.15723746896270985,1.0544304341412218,0.32363546292764533,-0.39252711303019444,-2.15303480233147,0.8648040252705343,2.465882232069969,0.5445009627950684,1.0544104758940245,0.3238615046091247,-0.39250456234122666,-2.153291787532338,0.8647539153680389,2.46587817577521,0.5445020185570556,0.0004797766632542312,0.0004081710717073107,-0.0005036088418185738,-0.00020922252216076527,0.00012061353415217631,1.966565111399827e-05,0.001231016314614721,0.0,0.0,0.0,0.0,0.0,0.0,0.0,-1.995824719736028e-05,0.00022604168147938308,2.2550688967781785e-05,-0.00025698520086780974,-5.0109902495432124e-05,-4.056294759191559e-06,1.0557619871676138e-06,-0.0004797766632542312,-0.0004081710717073107,0.0005036088418185738,0.00020922252216076527,-0.00012061353415217631,-1.966565111399827e-05,-0.001231016314614721,0.3752071261405945,34.03915023803711,3.7752349376678467,-19.261507034301758,-0.05797344446182251,-1.783755898475647,0.17337362468242645,0
68,0.3350667953491211,-0.3752071261405945,-34.03915023803711,-3.7752349376678467,19.261507034301758,0.05797344446182251,1.783755898475647,-0.17337362468242645,0.0,0.0,0.0,0.0,0.0,0.0,0.0,-0.3640608116581286,0.06073484279484632,-0.23968886815399812,0.22945168549039216,0.0064987546499120025,-0.12493550626616157,-0.15723746896270985,1.0544304341412218,0.32363546292764533,-0.39252711303019444,-2.15303480233147,0.8648040252705343,2.465882232069969,0.5445009627950684,1.0544104758940245,0.3238615046091247,-0.39250456234122666,-2.153291787532338,0.8647539153680389,2.46587817577521,0.5445020185570556,0.0004797766632542312,0.0004081710717073107,-0.0005036088418185738,-0.00020922252216076527,0.00012061353415217631,1.966565111399827e-05,0.001231016314614721,0.0,0.0,0.0,0.0,0.0,0.0,0.0,-1.995824719736028e-05,0.00022604168147938308,2.2550688967781785e-05,-0.00025698520086780974,-5.0109902495432124e-05,-4.056294759191559e-06,1.0557619871676138e-06,-0.0004797766632542312,-0.0004081710717073107,0.0005036088418185738,0.00020922252216076527,-0.00012061353415217631,-1.966565111399827e-05,-0.001231016314614721,0.3752071261405945,34.03915023803711,3.7752349376678467,-19.261507034301758,-0.05797344446182251,-1.783755898475647,0.17337362468242645,0
69,0.3399975299835205,-0.3514034152030945,-34.01534652709961,-3.8228423595428467,19.313081741333008,0.06438213586807251,1.790164589881897,-0.12485067546367645,0.0,0.0,0.0,0.0,0.0,0.0,0.0,-0.3728798606886928,0.055309425191499284,-0.24855279619097265,0.23143069940748615,0.0067089562809420225,-0.12312885264708494,-0.15694703987572436,1.0544287637590024,0.3236345109849645,-0.39252353804924117,-2.15303839620428,0.8648001342813173,2.4658815199931463,0.5444955669956321,1.0544104758940245,0.3238615046091247,-0.39250456234122666,-2.153291787532338,0.8647539153680389,2.46587817577521,0.5445020185570556,-0.0005055596855754206,0.0003387598396226089,3.90865205317975e-05,-0.0011923050988145124,-0.0001391490348015707,-0.0003064713162415242,-0.0009703975336215139,0.0,0.0,0.0,0.0,0.0,0.0,0.0,-1.8287864977928336e-05,0.00022699362416023217,1.8975708014512538e-05,-0.00025339132805779485,-4.621891327838412e-05,-3.3442179363518676e-06,6.4515614235372e-06,0.0005055596855754206,-0.0003387598396226089,-3.90865205317975e-05,0.0011923050988145124,0.0001391490348015707,0.0003064713162415242,0.0009703975336215139,0.3514034152030945,34.01534652709961,3.8228423595428467,-19.313081741333008,-0.06438213586807251,-1.790164589881897,0.12485067546367645,0
70,0.3449993133544922,-0.3514034152030945,-34.01534652709961,-3.8228423595428467,19.313081741333008,0.06438213586807251,1.790164589881897,-0.12485067546367645,0.0,0.0,0.0,0.0,0.0,0.0,0.0,-0.3728798606886928,0.055309425191499284,-0.24855279619097265,0.23143069940748615,0.0067089562809420225,-0.12312885264708494,-0.15694703987572436,1.0544287637590024,0.3236345109849645,-0.39252353804924117,-2.15303839620428,0.8648001342813173,2.4658815199931463,0.5444955669956321,1.0544104758940245,0.3238615046091247,-0.39250456234122666,-2.153291787532338,0.8647539153680389,2.46587817577521,0.5445020185570556,-0.0005055596855754206,0.0003387598396226089,3.90865205317975e-05,-0.0011923050988145124,-0.0001391490348015707,-0.0003064713162415242,-0.0009703975336215139,0.0,0.0,0.0,0.0,0.0,0.0,0.0,-1.8287864977928336e-05,0.00022699362416023217,1.8975708014512538e-05,-0.00025339132805779485,-4.621891327838412e-05,-3.3442179363518676e-06,6.4515614235372e-06,0.0005055596855754206,-0.0003387598396226089,-3.90865205317975e-05,0.0011923050988145124,0.0001391490348015707,0.0003064713162415242,0.0009703975336215139,0.3514034152030945,34.01534652709961,3.8228423595428467,-19.313081741333008,-0.06438213586807251,-1.790164589881897,0.12485067546367645,0
71,0.34999632835388184,-0.3514034152030945,-33.99154281616211,-3.7990386486053467,19.261507034301758,0.05248028039932251,1.783755898475647,-0.15964071452617645,0.0,0.0,0.0,0.0,0.0,0.0,0.0,-0.3590338782163308,0.06716918342262505,-0.23738954539118495,0.22436621627279493,0.0062290072168030884,-0.12503381795223598,-0.15703037219723406,1.0544266238423305,0.32363265575343014,-0.39252544277252166,-2.1530357207193167,0.8648035759680164,2.465882232069969,0.5444994325555033,1.0544104758940245,0.3238615046091247,-0.39250456234122666,-2.153291787532338,0.8647539153680389,2.46587817577521,0.5445020185570556,-0.0005285968079859221,0.00020461256288303232,9.513782626615284e-06,2.9233842680589492e-05,0.00030976085147744136,0.003885154005491971,-2.4921923815699798e-05,0.0,0.0,0.0,0.0,0.0,0.0,0.0,-1.6147948306066695e-05,0.00022884885569457447,2.0880431295000612e-05,-0.00025606681302114964,-4.9660599977463526e-05,-4.056294759191559e-06,2.5860015523404556e-06,0.0005285968079859221,-0.00020461256288303232,-9.513782626615284e-06,-2.9233842680589492e-05,-0.00030976085147744136,-0.003885154005491971,2.4921923815699798e-05,0.3514034152030945,33.99154281616211,3.7990386486053467,-19.261507034301758,-0.05248028039932251,-1.783755898475647,0.15964071452617645,0
72,0.35500574111938477,-0.3514034152030945,-33.99154281616211,-3.7990386486053467,19.261507034301758,0.05248028039932251,1.783755898475647,-0.15964071452617645,0.0,0.0,0.0,0.0,0.0,0.0,0.0,-0.3590338782163308,0.06716918342262505,-0.23738954539118495,0.22436621627279493,0.0062290072168030884,-0.12503381795223598,-0.15703037219723406,1.0544266238423305,0.32363265575343014,-0.39252544277252166,-2.1530357207193167,0.8648035759680164,2.465882232069969,0.5444994325555033,1.0544104758940245,0.3238615046091247,-0.39250456234122666,-2.153291787532338,0.8647539153680389,2.46587817577521,0.5445020185570556,-0.0005285968079859221,0.00020461256288303232,9.513782626615284e-06,2.9233842680589492e-05,0.00030976085147744136,0.003885154005491971,-2.4921923815699798e-05,0.0,0.0,0.0,0.0,0.0,0.0,0.0,-1.6147948306066695e-05,0.00022884885569457447,2.0880431295000612e-05,-0.00025606681302114964,-4.9660599977463526e-05,-4.056294759191559e-06,2.5860015523404556e-06,0.0005285968079859221,-0.00020461256288303232,-9.513782626615284e-06,-2.9233842680589492e-05,-0.00030976085147744136,-0.003885154005491971,2.4921923815699798e-05,0.3514034152030945,33.99154281616211,3.7990386486053467,-19.261507034301758,-0.05248028039932251,-1.783755898475647,0.15964071452617645,0
73,0.360018253326416,-0.3514034152030945,-33.99154281616211,-3.7514312267303467,19.237703323364258,0.06438213586807251,1.777347207069397,-0.15964071452617645,0.0,0.0,0.0,0.0,0.0,0.0,0.0,-0.3568929530331918,0.05553366817242218,-0.2378283959279318,0.23401494755813462,0.006438850579993661,-0.12289797376346717,-0.15771788503183443,1.0544284520694114,0.32363289261142775,-0.39252855221007327,-2.1530337954706638,0.8648033131897235,2.465882944146792,0.5444994340090534,1.0544104758940245,0.3238615046091247,-0.39250456234122666,-2.153291787532338,0.8647539153680389,2.46587817577521,0.5445020185570556,-0.00045115017514156834,-0.00028774736797259823,-0.001224849901782933,0.0010079237861565149,-0.0002377354659541066,0.0003429134217477074,0.00033054938812748287,0.0,0.0,0.0,0.0,0.0,0.0,0.0,-1.7976175386902327e-05,0.00022861199769697027,2.398986884660781e-05,-0.00025799206167409494,-4.9397821684560306e-05,-4.76837158203125e-06,2.5845480021713385e-06,0.00045115017514156834,0.00028774736797259823,0.001224849901782933,-0.0010079237861565149,0.0002377354659541066,-0.0003429134217477074,-0.00033054938812748287,0.3514034152030945,33.99154281616211,3.7514312267303467,-19.237703323364258,-0.06438213586807251,-1.777347207069397,0.15964071452617645,0
74,0.3650319576263428,-0.3514034152030945,-33.99154281616211,-3.7514312267303467,19.237703323364258,0.06438213586807251,1.777347207069397,-0.15964071452617645,0.0,0.0,0.0,0.0,0.0,0.0,0.0,-0.3568929530331918,0.05553366817242218,-0.2378283959279318,0.23401494755813462,0.006438850579993661,-0.12289797376346717,-0.15771788503183443,1.0544284520694114,0.32363289261142775,-0.39252855221007327,-2.1530337954706638,0.8648033131897235,2.465882944146792,0.5444994340090534,1.0544104758940245,0.3238615046091247,-0.39250456234122666,-2.153291787532338,0.8647539153680389,2.46587817577521,0.5445020185570556,-0.00045115017514156834,-0.00028774736797259823,-0.001224849901782933,0.0010079237861565149,-0.0002377354659541066,0.0003429134217477074,0.00033054938812748287,0.0,0.0,0.0,0.0,0.0,0.0,0.0,-1.7976175386902327e-05,0.00022861199769697027,2.398986884660781e-05,-0.00025799206167409494,-4.9397821684560306e-05,-4.76837158203125e-06,2.5845480021713385e-06,0.00045115017514156834,0.00028774736797259823,0.001224849901782933,-0.0010079237861565149,0.0002377354659541066,-0.0003429134217477074,-0.00033054938812748287,0.3514034152030945,33.99154281616211,3.7514312267303467,-19.237703323364258,-0.06438213586807251,-1.777347207069397,0.15964071452617645,0
75,0.3699986934661865,-0.4029781222343445,-34.03915023803711,-3.7752349376678467,19.289278030395508,0.05797344446182251,1.783755898475647,-0.15231649577617645,0.0,0.0,0.0,0.0,0.0,0.0,0.0,-0.368720896023022,0.048253328189746626,-0.24495208722354758,0.23936998044998103,0.006853586781028022,-0.12103019393496697,-0.15805014939669573,1.0544317031004633,0.3236355418085532,-0.39252687888398047,-2.153037040288143,0.8648040252725282,2.465882232069969,0.5444986187534281,1.0544104758940245,0.3238615046091247,-0.39250456234122666,-2.153291787532338,0.8647539153680389,2.46587817577521,0.5445020185570556,0.0006005565582552709,0.0004823385193080651,-0.00012772190104142687,-0.00027594726669686833,-3.693424352317009e-05,-9.938055143467459e-05,-0.00043208164946955736,0.0,0.0,0.0,0.0,0.0,0.0,0.0,-2.1227206438823032e-05,0.00022596280057152196,2.2316542753808566e-05,-0.00025474724419494166,-5.0109904489281654e-05,-4.056294759191559e-06,3.3998036275129095e-06,-0.0006005565582552709,-0.0004823385193080651,0.00012772190104142687,0.00027594726669686833,3.693424352317009e-05,9.938055143467459e-05,0.00043208164946955736,0.4029781222343445,34.03915023803711,3.7752349376678467,-19.289278030395508,-0.05797344446182251,-1.783755898475647,0.15231649577617645,0
76,0.3749990463256836,-0.4029781222343445,-34.03915023803711,-3.7752349376678467,19.289278030395508,0.05797344446182251,1.783755898475647,-0.15231649577617645,0.0,0.0,0.0,0.0,0.0,0.0,0.0,-0.368720896023022,0.048253328189746626,-0.24495208722354758,0.23936998044998103,0.006853586781028022,-0.12103019393496697,-0.15805014939669573,1.0544317031004633,0.3236355418085532,-0.39252687888398047,-2.153037040288143,0.8648040252725282,2.465882232069969,0.5444986187534281,1.0544104758940245,0.3238615046091247,-0.39250456234122666,-2.153291787532338,0.8647539153680389,2.46587817577521,0.5445020185570556,0.0006005565582552709,0.0004823385193080651,-0.00012772190104142687,-0.00027594726669686833,-3.693424352317009e-05,-9.938055143467459e-05,-0.00043208164946955736,0.0,0.0,0.0,0.0,0.0,0.0,0.0,-2.1227206438823032e-05,0.00022596280057152196,2.2316542753808566e-05,-0.00025474724419494166,-5.0109904489281654e-05,-4.056294759191559e-06,3.3998036275129095e-06,-0.0006005565582552709,-0.0004823385193080651,0.00012772190104142687,0.00027594726669686833,3.693424352317009e-05,9.938055143467459e-05,0.00043208164946955736,0.4029781222343445,34.03915023803711,3.7752349376678467,-19.289278030395508,-0.05797344446182251,-1.783755898475647,0.15231649577617645,0
77,0.37999868392944336,-0.4029781222343445,-34.03915023803711,-3.7752349376678467,19.289278030395508,0.05797344446182251,1.783755898475647,-0.15231649577617645,0.0,0.0,0.0,0.0,0.0,0.0,0.0,-0.368720896023022,0.048253328189746626,-0.24495208722354758,0.23936998044998103,0.006853586781028022,-0.12103019393496697,-0.15805014939669573,1.0544317031004633,0.3236355418085532,-0.39252687888398047,-2.153037040288143,0.8648040252725282,2.465882232069969,0.5444986187534281,1.0544104758940245,0.3238615046091247,-0.39250456234122666,-2.153291787532338,0.8647539153680389,2.46587817577521,0.5445020185570556,0.0006005565582552709,0.0004823385193080651,-0.00012772190104142687,-0.00027594726669686833,-3.693424352317009e-05,-9.938055143467459e-05,-0.00043208164946955736,0.0,0.0,0.0,0.0,0.0,0.0,0.0,-2.1227206438823032e-05,0.00022596280057152196,2.2316542753808566e-05,-0.00025474724419494166,-5.0109904489281654e-05,-4.056294759191559e-06,3.3998036275129095e-06,-0.0006005565582552709,-0.0004823385193080651,0.00012772190104142687,0.00027594726669686833,3.693424352317009e-05,9.938055143467459e-05,0.00043208164946955736,0.4029781222343445,34.03915023803711,3.7752349376678467,-19.289278030395508,-0.05797344446182251,-1.783755898475647,0.15231649577617645,0
78,0.3850076198577881,-0.4029781222343445,-34.03915023803711,-3.7752349376678467,19.289278030395508,0.05797344446182251,1.783755898475647,-0.15231649577617645,0.0,0.0,0.0,0.0,0.0,0.0,0.0,-0.368720896023022,0.048253328189746626,-0.24495208722354758,0.23936998044998103,0.006853586781028022,-0.12103019393496697,-0.15805014939669573,1.0544317031004633,0.3236355418085532,-0.39252687888398047,-2.153037040288143,0.8648040252725282,2.465882232069969,0.5444986187534281,1.0544104758940245,0.3238615046091247,-0.39250456234122666,-2.153291787532338,0.8647539153680389,2.46587817577521,0.5445020185570556,0.0006005565582552709,0.0004823385193080651,-0.00012772190104142687,-0.00027594726669686833,-3.693424352317009e-05,-9.938055143467459e-05,-0.00043208164946955736,0.0,0.0,0.0,0.0,0.0,0.0,0.0,-2.1227206438823032e-05,0.00022596280057152196,2.2316542753808566e-05,-0.00025474724419494166,-5.0109904489281654e-05,-4.056294759191559e-06,3.3998036275129095e-06,-0.0006005565582552709,-0.0004823385193080651,0.00012772190104142687,0.00027594726669686833,3.693424352317009e-05,9.938055143467459e-05,0.00043208164946955736,0.4029781222343445,34.03915023803711,3.7752349376678467,-19.289278030395508,-0.05797344446182251,-1.783755898475647,0.15231649577617645,0
79,0.39001035690307617,-0.3514034152030945,-34.03915023803711,-3.7990386486053467,19.289278030395508,0.05797344446182251,1.770938515663147,-0.15964071452617645,0.0,0.0,0.0,0.0,0.0,0.0,0.0,-0.3675106030134602,0.05528322880396108,-0.23704903849894599,0.23588507439731293,0.006318464511200617,-0.12232972897536364,-0.15913561304758594,1.0544264063873756,0.3236355505532042,-0.3925252174358946,-2.153037439974662,0.8648040252725282,2.465883656223615,0.5444994340090534,1.0544104758940245,0.3238615046091247,-0.39250456234122666,-2.153291787532338,0.8647539153680389,2.46587817577521,0.5445020185570556,-0.000588631091552002,0.00038972178563144406,0.000302073566944083,-0.0001490984933565557,0.0001982050580770253,0.0004732459160485619,-0.0001949591760855692,0.0,0.0,0.0,0.0,0.0,0.0,0.0,-1.5930493351135055e-05,0.00022595405592051865,2.0655094667920704e-05,-0.0002543475576759491,-5.0109904489281654e-05,-5.480448404870941e-06,2.5845480021713385e-06,0.000588631091552002,-0.00038972178563144406,-0.000302073566944083,0.0001490984933565557,-0.0001982050580770253,-0.0004732459160485619,0.0001949591760855692,0.3514034152030945,34.03915023803711,3.7990386486053467,-19.289278030395508,-0.05797344446182251,-1.770938515663147,0.15964071452617645,0
80,0.3952510356903076,-0.3514034152030945,-34.03915023803711,-3.7990386486053467,19.289278030395508,0.05797344446182251,1.770938515663147,-0.15964071452617645,0.0,0.0,0.0,0.0,0.0,0.0,0.0,-0.3675106030134602,0.05528322880396108,-0.23704903849894599,0.23588507439731293,0.006318464511200617,-0.12232972897536364,-0.15913561304758594,1.0544264063873756,0.3236355505532042,-0.3925252174358946,-2.153037439974662,0.8648040252725282,2.465883656223615,0.5444994340090534,1.0544104758940245,0.3238615046091247,-0.39250456234122666,-2.153291787532338,0.8647539153680389,2.46587817577521,0.5445020185570556,-0.000588631091552002,0.00038972178563144406,0.000302073566944083,-0.0001490984933565557,0.0001982050580770253,0.0004732459160485619,-0.0001949591760855692,0.0,0.0,0.0,0.0,0.0,0.0,0.0,-1.5930493351135055e-05,0.00022595405592051865,2.0655094667920704e-05,-0.0002543475576759491,-5.0109904489281654e-05,-5.480448404870941e-06,2.5845480021713385e-06,0.000588631091552002,-0.00038972178563144406,-0.000302073566944083,0.0001490984933565557,-0.0001982050580770253,-0.0004732459160485619,0.0001949591760855692,0.3514034152030945,34.03915023803711,3.7990386486053467,-19.289278030395508,-0.05797344446182251,-1.770938515663147,0.15964071452617645,0
