rezayati/contactInterpretation/dataset/franka_main/labeled_data/link5/c7_6.csv
index,time,tau_J0,tau_J1,tau_J2,tau_J3,tau_J4,tau_J5,tau_J6,tau_J_d0,tau_J_d1,tau_J_d2,tau_J_d3,tau_J_d4,tau_J_d5,tau_J_d6,tau_ext0,tau_ext1,tau_ext2,tau_ext3,tau_ext4,tau_ext5,tau_ext6,q0,q1,q2,q3,q4,q5,q6,q_d0,q_d1,q_d2,q_d3,q_d4,q_d5,q_d6,dq0,dq1,dq2,dq3,dq4,dq5,dq6,dq_d0,dq_d1,dq_d2,dq_d3,dq_d4,dq_d5,dq_d6,e0,e1,e2,e3,e4,e5,e6,de0,de1,de2,de3,de4,de5,de6,etau_J0,etau_J1,etau_J2,etau_J3,etau_J4,etau_J5,etau_J6,label
1,0.0,0.08103066682815552,-18.130334854125977,1.0926239490509033,17.948335647583008,0.2841086983680725,2.2488436698913574,-0.20724813640117645,0.0,0.0,0.0,0.0,0.0,0.0,0.0,0.1251252935006999,0.4942526367757629,0.3043469226566947,0.32300544267556447,-0.14113098817381295,0.06571085575836683,-0.19346893685247912,-0.6092796838358282,-0.05785626204748123,-0.6666201590989764,-2.5943648226168508,-0.055465802073478704,2.5079574496660606,0.8763191901753076,-0.6090851748156966,-0.05753196718556838,-0.666603097082616,-2.5945565370258534,-0.05562143941554,2.507976027223799,0.8763108487046415,0.0013263811531969288,-0.0005038802153771433,0.0003264521952033092,-3.2028228731198254e-05,7.632678535016584e-05,-7.494659561296177e-05,0.00047762709509297207,0.0,0.0,0.0,0.0,0.0,0.0,0.0,0.00019450902013162796,0.0003242948619128494,1.7062016360425147e-05,-0.00019171440900267456,-0.0001556373420612961,1.8577557738375106e-05,-8.341470666084483e-06,-0.0013263811531969288,0.0005038802153771433,-0.0003264521952033092,3.2028228731198254e-05,-7.632678535016584e-05,7.494659561296177e-05,-0.00047762709509297207,-0.08103066682815552,18.130334854125977,-1.0926239490509033,-17.948335647583008,-0.2841086983680725,-2.2488436698913574,0.20724813640117645,0
2,0.005001544952392578,0.08103066682815552,-18.130334854125977,1.0926239490509033,17.948335647583008,0.2841086983680725,2.2488436698913574,-0.20724813640117645,0.0,0.0,0.0,0.0,0.0,0.0,0.0,0.1251252935006999,0.4942526367757629,0.3043469226566947,0.32300544267556447,-0.14113098817381295,0.06571085575836683,-0.19346893685247912,-0.6092796838358282,-0.05785626204748123,-0.6666201590989764,-2.5943648226168508,-0.055465802073478704,2.5079574496660606,0.8763191901753076,-0.6090851748156966,-0.05753196718556838,-0.666603097082616,-2.5945565370258534,-0.05562143941554,2.507976027223799,0.8763108487046415,0.0013263811531969288,-0.0005038802153771433,0.0003264521952033092,-3.2028228731198254e-05,7.632678535016584e-05,-7.494659561296177e-05,0.00047762709509297207,0.0,0.0,0.0,0.0,0.0,0.0,0.0,0.00019450902013162796,0.0003242948619128494,1.7062016360425147e-05,-0.00019171440900267456,-0.0001556373420612961,1.8577557738375106e-05,-8.341470666084483e-06,-0.0013263811531969288,0.0005038802153771433,-0.0003264521952033092,3.2028228731198254e-05,-7.632678535016584e-05,7.494659561296177e-05,-0.00047762709509297207,-0.08103066682815552,18.130334854125977,-1.0926239490509033,-17.948335647583008,-0.2841086983680725,-2.2488436698913574,0.20724813640117645,0
3,0.009998559951782227,0.16037636995315552,-18.177942276000977,1.0926239490509033,17.948335647583008,0.2786155343055725,2.2552523612976074,-0.18710653483867645,0.0,0.0,0.0,0.0,0.0,0.0,0.0,0.12634379610214697,0.4873254094427015,0.303847386578189,0.3294926252638812,-0.14071503774265393,0.06684967997124747,-0.1972534881200021,-0.6092837161465449,-0.05785284801558657,-0.6666201590989764,-2.5943647716437535,-0.0554651917219162,2.5079567375712926,0.8763169522202676,-0.6090851748156966,-0.05753196718556838,-0.666603097082616,-2.5945565370258534,-0.05562143941554,2.507976027223799,0.8763108487046415,-0.000985069236989349,0.00024957695280591955,0.0008420095389456884,0.0006940722650142882,0.00017955324240861905,-0.0003223013303772945,-0.001104628783298632,0.0,0.0,0.0,0.0,0.0,0.0,0.0,0.00019854133084828973,0.0003208808300181887,1.7062016360425147e-05,-0.00019176538209997318,-0.00015624769362380247,1.9289652506415678e-05,-6.1035156261324275e-06,0.000985069236989349,-0.00024957695280591955,-0.0008420095389456884,-0.0006940722650142882,-0.00017955324240861905,0.0003223013303772945,0.001104628783298632,-0.16037636995315552,18.177942276000977,-1.0926239490509033,-17.948335647583008,-0.2786155343055725,-2.2552523612976074,0.18710653483867645,0
4,0.014998674392700195,0.16037636995315552,-18.177942276000977,1.0926239490509033,17.948335647583008,0.2786155343055725,2.2552523612976074,-0.18710653483867645,0.0,0.0,0.0,0.0,0.0,0.0,0.0,0.12634379610214697,0.4873254094427015,0.303847386578189,0.3294926252638812,-0.14071503774265393,0.06684967997124747,-0.1972534881200021,-0.6092837161465449,-0.05785284801558657,-0.6666201590989764,-2.5943647716437535,-0.0554651917219162,2.5079567375712926,0.8763169522202676,-0.6090851748156966,-0.05753196718556838,-0.666603097082616,-2.5945565370258534,-0.05562143941554,2.507976027223799,0.8763108487046415,-0.000985069236989349,0.00024957695280591955,0.0008420095389456884,0.0006940722650142882,0.00017955324240861905,-0.0003223013303772945,-0.001104628783298632,0.0,0.0,0.0,0.0,0.0,0.0,0.0,0.00019854133084828973,0.0003208808300181887,1.7062016360425147e-05,-0.00019176538209997318,-0.00015624769362380247,1.9289652506415678e-05,-6.1035156261324275e-06,0.000985069236989349,-0.00024957695280591955,-0.0008420095389456884,-0.0006940722650142882,-0.00017955324240861905,0.0003223013303772945,0.001104628783298632,-0.16037636995315552,18.177942276000977,-1.0926239490509033,-17.948335647583008,-0.2786155343055725,-2.2552523612976074,0.18710653483867645,0
5,0.02000284194946289,0.08103066682815552,-18.154138565063477,1.0926239490509033,17.999910354614258,0.2905173897743225,2.2552523612976074,-0.22098104655742645,0.0,0.0,0.0,0.0,0.0,0.0,0.0,0.12121452234591859,0.4917045730740888,0.2991586071118619,0.32558228353147345,-0.14066333636911008,0.06567915967136984,-0.1986481357255907,-0.6092782776992655,-0.05785460035425316,-0.6666201590989764,-2.594366401471156,-0.05546651415030161,2.5079567375712926,0.876320716054903,-0.6090851748156966,-0.05753196718556838,-0.666603097082616,-2.5945565370258534,-0.05562143941554,2.507976027223799,0.8763108487046415,0.0003074535214522809,-0.0004891259689451091,0.0005191718325252636,-0.0007290121317459626,-0.00027921493787007437,-0.00020721570140269684,0.001445726131826794,0.0,0.0,0.0,0.0,0.0,0.0,0.0,0.00019310288356888528,0.0003226331686847772,1.7062016360425147e-05,-0.00019013555469760135,-0.000154925265238387,1.9289652506415678e-05,-9.867350261538732e-06,-0.0003074535214522809,0.0004891259689451091,-0.0005191718325252636,0.0007290121317459626,0.00027921493787007437,0.00020721570140269684,-0.001445726131826794,-0.08103066682815552,18.154138565063477,-1.0926239490509033,-17.999910354614258,-0.2905173897743225,-2.2552523612976074,0.22098104655742645,0
6,0.02501845359802246,0.08103066682815552,-18.154138565063477,1.0926239490509033,17.999910354614258,0.2905173897743225,2.2552523612976074,-0.22098104655742645,0.0,0.0,0.0,0.0,0.0,0.0,0.0,0.12121452234591859,0.4917045730740888,0.2991586071118619,0.32558228353147345,-0.14066333636911008,0.06567915967136984,-0.1986481357255907,-0.6092782776992655,-0.05785460035425316,-0.6666201590989764,-2.594366401471156,-0.05546651415030161,2.5079567375712926,0.876320716054903,-0.6090851748156966,-0.05753196718556838,-0.666603097082616,-2.5945565370258534,-0.05562143941554,2.507976027223799,0.8763108487046415,0.0003074535214522809,-0.0004891259689451091,0.0005191718325252636,-0.0007290121317459626,-0.00027921493787007437,-0.00020721570140269684,0.001445726131826794,0.0,0.0,0.0,0.0,0.0,0.0,0.0,0.00019310288356888528,0.0003226331686847772,1.7062016360425147e-05,-0.00019013555469760135,-0.000154925265238387,1.9289652506415678e-05,-9.867350261538732e-06,-0.0003074535214522809,0.0004891259689451091,-0.0005191718325252636,0.0007290121317459626,0.00027921493787007437,0.00020721570140269684,-0.001445726131826794,-0.08103066682815552,18.154138565063477,-1.0926239490509033,-17.999910354614258,-0.2905173897743225,-2.2552523612976074,0.22098104655742645,0
7,0.030025005340576172,0.16037636995315552,-18.130334854125977,1.1441986560821533,17.972139358520508,0.2841086983680725,2.2360262870788574,-0.19351522624492645,0.0,0.0,0.0,0.0,0.0,0.0,0.0,0.13164007689464352,0.49299299699300636,0.3113142161145753,0.32388814626367224,-0.1412419070325815,0.06560109092299506,-0.19706824452880436,-0.6092859518146312,-0.05785627082669923,-0.6666237783766629,-2.5943665188774534,-0.0554658020734787,2.507958873801761,0.8763176642970906,-0.6090851748156966,-0.05753196718556838,-0.666603097082616,-2.5945565370258534,-0.05562143941554,2.507976027223799,0.8763108487046415,-0.0003194506448329681,-0.0012266762315298132,-0.00019151620252817148,-0.00029956256811101647,-0.0001380273162895646,0.0006152780983098088,-0.0005564317757373819,0.0,0.0,0.0,0.0,0.0,0.0,0.0,0.00020077699893461531,0.0003243036411308478,2.0681294046864807e-05,-0.0001900181484000285,-0.00015563734206130303,1.7153422037896604e-05,-6.815592449083141e-06,0.0003194506448329681,0.0012266762315298132,0.00019151620252817148,0.00029956256811101647,0.0001380273162895646,-0.0006152780983098088,0.0005564317757373819,-0.16037636995315552,18.130334854125977,-1.1441986560821533,-17.972139358520508,-0.2841086983680725,-2.2360262870788574,0.19351522624492645,0
8,0.03503084182739258,0.16037636995315552,-18.130334854125977,1.1441986560821533,17.972139358520508,0.2841086983680725,2.2360262870788574,-0.19351522624492645,0.0,0.0,0.0,0.0,0.0,0.0,0.0,0.13164007689464352,0.49299299699300636,0.3113142161145753,0.32388814626367224,-0.1412419070325815,0.06560109092299506,-0.19706824452880436,-0.6092859518146312,-0.05785627082669923,-0.6666237783766629,-2.5943665188774534,-0.0554658020734787,2.507958873801761,0.8763176642970906,-0.6090851748156966,-0.05753196718556838,-0.666603097082616,-2.5945565370258534,-0.05562143941554,2.507976027223799,0.8763108487046415,-0.0003194506448329681,-0.0012266762315298132,-0.00019151620252817148,-0.00029956256811101647,-0.0001380273162895646,0.0006152780983098088,-0.0005564317757373819,0.0,0.0,0.0,0.0,0.0,0.0,0.0,0.00020077699893461531,0.0003243036411308478,2.0681294046864807e-05,-0.0001900181484000285,-0.00015563734206130303,1.7153422037896604e-05,-6.815592449083141e-06,0.0003194506448329681,0.0012266762315298132,0.00019151620252817148,0.00029956256811101647,0.0001380273162895646,-0.0006152780983098088,0.0005564317757373819,-0.16037636995315552,18.130334854125977,-1.1441986560821533,-17.972139358520508,-0.2841086983680725,-2.2360262870788574,0.19351522624492645,0
9,0.040007591247558594,0.13260537385940552,-18.130334854125977,1.1441986560821533,17.972139358520508,0.2841086983680725,2.2488436698913574,-0.17337362468242645,0.0,0.0,0.0,0.0,0.0,0.0,0.0,0.12746684318090193,0.4947507753760864,0.30658145530792386,0.32254572514342955,-0.14108778711670317,0.06528217207333781,-0.19743413776947685,-0.6092833210899481,-0.05785627082669943,-0.6666237783766629,-2.5943665072714825,-0.05546584150330029,2.5079574496481154,0.8763154219807107,-0.6090851748156966,-0.05753196718556838,-0.666603097082616,-2.5945565370258534,-0.05562143941554,2.507976027223799,0.8763108487046415,0.00032047650877331914,-0.0007090343625621921,4.06436788621504e-05,-0.0002778097563747491,-3.4589389073825855e-05,0.00020084356763777018,-0.001089568316000987,0.0,0.0,0.0,0.0,0.0,0.0,0.0,0.00019814627425152054,0.00032430364113104904,2.0681294046864807e-05,-0.00019002975437087954,-0.00015559791223970776,1.8577575683575986e-05,-4.573276069175236e-06,-0.00032047650877331914,0.0007090343625621921,-4.06436788621504e-05,0.0002778097563747491,3.4589389073825855e-05,-0.00020084356763777018,0.001089568316000987,-0.13260537385940552,18.130334854125977,-1.1441986560821533,-17.972139358520508,-0.2841086983680725,-2.2488436698913574,0.17337362468242645,0
10,0.04500460624694824,0.13260537385940552,-18.130334854125977,1.1441986560821533,17.972139358520508,0.2841086983680725,2.2488436698913574,-0.17337362468242645,0.0,0.0,0.0,0.0,0.0,0.0,0.0,0.12746684318090193,0.4947507753760864,0.30658145530792386,0.32254572514342955,-0.14108778711670317,0.06528217207333781,-0.19743413776947685,-0.6092833210899481,-0.05785627082669943,-0.6666237783766629,-2.5943665072714825,-0.05546584150330029,2.5079574496481154,0.8763154219807107,-0.6090851748156966,-0.05753196718556838,-0.666603097082616,-2.5945565370258534,-0.05562143941554,2.507976027223799,0.8763108487046415,0.00032047650877331914,-0.0007090343625621921,4.06436788621504e-05,-0.0002778097563747491,-3.4589389073825855e-05,0.00020084356763777018,-0.001089568316000987,0.0,0.0,0.0,0.0,0.0,0.0,0.0,0.00019814627425152054,0.00032430364113104904,2.0681294046864807e-05,-0.00019002975437087954,-0.00015559791223970776,1.8577575683575986e-05,-4.573276069175236e-06,-0.00032047650877331914,0.0007090343625621921,-4.06436788621504e-05,0.0002778097563747491,3.4589389073825855e-05,-0.00020084356763777018,0.001089568316000987,-0.13260537385940552,18.130334854125977,-1.1441986560821533,-17.972139358520508,-0.2841086983680725,-2.2488436698913574,0.17337362468242645,0
11,0.0500483512878418,0.10880166292190552,-18.154138565063477,1.1164276599884033,17.972139358520508,0.2841086983680725,2.2488436698913574,-0.21457235515117645,0.0,0.0,0.0,0.0,0.0,0.0,0.0,0.12455929970751531,0.48981380519257134,0.3042364948345865,0.3269321993917345,-0.1403581601525334,0.06669874264218449,-0.19559671368969764,-0.6092822053606833,-0.05785460039084417,-0.6666218295348317,-2.594364423970527,-0.055465802073701276,2.5079574496481154,0.8763198862404856,-0.6090851748156966,-0.05753196718556838,-0.666603097082616,-2.5945565370258534,-0.05562143941554,2.507976027223799,0.8763108487046415,0.0004976871671763199,-0.0003148591103633735,0.0002755094698905307,-0.00043426977952039955,0.00010448312895639952,4.8070673922771225e-05,0.0012971566191189192,0.0,0.0,0.0,0.0,0.0,0.0,0.0,0.00019703054498676487,0.0003226332052757852,1.873245221573061e-05,-0.00019211305532662593,-0.00015563734183872413,1.8577575683575986e-05,-9.037535844136357e-06,-0.0004976871671763199,0.0003148591103633735,-0.0002755094698905307,0.00043426977952039955,-0.00010448312895639952,-4.8070673922771225e-05,-0.0012971566191189192,-0.10880166292190552,18.154138565063477,-1.1164276599884033,-17.972139358520508,-0.2841086983680725,-2.2488436698913574,0.21457235515117645,0
12,0.05500388145446777,0.10880166292190552,-18.154138565063477,1.1164276599884033,17.972139358520508,0.2841086983680725,2.2488436698913574,-0.21457235515117645,0.0,0.0,0.0,0.0,0.0,0.0,0.0,0.12455929970751531,0.48981380519257134,0.3042364948345865,0.3269321993917345,-0.1403581601525334,0.06669874264218449,-0.19559671368969764,-0.6092822053606833,-0.05785460039084417,-0.6666218295348317,-2.594364423970527,-0.055465802073701276,2.5079574496481154,0.8763198862404856,-0.6090851748156966,-0.05753196718556838,-0.666603097082616,-2.5945565370258534,-0.05562143941554,2.507976027223799,0.8763108487046415,0.0004976871671763199,-0.0003148591103633735,0.0002755094698905307,-0.00043426977952039955,0.00010448312895639952,4.8070673922771225e-05,0.0012971566191189192,0.0,0.0,0.0,0.0,0.0,0.0,0.0,0.00019703054498676487,0.0003226332052757852,1.873245221573061e-05,-0.00019211305532662593,-0.00015563734183872413,1.8577575683575986e-05,-9.037535844136357e-06,-0.0004976871671763199,0.0003148591103633735,-0.0002755094698905307,0.00043426977952039955,-0.00010448312895639952,-4.8070673922771225e-05,-0.0012971566191189192,-0.10880166292190552,18.154138565063477,-1.1164276599884033,-17.972139358520508,-0.2841086983680725,-2.2488436698913574,0.21457235515117645,0
13,0.05999565124511719,0.13260537385940552,-18.177942276000977,1.1164276599884033,17.900728225708008,0.2905173897743225,2.2488436698913574,-0.21457235515117645,0.0,0.0,0.0,0.0,0.0,0.0,0.0,0.12908531111668156,0.491577640425396,0.30781936743331223,0.3238063584995284,-0.1405281734510632,0.06591053836784784,-0.19324521343712112,-0.6092840751359168,-0.05785008548888546,-0.6666218295348317,-2.5943612777015215,-0.05546651415030161,2.5079574496481154,0.8763200039774155,-0.6090851748156966,-0.05753196718556838,-0.666603097082616,-2.5945565370258534,-0.05562143941554,2.507976027223799,0.8763108487046415,-0.00013554653006141558,0.00018539314422758827,0.00013279898071590069,0.001104642845022496,-0.0003526446274717079,-0.00011098273717363452,0.0009196017130750834,0.0,0.0,0.0,0.0,0.0,0.0,0.0,0.00019890032022018556,0.00031811830331707897,1.873245221573061e-05,-0.00019525932433195337,-0.000154925265238387,1.8577575683575986e-05,-9.155272774008516e-06,0.00013554653006141558,-0.00018539314422758827,-0.00013279898071590069,-0.001104642845022496,0.0003526446274717079,0.00011098273717363452,-0.0009196017130750834,-0.13260537385940552,18.177942276000977,-1.1164276599884033,-17.900728225708008,-0.2905173897743225,-2.2488436698913574,0.21457235515117645,0
14,0.0650017261505127,0.13260537385940552,-18.177942276000977,1.1164276599884033,17.900728225708008,0.2905173897743225,2.2488436698913574,-0.21457235515117645,0.0,0.0,0.0,0.0,0.0,0.0,0.0,0.12908531111668156,0.491577640425396,0.30781936743331223,0.3238063584995284,-0.1405281734510632,0.06591053836784784,-0.19324521343712112,-0.6092840751359168,-0.05785008548888546,-0.6666218295348317,-2.5943612777015215,-0.05546651415030161,2.5079574496481154,0.8763200039774155,-0.6090851748156966,-0.05753196718556838,-0.666603097082616,-2.5945565370258534,-0.05562143941554,2.507976027223799,0.8763108487046415,-0.00013554653006141558,0.00018539314422758827,0.00013279898071590069,0.001104642845022496,-0.0003526446274717079,-0.00011098273717363452,0.0009196017130750834,0.0,0.0,0.0,0.0,0.0,0.0,0.0,0.00019890032022018556,0.00031811830331707897,1.873245221573061e-05,-0.00019525932433195337,-0.000154925265238387,1.8577575683575986e-05,-9.155272774008516e-06,0.00013554653006141558,-0.00018539314422758827,-0.00013279898071590069,-0.001104642845022496,0.0003526446274717079,0.00011098273717363452,-0.0009196017130750834,-0.13260537385940552,18.177942276000977,-1.1164276599884033,-17.900728225708008,-0.2905173897743225,-2.2488436698913574,0.21457235515117645,0
15,0.06999897956848145,0.10880166292190552,-18.229516983032227,1.0926239490509033,17.972139358520508,0.2841086983680725,2.2488436698913574,-0.18710653483867645,0.0,0.0,0.0,0.0,0.0,0.0,0.0,0.12784664490197759,0.4863555004591744,0.30504615220604936,0.3290795794490941,-0.14023483791735142,0.06604703018307331,-0.1947003669233951,-0.6092793167191526,-0.057849310661245414,-0.6666201590989764,-2.59436583005305,-0.05546580256026661,2.5079574496481154,0.8763169522202676,-0.6090851748156966,-0.05753196718556838,-0.666603097082616,-2.5945565370258534,-0.05562143941554,2.507976027223799,0.8763108487046415,0.00018372574902400415,0.0013808742503970757,0.0007358087165352241,-5.9753647177603554e-06,-0.00013309649193583799,1.6732048660491362e-05,-0.0005003675365815969,0.0,0.0,0.0,0.0,0.0,0.0,0.0,0.00019414190345601323,0.0003173434756770302,1.7062016360425147e-05,-0.00019070697280332283,-0.0001556368552733875,1.8577575683575986e-05,-6.1035156261324275e-06,-0.00018372574902400415,-0.0013808742503970757,-0.0007358087165352241,5.9753647177603554e-06,0.00013309649193583799,-1.6732048660491362e-05,0.0005003675365815969,-0.10880166292190552,18.229516983032227,-1.0926239490509033,-17.972139358520508,-0.2841086983680725,-2.2488436698913574,0.18710653483867645,0
16,0.07500123977661133,0.10880166292190552,-18.229516983032227,1.0926239490509033,17.972139358520508,0.2841086983680725,2.2488436698913574,-0.18710653483867645,0.0,0.0,0.0,0.0,0.0,0.0,0.0,0.12784664490197759,0.4863555004591744,0.30504615220604936,0.3290795794490941,-0.14023483791735142,0.06604703018307331,-0.1947003669233951,-0.6092793167191526,-0.057849310661245414,-0.6666201590989764,-2.59436583005305,-0.05546580256026661,2.5079574496481154,0.8763169522202676,-0.6090851748156966,-0.05753196718556838,-0.666603097082616,-2.5945565370258534,-0.05562143941554,2.507976027223799,0.8763108487046415,0.00018372574902400415,0.0013808742503970757,0.0007358087165352241,-5.9753647177603554e-06,-0.00013309649193583799,1.6732048660491362e-05,-0.0005003675365815969,0.0,0.0,0.0,0.0,0.0,0.0,0.0,0.00019414190345601323,0.0003173434756770302,1.7062016360425147e-05,-0.00019070697280332283,-0.0001556368552733875,1.8577575683575986e-05,-6.1035156261324275e-06,-0.00018372574902400415,-0.0013808742503970757,-0.0007358087165352241,5.9753647177603554e-06,0.00013309649193583799,-1.6732048660491362e-05,0.0005003675365815969,-0.10880166292190552,18.229516983032227,-1.0926239490509033,-17.972139358520508,-0.2841086983680725,-2.2488436698913574,0.18710653483867645,0
17,0.07999777793884277,0.18418008089065552,-18.177942276000977,1.1164276599884033,17.924531936645508,0.2905173897743225,2.2488436698913574,-0.21457235515117645,0.0,0.0,0.0,0.0,0.0,0.0,0.0,0.12926603058419797,0.4907691688739898,0.3071666904439257,0.3205949023265803,-0.14123561979491434,0.06456053262782166,-0.19416965805554695,-0.6092869924940335,-0.0578528509420415,-0.6666218295348317,-2.594363152503712,-0.05546652750992841,2.5079574496481154,0.876316825063692,-0.6090851748156966,-0.05753196718556838,-0.666603097082616,-2.5945565370258534,-0.05562143941554,2.507976027223799,0.8763108487046415,-0.0016424792465737944,4.6170656692875805e-05,0.0003545641941313761,0.0006124092924862538,-0.0003430020174929767,5.745685901768975e-05,0.0007591544920727774,0.0,0.0,0.0,0.0,0.0,0.0,0.0,0.0002018176783369352,0.0003208837564731143,1.873245221573061e-05,-0.00019338452214157087,-0.0001549119056115933,1.8577575683575986e-05,-5.976359050530178e-06,0.0016424792465737944,-4.6170656692875805e-05,-0.0003545641941313761,-0.0006124092924862538,0.0003430020174929767,-5.745685901768975e-05,-0.0007591544920727774,-0.18418008089065552,18.177942276000977,-1.1164276599884033,-17.924531936645508,-0.2905173897743225,-2.2488436698913574,0.21457235515117645,0
18,0.08500003814697266,0.18418008089065552,-18.177942276000977,1.1164276599884033,17.924531936645508,0.2905173897743225,2.2488436698913574,-0.21457235515117645,0.0,0.0,0.0,0.0,0.0,0.0,0.0,0.12926603058419797,0.4907691688739898,0.3071666904439257,0.3205949023265803,-0.14123561979491434,0.06456053262782166,-0.19416965805554695,-0.6092869924940335,-0.0578528509420415,-0.6666218295348317,-2.594363152503712,-0.05546652750992841,2.5079574496481154,0.876316825063692,-0.6090851748156966,-0.05753196718556838,-0.666603097082616,-2.5945565370258534,-0.05562143941554,2.507976027223799,0.8763108487046415,-0.0016424792465737944,4.6170656692875805e-05,0.0003545641941313761,0.0006124092924862538,-0.0003430020174929767,5.745685901768975e-05,0.0007591544920727774,0.0,0.0,0.0,0.0,0.0,0.0,0.0,0.0002018176783369352,0.0003208837564731143,1.873245221573061e-05,-0.00019338452214157087,-0.0001549119056115933,1.8577575683575986e-05,-5.976359050530178e-06,0.0016424792465737944,-4.6170656692875805e-05,-0.0003545641941313761,-0.0006124092924862538,0.0003430020174929767,-5.745685901768975e-05,-0.0007591544920727774,-0.18418008089065552,18.177942276000977,-1.1164276599884033,-17.924531936645508,-0.2905173897743225,-2.2488436698913574,0.21457235515117645,0
19,0.09000015258789062,0.13260537385940552,-18.154138565063477,1.0926239490509033,17.948335647583008,0.2841086983680725,2.2488436698913574,-0.21457235515117645,0.0,0.0,0.0,0.0,0.0,0.0,0.0,0.12585979993770352,0.4862390259675475,0.3049581193456611,0.321866385397863,-0.14137977353186554,0.06516855153047203,-0.19491304567507833,-0.6092810410777596,-0.05785460039039814,-0.6666201590989764,-2.59436484554871,-0.05546580207355411,2.5079574496481154,0.8763196507474252,-0.6090851748156966,-0.05753196718556838,-0.666603097082616,-2.5945565370258534,-0.05562143941554,2.507976027223799,0.8763108487046415,-0.00036392881558514224,-0.0008328485074058253,0.0005919252248978294,-1.1552930724133943e-05,-4.69003844415031e-05,-2.653299314459708e-05,0.00033938556286424815,0.0,0.0,0.0,0.0,0.0,0.0,0.0,0.00019586626206302693,0.00032263320482976005,1.7062016360425147e-05,-0.00019169147714359625,-0.00015563734198589113,1.8577575683575986e-05,-8.802042783750963e-06,0.00036392881558514224,0.0008328485074058253,-0.0005919252248978294,1.1552930724133943e-05,4.69003844415031e-05,2.653299314459708e-05,-0.00033938556286424815,-0.13260537385940552,18.154138565063477,-1.0926239490509033,-17.948335647583008,-0.2841086983680725,-2.2488436698913574,0.21457235515117645,0
20,0.09499835968017578,0.13260537385940552,-18.154138565063477,1.0926239490509033,17.948335647583008,0.2841086983680725,2.2488436698913574,-0.21457235515117645,0.0,0.0,0.0,0.0,0.0,0.0,0.0,0.12585979993770352,0.4862390259675475,0.3049581193456611,0.321866385397863,-0.14137977353186554,0.06516855153047203,-0.19491304567507833,-0.6092810410777596,-0.05785460039039814,-0.6666201590989764,-2.59436484554871,-0.05546580207355411,2.5079574496481154,0.8763196507474252,-0.6090851748156966,-0.05753196718556838,-0.666603097082616,-2.5945565370258534,-0.05562143941554,2.507976027223799,0.8763108487046415,-0.00036392881558514224,-0.0008328485074058253,0.0005919252248978294,-1.1552930724133943e-05,-4.69003844415031e-05,-2.653299314459708e-05,0.00033938556286424815,0.0,0.0,0.0,0.0,0.0,0.0,0.0,0.00019586626206302693,0.00032263320482976005,1.7062016360425147e-05,-0.00019169147714359625,-0.00015563734198589113,1.8577575683575986e-05,-8.802042783750963e-06,0.00036392881558514224,0.0008328485074058253,-0.0005919252248978294,1.1552930724133943e-05,4.69003844415031e-05,2.653299314459708e-05,-0.00033938556286424815,-0.13260537385940552,18.154138565063477,-1.0926239490509033,-17.948335647583008,-0.2841086983680725,-2.2488436698913574,0.21457235515117645,0
21,0.09999752044677734,0.13260537385940552,-18.154138565063477,1.0926239490509033,17.948335647583008,0.2841086983680725,2.2488436698913574,-0.21457235515117645,0.0,0.0,0.0,0.0,0.0,0.0,0.0,0.12585979993770352,0.4862390259675475,0.3049581193456611,0.321866385397863,-0.14137977353186554,0.06516855153047203,-0.19491304567507833,-0.6092810410777596,-0.05785460039039814,-0.6666201590989764,-2.59436484554871,-0.05546580207355411,2.5079574496481154,0.8763196507474252,-0.6090851748156966,-0.05753196718556838,-0.666603097082616,-2.5945565370258534,-0.05562143941554,2.507976027223799,0.8763108487046415,-0.00036392881558514224,-0.0008328485074058253,0.0005919252248978294,-1.1552930724133943e-05,-4.69003844415031e-05,-2.653299314459708e-05,0.00033938556286424815,0.0,0.0,0.0,0.0,0.0,0.0,0.0,0.00019586626206302693,0.00032263320482976005,1.7062016360425147e-05,-0.00019169147714359625,-0.00015563734198589113,1.8577575683575986e-05,-8.802042783750963e-06,0.00036392881558514224,0.0008328485074058253,-0.0005919252248978294,1.1552930724133943e-05,4.69003844415031e-05,2.653299314459708e-05,-0.00033938556286424815,-0.13260537385940552,18.154138565063477,-1.0926239490509033,-17.948335647583008,-0.2841086983680725,-2.2488436698913574,0.21457235515117645,0
22,0.10675835609436035,0.13260537385940552,-18.154138565063477,1.0926239490509033,17.948335647583008,0.2841086983680725,2.2488436698913574,-0.21457235515117645,0.0,0.0,0.0,0.0,0.0,0.0,0.0,0.12585979993770352,0.4862390259675475,0.3049581193456611,0.321866385397863,-0.14137977353186554,0.06516855153047203,-0.19491304567507833,-0.6092810410777596,-0.05785460039039814,-0.6666201590989764,-2.59436484554871,-0.05546580207355411,2.5079574496481154,0.8763196507474252,-0.6090851748156966,-0.05753196718556838,-0.666603097082616,-2.5945565370258534,-0.05562143941554,2.507976027223799,0.8763108487046415,-0.00036392881558514224,-0.0008328485074058253,0.0005919252248978294,-1.1552930724133943e-05,-4.69003844415031e-05,-2.653299314459708e-05,0.00033938556286424815,0.0,0.0,0.0,0.0,0.0,0.0,0.0,0.00019586626206302693,0.00032263320482976005,1.7062016360425147e-05,-0.00019169147714359625,-0.00015563734198589113,1.8577575683575986e-05,-8.802042783750963e-06,0.00036392881558514224,0.0008328485074058253,-0.0005919252248978294,1.1552930724133943e-05,4.69003844415031e-05,2.653299314459708e-05,-0.00033938556286424815,-0.13260537385940552,18.154138565063477,-1.0926239490509033,-17.948335647583008,-0.2841086983680725,-2.2488436698913574,0.21457235515117645,0
23,0.1100153923034668,0.16037636995315552,-18.205713272094727,1.0926239490509033,17.948335647583008,0.2841086983680725,2.2488436698913574,-0.20083944499492645,0.0,0.0,0.0,0.0,0.0,0.0,0.0,0.1283503988665343,0.4840929125404046,0.30547085481015573,0.3275406809613673,-0.1414637377039485,0.06571068685404716,-0.19889509574322728,-0.6092857460893716,-0.05785098111315777,-0.6666201590989764,-2.594364746449012,-0.055468995889027914,2.5079574496481154,0.8763184780971799,-0.6090851748156966,-0.05753196718556838,-0.666603097082616,-2.5945565370258534,-0.05562143941554,2.507976027223799,0.8763108487046415,-0.00019202419892799867,0.0009621402456888909,0.0005354165247137324,0.0007391328658052239,0.00010946361482217248,1.9807802852517217e-05,-3.3932116884293476e-05,0.0,0.0,0.0,0.0,0.0,0.0,0.0,0.00020057127367500982,0.0003190139275893872,1.7062016360425147e-05,-0.00019179057684137746,-0.00015244352651208604,1.8577575683575986e-05,-7.629392538399671e-06,0.00019202419892799867,-0.0009621402456888909,-0.0005354165247137324,-0.0007391328658052239,-0.00010946361482217248,-1.9807802852517217e-05,3.3932116884293476e-05,-0.16037636995315552,18.205713272094727,-1.0926239490509033,-17.948335647583008,-0.2841086983680725,-2.2488436698913574,0.20083944499492645,0
24,0.11499929428100586,0.16037636995315552,-18.205713272094727,1.0926239490509033,17.948335647583008,0.2841086983680725,2.2488436698913574,-0.20083944499492645,0.0,0.0,0.0,0.0,0.0,0.0,0.0,0.1283503988665343,0.4840929125404046,0.30547085481015573,0.3275406809613673,-0.1414637377039485,0.06571068685404716,-0.19889509574322728,-0.6092857460893716,-0.05785098111315777,-0.6666201590989764,-2.594364746449012,-0.055468995889027914,2.5079574496481154,0.8763184780971799,-0.6090851748156966,-0.05753196718556838,-0.666603097082616,-2.5945565370258534,-0.05562143941554,2.507976027223799,0.8763108487046415,-0.00019202419892799867,0.0009621402456888909,0.0005354165247137324,0.0007391328658052239,0.00010946361482217248,1.9807802852517217e-05,-3.3932116884293476e-05,0.0,0.0,0.0,0.0,0.0,0.0,0.0,0.00020057127367500982,0.0003190139275893872,1.7062016360425147e-05,-0.00019179057684137746,-0.00015244352651208604,1.8577575683575986e-05,-7.629392538399671e-06,0.00019202419892799867,-0.0009621402456888909,-0.0005354165247137324,-0.0007391328658052239,-0.00010946361482217248,-1.9807802852517217e-05,3.3932116884293476e-05,-0.16037636995315552,18.205713272094727,-1.0926239490509033,-17.948335647583008,-0.2841086983680725,-2.2488436698913574,0.20083944499492645,0
25,0.12000465393066406,0.08103066682815552,-18.154138565063477,1.1164276599884033,18.023714065551758,0.2841086983680725,2.2424349784851074,-0.22098104655742645,0.0,0.0,0.0,0.0,0.0,0.0,0.0,0.12521469637727892,0.49038678693647814,0.2986980193041475,0.32355716590741207,-0.1408094685813091,0.06478611793001791,-0.19887466504977333,-0.609278138293049,-0.05785452137789685,-0.6666218295348317,-2.5943679944326408,-0.05546580355187164,2.5079581617249382,0.876320716054903,-0.6090851748156966,-0.05753196718556838,-0.666603097082616,-2.5945565370258534,-0.05562143941554,2.507976027223799,0.8763108487046415,0.0006163043614218664,0.00011622944829935458,0.0003063878796301602,-0.0015505783123037902,-4.191289888112241e-05,0.0002137712494192222,0.0006262769353520436,0.0,0.0,0.0,0.0,0.0,0.0,0.0,0.0001929634773524258,0.0003225541923284683,1.873245221573061e-05,-0.00018854259321265943,-0.00015563586366836024,1.7865498860736295e-05,-9.867350261538732e-06,-0.0006163043614218664,-0.00011622944829935458,-0.0003063878796301602,0.0015505783123037902,4.191289888112241e-05,-0.0002137712494192222,-0.0006262769353520436,-0.08103066682815552,18.154138565063477,-1.1164276599884033,-18.023714065551758,-0.2841086983680725,-2.2424349784851074,0.22098104655742645,0
26,0.1249997615814209,0.08103066682815552,-18.154138565063477,1.1164276599884033,18.023714065551758,0.2841086983680725,2.2424349784851074,-0.22098104655742645,0.0,0.0,0.0,0.0,0.0,0.0,0.0,0.12521469637727892,0.49038678693647814,0.2986980193041475,0.32355716590741207,-0.1408094685813091,0.06478611793001791,-0.19887466504977333,-0.609278138293049,-0.05785452137789685,-0.6666218295348317,-2.5943679944326408,-0.05546580355187164,2.5079581617249382,0.876320716054903,-0.6090851748156966,-0.05753196718556838,-0.666603097082616,-2.5945565370258534,-0.05562143941554,2.507976027223799,0.8763108487046415,0.0006163043614218664,0.00011622944829935458,0.0003063878796301602,-0.0015505783123037902,-4.191289888112241e-05,0.0002137712494192222,0.0006262769353520436,0.0,0.0,0.0,0.0,0.0,0.0,0.0,0.0001929634773524258,0.0003225541923284683,1.873245221573061e-05,-0.00018854259321265943,-0.00015563586366836024,1.7865498860736295e-05,-9.867350261538732e-06,-0.0006163043614218664,-0.00011622944829935458,-0.0003063878796301602,0.0015505783123037902,4.191289888112241e-05,-0.0002137712494192222,-0.0006262769353520436,-0.08103066682815552,18.154138565063477,-1.1164276599884033,-18.023714065551758,-0.2841086983680725,-2.2424349784851074,0.22098104655742645,0
27,0.13010454177856445,0.13260537385940552,-18.177942276000977,1.1164276599884033,17.999910354614258,0.2841086983680725,2.2488436698913574,-0.16604940593242645,0.0,0.0,0.0,0.0,0.0,0.0,0.0,0.12763226862310523,0.4939933782688159,0.3065467905715067,0.3226215640216395,-0.14112776995581727,0.06431821074981273,-0.19969458249995375,-0.6092812978716201,-0.057852929953650815,-0.6666218295348317,-2.594368439385407,-0.05546580207350373,2.5079574496481154,0.876314612539278,-0.6090851748156966,-0.05753196718556838,-0.666603097082616,-2.5945565370258534,-0.05562143941554,2.507976027223799,0.8763108487046415,-0.00029339999244829625,0.0007087025530557247,0.0006317490757449665,-0.0013128544718170939,7.392750684519605e-05,4.73489437846653e-05,-0.0016999615791188168,0.0,0.0,0.0,0.0,0.0,0.0,0.0,0.00019612305592353607,0.000320962768082432,1.873245221573061e-05,-0.00018809764044647181,-0.0001556373420362675,1.8577575683575986e-05,-3.7638346365165276e-06,0.00029339999244829625,-0.0007087025530557247,-0.0006317490757449665,0.0013128544718170939,-7.392750684519605e-05,-4.73489437846653e-05,0.0016999615791188168,-0.13260537385940552,18.177942276000977,-1.1164276599884033,-17.999910354614258,-0.2841086983680725,-2.2488436698913574,0.16604940593242645,0
28,0.13500308990478516,0.13260537385940552,-18.177942276000977,1.1164276599884033,17.999910354614258,0.2841086983680725,2.2488436698913574,-0.16604940593242645,0.0,0.0,0.0,0.0,0.0,0.0,0.0,0.12763226862310523,0.4939933782688159,0.3065467905715067,0.3226215640216395,-0.14112776995581727,0.06431821074981273,-0.19969458249995375,-0.6092812978716201,-0.057852929953650815,-0.6666218295348317,-2.594368439385407,-0.05546580207350373,2.5079574496481154,0.876314612539278,-0.6090851748156966,-0.05753196718556838,-0.666603097082616,-2.5945565370258534,-0.05562143941554,2.507976027223799,0.8763108487046415,-0.00029339999244829625,0.0007087025530557247,0.0006317490757449665,-0.0013128544718170939,7.392750684519605e-05,4.73489437846653e-05,-0.0016999615791188168,0.0,0.0,0.0,0.0,0.0,0.0,0.0,0.00019612305592353607,0.000320962768082432,1.873245221573061e-05,-0.00018809764044647181,-0.0001556373420362675,1.8577575683575986e-05,-3.7638346365165276e-06,0.00029339999244829625,-0.0007087025530557247,-0.0006317490757449665,0.0013128544718170939,-7.392750684519605e-05,-4.73489437846653e-05,0.0016999615791188168,-0.13260537385940552,18.177942276000977,-1.1164276599884033,-17.999910354614258,-0.2841086983680725,-2.2488436698913574,0.16604940593242645,0
29,0.13995862007141113,0.10880166292190552,-18.177942276000977,1.1164276599884033,17.972139358520508,0.2841086983680725,2.2689852714538574,-0.17978231608867645,0.0,0.0,0.0,0.0,0.0,0.0,0.0,0.12258286916134295,0.48607788461998674,0.30815588158857443,0.3287620487570667,-0.14044746235489186,0.06465285531835849,-0.20135662136294608,-0.6092817248937472,-0.05785079660541132,-0.6666218295348317,-2.5943655211021897,-0.05546617446623821,2.507955211692386,0.8763157852054745,-0.6090851748156966,-0.05753196718556838,-0.666603097082616,-2.5945565370258534,-0.05562143941554,2.507976027223799,0.8763108487046415,0.00021458939616163795,-0.0003132791272812965,0.0006338970588403998,1.1022147783030243e-05,0.00013471847547677057,-0.0007219791450366153,-0.0008884216812225076,0.0,0.0,0.0,0.0,0.0,0.0,0.0,0.00019655007805063907,0.00031882941984293783,1.873245221573061e-05,-0.00019101592366377318,-0.00015526494930179213,2.0815531412754495e-05,-4.936500832997126e-06,-0.00021458939616163795,0.0003132791272812965,-0.0006338970588403998,-1.1022147783030243e-05,-0.00013471847547677057,0.0007219791450366153,0.0008884216812225076,-0.10880166292190552,18.177942276000977,-1.1164276599884033,-17.972139358520508,-0.2841086983680725,-2.2689852714538574,0.17978231608867645,0
30,0.14499950408935547,0.10880166292190552,-18.177942276000977,1.1164276599884033,17.972139358520508,0.2841086983680725,2.2689852714538574,-0.17978231608867645,0.0,0.0,0.0,0.0,0.0,0.0,0.0,0.12258286916134295,0.48607788461998674,0.30815588158857443,0.3287620487570667,-0.14044746235489186,0.06465285531835849,-0.20135662136294608,-0.6092817248937472,-0.05785079660541132,-0.6666218295348317,-2.5943655211021897,-0.05546617446623821,2.507955211692386,0.8763157852054745,-0.6090851748156966,-0.05753196718556838,-0.666603097082616,-2.5945565370258534,-0.05562143941554,2.507976027223799,0.8763108487046415,0.00021458939616163795,-0.0003132791272812965,0.0006338970588403998,1.1022147783030243e-05,0.00013471847547677057,-0.0007219791450366153,-0.0008884216812225076,0.0,0.0,0.0,0.0,0.0,0.0,0.0,0.00019655007805063907,0.00031882941984293783,1.873245221573061e-05,-0.00019101592366377318,-0.00015526494930179213,2.0815531412754495e-05,-4.936500832997126e-06,-0.00021458939616163795,0.0003132791272812965,-0.0006338970588403998,-1.1022147783030243e-05,-0.00013471847547677057,0.0007219791450366153,0.0008884216812225076,-0.10880166292190552,18.177942276000977,-1.1164276599884033,-17.972139358520508,-0.2841086983680725,-2.2689852714538574,0.17978231608867645,0
31,0.1500251293182373,0.10880166292190552,-18.177942276000977,1.1680023670196533,17.948335647583008,0.2786155343055725,2.2552523612976074,-0.22098104655742645,0.0,0.0,0.0,0.0,0.0,0.0,0.0,0.12343798526728227,0.4878742822240534,0.310530709972053,0.32446722883291584,-0.1399240492479985,0.06415306083028263,-0.20035393366194368,-0.6092800724739608,-0.05785292994294609,-0.6666254488125181,-2.5943646188943617,-0.05546519172401836,2.5079567375712926,0.8763207116922584,-0.6090851748156966,-0.05753196718556838,-0.666603097082616,-2.5945565370258534,-0.05562143941554,2.507976027223799,0.8763108487046415,0.0003641208791596142,-7.247091197649499e-05,-0.0006104430593419794,0.00035443744564862817,0.00028852060266047514,-0.0002767636387580747,0.0011826525297256778,0.0,0.0,0.0,0.0,0.0,0.0,0.0,0.00019489765826419259,0.00032096275737770324,2.2351729902059247e-05,-0.00019191813149177506,-0.0001562476915216368,1.9289652506415678e-05,-9.862987616959806e-06,-0.0003641208791596142,7.247091197649499e-05,0.0006104430593419794,-0.00035443744564862817,-0.00028852060266047514,0.0002767636387580747,-0.0011826525297256778,-0.10880166292190552,18.177942276000977,-1.1680023670196533,-17.948335647583008,-0.2786155343055725,-2.2552523612976074,0.22098104655742645,0
32,0.1550309658050537,0.10880166292190552,-18.177942276000977,1.1680023670196533,17.948335647583008,0.2786155343055725,2.2552523612976074,-0.22098104655742645,0.0,0.0,0.0,0.0,0.0,0.0,0.0,0.12343798526728227,0.4878742822240534,0.310530709972053,0.32446722883291584,-0.1399240492479985,0.06415306083028263,-0.20035393366194368,-0.6092800724739608,-0.05785292994294609,-0.6666254488125181,-2.5943646188943617,-0.05546519172401836,2.5079567375712926,0.8763207116922584,-0.6090851748156966,-0.05753196718556838,-0.666603097082616,-2.5945565370258534,-0.05562143941554,2.507976027223799,0.8763108487046415,0.0003641208791596142,-7.247091197649499e-05,-0.0006104430593419794,0.00035443744564862817,0.00028852060266047514,-0.0002767636387580747,0.0011826525297256778,0.0,0.0,0.0,0.0,0.0,0.0,0.0,0.00019489765826419259,0.00032096275737770324,2.2351729902059247e-05,-0.00019191813149177506,-0.0001562476915216368,1.9289652506415678e-05,-9.862987616959806e-06,-0.0003641208791596142,7.247091197649499e-05,0.0006104430593419794,-0.00035443744564862817,-0.00028852060266047514,0.0002767636387580747,-0.0011826525297256778,-0.10880166292190552,18.177942276000977,-1.1680023670196533,-17.948335647583008,-0.2786155343055725,-2.2552523612976074,0.22098104655742645,0
33,0.16002655029296875,0.10880166292190552,-18.130334854125977,1.1680023670196533,17.948335647583008,0.2786155343055725,2.2424349784851074,-0.19351522624492645,0.0,0.0,0.0,0.0,0.0,0.0,0.0,0.12270652580578988,0.48766171734872993,0.3093131715091096,0.31858129643616173,-0.13975290612981986,0.06361717826510023,-0.19975494239160319,-0.6092803208859814,-0.05785626204748286,-0.6666254491335105,-2.5943648453350088,-0.055465196589795436,2.5079581617249382,0.8763176642970167,-0.6090851748156966,-0.05753196718556838,-0.666603097082616,-2.5945565370258534,-0.05562143941554,2.507976027223799,0.8763108487046415,0.0005471855258338564,-0.0010644697014017927,-0.001025542680043246,-0.00044916461152799084,6.780192746859514e-05,0.00017176442783580273,-0.000574642944858798,0.0,0.0,0.0,0.0,0.0,0.0,0.0,0.0001951460702848129,0.00032429486191448004,2.2352050894514086e-05,-0.0001916916908446531,-0.00015624282574456388,1.7865498860736295e-05,-6.81559237525331e-06,-0.0005471855258338564,0.0010644697014017927,0.001025542680043246,0.00044916461152799084,-6.780192746859514e-05,-0.00017176442783580273,0.000574642944858798,-0.10880166292190552,18.130334854125977,-1.1680023670196533,-17.948335647583008,-0.2786155343055725,-2.2424349784851074,0.19351522624492645,0
34,0.16504740715026855,0.10880166292190552,-18.130334854125977,1.1680023670196533,17.948335647583008,0.2786155343055725,2.2424349784851074,-0.19351522624492645,0.0,0.0,0.0,0.0,0.0,0.0,0.0,0.12270652580578988,0.48766171734872993,0.3093131715091096,0.31858129643616173,-0.13975290612981986,0.06361717826510023,-0.19975494239160319,-0.6092803208859814,-0.05785626204748286,-0.6666254491335105,-2.5943648453350088,-0.055465196589795436,2.5079581617249382,0.8763176642970167,-0.6090851748156966,-0.05753196718556838,-0.666603097082616,-2.5945565370258534,-0.05562143941554,2.507976027223799,0.8763108487046415,0.0005471855258338564,-0.0010644697014017927,-0.001025542680043246,-0.00044916461152799084,6.780192746859514e-05,0.00017176442783580273,-0.000574642944858798,0.0,0.0,0.0,0.0,0.0,0.0,0.0,0.0001951460702848129,0.00032429486191448004,2.2352050894514086e-05,-0.0001916916908446531,-0.00015624282574456388,1.7865498860736295e-05,-6.81559237525331e-06,-0.0005471855258338564,0.0010644697014017927,0.001025542680043246,0.00044916461152799084,-6.780192746859514e-05,-0.00017176442783580273,0.000574642944858798,-0.10880166292190552,18.130334854125977,-1.1680023670196533,-17.948335647583008,-0.2786155343055725,-2.2424349784851074,0.19351522624492645,0
35,0.17002391815185547,0.13260537385940552,-18.130334854125977,1.1680023670196533,17.999910354614258,0.2722068428993225,2.2488436698913574,-0.17978231608867645,0.0,0.0,0.0,0.0,0.0,0.0,0.0,0.12013615493473018,0.4894601074287866,0.30588906294020773,0.3202774465748815,-0.13957055463195256,0.06380908192817752,-0.2009155329120198,-0.609281687972619,-0.05785624448903381,-0.6666254488125187,-2.594368442256129,-0.05546447966313162,2.5079574496481154,0.8763161384181842,-0.6090851748156966,-0.05753196718556838,-0.666603097082616,-2.5945565370258534,-0.05562143941554,2.507976027223799,0.8763108487046415,-0.0006972801522504014,-0.00015309095204415354,-0.0012203797586942092,-0.001439037913368353,0.00039916735351945803,-0.0002213819666103794,-0.00042775218882002737,0.0,0.0,0.0,0.0,0.0,0.0,0.0,0.00019651315692237326,0.0003242773034654242,2.235172990272538e-05,-0.00018809476972458938,-0.00015695975240837684,1.8577575683575986e-05,-5.289713542744323e-06,0.0006972801522504014,0.00015309095204415354,0.0012203797586942092,0.001439037913368353,-0.00039916735351945803,0.0002213819666103794,0.00042775218882002737,-0.13260537385940552,18.130334854125977,-1.1680023670196533,-17.999910354614258,-0.2722068428993225,-2.2488436698913574,0.17978231608867645,0
36,0.17502117156982422,0.13260537385940552,-18.130334854125977,1.1680023670196533,17.999910354614258,0.2722068428993225,2.2488436698913574,-0.17978231608867645,0.0,0.0,0.0,0.0,0.0,0.0,0.0,0.12013615493473018,0.4894601074287866,0.30588906294020773,0.3202774465748815,-0.13957055463195256,0.06380908192817752,-0.2009155329120198,-0.609281687972619,-0.05785624448903381,-0.6666254488125187,-2.594368442256129,-0.05546447966313162,2.5079574496481154,0.8763161384181842,-0.6090851748156966,-0.05753196718556838,-0.666603097082616,-2.5945565370258534,-0.05562143941554,2.507976027223799,0.8763108487046415,-0.0006972801522504014,-0.00015309095204415354,-0.0012203797586942092,-0.001439037913368353,0.00039916735351945803,-0.0002213819666103794,-0.00042775218882002737,0.0,0.0,0.0,0.0,0.0,0.0,0.0,0.00019651315692237326,0.0003242773034654242,2.235172990272538e-05,-0.00018809476972458938,-0.00015695975240837684,1.8577575683575986e-05,-5.289713542744323e-06,0.0006972801522504014,0.00015309095204415354,0.0012203797586942092,0.001439037913368353,-0.00039916735351945803,0.0002213819666103794,0.00042775218882002737,-0.13260537385940552,18.130334854125977,-1.1680023670196533,-17.999910354614258,-0.2722068428993225,-2.2488436698913574,0.17978231608867645,0
37,0.18003225326538086,0.08103066682815552,-18.154138565063477,1.1441986560821533,17.924531936645508,0.2905173897743225,2.2552523612976074,-0.19351522624492645,0.0,0.0,0.0,0.0,0.0,0.0,0.0,0.08703161787352183,0.48384338463699217,0.27338505024747367,0.32504896017461876,-0.1384177854773715,0.06409021831237524,-0.19897165001633813,-0.609279784971877,-0.057854600390695496,-0.666623778376663,-2.594361111757904,-0.05546663292655442,2.5079567375712926,0.8763176642970906,-0.6090851748156966,-0.05753196718556838,-0.666603097082616,-2.5945565370258534,-0.05562143941554,2.507976027223799,0.8763108487046415,0.0006004016408001791,-0.0005991246594462484,0.002445170128949763,0.0006752707912482815,-0.00020114878616636454,-0.00026913405622586357,5.9747711817402624e-05,0.0,0.0,0.0,0.0,0.0,0.0,0.0,0.0001946101561803859,0.00032263320512711247,2.068129404697583e-05,-0.00019542526794946724,-0.00015480648898558158,1.9289652506415678e-05,-6.815592449083141e-06,-0.0006004016408001791,0.0005991246594462484,-0.002445170128949763,-0.0006752707912482815,0.00020114878616636454,0.00026913405622586357,-5.9747711817402624e-05,-0.08103066682815552,18.154138565063477,-1.1441986560821533,-17.924531936645508,-0.2905173897743225,-2.2552523612976074,0.19351522624492645,0
38,0.18654417991638184,0.08103066682815552,-18.154138565063477,1.1441986560821533,17.924531936645508,0.2905173897743225,2.2552523612976074,-0.19351522624492645,0.0,0.0,0.0,0.0,0.0,0.0,0.0,0.08703161787352183,0.48384338463699217,0.27338505024747367,0.32504896017461876,-0.1384177854773715,0.06409021831237524,-0.19897165001633813,-0.609279784971877,-0.057854600390695496,-0.666623778376663,-2.594361111757904,-0.05546663292655442,2.5079567375712926,0.8763176642970906,-0.6090851748156966,-0.05753196718556838,-0.666603097082616,-2.5945565370258534,-0.05562143941554,2.507976027223799,0.8763108487046415,0.0006004016408001791,-0.0005991246594462484,0.002445170128949763,0.0006752707912482815,-0.00020114878616636454,-0.00026913405622586357,5.9747711817402624e-05,0.0,0.0,0.0,0.0,0.0,0.0,0.0,0.0001946101561803859,0.00032263320512711247,2.068129404697583e-05,-0.00019542526794946724,-0.00015480648898558158,1.9289652506415678e-05,-6.815592449083141e-06,-0.0006004016408001791,0.0005991246594462484,-0.002445170128949763,-0.0006752707912482815,0.00020114878616636454,0.00026913405622586357,-5.9747711817402624e-05,-0.08103066682815552,18.154138565063477,-1.1441986560821533,-17.924531936645508,-0.2905173897743225,-2.2552523612976074,0.19351522624492645,0
39,0.19000601768493652,0.10880166292190552,-18.205713272094727,1.1164276599884033,17.972139358520508,0.2905173897743225,2.2424349784851074,-0.23471395671367645,0.0,0.0,0.0,0.0,0.0,0.0,0.0,0.1039847127117363,0.4892054899988362,0.2933230433827259,0.3255988792494043,-0.1393521720522973,0.06421606435069521,-0.1974117741143225,-0.6092821007889796,-0.05785098111315777,-0.6666218295348318,-2.594365803693048,-0.055466514150972104,2.5079581617249382,0.8763222419338093,-0.6090851748156966,-0.05753196718556838,-0.666603097082616,-2.5945565370258534,-0.05562143941554,2.507976027223799,0.8763108487046415,-9.302904403167318e-06,0.0008787495423863713,0.00021881508172772043,-9.399578267170526e-05,-0.00026981950158129015,0.00032479568949819607,0.001464134607163589,0.0,0.0,0.0,0.0,0.0,0.0,0.0,0.0001969259732830242,0.0003190139275893872,1.8732452215841633e-05,-0.00019073333280550386,-0.00015492526456789557,1.7865498860736295e-05,-1.1393229167766528e-05,9.302904403167318e-06,-0.0008787495423863713,-0.00021881508172772043,9.399578267170526e-05,0.00026981950158129015,-0.00032479568949819607,-0.001464134607163589,-0.10880166292190552,18.205713272094727,-1.1164276599884033,-17.972139358520508,-0.2905173897743225,-2.2424349784851074,0.23471395671367645,0
40,0.1949608325958252,0.10880166292190552,-18.205713272094727,1.1164276599884033,17.972139358520508,0.2905173897743225,2.2424349784851074,-0.23471395671367645,0.0,0.0,0.0,0.0,0.0,0.0,0.0,0.1039847127117363,0.4892054899988362,0.2933230433827259,0.3255988792494043,-0.1393521720522973,0.06421606435069521,-0.1974117741143225,-0.6092821007889796,-0.05785098111315777,-0.6666218295348318,-2.594365803693048,-0.055466514150972104,2.5079581617249382,0.8763222419338093,-0.6090851748156966,-0.05753196718556838,-0.666603097082616,-2.5945565370258534,-0.05562143941554,2.507976027223799,0.8763108487046415,-9.302904403167318e-06,0.0008787495423863713,0.00021881508172772043,-9.399578267170526e-05,-0.00026981950158129015,0.00032479568949819607,0.001464134607163589,0.0,0.0,0.0,0.0,0.0,0.0,0.0,0.0001969259732830242,0.0003190139275893872,1.8732452215841633e-05,-0.00019073333280550386,-0.00015492526456789557,1.7865498860736295e-05,-1.1393229167766528e-05,9.302904403167318e-06,-0.0008787495423863713,-0.00021881508172772043,9.399578267170526e-05,0.00026981950158129015,-0.00032479568949819607,-0.001464134607163589,-0.10880166292190552,18.205713272094727,-1.1164276599884033,-17.972139358520508,-0.2905173897743225,-2.2424349784851074,0.23471395671367645,0
41,0.1999506950378418,0.10880166292190552,-18.130334854125977,1.1680023670196533,17.972139358520508,0.2786155343055725,2.2552523612976074,-0.22098104655742645,0.0,0.0,0.0,0.0,0.0,0.0,0.0,0.16700417939934475,0.4936348085369524,0.3554826024635487,0.32566803107511144,-0.14229161454847744,0.06484041178731825,-0.19911763726966775,-0.609279602400625,-0.05785413747712185,-0.6666254488125182,-2.594366289226833,-0.055468385537465414,2.5079567375712926,0.8763196564167737,-0.6090851748156966,-0.05753196718556838,-0.666603097082616,-2.5945565370258534,-0.05562143941554,2.507976027223799,0.8763108487046415,0.00044108734806592797,-0.0015121476680109865,-0.0015453233085951782,-8.743570466253113e-06,0.00013403373644035188,-0.00010058251816047894,0.0006822161909697654,0.0,0.0,0.0,0.0,0.0,0.0,0.0,0.00019442758492838053,0.0003221702915534655,2.235172990217027e-05,-0.00019024779902032662,-0.00015305387807458548,1.9289652506415678e-05,-8.807712132186118e-06,-0.00044108734806592797,0.0015121476680109865,0.0015453233085951782,8.743570466253113e-06,-0.00013403373644035188,0.00010058251816047894,-0.0006822161909697654,-0.10880166292190552,18.130334854125977,-1.1680023670196533,-17.972139358520508,-0.2786155343055725,-2.2552523612976074,0.22098104655742645,0
42,0.20499825477600098,0.10880166292190552,-18.130334854125977,1.1680023670196533,17.972139358520508,0.2786155343055725,2.2552523612976074,-0.22098104655742645,0.0,0.0,0.0,0.0,0.0,0.0,0.0,0.16700417939934475,0.4936348085369524,0.3554826024635487,0.32566803107511144,-0.14229161454847744,0.06484041178731825,-0.19911763726966775,-0.609279602400625,-0.05785413747712185,-0.6666254488125182,-2.594366289226833,-0.055468385537465414,2.5079567375712926,0.8763196564167737,-0.6090851748156966,-0.05753196718556838,-0.666603097082616,-2.5945565370258534,-0.05562143941554,2.507976027223799,0.8763108487046415,0.00044108734806592797,-0.0015121476680109865,-0.0015453233085951782,-8.743570466253113e-06,0.00013403373644035188,-0.00010058251816047894,0.0006822161909697654,0.0,0.0,0.0,0.0,0.0,0.0,0.0,0.00019442758492838053,0.0003221702915534655,2.235172990217027e-05,-0.00019024779902032662,-0.00015305387807458548,1.9289652506415678e-05,-8.807712132186118e-06,-0.00044108734806592797,0.0015121476680109865,0.0015453233085951782,8.743570466253113e-06,-0.00013403373644035188,0.00010058251816047894,-0.0006822161909697654,-0.10880166292190552,18.130334854125977,-1.1680023670196533,-17.972139358520508,-0.2786155343055725,-2.2552523612976074,0.22098104655742645,0
43,0.21000003814697266,0.08103066682815552,-18.205713272094727,1.0926239490509033,17.972139358520508,0.2722068428993225,2.2552523612976074,-0.16604940593242645,0.0,0.0,0.0,0.0,0.0,0.0,0.0,0.12882972023260414,0.4881761982657476,0.31326027609852786,0.3258114155564323,-0.14073994160236328,0.0649644565217102,-0.20035587234141664,-0.6092803772004118,-0.05785095476346585,-0.66662015811783,-2.594365827323607,-0.05546447966312246,2.5079567375712926,0.8763145979977939,-0.6090851748156966,-0.05753196718556838,-0.666603097082616,-2.5945565370258534,-0.05562143941554,2.507976027223799,0.8763108487046415,0.001568298046160179,0.0005374361924978446,0.0011017671936631923,-0.0002062240071382087,0.0002111352898360345,-0.0001016230416294151,-0.0007443602378662929,0.0,0.0,0.0,0.0,0.0,0.0,0.0,0.00019520238471526508,0.00031898757789746573,1.706103521403879e-05,-0.00019070970224621675,-0.00015695975241754312,1.9289652506415678e-05,-3.7492931523885886e-06,-0.001568298046160179,-0.0005374361924978446,-0.0011017671936631923,0.0002062240071382087,-0.0002111352898360345,0.0001016230416294151,0.0007443602378662929,-0.08103066682815552,18.205713272094727,-1.0926239490509033,-17.972139358520508,-0.2722068428993225,-2.2552523612976074,0.16604940593242645,0
44,0.21517252922058105,0.08103066682815552,-18.205713272094727,1.0926239490509033,17.972139358520508,0.2722068428993225,2.2552523612976074,-0.16604940593242645,0.0,0.0,0.0,0.0,0.0,0.0,0.0,0.12882972023260414,0.4881761982657476,0.31326027609852786,0.3258114155564323,-0.14073994160236328,0.0649644565217102,-0.20035587234141664,-0.6092803772004118,-0.05785095476346585,-0.66662015811783,-2.594365827323607,-0.05546447966312246,2.5079567375712926,0.8763145979977939,-0.6090851748156966,-0.05753196718556838,-0.666603097082616,-2.5945565370258534,-0.05562143941554,2.507976027223799,0.8763108487046415,0.001568298046160179,0.0005374361924978446,0.0011017671936631923,-0.0002062240071382087,0.0002111352898360345,-0.0001016230416294151,-0.0007443602378662929,0.0,0.0,0.0,0.0,0.0,0.0,0.0,0.00019520238471526508,0.00031898757789746573,1.706103521403879e-05,-0.00019070970224621675,-0.00015695975241754312,1.9289652506415678e-05,-3.7492931523885886e-06,-0.001568298046160179,-0.0005374361924978446,-0.0011017671936631923,0.0002062240071382087,-0.0002111352898360345,0.0001016230416294151,0.0007443602378662929,-0.08103066682815552,18.205713272094727,-1.0926239490509033,-17.972139358520508,-0.2722068428993225,-2.2552523612976074,0.16604940593242645,0
45,0.2199993133544922,0.16037636995315552,-18.154138565063477,1.1164276599884033,17.972139358520508,0.2841086983680725,2.2488436698913574,-0.19351522624492645,0.0,0.0,0.0,0.0,0.0,0.0,0.0,0.12183433929304414,0.4885257517940271,0.301593453921966,0.32508758727997344,-0.14065295076474346,0.06511558833742707,-0.19931175450229188,-0.6092831428529918,-0.05785460038950547,-0.666621829534782,-2.594366484560962,-0.05546698496812747,2.5079574496481154,0.8763176642963518,-0.6090851748156966,-0.05753196718556838,-0.666603097082616,-2.5945565370258534,-0.05562143941554,2.507976027223799,0.8763108487046415,-0.0007201926184288394,-0.00017023787528657535,0.0002346396460928173,-0.00021023313754305875,-9.213478132778457e-05,2.9192531974414783e-05,0.00033235271201586614,0.0,0.0,0.0,0.0,0.0,0.0,0.0,0.00019796803729521528,0.0003226332039370852,1.873245216599262e-05,-0.00019005246489145478,-0.00015445444741252895,1.8577575683575986e-05,-6.81559171034074e-06,0.0007201926184288394,0.00017023787528657535,-0.0002346396460928173,0.00021023313754305875,9.213478132778457e-05,-2.9192531974414783e-05,-0.00033235271201586614,-0.16037636995315552,18.154138565063477,-1.1164276599884033,-17.972139358520508,-0.2841086983680725,-2.2488436698913574,0.19351522624492645,0
46,0.22499895095825195,0.16037636995315552,-18.154138565063477,1.1164276599884033,17.972139358520508,0.2841086983680725,2.2488436698913574,-0.19351522624492645,0.0,0.0,0.0,0.0,0.0,0.0,0.0,0.12183433929304414,0.4885257517940271,0.301593453921966,0.32508758727997344,-0.14065295076474346,0.06511558833742707,-0.19931175450229188,-0.6092831428529918,-0.05785460038950547,-0.666621829534782,-2.594366484560962,-0.05546698496812747,2.5079574496481154,0.8763176642963518,-0.6090851748156966,-0.05753196718556838,-0.666603097082616,-2.5945565370258534,-0.05562143941554,2.507976027223799,0.8763108487046415,-0.0007201926184288394,-0.00017023787528657535,0.0002346396460928173,-0.00021023313754305875,-9.213478132778457e-05,2.9192531974414783e-05,0.00033235271201586614,0.0,0.0,0.0,0.0,0.0,0.0,0.0,0.00019796803729521528,0.0003226332039370852,1.873245216599262e-05,-0.00019005246489145478,-0.00015445444741252895,1.8577575683575986e-05,-6.81559171034074e-06,0.0007201926184288394,0.00017023787528657535,-0.0002346396460928173,0.00021023313754305875,9.213478132778457e-05,-2.9192531974414783e-05,-0.00033235271201586614,-0.16037636995315552,18.154138565063477,-1.1164276599884033,-17.972139358520508,-0.2841086983680725,-2.2488436698913574,0.19351522624492645,0
47,0.22499895095825195,0.16037636995315552,-18.154138565063477,1.1164276599884033,17.972139358520508,0.2841086983680725,2.2488436698913574,-0.19351522624492645,0.0,0.0,0.0,0.0,0.0,0.0,0.0,0.12183433929304414,0.4885257517940271,0.301593453921966,0.32508758727997344,-0.14065295076474346,0.06511558833742707,-0.19931175450229188,-0.6092831428529918,-0.05785460038950547,-0.666621829534782,-2.594366484560962,-0.05546698496812747,2.5079574496481154,0.8763176642963518,-0.6090851748156966,-0.05753196718556838,-0.666603097082616,-2.5945565370258534,-0.05562143941554,2.507976027223799,0.8763108487046415,-0.0007201926184288394,-0.00017023787528657535,0.0002346396460928173,-0.00021023313754305875,-9.213478132778457e-05,2.9192531974414783e-05,0.00033235271201586614,0.0,0.0,0.0,0.0,0.0,0.0,0.0,0.00019796803729521528,0.0003226332039370852,1.873245216599262e-05,-0.00019005246489145478,-0.00015445444741252895,1.8577575683575986e-05,-6.81559171034074e-06,0.0007201926184288394,0.00017023787528657535,-0.0002346396460928173,0.00021023313754305875,9.213478132778457e-05,-2.9192531974414783e-05,-0.00033235271201586614,-0.16037636995315552,18.154138565063477,-1.1164276599884033,-17.972139358520508,-0.2841086983680725,-2.2488436698913574,0.19351522624492645,0
48,0.23501014709472656,0.16037636995315552,-18.154138565063477,1.1164276599884033,17.972139358520508,0.2841086983680725,2.2488436698913574,-0.19351522624492645,0.0,0.0,0.0,0.0,0.0,0.0,0.0,0.12183433929304414,0.4885257517940271,0.301593453921966,0.32508758727997344,-0.14065295076474346,0.06511558833742707,-0.19931175450229188,-0.6092831428529918,-0.05785460038950547,-0.666621829534782,-2.594366484560962,-0.05546698496812747,2.5079574496481154,0.8763176642963518,-0.6090851748156966,-0.05753196718556838,-0.666603097082616,-2.5945565370258534,-0.05562143941554,2.507976027223799,0.8763108487046415,-0.0007201926184288394,-0.00017023787528657535,0.0002346396460928173,-0.00021023313754305875,-9.213478132778457e-05,2.9192531974414783e-05,0.00033235271201586614,0.0,0.0,0.0,0.0,0.0,0.0,0.0,0.00019796803729521528,0.0003226332039370852,1.873245216599262e-05,-0.00019005246489145478,-0.00015445444741252895,1.8577575683575986e-05,-6.81559171034074e-06,0.0007201926184288394,0.00017023787528657535,-0.0002346396460928173,0.00021023313754305875,9.213478132778457e-05,-2.9192531974414783e-05,-0.00033235271201586614,-0.16037636995315552,18.154138565063477,-1.1164276599884033,-17.972139358520508,-0.2841086983680725,-2.2488436698913574,0.19351522624492645,0
49,0.24010586738586426,0.16037636995315552,-18.154138565063477,1.1164276599884033,17.972139358520508,0.2841086983680725,2.2488436698913574,-0.19351522624492645,0.0,0.0,0.0,0.0,0.0,0.0,0.0,0.12183433929304414,0.4885257517940271,0.301593453921966,0.32508758727997344,-0.14065295076474346,0.06511558833742707,-0.19931175450229188,-0.6092831428529918,-0.05785460038950547,-0.666621829534782,-2.594366484560962,-0.05546698496812747,2.5079574496481154,0.8763176642963518,-0.6090851748156966,-0.05753196718556838,-0.666603097082616,-2.5945565370258534,-0.05562143941554,2.507976027223799,0.8763108487046415,-0.0007201926184288394,-0.00017023787528657535,0.0002346396460928173,-0.00021023313754305875,-9.213478132778457e-05,2.9192531974414783e-05,0.00033235271201586614,0.0,0.0,0.0,0.0,0.0,0.0,0.0,0.00019796803729521528,0.0003226332039370852,1.873245216599262e-05,-0.00019005246489145478,-0.00015445444741252895,1.8577575683575986e-05,-6.81559171034074e-06,0.0007201926184288394,0.00017023787528657535,-0.0002346396460928173,0.00021023313754305875,9.213478132778457e-05,-2.9192531974414783e-05,-0.00033235271201586614,-0.16037636995315552,18.154138565063477,-1.1164276599884033,-17.972139358520508,-0.2841086983680725,-2.2488436698913574,0.19351522624492645,0
50,0.24503016471862793,0.16037636995315552,-18.154138565063477,1.1164276599884033,17.972139358520508,0.2841086983680725,2.2488436698913574,-0.19351522624492645,0.0,0.0,0.0,0.0,0.0,0.0,0.0,0.12183433929304414,0.4885257517940271,0.301593453921966,0.32508758727997344,-0.14065295076474346,0.06511558833742707,-0.19931175450229188,-0.6092831428529918,-0.05785460038950547,-0.666621829534782,-2.594366484560962,-0.05546698496812747,2.5079574496481154,0.8763176642963518,-0.6090851748156966,-0.05753196718556838,-0.666603097082616,-2.5945565370258534,-0.05562143941554,2.507976027223799,0.8763108487046415,-0.0007201926184288394,-0.00017023787528657535,0.0002346396460928173,-0.00021023313754305875,-9.213478132778457e-05,2.9192531974414783e-05,0.00033235271201586614,0.0,0.0,0.0,0.0,0.0,0.0,0.0,0.00019796803729521528,0.0003226332039370852,1.873245216599262e-05,-0.00019005246489145478,-0.00015445444741252895,1.8577575683575986e-05,-6.81559171034074e-06,0.0007201926184288394,0.00017023787528657535,-0.0002346396460928173,0.00021023313754305875,9.213478132778457e-05,-2.9192531974414783e-05,-0.00033235271201586614,-0.16037636995315552,18.154138565063477,-1.1164276599884033,-17.972139358520508,-0.2841086983680725,-2.2488436698913574,0.19351522624492645,0
51,0.2500185966491699,0.16037636995315552,-18.154138565063477,1.1164276599884033,17.972139358520508,0.2841086983680725,2.2488436698913574,-0.19351522624492645,0.0,0.0,0.0,0.0,0.0,0.0,0.0,0.12183433929304414,0.4885257517940271,0.301593453921966,0.32508758727997344,-0.14065295076474346,0.06511558833742707,-0.19931175450229188,-0.6092831428529918,-0.05785460038950547,-0.666621829534782,-2.594366484560962,-0.05546698496812747,2.5079574496481154,0.8763176642963518,-0.6090851748156966,-0.05753196718556838,-0.666603097082616,-2.5945565370258534,-0.05562143941554,2.507976027223799,0.8763108487046415,-0.0007201926184288394,-0.00017023787528657535,0.0002346396460928173,-0.00021023313754305875,-9.213478132778457e-05,2.9192531974414783e-05,0.00033235271201586614,0.0,0.0,0.0,0.0,0.0,0.0,0.0,0.00019796803729521528,0.0003226332039370852,1.873245216599262e-05,-0.00019005246489145478,-0.00015445444741252895,1.8577575683575986e-05,-6.81559171034074e-06,0.0007201926184288394,0.00017023787528657535,-0.0002346396460928173,0.00021023313754305875,9.213478132778457e-05,-2.9192531974414783e-05,-0.00033235271201586614,-0.16037636995315552,18.154138565063477,-1.1164276599884033,-17.972139358520508,-0.2841086983680725,-2.2488436698913574,0.19351522624492645,0
52,0.2550210952758789,0.10880166292190552,-18.154138565063477,1.1164276599884033,17.924531936645508,0.2786155343055725,2.2488436698913574,-0.19351522624492645,0.0,0.0,0.0,0.0,0.0,0.0,0.0,0.12607379250440767,0.48885955670451836,0.30271502163438213,0.3260636524925021,-0.14115487110909708,0.06575693481763785,-0.19851917617925982,-0.6092795523628054,-0.05785460035471571,-0.6666218295348317,-2.594362460943365,-0.05546519172391954,2.5079574496481154,0.8763166046589612,-0.6090851748156966,-0.05753196718556838,-0.666603097082616,-2.5945565370258534,-0.05562143941554,2.507976027223799,0.8763108487046415,0.00020911708319539722,-0.00019513900447566335,0.0001270858769534978,0.0008027388148175935,0.0002675606875090699,0.00023327901898423175,-0.0006008733271260507,0.0,0.0,0.0,0.0,0.0,0.0,0.0,0.00019437754710882604,0.00032263316914732387,1.873245221573061e-05,-0.00019407608248833697,-0.00015624769162046054,1.8577575683575986e-05,-5.755954319730527e-06,-0.00020911708319539722,0.00019513900447566335,-0.0001270858769534978,-0.0008027388148175935,-0.0002675606875090699,-0.00023327901898423175,0.0006008733271260507,-0.10880166292190552,18.154138565063477,-1.1164276599884033,-17.924531936645508,-0.2786155343055725,-2.2488436698913574,0.19351522624492645,0
53,0.2601487636566162,0.10880166292190552,-18.154138565063477,1.1164276599884033,17.924531936645508,0.2786155343055725,2.2488436698913574,-0.19351522624492645,0.0,0.0,0.0,0.0,0.0,0.0,0.0,0.12607379250440767,0.48885955670451836,0.30271502163438213,0.3260636524925021,-0.14115487110909708,0.06575693481763785,-0.19851917617925982,-0.6092795523628054,-0.05785460035471571,-0.6666218295348317,-2.594362460943365,-0.05546519172391954,2.5079574496481154,0.8763166046589612,-0.6090851748156966,-0.05753196718556838,-0.666603097082616,-2.5945565370258534,-0.05562143941554,2.507976027223799,0.8763108487046415,0.00020911708319539722,-0.00019513900447566335,0.0001270858769534978,0.0008027388148175935,0.0002675606875090699,0.00023327901898423175,-0.0006008733271260507,0.0,0.0,0.0,0.0,0.0,0.0,0.0,0.00019437754710882604,0.00032263316914732387,1.873245221573061e-05,-0.00019407608248833697,-0.00015624769162046054,1.8577575683575986e-05,-5.755954319730527e-06,-0.00020911708319539722,0.00019513900447566335,-0.0001270858769534978,-0.0008027388148175935,-0.0002675606875090699,-0.00023327901898423175,0.0006008733271260507,-0.10880166292190552,18.154138565063477,-1.1164276599884033,-17.924531936645508,-0.2786155343055725,-2.2488436698913574,0.19351522624492645,0
54,0.2650163173675537,0.16037636995315552,-18.177942276000977,1.1164276599884033,17.972139358520508,0.2905173897743225,2.2552523612976074,-0.16604940593242645,0.0,0.0,0.0,0.0,0.0,0.0,0.0,0.12691796441904327,0.495362611515412,0.30553481998775617,0.32253595343821234,-0.14118942632031375,0.0659409872340176,-0.19903213254443658,-0.6092839413644309,-0.057852929954988704,-0.6666218295348317,-2.594364418297699,-0.055466527455838126,2.5079567375712926,0.8763146081726456,-0.6090851748156966,-0.05753196718556838,-0.666603097082616,-2.5945565370258534,-0.05562143941554,2.507976027223799,0.8763108487046415,-0.0006111168888686212,0.0005077471170877392,4.1790415930334036e-05,-0.00014562996346264244,-0.00038020699228461023,-0.0003602837676028212,-0.0012619912321802068,0.0,0.0,0.0,0.0,0.0,0.0,0.0,0.0001987665487342971,0.00032096276942032015,1.873245221573061e-05,-0.00019211872815461106,-0.00015491195970187416,1.9289652506415678e-05,-3.7594680041275197e-06,0.0006111168888686212,-0.0005077471170877392,-4.1790415930334036e-05,0.00014562996346264244,0.00038020699228461023,0.0003602837676028212,0.0012619912321802068,-0.16037636995315552,18.177942276000977,-1.1164276599884033,-17.972139358520508,-0.2905173897743225,-2.2552523612976074,0.16604940593242645,0
55,0.2700173854827881,0.16037636995315552,-18.177942276000977,1.1164276599884033,17.972139358520508,0.2905173897743225,2.2552523612976074,-0.16604940593242645,0.0,0.0,0.0,0.0,0.0,0.0,0.0,0.12691796441904327,0.495362611515412,0.30553481998775617,0.32253595343821234,-0.14118942632031375,0.0659409872340176,-0.19903213254443658,-0.6092839413644309,-0.057852929954988704,-0.6666218295348317,-2.594364418297699,-0.055466527455838126,2.5079567375712926,0.8763146081726456,-0.6090851748156966,-0.05753196718556838,-0.666603097082616,-2.5945565370258534,-0.05562143941554,2.507976027223799,0.8763108487046415,-0.0006111168888686212,0.0005077471170877392,4.1790415930334036e-05,-0.00014562996346264244,-0.00038020699228461023,-0.0003602837676028212,-0.0012619912321802068,0.0,0.0,0.0,0.0,0.0,0.0,0.0,0.0001987665487342971,0.00032096276942032015,1.873245221573061e-05,-0.00019211872815461106,-0.00015491195970187416,1.9289652506415678e-05,-3.7594680041275197e-06,0.0006111168888686212,-0.0005077471170877392,-4.1790415930334036e-05,0.00014562996346264244,0.00038020699228461023,0.0003602837676028212,0.0012619912321802068,-0.16037636995315552,18.177942276000977,-1.1164276599884033,-17.972139358520508,-0.2905173897743225,-2.2552523612976074,0.16604940593242645,0
56,0.27503013610839844,0.10880166292190552,-18.177942276000977,1.1441986560821533,17.972139358520508,0.2905173897743225,2.2296175956726074,-0.19351522624492645,0.0,0.0,0.0,0.0,0.0,0.0,0.0,0.12164154170432843,0.49155886300657864,0.30176033534589936,0.32125274837889095,-0.14083552185054757,0.06604042083608995,-0.19566140845600224,-0.6092793591853833,-0.057852929954988905,-0.6666237783766629,-2.5943661844153483,-0.05546793362395415,2.507959585878584,0.8763144718162089,-0.6090851748156966,-0.05753196718556838,-0.666603097082616,-2.5945565370258534,-0.05562143941554,2.507976027223799,0.8763108487046415,5.323439343626032e-05,-0.0002776373470090873,-0.0001433820309172289,-0.00041717327880109035,-0.00023666673683050502,0.0006227606636157721,-1.0214181211818836e-05,0.0,0.0,0.0,0.0,0.0,0.0,0.0,0.00019418436968676733,0.0003209627694205214,2.0681294046864807e-05,-0.00019035261050515118,-0.00015350579158585065,1.6441345215056913e-05,-3.623111567430115e-06,-5.323439343626032e-05,0.0002776373470090873,0.0001433820309172289,0.00041717327880109035,0.00023666673683050502,-0.0006227606636157721,1.0214181211818836e-05,-0.10880166292190552,18.177942276000977,-1.1441986560821533,-17.972139358520508,-0.2905173897743225,-2.2296175956726074,0.19351522624492645,0
57,0.28000712394714355,0.10880166292190552,-18.177942276000977,1.1441986560821533,17.972139358520508,0.2905173897743225,2.2296175956726074,-0.19351522624492645,0.0,0.0,0.0,0.0,0.0,0.0,0.0,0.12164154170432843,0.49155886300657864,0.30176033534589936,0.32125274837889095,-0.14083552185054757,0.06604042083608995,-0.19566140845600224,-0.6092793591853833,-0.057852929954988905,-0.6666237783766629,-2.5943661844153483,-0.05546793362395415,2.507959585878584,0.8763144718162089,-0.6090851748156966,-0.05753196718556838,-0.666603097082616,-2.5945565370258534,-0.05562143941554,2.507976027223799,0.8763108487046415,5.323439343626032e-05,-0.0002776373470090873,-0.0001433820309172289,-0.00041717327880109035,-0.00023666673683050502,0.0006227606636157721,-1.0214181211818836e-05,0.0,0.0,0.0,0.0,0.0,0.0,0.0,0.00019418436968676733,0.0003209627694205214,2.0681294046864807e-05,-0.00019035261050515118,-0.00015350579158585065,1.6441345215056913e-05,-3.623111567430115e-06,-5.323439343626032e-05,0.0002776373470090873,0.0001433820309172289,0.00041717327880109035,0.00023666673683050502,-0.0006227606636157721,1.0214181211818836e-05,-0.10880166292190552,18.177942276000977,-1.1441986560821533,-17.972139358520508,-0.2905173897743225,-2.2296175956726074,0.19351522624492645,0
58,0.285001277923584,0.08103066682815552,-18.154138565063477,1.1441986560821533,17.972139358520508,0.2905173897743225,2.2488436698913574,-0.23471395671367645,0.0,0.0,0.0,0.0,0.0,0.0,0.0,0.11972384197202679,0.495079392059565,0.3026028598799055,0.3192426592416739,-0.14049376537838942,0.06530699144481163,-0.19360986002936104,-0.6092774363384966,-0.05785460035471571,-0.6666237783766629,-2.5943656002542412,-0.055466632447779364,2.5079574496481154,0.8763222419157877,-0.6090851748156966,-0.05753196718556838,-0.666603097082616,-2.5945565370258534,-0.05562143941554,2.507976027223799,0.8763108487046415,0.0007129366219143651,-0.000369580323523481,-0.0005431448263963831,-0.0002947566829625167,-0.000344073061903848,-0.00013025313098889566,0.0016738480882791027,0.0,0.0,0.0,0.0,0.0,0.0,0.0,0.00019226152280005238,0.00032263316914732387,2.0681294046864807e-05,-0.00019093677161219347,-0.0001548069677606359,1.8577575683575986e-05,-1.1393211146182303e-05,-0.0007129366219143651,0.000369580323523481,0.0005431448263963831,0.0002947566829625167,0.000344073061903848,0.00013025313098889566,-0.0016738480882791027,-0.08103066682815552,18.154138565063477,-1.1441986560821533,-17.972139358520508,-0.2905173897743225,-2.2488436698913574,0.23471395671367645,0
59,0.2899971008300781,0.08103066682815552,-18.154138565063477,1.1441986560821533,17.972139358520508,0.2905173897743225,2.2488436698913574,-0.23471395671367645,0.0,0.0,0.0,0.0,0.0,0.0,0.0,0.11972384197202679,0.495079392059565,0.3026028598799055,0.3192426592416739,-0.14049376537838942,0.06530699144481163,-0.19360986002936104,-0.6092774363384966,-0.05785460035471571,-0.6666237783766629,-2.5943656002542412,-0.055466632447779364,2.5079574496481154,0.8763222419157877,-0.6090851748156966,-0.05753196718556838,-0.666603097082616,-2.5945565370258534,-0.05562143941554,2.507976027223799,0.8763108487046415,0.0007129366219143651,-0.000369580323523481,-0.0005431448263963831,-0.0002947566829625167,-0.000344073061903848,-0.00013025313098889566,0.0016738480882791027,0.0,0.0,0.0,0.0,0.0,0.0,0.0,0.00019226152280005238,0.00032263316914732387,2.0681294046864807e-05,-0.00019093677161219347,-0.0001548069677606359,1.8577575683575986e-05,-1.1393211146182303e-05,-0.0007129366219143651,0.000369580323523481,0.0005431448263963831,0.0002947566829625167,0.000344073061903848,0.00013025313098889566,-0.0016738480882791027,-0.08103066682815552,18.154138565063477,-1.1441986560821533,-17.972139358520508,-0.2905173897743225,-2.2488436698913574,0.23471395671367645,0
60,0.2949998378753662,0.08103066682815552,-18.154138565063477,1.1680023670196533,17.999910354614258,0.2841086983680725,2.2552523612976074,-0.19351522624492645,0.0,0.0,0.0,0.0,0.0,0.0,0.0,0.12147114039771706,0.49603040370198304,0.3079059067295852,0.3213001824628386,-0.14045592619788444,0.0647698459773446,-0.19430504278492494,-0.6092781133115011,-0.05785452137789665,-0.6666254488125181,-2.5943684668159483,-0.055465815217420354,2.5079567375712926,0.8763176642970906,-0.6090851748156966,-0.05753196718556838,-0.666603097082616,-2.5945565370258534,-0.05562143941554,2.507976027223799,0.8763108487046415,0.0009211983133703725,0.00014828973225471806,-0.0008977765857024674,-0.001040524050703077,-0.0001065782408659776,-0.00013660779144153965,-0.00022186473384155195,0.0,0.0,0.0,0.0,0.0,0.0,0.0,0.0001929384958044844,0.0003225541923282671,2.2351729902059247e-05,-0.00018807020990507795,-0.00015562419811964573,1.9289652506415678e-05,-6.815592449083141e-06,-0.0009211983133703725,-0.00014828973225471806,0.0008977765857024674,0.001040524050703077,0.0001065782408659776,0.00013660779144153965,0.00022186473384155195,-0.08103066682815552,18.154138565063477,-1.1680023670196533,-17.999910354614258,-0.2841086983680725,-2.2552523612976074,0.19351522624492645,0
61,0.29999685287475586,0.08103066682815552,-18.154138565063477,1.1680023670196533,17.999910354614258,0.2841086983680725,2.2552523612976074,-0.19351522624492645,0.0,0.0,0.0,0.0,0.0,0.0,0.0,0.12147114039771706,0.49603040370198304,0.3079059067295852,0.3213001824628386,-0.14045592619788444,0.0647698459773446,-0.19430504278492494,-0.6092781133115011,-0.05785452137789665,-0.6666254488125181,-2.5943684668159483,-0.055465815217420354,2.5079567375712926,0.8763176642970906,-0.6090851748156966,-0.05753196718556838,-0.666603097082616,-2.5945565370258534,-0.05562143941554,2.507976027223799,0.8763108487046415,0.0009211983133703725,0.00014828973225471806,-0.0008977765857024674,-0.001040524050703077,-0.0001065782408659776,-0.00013660779144153965,-0.00022186473384155195,0.0,0.0,0.0,0.0,0.0,0.0,0.0,0.0001929384958044844,0.0003225541923282671,2.2351729902059247e-05,-0.00018807020990507795,-0.00015562419811964573,1.9289652506415678e-05,-6.815592449083141e-06,-0.0009211983133703725,-0.00014828973225471806,0.0008977765857024674,0.001040524050703077,0.0001065782408659776,0.00013660779144153965,0.00022186473384155195,-0.08103066682815552,18.154138565063477,-1.1680023670196533,-17.999910354614258,-0.2841086983680725,-2.2552523612976074,0.19351522624492645,0
62,0.3050076961517334,0.13260537385940552,-18.154138565063477,1.0926239490509033,17.948335647583008,0.2960105538368225,2.2488436698913574,-0.21457235515117645,0.0,0.0,0.0,0.0,0.0,0.0,0.0,0.11796661847478905,0.4963880568133695,0.3069554298068909,0.3217951491950751,-0.14065022567848331,0.06476385137167597,-0.19408774814618518,-0.609283786631853,-0.057854600281120695,-0.6666201590989764,-2.5943640822492275,-0.055467124502086705,2.5079574496481154,0.8763200039780801,-0.6090851748156966,-0.05753196718556838,-0.666603097082616,-2.5945565370258534,-0.05562143941554,2.507976027223799,0.8763108487046415,-0.00033017837497773873,-9.425217082059311e-05,0.0009084293503821144,0.000155178562309406,-0.00046086001677192684,-7.33487537151118e-05,0.0011472247800960221,0.0,0.0,0.0,0.0,0.0,0.0,0.0,0.00019861181615643542,0.00032263309555231184,1.7062016360425147e-05,-0.00019245477662588328,-0.0001543149134532948,1.8577575683575986e-05,-9.155273438588019e-06,0.00033017837497773873,9.425217082059311e-05,-0.0009084293503821144,-0.000155178562309406,0.00046086001677192684,7.33487537151118e-05,-0.0011472247800960221,-0.13260537385940552,18.154138565063477,-1.0926239490509033,-17.948335647583008,-0.2960105538368225,-2.2488436698913574,0.21457235515117645,0
63,0.3100154399871826,0.13260537385940552,-18.154138565063477,1.0926239490509033,17.948335647583008,0.2960105538368225,2.2488436698913574,-0.21457235515117645,0.0,0.0,0.0,0.0,0.0,0.0,0.0,0.11796661847478905,0.4963880568133695,0.3069554298068909,0.3217951491950751,-0.14065022567848331,0.06476385137167597,-0.19408774814618518,-0.609283786631853,-0.057854600281120695,-0.6666201590989764,-2.5943640822492275,-0.055467124502086705,2.5079574496481154,0.8763200039780801,-0.6090851748156966,-0.05753196718556838,-0.666603097082616,-2.5945565370258534,-0.05562143941554,2.507976027223799,0.8763108487046415,-0.00033017837497773873,-9.425217082059311e-05,0.0009084293503821144,0.000155178562309406,-0.00046086001677192684,-7.33487537151118e-05,0.0011472247800960221,0.0,0.0,0.0,0.0,0.0,0.0,0.0,0.00019861181615643542,0.00032263309555231184,1.7062016360425147e-05,-0.00019245477662588328,-0.0001543149134532948,1.8577575683575986e-05,-9.155273438588019e-06,0.00033017837497773873,9.425217082059311e-05,-0.0009084293503821144,-0.000155178562309406,0.00046086001677192684,7.33487537151118e-05,-0.0011472247800960221,-0.13260537385940552,18.154138565063477,-1.0926239490509033,-17.948335647583008,-0.2960105538368225,-2.2488436698913574,0.21457235515117645,0
64,0.31500768661499023,0.13260537385940552,-18.177942276000977,1.1164276599884033,17.999910354614258,0.2905173897743225,2.2552523612976074,-0.23471395671367645,0.0,0.0,0.0,0.0,0.0,0.0,0.0,0.11986850592864745,0.49191431721501766,0.30472230489205704,0.3274805185229858,-0.14042120759019278,0.06554223921714988,-0.1935403516088928,-0.6092833724843859,-0.057852929954988704,-0.6666218295348317,-2.5943682381412456,-0.05546651415030161,2.5079567375712926,0.8763222419338093,-0.6090851748156966,-0.05753196718556838,-0.666603097082616,-2.5945565370258534,-0.05562143941554,2.507976027223799,0.8763108487046415,-0.00010895850433790966,5.364969617783307e-05,-0.00021347014088244409,-0.0008222002631253323,-0.00015552612945333988,-0.00027362853175554063,0.0017327270970358627,0.0,0.0,0.0,0.0,0.0,0.0,0.0,0.0001981976686893372,0.00032096276942032015,1.873245221573061e-05,-0.00018829888460780708,-0.000154925265238387,1.9289652506415678e-05,-1.1393229167766528e-05,0.00010895850433790966,-5.364969617783307e-05,0.00021347014088244409,0.0008222002631253323,0.00015552612945333988,0.00027362853175554063,-0.0017327270970358627,-0.13260537385940552,18.177942276000977,-1.1164276599884033,-17.999910354614258,-0.2905173897743225,-2.2552523612976074,0.23471395671367645,0
65,0.3200256824493408,0.13260537385940552,-18.177942276000977,1.1164276599884033,17.999910354614258,0.2905173897743225,2.2552523612976074,-0.23471395671367645,0.0,0.0,0.0,0.0,0.0,0.0,0.0,0.11986850592864745,0.49191431721501766,0.30472230489205704,0.3274805185229858,-0.14042120759019278,0.06554223921714988,-0.1935403516088928,-0.6092833724843859,-0.057852929954988704,-0.6666218295348317,-2.5943682381412456,-0.05546651415030161,2.5079567375712926,0.8763222419338093,-0.6090851748156966,-0.05753196718556838,-0.666603097082616,-2.5945565370258534,-0.05562143941554,2.507976027223799,0.8763108487046415,-0.00010895850433790966,5.364969617783307e-05,-0.00021347014088244409,-0.0008222002631253323,-0.00015552612945333988,-0.00027362853175554063,0.0017327270970358627,0.0,0.0,0.0,0.0,0.0,0.0,0.0,0.0001981976686893372,0.00032096276942032015,1.873245221573061e-05,-0.00018829888460780708,-0.000154925265238387,1.9289652506415678e-05,-1.1393229167766528e-05,0.00010895850433790966,-5.364969617783307e-05,0.00021347014088244409,0.0008222002631253323,0.00015552612945333988,0.00027362853175554063,-0.0017327270970358627,-0.13260537385940552,18.177942276000977,-1.1164276599884033,-17.999910354614258,-0.2905173897743225,-2.2552523612976074,0.23471395671367645,0
66,0.3249969482421875,0.10880166292190552,-18.177942276000977,1.1164276599884033,17.924531936645508,0.2905173897743225,2.2625765800476074,-0.20724813640117645,0.0,0.0,0.0,0.0,0.0,0.0,0.0,0.1254927821116101,0.4967216685814394,0.3052410291386705,0.322338419344706,-0.14023211933872284,0.06510483820542336,-0.19569832186968533,-0.6092821710147924,-0.057852929954988905,-0.6666218295348317,-2.5943629484628428,-0.05546651431256425,2.507955923769209,0.8763188326026363,-0.6090851748156966,-0.05753196718556838,-0.666603097082616,-2.5945565370258534,-0.05562143941554,2.507976027223799,0.8763108487046415,0.00015545655122391013,0.0002579902228057663,0.0005313812272031999,0.0008071564561075751,-0.0003671124714608232,-0.0004485696945087386,0.00028298844812200627,0.0,0.0,0.0,0.0,0.0,0.0,0.0,0.00019699619909585575,0.0003209627694205214,1.873245221573061e-05,-0.0001935885630106604,-0.00015492510297575313,2.0103454589914804e-05,-7.983897994834344e-06,-0.00015545655122391013,-0.0002579902228057663,-0.0005313812272031999,-0.0008071564561075751,0.0003671124714608232,0.0004485696945087386,-0.00028298844812200627,-0.10880166292190552,18.177942276000977,-1.1164276599884033,-17.924531936645508,-0.2905173897743225,-2.2625765800476074,0.20724813640117645,0
67,0.3299980163574219,0.10880166292190552,-18.177942276000977,1.1164276599884033,17.924531936645508,0.2905173897743225,2.2625765800476074,-0.20724813640117645,0.0,0.0,0.0,0.0,0.0,0.0,0.0,0.1254927821116101,0.4967216685814394,0.3052410291386705,0.322338419344706,-0.14023211933872284,0.06510483820542336,-0.19569832186968533,-0.6092821710147924,-0.057852929954988905,-0.6666218295348317,-2.5943629484628428,-0.05546651431256425,2.507955923769209,0.8763188326026363,-0.6090851748156966,-0.05753196718556838,-0.666603097082616,-2.5945565370258534,-0.05562143941554,2.507976027223799,0.8763108487046415,0.00015545655122391013,0.0002579902228057663,0.0005313812272031999,0.0008071564561075751,-0.0003671124714608232,-0.0004485696945087386,0.00028298844812200627,0.0,0.0,0.0,0.0,0.0,0.0,0.0,0.00019699619909585575,0.0003209627694205214,1.873245221573061e-05,-0.0001935885630106604,-0.00015492510297575313,2.0103454589914804e-05,-7.983897994834344e-06,-0.00015545655122391013,-0.0002579902228057663,-0.0005313812272031999,-0.0008071564561075751,0.0003671124714608232,0.0004485696945087386,-0.00028298844812200627,-0.10880166292190552,18.177942276000977,-1.1164276599884033,-17.924531936645508,-0.2905173897743225,-2.2625765800476074,0.20724813640117645,0
68,0.3350999355316162,0.10880166292190552,-18.130334854125977,1.1164276599884033,17.924531936645508,0.2841086983680725,2.2488436698913574,-0.20724813640117645,0.0,0.0,0.0,0.0,0.0,0.0,0.0,0.12244127153352057,0.48982260455479154,0.3007122650350711,0.3289766831155022,-0.13998032361503948,0.06727507042618566,-0.19608035336223015,-0.609281424781567,-0.05785627082669943,-0.6666218295348317,-2.59436315159649,-0.05546580207347961,2.5079574496481154,0.8763188369612686,-0.6090851748156966,-0.05753196718556838,-0.666603097082616,-2.5945565370258534,-0.05562143941554,2.507976027223799,0.8763108487046415,0.00015445713384767214,-0.0012679987128953137,0.0003951026104259994,0.0014561006034846564,0.00014209852636134766,-6.86408206795283e-05,0.0003108178876178971,0.0,0.0,0.0,0.0,0.0,0.0,0.0,0.00019624996587042087,0.00032430364113104904,1.873245221573061e-05,-0.00019338542936342407,-0.0001556373420603871,1.8577575683575986e-05,-7.988256627067258e-06,-0.00015445713384767214,0.0012679987128953137,-0.0003951026104259994,-0.0014561006034846564,-0.00014209852636134766,6.86408206795283e-05,-0.0003108178876178971,-0.10880166292190552,18.130334854125977,-1.1164276599884033,-17.924531936645508,-0.2841086983680725,-2.2488436698913574,0.20724813640117645,0
69,0.3400156497955322,0.10880166292190552,-18.130334854125977,1.1164276599884033,17.924531936645508,0.2841086983680725,2.2488436698913574,-0.20724813640117645,0.0,0.0,0.0,0.0,0.0,0.0,0.0,0.12244127153352057,0.48982260455479154,0.3007122650350711,0.3289766831155022,-0.13998032361503948,0.06727507042618566,-0.19608035336223015,-0.609281424781567,-0.05785627082669943,-0.6666218295348317,-2.59436315159649,-0.05546580207347961,2.5079574496481154,0.8763188369612686,-0.6090851748156966,-0.05753196718556838,-0.666603097082616,-2.5945565370258534,-0.05562143941554,2.507976027223799,0.8763108487046415,0.00015445713384767214,-0.0012679987128953137,0.0003951026104259994,0.0014561006034846564,0.00014209852636134766,-6.86408206795283e-05,0.0003108178876178971,0.0,0.0,0.0,0.0,0.0,0.0,0.0,0.00019624996587042087,0.00032430364113104904,1.873245221573061e-05,-0.00019338542936342407,-0.0001556373420603871,1.8577575683575986e-05,-7.988256627067258e-06,-0.00015445713384767214,0.0012679987128953137,-0.0003951026104259994,-0.0014561006034846564,-0.00014209852636134766,6.86408206795283e-05,-0.0003108178876178971,-0.10880166292190552,18.130334854125977,-1.1164276599884033,-17.924531936645508,-0.2841086983680725,-2.2488436698913574,0.20724813640117645,0
70,0.34500718116760254,0.10880166292190552,-18.177942276000977,1.0926239490509033,17.948335647583008,0.2786155343055725,2.2360262870788574,-0.24844686686992645,0.0,0.0,0.0,0.0,0.0,0.0,0.0,0.12157437056875621,0.49604722392858613,0.30292016669892,0.3202659339164923,-0.14028912639227537,0.06579384988488436,-0.19666989489308645,-0.609281424781567,-0.057852929954988905,-0.6666201590989764,-2.5943646102915974,-0.0554651917219162,2.507958873801761,0.8763237678107216,-0.6090851748156966,-0.05753196718556838,-0.666603097082616,-2.5945565370258534,-0.05562143941554,2.507976027223799,0.8763108487046415,0.00015445713384767214,0.00048146330611837014,0.0006826011543799572,-0.00016563932891474763,0.00015945313905058677,0.0005196586854275003,0.0017016650801487596,0.0,0.0,0.0,0.0,0.0,0.0,0.0,0.00019624996587042087,0.0003209627694205214,1.7062016360425147e-05,-0.00019192673425605378,-0.00015624769362380247,1.7153422037896604e-05,-1.2919106080144793e-05,-0.00015445713384767214,-0.00048146330611837014,-0.0006826011543799572,0.00016563932891474763,-0.00015945313905058677,-0.0005196586854275003,-0.0017016650801487596,-0.10880166292190552,18.177942276000977,-1.0926239490509033,-17.948335647583008,-0.2786155343055725,-2.2360262870788574,0.24844686686992645,0
71,0.34999942779541016,0.10880166292190552,-18.177942276000977,1.0926239490509033,17.948335647583008,0.2786155343055725,2.2360262870788574,-0.24844686686992645,0.0,0.0,0.0,0.0,0.0,0.0,0.0,0.12157437056875621,0.49604722392858613,0.30292016669892,0.3202659339164923,-0.14028912639227537,0.06579384988488436,-0.19666989489308645,-0.609281424781567,-0.057852929954988905,-0.6666201590989764,-2.5943646102915974,-0.0554651917219162,2.507958873801761,0.8763237678107216,-0.6090851748156966,-0.05753196718556838,-0.666603097082616,-2.5945565370258534,-0.05562143941554,2.507976027223799,0.8763108487046415,0.00015445713384767214,0.00048146330611837014,0.0006826011543799572,-0.00016563932891474763,0.00015945313905058677,0.0005196586854275003,0.0017016650801487596,0.0,0.0,0.0,0.0,0.0,0.0,0.0,0.00019624996587042087,0.0003209627694205214,1.7062016360425147e-05,-0.00019192673425605378,-0.00015624769362380247,1.7153422037896604e-05,-1.2919106080144793e-05,-0.00015445713384767214,-0.00048146330611837014,-0.0006826011543799572,0.00016563932891474763,-0.00015945313905058677,-0.0005196586854275003,-0.0017016650801487596,-0.10880166292190552,18.177942276000977,-1.0926239490509033,-17.948335647583008,-0.2786155343055725,-2.2360262870788574,0.24844686686992645,0
72,0.35502052307128906,0.08103066682815552,-18.177942276000977,1.0926239490509033,17.948335647583008,0.2786155343055725,2.2360262870788574,-0.24844686686992645,0.0,0.0,0.0,0.0,0.0,0.0,0.0,0.12157437056875621,0.49604722392858613,0.30292016669892,0.3202659339164923,-0.14028912639227537,0.06579384988488436,-0.19666989489308645,-0.6092775660667306,-0.057852929954988905,-0.6666201590989764,-2.5943646102915974,-0.0554651917219162,2.507958873801761,0.8763237678107216,-0.6090851748156966,-0.05753196718556838,-0.666603097082616,-2.5945565370258534,-0.05562143941554,2.507976027223799,0.8763108487046415,0.00059390227816254,0.00048146330611837014,0.0006826011543799572,-0.00016563932891474763,0.00015945313905058677,0.0005196586854275003,0.0017016650801487596,0.0,0.0,0.0,0.0,0.0,0.0,0.0,0.00019239125103398536,0.0003209627694205214,1.7062016360425147e-05,-0.00019192673425605378,-0.00015624769362380247,1.7153422037896604e-05,-1.2919106080144793e-05,-0.00059390227816254,-0.00048146330611837014,-0.0006826011543799572,0.00016563932891474763,-0.00015945313905058677,-0.0005196586854275003,-0.0017016650801487596,-0.08103066682815552,18.177942276000977,-1.0926239490509033,-17.948335647583008,-0.2786155343055725,-2.2360262870788574,0.24844686686992645,0
73,0.3600199222564697,0.08103066682815552,-18.177942276000977,1.0926239490509033,17.948335647583008,0.2786155343055725,2.2360262870788574,-0.24844686686992645,0.0,0.0,0.0,0.0,0.0,0.0,0.0,0.12157437056875621,0.49604722392858613,0.30292016669892,0.3202659339164923,-0.14028912639227537,0.06579384988488436,-0.19666989489308645,-0.6092775660667306,-0.057852929954988905,-0.6666201590989764,-2.5943646102915974,-0.0554651917219162,2.507958873801761,0.8763237678107216,-0.6090851748156966,-0.05753196718556838,-0.666603097082616,-2.5945565370258534,-0.05562143941554,2.507976027223799,0.8763108487046415,0.00059390227816254,0.00048146330611837014,0.0006826011543799572,-0.00016563932891474763,0.00015945313905058677,0.0005196586854275003,0.0017016650801487596,0.0,0.0,0.0,0.0,0.0,0.0,0.0,0.00019239125103398536,0.0003209627694205214,1.7062016360425147e-05,-0.00019192673425605378,-0.00015624769362380247,1.7153422037896604e-05,-1.2919106080144793e-05,-0.00059390227816254,-0.00048146330611837014,-0.0006826011543799572,0.00016563932891474763,-0.00015945313905058677,-0.0005196586854275003,-0.0017016650801487596,-0.08103066682815552,18.177942276000977,-1.0926239490509033,-17.948335647583008,-0.2786155343055725,-2.2360262870788574,0.24844686686992645,0
74,0.3650033473968506,0.08103066682815552,-18.130334854125977,1.1164276599884033,17.972139358520508,0.2841086983680725,2.2424349784851074,-0.16604940593242645,0.0,0.0,0.0,0.0,0.0,0.0,0.0,0.12089856125573208,0.4963771389317036,0.3043283177156169,0.3245982071114,-0.14047742573665054,0.06545708386262684,-0.1999146352810594,-0.6092773319125094,-0.05785626985123095,-0.6666218295348317,-2.5943665151408464,-0.0554658020734787,2.5079581617249382,0.876314612539278,-0.6090851748156966,-0.05753196718556838,-0.666603097082616,-2.5945565370258534,-0.05562143941554,2.507976027223799,0.8763108487046415,0.0006620253615195337,-0.000343480707657076,5.646792578601817e-05,-8.208157746186292e-05,-9.802465869954953e-05,0.00013828505199993957,-0.001546300927043652,0.0,0.0,0.0,0.0,0.0,0.0,0.0,0.00019215709681286164,0.00032430266566256527,1.873245221573061e-05,-0.0001900218850070523,-0.00015563734206130303,1.7865498860736295e-05,-3.7638346365165276e-06,-0.0006620253615195337,0.000343480707657076,-5.646792578601817e-05,8.208157746186292e-05,9.802465869954953e-05,-0.00013828505199993957,0.001546300927043652,-0.08103066682815552,18.130334854125977,-1.1164276599884033,-17.972139358520508,-0.2841086983680725,-2.2424349784851074,0.16604940593242645,0
75,0.37000393867492676,0.08103066682815552,-18.130334854125977,1.1164276599884033,17.972139358520508,0.2841086983680725,2.2424349784851074,-0.16604940593242645,0.0,0.0,0.0,0.0,0.0,0.0,0.0,0.12089856125573208,0.4963771389317036,0.3043283177156169,0.3245982071114,-0.14047742573665054,0.06545708386262684,-0.1999146352810594,-0.6092773319125094,-0.05785626985123095,-0.6666218295348317,-2.5943665151408464,-0.0554658020734787,2.5079581617249382,0.876314612539278,-0.6090851748156966,-0.05753196718556838,-0.666603097082616,-2.5945565370258534,-0.05562143941554,2.507976027223799,0.8763108487046415,0.0006620253615195337,-0.000343480707657076,5.646792578601817e-05,-8.208157746186292e-05,-9.802465869954953e-05,0.00013828505199993957,-0.001546300927043652,0.0,0.0,0.0,0.0,0.0,0.0,0.0,0.00019215709681286164,0.00032430266566256527,1.873245221573061e-05,-0.0001900218850070523,-0.00015563734206130303,1.7865498860736295e-05,-3.7638346365165276e-06,-0.0006620253615195337,0.000343480707657076,-5.646792578601817e-05,8.208157746186292e-05,9.802465869954953e-05,-0.00013828505199993957,0.001546300927043652,-0.08103066682815552,18.130334854125977,-1.1164276599884033,-17.972139358520508,-0.2841086983680725,-2.2424349784851074,0.16604940593242645,0
76,0.3750021457672119,0.10880166292190552,-18.177942276000977,1.1441986560821533,17.924531936645508,0.2905173897743225,2.2552523612976074,-0.23471395671367645,0.0,0.0,0.0,0.0,0.0,0.0,0.0,0.11815683121362903,0.49415737919476715,0.3025515501065041,0.3277141859279762,-0.14055736969034757,0.06446601866124713,-0.2003959180461446,-0.6092815033013788,-0.057852921175767034,-0.6666237783766629,-2.5943610352286064,-0.05546687047905973,2.5079567375712926,0.8763222419338093,-0.6090851748156966,-0.05753196718556838,-0.666603097082616,-2.5945565370258534,-0.05562143941554,2.507976027223799,0.8763108487046415,0.00013151540647724966,0.0002171796689317538,-0.0007826265374144188,0.0010566627805379902,-0.00018163018174569245,-0.00024440658761370007,0.0017288728187378046,0.0,0.0,0.0,0.0,0.0,0.0,0.0,0.00019632848568218453,0.00032095399019865106,2.0681294046864807e-05,-0.00019550179724703298,-0.0001545689364802691,1.9289652506415678e-05,-1.1393229167766528e-05,-0.00013151540647724966,-0.0002171796689317538,0.0007826265374144188,-0.0010566627805379902,0.00018163018174569245,0.00024440658761370007,-0.0017288728187378046,-0.10880166292190552,18.177942276000977,-1.1441986560821533,-17.924531936645508,-0.2905173897743225,-2.2552523612976074,0.23471395671367645,0
77,0.38000965118408203,0.10880166292190552,-18.177942276000977,1.1441986560821533,17.924531936645508,0.2905173897743225,2.2552523612976074,-0.23471395671367645,0.0,0.0,0.0,0.0,0.0,0.0,0.0,0.11815683121362903,0.49415737919476715,0.3025515501065041,0.3277141859279762,-0.14055736969034757,0.06446601866124713,-0.2003959180461446,-0.6092815033013788,-0.057852921175767034,-0.6666237783766629,-2.5943610352286064,-0.05546687047905973,2.5079567375712926,0.8763222419338093,-0.6090851748156966,-0.05753196718556838,-0.666603097082616,-2.5945565370258534,-0.05562143941554,2.507976027223799,0.8763108487046415,0.00013151540647724966,0.0002171796689317538,-0.0007826265374144188,0.0010566627805379902,-0.00018163018174569245,-0.00024440658761370007,0.0017288728187378046,0.0,0.0,0.0,0.0,0.0,0.0,0.0,0.00019632848568218453,0.00032095399019865106,2.0681294046864807e-05,-0.00019550179724703298,-0.0001545689364802691,1.9289652506415678e-05,-1.1393229167766528e-05,-0.00013151540647724966,-0.0002171796689317538,0.0007826265374144188,-0.0010566627805379902,0.00018163018174569245,0.00024440658761370007,-0.0017288728187378046,-0.10880166292190552,18.177942276000977,-1.1441986560821533,-17.924531936645508,-0.2905173897743225,-2.2552523612976074,0.23471395671367645,0
78,0.38501787185668945,0.13260537385940552,-18.154138565063477,1.1164276599884033,17.948335647583008,0.2841086983680725,2.2552523612976074,-0.15964071452617645,0.0,0.0,0.0,0.0,0.0,0.0,0.0,0.14983617568543361,0.4987240713578862,0.33528461564479445,0.32853465534675746,-0.14208021829498554,0.06470260657233945,-0.19894871956435045,-0.6092833038837706,-0.05785452137774818,-0.6666218295348317,-2.5943646160292824,-0.055465802079513155,2.5079567375712926,0.876313900462455,-0.6090851748156966,-0.05753196718556838,-0.666603097082616,-2.5945565370258534,-0.05562143941554,2.507976027223799,0.8763108487046415,-0.0001687544819503862,-0.00043516555317239987,-0.0033791994982956893,0.0008329099823121374,-0.0001156609944947432,-0.000212026729599707,-0.0015841735433798979,0.0,0.0,0.0,0.0,0.0,0.0,0.0,0.00019812906807403774,0.0003225541921797956,1.873245221573061e-05,-0.00019192099657106,-0.00015563733602684537,1.9289652506415678e-05,-3.051757813565814e-06,0.0001687544819503862,0.00043516555317239987,0.0033791994982956893,-0.0008329099823121374,0.0001156609944947432,0.000212026729599707,0.0015841735433798979,-0.13260537385940552,18.154138565063477,-1.1164276599884033,-17.948335647583008,-0.2841086983680725,-2.2552523612976074,0.15964071452617645,0
79,0.3900141716003418,0.13260537385940552,-18.154138565063477,1.1164276599884033,17.948335647583008,0.2841086983680725,2.2552523612976074,-0.15964071452617645,0.0,0.0,0.0,0.0,0.0,0.0,0.0,0.14983617568543361,0.4987240713578862,0.33528461564479445,0.32853465534675746,-0.14208021829498554,0.06470260657233945,-0.19894871956435045,-0.6092833038837706,-0.05785452137774818,-0.6666218295348317,-2.5943646160292824,-0.055465802079513155,2.5079567375712926,0.876313900462455,-0.6090851748156966,-0.05753196718556838,-0.666603097082616,-2.5945565370258534,-0.05562143941554,2.507976027223799,0.8763108487046415,-0.0001687544819503862,-0.00043516555317239987,-0.0033791994982956893,0.0008329099823121374,-0.0001156609944947432,-0.000212026729599707,-0.0015841735433798979,0.0,0.0,0.0,0.0,0.0,0.0,0.0,0.00019812906807403774,0.0003225541921797956,1.873245221573061e-05,-0.00019192099657106,-0.00015563733602684537,1.9289652506415678e-05,-3.051757813565814e-06,0.0001687544819503862,0.00043516555317239987,0.0033791994982956893,-0.0008329099823121374,0.0001156609944947432,0.000212026729599707,0.0015841735433798979,-0.13260537385940552,18.154138565063477,-1.1164276599884033,-17.948335647583008,-0.2841086983680725,-2.2552523612976074,0.15964071452617645,0
