rezayati/contactInterpretation/dataset/franka_main/labeled_data/link5/c7_7.csv
index,time,tau_J0,tau_J1,tau_J2,tau_J3,tau_J4,tau_J5,tau_J6,tau_J_d0,tau_J_d1,tau_J_d2,tau_J_d3,tau_J_d4,tau_J_d5,tau_J_d6,tau_ext0,tau_ext1,tau_ext2,tau_ext3,tau_ext4,tau_ext5,tau_ext6,q0,q1,q2,q3,q4,q5,q6,q_d0,q_d1,q_d2,q_d3,q_d4,q_d5,q_d6,dq0,dq1,dq2,dq3,dq4,dq5,dq6,dq_d0,dq_d1,dq_d2,dq_d3,dq_d4,dq_d5,dq_d6,e0,e1,e2,e3,e4,e5,e6,de0,de1,de2,de3,de4,de5,de6,etau_J0,etau_J1,etau_J2,etau_J3,etau_J4,etau_J5,etau_J6,label
1,0.0,-0.14510458707809448,-12.024682998657227,1.2671844959259033,21.717256546020508,0.3738303780555725,2.5399813652038574,-0.19351522624492645,0.0,0.0,0.0,0.0,0.0,0.0,0.0,-0.14756636315164165,0.42736849342204203,0.06779245749100334,0.3870694232005395,-0.16932924125797086,0.1288572153843975,-0.217750221887344,0.17280674509207405,-0.487556532479169,-0.11155820567242668,-1.9463049991199401,0.13377911625305808,2.5955441672537063,0.9452460848407613,0.1728802376190821,-0.48752024683155326,-0.11147110072896137,-1.9463801863486305,0.1336059019074957,2.595550359778934,0.9452445589611904,-0.00013979481031175422,0.00038985336497026257,0.00025172012739053837,-0.0005167515079448969,-0.00042291993748071497,-5.236005960222811e-05,-0.0008648679458780238,0.0,0.0,0.0,0.0,0.0,0.0,0.0,7.349252700805664e-05,3.628564761576358e-05,8.710494346531039e-05,-7.518722869037653e-05,-0.00017321434556238913,6.192525227710632e-06,-1.5258795709183204e-06,0.00013979481031175422,-0.00038985336497026257,-0.00025172012739053837,0.0005167515079448969,0.00042291993748071497,5.236005960222811e-05,0.0008648679458780238,0.14510458707809448,12.024682998657227,-1.2671844959259033,-21.717256546020508,-0.3738303780555725,-2.5399813652038574,0.19351522624492645,0
2,0.006443023681640625,-0.14510458707809448,-12.024682998657227,1.2671844959259033,21.717256546020508,0.3738303780555725,2.5399813652038574,-0.19351522624492645,0.0,0.0,0.0,0.0,0.0,0.0,0.0,-0.14756636315164165,0.42736849342204203,0.06779245749100334,0.3870694232005395,-0.16932924125797086,0.1288572153843975,-0.217750221887344,0.17280674509207405,-0.487556532479169,-0.11155820567242668,-1.9463049991199401,0.13377911625305808,2.5955441672537063,0.9452460848407613,0.1728802376190821,-0.48752024683155326,-0.11147110072896137,-1.9463801863486305,0.1336059019074957,2.595550359778934,0.9452445589611904,-0.00013979481031175422,0.00038985336497026257,0.00025172012739053837,-0.0005167515079448969,-0.00042291993748071497,-5.236005960222811e-05,-0.0008648679458780238,0.0,0.0,0.0,0.0,0.0,0.0,0.0,7.349252700805664e-05,3.628564761576358e-05,8.710494346531039e-05,-7.518722869037653e-05,-0.00017321434556238913,6.192525227710632e-06,-1.5258795709183204e-06,0.00013979481031175422,-0.00038985336497026257,-0.00025172012739053837,0.0005167515079448969,0.00042291993748071497,5.236005960222811e-05,0.0008648679458780238,0.14510458707809448,12.024682998657227,-1.2671844959259033,-21.717256546020508,-0.3738303780555725,-2.5399813652038574,0.19351522624492645,0
3,0.010015487670898438,-0.14510458707809448,-12.024682998657227,1.2671844959259033,21.717256546020508,0.3738303780555725,2.5399813652038574,-0.19351522624492645,0.0,0.0,0.0,0.0,0.0,0.0,0.0,-0.14756636315164165,0.42736849342204203,0.06779245749100334,0.3870694232005395,-0.16932924125797086,0.1288572153843975,-0.217750221887344,0.17280674509207405,-0.487556532479169,-0.11155820567242668,-1.9463049991199401,0.13377911625305808,2.5955441672537063,0.9452460848407613,0.1728802376190821,-0.48752024683155326,-0.11147110072896137,-1.9463801863486305,0.1336059019074957,2.595550359778934,0.9452445589611904,-0.00013979481031175422,0.00038985336497026257,0.00025172012739053837,-0.0005167515079448969,-0.00042291993748071497,-5.236005960222811e-05,-0.0008648679458780238,0.0,0.0,0.0,0.0,0.0,0.0,0.0,7.349252700805664e-05,3.628564761576358e-05,8.710494346531039e-05,-7.518722869037653e-05,-0.00017321434556238913,6.192525227710632e-06,-1.5258795709183204e-06,0.00013979481031175422,-0.00038985336497026257,-0.00025172012739053837,0.0005167515079448969,0.00042291993748071497,5.236005960222811e-05,0.0008648679458780238,0.14510458707809448,12.024682998657227,-1.2671844959259033,-21.717256546020508,-0.3738303780555725,-2.5399813652038574,0.19351522624492645,0
4,0.015001773834228516,-0.12130087614059448,-11.774744033813477,1.2671844959259033,21.717256546020508,0.3555198311805725,2.5335726737976074,-0.18710653483867645,0.0,0.0,0.0,0.0,0.0,0.0,0.0,-0.14681317677755898,0.4842704817789967,0.06602635114509774,0.35301092400203005,-0.1692253820343914,0.12554451594201624,-0.21808757790759153,0.17280507465621878,-0.4875740720556493,-0.1115582089277552,-1.9463049642173869,0.1337811507582664,2.595544879330529,0.9452452550263685,0.1728802376190821,-0.48752024683155326,-0.11147110072896137,-1.9463801863486305,0.1336059019074957,2.595550359778934,0.9452445589611904,-0.000457713074626376,-0.0008454352380942697,0.0003474038844644548,-0.0010790081095596272,0.0003756304007821889,7.259330128789726e-05,-0.0007740398921122116,0.0,0.0,0.0,0.0,0.0,0.0,0.0,7.516296286333435e-05,5.382522409602686e-05,8.710819879383103e-05,-7.52221312436685e-05,-0.0001752488507707206,5.480448404870941e-06,-6.960651780518745e-07,0.000457713074626376,0.0008454352380942697,-0.0003474038844644548,0.0010790081095596272,-0.0003756304007821889,-7.259330128789726e-05,0.0007740398921122116,0.12130087614059448,11.774744033813477,-1.2671844959259033,-21.717256546020508,-0.3555198311805725,-2.5335726737976074,0.18710653483867645,0
5,0.020137548446655273,-0.12130087614059448,-11.774744033813477,1.2671844959259033,21.717256546020508,0.3555198311805725,2.5335726737976074,-0.18710653483867645,0.0,0.0,0.0,0.0,0.0,0.0,0.0,-0.14681317677755898,0.4842704817789967,0.06602635114509774,0.35301092400203005,-0.1692253820343914,0.12554451594201624,-0.21808757790759153,0.17280507465621878,-0.4875740720556493,-0.1115582089277552,-1.9463049642173869,0.1337811507582664,2.595544879330529,0.9452452550263685,0.1728802376190821,-0.48752024683155326,-0.11147110072896137,-1.9463801863486305,0.1336059019074957,2.595550359778934,0.9452445589611904,-0.000457713074626376,-0.0008454352380942697,0.0003474038844644548,-0.0010790081095596272,0.0003756304007821889,7.259330128789726e-05,-0.0007740398921122116,0.0,0.0,0.0,0.0,0.0,0.0,0.0,7.516296286333435e-05,5.382522409602686e-05,8.710819879383103e-05,-7.52221312436685e-05,-0.0001752488507707206,5.480448404870941e-06,-6.960651780518745e-07,0.000457713074626376,0.0008454352380942697,-0.0003474038844644548,0.0010790081095596272,-0.0003756304007821889,-7.259330128789726e-05,0.0007740398921122116,0.12130087614059448,11.774744033813477,-1.2671844959259033,-21.717256546020508,-0.3555198311805725,-2.5335726737976074,0.18710653483867645,0
6,0.02500152587890625,-0.06972616910934448,-11.675561904907227,1.2909882068634033,21.669649124145508,0.3619285225868225,2.5079379081726074,-0.19351522624492645,0.0,0.0,0.0,0.0,0.0,0.0,0.0,-0.13861283225177137,0.5617897726573857,0.07440735969617794,0.32545915004710974,-0.16964861331450312,0.1220893728415546,-0.21801724329133376,0.1728014553785324,-0.48758111020618633,-0.11155987643381662,-1.9463016494003675,0.13378043851943325,2.595547727637821,0.9452460848400968,0.1728802376190821,-0.48752024683155326,-0.11147110072896137,-1.9463801863486305,0.1336059019074957,2.595550359778934,0.9452445589611904,-0.0009699080573017595,-0.0026732317581167194,-7.888922129130315e-05,-0.0005564667642160581,4.000252901497912e-05,0.0005811183320093747,-0.0005772657334232774,0.0,0.0,0.0,0.0,0.0,0.0,0.0,7.87822405497185e-05,6.08633746330689e-05,8.877570485525677e-05,-7.853694826298607e-05,-0.0001745366119375591,2.632141113068087e-06,-1.5258789063388178e-06,0.0009699080573017595,0.0026732317581167194,7.888922129130315e-05,0.0005564667642160581,-4.000252901497912e-05,-0.0005811183320093747,0.0005772657334232774,0.06972616910934448,11.675561904907227,-1.2909882068634033,-21.669649124145508,-0.3619285225868225,-2.5079379081726074,0.19351522624492645,0
7,0.0299990177154541,-0.06972616910934448,-11.675561904907227,1.2909882068634033,21.669649124145508,0.3619285225868225,2.5079379081726074,-0.19351522624492645,0.0,0.0,0.0,0.0,0.0,0.0,0.0,-0.13861283225177137,0.5617897726573857,0.07440735969617794,0.32545915004710974,-0.16964861331450312,0.1220893728415546,-0.21801724329133376,0.1728014553785324,-0.48758111020618633,-0.11155987643381662,-1.9463016494003675,0.13378043851943325,2.595547727637821,0.9452460848400968,0.1728802376190821,-0.48752024683155326,-0.11147110072896137,-1.9463801863486305,0.1336059019074957,2.595550359778934,0.9452445589611904,-0.0009699080573017595,-0.0026732317581167194,-7.888922129130315e-05,-0.0005564667642160581,4.000252901497912e-05,0.0005811183320093747,-0.0005772657334232774,0.0,0.0,0.0,0.0,0.0,0.0,0.0,7.87822405497185e-05,6.08633746330689e-05,8.877570485525677e-05,-7.853694826298607e-05,-0.0001745366119375591,2.632141113068087e-06,-1.5258789063388178e-06,0.0009699080573017595,0.0026732317581167194,7.888922129130315e-05,0.0005564667642160581,-4.000252901497912e-05,-0.0005811183320093747,0.0005772657334232774,0.06972616910934448,11.675561904907227,-1.2909882068634033,-21.669649124145508,-0.3619285225868225,-2.5079379081726074,0.19351522624492645,0
8,0.03499865531921387,-0.14510458707809448,-11.699365615844727,1.2671844959259033,21.618074417114258,0.3619285225868225,2.5207552909851074,-0.18710653483867645,0.0,0.0,0.0,0.0,0.0,0.0,0.0,-0.14630225646488595,0.45349117825817425,0.0658509258347756,0.3933693060308511,-0.1683341271187321,0.13089604540173383,-0.21723847198678325,0.17280674509207405,-0.48758030177788364,-0.11155820892775704,-1.9462980036318749,0.13378043868144263,2.595546303484175,0.9452453727639384,0.1728802376190821,-0.48752024683155326,-0.11147110072896137,-1.9463801863486305,0.1336059019074957,2.595550359778934,0.9452445589611904,-1.5256878622195264e-05,-0.0002080681123811648,0.00017906243745786292,0.0010682287995494274,0.00018621714716300687,-0.00023755449489896934,-0.0011113983827589094,0.0,0.0,0.0,0.0,0.0,0.0,0.0,7.349252700805664e-05,6.0054946330379e-05,8.710819879567677e-05,-8.218271675564104e-05,-0.00017453677394693723,4.056294759191559e-06,-8.138027479676069e-07,1.5256878622195264e-05,0.0002080681123811648,-0.00017906243745786292,-0.0010682287995494274,-0.00018621714716300687,0.00023755449489896934,0.0011113983827589094,0.14510458707809448,11.699365615844727,-1.2671844959259033,-21.618074417114258,-0.3619285225868225,-2.5207552909851074,0.18710653483867645,0
9,0.04000043869018555,-0.14510458707809448,-11.699365615844727,1.2671844959259033,21.618074417114258,0.3619285225868225,2.5207552909851074,-0.18710653483867645,0.0,0.0,0.0,0.0,0.0,0.0,0.0,-0.14630225646488595,0.45349117825817425,0.0658509258347756,0.3933693060308511,-0.1683341271187321,0.13089604540173383,-0.21723847198678325,0.17280674509207405,-0.48758030177788364,-0.11155820892775704,-1.9462980036318749,0.13378043868144263,2.595546303484175,0.9452453727639384,0.1728802376190821,-0.48752024683155326,-0.11147110072896137,-1.9463801863486305,0.1336059019074957,2.595550359778934,0.9452445589611904,-1.5256878622195264e-05,-0.0002080681123811648,0.00017906243745786292,0.0010682287995494274,0.00018621714716300687,-0.00023755449489896934,-0.0011113983827589094,0.0,0.0,0.0,0.0,0.0,0.0,0.0,7.349252700805664e-05,6.0054946330379e-05,8.710819879567677e-05,-8.218271675564104e-05,-0.00017453677394693723,4.056294759191559e-06,-8.138027479676069e-07,1.5256878622195264e-05,0.0002080681123811648,-0.00017906243745786292,-0.0010682287995494274,-0.00018621714716300687,0.00023755449489896934,0.0011113983827589094,0.14510458707809448,11.699365615844727,-1.2671844959259033,-21.618074417114258,-0.3619285225868225,-2.5207552909851074,0.18710653483867645,0
10,0.0449976921081543,-0.22445029020309448,-11.850122451782227,1.2671844959259033,21.717256546020508,0.3555198311805725,2.5335726737976074,-0.22098104655742645,0.0,0.0,0.0,0.0,0.0,0.0,0.0,-0.15343679334429308,0.42424734621667964,0.06251395894118777,0.42079211073241685,-0.16755814261703247,0.13314673316102038,-0.21660015905376018,0.1728123132115916,-0.48757092593430057,-0.11155749698340543,-1.9463049902720755,0.1337811507582664,2.595544879330529,0.9452491365985738,0.1728802376190821,-0.48752024683155326,-0.11147110072896137,-1.9463801863486305,0.1336059019074957,2.595550359778934,0.9452445589611904,0.0005804077377609238,0.0016425871724854162,-0.00015208592575617082,-0.000908126377697821,0.000469113305939325,-8.685044043330393e-05,0.0002380902928760281,0.0,0.0,0.0,0.0,0.0,0.0,0.0,6.792440749051054e-05,5.067910274730858e-05,8.639625444406551e-05,-7.519607655503968e-05,-0.0001752488507707206,5.480448404870941e-06,-4.5776373833739115e-06,-0.0005804077377609238,-0.0016425871724854162,0.00015208592575617082,0.000908126377697821,-0.000469113305939325,8.685044043330393e-05,-0.0002380902928760281,0.22445029020309448,11.850122451782227,-1.2671844959259033,-21.717256546020508,-0.3555198311805725,-2.5335726737976074,0.22098104655742645,0
11,0.04999589920043945,-0.22445029020309448,-11.850122451782227,1.2671844959259033,21.717256546020508,0.3555198311805725,2.5335726737976074,-0.22098104655742645,0.0,0.0,0.0,0.0,0.0,0.0,0.0,-0.15343679334429308,0.42424734621667964,0.06251395894118777,0.42079211073241685,-0.16755814261703247,0.13314673316102038,-0.21660015905376018,0.1728123132115916,-0.48757092593430057,-0.11155749698340543,-1.9463049902720755,0.1337811507582664,2.595544879330529,0.9452491365985738,0.1728802376190821,-0.48752024683155326,-0.11147110072896137,-1.9463801863486305,0.1336059019074957,2.595550359778934,0.9452445589611904,0.0005804077377609238,0.0016425871724854162,-0.00015208592575617082,-0.000908126377697821,0.000469113305939325,-8.685044043330393e-05,0.0002380902928760281,0.0,0.0,0.0,0.0,0.0,0.0,0.0,6.792440749051054e-05,5.067910274730858e-05,8.639625444406551e-05,-7.519607655503968e-05,-0.0001752488507707206,5.480448404870941e-06,-4.5776373833739115e-06,-0.0005804077377609238,-0.0016425871724854162,0.00015208592575617082,0.000908126377697821,-0.000469113305939325,8.685044043330393e-05,-0.0002380902928760281,0.22445029020309448,11.850122451782227,-1.2671844959259033,-21.717256546020508,-0.3555198311805725,-2.5335726737976074,0.22098104655742645,0
12,0.05499720573425293,-0.14510458707809448,-11.873926162719727,1.3147919178009033,21.693452835083008,0.3674216866493225,2.5207552909851074,-0.16604940593242645,0.0,0.0,0.0,0.0,0.0,0.0,0.0,-0.1473396059826441,0.47250184401307466,0.08129897529680373,0.4005020137404811,-0.16880252754362937,0.13014610689077766,-0.21661285551643,0.17280674509207405,-0.4875702669521218,-0.11156154979546516,-1.9463033031568808,0.133779828329881,2.5955463036456803,0.9452430330829488,0.1728802376190821,-0.48752024683155326,-0.11147110072896137,-1.9463801863486305,0.1336059019074957,2.595550359778934,0.9452445589611904,-1.4258313622127966e-05,0.0011146139313049272,-0.000833906841951666,-0.00044342395509103716,-0.00018924348580650778,0.00030370082307656736,-0.0016533696098466383,0.0,0.0,0.0,0.0,0.0,0.0,0.0,7.349252700805664e-05,5.0020120568539106e-05,9.044906650379492e-05,-7.688319174969926e-05,-0.00017392642238531208,4.056133253715899e-06,1.525878241648293e-06,1.4258313622127966e-05,-0.0011146139313049272,0.000833906841951666,0.00044342395509103716,0.00018924348580650778,-0.00030370082307656736,0.0016533696098466383,0.14510458707809448,11.873926162719727,-1.3147919178009033,-21.693452835083008,-0.3674216866493225,-2.5207552909851074,0.16604940593242645,0
13,0.06000113487243652,-0.14510458707809448,-11.873926162719727,1.3147919178009033,21.693452835083008,0.3674216866493225,2.5207552909851074,-0.16604940593242645,0.0,0.0,0.0,0.0,0.0,0.0,0.0,-0.1473396059826441,0.47250184401307466,0.08129897529680373,0.4005020137404811,-0.16880252754362937,0.13014610689077766,-0.21661285551643,0.17280674509207405,-0.4875702669521218,-0.11156154979546516,-1.9463033031568808,0.133779828329881,2.5955463036456803,0.9452430330829488,0.1728802376190821,-0.48752024683155326,-0.11147110072896137,-1.9463801863486305,0.1336059019074957,2.595550359778934,0.9452445589611904,-1.4258313622127966e-05,0.0011146139313049272,-0.000833906841951666,-0.00044342395509103716,-0.00018924348580650778,0.00030370082307656736,-0.0016533696098466383,0.0,0.0,0.0,0.0,0.0,0.0,0.0,7.349252700805664e-05,5.0020120568539106e-05,9.044906650379492e-05,-7.688319174969926e-05,-0.00017392642238531208,4.056133253715899e-06,1.525878241648293e-06,1.4258313622127966e-05,-0.0011146139313049272,0.000833906841951666,0.00044342395509103716,0.00018924348580650778,-0.00030370082307656736,0.0016533696098466383,0.14510458707809448,11.873926162719727,-1.3147919178009033,-21.693452835083008,-0.3674216866493225,-2.5207552909851074,0.16604940593242645,0
14,0.06499886512756348,-0.04592245817184448,-11.873926162719727,1.2909882068634033,21.669649124145508,0.3555198311805725,2.5335726737976074,-0.20724813640117645,0.0,0.0,0.0,0.0,0.0,0.0,0.0,-0.14694705490239215,0.4839283195247748,0.08290047579636688,0.3923950275733598,-0.16875374947197133,0.12905573392849015,-0.21541880122632684,0.17279978494267711,-0.48756711192406266,-0.11155987936362882,-1.9463016238906137,0.1337811507582664,2.59554487933053,0.9452476107196676,0.1728802376190821,-0.48752024683155326,-0.11147110072896137,-1.9463801863486305,0.1336059019074957,2.595550359778934,0.9452445589611904,-0.001650906852472148,-1.0529004650789627e-06,-0.00012086364502444844,0.0002889657809272577,0.0004903137369739512,-0.0002139744800546746,0.0002113166455755596,0.0,0.0,0.0,0.0,0.0,0.0,0.0,8.04526764049962e-05,4.686509250939608e-05,8.877863466745517e-05,-7.856245801685091e-05,-0.0001752488507707206,5.480448403982763e-06,-3.051758477146116e-06,0.001650906852472148,1.0529004650789627e-06,0.00012086364502444844,-0.0002889657809272577,-0.0004903137369739512,0.0002139744800546746,-0.0002113166455755596,0.04592245817184448,11.873926162719727,-1.2909882068634033,-21.669649124145508,-0.3555198311805725,-2.5335726737976074,0.20724813640117645,0
15,0.06999897956848145,-0.04592245817184448,-11.873926162719727,1.2909882068634033,21.669649124145508,0.3555198311805725,2.5335726737976074,-0.20724813640117645,0.0,0.0,0.0,0.0,0.0,0.0,0.0,-0.14694705490239215,0.4839283195247748,0.08290047579636688,0.3923950275733598,-0.16875374947197133,0.12905573392849015,-0.21541880122632684,0.17279978494267711,-0.48756711192406266,-0.11155987936362882,-1.9463016238906137,0.1337811507582664,2.59554487933053,0.9452476107196676,0.1728802376190821,-0.48752024683155326,-0.11147110072896137,-1.9463801863486305,0.1336059019074957,2.595550359778934,0.9452445589611904,-0.001650906852472148,-1.0529004650789627e-06,-0.00012086364502444844,0.0002889657809272577,0.0004903137369739512,-0.0002139744800546746,0.0002113166455755596,0.0,0.0,0.0,0.0,0.0,0.0,0.0,8.04526764049962e-05,4.686509250939608e-05,8.877863466745517e-05,-7.856245801685091e-05,-0.0001752488507707206,5.480448403982763e-06,-3.051758477146116e-06,0.001650906852472148,1.0529004650789627e-06,0.00012086364502444844,-0.0002889657809272577,-0.0004903137369739512,0.0002139744800546746,-0.0002113166455755596,0.04592245817184448,11.873926162719727,-1.2909882068634033,-21.669649124145508,-0.3555198311805725,-2.5335726737976074,0.20724813640117645,0
16,0.07500720024108887,-0.14510458707809448,-11.925500869750977,1.2433807849884033,21.693452835083008,0.3619285225868225,2.5143465995788574,-0.20083944499492645,0.0,0.0,0.0,0.0,0.0,0.0,0.0,-0.15356406659560612,0.48176868397433786,0.06872586737804129,0.38827695455011996,-0.16779290990145312,0.128956180480175,-0.2142913515005511,0.17280674509207405,-0.487563495553163,-0.11155653849191832,-1.9463035318001904,0.13378043868144351,2.5955470155609977,0.9452468986428446,0.1728802376190821,-0.48752024683155326,-0.11147110072896137,-1.9463801863486305,0.1336059019074957,2.595550359778934,0.9452445589611904,-0.0005240837125810878,0.0015031933080313848,0.0007914578762348303,-0.00050752991250912,7.119528978457715e-05,0.0006529052686572575,-0.0004529447093460681,0.0,0.0,0.0,0.0,0.0,0.0,0.0,7.349252700805664e-05,4.324872160971216e-05,8.543776295695527e-05,-7.665454844008046e-05,-0.0001745367739478254,3.3442179363518676e-06,-2.3396816541954024e-06,0.0005240837125810878,-0.0015031933080313848,-0.0007914578762348303,0.00050752991250912,-7.119528978457715e-05,-0.0006529052686572575,0.0004529447093460681,0.14510458707809448,11.925500869750977,-1.2433807849884033,-21.693452835083008,-0.3619285225868225,-2.5143465995788574,0.20083944499492645,0
17,0.08000612258911133,-0.14510458707809448,-11.925500869750977,1.2433807849884033,21.693452835083008,0.3619285225868225,2.5143465995788574,-0.20083944499492645,0.0,0.0,0.0,0.0,0.0,0.0,0.0,-0.15356406659560612,0.48176868397433786,0.06872586737804129,0.38827695455011996,-0.16779290990145312,0.128956180480175,-0.2142913515005511,0.17280674509207405,-0.487563495553163,-0.11155653849191832,-1.9463035318001904,0.13378043868144351,2.5955470155609977,0.9452468986428446,0.1728802376190821,-0.48752024683155326,-0.11147110072896137,-1.9463801863486305,0.1336059019074957,2.595550359778934,0.9452445589611904,-0.0005240837125810878,0.0015031933080313848,0.0007914578762348303,-0.00050752991250912,7.119528978457715e-05,0.0006529052686572575,-0.0004529447093460681,0.0,0.0,0.0,0.0,0.0,0.0,0.0,7.349252700805664e-05,4.324872160971216e-05,8.543776295695527e-05,-7.665454844008046e-05,-0.0001745367739478254,3.3442179363518676e-06,-2.3396816541954024e-06,0.0005240837125810878,-0.0015031933080313848,-0.0007914578762348303,0.00050752991250912,-7.119528978457715e-05,-0.0006529052686572575,0.0004529447093460681,0.14510458707809448,11.925500869750977,-1.2433807849884033,-21.693452835083008,-0.3619285225868225,-2.5143465995788574,0.20083944499492645,0
18,0.0850071907043457,-0.17287558317184448,-11.850122451782227,1.1918060779571533,21.693452835083008,0.3738303780555725,2.5143465995788574,-0.19351522624492645,0.0,0.0,0.0,0.0,0.0,0.0,0.0,-0.14919032800023319,0.47457095482983735,0.07383546593202153,0.38612699885703605,-0.16826823716281775,0.1283093197619362,-0.21466675356111978,0.1728086939339052,-0.48756880844950157,-0.11155291921423191,-1.9463036407814607,0.13377911625305808,2.5955470155609977,0.9452460848407613,0.1728802376190821,-0.48752024683155326,-0.11147110072896137,-1.9463801863486305,0.1336059019074957,2.595550359778934,0.9452445589611904,0.0005885612284472543,-0.0004663882232729841,0.0014597569832230247,-0.0010201170024612116,-0.0003055517085322638,0.00038058394051563145,-0.000688679893273966,0.0,0.0,0.0,0.0,0.0,0.0,0.0,7.154368517692244e-05,4.856161794830616e-05,8.181848527054336e-05,-7.654556716985006e-05,-0.00017321434556238913,3.3442179363518676e-06,-1.5258795709183204e-06,-0.0005885612284472543,0.0004663882232729841,-0.0014597569832230247,0.0010201170024612116,0.0003055517085322638,-0.00038058394051563145,0.000688679893273966,0.17287558317184448,11.850122451782227,-1.1918060779571533,-21.693452835083008,-0.3738303780555725,-2.5143465995788574,0.19351522624492645,0
19,0.08999919891357422,-0.17287558317184448,-11.850122451782227,1.1918060779571533,21.693452835083008,0.3738303780555725,2.5143465995788574,-0.19351522624492645,0.0,0.0,0.0,0.0,0.0,0.0,0.0,-0.14919032800023319,0.47457095482983735,0.07383546593202153,0.38612699885703605,-0.16826823716281775,0.1283093197619362,-0.21466675356111978,0.1728086939339052,-0.48756880844950157,-0.11155291921423191,-1.9463036407814607,0.13377911625305808,2.5955470155609977,0.9452460848407613,0.1728802376190821,-0.48752024683155326,-0.11147110072896137,-1.9463801863486305,0.1336059019074957,2.595550359778934,0.9452445589611904,0.0005885612284472543,-0.0004663882232729841,0.0014597569832230247,-0.0010201170024612116,-0.0003055517085322638,0.00038058394051563145,-0.000688679893273966,0.0,0.0,0.0,0.0,0.0,0.0,0.0,7.154368517692244e-05,4.856161794830616e-05,8.181848527054336e-05,-7.654556716985006e-05,-0.00017321434556238913,3.3442179363518676e-06,-1.5258795709183204e-06,-0.0005885612284472543,0.0004663882232729841,-0.0014597569832230247,0.0010201170024612116,0.0003055517085322638,-0.00038058394051563145,0.000688679893273966,0.17287558317184448,11.850122451782227,-1.1918060779571533,-21.693452835083008,-0.3738303780555725,-2.5143465995788574,0.19351522624492645,0
20,0.09499907493591309,-0.14510458707809448,-11.901697158813477,1.1680023670196533,21.717256546020508,0.3738303780555725,2.5335726737976074,-0.20724813640117645,0.0,0.0,0.0,0.0,0.0,0.0,0.0,-0.15434886777994125,0.4467576559219424,0.06534240754517184,0.39533887344499297,-0.1681680303906522,0.12904484918419729,-0.2149904037119057,0.17280674509207405,-0.4875651630645686,-0.11155122241006672,-1.9463049642191486,0.13377911625305808,2.595544879330529,0.9452476107196676,0.1728802376190821,-0.48752024683155326,-0.11147110072896137,-1.9463801863486305,0.1336059019074957,2.595550359778934,0.9452445589611904,-0.0013110345235566557,-0.00020135910318100616,0.001642887438307297,-0.0008813621978466453,-0.00031499851830836534,-0.0001818606458665039,0.00038047100039198816,0.0,0.0,0.0,0.0,0.0,0.0,0.0,7.349252700805664e-05,4.4916233015335205e-05,8.012168110535511e-05,-7.52221294819666e-05,-0.00017321434556238913,5.480448404870941e-06,-3.051758477146116e-06,0.0013110345235566557,0.00020135910318100616,-0.001642887438307297,0.0008813621978466453,0.00031499851830836534,0.0001818606458665039,-0.00038047100039198816,0.14510458707809448,11.901697158813477,-1.1680023670196533,-21.717256546020508,-0.3738303780555725,-2.5335726737976074,0.20724813640117645,0
21,0.09999465942382812,-0.14510458707809448,-11.901697158813477,1.1680023670196533,21.717256546020508,0.3738303780555725,2.5335726737976074,-0.20724813640117645,0.0,0.0,0.0,0.0,0.0,0.0,0.0,-0.15434886777994125,0.4467576559219424,0.06534240754517184,0.39533887344499297,-0.1681680303906522,0.12904484918419729,-0.2149904037119057,0.17280674509207405,-0.4875651630645686,-0.11155122241006672,-1.9463049642191486,0.13377911625305808,2.595544879330529,0.9452476107196676,0.1728802376190821,-0.48752024683155326,-0.11147110072896137,-1.9463801863486305,0.1336059019074957,2.595550359778934,0.9452445589611904,-0.0013110345235566557,-0.00020135910318100616,0.001642887438307297,-0.0008813621978466453,-0.00031499851830836534,-0.0001818606458665039,0.00038047100039198816,0.0,0.0,0.0,0.0,0.0,0.0,0.0,7.349252700805664e-05,4.4916233015335205e-05,8.012168110535511e-05,-7.52221294819666e-05,-0.00017321434556238913,5.480448404870941e-06,-3.051758477146116e-06,0.0013110345235566557,0.00020135910318100616,-0.001642887438307297,0.0008813621978466453,0.00031499851830836534,0.0001818606458665039,-0.00038047100039198816,0.14510458707809448,11.901697158813477,-1.1680023670196533,-21.717256546020508,-0.3738303780555725,-2.5335726737976074,0.20724813640117645,0
22,0.1049950122833252,-0.17287558317184448,-11.949304580688477,1.2433807849884033,21.717256546020508,0.3674216866493225,2.5335726737976074,-0.22830526530742645,0.0,0.0,0.0,0.0,0.0,0.0,0.0,-0.15340263564331538,0.42861435380287194,0.06666958879549154,0.3970574942799063,-0.16847687996406513,0.1293259087296166,-0.21444139914800356,0.1728086939339052,-0.4875618221927107,-0.11155652970233283,-1.9463050436900495,0.133779828329881,2.595544879330529,0.9452499504006571,0.1728802376190821,-0.48752024683155326,-0.11147110072896137,-1.9463801863486305,0.1336059019074957,2.595550359778934,0.9452445589611904,0.00020540440626336945,-0.0006280471036719604,-0.00041748190021191476,-0.0005490473264023837,0.00012698114007848646,0.00014248591688020628,0.0007267997539616973,0.0,0.0,0.0,0.0,0.0,0.0,0.0,7.154368517692244e-05,4.1575361157453194e-05,8.542897337146527e-05,-7.514265858099556e-05,-0.00017392642238531208,5.480448404870941e-06,-5.3914394666509935e-06,-0.00020540440626336945,0.0006280471036719604,0.00041748190021191476,0.0005490473264023837,-0.00012698114007848646,-0.00014248591688020628,-0.0007267997539616973,0.17287558317184448,11.949304580688477,-1.2433807849884033,-21.717256546020508,-0.3674216866493225,-2.5335726737976074,0.22830526530742645,0
23,0.10999298095703125,-0.17287558317184448,-11.949304580688477,1.2433807849884033,21.717256546020508,0.3674216866493225,2.5335726737976074,-0.22830526530742645,0.0,0.0,0.0,0.0,0.0,0.0,0.0,-0.15340263564331538,0.42861435380287194,0.06666958879549154,0.3970574942799063,-0.16847687996406513,0.1293259087296166,-0.21444139914800356,0.1728086939339052,-0.4875618221927107,-0.11155652970233283,-1.9463050436900495,0.133779828329881,2.595544879330529,0.9452499504006571,0.1728802376190821,-0.48752024683155326,-0.11147110072896137,-1.9463801863486305,0.1336059019074957,2.595550359778934,0.9452445589611904,0.00020540440626336945,-0.0006280471036719604,-0.00041748190021191476,-0.0005490473264023837,0.00012698114007848646,0.00014248591688020628,0.0007267997539616973,0.0,0.0,0.0,0.0,0.0,0.0,0.0,7.154368517692244e-05,4.1575361157453194e-05,8.542897337146527e-05,-7.514265858099556e-05,-0.00017392642238531208,5.480448404870941e-06,-5.3914394666509935e-06,-0.00020540440626336945,0.0006280471036719604,0.00041748190021191476,0.0005490473264023837,-0.00012698114007848646,-0.00014248591688020628,-0.0007267997539616973,0.17287558317184448,11.949304580688477,-1.2433807849884033,-21.717256546020508,-0.3674216866493225,-2.5335726737976074,0.22830526530742645,0
24,0.11499333381652832,-0.09352988004684448,-11.925500869750977,1.2909882068634033,21.693452835083008,0.3619285225868225,2.5207552909851074,-0.24112264811992645,0.0,0.0,0.0,0.0,0.0,0.0,0.0,-0.1450243912877959,0.4286175363738896,0.07812823998584899,0.38895737492450655,-0.16864171025673053,0.12834680617465516,-0.2149524400154917,0.17280312581438764,-0.48756349262856596,-0.11155987936357922,-1.9463040086014556,0.13378043868144351,2.595546303484175,0.945251374554303,0.1728802376190821,-0.48752024683155326,-0.11147110072896137,-1.9463801863486305,0.1336059019074957,2.595550359778934,0.9452445589611904,-0.0006869239804222153,-0.001089880048835879,2.7724667314345848e-05,-0.00018368171980643773,0.00023779161400845478,0.0003749884689925589,0.0012681811217579834,0.0,0.0,0.0,0.0,0.0,0.0,0.0,7.711180469446854e-05,4.3245797012703147e-05,8.877863461785596e-05,-7.617774717494363e-05,-0.0001745367739478254,4.056294759191559e-06,-6.8155931125524205e-06,0.0006869239804222153,0.001089880048835879,-2.7724667314345848e-05,0.00018368171980643773,-0.00023779161400845478,-0.0003749884689925589,-0.0012681811217579834,0.09352988004684448,11.925500869750977,-1.2909882068634033,-21.693452835083008,-0.3619285225868225,-2.5207552909851074,0.24112264811992645,0
25,0.11999392509460449,-0.09352988004684448,-11.925500869750977,1.2909882068634033,21.693452835083008,0.3619285225868225,2.5207552909851074,-0.24112264811992645,0.0,0.0,0.0,0.0,0.0,0.0,0.0,-0.1450243912877959,0.4286175363738896,0.07812823998584899,0.38895737492450655,-0.16864171025673053,0.12834680617465516,-0.2149524400154917,0.17280312581438764,-0.48756349262856596,-0.11155987936357922,-1.9463040086014556,0.13378043868144351,2.595546303484175,0.945251374554303,0.1728802376190821,-0.48752024683155326,-0.11147110072896137,-1.9463801863486305,0.1336059019074957,2.595550359778934,0.9452445589611904,-0.0006869239804222153,-0.001089880048835879,2.7724667314345848e-05,-0.00018368171980643773,0.00023779161400845478,0.0003749884689925589,0.0012681811217579834,0.0,0.0,0.0,0.0,0.0,0.0,0.0,7.711180469446854e-05,4.3245797012703147e-05,8.877863461785596e-05,-7.617774717494363e-05,-0.0001745367739478254,4.056294759191559e-06,-6.8155931125524205e-06,0.0006869239804222153,0.001089880048835879,-2.7724667314345848e-05,0.00018368171980643773,-0.00023779161400845478,-0.0003749884689925589,-0.0012681811217579834,0.09352988004684448,11.925500869750977,-1.2909882068634033,-21.693452835083008,-0.3619285225868225,-2.5207552909851074,0.24112264811992645,0
26,0.12499594688415527,-0.09352988004684448,-11.925500869750977,1.2909882068634033,21.693452835083008,0.3619285225868225,2.5207552909851074,-0.24112264811992645,0.0,0.0,0.0,0.0,0.0,0.0,0.0,-0.1450243912877959,0.4286175363738896,0.07812823998584899,0.38895737492450655,-0.16864171025673053,0.12834680617465516,-0.2149524400154917,0.17280312581438764,-0.48756349262856596,-0.11155987936357922,-1.9463040086014556,0.13378043868144351,2.595546303484175,0.945251374554303,0.1728802376190821,-0.48752024683155326,-0.11147110072896137,-1.9463801863486305,0.1336059019074957,2.595550359778934,0.9452445589611904,-0.0006869239804222153,-0.001089880048835879,2.7724667314345848e-05,-0.00018368171980643773,0.00023779161400845478,0.0003749884689925589,0.0012681811217579834,0.0,0.0,0.0,0.0,0.0,0.0,0.0,7.711180469446854e-05,4.3245797012703147e-05,8.877863461785596e-05,-7.617774717494363e-05,-0.0001745367739478254,4.056294759191559e-06,-6.8155931125524205e-06,0.0006869239804222153,0.001089880048835879,-2.7724667314345848e-05,0.00018368171980643773,-0.00023779161400845478,-0.0003749884689925589,-0.0012681811217579834,0.09352988004684448,11.925500869750977,-1.2909882068634033,-21.693452835083008,-0.3619285225868225,-2.5207552909851074,0.24112264811992645,0
27,0.12999749183654785,-0.09352988004684448,-11.925500869750977,1.2909882068634033,21.693452835083008,0.3619285225868225,2.5207552909851074,-0.24112264811992645,0.0,0.0,0.0,0.0,0.0,0.0,0.0,-0.1450243912877959,0.4286175363738896,0.07812823998584899,0.38895737492450655,-0.16864171025673053,0.12834680617465516,-0.2149524400154917,0.17280312581438764,-0.48756349262856596,-0.11155987936357922,-1.9463040086014556,0.13378043868144351,2.595546303484175,0.945251374554303,0.1728802376190821,-0.48752024683155326,-0.11147110072896137,-1.9463801863486305,0.1336059019074957,2.595550359778934,0.9452445589611904,-0.0006869239804222153,-0.001089880048835879,2.7724667314345848e-05,-0.00018368171980643773,0.00023779161400845478,0.0003749884689925589,0.0012681811217579834,0.0,0.0,0.0,0.0,0.0,0.0,0.0,7.711180469446854e-05,4.3245797012703147e-05,8.877863461785596e-05,-7.617774717494363e-05,-0.0001745367739478254,4.056294759191559e-06,-6.8155931125524205e-06,0.0006869239804222153,0.001089880048835879,-2.7724667314345848e-05,0.00018368171980643773,-0.00023779161400845478,-0.0003749884689925589,-0.0012681811217579834,0.09352988004684448,11.925500869750977,-1.2909882068634033,-21.693452835083008,-0.3619285225868225,-2.5207552909851074,0.24112264811992645,0
28,0.1349947452545166,-0.12130087614059448,-11.850122451782227,1.3147919178009033,21.693452835083008,0.3674216866493225,2.5271639823913574,-0.17337362468242645,0.0,0.0,0.0,0.0,0.0,0.0,0.0,-0.1473282549925258,0.4669325468374161,0.06742485968511494,0.3661764606159264,-0.16744431675218976,0.12511033186503065,-0.21663626263351632,0.17280507465621878,-0.4875687823421076,-0.1115615497994841,-1.9463054656074699,0.133779828329881,2.595545591407352,0.9452438468850322,0.1728802376190821,-0.48752024683155326,-0.11147110072896137,-1.9463801863486305,0.1336059019074957,2.595550359778934,0.9452445589611904,-0.00012104873348016277,0.00048802048702999905,-0.0006665638392818466,-0.0007969951067508656,-2.396233065223996e-05,-0.00011861514673155811,-0.0016381611142813482,0.0,0.0,0.0,0.0,0.0,0.0,0.0,7.516296286333435e-05,4.853551055433725e-05,9.044907052273288e-05,-7.472074116066096e-05,-0.00017392642238531208,4.76837158203125e-06,7.120761582601887e-07,0.00012104873348016277,-0.00048802048702999905,0.0006665638392818466,0.0007969951067508656,2.396233065223996e-05,0.00011861514673155811,0.0016381611142813482,0.12130087614059448,11.850122451782227,-1.3147919178009033,-21.693452835083008,-0.3674216866493225,-2.5271639823913574,0.17337362468242645,0
29,0.1400136947631836,-0.12130087614059448,-11.850122451782227,1.3147919178009033,21.693452835083008,0.3674216866493225,2.5271639823913574,-0.17337362468242645,0.0,0.0,0.0,0.0,0.0,0.0,0.0,-0.1473282549925258,0.4669325468374161,0.06742485968511494,0.3661764606159264,-0.16744431675218976,0.12511033186503065,-0.21663626263351632,0.17280507465621878,-0.4875687823421076,-0.1115615497994841,-1.9463054656074699,0.133779828329881,2.595545591407352,0.9452438468850322,0.1728802376190821,-0.48752024683155326,-0.11147110072896137,-1.9463801863486305,0.1336059019074957,2.595550359778934,0.9452445589611904,-0.00012104873348016277,0.00048802048702999905,-0.0006665638392818466,-0.0007969951067508656,-2.396233065223996e-05,-0.00011861514673155811,-0.0016381611142813482,0.0,0.0,0.0,0.0,0.0,0.0,0.0,7.516296286333435e-05,4.853551055433725e-05,9.044907052273288e-05,-7.472074116066096e-05,-0.00017392642238531208,4.76837158203125e-06,7.120761582601887e-07,0.00012104873348016277,-0.00048802048702999905,0.0006665638392818466,0.0007969951067508656,2.396233065223996e-05,0.00011861514673155811,0.0016381611142813482,0.12130087614059448,11.850122451782227,-1.3147919178009033,-21.693452835083008,-0.3674216866493225,-2.5271639823913574,0.17337362468242645,0
30,0.1450197696685791,-0.12130087614059448,-11.850122451782227,1.3147919178009033,21.693452835083008,0.3674216866493225,2.5271639823913574,-0.17337362468242645,0.0,0.0,0.0,0.0,0.0,0.0,0.0,-0.1473282549925258,0.4669325468374161,0.06742485968511494,0.3661764606159264,-0.16744431675218976,0.12511033186503065,-0.21663626263351632,0.17280507465621878,-0.4875687823421076,-0.1115615497994841,-1.9463054656074699,0.133779828329881,2.595545591407352,0.9452438468850322,0.1728802376190821,-0.48752024683155326,-0.11147110072896137,-1.9463801863486305,0.1336059019074957,2.595550359778934,0.9452445589611904,-0.00012104873348016277,0.00048802048702999905,-0.0006665638392818466,-0.0007969951067508656,-2.396233065223996e-05,-0.00011861514673155811,-0.0016381611142813482,0.0,0.0,0.0,0.0,0.0,0.0,0.0,7.516296286333435e-05,4.853551055433725e-05,9.044907052273288e-05,-7.472074116066096e-05,-0.00017392642238531208,4.76837158203125e-06,7.120761582601887e-07,0.00012104873348016277,-0.00048802048702999905,0.0006665638392818466,0.0007969951067508656,2.396233065223996e-05,0.00011861514673155811,0.0016381611142813482,0.12130087614059448,11.850122451782227,-1.3147919178009033,-21.693452835083008,-0.3674216866493225,-2.5271639823913574,0.17337362468242645,0
31,0.14999890327453613,-0.14510458707809448,-11.750940322875977,1.2909882068634033,21.717256546020508,0.3619285225868225,2.5271639823913574,-0.16604940593242645,0.0,0.0,0.0,0.0,0.0,0.0,0.0,-0.14724339720002305,0.4518975050841423,0.0650943310023075,0.3846699811098051,-0.16652548067497108,0.12772281252670564,-0.216935282042089,0.17280674509207405,-0.48757784852228664,-0.11155987903809415,-1.9463050462096838,0.13378043868144351,2.595545709144922,0.945243153763958,0.1728802376190821,-0.48752024683155326,-0.11147110072896137,-1.9463801863486305,0.1336059019074957,2.595550359778934,0.9452445589611904,-8.393882624747626e-05,-0.0002513256308847394,-0.00023169828475091462,-0.0005677988040263141,0.00011387884957744161,-0.00011852530849753304,-0.0015518389773839327,0.0,0.0,0.0,0.0,0.0,0.0,0.0,7.349252700805664e-05,5.760169073337762e-05,8.87783091327865e-05,-7.514013894671656e-05,-0.0001745367739478254,4.650634012115518e-06,1.4051972324624629e-06,8.393882624747626e-05,0.0002513256308847394,0.00023169828475091462,0.0005677988040263141,-0.00011387884957744161,0.00011852530849753304,0.0015518389773839327,0.14510458707809448,11.750940322875977,-1.2909882068634033,-21.717256546020508,-0.3619285225868225,-2.5271639823913574,0.16604940593242645,0
32,0.15496182441711426,-0.14510458707809448,-11.750940322875977,1.2909882068634033,21.717256546020508,0.3619285225868225,2.5271639823913574,-0.16604940593242645,0.0,0.0,0.0,0.0,0.0,0.0,0.0,-0.14724339720002305,0.4518975050841423,0.0650943310023075,0.3846699811098051,-0.16652548067497108,0.12772281252670564,-0.216935282042089,0.17280674509207405,-0.48757784852228664,-0.11155987903809415,-1.9463050462096838,0.13378043868144351,2.595545709144922,0.945243153763958,0.1728802376190821,-0.48752024683155326,-0.11147110072896137,-1.9463801863486305,0.1336059019074957,2.595550359778934,0.9452445589611904,-8.393882624747626e-05,-0.0002513256308847394,-0.00023169828475091462,-0.0005677988040263141,0.00011387884957744161,-0.00011852530849753304,-0.0015518389773839327,0.0,0.0,0.0,0.0,0.0,0.0,0.0,7.349252700805664e-05,5.760169073337762e-05,8.87783091327865e-05,-7.514013894671656e-05,-0.0001745367739478254,4.650634012115518e-06,1.4051972324624629e-06,8.393882624747626e-05,0.0002513256308847394,0.00023169828475091462,0.0005677988040263141,-0.00011387884957744161,0.00011852530849753304,0.0015518389773839327,0.14510458707809448,11.750940322875977,-1.2909882068634033,-21.717256546020508,-0.3619285225868225,-2.5271639823913574,0.16604940593242645,0
33,0.15999770164489746,-0.14510458707809448,-11.750940322875977,1.2671844959259033,21.669649124145508,0.3674216866493225,2.5079379081726074,-0.19351522624492645,0.0,0.0,0.0,0.0,0.0,0.0,0.0,-0.14655305204751945,0.46127735665062974,0.06735008970032606,0.3934543494581404,-0.1670340930579816,0.12781272679759254,-0.21572406284322973,0.17280674509207405,-0.4875758208255256,-0.11155820892777174,-1.9463038569802666,0.133779828329881,2.5955477276384853,0.9452460848414426,0.1728802376190821,-0.48752024683155326,-0.11147110072896137,-1.9463801863486305,0.1336059019074957,2.595550359778934,0.9452445589611904,-0.0003304285697486644,-5.801879599492711e-05,-0.0003285111157961073,-0.0002892230855170377,4.913607993274524e-06,0.000461111658408278,-0.0006516181168520765,0.0,0.0,0.0,0.0,0.0,0.0,0.0,7.349252700805664e-05,5.557399397232432e-05,8.710819881037335e-05,-7.632936836388104e-05,-0.00017392642238531208,2.6321404487106292e-06,-1.5258802521511683e-06,0.0003304285697486644,5.801879599492711e-05,0.0003285111157961073,0.0002892230855170377,-4.913607993274524e-06,-0.000461111658408278,0.0006516181168520765,0.14510458707809448,11.750940322875977,-1.2671844959259033,-21.669649124145508,-0.3674216866493225,-2.5079379081726074,0.19351522624492645,0
34,0.16499805450439453,-0.14510458707809448,-11.750940322875977,1.2671844959259033,21.669649124145508,0.3674216866493225,2.5079379081726074,-0.19351522624492645,0.0,0.0,0.0,0.0,0.0,0.0,0.0,-0.14655305204751945,0.46127735665062974,0.06735008970032606,0.3934543494581404,-0.1670340930579816,0.12781272679759254,-0.21572406284322973,0.17280674509207405,-0.4875758208255256,-0.11155820892777174,-1.9463038569802666,0.133779828329881,2.5955477276384853,0.9452460848414426,0.1728802376190821,-0.48752024683155326,-0.11147110072896137,-1.9463801863486305,0.1336059019074957,2.595550359778934,0.9452445589611904,-0.0003304285697486644,-5.801879599492711e-05,-0.0003285111157961073,-0.0002892230855170377,4.913607993274524e-06,0.000461111658408278,-0.0006516181168520765,0.0,0.0,0.0,0.0,0.0,0.0,0.0,7.349252700805664e-05,5.557399397232432e-05,8.710819881037335e-05,-7.632936836388104e-05,-0.00017392642238531208,2.6321404487106292e-06,-1.5258802521511683e-06,0.0003304285697486644,5.801879599492711e-05,0.0003285111157961073,0.0002892230855170377,-4.913607993274524e-06,-0.000461111658408278,0.0006516181168520765,0.14510458707809448,11.750940322875977,-1.2671844959259033,-21.669649124145508,-0.3674216866493225,-2.5079379081726074,0.19351522624492645,0
35,0.1699991226196289,-0.14510458707809448,-11.826318740844727,1.2433807849884033,21.693452835083008,0.3738303780555725,2.5271639823913574,-0.17337362468242645,0.0,0.0,0.0,0.0,0.0,0.0,0.0,-0.14447929661548575,0.4619838828018636,0.07303126962348634,0.40409202425878366,-0.16714854117035147,0.1285353283595282,-0.21627220319781676,0.17280674509207405,-0.48757045374138214,-0.11155653849191832,-1.946304035104569,0.13377911625305808,2.595545591407352,0.9452438468850322,0.1728802376190821,-0.48752024683155326,-0.11147110072896137,-1.9463801863486305,0.1336059019074957,2.595550359778934,0.9452445589611904,-0.000510348384844726,0.0006786890475042568,0.0008143098872779436,-0.0006114750147214853,-0.00031206500703891984,5.3916968591135645e-05,-0.0017573414179174554,0.0,0.0,0.0,0.0,0.0,0.0,0.0,7.349252700805664e-05,5.020690982887599e-05,8.543776295695527e-05,-7.615124406146201e-05,-0.00017321434556238913,4.76837158203125e-06,7.120761582601887e-07,0.000510348384844726,-0.0006786890475042568,-0.0008143098872779436,0.0006114750147214853,0.00031206500703891984,-5.3916968591135645e-05,0.0017573414179174554,0.14510458707809448,11.826318740844727,-1.2433807849884033,-21.693452835083008,-0.3738303780555725,-2.5271639823913574,0.17337362468242645,0
36,0.17499661445617676,-0.14510458707809448,-11.826318740844727,1.2433807849884033,21.693452835083008,0.3738303780555725,2.5271639823913574,-0.17337362468242645,0.0,0.0,0.0,0.0,0.0,0.0,0.0,-0.14447929661548575,0.4619838828018636,0.07303126962348634,0.40409202425878366,-0.16714854117035147,0.1285353283595282,-0.21627220319781676,0.17280674509207405,-0.48757045374138214,-0.11155653849191832,-1.946304035104569,0.13377911625305808,2.595545591407352,0.9452438468850322,0.1728802376190821,-0.48752024683155326,-0.11147110072896137,-1.9463801863486305,0.1336059019074957,2.595550359778934,0.9452445589611904,-0.000510348384844726,0.0006786890475042568,0.0008143098872779436,-0.0006114750147214853,-0.00031206500703891984,5.3916968591135645e-05,-0.0017573414179174554,0.0,0.0,0.0,0.0,0.0,0.0,0.0,7.349252700805664e-05,5.020690982887599e-05,8.543776295695527e-05,-7.615124406146201e-05,-0.00017321434556238913,4.76837158203125e-06,7.120761582601887e-07,0.000510348384844726,-0.0006786890475042568,-0.0008143098872779436,0.0006114750147214853,0.00031206500703891984,-5.3916968591135645e-05,0.0017573414179174554,0.14510458707809448,11.826318740844727,-1.2433807849884033,-21.693452835083008,-0.3738303780555725,-2.5271639823913574,0.17337362468242645,0
37,0.18024230003356934,-0.12130087614059448,-11.802515029907227,1.2671844959259033,21.693452835083008,0.3674216866493225,2.5335726737976074,-0.16604940593242645,0.0,0.0,0.0,0.0,0.0,0.0,0.0,-0.14132550295791516,0.48807078966181616,0.0795516717680634,0.39614344314027045,-0.1677237063311293,0.1277591631115717,-0.2179324717213343,0.17280507465621878,-0.4875722112013922,-0.11155820889160306,-1.9463061573158429,0.133779828329881,2.595544879330529,0.9452430330829488,0.1728802376190821,-0.48752024683155326,-0.11147110072896137,-1.9463801863486305,0.1336059019074957,2.595550359778934,0.9452445589611904,-0.00020894428664112815,-0.00012196706708096397,0.00020624896098668557,-2.6334068781589513e-05,-0.00016742182579145123,-0.00017084879315091151,-0.001703185882904565,0.0,0.0,0.0,0.0,0.0,0.0,0.0,7.516296286333435e-05,5.1964369838952695e-05,8.710816264169419e-05,-7.402903278763695e-05,-0.00017392642238531208,5.480448404870941e-06,1.525878241648293e-06,0.00020894428664112815,0.00012196706708096397,-0.00020624896098668557,2.6334068781589513e-05,0.00016742182579145123,0.00017084879315091151,0.001703185882904565,0.12130087614059448,11.802515029907227,-1.2671844959259033,-21.693452835083008,-0.3674216866493225,-2.5335726737976074,0.16604940593242645,0
38,0.1849963665008545,-0.12130087614059448,-11.802515029907227,1.2671844959259033,21.693452835083008,0.3674216866493225,2.5335726737976074,-0.16604940593242645,0.0,0.0,0.0,0.0,0.0,0.0,0.0,-0.14132550295791516,0.48807078966181616,0.0795516717680634,0.39614344314027045,-0.1677237063311293,0.1277591631115717,-0.2179324717213343,0.17280507465621878,-0.4875722112013922,-0.11155820889160306,-1.9463061573158429,0.133779828329881,2.595544879330529,0.9452430330829488,0.1728802376190821,-0.48752024683155326,-0.11147110072896137,-1.9463801863486305,0.1336059019074957,2.595550359778934,0.9452445589611904,-0.00020894428664112815,-0.00012196706708096397,0.00020624896098668557,-2.6334068781589513e-05,-0.00016742182579145123,-0.00017084879315091151,-0.001703185882904565,0.0,0.0,0.0,0.0,0.0,0.0,0.0,7.516296286333435e-05,5.1964369838952695e-05,8.710816264169419e-05,-7.402903278763695e-05,-0.00017392642238531208,5.480448404870941e-06,1.525878241648293e-06,0.00020894428664112815,0.00012196706708096397,-0.00020624896098668557,2.6334068781589513e-05,0.00016742182579145123,0.00017084879315091151,0.001703185882904565,0.12130087614059448,11.802515029907227,-1.2671844959259033,-21.693452835083008,-0.3674216866493225,-2.5335726737976074,0.16604940593242645,0
39,0.18999695777893066,-0.14510458707809448,-11.873926162719727,1.2909882068634033,21.641878128051758,0.3674216866493225,2.5271639823913574,-0.19351522624492645,0.0,0.0,0.0,0.0,0.0,0.0,0.0,-0.14476064699385693,0.49003361817279045,0.07094965818035916,0.39544801500450916,-0.16688979194036593,0.12774089418513648,-0.21726465316470653,0.17280674509207405,-0.48756734591016926,-0.11155987936362864,-1.946299674083748,0.133779828329881,2.595545591407352,0.9452460848407613,0.1728802376190821,-0.48752024683155326,-0.11147110072896137,-1.9463801863486305,0.1336059019074957,2.595550359778934,0.9452445589611904,0.00033708355777941593,0.0006835603875478217,1.2106427085285395e-05,0.001151335126265176,-0.0032334277799684736,-0.0001574047138257595,-0.0006743305483017578,0.0,0.0,0.0,0.0,0.0,0.0,0.0,7.349252700805664e-05,4.709907861599749e-05,8.877863466727476e-05,-8.051226488259289e-05,-0.00017392642238531208,4.76837158203125e-06,-1.5258795709183204e-06,-0.00033708355777941593,-0.0006835603875478217,-1.2106427085285395e-05,-0.001151335126265176,0.0032334277799684736,0.0001574047138257595,0.0006743305483017578,0.14510458707809448,11.873926162719727,-1.2909882068634033,-21.641878128051758,-0.3674216866493225,-2.5271639823913574,0.19351522624492645,0
40,0.19499921798706055,-0.14510458707809448,-11.873926162719727,1.2909882068634033,21.641878128051758,0.3674216866493225,2.5271639823913574,-0.19351522624492645,0.0,0.0,0.0,0.0,0.0,0.0,0.0,-0.14476064699385693,0.49003361817279045,0.07094965818035916,0.39544801500450916,-0.16688979194036593,0.12774089418513648,-0.21726465316470653,0.17280674509207405,-0.48756734591016926,-0.11155987936362864,-1.946299674083748,0.133779828329881,2.595545591407352,0.9452460848407613,0.1728802376190821,-0.48752024683155326,-0.11147110072896137,-1.9463801863486305,0.1336059019074957,2.595550359778934,0.9452445589611904,0.00033708355777941593,0.0006835603875478217,1.2106427085285395e-05,0.001151335126265176,-0.0032334277799684736,-0.0001574047138257595,-0.0006743305483017578,0.0,0.0,0.0,0.0,0.0,0.0,0.0,7.349252700805664e-05,4.709907861599749e-05,8.877863466727476e-05,-8.051226488259289e-05,-0.00017392642238531208,4.76837158203125e-06,-1.5258795709183204e-06,-0.00033708355777941593,-0.0006835603875478217,-1.2106427085285395e-05,-0.001151335126265176,0.0032334277799684736,0.0001574047138257595,0.0006743305483017578,0.14510458707809448,11.873926162719727,-1.2909882068634033,-21.641878128051758,-0.3674216866493225,-2.5271639823913574,0.19351522624492645,0
41,0.20000791549682617,-0.14510458707809448,-11.850122451782227,1.2156097888946533,21.641878128051758,0.3619285225868225,2.5271639823913574,-0.15964071452617645,0.0,0.0,0.0,0.0,0.0,0.0,0.0,-0.1465549376258111,0.49672548650487885,0.06470388281056642,0.38827935783454587,-0.16766358636777556,0.1266322886709742,-0.21723400630970965,0.17280674509207405,-0.4875687910102219,-0.11155458965008717,-1.9463007075418057,0.13378043868144351,2.595545591407352,0.9452423210061258,0.1728802376190821,-0.48752024683155326,-0.11147110072896137,-1.9463801863486305,0.1336059019074957,2.595550359778934,0.9452445589611904,-0.0003361034806627479,5.193916418441684e-05,0.0011405205244054274,0.0009713718508538517,-7.658232229481262e-05,-0.00011072534232697369,-0.0021341379691792875,0.0,0.0,0.0,0.0,0.0,0.0,0.0,7.349252700805664e-05,4.8544178668619153e-05,8.348892112580719e-05,-7.947880682479536e-05,-0.0001745367739478254,4.76837158203125e-06,2.2379550645990065e-06,0.0003361034806627479,-5.193916418441684e-05,-0.0011405205244054274,-0.0009713718508538517,7.658232229481262e-05,0.00011072534232697369,0.0021341379691792875,0.14510458707809448,11.850122451782227,-1.2156097888946533,-21.641878128051758,-0.3619285225868225,-2.5271639823913574,0.15964071452617645,0
42,0.20500850677490234,-0.14510458707809448,-11.850122451782227,1.2156097888946533,21.641878128051758,0.3619285225868225,2.5271639823913574,-0.15964071452617645,0.0,0.0,0.0,0.0,0.0,0.0,0.0,-0.1465549376258111,0.49672548650487885,0.06470388281056642,0.38827935783454587,-0.16766358636777556,0.1266322886709742,-0.21723400630970965,0.17280674509207405,-0.4875687910102219,-0.11155458965008717,-1.9463007075418057,0.13378043868144351,2.595545591407352,0.9452423210061258,0.1728802376190821,-0.48752024683155326,-0.11147110072896137,-1.9463801863486305,0.1336059019074957,2.595550359778934,0.9452445589611904,-0.0003361034806627479,5.193916418441684e-05,0.0011405205244054274,0.0009713718508538517,-7.658232229481262e-05,-0.00011072534232697369,-0.0021341379691792875,0.0,0.0,0.0,0.0,0.0,0.0,0.0,7.349252700805664e-05,4.8544178668619153e-05,8.348892112580719e-05,-7.947880682479536e-05,-0.0001745367739478254,4.76837158203125e-06,2.2379550645990065e-06,0.0003361034806627479,-5.193916418441684e-05,-0.0011405205244054274,-0.0009713718508538517,7.658232229481262e-05,0.00011072534232697369,0.0021341379691792875,0.14510458707809448,11.850122451782227,-1.2156097888946533,-21.641878128051758,-0.3619285225868225,-2.5271639823913574,0.15964071452617645,0
43,0.2100059986114502,-0.19667929410934448,-11.802515029907227,1.2156097888946533,21.669649124145508,0.3619285225868225,2.5271639823913574,-0.19351522624492645,0.0,0.0,0.0,0.0,0.0,0.0,0.0,-0.14606763580971513,0.4907118800225728,0.066173401098872,0.3875242856868801,-0.1681332481989586,0.12630936076909952,-0.2177092377613581,0.17281036436976044,-0.4875721588440175,-0.11155458672027496,-1.9463040160403708,0.13378043868144351,2.595545591407352,0.9452460848407613,0.1728802376190821,-0.48752024683155326,-0.11147110072896137,-1.9463801863486305,0.1336059019074957,2.595550359778934,0.9452445589611904,0.0005813346729495448,-0.0010025486887065957,0.0003277778739536756,0.00041227660240840966,0.0002123179754500972,-5.581931296843284e-05,-0.0008380120558475918,0.0,0.0,0.0,0.0,0.0,0.0,0.0,6.987324932167249e-05,5.1912012464239154e-05,8.348599131359491e-05,-7.617030825968207e-05,-0.0001745367739478254,4.76837158203125e-06,-1.5258795709183204e-06,-0.0005813346729495448,0.0010025486887065957,-0.0003277778739536756,-0.00041227660240840966,-0.0002123179754500972,5.581931296843284e-05,0.0008380120558475918,0.19667929410934448,11.802515029907227,-1.2156097888946533,-21.669649124145508,-0.3619285225868225,-2.5271639823913574,0.19351522624492645,0
44,0.21500444412231445,-0.19667929410934448,-11.802515029907227,1.2156097888946533,21.669649124145508,0.3619285225868225,2.5271639823913574,-0.19351522624492645,0.0,0.0,0.0,0.0,0.0,0.0,0.0,-0.14606763580971513,0.4907118800225728,0.066173401098872,0.3875242856868801,-0.1681332481989586,0.12630936076909952,-0.2177092377613581,0.17281036436976044,-0.4875721588440175,-0.11155458672027496,-1.9463040160403708,0.13378043868144351,2.595545591407352,0.9452460848407613,0.1728802376190821,-0.48752024683155326,-0.11147110072896137,-1.9463801863486305,0.1336059019074957,2.595550359778934,0.9452445589611904,0.0005813346729495448,-0.0010025486887065957,0.0003277778739536756,0.00041227660240840966,0.0002123179754500972,-5.581931296843284e-05,-0.0008380120558475918,0.0,0.0,0.0,0.0,0.0,0.0,0.0,6.987324932167249e-05,5.1912012464239154e-05,8.348599131359491e-05,-7.617030825968207e-05,-0.0001745367739478254,4.76837158203125e-06,-1.5258795709183204e-06,-0.0005813346729495448,0.0010025486887065957,-0.0003277778739536756,-0.00041227660240840966,-0.0002123179754500972,5.581931296843284e-05,0.0008380120558475918,0.19667929410934448,11.802515029907227,-1.2156097888946533,-21.669649124145508,-0.3619285225868225,-2.5271639823913574,0.19351522624492645,0
45,0.2200028896331787,-0.14510458707809448,-11.901697158813477,1.2433807849884033,21.717256546020508,0.3674216866493225,2.5207552909851074,-0.24844686686992645,0.0,0.0,0.0,0.0,0.0,0.0,0.0,-0.14499419578958153,0.4686085555634592,0.0686460871008532,0.39371279746298443,-0.16791752343302915,0.12675588566191948,-0.2176426440736441,0.17280674509207405,-0.4875651640274206,-0.1115564593869867,-1.9463049638229997,0.133779828329881,2.5955463035021196,0.9452521883625175,0.1728802376190821,-0.48752024683155326,-0.11147110072896137,-1.9463801863486305,0.1336059019074957,2.595550359778934,0.9452445589611904,-0.0003232577010763263,0.00010663623637340906,6.902034775229433e-05,-0.0010133616371040721,6.927210869614378e-05,0.00022182185411446067,0.0018872518911104768,0.0,0.0,0.0,0.0,0.0,0.0,0.0,7.349252700805664e-05,4.491719586735554e-05,8.535865802533626e-05,-7.522252563085807e-05,-0.00017392642238531208,4.056276814434767e-06,-7.629401327036156e-06,0.0003232577010763263,-0.00010663623637340906,-6.902034775229433e-05,0.0010133616371040721,-6.927210869614378e-05,-0.00022182185411446067,-0.0018872518911104768,0.14510458707809448,11.901697158813477,-1.2433807849884033,-21.717256546020508,-0.3674216866493225,-2.5207552909851074,0.24844686686992645,0
46,0.22499918937683105,-0.14510458707809448,-11.901697158813477,1.2433807849884033,21.717256546020508,0.3674216866493225,2.5207552909851074,-0.24844686686992645,0.0,0.0,0.0,0.0,0.0,0.0,0.0,-0.14499419578958153,0.4686085555634592,0.0686460871008532,0.39371279746298443,-0.16791752343302915,0.12675588566191948,-0.2176426440736441,0.17280674509207405,-0.4875651640274206,-0.1115564593869867,-1.9463049638229997,0.133779828329881,2.5955463035021196,0.9452521883625175,0.1728802376190821,-0.48752024683155326,-0.11147110072896137,-1.9463801863486305,0.1336059019074957,2.595550359778934,0.9452445589611904,-0.0003232577010763263,0.00010663623637340906,6.902034775229433e-05,-0.0010133616371040721,6.927210869614378e-05,0.00022182185411446067,0.0018872518911104768,0.0,0.0,0.0,0.0,0.0,0.0,0.0,7.349252700805664e-05,4.491719586735554e-05,8.535865802533626e-05,-7.522252563085807e-05,-0.00017392642238531208,4.056276814434767e-06,-7.629401327036156e-06,0.0003232577010763263,-0.00010663623637340906,-6.902034775229433e-05,0.0010133616371040721,-6.927210869614378e-05,-0.00022182185411446067,-0.0018872518911104768,0.14510458707809448,11.901697158813477,-1.2433807849884033,-21.717256546020508,-0.3674216866493225,-2.5207552909851074,0.24844686686992645,0
47,0.22994470596313477,-0.14510458707809448,-11.850122451782227,1.3147919178009033,21.693452835083008,0.3619285225868225,2.5335726737976074,-0.22830526530742645,0.0,0.0,0.0,0.0,0.0,0.0,0.0,-0.14318221087509664,0.46542156833490544,0.07192122379230546,0.3928793411724053,-0.16756945298736275,0.1258266384689326,-0.21743105663592832,0.17280674509207405,-0.48756878234211304,-0.11156152245412355,-1.9463056785485435,0.13378043868144351,2.595544879330529,0.9452499504006571,0.1728802376190821,-0.48752024683155326,-0.11147110072896137,-1.9463801863486305,0.1336059019074957,2.595550359778934,0.9452445589611904,-0.0002787532020895318,-0.0012303199706157745,-0.0005853779651844343,0.00021244636668149417,0.0001242234382357032,-0.0002713616150273657,0.0007772379162920955,0.0,0.0,0.0,0.0,0.0,0.0,0.0,7.349252700805664e-05,4.853551055977734e-05,9.04217251621875e-05,-7.450780008699809e-05,-0.0001745367739478254,5.480448404870941e-06,-5.3914394666509935e-06,0.0002787532020895318,0.0012303199706157745,0.0005853779651844343,-0.00021244636668149417,-0.0001242234382357032,0.0002713616150273657,-0.0007772379162920955,0.14510458707809448,11.850122451782227,-1.3147919178009033,-21.693452835083008,-0.3619285225868225,-2.5335726737976074,0.22830526530742645,0
48,0.23499798774719238,-0.14510458707809448,-11.850122451782227,1.3147919178009033,21.693452835083008,0.3619285225868225,2.5335726737976074,-0.22830526530742645,0.0,0.0,0.0,0.0,0.0,0.0,0.0,-0.14318221087509664,0.46542156833490544,0.07192122379230546,0.3928793411724053,-0.16756945298736275,0.1258266384689326,-0.21743105663592832,0.17280674509207405,-0.48756878234211304,-0.11156152245412355,-1.9463056785485435,0.13378043868144351,2.595544879330529,0.9452499504006571,0.1728802376190821,-0.48752024683155326,-0.11147110072896137,-1.9463801863486305,0.1336059019074957,2.595550359778934,0.9452445589611904,-0.0002787532020895318,-0.0012303199706157745,-0.0005853779651844343,0.00021244636668149417,0.0001242234382357032,-0.0002713616150273657,0.0007772379162920955,0.0,0.0,0.0,0.0,0.0,0.0,0.0,7.349252700805664e-05,4.853551055977734e-05,9.04217251621875e-05,-7.450780008699809e-05,-0.0001745367739478254,5.480448404870941e-06,-5.3914394666509935e-06,0.0002787532020895318,0.0012303199706157745,0.0005853779651844343,-0.00021244636668149417,-0.0001242234382357032,0.0002713616150273657,-0.0007772379162920955,0.14510458707809448,11.850122451782227,-1.3147919178009033,-21.693452835083008,-0.3619285225868225,-2.5335726737976074,0.22830526530742645,0
49,0.23999834060668945,-0.14510458707809448,-11.850122451782227,1.3147919178009033,21.693452835083008,0.3619285225868225,2.5335726737976074,-0.22830526530742645,0.0,0.0,0.0,0.0,0.0,0.0,0.0,-0.14318221087509664,0.46542156833490544,0.07192122379230546,0.3928793411724053,-0.16756945298736275,0.1258266384689326,-0.21743105663592832,0.17280674509207405,-0.48756878234211304,-0.11156152245412355,-1.9463056785485435,0.13378043868144351,2.595544879330529,0.9452499504006571,0.1728802376190821,-0.48752024683155326,-0.11147110072896137,-1.9463801863486305,0.1336059019074957,2.595550359778934,0.9452445589611904,-0.0002787532020895318,-0.0012303199706157745,-0.0005853779651844343,0.00021244636668149417,0.0001242234382357032,-0.0002713616150273657,0.0007772379162920955,0.0,0.0,0.0,0.0,0.0,0.0,0.0,7.349252700805664e-05,4.853551055977734e-05,9.04217251621875e-05,-7.450780008699809e-05,-0.0001745367739478254,5.480448404870941e-06,-5.3914394666509935e-06,0.0002787532020895318,0.0012303199706157745,0.0005853779651844343,-0.00021244636668149417,-0.0001242234382357032,0.0002713616150273657,-0.0007772379162920955,0.14510458707809448,11.850122451782227,-1.3147919178009033,-21.693452835083008,-0.3619285225868225,-2.5335726737976074,0.22830526530742645,0
50,0.24499869346618652,-0.14510458707809448,-11.850122451782227,1.3147919178009033,21.693452835083008,0.3619285225868225,2.5335726737976074,-0.22830526530742645,0.0,0.0,0.0,0.0,0.0,0.0,0.0,-0.14318221087509664,0.46542156833490544,0.07192122379230546,0.3928793411724053,-0.16756945298736275,0.1258266384689326,-0.21743105663592832,0.17280674509207405,-0.48756878234211304,-0.11156152245412355,-1.9463056785485435,0.13378043868144351,2.595544879330529,0.9452499504006571,0.1728802376190821,-0.48752024683155326,-0.11147110072896137,-1.9463801863486305,0.1336059019074957,2.595550359778934,0.9452445589611904,-0.0002787532020895318,-0.0012303199706157745,-0.0005853779651844343,0.00021244636668149417,0.0001242234382357032,-0.0002713616150273657,0.0007772379162920955,0.0,0.0,0.0,0.0,0.0,0.0,0.0,7.349252700805664e-05,4.853551055977734e-05,9.04217251621875e-05,-7.450780008699809e-05,-0.0001745367739478254,5.480448404870941e-06,-5.3914394666509935e-06,0.0002787532020895318,0.0012303199706157745,0.0005853779651844343,-0.00021244636668149417,-0.0001242234382357032,0.0002713616150273657,-0.0007772379162920955,0.14510458707809448,11.850122451782227,-1.3147919178009033,-21.693452835083008,-0.3619285225868225,-2.5335726737976074,0.22830526530742645,0
51,0.24999547004699707,-0.12130087614059448,-11.850122451782227,1.3147919178009033,21.669649124145508,0.3738303780555725,2.5271639823913574,-0.22098104655742645,0.0,0.0,0.0,0.0,0.0,0.0,0.0,-0.1432274464145762,0.4782978485852094,0.07532229382252704,0.3831243754943368,-0.16796079435293496,0.12438045399332984,-0.21699339179586544,0.17280507465621878,-0.4875687823421076,-0.11156154979932974,-1.9463016497408785,0.13377911625305808,2.59554877032174,0.9452491365985738,0.1728802376190821,-0.48752024683155326,-0.11147110072896137,-1.9463801863486305,0.1336059019074957,2.595550359778934,0.9452445589611904,-0.00017743248359788452,-5.5374786884279844e-05,-7.179449683366047e-05,0.00015697049390227215,-0.00031592750840156133,-5.5023433745896837e-05,0.0003226910901427244,0.0,0.0,0.0,0.0,0.0,0.0,0.0,7.516296286333435e-05,4.853551055433725e-05,9.044907036837024e-05,-7.85366077520333e-05,-0.00017321434556238913,1.589457193862387e-06,-4.5776373833739115e-06,0.00017743248359788452,5.5374786884279844e-05,7.179449683366047e-05,-0.00015697049390227215,0.00031592750840156133,5.5023433745896837e-05,-0.0003226910901427244,0.12130087614059448,11.850122451782227,-1.3147919178009033,-21.669649124145508,-0.3738303780555725,-2.5271639823913574,0.22098104655742645,0
52,0.2550034523010254,-0.12130087614059448,-11.850122451782227,1.3147919178009033,21.669649124145508,0.3738303780555725,2.5271639823913574,-0.22098104655742645,0.0,0.0,0.0,0.0,0.0,0.0,0.0,-0.1432274464145762,0.4782978485852094,0.07532229382252704,0.3831243754943368,-0.16796079435293496,0.12438045399332984,-0.21699339179586544,0.17280507465621878,-0.4875687823421076,-0.11156154979932974,-1.9463016497408785,0.13377911625305808,2.59554877032174,0.9452491365985738,0.1728802376190821,-0.48752024683155326,-0.11147110072896137,-1.9463801863486305,0.1336059019074957,2.595550359778934,0.9452445589611904,-0.00017743248359788452,-5.5374786884279844e-05,-7.179449683366047e-05,0.00015697049390227215,-0.00031592750840156133,-5.5023433745896837e-05,0.0003226910901427244,0.0,0.0,0.0,0.0,0.0,0.0,0.0,7.516296286333435e-05,4.853551055433725e-05,9.044907036837024e-05,-7.85366077520333e-05,-0.00017321434556238913,1.589457193862387e-06,-4.5776373833739115e-06,0.00017743248359788452,5.5374786884279844e-05,7.179449683366047e-05,-0.00015697049390227215,0.00031592750840156133,5.5023433745896837e-05,-0.0003226910901427244,0.12130087614059448,11.850122451782227,-1.3147919178009033,-21.669649124145508,-0.3738303780555725,-2.5271639823913574,0.22098104655742645,0
53,0.2604494094848633,-0.14510458707809448,-11.826318740844727,1.2671844959259033,21.669649124145508,0.3619285225868225,2.5143465995788574,-0.22098104655742645,0.0,0.0,0.0,0.0,0.0,0.0,0.0,-0.14082779974641543,0.47775902422592603,0.07787382543562817,0.38446006139188843,-0.16774540689501816,0.12529520118628437,-0.21705453730650037,0.17280674509207405,-0.4875704527779629,-0.11155820892777357,-1.9463018614371588,0.13378043868144351,2.5955470155789424,0.9452491365985738,0.1728802376190821,-0.48752024683155326,-0.11147110072896137,-1.9463801863486305,0.1336059019074957,2.595550359778934,0.9452445589611904,0.0008655747945395995,0.00023768502002507547,0.0005899758559057875,6.465398855744404e-05,0.00016651040526284466,0.0002675498511351734,0.0008587351593319784,0.0,0.0,0.0,0.0,0.0,0.0,0.0,7.349252700805664e-05,5.020594640964271e-05,8.710819881220522e-05,-7.832491147174991e-05,-0.0001745367739478254,3.344199991595076e-06,-4.5776373833739115e-06,-0.0008655747945395995,-0.00023768502002507547,-0.0005899758559057875,-6.465398855744404e-05,-0.00016651040526284466,-0.0002675498511351734,-0.0008587351593319784,0.14510458707809448,11.826318740844727,-1.2671844959259033,-21.669649124145508,-0.3619285225868225,-2.5143465995788574,0.22098104655742645,0
54,0.26500535011291504,-0.14510458707809448,-11.826318740844727,1.2671844959259033,21.669649124145508,0.3619285225868225,2.5143465995788574,-0.22098104655742645,0.0,0.0,0.0,0.0,0.0,0.0,0.0,-0.14082779974641543,0.47775902422592603,0.07787382543562817,0.38446006139188843,-0.16774540689501816,0.12529520118628437,-0.21705453730650037,0.17280674509207405,-0.4875704527779629,-0.11155820892777357,-1.9463018614371588,0.13378043868144351,2.5955470155789424,0.9452491365985738,0.1728802376190821,-0.48752024683155326,-0.11147110072896137,-1.9463801863486305,0.1336059019074957,2.595550359778934,0.9452445589611904,0.0008655747945395995,0.00023768502002507547,0.0005899758559057875,6.465398855744404e-05,0.00016651040526284466,0.0002675498511351734,0.0008587351593319784,0.0,0.0,0.0,0.0,0.0,0.0,0.0,7.349252700805664e-05,5.020594640964271e-05,8.710819881220522e-05,-7.832491147174991e-05,-0.0001745367739478254,3.344199991595076e-06,-4.5776373833739115e-06,-0.0008655747945395995,-0.00023768502002507547,-0.0005899758559057875,-6.465398855744404e-05,-0.00016651040526284466,-0.0002675498511351734,-0.0008587351593319784,0.14510458707809448,11.826318740844727,-1.2671844959259033,-21.669649124145508,-0.3619285225868225,-2.5143465995788574,0.22098104655742645,0
55,0.2700028419494629,-0.14510458707809448,-11.802515029907227,1.2156097888946533,21.669649124145508,0.3619285225868225,2.5271639823913574,-0.22098104655742645,0.0,0.0,0.0,0.0,0.0,0.0,0.0,-0.14521672188962678,0.478862233940962,0.06745767209009226,0.39242701561868965,-0.16697210398938575,0.12617201766153965,-0.2170124443030658,0.17280674509207405,-0.48757243522234134,-0.11155458965008717,-1.9463016229216745,0.13378043868144351,2.595545591407352,0.9452491365985738,0.1728802376190821,-0.48752024683155326,-0.11147110072896137,-1.9463801863486305,0.1336059019074957,2.595550359778934,0.9452445589611904,-0.0006720089933219965,0.0005549296520414545,0.0007196577736515219,0.0004194512261118616,0.00014396026629204044,9.974693011288423e-05,0.0009127432872289411,0.0,0.0,0.0,0.0,0.0,0.0,0.0,7.349252700805664e-05,5.218839078807713e-05,8.348892112580719e-05,-7.856342695600205e-05,-0.0001745367739478254,4.76837158203125e-06,-4.5776373833739115e-06,0.0006720089933219965,-0.0005549296520414545,-0.0007196577736515219,-0.0004194512261118616,-0.00014396026629204044,-9.974693011288423e-05,-0.0009127432872289411,0.14510458707809448,11.802515029907227,-1.2156097888946533,-21.669649124145508,-0.3619285225868225,-2.5271639823913574,0.22098104655742645,0
56,0.27500247955322266,-0.14510458707809448,-11.802515029907227,1.2156097888946533,21.669649124145508,0.3619285225868225,2.5271639823913574,-0.22098104655742645,0.0,0.0,0.0,0.0,0.0,0.0,0.0,-0.14521672188962678,0.478862233940962,0.06745767209009226,0.39242701561868965,-0.16697210398938575,0.12617201766153965,-0.2170124443030658,0.17280674509207405,-0.48757243522234134,-0.11155458965008717,-1.9463016229216745,0.13378043868144351,2.595545591407352,0.9452491365985738,0.1728802376190821,-0.48752024683155326,-0.11147110072896137,-1.9463801863486305,0.1336059019074957,2.595550359778934,0.9452445589611904,-0.0006720089933219965,0.0005549296520414545,0.0007196577736515219,0.0004194512261118616,0.00014396026629204044,9.974693011288423e-05,0.0009127432872289411,0.0,0.0,0.0,0.0,0.0,0.0,0.0,7.349252700805664e-05,5.218839078807713e-05,8.348892112580719e-05,-7.856342695600205e-05,-0.0001745367739478254,4.76837158203125e-06,-4.5776373833739115e-06,0.0006720089933219965,-0.0005549296520414545,-0.0007196577736515219,-0.0004194512261118616,-0.00014396026629204044,-9.974693011288423e-05,-0.0009127432872289411,0.14510458707809448,11.802515029907227,-1.2156097888946533,-21.669649124145508,-0.3619285225868225,-2.5271639823913574,0.22098104655742645,0
57,0.27994418144226074,-0.12130087614059448,-11.826318740844727,1.2671844959259033,21.669649124145508,0.3674216866493225,2.5207552909851074,-0.20724813640117645,0.0,0.0,0.0,0.0,0.0,0.0,0.0,-0.13837085147318548,0.4755712793999119,0.07874477011961907,0.4012210864614616,-0.16740838283116752,0.12718222941997115,-0.2168207425914042,0.17280507465621878,-0.4875725588105063,-0.11155820892777357,-1.9463016259618675,0.133779828329881,2.595546303484175,0.9452476107196676,0.1728802376190821,-0.48752024683155326,-0.11147110072896137,-1.9463801863486305,0.1336059019074957,2.595550359778934,0.9452445589611904,-0.00044689262667823855,0.0003935690744800666,-0.0003496864669482561,0.00013728413396964389,-0.004090678717969664,0.00018882869310813866,-0.0002772865793637177,0.0,0.0,0.0,0.0,0.0,0.0,0.0,7.516296286333435e-05,5.231197895305684e-05,8.710819881220522e-05,-7.85603867630158e-05,-0.00017392642238531208,4.056294759191559e-06,-3.051758477146116e-06,0.00044689262667823855,-0.0003935690744800666,0.0003496864669482561,-0.00013728413396964389,0.004090678717969664,-0.00018882869310813866,0.0002772865793637177,0.12130087614059448,11.826318740844727,-1.2671844959259033,-21.669649124145508,-0.3674216866493225,-2.5207552909851074,0.20724813640117645,0
58,0.2850000858306885,-0.12130087614059448,-11.826318740844727,1.2671844959259033,21.669649124145508,0.3674216866493225,2.5207552909851074,-0.20724813640117645,0.0,0.0,0.0,0.0,0.0,0.0,0.0,-0.13837085147318548,0.4755712793999119,0.07874477011961907,0.4012210864614616,-0.16740838283116752,0.12718222941997115,-0.2168207425914042,0.17280507465621878,-0.4875725588105063,-0.11155820892777357,-1.9463016259618675,0.133779828329881,2.595546303484175,0.9452476107196676,0.1728802376190821,-0.48752024683155326,-0.11147110072896137,-1.9463801863486305,0.1336059019074957,2.595550359778934,0.9452445589611904,-0.00044689262667823855,0.0003935690744800666,-0.0003496864669482561,0.00013728413396964389,-0.004090678717969664,0.00018882869310813866,-0.0002772865793637177,0.0,0.0,0.0,0.0,0.0,0.0,0.0,7.516296286333435e-05,5.231197895305684e-05,8.710819881220522e-05,-7.85603867630158e-05,-0.00017392642238531208,4.056294759191559e-06,-3.051758477146116e-06,0.00044689262667823855,-0.0003935690744800666,0.0003496864669482561,-0.00013728413396964389,0.004090678717969664,-0.00018882869310813866,0.0002772865793637177,0.12130087614059448,11.826318740844727,-1.2671844959259033,-21.669649124145508,-0.3674216866493225,-2.5207552909851074,0.20724813640117645,0
59,0.2899959087371826,-0.12130087614059448,-11.850122451782227,1.2671844959259033,21.693452835083008,0.3619285225868225,2.5143465995788574,-0.21457235515117645,0.0,0.0,0.0,0.0,0.0,0.0,0.0,-0.1421860875458893,0.49579414624012375,0.07097677980918327,0.39065534691011633,-0.16801766855738015,0.1253179232584262,-0.21757540480514528,0.17280507465621878,-0.48757088840855556,-0.11155820892777357,-1.9463032936723677,0.13378043868144351,2.5955470155609977,0.9452484245217508,0.1728802376190821,-0.48752024683155326,-0.11147110072896137,-1.9463801863486305,0.1336059019074957,2.595550359778934,0.9452445589611904,-0.0008300585259104111,0.000896753900744528,-8.996920674127481e-05,-0.0009151581363672199,-8.78926927120915e-05,0.00042850198159884563,-0.00024042066923353315,0.0,0.0,0.0,0.0,0.0,0.0,0.0,7.516296286333435e-05,5.064157700229721e-05,8.710819881220522e-05,-7.68926762628741e-05,-0.0001745367739478254,3.3442179363518676e-06,-3.865560560423198e-06,0.0008300585259104111,-0.000896753900744528,8.996920674127481e-05,0.0009151581363672199,8.78926927120915e-05,-0.00042850198159884563,0.00024042066923353315,0.12130087614059448,11.850122451782227,-1.2671844959259033,-21.693452835083008,-0.3619285225868225,-2.5143465995788574,0.21457235515117645,0
60,0.29500341415405273,-0.12130087614059448,-11.850122451782227,1.2671844959259033,21.693452835083008,0.3619285225868225,2.5143465995788574,-0.21457235515117645,0.0,0.0,0.0,0.0,0.0,0.0,0.0,-0.1421860875458893,0.49579414624012375,0.07097677980918327,0.39065534691011633,-0.16801766855738015,0.1253179232584262,-0.21757540480514528,0.17280507465621878,-0.48757088840855556,-0.11155820892777357,-1.9463032936723677,0.13378043868144351,2.5955470155609977,0.9452484245217508,0.1728802376190821,-0.48752024683155326,-0.11147110072896137,-1.9463801863486305,0.1336059019074957,2.595550359778934,0.9452445589611904,-0.0008300585259104111,0.000896753900744528,-8.996920674127481e-05,-0.0009151581363672199,-8.78926927120915e-05,0.00042850198159884563,-0.00024042066923353315,0.0,0.0,0.0,0.0,0.0,0.0,0.0,7.516296286333435e-05,5.064157700229721e-05,8.710819881220522e-05,-7.68926762628741e-05,-0.0001745367739478254,3.3442179363518676e-06,-3.865560560423198e-06,0.0008300585259104111,-0.000896753900744528,8.996920674127481e-05,0.0009151581363672199,8.78926927120915e-05,-0.00042850198159884563,0.00024042066923353315,0.12130087614059448,11.850122451782227,-1.2671844959259033,-21.693452835083008,-0.3619285225868225,-2.5143465995788574,0.21457235515117645,0
61,0.29999876022338867,-0.12130087614059448,-11.826318740844727,1.2671844959259033,21.693452835083008,0.3555198311805725,2.5271639823913574,-0.22098104655742645,0.0,0.0,0.0,0.0,0.0,0.0,0.0,-0.14516088273359923,0.49412129872670624,0.06851387923999719,0.3903939750360113,-0.16889251515921813,0.12578640894671939,-0.21859239830034297,0.17280507465621878,-0.487572558810066,-0.11155820860223889,-1.94630337283024,0.1337811507582664,2.595545592860902,0.9452491365985738,0.1728802376190821,-0.48752024683155326,-0.11147110072896137,-1.9463801863486305,0.1336059019074957,2.595550359778934,0.9452445589611904,-0.000429428463107758,-0.000354228526070789,-0.00047465732214952306,-0.00027019016049703045,0.000336433157080543,-4.6633526369044155e-05,0.0009335654849101188,0.0,0.0,0.0,0.0,0.0,0.0,0.0,7.516296286333435e-05,5.2311978512742385e-05,8.710787327752267e-05,-7.681351839061712e-05,-0.0001752488507707206,4.766918031862133e-06,-4.5776373833739115e-06,0.000429428463107758,0.000354228526070789,0.00047465732214952306,0.00027019016049703045,-0.000336433157080543,4.6633526369044155e-05,-0.0009335654849101188,0.12130087614059448,11.826318740844727,-1.2671844959259033,-21.693452835083008,-0.3555198311805725,-2.5271639823913574,0.22098104655742645,0
62,0.30541038513183594,-0.12130087614059448,-11.826318740844727,1.2671844959259033,21.693452835083008,0.3555198311805725,2.5271639823913574,-0.22098104655742645,0.0,0.0,0.0,0.0,0.0,0.0,0.0,-0.14516088273359923,0.49412129872670624,0.06851387923999719,0.3903939750360113,-0.16889251515921813,0.12578640894671939,-0.21859239830034297,0.17280507465621878,-0.487572558810066,-0.11155820860223889,-1.94630337283024,0.1337811507582664,2.595545592860902,0.9452491365985738,0.1728802376190821,-0.48752024683155326,-0.11147110072896137,-1.9463801863486305,0.1336059019074957,2.595550359778934,0.9452445589611904,-0.000429428463107758,-0.000354228526070789,-0.00047465732214952306,-0.00027019016049703045,0.000336433157080543,-4.6633526369044155e-05,0.0009335654849101188,0.0,0.0,0.0,0.0,0.0,0.0,0.0,7.516296286333435e-05,5.2311978512742385e-05,8.710787327752267e-05,-7.681351839061712e-05,-0.0001752488507707206,4.766918031862133e-06,-4.5776373833739115e-06,0.000429428463107758,0.000354228526070789,0.00047465732214952306,0.00027019016049703045,-0.000336433157080543,4.6633526369044155e-05,-0.0009335654849101188,0.12130087614059448,11.826318740844727,-1.2671844959259033,-21.693452835083008,-0.3555198311805725,-2.5271639823913574,0.22098104655742645,0
63,0.3100001811981201,-0.12130087614059448,-11.873926162719727,1.2909882068634033,21.741060256958008,0.3674216866493225,2.5207552909851074,-0.23471395671367645,0.0,0.0,0.0,0.0,0.0,0.0,0.0,-0.14504962534635038,0.4902858149722317,0.06827199765467039,0.38903573485113413,-0.16941055560850268,0.12595758556611242,-0.21744422734408378,0.17280507465621878,-0.4875692182699154,-0.111559879363627,-1.9463066342174264,0.133779828329881,2.5955466566968926,0.94525066247748,0.1728802376190821,-0.48752024683155326,-0.11147110072896137,-1.9463801863486305,0.1336059019074957,2.595550359778934,0.9452445589611904,-0.0007718725351097891,0.00048081555656973946,-0.0007887433128502651,-0.0017386996155123059,6.577054337238629e-05,0.00031388137324672656,0.004243387194638938,0.0,0.0,0.0,0.0,0.0,0.0,0.0,7.516296286333435e-05,4.8971438362133135e-05,8.877863466563718e-05,-7.355213120407988e-05,-0.00017392642238531208,3.703082041450756e-06,-6.103516289601707e-06,0.0007718725351097891,-0.00048081555656973946,0.0007887433128502651,0.0017386996155123059,-6.577054337238629e-05,-0.00031388137324672656,-0.004243387194638938,0.12130087614059448,11.873926162719727,-1.2909882068634033,-21.741060256958008,-0.3674216866493225,-2.5207552909851074,0.23471395671367645,0
64,0.3150029182434082,-0.12130087614059448,-11.873926162719727,1.2909882068634033,21.741060256958008,0.3674216866493225,2.5207552909851074,-0.23471395671367645,0.0,0.0,0.0,0.0,0.0,0.0,0.0,-0.14504962534635038,0.4902858149722317,0.06827199765467039,0.38903573485113413,-0.16941055560850268,0.12595758556611242,-0.21744422734408378,0.17280507465621878,-0.4875692182699154,-0.111559879363627,-1.9463066342174264,0.133779828329881,2.5955466566968926,0.94525066247748,0.1728802376190821,-0.48752024683155326,-0.11147110072896137,-1.9463801863486305,0.1336059019074957,2.595550359778934,0.9452445589611904,-0.0007718725351097891,0.00048081555656973946,-0.0007887433128502651,-0.0017386996155123059,6.577054337238629e-05,0.00031388137324672656,0.004243387194638938,0.0,0.0,0.0,0.0,0.0,0.0,0.0,7.516296286333435e-05,4.8971438362133135e-05,8.877863466563718e-05,-7.355213120407988e-05,-0.00017392642238531208,3.703082041450756e-06,-6.103516289601707e-06,0.0007718725351097891,-0.00048081555656973946,0.0007887433128502651,0.0017386996155123059,-6.577054337238629e-05,-0.00031388137324672656,-0.004243387194638938,0.12130087614059448,11.873926162719727,-1.2909882068634033,-21.741060256958008,-0.3674216866493225,-2.5207552909851074,0.23471395671367645,0
65,0.3200054168701172,-0.17287558317184448,-11.850122451782227,1.2671844959259033,21.641878128051758,0.3674216866493225,2.5335726737976074,-0.21457235515117645,0.0,0.0,0.0,0.0,0.0,0.0,0.0,-0.14715745380719983,0.48539610596882526,0.0665584609088796,0.38826321851785245,-0.16871821146142124,0.1263747482896063,-0.21791124504011072,0.1728086939339052,-0.4875708883768532,-0.1115574706150955,-1.9462999244052717,0.133779828329881,2.5955448793311935,0.9452484243602453,0.1728802376190821,-0.48752024683155326,-0.11147110072896137,-1.9463801863486305,0.1336059019074957,2.595550359778934,0.9452445589611904,0.00030289058820254976,2.3156056066577633e-05,-5.878462713732531e-05,0.0008354755046305904,-4.9119829568094565e-05,-0.0003180509520648109,-0.00026764857661118317,0.0,0.0,0.0,0.0,0.0,0.0,0.0,7.154368517692244e-05,5.0641545299934254e-05,8.636988613412722e-05,-8.026194335886139e-05,-0.00017392642238531208,5.480447740513483e-06,-3.865399054836516e-06,-0.00030289058820254976,-2.3156056066577633e-05,5.878462713732531e-05,-0.0008354755046305904,4.9119829568094565e-05,0.0003180509520648109,0.00026764857661118317,0.17287558317184448,11.850122451782227,-1.2671844959259033,-21.641878128051758,-0.3674216866493225,-2.5335726737976074,0.21457235515117645,0
66,0.3250124454498291,-0.17287558317184448,-11.850122451782227,1.2671844959259033,21.641878128051758,0.3674216866493225,2.5335726737976074,-0.21457235515117645,0.0,0.0,0.0,0.0,0.0,0.0,0.0,-0.14715745380719983,0.48539610596882526,0.0665584609088796,0.38826321851785245,-0.16871821146142124,0.1263747482896063,-0.21791124504011072,0.1728086939339052,-0.4875708883768532,-0.1115574706150955,-1.9462999244052717,0.133779828329881,2.5955448793311935,0.9452484243602453,0.1728802376190821,-0.48752024683155326,-0.11147110072896137,-1.9463801863486305,0.1336059019074957,2.595550359778934,0.9452445589611904,0.00030289058820254976,2.3156056066577633e-05,-5.878462713732531e-05,0.0008354755046305904,-4.9119829568094565e-05,-0.0003180509520648109,-0.00026764857661118317,0.0,0.0,0.0,0.0,0.0,0.0,0.0,7.154368517692244e-05,5.0641545299934254e-05,8.636988613412722e-05,-8.026194335886139e-05,-0.00017392642238531208,5.480447740513483e-06,-3.865399054836516e-06,-0.00030289058820254976,-2.3156056066577633e-05,5.878462713732531e-05,-0.0008354755046305904,4.9119829568094565e-05,0.0003180509520648109,0.00026764857661118317,0.17287558317184448,11.850122451782227,-1.2671844959259033,-21.641878128051758,-0.3674216866493225,-2.5335726737976074,0.21457235515117645,0
67,0.3299996852874756,-0.17287558317184448,-11.850122451782227,1.2671844959259033,21.641878128051758,0.3674216866493225,2.5335726737976074,-0.21457235515117645,0.0,0.0,0.0,0.0,0.0,0.0,0.0,-0.14715745380719983,0.48539610596882526,0.0665584609088796,0.38826321851785245,-0.16871821146142124,0.1263747482896063,-0.21791124504011072,0.1728086939339052,-0.4875708883768532,-0.1115574706150955,-1.9462999244052717,0.133779828329881,2.5955448793311935,0.9452484243602453,0.1728802376190821,-0.48752024683155326,-0.11147110072896137,-1.9463801863486305,0.1336059019074957,2.595550359778934,0.9452445589611904,0.00030289058820254976,2.3156056066577633e-05,-5.878462713732531e-05,0.0008354755046305904,-4.9119829568094565e-05,-0.0003180509520648109,-0.00026764857661118317,0.0,0.0,0.0,0.0,0.0,0.0,0.0,7.154368517692244e-05,5.0641545299934254e-05,8.636988613412722e-05,-8.026194335886139e-05,-0.00017392642238531208,5.480447740513483e-06,-3.865399054836516e-06,-0.00030289058820254976,-2.3156056066577633e-05,5.878462713732531e-05,-0.0008354755046305904,4.9119829568094565e-05,0.0003180509520648109,0.00026764857661118317,0.17287558317184448,11.850122451782227,-1.2671844959259033,-21.641878128051758,-0.3674216866493225,-2.5335726737976074,0.21457235515117645,0
68,0.33499574661254883,-0.17287558317184448,-11.850122451782227,1.2671844959259033,21.641878128051758,0.3674216866493225,2.5335726737976074,-0.21457235515117645,0.0,0.0,0.0,0.0,0.0,0.0,0.0,-0.14715745380719983,0.48539610596882526,0.0665584609088796,0.38826321851785245,-0.16871821146142124,0.1263747482896063,-0.21791124504011072,0.1728086939339052,-0.4875708883768532,-0.1115574706150955,-1.9462999244052717,0.133779828329881,2.5955448793311935,0.9452484243602453,0.1728802376190821,-0.48752024683155326,-0.11147110072896137,-1.9463801863486305,0.1336059019074957,2.595550359778934,0.9452445589611904,0.00030289058820254976,2.3156056066577633e-05,-5.878462713732531e-05,0.0008354755046305904,-4.9119829568094565e-05,-0.0003180509520648109,-0.00026764857661118317,0.0,0.0,0.0,0.0,0.0,0.0,0.0,7.154368517692244e-05,5.0641545299934254e-05,8.636988613412722e-05,-8.026194335886139e-05,-0.00017392642238531208,5.480447740513483e-06,-3.865399054836516e-06,-0.00030289058820254976,-2.3156056066577633e-05,5.878462713732531e-05,-0.0008354755046305904,4.9119829568094565e-05,0.0003180509520648109,0.00026764857661118317,0.17287558317184448,11.850122451782227,-1.2671844959259033,-21.641878128051758,-0.3674216866493225,-2.5335726737976074,0.21457235515117645,0
69,0.3399975299835205,-0.14510458707809448,-11.873926162719727,1.2909882068634033,21.641878128051758,0.3619285225868225,2.5271639823913574,-0.19351522624492645,0.0,0.0,0.0,0.0,0.0,0.0,0.0,-0.14896212470680964,0.4778475789915048,0.06627872910772882,0.38850786846762103,-0.16844451967955804,0.12679397746727028,-0.21916845144923924,0.17280674509207405,-0.48756711223913335,-0.11155987935946104,-1.9462996741053327,0.13378043868144351,2.595545591407352,0.9452460848407604,0.1728802376190821,-0.48752024683155326,-0.11147110072896137,-1.9463801863486305,0.1336059019074957,2.595550359778934,0.9452445589611904,-0.0003343221065785325,0.0002829688933124118,-0.0009102488298153661,0.0008233426779915294,7.052250253444049e-05,1.612402174385547e-05,-0.0007888686795329733,0.0,0.0,0.0,0.0,0.0,0.0,0.0,7.349252700805664e-05,4.686540758008784e-05,8.877863049967794e-05,-8.051224329785889e-05,-0.0001745367739478254,4.76837158203125e-06,-1.525879570030142e-06,0.0003343221065785325,-0.0002829688933124118,0.0009102488298153661,-0.0008233426779915294,-7.052250253444049e-05,-1.612402174385547e-05,0.0007888686795329733,0.14510458707809448,11.873926162719727,-1.2909882068634033,-21.641878128051758,-0.3619285225868225,-2.5271639823913574,0.19351522624492645,0
70,0.34501004219055176,-0.14510458707809448,-11.873926162719727,1.2909882068634033,21.641878128051758,0.3619285225868225,2.5271639823913574,-0.19351522624492645,0.0,0.0,0.0,0.0,0.0,0.0,0.0,-0.14896212470680964,0.4778475789915048,0.06627872910772882,0.38850786846762103,-0.16844451967955804,0.12679397746727028,-0.21916845144923924,0.17280674509207405,-0.48756711223913335,-0.11155987935946104,-1.9462996741053327,0.13378043868144351,2.595545591407352,0.9452460848407604,0.1728802376190821,-0.48752024683155326,-0.11147110072896137,-1.9463801863486305,0.1336059019074957,2.595550359778934,0.9452445589611904,-0.0003343221065785325,0.0002829688933124118,-0.0009102488298153661,0.0008233426779915294,7.052250253444049e-05,1.612402174385547e-05,-0.0007888686795329733,0.0,0.0,0.0,0.0,0.0,0.0,0.0,7.349252700805664e-05,4.686540758008784e-05,8.877863049967794e-05,-8.051224329785889e-05,-0.0001745367739478254,4.76837158203125e-06,-1.525879570030142e-06,0.0003343221065785325,-0.0002829688933124118,0.0009102488298153661,-0.0008233426779915294,-7.052250253444049e-05,-1.612402174385547e-05,0.0007888686795329733,0.14510458707809448,11.873926162719727,-1.2909882068634033,-21.641878128051758,-0.3619285225868225,-2.5271639823913574,0.19351522624492645,0
71,0.35001254081726074,-0.12130087614059448,-11.901697158813477,1.3147919178009033,21.641878128051758,0.3555198311805725,2.5143465995788574,-0.19351522624492645,0.0,0.0,0.0,0.0,0.0,0.0,0.0,-0.140484674924196,0.4774090199008709,0.0814305091785552,0.3850586937666466,-0.16893718098693744,0.12637231815597322,-0.21872877052546344,0.17280507465621878,-0.4875651659533542,-0.11156154979948409,-1.9462996843151101,0.1337811507582664,2.5955470155609977,0.9452460846792557,0.1728802376190821,-0.48752024683155326,-0.11147110072896137,-1.9463801863486305,0.1336059019074957,2.595550359778934,0.9452445589611904,-0.0001775342830113192,0.0008295783086161856,-0.00033533744897659343,0.0005550841925552432,0.00032540735712095677,0.00047146343358299745,-0.0008028574410371074,0.0,0.0,0.0,0.0,0.0,0.0,0.0,7.516296286333435e-05,4.4919121800934825e-05,9.0449070522719e-05,-8.050203352039098e-05,-0.0001752488507707206,3.3442179363518676e-06,-1.5257180653316382e-06,0.0001775342830113192,-0.0008295783086161856,0.00033533744897659343,-0.0005550841925552432,-0.00032540735712095677,-0.00047146343358299745,0.0008028574410371074,0.12130087614059448,11.901697158813477,-1.3147919178009033,-21.641878128051758,-0.3555198311805725,-2.5143465995788574,0.19351522624492645,0
72,0.35500621795654297,-0.12130087614059448,-11.901697158813477,1.3147919178009033,21.641878128051758,0.3555198311805725,2.5143465995788574,-0.19351522624492645,0.0,0.0,0.0,0.0,0.0,0.0,0.0,-0.140484674924196,0.4774090199008709,0.0814305091785552,0.3850586937666466,-0.16893718098693744,0.12637231815597322,-0.21872877052546344,0.17280507465621878,-0.4875651659533542,-0.11156154979948409,-1.9462996843151101,0.1337811507582664,2.5955470155609977,0.9452460846792557,0.1728802376190821,-0.48752024683155326,-0.11147110072896137,-1.9463801863486305,0.1336059019074957,2.595550359778934,0.9452445589611904,-0.0001775342830113192,0.0008295783086161856,-0.00033533744897659343,0.0005550841925552432,0.00032540735712095677,0.00047146343358299745,-0.0008028574410371074,0.0,0.0,0.0,0.0,0.0,0.0,0.0,7.516296286333435e-05,4.4919121800934825e-05,9.0449070522719e-05,-8.050203352039098e-05,-0.0001752488507707206,3.3442179363518676e-06,-1.5257180653316382e-06,0.0001775342830113192,-0.0008295783086161856,0.00033533744897659343,-0.0005550841925552432,-0.00032540735712095677,-0.00047146343358299745,0.0008028574410371074,0.12130087614059448,11.901697158813477,-1.3147919178009033,-21.641878128051758,-0.3555198311805725,-2.5143465995788574,0.19351522624492645,0
73,0.35999274253845215,-0.12130087614059448,-11.873926162719727,1.2909882068634033,21.669649124145508,0.3555198311805725,2.5207552909851074,-0.23471395671367645,0.0,0.0,0.0,0.0,0.0,0.0,0.0,-0.13706956192456074,0.47636717166839193,0.08407991525369514,0.3835389713316173,-0.16896490466430786,0.12681142851163835,-0.21851735203950387,0.17280507465621878,-0.4875678399169094,-0.11155987936362884,-1.946301861764114,0.1337811507582664,2.5955463039686912,0.9452506624774791,0.1728802376190821,-0.48752024683155326,-0.11147110072896137,-1.9463801863486305,0.1336059019074957,2.595550359778934,0.9452445589611904,0.000341595739547945,0.0007910392100882931,0.0007778419126816244,0.00015181639932150995,0.0002636312707735375,0.00031902294699252164,0.0008585409363936896,0.0,0.0,0.0,0.0,0.0,0.0,0.0,7.516296286333435e-05,4.75930853561235e-05,8.877863466746905e-05,-7.832458451662028e-05,-0.0001752488507707206,4.055810242764579e-06,-6.103516288713529e-06,-0.000341595739547945,-0.0007910392100882931,-0.0007778419126816244,-0.00015181639932150995,-0.0002636312707735375,-0.00031902294699252164,-0.0008585409363936896,0.12130087614059448,11.873926162719727,-1.2909882068634033,-21.669649124145508,-0.3555198311805725,-2.5207552909851074,0.23471395671367645,0
74,0.3650052547454834,-0.12130087614059448,-11.873926162719727,1.2909882068634033,21.669649124145508,0.3555198311805725,2.5207552909851074,-0.23471395671367645,0.0,0.0,0.0,0.0,0.0,0.0,0.0,-0.13706956192456074,0.47636717166839193,0.08407991525369514,0.3835389713316173,-0.16896490466430786,0.12681142851163835,-0.21851735203950387,0.17280507465621878,-0.4875678399169094,-0.11155987936362884,-1.946301861764114,0.1337811507582664,2.5955463039686912,0.9452506624774791,0.1728802376190821,-0.48752024683155326,-0.11147110072896137,-1.9463801863486305,0.1336059019074957,2.595550359778934,0.9452445589611904,0.000341595739547945,0.0007910392100882931,0.0007778419126816244,0.00015181639932150995,0.0002636312707735375,0.00031902294699252164,0.0008585409363936896,0.0,0.0,0.0,0.0,0.0,0.0,0.0,7.516296286333435e-05,4.75930853561235e-05,8.877863466746905e-05,-7.832458451662028e-05,-0.0001752488507707206,4.055810242764579e-06,-6.103516288713529e-06,-0.000341595739547945,-0.0007910392100882931,-0.0007778419126816244,-0.00015181639932150995,-0.0002636312707735375,-0.00031902294699252164,-0.0008585409363936896,0.12130087614059448,11.873926162719727,-1.2909882068634033,-21.669649124145508,-0.3555198311805725,-2.5207552909851074,0.23471395671367645,0
75,0.3699936866760254,-0.17287558317184448,-11.802515029907227,1.3147919178009033,21.669649124145508,0.3674216866493225,2.5271639823913574,-0.17978231608867645,0.0,0.0,0.0,0.0,0.0,0.0,0.0,-0.14271385134540152,0.4744494125144106,0.07273362747037905,0.38300626967541673,-0.1688531904658242,0.12703427655733104,-0.21943364429294956,0.1728086939339052,-0.4875721232179278,-0.1115615497994841,-1.946301940802199,0.133779828329881,2.5955455914073546,0.9452445590170361,0.1728802376190821,-0.48752024683155326,-0.11147110072896137,-1.9463801863486305,0.1336059019074957,2.595550359778934,0.9452445589611904,0.0010655496683318136,-0.0008569029786147852,-0.0006632760543057706,0.00014993281859368616,-0.00023975031551997912,3.1568831756624066e-05,-0.0014667158398165073,0.0,0.0,0.0,0.0,0.0,0.0,0.0,7.154368517692244e-05,5.187638637454972e-05,9.044907052273288e-05,-7.824554643143244e-05,-0.00017392642238531208,4.768371579366715e-06,-5.5845661428577387e-11,-0.0010655496683318136,0.0008569029786147852,0.0006632760543057706,-0.00014993281859368616,0.00023975031551997912,-3.1568831756624066e-05,0.0014667158398165073,0.17287558317184448,11.802515029907227,-1.3147919178009033,-21.669649124145508,-0.3674216866493225,-2.5271639823913574,0.17978231608867645,0
76,0.3749983310699463,-0.17287558317184448,-11.802515029907227,1.3147919178009033,21.669649124145508,0.3674216866493225,2.5271639823913574,-0.17978231608867645,0.0,0.0,0.0,0.0,0.0,0.0,0.0,-0.14271385134540152,0.4744494125144106,0.07273362747037905,0.38300626967541673,-0.1688531904658242,0.12703427655733104,-0.21943364429294956,0.1728086939339052,-0.4875721232179278,-0.1115615497994841,-1.946301940802199,0.133779828329881,2.5955455914073546,0.9452445590170361,0.1728802376190821,-0.48752024683155326,-0.11147110072896137,-1.9463801863486305,0.1336059019074957,2.595550359778934,0.9452445589611904,0.0010655496683318136,-0.0008569029786147852,-0.0006632760543057706,0.00014993281859368616,-0.00023975031551997912,3.1568831756624066e-05,-0.0014667158398165073,0.0,0.0,0.0,0.0,0.0,0.0,0.0,7.154368517692244e-05,5.187638637454972e-05,9.044907052273288e-05,-7.824554643143244e-05,-0.00017392642238531208,4.768371579366715e-06,-5.5845661428577387e-11,-0.0010655496683318136,0.0008569029786147852,0.0006632760543057706,-0.00014993281859368616,0.00023975031551997912,-3.1568831756624066e-05,0.0014667158398165073,0.17287558317184448,11.802515029907227,-1.3147919178009033,-21.669649124145508,-0.3674216866493225,-2.5271639823913574,0.17978231608867645,0
77,0.37999844551086426,-0.17287558317184448,-11.826318740844727,1.2433807849884033,21.641878128051758,0.3555198311805725,2.5335726737976074,-0.20724813640117645,0.0,0.0,0.0,0.0,0.0,0.0,0.0,-0.1404574706729267,0.4831015219304284,0.07742894335200894,0.3791349555758493,-0.1693105823768565,0.1265332236967357,-0.21860211741532248,0.1728086939339052,-0.4875711634906828,-0.11155653849191832,-1.9462996744327627,0.13378115059625614,2.595544879330529,0.9452476107196679,0.1728802376190821,-0.48752024683155326,-0.11147110072896137,-1.9463801863486305,0.1336059019074957,2.595550359778934,0.9452445589611904,0.0004726072285600557,0.0005062210142971556,0.0005988663975287113,0.0004261639128173238,0.0003784865037393341,-0.00034414696956458913,3.666083474658987e-05,0.0,0.0,0.0,0.0,0.0,0.0,0.0,7.154368517692244e-05,5.091665912954069e-05,8.543776295695527e-05,-8.051191586777584e-05,-0.0001752486887604543,5.480448404870941e-06,-3.051758477479183e-06,-0.0004726072285600557,-0.0005062210142971556,-0.0005988663975287113,-0.0004261639128173238,-0.0003784865037393341,0.00034414696956458913,-3.666083474658987e-05,0.17287558317184448,11.826318740844727,-1.2433807849884033,-21.641878128051758,-0.3555198311805725,-2.5335726737976074,0.20724813640117645,0
78,0.3850128650665283,-0.17287558317184448,-11.826318740844727,1.2433807849884033,21.641878128051758,0.3555198311805725,2.5335726737976074,-0.20724813640117645,0.0,0.0,0.0,0.0,0.0,0.0,0.0,-0.1404574706729267,0.4831015219304284,0.07742894335200894,0.3791349555758493,-0.1693105823768565,0.1265332236967357,-0.21860211741532248,0.1728086939339052,-0.4875711634906828,-0.11155653849191832,-1.9462996744327627,0.13378115059625614,2.595544879330529,0.9452476107196679,0.1728802376190821,-0.48752024683155326,-0.11147110072896137,-1.9463801863486305,0.1336059019074957,2.595550359778934,0.9452445589611904,0.0004726072285600557,0.0005062210142971556,0.0005988663975287113,0.0004261639128173238,0.0003784865037393341,-0.00034414696956458913,3.666083474658987e-05,0.0,0.0,0.0,0.0,0.0,0.0,0.0,7.154368517692244e-05,5.091665912954069e-05,8.543776295695527e-05,-8.051191586777584e-05,-0.0001752486887604543,5.480448404870941e-06,-3.051758477479183e-06,-0.0004726072285600557,-0.0005062210142971556,-0.0005988663975287113,-0.0004261639128173238,-0.0003784865037393341,0.00034414696956458913,-3.666083474658987e-05,0.17287558317184448,11.826318740844727,-1.2433807849884033,-21.641878128051758,-0.3555198311805725,-2.5335726737976074,0.20724813640117645,0
79,0.390000581741333,-0.19667929410934448,-11.802515029907227,1.1680023670196533,21.641878128051758,0.3738303780555725,2.5271639823913574,-0.19351522624492645,0.0,0.0,0.0,0.0,0.0,0.0,0.0,-0.147010817142628,0.4841049271918316,0.0696548426368376,0.3830074099462574,-0.16898961703760051,0.12744460111819772,-0.21735185415578467,0.17281036436976044,-0.48757212610676126,-0.11155124780177259,-1.9463018296462589,0.1337791162530572,2.595545591407352,0.9452460848407613,0.1728802376190821,-0.48752024683155326,-0.11147110072896137,-1.9463801863486305,0.1336059019074957,2.595550359778934,0.9452445589611904,0.0004679571778535981,8.23081088121969e-05,0.0013593205277315067,0.0009192156535416039,-0.00028090490038806706,-0.00011248632351369642,-0.0004931527288140743,0.0,0.0,0.0,0.0,0.0,0.0,0.0,6.987324932167249e-05,5.187927520799995e-05,8.014707281121802e-05,-7.835670237166248e-05,-0.00017321434556150095,4.76837158203125e-06,-1.5258795709183204e-06,-0.0004679571778535981,-8.23081088121969e-05,-0.0013593205277315067,-0.0009192156535416039,0.00028090490038806706,0.00011248632351369642,0.0004931527288140743,0.19667929410934448,11.802515029907227,-1.1680023670196533,-21.641878128051758,-0.3738303780555725,-2.5271639823913574,0.19351522624492645,0
