rezayati/contactInterpretation/dataset/franka_main/labeled_data/link5/c7_8.csv
index,time,tau_J0,tau_J1,tau_J2,tau_J3,tau_J4,tau_J5,tau_J6,tau_J_d0,tau_J_d1,tau_J_d2,tau_J_d3,tau_J_d4,tau_J_d5,tau_J_d6,tau_ext0,tau_ext1,tau_ext2,tau_ext3,tau_ext4,tau_ext5,tau_ext6,q0,q1,q2,q3,q4,q5,q6,q_d0,q_d1,q_d2,q_d3,q_d4,q_d5,q_d6,dq0,dq1,dq2,dq3,dq4,dq5,dq6,dq_d0,dq_d1,dq_d2,dq_d3,dq_d4,dq_d5,dq_d6,e0,e1,e2,e3,e4,e5,e6,de0,de1,de2,de3,de4,de5,de6,etau_J0,etau_J1,etau_J2,etau_J3,etau_J4,etau_J5,etau_J6,label
1,0.0,-0.2720577120780945,-22.720483779907227,0.04922797530889511,14.008821487426758,-0.09034198522567749,2.1453890800476074,-0.28232139348983765,0.0,0.0,0.0,0.0,0.0,0.0,0.0,-0.29407423952695533,0.09772148444388278,-0.06120730433681911,0.09697110123141181,-0.3307414086825014,-0.04233044598108944,-0.26844118713611265,1.6753811713417606,0.05225734123038229,0.029867627338620653,-2.7523236262243835,0.03448466192475996,2.7663679543071322,0.7691694072021377,1.6754973547542302,0.052104326824870026,0.029969505109285054,-2.752394845125968,0.0342448039870148,2.7663679543071322,0.7691630533470046,-0.00033013298516997453,0.0003214657723722952,-0.0008240373021845244,-0.0014469699586586505,-0.0002674950250983591,-0.00012590292718301624,0.0007713150777394321,0.0,0.0,0.0,0.0,0.0,0.0,0.0,0.00011618341246966146,-0.00015301440551226259,0.00010187777066440057,-7.121890158456878e-05,-0.00023985793774516234,0.0,-6.353855133034436e-06,0.00033013298516997453,-0.0003214657723722952,0.0008240373021845244,0.0014469699586586505,0.0002674950250983591,0.00012590292718301624,-0.0007713150777394321,0.2720577120780945,22.720483779907227,-0.04922797530889511,-14.008821487426758,0.09034198522567749,-2.1453890800476074,0.28232139348983765,0
2,0.0050046443939208984,-0.3236324191093445,-22.696680068969727,0.04922797530889511,13.933443069458008,-0.09034198522567749,2.1389803886413574,-0.24844686686992645,0.0,0.0,0.0,0.0,0.0,0.0,0.0,-0.2915592144422326,0.10019364400989687,-0.05707795279932942,0.09293611414971312,-0.33084194308502524,-0.042633283763563484,-0.26760959679678503,1.6753823532247543,0.05225640824869669,0.029867627338620653,-2.752316267712128,0.0344846604806383,2.766368666383955,0.7691656433476772,1.6754973547542302,0.052104326824870026,0.029969505109285054,-2.752394845125968,0.0342448039870148,2.7663679543071322,0.7691630533470046,0.0006238468628673803,4.8560393115416585e-05,0.00022350309064991436,0.0008027986036664043,-0.00025736836241413435,0.00021948307227030446,-0.0011263726837436783,0.0,0.0,0.0,0.0,0.0,0.0,0.0,0.00011500152947596654,-0.00015208142382666656,0.00010187777066440057,-7.857741384009742e-05,-0.0002398564936234998,-7.120768228396912e-07,-2.5900006725976255e-06,-0.0006238468628673803,-4.8560393115416585e-05,-0.00022350309064991436,-0.0008027986036664043,0.00025736836241413435,-0.00021948307227030446,0.0011263726837436783,0.3236324191093445,22.696680068969727,-0.04922797530889511,-13.933443069458008,0.09034198522567749,-2.1389803886413574,0.24844686686992645,0
3,0.010000228881835938,-0.3236324191093445,-22.696680068969727,0.04922797530889511,13.933443069458008,-0.09034198522567749,2.1389803886413574,-0.24844686686992645,0.0,0.0,0.0,0.0,0.0,0.0,0.0,-0.2915592144422326,0.10019364400989687,-0.05707795279932942,0.09293611414971312,-0.33084194308502524,-0.042633283763563484,-0.26760959679678503,1.6753823532247543,0.05225640824869669,0.029867627338620653,-2.752316267712128,0.0344846604806383,2.766368666383955,0.7691656433476772,1.6754973547542302,0.052104326824870026,0.029969505109285054,-2.752394845125968,0.0342448039870148,2.7663679543071322,0.7691630533470046,0.0006238468628673803,4.8560393115416585e-05,0.00022350309064991436,0.0008027986036664043,-0.00025736836241413435,0.00021948307227030446,-0.0011263726837436783,0.0,0.0,0.0,0.0,0.0,0.0,0.0,0.00011500152947596654,-0.00015208142382666656,0.00010187777066440057,-7.857741384009742e-05,-0.0002398564936234998,-7.120768228396912e-07,-2.5900006725976255e-06,-0.0006238468628673803,-4.8560393115416585e-05,-0.00022350309064991436,-0.0008027986036664043,0.00025736836241413435,-0.00021948307227030446,0.0011263726837436783,0.3236324191093445,22.696680068969727,-0.04922797530889511,-13.933443069458008,0.09034198522567749,-2.1389803886413574,0.24844686686992645,0
4,0.015000104904174805,-0.2998287081718445,-22.696680068969727,0.02542426437139511,13.957246780395508,-0.09034198522567749,2.1325716972351074,-0.28964561223983765,0.0,0.0,0.0,0.0,0.0,0.0,0.0,-0.29682855451826407,0.099386856974024,-0.056847129974656525,0.096039551600199,-0.3300261660423906,-0.04175533920037794,-0.26721662656180856,1.675380685618869,0.05225661006648418,0.029869297774475917,-2.752317938132428,0.034481465637044545,2.7663693784607783,0.7691702208406965,1.6754973547542302,0.052104326824870026,0.029969505109285054,-2.752394845125968,0.0342448039870148,2.7663679543071322,0.7691630533470046,0.00036518889025798784,0.0002982746109585192,-7.786992942276325e-05,0.00040673188032422575,-0.0002644020154855218,0.0004470433063642257,0.0011561976503309285,0.0,0.0,0.0,0.0,0.0,0.0,0.0,0.00011666913536112489,-0.00015228324161415535,0.00010020733480913674,-7.690699354023778e-05,-0.00023666165002974443,-1.4241536461234716e-06,-7.167493691895288e-06,-0.00036518889025798784,-0.0002982746109585192,7.786992942276325e-05,-0.00040673188032422575,0.0002644020154855218,-0.0004470433063642257,-0.0011561976503309285,0.2998287081718445,22.696680068969727,-0.02542426437139511,-13.957246780395508,0.09034198522567749,-2.1325716972351074,0.28964561223983765,0
5,0.019999027252197266,-0.2998287081718445,-22.696680068969727,0.02542426437139511,13.957246780395508,-0.09034198522567749,2.1325716972351074,-0.28964561223983765,0.0,0.0,0.0,0.0,0.0,0.0,0.0,-0.29682855451826407,0.099386856974024,-0.056847129974656525,0.096039551600199,-0.3300261660423906,-0.04175533920037794,-0.26721662656180856,1.675380685618869,0.05225661006648418,0.029869297774475917,-2.752317938132428,0.034481465637044545,2.7663693784607783,0.7691702208406965,1.6754973547542302,0.052104326824870026,0.029969505109285054,-2.752394845125968,0.0342448039870148,2.7663679543071322,0.7691630533470046,0.00036518889025798784,0.0002982746109585192,-7.786992942276325e-05,0.00040673188032422575,-0.0002644020154855218,0.0004470433063642257,0.0011561976503309285,0.0,0.0,0.0,0.0,0.0,0.0,0.0,0.00011666913536112489,-0.00015228324161415535,0.00010020733480913674,-7.690699354023778e-05,-0.00023666165002974443,-1.4241536461234716e-06,-7.167493691895288e-06,-0.00036518889025798784,-0.0002982746109585192,7.786992942276325e-05,-0.00040673188032422575,0.0002644020154855218,-0.0004470433063642257,-0.0011561976503309285,0.2998287081718445,22.696680068969727,-0.02542426437139511,-13.957246780395508,0.09034198522567749,-2.1325716972351074,0.28964561223983765,0
6,0.024999618530273438,-0.3236324191093445,-22.748254776000977,0.001620553433895111,13.933443069458008,-0.10865253210067749,2.1517977714538574,-0.28964561223983765,0.0,0.0,0.0,0.0,0.0,0.0,0.0,-0.29266701433505315,0.09373272292162245,-0.056006628592559435,0.09859327426082423,-0.32975779400422567,-0.04148044174930592,-0.2665748683996336,1.675383063461306,0.05225928259895207,0.02987096821033118,-2.7523162673816364,0.03448354250769901,2.7663672422303094,0.7691702224577703,1.6754973547542302,0.052104326824870026,0.029969505109285054,-2.752394845125968,0.0342448039870148,2.7663679543071322,0.7691630533470046,0.0007551528740601304,0.0007765531205765603,0.0006225133795531399,0.001058757409507918,0.00032858756412338237,-0.00037767546769396104,0.0012776094939090633,0.0,0.0,0.0,0.0,0.0,0.0,0.0,0.0001142912929241735,-0.00015495577408204675,9.853689895387291e-05,-7.857774433173148e-05,-0.0002387385206842063,7.120768228396912e-07,-7.169110765703479e-06,-0.0007551528740601304,-0.0007765531205765603,-0.0006225133795531399,-0.001058757409507918,-0.00032858756412338237,0.00037767546769396104,-0.0012776094939090633,0.3236324191093445,22.748254776000977,-0.001620553433895111,-13.933443069458008,0.10865253210067749,-2.1517977714538574,0.28964561223983765,0
7,0.02999711036682129,-0.3236324191093445,-22.748254776000977,0.001620553433895111,13.933443069458008,-0.10865253210067749,2.1517977714538574,-0.28964561223983765,0.0,0.0,0.0,0.0,0.0,0.0,0.0,-0.29266701433505315,0.09373272292162245,-0.056006628592559435,0.09859327426082423,-0.32975779400422567,-0.04148044174930592,-0.2665748683996336,1.675383063461306,0.05225928259895207,0.02987096821033118,-2.7523162673816364,0.03448354250769901,2.7663672422303094,0.7691702224577703,1.6754973547542302,0.052104326824870026,0.029969505109285054,-2.752394845125968,0.0342448039870148,2.7663679543071322,0.7691630533470046,0.0007551528740601304,0.0007765531205765603,0.0006225133795531399,0.001058757409507918,0.00032858756412338237,-0.00037767546769396104,0.0012776094939090633,0.0,0.0,0.0,0.0,0.0,0.0,0.0,0.0001142912929241735,-0.00015495577408204675,9.853689895387291e-05,-7.857774433173148e-05,-0.0002387385206842063,7.120768228396912e-07,-7.169110765703479e-06,-0.0007551528740601304,-0.0007765531205765603,-0.0006225133795531399,-0.001058757409507918,-0.00032858756412338237,0.00037767546769396104,-0.0012776094939090633,0.3236324191093445,22.748254776000977,-0.001620553433895111,-13.933443069458008,0.10865253210067749,-2.1517977714538574,0.28964561223983765,0
8,0.03500103950500488,-0.3236324191093445,-22.720483779907227,-0.02615044265985489,13.957246780395508,-0.10224384069442749,2.1453890800476074,-0.26217979192733765,0.0,0.0,0.0,0.0,0.0,0.0,0.0,-0.2910910892779273,0.1024358980861123,-0.05753985407081014,0.09612448454811202,-0.3301379572937743,-0.04246726765427023,-0.2652752200985953,1.6753854183257142,0.052257332451151876,0.029872917052162322,-2.75231793781749,0.03448314611497461,2.7663679543071322,0.7691671692464168,1.6754973547542302,0.052104326824870026,0.029969505109285054,-2.752394845125968,0.0342448039870148,2.7663679543071322,0.7691630533470046,0.0007741970752586544,0.0007326035140303365,-0.005378846473655735,0.0005615541165314474,0.00011921916698579723,-0.00012261768663510245,0.00015334742461151153,0.0,0.0,0.0,0.0,0.0,0.0,0.0,0.00011193642851603514,-0.0001530056262818505,9.658805712273177e-05,-7.690730847809135e-05,-0.0002383421279598119,0.0,-4.1158994121826e-06,-0.0007741970752586544,-0.0007326035140303365,0.005378846473655735,-0.0005615541165314474,-0.00011921916698579723,0.00012261768663510245,-0.00015334742461151153,0.3236324191093445,22.720483779907227,0.02615044265985489,-13.957246780395508,0.10224384069442749,-2.1453890800476074,0.26217979192733765,0
9,0.04000091552734375,-0.3236324191093445,-22.720483779907227,-0.02615044265985489,13.957246780395508,-0.10224384069442749,2.1453890800476074,-0.26217979192733765,0.0,0.0,0.0,0.0,0.0,0.0,0.0,-0.2910910892779273,0.1024358980861123,-0.05753985407081014,0.09612448454811202,-0.3301379572937743,-0.04246726765427023,-0.2652752200985953,1.6753854183257142,0.052257332451151876,0.029872917052162322,-2.75231793781749,0.03448314611497461,2.7663679543071322,0.7691671692464168,1.6754973547542302,0.052104326824870026,0.029969505109285054,-2.752394845125968,0.0342448039870148,2.7663679543071322,0.7691630533470046,0.0007741970752586544,0.0007326035140303365,-0.005378846473655735,0.0005615541165314474,0.00011921916698579723,-0.00012261768663510245,0.00015334742461151153,0.0,0.0,0.0,0.0,0.0,0.0,0.0,0.00011193642851603514,-0.0001530056262818505,9.658805712273177e-05,-7.690730847809135e-05,-0.0002383421279598119,0.0,-4.1158994121826e-06,-0.0007741970752586544,-0.0007326035140303365,0.005378846473655735,-0.0005615541165314474,-0.00011921916698579723,0.00012261768663510245,-0.00015334742461151153,0.3236324191093445,22.720483779907227,0.02615044265985489,-13.957246780395508,0.10224384069442749,-2.1453890800476074,0.26217979192733765,0
10,0.04500436782836914,-0.3236324191093445,-22.720483779907227,-0.02615044265985489,13.957246780395508,-0.10224384069442749,2.1453890800476074,-0.26217979192733765,0.0,0.0,0.0,0.0,0.0,0.0,0.0,-0.2910910892779273,0.1024358980861123,-0.05753985407081014,0.09612448454811202,-0.3301379572937743,-0.04246726765427023,-0.2652752200985953,1.6753854183257142,0.052257332451151876,0.029872917052162322,-2.75231793781749,0.03448314611497461,2.7663679543071322,0.7691671692464168,1.6754973547542302,0.052104326824870026,0.029969505109285054,-2.752394845125968,0.0342448039870148,2.7663679543071322,0.7691630533470046,0.0007741970752586544,0.0007326035140303365,-0.005378846473655735,0.0005615541165314474,0.00011921916698579723,-0.00012261768663510245,0.00015334742461151153,0.0,0.0,0.0,0.0,0.0,0.0,0.0,0.00011193642851603514,-0.0001530056262818505,9.658805712273177e-05,-7.690730847809135e-05,-0.0002383421279598119,0.0,-4.1158994121826e-06,-0.0007741970752586544,-0.0007326035140303365,0.005378846473655735,-0.0005615541165314474,-0.00011921916698579723,0.00012261768663510245,-0.00015334742461151153,0.3236324191093445,22.720483779907227,0.02615044265985489,-13.957246780395508,0.10224384069442749,-2.1453890800476074,0.26217979192733765,0
11,0.05000138282775879,-0.3236324191093445,-22.720483779907227,-0.02615044265985489,13.957246780395508,-0.10224384069442749,2.1453890800476074,-0.26217979192733765,0.0,0.0,0.0,0.0,0.0,0.0,0.0,-0.2910910892779273,0.1024358980861123,-0.05753985407081014,0.09612448454811202,-0.3301379572937743,-0.04246726765427023,-0.2652752200985953,1.6753854183257142,0.052257332451151876,0.029872917052162322,-2.75231793781749,0.03448314611497461,2.7663679543071322,0.7691671692464168,1.6754973547542302,0.052104326824870026,0.029969505109285054,-2.752394845125968,0.0342448039870148,2.7663679543071322,0.7691630533470046,0.0007741970752586544,0.0007326035140303365,-0.005378846473655735,0.0005615541165314474,0.00011921916698579723,-0.00012261768663510245,0.00015334742461151153,0.0,0.0,0.0,0.0,0.0,0.0,0.0,0.00011193642851603514,-0.0001530056262818505,9.658805712273177e-05,-7.690730847809135e-05,-0.0002383421279598119,0.0,-4.1158994121826e-06,-0.0007741970752586544,-0.0007326035140303365,0.005378846473655735,-0.0005615541165314474,-0.00011921916698579723,0.00012261768663510245,-0.00015334742461151153,0.3236324191093445,22.720483779907227,0.02615044265985489,-13.957246780395508,0.10224384069442749,-2.1453890800476074,0.26217979192733765,0
12,0.055001258850097656,-0.3236324191093445,-22.696680068969727,0.001620553433895111,13.933443069458008,-0.10224384069442749,2.1453890800476074,-0.28232139348983765,0.0,0.0,0.0,0.0,0.0,0.0,0.0,-0.2619293589508602,0.09752297361949956,-0.029769734132699795,0.09717096125858814,-0.3331473004037039,-0.042318754839360144,-0.26398186422683634,1.6753847109634463,0.052257883373806185,0.02987096821033118,-2.7523162683264424,0.03448278660415324,2.7663679543071322,0.7691694072021378,1.6754973547542302,0.052104326824870026,0.029969505109285054,-2.752394845125968,0.0342448039870148,2.7663679543071322,0.7691630533470046,0.0008096415819778342,-0.000188273220303021,5.554743998491165e-05,0.0007327513039120532,0.00023520406740889239,-3.719618295475559e-05,0.0011084135599105135,0.0,0.0,0.0,0.0,0.0,0.0,0.0,0.00011264379078390618,-0.00015355654893615955,9.853689895387291e-05,-7.857679952572028e-05,-0.0002379826171384422,0.0,-6.3538551331454585e-06,-0.0008096415819778342,0.000188273220303021,-5.554743998491165e-05,-0.0007327513039120532,-0.00023520406740889239,3.719618295475559e-05,-0.0011084135599105135,0.3236324191093445,22.696680068969727,-0.001620553433895111,-13.933443069458008,0.10224384069442749,-2.1453890800476074,0.28232139348983765,0
13,0.06001591682434082,-0.3236324191093445,-22.696680068969727,0.001620553433895111,13.933443069458008,-0.10224384069442749,2.1453890800476074,-0.28232139348983765,0.0,0.0,0.0,0.0,0.0,0.0,0.0,-0.2619293589508602,0.09752297361949956,-0.029769734132699795,0.09717096125858814,-0.3331473004037039,-0.042318754839360144,-0.26398186422683634,1.6753847109634463,0.052257883373806185,0.02987096821033118,-2.7523162683264424,0.03448278660415324,2.7663679543071322,0.7691694072021378,1.6754973547542302,0.052104326824870026,0.029969505109285054,-2.752394845125968,0.0342448039870148,2.7663679543071322,0.7691630533470046,0.0008096415819778342,-0.000188273220303021,5.554743998491165e-05,0.0007327513039120532,0.00023520406740889239,-3.719618295475559e-05,0.0011084135599105135,0.0,0.0,0.0,0.0,0.0,0.0,0.0,0.00011264379078390618,-0.00015355654893615955,9.853689895387291e-05,-7.857679952572028e-05,-0.0002379826171384422,0.0,-6.3538551331454585e-06,-0.0008096415819778342,0.000188273220303021,-5.554743998491165e-05,-0.0007327513039120532,-0.00023520406740889239,3.719618295475559e-05,-0.0011084135599105135,0.3236324191093445,22.696680068969727,-0.001620553433895111,-13.933443069458008,0.10224384069442749,-2.1453890800476074,0.28232139348983765,0
14,0.06580424308776855,-0.2998287081718445,-22.696680068969727,0.02542426437139511,13.957246780395508,-0.10224384069442749,2.1389803886413574,-0.24112264811992645,0.0,0.0,0.0,0.0,0.0,0.0,0.0,-0.30174539911959214,0.10143077954932624,-0.06626550059000576,0.09903071832850957,-0.329600219455245,-0.041955546909021375,-0.2626745715377779,1.6753835996613644,0.052257796249399774,0.029869297774475917,-2.7523179661617205,0.034482786585887285,2.766368666383955,0.7691648295637633,1.6754973547542302,0.052104326824870026,0.029969505109285054,-2.752394845125968,0.0342448039870148,2.7663679543071322,0.7691630533470046,-7.473940539219594e-05,0.00014001649255733517,-0.00010848999533537789,0.00043661260070088656,0.00017933574394305682,1.8857195786537594e-06,-0.00105834413323645,0.0,0.0,0.0,0.0,0.0,0.0,0.0,0.00011375509286581931,-0.000153469424529748,0.00010020733480913674,-7.687896424757312e-05,-0.00023798259887248402,-7.120768228396912e-07,-1.776216758675453e-06,7.473940539219594e-05,-0.00014001649255733517,0.00010848999533537789,-0.00043661260070088656,-0.00017933574394305682,-1.8857195786537594e-06,0.00105834413323645,0.2998287081718445,22.696680068969727,-0.02542426437139511,-13.957246780395508,0.10224384069442749,-2.1389803886413574,0.24112264811992645,0
15,0.07036733627319336,-0.2998287081718445,-22.696680068969727,0.02542426437139511,13.957246780395508,-0.10224384069442749,2.1389803886413574,-0.24112264811992645,0.0,0.0,0.0,0.0,0.0,0.0,0.0,-0.30174539911959214,0.10143077954932624,-0.06626550059000576,0.09903071832850957,-0.329600219455245,-0.041955546909021375,-0.2626745715377779,1.6753835996613644,0.052257796249399774,0.029869297774475917,-2.7523179661617205,0.034482786585887285,2.766368666383955,0.7691648295637633,1.6754973547542302,0.052104326824870026,0.029969505109285054,-2.752394845125968,0.0342448039870148,2.7663679543071322,0.7691630533470046,-7.473940539219594e-05,0.00014001649255733517,-0.00010848999533537789,0.00043661260070088656,0.00017933574394305682,1.8857195786537594e-06,-0.00105834413323645,0.0,0.0,0.0,0.0,0.0,0.0,0.0,0.00011375509286581931,-0.000153469424529748,0.00010020733480913674,-7.687896424757312e-05,-0.00023798259887248402,-7.120768228396912e-07,-1.776216758675453e-06,7.473940539219594e-05,-0.00014001649255733517,0.00010848999533537789,-0.00043661260070088656,-0.00017933574394305682,-1.8857195786537594e-06,0.00105834413323645,0.2998287081718445,22.696680068969727,-0.02542426437139511,-13.957246780395508,0.10224384069442749,-2.1389803886413574,0.24112264811992645,0
16,0.07500648498535156,-0.2998287081718445,-22.720483779907227,0.001620553433895111,13.957246780395508,-0.09675067663192749,2.1453890800476074,-0.28964561223983765,0.0,0.0,0.0,0.0,0.0,0.0,0.0,-0.3045658627582114,0.1009101325421016,-0.06842768043906397,0.0989197487248779,-0.32935011025948696,-0.04222097663624514,-0.26320123411106583,1.6753813905345267,0.05225812248428011,0.02987096821033118,-2.752317940652073,0.034482176721491224,2.7663679543071322,0.769170221004221,1.6754973547542302,0.052104326824870026,0.029969505109285054,-2.752394845125968,0.0342448039870148,2.7663679543071322,0.7691630533470046,0.00016945444244339413,0.0004848982020291031,0.0003837247885298319,0.00037590204259712283,-0.0001352314208741448,-0.00014793109489518122,0.0005376053739631274,0.0,0.0,0.0,0.0,0.0,0.0,0.0,0.00011596421970350157,-0.00015379565941008727,9.853689895387291e-05,-7.690447389530064e-05,-0.0002373727344764237,0.0,-7.1676572164225405e-06,-0.00016945444244339413,-0.0004848982020291031,-0.0003837247885298319,-0.00037590204259712283,0.0001352314208741448,0.00014793109489518122,-0.0005376053739631274,0.2998287081718445,22.720483779907227,-0.001620553433895111,-13.957246780395508,0.09675067663192749,-2.1453890800476074,0.28964561223983765,0
17,0.08000469207763672,-0.2998287081718445,-22.720483779907227,0.001620553433895111,13.957246780395508,-0.09675067663192749,2.1453890800476074,-0.28964561223983765,0.0,0.0,0.0,0.0,0.0,0.0,0.0,-0.3045658627582114,0.1009101325421016,-0.06842768043906397,0.0989197487248779,-0.32935011025948696,-0.04222097663624514,-0.26320123411106583,1.6753813905345267,0.05225812248428011,0.02987096821033118,-2.752317940652073,0.034482176721491224,2.7663679543071322,0.769170221004221,1.6754973547542302,0.052104326824870026,0.029969505109285054,-2.752394845125968,0.0342448039870148,2.7663679543071322,0.7691630533470046,0.00016945444244339413,0.0004848982020291031,0.0003837247885298319,0.00037590204259712283,-0.0001352314208741448,-0.00014793109489518122,0.0005376053739631274,0.0,0.0,0.0,0.0,0.0,0.0,0.0,0.00011596421970350157,-0.00015379565941008727,9.853689895387291e-05,-7.690447389530064e-05,-0.0002373727344764237,0.0,-7.1676572164225405e-06,-0.00016945444244339413,-0.0004848982020291031,-0.0003837247885298319,-0.00037590204259712283,0.0001352314208741448,0.00014793109489518122,-0.0005376053739631274,0.2998287081718445,22.720483779907227,-0.001620553433895111,-13.957246780395508,0.09675067663192749,-2.1453890800476074,0.28964561223983765,0
18,0.08500385284423828,-0.2998287081718445,-22.748254776000977,0.04922797530889511,13.957246780395508,-0.10224384069442749,2.1517977714538574,-0.28964561223983765,0.0,0.0,0.0,0.0,0.0,0.0,0.0,-0.30090264995379923,0.09492708642423775,-0.06509782818306818,0.10069148467546411,-0.32959349740224114,-0.041547384225711755,-0.26504595939964576,1.675383113960244,0.05225936056328196,0.029867627338620653,-2.7523179633273127,0.03448278664001963,2.7663672422303094,0.769170221004221,1.6754973547542302,0.052104326824870026,0.029969505109285054,-2.752394845125968,0.0342448039870148,2.7663679543071322,0.7691630533470046,3.001230259350686e-05,0.0005062171001361658,-0.00029308407721815606,0.00019877595603035877,0.00016262962263536643,-0.00024202365077362489,0.0007397138409808832,0.0,0.0,0.0,0.0,0.0,0.0,0.0,0.00011424079398625331,-0.00015503373841193463,0.00010187777066440057,-7.688179865539269e-05,-0.00023798265300482846,7.120768228396912e-07,-7.1676572164225405e-06,-3.001230259350686e-05,-0.0005062171001361658,0.00029308407721815606,-0.00019877595603035877,-0.00016262962263536643,0.00024202365077362489,-0.0007397138409808832,0.2998287081718445,22.748254776000977,-0.04922797530889511,-13.957246780395508,0.10224384069442749,-2.1517977714538574,0.28964561223983765,0
19,0.09000325202941895,-0.2998287081718445,-22.748254776000977,0.04922797530889511,13.957246780395508,-0.10224384069442749,2.1517977714538574,-0.28964561223983765,0.0,0.0,0.0,0.0,0.0,0.0,0.0,-0.30090264995379923,0.09492708642423775,-0.06509782818306818,0.10069148467546411,-0.32959349740224114,-0.041547384225711755,-0.26504595939964576,1.675383113960244,0.05225936056328196,0.029867627338620653,-2.7523179633273127,0.03448278664001963,2.7663672422303094,0.769170221004221,1.6754973547542302,0.052104326824870026,0.029969505109285054,-2.752394845125968,0.0342448039870148,2.7663679543071322,0.7691630533470046,3.001230259350686e-05,0.0005062171001361658,-0.00029308407721815606,0.00019877595603035877,0.00016262962263536643,-0.00024202365077362489,0.0007397138409808832,0.0,0.0,0.0,0.0,0.0,0.0,0.0,0.00011424079398625331,-0.00015503373841193463,0.00010187777066440057,-7.688179865539269e-05,-0.00023798265300482846,7.120768228396912e-07,-7.1676572164225405e-06,-3.001230259350686e-05,-0.0005062171001361658,0.00029308407721815606,-0.00019877595603035877,-0.00016262962263536643,0.00024202365077362489,-0.0007397138409808832,0.2998287081718445,22.748254776000977,-0.04922797530889511,-13.957246780395508,0.10224384069442749,-2.1517977714538574,0.28964561223983765,0
20,0.09500002861022949,-0.2720577120780945,-22.696680068969727,0.04922797530889511,13.957246780395508,-0.09675067663192749,2.1453890800476074,-0.26217979192733765,0.0,0.0,0.0,0.0,0.0,0.0,0.0,-0.3015444694534633,0.10064676960715191,-0.06506646451667236,0.09328096398958678,-0.3295045575034929,-0.042106717575758845,-0.26601123811615207,1.6753795227168893,0.05225574482306879,0.029867627338620653,-2.752318626582706,0.03448229461577295,2.7663679543071322,0.7691671692464086,1.6754973547542302,0.052104326824870026,0.029969505109285054,-2.752394845125968,0.0342448039870148,2.7663679543071322,0.7691630533470046,-0.0006192014645026734,5.3531742003518395e-05,-0.0006401425730581056,0.00021015464061005238,-2.2703665172225063e-05,1.54833639283952e-05,-6.819353955058894e-05,0.0,0.0,0.0,0.0,0.0,0.0,0.0,0.00011783203734094805,-0.00015141799819876067,0.00010187777066440057,-7.621854326211874e-05,-0.00023749062875814964,0.0,-4.115899403966949e-06,0.0006192014645026734,-5.3531742003518395e-05,0.0006401425730581056,-0.00021015464061005238,2.2703665172225063e-05,-1.54833639283952e-05,6.819353955058894e-05,0.2720577120780945,22.696680068969727,-0.04922797530889511,-13.957246780395508,0.09675067663192749,-2.1453890800476074,0.26217979192733765,0
21,0.10000014305114746,-0.2720577120780945,-22.696680068969727,0.04922797530889511,13.957246780395508,-0.09675067663192749,2.1453890800476074,-0.26217979192733765,0.0,0.0,0.0,0.0,0.0,0.0,0.0,-0.3015444694534633,0.10064676960715191,-0.06506646451667236,0.09328096398958678,-0.3295045575034929,-0.042106717575758845,-0.26601123811615207,1.6753795227168893,0.05225574482306879,0.029867627338620653,-2.752318626582706,0.03448229461577295,2.7663679543071322,0.7691671692464086,1.6754973547542302,0.052104326824870026,0.029969505109285054,-2.752394845125968,0.0342448039870148,2.7663679543071322,0.7691630533470046,-0.0006192014645026734,5.3531742003518395e-05,-0.0006401425730581056,0.00021015464061005238,-2.2703665172225063e-05,1.54833639283952e-05,-6.819353955058894e-05,0.0,0.0,0.0,0.0,0.0,0.0,0.0,0.00011783203734094805,-0.00015141799819876067,0.00010187777066440057,-7.621854326211874e-05,-0.00023749062875814964,0.0,-4.115899403966949e-06,0.0006192014645026734,-5.3531742003518395e-05,0.0006401425730581056,-0.00021015464061005238,2.2703665172225063e-05,-1.54833639283952e-05,6.819353955058894e-05,0.2720577120780945,22.696680068969727,-0.04922797530889511,-13.957246780395508,0.09675067663192749,-2.1453890800476074,0.26217979192733765,0
22,0.10579037666320801,-0.2998287081718445,-22.649072647094727,0.02542426437139511,13.981050491333008,-0.10224384069442749,2.1325716972351074,-0.29605430364608765,0.0,0.0,0.0,0.0,0.0,0.0,0.0,-0.2994764928183471,0.09619305093788884,-0.06245347790779108,0.09735693846099389,-0.32915298673734805,-0.04089903570615274,-0.26536809533292327,1.6753828814743508,0.0522525681540317,0.029869297774475917,-2.7523196085812414,0.03448278665828283,2.76636619954639,0.769170933081044,1.6754973547542302,0.052104326824870026,0.029969505109285054,-2.752394845125968,0.0342448039870148,2.7663679543071322,0.7691630533470046,-0.000107235078227821,-0.0011169831795357803,0.0003471382181124184,6.0140200250316095e-05,0.00018350208429172678,0.0002507848053429353,0.0014370885041342922,0.0,0.0,0.0,0.0,0.0,0.0,0.0,0.00011447327987945677,-0.00014824132916167743,0.00010020733480913674,-7.523654472674224e-05,-0.0002379826712680319,1.7547607420453915e-06,-7.879734039373254e-06,0.000107235078227821,0.0011169831795357803,-0.0003471382181124184,-6.0140200250316095e-05,-0.00018350208429172678,-0.0002507848053429353,-0.0014370885041342922,0.2998287081718445,22.649072647094727,-0.02542426437139511,-13.981050491333008,0.10224384069442749,-2.1325716972351074,0.29605430364608765,0
23,0.11013126373291016,-0.2998287081718445,-22.649072647094727,0.02542426437139511,13.981050491333008,-0.10224384069442749,2.1325716972351074,-0.29605430364608765,0.0,0.0,0.0,0.0,0.0,0.0,0.0,-0.2994764928183471,0.09619305093788884,-0.06245347790779108,0.09735693846099389,-0.32915298673734805,-0.04089903570615274,-0.26536809533292327,1.6753828814743508,0.0522525681540317,0.029869297774475917,-2.7523196085812414,0.03448278665828283,2.76636619954639,0.769170933081044,1.6754973547542302,0.052104326824870026,0.029969505109285054,-2.752394845125968,0.0342448039870148,2.7663679543071322,0.7691630533470046,-0.000107235078227821,-0.0011169831795357803,0.0003471382181124184,6.0140200250316095e-05,0.00018350208429172678,0.0002507848053429353,0.0014370885041342922,0.0,0.0,0.0,0.0,0.0,0.0,0.0,0.00011447327987945677,-0.00014824132916167743,0.00010020733480913674,-7.523654472674224e-05,-0.0002379826712680319,1.7547607420453915e-06,-7.879734039373254e-06,0.000107235078227821,0.0011169831795357803,-0.0003471382181124184,-6.0140200250316095e-05,-0.00018350208429172678,-0.0002507848053429353,-0.0014370885041342922,0.2998287081718445,22.649072647094727,-0.02542426437139511,-13.981050491333008,0.10224384069442749,-2.1325716972351074,0.29605430364608765,0
24,0.11501240730285645,-0.2720577120780945,-22.696680068969727,0.02542426437139511,13.957246780395508,-0.10865253210067749,2.1453890800476074,-0.22830526530742645,0.0,0.0,0.0,0.0,0.0,0.0,0.0,-0.2961498773369763,0.09679617808666506,-0.058645130153706586,0.09691513414686499,-0.3292995584293581,-0.041525204745998835,-0.2646803319608685,1.6753816748031074,0.05225803327497625,0.029869297774475917,-2.7523179406519187,0.03448456555723612,2.766367954253297,0.7691634058946342,1.6754973547542302,0.052104326824870026,0.029969505109285054,-2.752394845125968,0.0342448039870148,2.7663679543071322,0.7691630533470046,5.21262415469365e-06,-0.0002721322146458188,-0.0006805111534572111,0.0001260802053433501,0.0005084698655581972,-3.8171336295839074e-05,-0.0014328983349090978,0.0,0.0,0.0,0.0,0.0,0.0,0.0,0.00011567995112282681,-0.00015370645010622658,0.00010020733480913674,-7.69044740493996e-05,-0.0002397615702213196,5.383515855328369e-11,-3.5254762953407237e-07,-5.21262415469365e-06,0.0002721322146458188,0.0006805111534572111,-0.0001260802053433501,-0.0005084698655581972,3.8171336295839074e-05,0.0014328983349090978,0.2720577120780945,22.696680068969727,-0.02542426437139511,-13.957246780395508,0.10865253210067749,-2.1453890800476074,0.22830526530742645,0
25,0.12079668045043945,-0.2720577120780945,-22.696680068969727,0.02542426437139511,13.957246780395508,-0.10865253210067749,2.1453890800476074,-0.22830526530742645,0.0,0.0,0.0,0.0,0.0,0.0,0.0,-0.2961498773369763,0.09679617808666506,-0.058645130153706586,0.09691513414686499,-0.3292995584293581,-0.041525204745998835,-0.2646803319608685,1.6753816748031074,0.05225803327497625,0.029869297774475917,-2.7523179406519187,0.03448456555723612,2.766367954253297,0.7691634058946342,1.6754973547542302,0.052104326824870026,0.029969505109285054,-2.752394845125968,0.0342448039870148,2.7663679543071322,0.7691630533470046,5.21262415469365e-06,-0.0002721322146458188,-0.0006805111534572111,0.0001260802053433501,0.0005084698655581972,-3.8171336295839074e-05,-0.0014328983349090978,0.0,0.0,0.0,0.0,0.0,0.0,0.0,0.00011567995112282681,-0.00015370645010622658,0.00010020733480913674,-7.69044740493996e-05,-0.0002397615702213196,5.383515855328369e-11,-3.5254762953407237e-07,-5.21262415469365e-06,0.0002721322146458188,0.0006805111534572111,-0.0001260802053433501,-0.0005084698655581972,3.8171336295839074e-05,0.0014328983349090978,0.2720577120780945,22.696680068969727,-0.02542426437139511,-13.957246780395508,0.10865253210067749,-2.1453890800476074,0.22830526530742645,0
26,0.1250011920928955,-0.2998287081718445,-22.696680068969727,0.02542426437139511,13.957246780395508,-0.10224384069442749,2.1517977714538574,-0.22830526530742645,0.0,0.0,0.0,0.0,0.0,0.0,0.0,-0.295183045404852,0.09903313469262583,-0.06265483959337864,0.09595084492209383,-0.3291867391644516,-0.04177068001306546,-0.26385135865156006,1.6753836172897605,0.05225566191136539,0.029869297774475917,-2.7523179378524882,0.03448290496934208,2.7663672422303094,0.7691634054101183,1.6754973547542302,0.052104326824870026,0.029969505109285054,-2.752394845125968,0.0342448039870148,2.7663679543071322,0.7691630533470046,4.998080810926005e-06,-0.00013829941617498915,0.00638210014193472,2.806629822210705e-05,9.484061498311769e-05,-0.0001294041075040727,-0.001246446923581084,0.0,0.0,0.0,0.0,0.0,0.0,0.0,0.00011373746446974309,-0.00015133508649536193,0.00010020733480913674,-7.690727347986481e-05,-0.00023810098232728005,7.120768228396912e-07,-3.5206311366220433e-07,-4.998080810926005e-06,0.00013829941617498915,-0.00638210014193472,-2.806629822210705e-05,-9.484061498311769e-05,0.0001294041075040727,0.001246446923581084,0.2998287081718445,22.696680068969727,-0.02542426437139511,-13.957246780395508,0.10224384069442749,-2.1517977714538574,0.22830526530742645,0
27,0.13001012802124023,-0.2998287081718445,-22.696680068969727,0.02542426437139511,13.957246780395508,-0.10224384069442749,2.1517977714538574,-0.22830526530742645,0.0,0.0,0.0,0.0,0.0,0.0,0.0,-0.295183045404852,0.09903313469262583,-0.06265483959337864,0.09595084492209383,-0.3291867391644516,-0.04177068001306546,-0.26385135865156006,1.6753836172897605,0.05225566191136539,0.029869297774475917,-2.7523179378524882,0.03448290496934208,2.7663672422303094,0.7691634054101183,1.6754973547542302,0.052104326824870026,0.029969505109285054,-2.752394845125968,0.0342448039870148,2.7663679543071322,0.7691630533470046,4.998080810926005e-06,-0.00013829941617498915,0.00638210014193472,2.806629822210705e-05,9.484061498311769e-05,-0.0001294041075040727,-0.001246446923581084,0.0,0.0,0.0,0.0,0.0,0.0,0.0,0.00011373746446974309,-0.00015133508649536193,0.00010020733480913674,-7.690727347986481e-05,-0.00023810098232728005,7.120768228396912e-07,-3.5206311366220433e-07,-4.998080810926005e-06,0.00013829941617498915,-0.00638210014193472,-2.806629822210705e-05,-9.484061498311769e-05,0.0001294041075040727,0.001246446923581084,0.2998287081718445,22.696680068969727,-0.02542426437139511,-13.957246780395508,0.10224384069442749,-2.1517977714538574,0.22830526530742645,0
28,0.13500428199768066,-0.2998287081718445,-22.720483779907227,0.02542426437139511,13.981050491333008,-0.10224384069442749,2.1389803886413574,-0.24112264811992645,0.0,0.0,0.0,0.0,0.0,0.0,0.0,-0.31186833282585547,0.10046410541659077,-0.07731336935010287,0.09639968770097367,-0.3283129671185102,-0.04099738165896097,-0.2627488269084207,1.6753809127526602,0.05225978217766694,0.029869297774475917,-2.7523196091981528,0.0344827880480549,2.766368666383955,0.7691648295637633,1.6754973547542302,0.052104326824870026,0.029969505109285054,-2.752394845125968,0.0342448039870148,2.7663679543071322,0.7691630533470046,9.556593042515725e-06,0.0006373265425930973,0.001028342763969544,-0.0006669370760519382,0.00010271318290627513,0.0003009497909696725,-0.0012153012998062046,0.0,0.0,0.0,0.0,0.0,0.0,0.0,0.00011644200157001627,-0.00015545535279691547,0.00010020733480913674,-7.52359278153314e-05,-0.00023798406104010017,-7.120768228396912e-07,-1.776216758675453e-06,-9.556593042515725e-06,-0.0006373265425930973,-0.001028342763969544,0.0006669370760519382,-0.00010271318290627513,-0.0003009497909696725,0.0012153012998062046,0.2998287081718445,22.720483779907227,-0.02542426437139511,-13.981050491333008,0.10224384069442749,-2.1389803886413574,0.24112264811992645,0
29,0.1400134563446045,-0.2998287081718445,-22.720483779907227,0.02542426437139511,13.981050491333008,-0.10224384069442749,2.1389803886413574,-0.24112264811992645,0.0,0.0,0.0,0.0,0.0,0.0,0.0,-0.31186833282585547,0.10046410541659077,-0.07731336935010287,0.09639968770097367,-0.3283129671185102,-0.04099738165896097,-0.2627488269084207,1.6753809127526602,0.05225978217766694,0.029869297774475917,-2.7523196091981528,0.0344827880480549,2.766368666383955,0.7691648295637633,1.6754973547542302,0.052104326824870026,0.029969505109285054,-2.752394845125968,0.0342448039870148,2.7663679543071322,0.7691630533470046,9.556593042515725e-06,0.0006373265425930973,0.001028342763969544,-0.0006669370760519382,0.00010271318290627513,0.0003009497909696725,-0.0012153012998062046,0.0,0.0,0.0,0.0,0.0,0.0,0.0,0.00011644200157001627,-0.00015545535279691547,0.00010020733480913674,-7.52359278153314e-05,-0.00023798406104010017,-7.120768228396912e-07,-1.776216758675453e-06,-9.556593042515725e-06,-0.0006373265425930973,-0.001028342763969544,0.0006669370760519382,-0.00010271318290627513,-0.0003009497909696725,0.0012153012998062046,0.2998287081718445,22.720483779907227,-0.02542426437139511,-13.981050491333008,0.10224384069442749,-2.1389803886413574,0.24112264811992645,0
30,0.14499878883361816,-0.3514034152030945,-22.720483779907227,0.07303168624639511,14.008821487426758,-0.10865253210067749,2.1453890800476074,-0.28232139348983765,0.0,0.0,0.0,0.0,0.0,0.0,0.0,-0.29129930169483315,0.09391562836588499,-0.052465180523980436,0.1008443644106138,-0.33054744772178646,-0.04022136068101174,-0.2627249318982785,1.675385088291755,0.05225764843603595,0.029865956902765393,-2.752321633624613,0.03448456604442611,2.7663679543071322,0.7691694072021378,1.6754973547542302,0.052104326824870026,0.029969505109285054,-2.752394845125968,0.0342448039870148,2.7663679543071322,0.7691630533470046,0.001319266620336821,-0.00021880987251817068,-0.001081557882194727,-0.000723415404321693,0.0006086287411077415,-0.00018468751750814954,0.0005646243231632011,0.0,0.0,0.0,0.0,0.0,0.0,0.0,0.0001122664624753078,-0.00015332161116592136,0.00010354820651966093,-7.321150135508603e-05,-0.00023976205741130935,0.0,-6.3538551331454585e-06,-0.001319266620336821,0.00021880987251817068,0.001081557882194727,0.000723415404321693,-0.0006086287411077415,0.00018468751750814954,-0.0005646243231632011,0.3514034152030945,22.720483779907227,-0.07303168624639511,-14.008821487426758,0.10865253210067749,-2.1453890800476074,0.28232139348983765,0
31,0.15000128746032715,-0.3514034152030945,-22.720483779907227,0.07303168624639511,14.008821487426758,-0.10865253210067749,2.1453890800476074,-0.28232139348983765,0.0,0.0,0.0,0.0,0.0,0.0,0.0,-0.29129930169483315,0.09391562836588499,-0.052465180523980436,0.1008443644106138,-0.33054744772178646,-0.04022136068101174,-0.2627249318982785,1.675385088291755,0.05225764843603595,0.029865956902765393,-2.752321633624613,0.03448456604442611,2.7663679543071322,0.7691694072021378,1.6754973547542302,0.052104326824870026,0.029969505109285054,-2.752394845125968,0.0342448039870148,2.7663679543071322,0.7691630533470046,0.001319266620336821,-0.00021880987251817068,-0.001081557882194727,-0.000723415404321693,0.0006086287411077415,-0.00018468751750814954,0.0005646243231632011,0.0,0.0,0.0,0.0,0.0,0.0,0.0,0.0001122664624753078,-0.00015332161116592136,0.00010354820651966093,-7.321150135508603e-05,-0.00023976205741130935,0.0,-6.3538551331454585e-06,-0.001319266620336821,0.00021880987251817068,0.001081557882194727,0.000723415404321693,-0.0006086287411077415,0.00018468751750814954,-0.0005646243231632011,0.3514034152030945,22.720483779907227,-0.07303168624639511,-14.008821487426758,0.10865253210067749,-2.1453890800476074,0.28232139348983765,0
32,0.1550154685974121,-0.3514034152030945,-22.720483779907227,0.07303168624639511,14.008821487426758,-0.10865253210067749,2.1453890800476074,-0.28232139348983765,0.0,0.0,0.0,0.0,0.0,0.0,0.0,-0.29129930169483315,0.09391562836588499,-0.052465180523980436,0.1008443644106138,-0.33054744772178646,-0.04022136068101174,-0.2627249318982785,1.675385088291755,0.05225764843603595,0.029865956902765393,-2.752321633624613,0.03448456604442611,2.7663679543071322,0.7691694072021378,1.6754973547542302,0.052104326824870026,0.029969505109285054,-2.752394845125968,0.0342448039870148,2.7663679543071322,0.7691630533470046,0.001319266620336821,-0.00021880987251817068,-0.001081557882194727,-0.000723415404321693,0.0006086287411077415,-0.00018468751750814954,0.0005646243231632011,0.0,0.0,0.0,0.0,0.0,0.0,0.0,0.0001122664624753078,-0.00015332161116592136,0.00010354820651966093,-7.321150135508603e-05,-0.00023976205741130935,0.0,-6.3538551331454585e-06,-0.001319266620336821,0.00021880987251817068,0.001081557882194727,0.000723415404321693,-0.0006086287411077415,0.00018468751750814954,-0.0005646243231632011,0.3514034152030945,22.720483779907227,-0.07303168624639511,-14.008821487426758,0.10865253210067749,-2.1453890800476074,0.28232139348983765,0
33,0.15999984741210938,-0.3514034152030945,-22.720483779907227,0.07303168624639511,14.008821487426758,-0.10865253210067749,2.1453890800476074,-0.28232139348983765,0.0,0.0,0.0,0.0,0.0,0.0,0.0,-0.29129930169483315,0.09391562836588499,-0.052465180523980436,0.1008443644106138,-0.33054744772178646,-0.04022136068101174,-0.2627249318982785,1.675385088291755,0.05225764843603595,0.029865956902765393,-2.752321633624613,0.03448456604442611,2.7663679543071322,0.7691694072021378,1.6754973547542302,0.052104326824870026,0.029969505109285054,-2.752394845125968,0.0342448039870148,2.7663679543071322,0.7691630533470046,0.001319266620336821,-0.00021880987251817068,-0.001081557882194727,-0.000723415404321693,0.0006086287411077415,-0.00018468751750814954,0.0005646243231632011,0.0,0.0,0.0,0.0,0.0,0.0,0.0,0.0001122664624753078,-0.00015332161116592136,0.00010354820651966093,-7.321150135508603e-05,-0.00023976205741130935,0.0,-6.3538551331454585e-06,-0.001319266620336821,0.00021880987251817068,0.001081557882194727,0.000723415404321693,-0.0006086287411077415,0.00018468751750814954,-0.0005646243231632011,0.3514034152030945,22.720483779907227,-0.07303168624639511,-14.008821487426758,0.10865253210067749,-2.1453890800476074,0.28232139348983765,0
34,0.16505742073059082,-0.2720577120780945,-22.748254776000977,0.04922797530889511,13.933443069458008,-0.09675067663192749,2.1389803886413574,-0.22830526530742645,0.0,0.0,0.0,0.0,0.0,0.0,0.0,-0.28755671287909157,0.09502773714828604,-0.04745047910944569,0.10247863715140963,-0.3312361476509007,-0.03962593567725419,-0.26323652534969905,1.6753816512667254,0.05225951822764414,0.029867627338620653,-2.7523162673816826,0.03448221569547668,2.766368666383955,0.769163405246593,1.6754973547542302,0.052104326824870026,0.029969505109285054,-2.752394845125968,0.0342448039870148,2.7663679543071322,0.7691630533470046,-0.0004095089797032388,0.0012595022336709164,-0.0003112670797176622,0.0006428376422465606,-3.8323687034292656e-05,-0.00016722784227063458,-0.0019038204110656074,0.0,0.0,0.0,0.0,0.0,0.0,0.0,0.00011570348750478132,-0.00015519140277411164,0.00010187777066440057,-7.85777442855462e-05,-0.0002374117084618793,-7.120768228396912e-07,-3.518995883577958e-07,0.0004095089797032388,-0.0012595022336709164,0.0003112670797176622,-0.0006428376422465606,3.8323687034292656e-05,0.00016722784227063458,0.0019038204110656074,0.2720577120780945,22.748254776000977,-0.04922797530889511,-13.933443069458008,0.09675067663192749,-2.1389803886413574,0.22830526530742645,0
35,0.17002177238464355,-0.2720577120780945,-22.748254776000977,0.04922797530889511,13.933443069458008,-0.09675067663192749,2.1389803886413574,-0.22830526530742645,0.0,0.0,0.0,0.0,0.0,0.0,0.0,-0.28755671287909157,0.09502773714828604,-0.04745047910944569,0.10247863715140963,-0.3312361476509007,-0.03962593567725419,-0.26323652534969905,1.6753816512667254,0.05225951822764414,0.029867627338620653,-2.7523162673816826,0.03448221569547668,2.766368666383955,0.769163405246593,1.6754973547542302,0.052104326824870026,0.029969505109285054,-2.752394845125968,0.0342448039870148,2.7663679543071322,0.7691630533470046,-0.0004095089797032388,0.0012595022336709164,-0.0003112670797176622,0.0006428376422465606,-3.8323687034292656e-05,-0.00016722784227063458,-0.0019038204110656074,0.0,0.0,0.0,0.0,0.0,0.0,0.0,0.00011570348750478132,-0.00015519140277411164,0.00010187777066440057,-7.85777442855462e-05,-0.0002374117084618793,-7.120768228396912e-07,-3.518995883577958e-07,0.0004095089797032388,-0.0012595022336709164,0.0003112670797176622,-0.0006428376422465606,3.8323687034292656e-05,0.00016722784227063458,0.0019038204110656074,0.2720577120780945,22.748254776000977,-0.04922797530889511,-13.933443069458008,0.09675067663192749,-2.1389803886413574,0.22830526530742645,0
36,0.17502117156982422,-0.2720577120780945,-22.720483779907227,0.001620553433895111,13.981050491333008,-0.10224384069442749,2.1453890800476074,-0.29605430364608765,0.0,0.0,0.0,0.0,0.0,0.0,0.0,-0.2879998941601984,0.09310703490713758,-0.05151557063823892,0.0989409096188133,-0.33067844946145813,-0.04117858437003261,-0.26445412992157585,1.6753789725956947,0.0522574116822001,0.02987096821033118,-2.7523198378416063,0.03448386517262953,2.7663679543071322,0.7691709330810431,1.6754973547542302,0.052104326824870026,0.029969505109285054,-2.752394845125968,0.0342448039870148,2.7663679543071322,0.7691630533470046,-0.0001305637151239581,0.00015811197712171726,0.00046291635673958303,7.02638345297771e-06,0.00019806955234180287,-0.00023112027556503606,0.0007500716757817417,0.0,0.0,0.0,0.0,0.0,0.0,0.0,0.00011838215853554601,-0.00015308485733007277,9.853689895387291e-05,-7.500728436182769e-05,-0.00023906118561473066,0.0,-7.879734038485076e-06,0.0001305637151239581,-0.00015811197712171726,-0.00046291635673958303,-7.02638345297771e-06,-0.00019806955234180287,0.00023112027556503606,-0.0007500716757817417,0.2720577120780945,22.720483779907227,-0.001620553433895111,-13.981050491333008,0.10224384069442749,-2.1453890800476074,0.29605430364608765,0
37,0.18010950088500977,-0.2720577120780945,-22.720483779907227,0.001620553433895111,13.981050491333008,-0.10224384069442749,2.1453890800476074,-0.29605430364608765,0.0,0.0,0.0,0.0,0.0,0.0,0.0,-0.2879998941601984,0.09310703490713758,-0.05151557063823892,0.0989409096188133,-0.33067844946145813,-0.04117858437003261,-0.26445412992157585,1.6753789725956947,0.0522574116822001,0.02987096821033118,-2.7523198378416063,0.03448386517262953,2.7663679543071322,0.7691709330810431,1.6754973547542302,0.052104326824870026,0.029969505109285054,-2.752394845125968,0.0342448039870148,2.7663679543071322,0.7691630533470046,-0.0001305637151239581,0.00015811197712171726,0.00046291635673958303,7.02638345297771e-06,0.00019806955234180287,-0.00023112027556503606,0.0007500716757817417,0.0,0.0,0.0,0.0,0.0,0.0,0.0,0.00011838215853554601,-0.00015308485733007277,9.853689895387291e-05,-7.500728436182769e-05,-0.00023906118561473066,0.0,-7.879734038485076e-06,0.0001305637151239581,-0.00015811197712171726,-0.00046291635673958303,-7.02638345297771e-06,-0.00019806955234180287,0.00023112027556503606,-0.0007500716757817417,0.2720577120780945,22.720483779907227,-0.001620553433895111,-13.981050491333008,0.10224384069442749,-2.1453890800476074,0.29605430364608765,0
38,0.18505191802978516,-0.2720577120780945,-22.696680068969727,0.001620553433895111,14.008821487426758,-0.10224384069442749,2.1517977714538574,-0.26217979192733765,0.0,0.0,0.0,0.0,0.0,0.0,0.0,-0.29052447799480946,0.09973742867330408,-0.057265339024231005,0.08984134657272323,-0.3307480732262123,-0.04347413409096373,-0.2659691751365701,1.6753789462349753,0.05225645236198046,0.02987096821033118,-2.7523215570964723,0.03448385202500128,2.7663672422303094,0.7691671692464086,1.6754973547542302,0.052104326824870026,0.029969505109285054,-2.752394845125968,0.0342448039870148,2.7663679543071322,0.7691630533470046,-0.00046954430241921767,-9.37764274223726e-06,0.0005310085995303627,-0.0014431705565212127,0.00023509451314014735,-0.0003620942066905595,-0.0005903414726279319,0.0,0.0,0.0,0.0,0.0,0.0,0.0,0.00011840851925493112,-0.00015212553711043547,9.853689895387291e-05,-7.328802949579938e-05,-0.00023904803798648067,7.120768228396912e-07,-4.115899403966949e-06,0.00046954430241921767,9.37764274223726e-06,-0.0005310085995303627,0.0014431705565212127,-0.00023509451314014735,0.0003620942066905595,0.0005903414726279319,0.2720577120780945,22.696680068969727,-0.001620553433895111,-14.008821487426758,0.10224384069442749,-2.1517977714538574,0.26217979192733765,0
39,0.19004201889038086,-0.2720577120780945,-22.696680068969727,0.001620553433895111,14.008821487426758,-0.10224384069442749,2.1517977714538574,-0.26217979192733765,0.0,0.0,0.0,0.0,0.0,0.0,0.0,-0.29052447799480946,0.09973742867330408,-0.057265339024231005,0.08984134657272323,-0.3307480732262123,-0.04347413409096373,-0.2659691751365701,1.6753789462349753,0.05225645236198046,0.02987096821033118,-2.7523215570964723,0.03448385202500128,2.7663672422303094,0.7691671692464086,1.6754973547542302,0.052104326824870026,0.029969505109285054,-2.752394845125968,0.0342448039870148,2.7663679543071322,0.7691630533470046,-0.00046954430241921767,-9.37764274223726e-06,0.0005310085995303627,-0.0014431705565212127,0.00023509451314014735,-0.0003620942066905595,-0.0005903414726279319,0.0,0.0,0.0,0.0,0.0,0.0,0.0,0.00011840851925493112,-0.00015212553711043547,9.853689895387291e-05,-7.328802949579938e-05,-0.00023904803798648067,7.120768228396912e-07,-4.115899403966949e-06,0.00046954430241921767,9.37764274223726e-06,-0.0005310085995303627,0.0014431705565212127,-0.00023509451314014735,0.0003620942066905595,0.0005903414726279319,0.2720577120780945,22.696680068969727,-0.001620553433895111,-14.008821487426758,0.10224384069442749,-2.1517977714538574,0.26217979192733765,0
40,0.1950211524963379,-0.2998287081718445,-22.672876358032227,0.07303168624639511,13.981050491333008,-0.10224384069442749,2.1389803886413574,-0.30337852239608765,0.0,0.0,0.0,0.0,0.0,0.0,0.0,-0.28690568219143797,0.09724945208762456,-0.05643734692757098,0.0938274092171708,-0.33098785526352204,-0.04287318155257259,-0.2677380708615927,1.6753837831356417,0.0522568363028982,0.029865956902765393,-2.752319611087768,0.03448279119291817,2.766368666383955,0.7691717468831273,1.6754973547542302,0.052104326824870026,0.029969505109285054,-2.752394845125968,0.0342448039870148,2.7663679543071322,0.7691630533470046,0.0003109523744262288,-0.0005492729131803073,-0.0011243828326618023,-0.00029389136112312506,4.587337258742375e-05,0.00021365670969038478,0.0012345016278962118,0.0,0.0,0.0,0.0,0.0,0.0,0.0,0.00011357161858849274,-0.00015250947802817466,0.00010354820651966093,-7.523403820020036e-05,-0.00023798720590337274,-7.120768228396912e-07,-8.693536122650336e-06,-0.0003109523744262288,0.0005492729131803073,0.0011243828326618023,0.00029389136112312506,-4.587337258742375e-05,-0.00021365670969038478,-0.0012345016278962118,0.2998287081718445,22.672876358032227,-0.07303168624639511,-13.981050491333008,0.10224384069442749,-2.1389803886413574,0.30337852239608765,0
41,0.20000290870666504,-0.2998287081718445,-22.672876358032227,0.07303168624639511,13.981050491333008,-0.10224384069442749,2.1389803886413574,-0.30337852239608765,0.0,0.0,0.0,0.0,0.0,0.0,0.0,-0.28690568219143797,0.09724945208762456,-0.05643734692757098,0.0938274092171708,-0.33098785526352204,-0.04287318155257259,-0.2677380708615927,1.6753837831356417,0.0522568363028982,0.029865956902765393,-2.752319611087768,0.03448279119291817,2.766368666383955,0.7691717468831273,1.6754973547542302,0.052104326824870026,0.029969505109285054,-2.752394845125968,0.0342448039870148,2.7663679543071322,0.7691630533470046,0.0003109523744262288,-0.0005492729131803073,-0.0011243828326618023,-0.00029389136112312506,4.587337258742375e-05,0.00021365670969038478,0.0012345016278962118,0.0,0.0,0.0,0.0,0.0,0.0,0.0,0.00011357161858849274,-0.00015250947802817466,0.00010354820651966093,-7.523403820020036e-05,-0.00023798720590337274,-7.120768228396912e-07,-8.693536122650336e-06,-0.0003109523744262288,0.0005492729131803073,0.0011243828326618023,0.00029389136112312506,-4.587337258742375e-05,-0.00021365670969038478,-0.0012345016278962118,0.2998287081718445,22.672876358032227,-0.07303168624639511,-13.981050491333008,0.10224384069442749,-2.1389803886413574,0.30337852239608765,0
42,0.2050151824951172,-0.2998287081718445,-22.672876358032227,0.07303168624639511,14.008821487426758,-0.09034198522567749,2.1325716972351074,-0.30337852239608765,0.0,0.0,0.0,0.0,0.0,0.0,0.0,-0.28220623909461384,0.09110042771422182,-0.051393980338191605,0.09893876679879134,-0.33170209800266637,-0.04207527067861589,-0.26864693082872804,1.6753828226096035,0.05225478584361042,0.029865956902765393,-2.7523215570951924,0.03448146415752786,2.7663693784607783,0.7691717468831273,1.6754973547542302,0.052104326824870026,0.029969505109285054,-2.752394845125968,0.0342448039870148,2.7663679543071322,0.7691630533470046,0.0009937421564629935,-0.0009962757879711174,-0.0009340409832498179,-0.0003887501406671542,-0.0002236221788135543,0.009715699457820684,0.0013036398464276724,0.0,0.0,0.0,0.0,0.0,0.0,0.0,0.00011453214462675554,-0.00015045901874039674,0.00010354820651966093,-7.328803077566448e-05,-0.00023666017051306165,-1.4241536461234716e-06,-8.693536122650336e-06,-0.0009937421564629935,0.0009962757879711174,0.0009340409832498179,0.0003887501406671542,0.0002236221788135543,-0.009715699457820684,-0.0013036398464276724,0.2998287081718445,22.672876358032227,-0.07303168624639511,-14.008821487426758,0.09034198522567749,-2.1325716972351074,0.30337852239608765,0
43,0.20999741554260254,-0.2998287081718445,-22.672876358032227,0.07303168624639511,14.008821487426758,-0.09034198522567749,2.1325716972351074,-0.30337852239608765,0.0,0.0,0.0,0.0,0.0,0.0,0.0,-0.28220623909461384,0.09110042771422182,-0.051393980338191605,0.09893876679879134,-0.33170209800266637,-0.04207527067861589,-0.26864693082872804,1.6753828226096035,0.05225478584361042,0.029865956902765393,-2.7523215570951924,0.03448146415752786,2.7663693784607783,0.7691717468831273,1.6754973547542302,0.052104326824870026,0.029969505109285054,-2.752394845125968,0.0342448039870148,2.7663679543071322,0.7691630533470046,0.0009937421564629935,-0.0009962757879711174,-0.0009340409832498179,-0.0003887501406671542,-0.0002236221788135543,0.009715699457820684,0.0013036398464276724,0.0,0.0,0.0,0.0,0.0,0.0,0.0,0.00011453214462675554,-0.00015045901874039674,0.00010354820651966093,-7.328803077566448e-05,-0.00023666017051306165,-1.4241536461234716e-06,-8.693536122650336e-06,-0.0009937421564629935,0.0009962757879711174,0.0009340409832498179,0.0003887501406671542,0.0002236221788135543,-0.009715699457820684,-0.0013036398464276724,0.2998287081718445,22.672876358032227,-0.07303168624639511,-14.008821487426758,0.09034198522567749,-2.1325716972351074,0.30337852239608765,0
44,0.21499919891357422,-0.22445029020309448,-22.720483779907227,0.02542426437139511,13.981050491333008,-0.10224384069442749,2.1453890800476074,-0.23471395671367645,0.0,0.0,0.0,0.0,0.0,0.0,0.0,-0.2866659524261963,0.10166660278293826,-0.054857965582002274,0.08871814699435716,-0.33100524339413473,-0.045181738759479215,-0.27097926361472996,1.6753778304687135,0.05225813125593231,0.029869297774475917,-2.752319608253345,0.03448278658588727,2.7663679543071322,0.7691641174869404,1.6754973547542302,0.052104326824870026,0.029969505109285054,-2.752394845125968,0.0342448039870148,2.7663679543071322,0.7691630533470046,-0.0012950660598097421,0.00022652435500741369,0.0002317983783002642,-0.00025320475527445505,0.00012032662121229265,0.000285672963977863,-0.0015382660108191886,0.0,0.0,0.0,0.0,0.0,0.0,0.0,0.00011952428551675887,-0.00015380443106228353,0.00010020733480913674,-7.523687262311896e-05,-0.00023798259887247014,0.0,-1.0641399357247394e-06,0.0012950660598097421,-0.00022652435500741369,-0.0002317983783002642,0.00025320475527445505,-0.00012032662121229265,-0.000285672963977863,0.0015382660108191886,0.22445029020309448,22.720483779907227,-0.02542426437139511,-13.981050491333008,0.10224384069442749,-2.1453890800476074,0.23471395671367645,0
45,0.22001981735229492,-0.22445029020309448,-22.720483779907227,0.02542426437139511,13.981050491333008,-0.10224384069442749,2.1453890800476074,-0.23471395671367645,0.0,0.0,0.0,0.0,0.0,0.0,0.0,-0.2866659524261963,0.10166660278293826,-0.054857965582002274,0.08871814699435716,-0.33100524339413473,-0.045181738759479215,-0.27097926361472996,1.6753778304687135,0.05225813125593231,0.029869297774475917,-2.752319608253345,0.03448278658588727,2.7663679543071322,0.7691641174869404,1.6754973547542302,0.052104326824870026,0.029969505109285054,-2.752394845125968,0.0342448039870148,2.7663679543071322,0.7691630533470046,-0.0012950660598097421,0.00022652435500741369,0.0002317983783002642,-0.00025320475527445505,0.00012032662121229265,0.000285672963977863,-0.0015382660108191886,0.0,0.0,0.0,0.0,0.0,0.0,0.0,0.00011952428551675887,-0.00015380443106228353,0.00010020733480913674,-7.523687262311896e-05,-0.00023798259887247014,0.0,-1.0641399357247394e-06,0.0012950660598097421,-0.00022652435500741369,-0.0002317983783002642,0.00025320475527445505,-0.00012032662121229265,-0.000285672963977863,0.0015382660108191886,0.22445029020309448,22.720483779907227,-0.02542426437139511,-13.981050491333008,0.10224384069442749,-2.1453890800476074,0.23471395671367645,0
46,0.22502994537353516,-0.2720577120780945,-22.696680068969727,0.04922797530889511,13.957246780395508,-0.09675067663192749,2.1453890800476074,-0.26858848333358765,0.0,0.0,0.0,0.0,0.0,0.0,0.0,-0.285894575104667,0.09575146923593283,-0.053654850923028394,0.09934126389815315,-0.331164393250126,-0.042989361668054546,-0.27116360047109933,1.6753787112809901,0.05225637338922362,0.029867627338620653,-2.752317949155182,0.03448229477816085,2.7663679543071322,0.7691678813232314,1.6754973547542302,0.052104326824870026,0.029969505109285054,-2.752394845125968,0.0342448039870148,2.7663679543071322,0.7691630533470046,-0.00046010720965112086,0.00012600594447082712,-0.0004497552273338518,0.00046139854815611367,-1.3529433302079464e-05,-2.9793769880306086e-05,-0.000256008719947693,0.0,0.0,0.0,0.0,0.0,0.0,0.0,0.00011864347324008762,-0.00015204656435359454,0.00010187777066440057,-7.689597078597288e-05,-0.00023749079114605137,0.0,-4.827976226806641e-06,0.00046010720965112086,-0.00012600594447082712,0.0004497552273338518,-0.00046139854815611367,1.3529433302079464e-05,2.9793769880306086e-05,0.000256008719947693,0.2720577120780945,22.696680068969727,-0.04922797530889511,-13.957246780395508,0.09675067663192749,-2.1453890800476074,0.26858848333358765,0
47,0.23001646995544434,-0.2720577120780945,-22.696680068969727,0.04922797530889511,13.957246780395508,-0.09675067663192749,2.1453890800476074,-0.26858848333358765,0.0,0.0,0.0,0.0,0.0,0.0,0.0,-0.285894575104667,0.09575146923593283,-0.053654850923028394,0.09934126389815315,-0.331164393250126,-0.042989361668054546,-0.27116360047109933,1.6753787112809901,0.05225637338922362,0.029867627338620653,-2.752317949155182,0.03448229477816085,2.7663679543071322,0.7691678813232314,1.6754973547542302,0.052104326824870026,0.029969505109285054,-2.752394845125968,0.0342448039870148,2.7663679543071322,0.7691630533470046,-0.00046010720965112086,0.00012600594447082712,-0.0004497552273338518,0.00046139854815611367,-1.3529433302079464e-05,-2.9793769880306086e-05,-0.000256008719947693,0.0,0.0,0.0,0.0,0.0,0.0,0.0,0.00011864347324008762,-0.00015204656435359454,0.00010187777066440057,-7.689597078597288e-05,-0.00023749079114605137,0.0,-4.827976226806641e-06,0.00046010720965112086,-0.00012600594447082712,0.0004497552273338518,-0.00046139854815611367,1.3529433302079464e-05,2.9793769880306086e-05,0.000256008719947693,0.2720577120780945,22.696680068969727,-0.04922797530889511,-13.957246780395508,0.09675067663192749,-2.1453890800476074,0.26858848333358765,0
48,0.2350296974182129,-0.3236324191093445,-22.696680068969727,0.001620553433895111,13.981050491333008,-0.10865253210067749,2.1325716972351074,-0.28232139348983765,0.0,0.0,0.0,0.0,0.0,0.0,0.0,-0.28540344829242925,0.09786626908401505,-0.05468181049765718,0.09690345222978497,-0.3310569308608768,-0.04309322832731912,-0.2700802784594401,1.6753854211923387,0.052255670726264414,0.02987096821033118,-2.752319608253409,0.034483853807721156,2.7663693784607783,0.7691683343185318,1.6754973547542302,0.052104326824870026,0.029969505109285054,-2.752394845125968,0.0342448039870148,2.7663679543071322,0.7691630533470046,0.0011028118183418975,7.714863240401257e-05,0.0006247487600991629,-0.0006132608416427865,0.00045333575817049456,0.00020047034047494374,0.0003736013213496534,0.0,0.0,0.0,0.0,0.0,0.0,0.0,0.0001119335618915418,-0.00015134390139438791,9.853689895387291e-05,-7.523687255917011e-05,-0.00023904982070635517,-1.4241536461234716e-06,-5.280971527188427e-06,-0.0011028118183418975,-7.714863240401257e-05,-0.0006247487600991629,0.0006132608416427865,-0.00045333575817049456,-0.00020047034047494374,-0.0003736013213496534,0.3236324191093445,22.696680068969727,-0.001620553433895111,-13.981050491333008,0.10865253210067749,-2.1325716972351074,0.28232139348983765,0
49,0.24027228355407715,-0.3236324191093445,-22.696680068969727,0.001620553433895111,13.981050491333008,-0.10865253210067749,2.1325716972351074,-0.28232139348983765,0.0,0.0,0.0,0.0,0.0,0.0,0.0,-0.28540344829242925,0.09786626908401505,-0.05468181049765718,0.09690345222978497,-0.3310569308608768,-0.04309322832731912,-0.2700802784594401,1.6753854211923387,0.052255670726264414,0.02987096821033118,-2.752319608253409,0.034483853807721156,2.7663693784607783,0.7691683343185318,1.6754973547542302,0.052104326824870026,0.029969505109285054,-2.752394845125968,0.0342448039870148,2.7663679543071322,0.7691630533470046,0.0011028118183418975,7.714863240401257e-05,0.0006247487600991629,-0.0006132608416427865,0.00045333575817049456,0.00020047034047494374,0.0003736013213496534,0.0,0.0,0.0,0.0,0.0,0.0,0.0,0.0001119335618915418,-0.00015134390139438791,9.853689895387291e-05,-7.523687255917011e-05,-0.00023904982070635517,-1.4241536461234716e-06,-5.280971527188427e-06,-0.0011028118183418975,-7.714863240401257e-05,-0.0006247487600991629,0.0006132608416427865,-0.00045333575817049456,-0.00020047034047494374,-0.0003736013213496534,0.3236324191093445,22.696680068969727,-0.001620553433895111,-13.981050491333008,0.10865253210067749,-2.1325716972351074,0.28232139348983765,0
50,0.24503731727600098,-0.2720577120780945,-22.748254776000977,0.001620553433895111,13.981050491333008,-0.09675067663192749,2.1389803886413574,-0.28232139348983765,0.0,0.0,0.0,0.0,0.0,0.0,0.0,-0.28601517887815603,0.09608220582253202,-0.05813970980442584,0.09779832506007052,-0.3311824093062893,-0.04339656339234449,-0.2697803971313171,1.6753794239602353,0.05225928150979559,0.02987096821033118,-2.7523196091981528,0.034482215750941604,2.766368666383955,0.7691704668342106,1.6754973547542302,0.052104326824870026,0.029969505109285054,-2.752394845125968,0.0342448039870148,2.7663679543071322,0.7691630533470046,-0.0007390771062234605,0.0009944432537442825,0.00034749198856235,-0.0005973394444381321,7.126220905856582e-05,0.00024885094111935,0.0005952938020404125,0.0,0.0,0.0,0.0,0.0,0.0,0.0,0.00011793079399491369,-0.00015495468492556647,9.853689895387291e-05,-7.52359278153314e-05,-0.00023741176392680363,-7.120768228396912e-07,-7.413487206009428e-06,0.0007390771062234605,-0.0009944432537442825,-0.00034749198856235,0.0005973394444381321,-7.126220905856582e-05,-0.00024885094111935,-0.0005952938020404125,0.2720577120780945,22.748254776000977,-0.001620553433895111,-13.981050491333008,0.09675067663192749,-2.1389803886413574,0.28232139348983765,0
51,0.2499990463256836,-0.2720577120780945,-22.748254776000977,0.001620553433895111,13.981050491333008,-0.09675067663192749,2.1389803886413574,-0.28232139348983765,0.0,0.0,0.0,0.0,0.0,0.0,0.0,-0.28601517887815603,0.09608220582253202,-0.05813970980442584,0.09779832506007052,-0.3311824093062893,-0.04339656339234449,-0.2697803971313171,1.6753794239602353,0.05225928150979559,0.02987096821033118,-2.7523196091981528,0.034482215750941604,2.766368666383955,0.7691704668342106,1.6754973547542302,0.052104326824870026,0.029969505109285054,-2.752394845125968,0.0342448039870148,2.7663679543071322,0.7691630533470046,-0.0007390771062234605,0.0009944432537442825,0.00034749198856235,-0.0005973394444381321,7.126220905856582e-05,0.00024885094111935,0.0005952938020404125,0.0,0.0,0.0,0.0,0.0,0.0,0.0,0.00011793079399491369,-0.00015495468492556647,9.853689895387291e-05,-7.52359278153314e-05,-0.00023741176392680363,-7.120768228396912e-07,-7.413487206009428e-06,0.0007390771062234605,-0.0009944432537442825,-0.00034749198856235,0.0005973394444381321,-7.126220905856582e-05,-0.00024885094111935,-0.0005952938020404125,0.2720577120780945,22.748254776000977,-0.001620553433895111,-13.981050491333008,0.09675067663192749,-2.1389803886413574,0.28232139348983765,0
52,0.2550060749053955,-0.24825400114059448,-22.720483779907227,0.02542426437139511,13.957246780395508,-0.09675067663192749,2.1389803886413574,-0.26217979192733765,0.0,0.0,0.0,0.0,0.0,0.0,0.0,-0.2846260894022444,0.0947554247572167,-0.05593485513420604,0.09981972912870347,-0.3313195571458612,-0.04322464354728636,-0.2698122539322186,1.6753773031284127,0.05225736008941948,0.029869297774475917,-2.7523179381324314,0.034482294615995106,2.766368666383955,0.7691671692523903,1.6754973547542302,0.052104326824870026,0.029969505109285054,-2.752394845125968,0.0342448039870148,2.7663679543071322,0.7691630533470046,-0.001289071786598678,0.0006065302823894044,0.0003008064584843568,0.00039044113017363917,-6.528747750228939e-05,0.0003179214363701469,-0.0004116769173285125,0.0,0.0,0.0,0.0,0.0,0.0,0.0,0.00012005162581751883,-0.0001530332645494556,0.00010020733480913674,-7.690699353668506e-05,-0.00023749062898030526,-7.120768228396912e-07,-4.1159053856265615e-06,0.001289071786598678,-0.0006065302823894044,-0.0003008064584843568,-0.00039044113017363917,6.528747750228939e-05,-0.0003179214363701469,0.0004116769173285125,0.24825400114059448,22.720483779907227,-0.02542426437139511,-13.957246780395508,0.09675067663192749,-2.1389803886413574,0.26217979192733765,0
53,0.2600092887878418,-0.24825400114059448,-22.720483779907227,0.02542426437139511,13.957246780395508,-0.09675067663192749,2.1389803886413574,-0.26217979192733765,0.0,0.0,0.0,0.0,0.0,0.0,0.0,-0.2846260894022444,0.0947554247572167,-0.05593485513420604,0.09981972912870347,-0.3313195571458612,-0.04322464354728636,-0.2698122539322186,1.6753773031284127,0.05225736008941948,0.029869297774475917,-2.7523179381324314,0.034482294615995106,2.766368666383955,0.7691671692523903,1.6754973547542302,0.052104326824870026,0.029969505109285054,-2.752394845125968,0.0342448039870148,2.7663679543071322,0.7691630533470046,-0.001289071786598678,0.0006065302823894044,0.0003008064584843568,0.00039044113017363917,-6.528747750228939e-05,0.0003179214363701469,-0.0004116769173285125,0.0,0.0,0.0,0.0,0.0,0.0,0.0,0.00012005162581751883,-0.0001530332645494556,0.00010020733480913674,-7.690699353668506e-05,-0.00023749062898030526,-7.120768228396912e-07,-4.1159053856265615e-06,0.001289071786598678,-0.0006065302823894044,-0.0003008064584843568,-0.00039044113017363917,6.528747750228939e-05,-0.0003179214363701469,0.0004116769173285125,0.24825400114059448,22.720483779907227,-0.02542426437139511,-13.957246780395508,0.09675067663192749,-2.1389803886413574,0.26217979192733765,0
54,0.2650022506713867,-0.3236324191093445,-22.696680068969727,0.04922797530889511,13.957246780395508,-0.09034198522567749,2.1389803886413574,-0.30978721380233765,0.0,0.0,0.0,0.0,0.0,0.0,0.0,-0.28688255642150406,0.09979318299471926,-0.0551704960267816,0.09829846683313732,-0.3307009514635119,-0.04379421296110898,-0.2703695886014038,1.6753852858682914,0.052257795256637464,0.029867627338620653,-2.75232000442678,0.034481464158170126,2.766368666383955,0.7691724589599502,1.6754973547542302,0.052104326824870026,0.029969505109285054,-2.752394845125968,0.0342448039870148,2.7663679543071322,0.7691630533470046,0.000859231146911143,8.581577142580857e-05,-0.00017561988953827717,0.0005272282014338274,-0.00023388616066398775,8.08054326530866e-05,0.0015338265137434985,0.0,0.0,0.0,0.0,0.0,0.0,0.0,0.00011206888593884301,-0.00015346843176743813,0.00010187777066440057,-7.484069918817227e-05,-0.00023666017115532567,-7.120768228396912e-07,-9.40561294560105e-06,-0.000859231146911143,-8.581577142580857e-05,0.00017561988953827717,-0.0005272282014338274,0.00023388616066398775,-8.08054326530866e-05,-0.0015338265137434985,0.3236324191093445,22.696680068969727,-0.04922797530889511,-13.957246780395508,0.09034198522567749,-2.1389803886413574,0.30978721380233765,0
55,0.2700490951538086,-0.3236324191093445,-22.696680068969727,0.04922797530889511,13.957246780395508,-0.09034198522567749,2.1389803886413574,-0.30978721380233765,0.0,0.0,0.0,0.0,0.0,0.0,0.0,-0.28688255642150406,0.09979318299471926,-0.0551704960267816,0.09829846683313732,-0.3307009514635119,-0.04379421296110898,-0.2703695886014038,1.6753852858682914,0.052257795256637464,0.029867627338620653,-2.75232000442678,0.034481464158170126,2.766368666383955,0.7691724589599502,1.6754973547542302,0.052104326824870026,0.029969505109285054,-2.752394845125968,0.0342448039870148,2.7663679543071322,0.7691630533470046,0.000859231146911143,8.581577142580857e-05,-0.00017561988953827717,0.0005272282014338274,-0.00023388616066398775,8.08054326530866e-05,0.0015338265137434985,0.0,0.0,0.0,0.0,0.0,0.0,0.0,0.00011206888593884301,-0.00015346843176743813,0.00010187777066440057,-7.484069918817227e-05,-0.00023666017115532567,-7.120768228396912e-07,-9.40561294560105e-06,-0.000859231146911143,-8.581577142580857e-05,0.00017561988953827717,-0.0005272282014338274,0.00023388616066398775,-8.08054326530866e-05,-0.0015338265137434985,0.3236324191093445,22.696680068969727,-0.04922797530889511,-13.957246780395508,0.09034198522567749,-2.1389803886413574,0.30978721380233765,0
56,0.2750382423400879,-0.2720577120780945,-22.696680068969727,0.001620553433895111,13.957246780395508,-0.09675067663192749,2.1453890800476074,-0.26217979192733765,0.0,0.0,0.0,0.0,0.0,0.0,0.0,-0.28860784787410443,0.10253119782819721,-0.05498442981974566,0.0977349922463487,-0.3300872234903006,-0.04428998977669967,-0.2715614389377121,1.675380924205019,0.05225566191894607,0.02987096821033118,-2.7523179378291562,0.03448218061882282,2.7663679543071322,0.7691671692464086,1.6754973547542302,0.052104326824870026,0.029969505109285054,-2.752394845125968,0.0342448039870148,2.7663679543071322,0.7691630533470046,-0.0002646015123104402,0.0002945091227435767,0.0009833501920411584,8.925546108092298e-05,-9.25831832711572e-05,0.00010641097871562934,-0.00042102333689969594,0.0,0.0,0.0,0.0,0.0,0.0,0.0,0.00011643054921117724,-0.00015133509407604107,9.853689895387291e-05,-7.690729681186781e-05,-0.00023737663180802004,0.0,-4.115899403966949e-06,0.0002646015123104402,-0.0002945091227435767,-0.0009833501920411584,-8.925546108092298e-05,9.25831832711572e-05,-0.00010641097871562934,0.00042102333689969594,0.2720577120780945,22.696680068969727,-0.001620553433895111,-13.957246780395508,0.09675067663192749,-2.1453890800476074,0.26217979192733765,0
57,0.2799983024597168,-0.2720577120780945,-22.696680068969727,0.001620553433895111,13.957246780395508,-0.09675067663192749,2.1453890800476074,-0.26217979192733765,0.0,0.0,0.0,0.0,0.0,0.0,0.0,-0.28860784787410443,0.10253119782819721,-0.05498442981974566,0.0977349922463487,-0.3300872234903006,-0.04428998977669967,-0.2715614389377121,1.675380924205019,0.05225566191894607,0.02987096821033118,-2.7523179378291562,0.03448218061882282,2.7663679543071322,0.7691671692464086,1.6754973547542302,0.052104326824870026,0.029969505109285054,-2.752394845125968,0.0342448039870148,2.7663679543071322,0.7691630533470046,-0.0002646015123104402,0.0002945091227435767,0.0009833501920411584,8.925546108092298e-05,-9.25831832711572e-05,0.00010641097871562934,-0.00042102333689969594,0.0,0.0,0.0,0.0,0.0,0.0,0.0,0.00011643054921117724,-0.00015133509407604107,9.853689895387291e-05,-7.690729681186781e-05,-0.00023737663180802004,0.0,-4.115899403966949e-06,0.0002646015123104402,-0.0002945091227435767,-0.0009833501920411584,-8.925546108092298e-05,9.25831832711572e-05,-0.00010641097871562934,0.00042102333689969594,0.2720577120780945,22.696680068969727,-0.001620553433895111,-13.957246780395508,0.09675067663192749,-2.1453890800476074,0.26217979192733765,0
58,0.28499865531921387,-0.2720577120780945,-22.696680068969727,0.001620553433895111,13.957246780395508,-0.09675067663192749,2.1453890800476074,-0.26217979192733765,0.0,0.0,0.0,0.0,0.0,0.0,0.0,-0.28860784787410443,0.10253119782819721,-0.05498442981974566,0.0977349922463487,-0.3300872234903006,-0.04428998977669967,-0.2715614389377121,1.675380924205019,0.05225566191894607,0.02987096821033118,-2.7523179378291562,0.03448218061882282,2.7663679543071322,0.7691671692464086,1.6754973547542302,0.052104326824870026,0.029969505109285054,-2.752394845125968,0.0342448039870148,2.7663679543071322,0.7691630533470046,-0.0002646015123104402,0.0002945091227435767,0.0009833501920411584,8.925546108092298e-05,-9.25831832711572e-05,0.00010641097871562934,-0.00042102333689969594,0.0,0.0,0.0,0.0,0.0,0.0,0.0,0.00011643054921117724,-0.00015133509407604107,9.853689895387291e-05,-7.690729681186781e-05,-0.00023737663180802004,0.0,-4.115899403966949e-06,0.0002646015123104402,-0.0002945091227435767,-0.0009833501920411584,-8.925546108092298e-05,9.25831832711572e-05,-0.00010641097871562934,0.00042102333689969594,0.2720577120780945,22.696680068969727,-0.001620553433895111,-13.957246780395508,0.09675067663192749,-2.1453890800476074,0.26217979192733765,0
59,0.28999876976013184,-0.2720577120780945,-22.696680068969727,0.001620553433895111,13.957246780395508,-0.09675067663192749,2.1453890800476074,-0.26217979192733765,0.0,0.0,0.0,0.0,0.0,0.0,0.0,-0.28860784787410443,0.10253119782819721,-0.05498442981974566,0.0977349922463487,-0.3300872234903006,-0.04428998977669967,-0.2715614389377121,1.675380924205019,0.05225566191894607,0.02987096821033118,-2.7523179378291562,0.03448218061882282,2.7663679543071322,0.7691671692464086,1.6754973547542302,0.052104326824870026,0.029969505109285054,-2.752394845125968,0.0342448039870148,2.7663679543071322,0.7691630533470046,-0.0002646015123104402,0.0002945091227435767,0.0009833501920411584,8.925546108092298e-05,-9.25831832711572e-05,0.00010641097871562934,-0.00042102333689969594,0.0,0.0,0.0,0.0,0.0,0.0,0.0,0.00011643054921117724,-0.00015133509407604107,9.853689895387291e-05,-7.690729681186781e-05,-0.00023737663180802004,0.0,-4.115899403966949e-06,0.0002646015123104402,-0.0002945091227435767,-0.0009833501920411584,-8.925546108092298e-05,9.25831832711572e-05,-0.00010641097871562934,0.00042102333689969594,0.2720577120780945,22.696680068969727,-0.001620553433895111,-13.957246780395508,0.09675067663192749,-2.1453890800476074,0.26217979192733765,0
60,0.29500317573547363,-0.2720577120780945,-22.696680068969727,0.001620553433895111,13.957246780395508,-0.09675067663192749,2.1453890800476074,-0.26217979192733765,0.0,0.0,0.0,0.0,0.0,0.0,0.0,-0.28860784787410443,0.10253119782819721,-0.05498442981974566,0.0977349922463487,-0.3300872234903006,-0.04428998977669967,-0.2715614389377121,1.675380924205019,0.05225566191894607,0.02987096821033118,-2.7523179378291562,0.03448218061882282,2.7663679543071322,0.7691671692464086,1.6754973547542302,0.052104326824870026,0.029969505109285054,-2.752394845125968,0.0342448039870148,2.7663679543071322,0.7691630533470046,-0.0002646015123104402,0.0002945091227435767,0.0009833501920411584,8.925546108092298e-05,-9.25831832711572e-05,0.00010641097871562934,-0.00042102333689969594,0.0,0.0,0.0,0.0,0.0,0.0,0.0,0.00011643054921117724,-0.00015133509407604107,9.853689895387291e-05,-7.690729681186781e-05,-0.00023737663180802004,0.0,-4.115899403966949e-06,0.0002646015123104402,-0.0002945091227435767,-0.0009833501920411584,-8.925546108092298e-05,9.25831832711572e-05,-0.00010641097871562934,0.00042102333689969594,0.2720577120780945,22.696680068969727,-0.001620553433895111,-13.957246780395508,0.09675067663192749,-2.1453890800476074,0.26217979192733765,0
61,0.3000192642211914,-0.2720577120780945,-22.696680068969727,0.02542426437139511,13.933443069458008,-0.08484882116317749,2.1325716972351074,-0.28232139348983765,0.0,0.0,0.0,0.0,0.0,0.0,0.0,-0.2913314629845166,0.10091519664665616,-0.055825068054263814,0.1017716508201729,-0.32980922484053016,-0.04269526658647161,-0.2722305404428069,1.6753811710136601,0.05225574193144757,0.029869297774475917,-2.7523162673816346,0.03448085526746345,2.7663693784607783,0.7691661885513199,1.6754973547542302,0.052104326824870026,0.029969505109285054,-2.752394845125968,0.0342448039870148,2.7663679543071322,0.7691630533470046,-0.0004773976433049305,0.00019318614882783884,5.331165572948352e-05,0.0012033841668177324,-0.0006031580008629589,0.0005299647562516062,0.0010210661463468205,0.0,0.0,0.0,0.0,0.0,0.0,0.0,0.00011618374057009717,-0.00015141510657754736,0.00010020733480913674,-7.857774433350784e-05,-0.00023605128044865142,-1.4241536461234716e-06,-3.1352043152743647e-06,0.0004773976433049305,-0.00019318614882783884,-5.331165572948352e-05,-0.0012033841668177324,0.0006031580008629589,-0.0005299647562516062,-0.0010210661463468205,0.2720577120780945,22.696680068969727,-0.02542426437139511,-13.933443069458008,0.08484882116317749,-2.1325716972351074,0.28232139348983765,0
62,0.30504894256591797,-0.2720577120780945,-22.696680068969727,0.02542426437139511,13.933443069458008,-0.08484882116317749,2.1325716972351074,-0.28232139348983765,0.0,0.0,0.0,0.0,0.0,0.0,0.0,-0.2913314629845166,0.10091519664665616,-0.055825068054263814,0.1017716508201729,-0.32980922484053016,-0.04269526658647161,-0.2722305404428069,1.6753811710136601,0.05225574193144757,0.029869297774475917,-2.7523162673816346,0.03448085526746345,2.7663693784607783,0.7691661885513199,1.6754973547542302,0.052104326824870026,0.029969505109285054,-2.752394845125968,0.0342448039870148,2.7663679543071322,0.7691630533470046,-0.0004773976433049305,0.00019318614882783884,5.331165572948352e-05,0.0012033841668177324,-0.0006031580008629589,0.0005299647562516062,0.0010210661463468205,0.0,0.0,0.0,0.0,0.0,0.0,0.0,0.00011618374057009717,-0.00015141510657754736,0.00010020733480913674,-7.857774433350784e-05,-0.00023605128044865142,-1.4241536461234716e-06,-3.1352043152743647e-06,0.0004773976433049305,-0.00019318614882783884,-5.331165572948352e-05,-0.0012033841668177324,0.0006031580008629589,-0.0005299647562516062,-0.0010210661463468205,0.2720577120780945,22.696680068969727,-0.02542426437139511,-13.933443069458008,0.08484882116317749,-2.1325716972351074,0.28232139348983765,0
63,0.3100423812866211,-0.2720577120780945,-22.696680068969727,0.02542426437139511,13.933443069458008,-0.10865253210067749,2.1453890800476074,-0.24112264811992645,0.0,0.0,0.0,0.0,0.0,0.0,0.0,-0.29201819400690937,0.10119440929457264,-0.05506508175377847,0.10007637097231177,-0.3300661087603308,-0.042709007816344444,-0.2718572364662215,1.6753795197819739,0.05225567364910527,0.029869297774475917,-2.7523162673816346,0.034483853807060226,2.7663679543071322,0.769164829545594,1.6754973547542302,0.052104326824870026,0.029969505109285054,-2.752394845125968,0.0342448039870148,2.7663679543071322,0.7691630533470046,-0.000584937191981463,-0.00018768933895609778,0.00034435570742288537,0.0009481464134192778,0.0003000712432766135,-0.00029727960830516195,-0.0010645351573704907,0.0,0.0,0.0,0.0,0.0,0.0,0.0,0.00011783497225636985,-0.00015134682423524615,0.00010020733480913674,-7.857774433350784e-05,-0.00023904982004542552,0.0,-1.7761985893205434e-06,0.000584937191981463,0.00018768933895609778,-0.00034435570742288537,-0.0009481464134192778,-0.0003000712432766135,0.00029727960830516195,0.0010645351573704907,0.2720577120780945,22.696680068969727,-0.02542426437139511,-13.933443069458008,0.10865253210067749,-2.1453890800476074,0.24112264811992645,0
64,0.31503891944885254,-0.2720577120780945,-22.696680068969727,0.02542426437139511,13.933443069458008,-0.10865253210067749,2.1453890800476074,-0.24112264811992645,0.0,0.0,0.0,0.0,0.0,0.0,0.0,-0.29201819400690937,0.10119440929457264,-0.05506508175377847,0.10007637097231177,-0.3300661087603308,-0.042709007816344444,-0.2718572364662215,1.6753795197819739,0.05225567364910527,0.029869297774475917,-2.7523162673816346,0.034483853807060226,2.7663679543071322,0.769164829545594,1.6754973547542302,0.052104326824870026,0.029969505109285054,-2.752394845125968,0.0342448039870148,2.7663679543071322,0.7691630533470046,-0.000584937191981463,-0.00018768933895609778,0.00034435570742288537,0.0009481464134192778,0.0003000712432766135,-0.00029727960830516195,-0.0010645351573704907,0.0,0.0,0.0,0.0,0.0,0.0,0.0,0.00011783497225636985,-0.00015134682423524615,0.00010020733480913674,-7.857774433350784e-05,-0.00023904982004542552,0.0,-1.7761985893205434e-06,0.000584937191981463,0.00018768933895609778,-0.00034435570742288537,-0.0009481464134192778,-0.0003000712432766135,0.00029727960830516195,0.0010645351573704907,0.2720577120780945,22.696680068969727,-0.02542426437139511,-13.933443069458008,0.10865253210067749,-2.1453890800476074,0.24112264811992645,0
65,0.3200256824493408,-0.2998287081718445,-22.720483779907227,0.02542426437139511,13.981050491333008,-0.09675067663192749,2.1453890800476074,-0.24844686686992645,0.0,0.0,0.0,0.0,0.0,0.0,0.0,-0.2927520819284546,0.10388926426721795,-0.054474894820912736,0.09756251032563222,-0.3306194423010263,-0.04321094959990404,-0.27186257049492,1.6753838645740318,0.05225757848603928,0.029869297774475917,-2.752319608253345,0.03448375514279285,2.7663679543071322,0.7691656433658465,1.6754973547542302,0.052104326824870026,0.029969505109285054,-2.752394845125968,0.0342448039870148,2.7663679543071322,0.7691630533470046,0.000337713984800286,0.0007784173163107595,-8.257373947432616e-05,-0.0003772858225884001,6.870130633757609e-05,-0.00018674698410504323,-0.0008641853509396217,0.0,0.0,0.0,0.0,0.0,0.0,0.0,0.00011349018019846113,-0.00015325166116925137,0.00010020733480913674,-7.523687262311896e-05,-0.00023895115577805132,0.0,-2.5900188418415127e-06,-0.000337713984800286,-0.0007784173163107595,8.257373947432616e-05,0.0003772858225884001,-6.870130633757609e-05,0.00018674698410504323,0.0008641853509396217,0.2998287081718445,22.720483779907227,-0.02542426437139511,-13.981050491333008,0.09675067663192749,-2.1453890800476074,0.24844686686992645,0
66,0.32534360885620117,-0.2998287081718445,-22.720483779907227,0.02542426437139511,13.981050491333008,-0.09675067663192749,2.1453890800476074,-0.24844686686992645,0.0,0.0,0.0,0.0,0.0,0.0,0.0,-0.2927520819284546,0.10388926426721795,-0.054474894820912736,0.09756251032563222,-0.3306194423010263,-0.04321094959990404,-0.27186257049492,1.6753838645740318,0.05225757848603928,0.029869297774475917,-2.752319608253345,0.03448375514279285,2.7663679543071322,0.7691656433658465,1.6754973547542302,0.052104326824870026,0.029969505109285054,-2.752394845125968,0.0342448039870148,2.7663679543071322,0.7691630533470046,0.000337713984800286,0.0007784173163107595,-8.257373947432616e-05,-0.0003772858225884001,6.870130633757609e-05,-0.00018674698410504323,-0.0008641853509396217,0.0,0.0,0.0,0.0,0.0,0.0,0.0,0.00011349018019846113,-0.00015325166116925137,0.00010020733480913674,-7.523687262311896e-05,-0.00023895115577805132,0.0,-2.5900188418415127e-06,-0.000337713984800286,-0.0007784173163107595,8.257373947432616e-05,0.0003772858225884001,-6.870130633757609e-05,0.00018674698410504323,0.0008641853509396217,0.2998287081718445,22.720483779907227,-0.02542426437139511,-13.981050491333008,0.09675067663192749,-2.1453890800476074,0.24844686686992645,0
67,0.3300008773803711,-0.2720577120780945,-22.720483779907227,0.02542426437139511,13.957246780395508,-0.09675067663192749,2.1389803886413574,-0.27591270208358765,0.0,0.0,0.0,0.0,0.0,0.0,0.0,-0.2917409438787932,0.09735083612973013,-0.05569478229764621,0.10146933706949442,-0.33027559636210324,-0.04210439388659907,-0.27111076722065675,1.6753809329640657,0.05225764854045111,0.029869297774475917,-2.752317938132426,0.03448217624323775,2.7663686794659075,0.7691686951253148,1.6754973547542302,0.052104326824870026,0.029969505109285054,-2.752394845125968,0.0342448039870148,2.7663679543071322,0.7691630533470046,-0.0006967240823898189,0.0002536329492280228,0.0004232102977922514,0.00041677934810749594,-0.00015764315032375313,0.0003197180520788152,0.00035161125292548475,0.0,0.0,0.0,0.0,0.0,0.0,0.0,0.0001164217901645781,-0.00015332171558108537,0.00010020733480913674,-7.690699354201413e-05,-0.00023737225622295216,-7.251587752499233e-07,-5.641778310194745e-06,0.0006967240823898189,-0.0002536329492280228,-0.0004232102977922514,-0.00041677934810749594,0.00015764315032375313,-0.0003197180520788152,-0.00035161125292548475,0.2720577120780945,22.720483779907227,-0.02542426437139511,-13.957246780395508,0.09675067663192749,-2.1389803886413574,0.27591270208358765,0
68,0.3350076675415039,-0.2720577120780945,-22.720483779907227,0.02542426437139511,13.957246780395508,-0.09675067663192749,2.1389803886413574,-0.27591270208358765,0.0,0.0,0.0,0.0,0.0,0.0,0.0,-0.2917409438787932,0.09735083612973013,-0.05569478229764621,0.10146933706949442,-0.33027559636210324,-0.04210439388659907,-0.27111076722065675,1.6753809329640657,0.05225764854045111,0.029869297774475917,-2.752317938132426,0.03448217624323775,2.7663686794659075,0.7691686951253148,1.6754973547542302,0.052104326824870026,0.029969505109285054,-2.752394845125968,0.0342448039870148,2.7663679543071322,0.7691630533470046,-0.0006967240823898189,0.0002536329492280228,0.0004232102977922514,0.00041677934810749594,-0.00015764315032375313,0.0003197180520788152,0.00035161125292548475,0.0,0.0,0.0,0.0,0.0,0.0,0.0,0.0001164217901645781,-0.00015332171558108537,0.00010020733480913674,-7.690699354201413e-05,-0.00023737225622295216,-7.251587752499233e-07,-5.641778310194745e-06,0.0006967240823898189,-0.0002536329492280228,-0.0004232102977922514,-0.00041677934810749594,0.00015764315032375313,-0.0003197180520788152,-0.00035161125292548475,0.2720577120780945,22.720483779907227,-0.02542426437139511,-13.957246780395508,0.09675067663192749,-2.1389803886413574,0.27591270208358765,0
69,0.3400099277496338,-0.2998287081718445,-22.672876358032227,0.02542426437139511,13.933443069458008,-0.10224384069442749,2.1325716972351074,-0.28964561223983765,0.0,0.0,0.0,0.0,0.0,0.0,0.0,-0.2932389031469913,0.09982797408227798,-0.05624145363342522,0.09912438595462085,-0.33025386067090906,-0.04223790731602652,-0.2690137007519499,1.6753816131780332,0.05225400317845475,0.029869297774475917,-2.752316292891443,0.03448385207304229,2.766369378460852,0.769170221004221,1.6754973547542302,0.052104326824870026,0.029969505109285054,-2.752394845125968,0.0342448039870148,2.7663679543071322,0.7691630533470046,0.0001788802964768152,-0.000568373082507492,2.9334419587803545e-05,0.0007511287793173282,5.4140829926997675e-06,0.000436870605986137,0.00154022376218026,0.0,0.0,0.0,0.0,0.0,0.0,0.0,0.00011574157619698155,-0.00014967635358472536,0.00010020733480913674,-7.855223452502003e-05,-0.00023904808602748934,-1.4241537198422805e-06,-7.1676572164225405e-06,-0.0001788802964768152,0.000568373082507492,-2.9334419587803545e-05,-0.0007511287793173282,-5.4140829926997675e-06,-0.000436870605986137,-0.00154022376218026,0.2998287081718445,22.672876358032227,-0.02542426437139511,-13.933443069458008,0.10224384069442749,-2.1325716972351074,0.28964561223983765,0
70,0.34500551223754883,-0.2998287081718445,-22.672876358032227,0.02542426437139511,13.933443069458008,-0.10224384069442749,2.1325716972351074,-0.28964561223983765,0.0,0.0,0.0,0.0,0.0,0.0,0.0,-0.2932389031469913,0.09982797408227798,-0.05624145363342522,0.09912438595462085,-0.33025386067090906,-0.04223790731602652,-0.2690137007519499,1.6753816131780332,0.05225400317845475,0.029869297774475917,-2.752316292891443,0.03448385207304229,2.766369378460852,0.769170221004221,1.6754973547542302,0.052104326824870026,0.029969505109285054,-2.752394845125968,0.0342448039870148,2.7663679543071322,0.7691630533470046,0.0001788802964768152,-0.000568373082507492,2.9334419587803545e-05,0.0007511287793173282,5.4140829926997675e-06,0.000436870605986137,0.00154022376218026,0.0,0.0,0.0,0.0,0.0,0.0,0.0,0.00011574157619698155,-0.00014967635358472536,0.00010020733480913674,-7.855223452502003e-05,-0.00023904808602748934,-1.4241537198422805e-06,-7.1676572164225405e-06,-0.0001788802964768152,0.000568373082507492,-2.9334419587803545e-05,-0.0007511287793173282,-5.4140829926997675e-06,-0.000436870605986137,-0.00154022376218026,0.2998287081718445,22.672876358032227,-0.02542426437139511,-13.933443069458008,0.10224384069442749,-2.1325716972351074,0.28964561223983765,0
71,0.35001087188720703,-0.2720577120780945,-22.720483779907227,0.02542426437139511,13.957246780395508,-0.09034198522567749,2.1517977714538574,-0.26858848333358765,0.0,0.0,0.0,0.0,0.0,0.0,0.0,-0.29399624569636096,0.09914702676889382,-0.056668471114338204,0.09822031589475146,-0.33095980146447773,-0.043150706680021036,-0.26733942007075356,1.6753790174991812,0.05225946569240218,0.029869297774475917,-2.752318167405895,0.03448185876834077,2.7663672422303094,0.7691678813232314,1.6754973547542302,0.052104326824870026,0.029969505109285054,-2.752394845125968,0.0342448039870148,2.7663679543071322,0.7691630533470046,-0.0007488833102699084,0.00046862727800728337,-0.0002140771720863773,0.00014630026256020375,-0.00014860006661698873,-0.0004431854647404579,0.0026559523829320993,0.0,0.0,0.0,0.0,0.0,0.0,0.0,0.00011833725504906134,-0.00015513886753215633,0.00010020733480913674,-7.667772007291518e-05,-0.00023705478132596963,7.120768228396912e-07,-4.827976226806641e-06,0.0007488833102699084,-0.00046862727800728337,0.0002140771720863773,-0.00014630026256020375,0.00014860006661698873,0.0004431854647404579,-0.0026559523829320993,0.2720577120780945,22.720483779907227,-0.02542426437139511,-13.957246780395508,0.09034198522567749,-2.1517977714538574,0.26858848333358765,0
72,0.35505008697509766,-0.2720577120780945,-22.720483779907227,0.02542426437139511,13.957246780395508,-0.09034198522567749,2.1517977714538574,-0.26858848333358765,0.0,0.0,0.0,0.0,0.0,0.0,0.0,-0.29399624569636096,0.09914702676889382,-0.056668471114338204,0.09822031589475146,-0.33095980146447773,-0.043150706680021036,-0.26733942007075356,1.6753790174991812,0.05225946569240218,0.029869297774475917,-2.752318167405895,0.03448185876834077,2.7663672422303094,0.7691678813232314,1.6754973547542302,0.052104326824870026,0.029969505109285054,-2.752394845125968,0.0342448039870148,2.7663679543071322,0.7691630533470046,-0.0007488833102699084,0.00046862727800728337,-0.0002140771720863773,0.00014630026256020375,-0.00014860006661698873,-0.0004431854647404579,0.0026559523829320993,0.0,0.0,0.0,0.0,0.0,0.0,0.0,0.00011833725504906134,-0.00015513886753215633,0.00010020733480913674,-7.667772007291518e-05,-0.00023705478132596963,7.120768228396912e-07,-4.827976226806641e-06,0.0007488833102699084,-0.00046862727800728337,0.0002140771720863773,-0.00014630026256020375,0.00014860006661698873,0.0004431854647404579,-0.0026559523829320993,0.2720577120780945,22.720483779907227,-0.02542426437139511,-13.957246780395508,0.09034198522567749,-2.1517977714538574,0.26858848333358765,0
73,0.3600742816925049,-0.2998287081718445,-22.720483779907227,0.02542426437139511,13.957246780395508,-0.09675067663192749,2.1453890800476074,-0.23471395671367645,0.0,0.0,0.0,0.0,0.0,0.0,0.0,-0.295967682005742,0.09750898336308238,-0.055448306956641116,0.09813198870735096,-0.3305520184553787,-0.043217196069070055,-0.26625591373662827,1.6753835389032639,0.0522573411340177,0.029869297774475917,-2.752318629417993,0.03448217629068197,2.7663679543071322,0.7691641174869404,1.6754973547542302,0.052104326824870026,0.029969505109285054,-2.752394845125968,0.0342448039870148,2.7663679543071322,0.7691630533470046,1.5488359350959537e-05,0.00026160279305406463,-0.0002250054801762838,0.00031529355945181204,-9.81630728938768e-05,-0.00016656666650064945,-0.0013205527566232259,0.0,0.0,0.0,0.0,0.0,0.0,0.0,0.00011381585096637004,-0.00015301430914767267,0.00010020733480913674,-7.621570797500254e-05,-0.00023737230366716738,0.0,-1.0641399357247394e-06,-1.5488359350959537e-05,-0.00026160279305406463,0.0002250054801762838,-0.00031529355945181204,9.81630728938768e-05,0.00016656666650064945,0.0013205527566232259,0.2998287081718445,22.720483779907227,-0.02542426437139511,-13.957246780395508,0.09675067663192749,-2.1453890800476074,0.23471395671367645,0
74,0.36500048637390137,-0.2998287081718445,-22.720483779907227,0.02542426437139511,13.957246780395508,-0.09675067663192749,2.1453890800476074,-0.23471395671367645,0.0,0.0,0.0,0.0,0.0,0.0,0.0,-0.295967682005742,0.09750898336308238,-0.055448306956641116,0.09813198870735096,-0.3305520184553787,-0.043217196069070055,-0.26625591373662827,1.6753835389032639,0.0522573411340177,0.029869297774475917,-2.752318629417993,0.03448217629068197,2.7663679543071322,0.7691641174869404,1.6754973547542302,0.052104326824870026,0.029969505109285054,-2.752394845125968,0.0342448039870148,2.7663679543071322,0.7691630533470046,1.5488359350959537e-05,0.00026160279305406463,-0.0002250054801762838,0.00031529355945181204,-9.81630728938768e-05,-0.00016656666650064945,-0.0013205527566232259,0.0,0.0,0.0,0.0,0.0,0.0,0.0,0.00011381585096637004,-0.00015301430914767267,0.00010020733480913674,-7.621570797500254e-05,-0.00023737230366716738,0.0,-1.0641399357247394e-06,-1.5488359350959537e-05,-0.00026160279305406463,0.0002250054801762838,-0.00031529355945181204,9.81630728938768e-05,0.00016656666650064945,0.0013205527566232259,0.2998287081718445,22.720483779907227,-0.02542426437139511,-13.957246780395508,0.09675067663192749,-2.1453890800476074,0.23471395671367645,0
75,0.36999940872192383,-0.2720577120780945,-22.772058486938477,0.02542426437139511,13.981050491333008,-0.10224384069442749,2.1453890800476074,-0.27591270208358765,0.0,0.0,0.0,0.0,0.0,0.0,0.0,-0.2952532374540379,0.10231122857037167,-0.05491194239147297,0.09243171953715332,-0.3314992237175241,-0.044226213096916406,-0.26592125493259733,1.6753797621892998,0.05226095260797276,0.029869297774475917,-2.752319609199454,0.03448280022654797,2.7663679543071322,0.7691686951253148,1.6754973547542302,0.052104326824870026,0.029969505109285054,-2.752394845125968,0.0342448039870148,2.7663679543071322,0.7691630533470046,-0.00028667375979655996,0.0017788202471342822,0.006410794525351522,-0.0008612837574006884,-6.922135357856513e-05,-0.00029956923765770647,0.0004780559673500362,0.0,0.0,0.0,0.0,0.0,0.0,0.0,0.00011759256493037995,-0.00015662578310273595,0.00010020733480913674,-7.523592651415001e-05,-0.00023799623953316834,0.0,-5.641778310194745e-06,0.00028667375979655996,-0.0017788202471342822,-0.006410794525351522,0.0008612837574006884,6.922135357856513e-05,0.00029956923765770647,-0.0004780559673500362,0.2720577120780945,22.772058486938477,-0.02542426437139511,-13.981050491333008,0.10224384069442749,-2.1453890800476074,0.27591270208358765,0
76,0.375016450881958,-0.2720577120780945,-22.772058486938477,0.02542426437139511,13.981050491333008,-0.10224384069442749,2.1453890800476074,-0.27591270208358765,0.0,0.0,0.0,0.0,0.0,0.0,0.0,-0.2952532374540379,0.10231122857037167,-0.05491194239147297,0.09243171953715332,-0.3314992237175241,-0.044226213096916406,-0.26592125493259733,1.6753797621892998,0.05226095260797276,0.029869297774475917,-2.752319609199454,0.03448280022654797,2.7663679543071322,0.7691686951253148,1.6754973547542302,0.052104326824870026,0.029969505109285054,-2.752394845125968,0.0342448039870148,2.7663679543071322,0.7691630533470046,-0.00028667375979655996,0.0017788202471342822,0.006410794525351522,-0.0008612837574006884,-6.922135357856513e-05,-0.00029956923765770647,0.0004780559673500362,0.0,0.0,0.0,0.0,0.0,0.0,0.0,0.00011759256493037995,-0.00015662578310273595,0.00010020733480913674,-7.523592651415001e-05,-0.00023799623953316834,0.0,-5.641778310194745e-06,0.00028667375979655996,-0.0017788202471342822,-0.006410794525351522,0.0008612837574006884,6.922135357856513e-05,0.00029956923765770647,-0.0004780559673500362,0.2720577120780945,22.772058486938477,-0.02542426437139511,-13.981050491333008,0.10224384069442749,-2.1453890800476074,0.27591270208358765,0
77,0.38001012802124023,-0.2998287081718445,-22.696680068969727,0.04922797530889511,13.981050491333008,-0.09675067663192749,2.1325716972351074,-0.24844686686992645,0.0,0.0,0.0,0.0,0.0,0.0,0.0,-0.3142638649234658,0.0925166321322982,-0.07572383815922562,0.09840211066844172,-0.33022837415106393,-0.04308631886939166,-0.26632350263969573,1.6753807652428883,0.052255691207091844,0.029867627338620653,-2.7523196082533503,0.03448217623440177,2.7663693784607783,0.7691656433658466,1.6754973547542302,0.052104326824870026,0.029969505109285054,-2.752394845125968,0.0342448039870148,2.7663679543071322,0.7691630533470046,0.0003466927094652621,-0.0007267040906363455,-5.860638756241933e-05,-0.0003420887784113507,-0.00012290365829264058,0.00030590040275358613,-0.000600286788650977,0.0,0.0,0.0,0.0,0.0,0.0,0.0,0.00011658951134196904,-0.00015136438222181775,0.00010187777066440057,-7.523687261778988e-05,-0.0002373722473869716,-1.4241536461234716e-06,-2.590018841952535e-06,-0.0003466927094652621,0.0007267040906363455,5.860638756241933e-05,0.0003420887784113507,0.00012290365829264058,-0.00030590040275358613,0.000600286788650977,0.2998287081718445,22.696680068969727,-0.04922797530889511,-13.981050491333008,0.09675067663192749,-2.1325716972351074,0.24844686686992645,0
78,0.3850247859954834,-0.2998287081718445,-22.696680068969727,0.04922797530889511,13.981050491333008,-0.09675067663192749,2.1325716972351074,-0.24844686686992645,0.0,0.0,0.0,0.0,0.0,0.0,0.0,-0.3142638649234658,0.0925166321322982,-0.07572383815922562,0.09840211066844172,-0.33022837415106393,-0.04308631886939166,-0.26632350263969573,1.6753807652428883,0.052255691207091844,0.029867627338620653,-2.7523196082533503,0.03448217623440177,2.7663693784607783,0.7691656433658466,1.6754973547542302,0.052104326824870026,0.029969505109285054,-2.752394845125968,0.0342448039870148,2.7663679543071322,0.7691630533470046,0.0003466927094652621,-0.0007267040906363455,-5.860638756241933e-05,-0.0003420887784113507,-0.00012290365829264058,0.00030590040275358613,-0.000600286788650977,0.0,0.0,0.0,0.0,0.0,0.0,0.0,0.00011658951134196904,-0.00015136438222181775,0.00010187777066440057,-7.523687261778988e-05,-0.0002373722473869716,-1.4241536461234716e-06,-2.590018841952535e-06,-0.0003466927094652621,0.0007267040906363455,5.860638756241933e-05,0.0003420887784113507,0.00012290365829264058,-0.00030590040275358613,0.000600286788650977,0.2998287081718445,22.696680068969727,-0.04922797530889511,-13.981050491333008,0.09675067663192749,-2.1325716972351074,0.24844686686992645,0
79,0.39005327224731445,-0.2720577120780945,-22.672876358032227,0.04922797530889511,14.008821487426758,-0.10224384069442749,2.1453890800476074,-0.24844686686992645,0.0,0.0,0.0,0.0,0.0,0.0,0.0,-0.28757199827685287,0.09954974526032444,-0.04929269212207737,0.09069065426748671,-0.33262120669926076,-0.04463619724715864,-0.26734138823315967,1.6753816748022767,0.052253994542132684,0.029867627338620653,-2.7523215570951765,0.03448294442781696,2.7663679543071322,0.769165641894127,1.6754973547542302,0.052104326824870026,0.029969505109285054,-2.752394845125968,0.0342448039870148,2.7663679543071322,0.7691630533470046,-0.00026398279585651514,-0.000411368500829475,-0.0004932343963755851,-0.001285629471837667,0.00019190688993465414,-0.0001769598218123239,-0.0010703995910566393,0.0,0.0,0.0,0.0,0.0,0.0,0.0,0.00011567995195349567,-0.00014966771726265815,0.00010187777066440057,-7.328803079165169e-05,-0.00023814044080215646,0.0,-2.588547122317486e-06,0.00026398279585651514,0.000411368500829475,0.0004932343963755851,0.001285629471837667,-0.00019190688993465414,0.0001769598218123239,0.0010703995910566393,0.2720577120780945,22.672876358032227,-0.04922797530889511,-14.008821487426758,0.10224384069442749,-2.1453890800476074,0.24844686686992645,0
