rezayati/contactInterpretation/dataset/franka_main/labeled_data/link5/c8_3.csv
index,time,tau_J0,tau_J1,tau_J2,tau_J3,tau_J4,tau_J5,tau_J6,tau_J_d0,tau_J_d1,tau_J_d2,tau_J_d3,tau_J_d4,tau_J_d5,tau_J_d6,tau_ext0,tau_ext1,tau_ext2,tau_ext3,tau_ext4,tau_ext5,tau_ext6,q0,q1,q2,q3,q4,q5,q6,q_d0,q_d1,q_d2,q_d3,q_d4,q_d5,q_d6,dq0,dq1,dq2,dq3,dq4,dq5,dq6,dq_d0,dq_d1,dq_d2,dq_d3,dq_d4,dq_d5,dq_d6,e0,e1,e2,e3,e4,e5,e6,de0,de1,de2,de3,de4,de5,de6,etau_J0,etau_J1,etau_J2,etau_J3,etau_J4,etau_J5,etau_J6,label
1,0.0,-0.4505855441093445,-34.06295394897461,-3.7990386486053467,19.436067581176758,0.1595969796180725,1.783755898475647,-0.07724325358867645,0.0,0.0,0.0,0.0,0.0,0.0,0.0,-0.4180807416835087,-0.012214450617149958,-0.2460772948822871,0.466163970549723,0.1017933589577886,-0.11446742282140282,-0.07139065467529312,1.0544964370853023,0.32374980851641866,-0.39254756014174785,-2.153601986612394,0.8646968894978043,2.4659299157857895,0.5444855089104838,1.0544104758940245,0.3238615046091247,-0.39250456234122666,-2.153291787532338,0.8647539153680389,2.46587817577521,0.5445020185570556,0.0008159266263451711,-0.001072999216910192,0.000284292366843524,0.00103484961750065,-0.00011031204227717057,9.789645165408437e-05,-5.2725467584128135e-05,0.0,0.0,0.0,0.0,0.0,0.0,0.0,-8.596119127779467e-05,0.00011169609270605951,4.299780052119395e-05,0.0003101990800562504,5.702587023459493e-05,-5.174001057950406e-05,1.65096465718495e-05,-0.0008159266263451711,0.001072999216910192,-0.000284292366843524,-0.00103484961750065,0.00011031204227717057,-9.789645165408437e-05,5.2725467584128135e-05,0.4505855441093445,34.06295394897461,3.7990386486053467,-19.436067581176758,-0.1595969796180725,-1.783755898475647,0.07724325358867645,0
2,0.0053997039794921875,-0.4505855441093445,-34.06295394897461,-3.7990386486053467,19.436067581176758,0.1595969796180725,1.783755898475647,-0.07724325358867645,0.0,0.0,0.0,0.0,0.0,0.0,0.0,-0.4180807416835087,-0.012214450617149958,-0.2460772948822871,0.466163970549723,0.1017933589577886,-0.11446742282140282,-0.07139065467529312,1.0544964370853023,0.32374980851641866,-0.39254756014174785,-2.153601986612394,0.8646968894978043,2.4659299157857895,0.5444855089104838,1.0544104758940245,0.3238615046091247,-0.39250456234122666,-2.153291787532338,0.8647539153680389,2.46587817577521,0.5445020185570556,0.0008159266263451711,-0.001072999216910192,0.000284292366843524,0.00103484961750065,-0.00011031204227717057,9.789645165408437e-05,-5.2725467584128135e-05,0.0,0.0,0.0,0.0,0.0,0.0,0.0,-8.596119127779467e-05,0.00011169609270605951,4.299780052119395e-05,0.0003101990800562504,5.702587023459493e-05,-5.174001057950406e-05,1.65096465718495e-05,-0.0008159266263451711,0.001072999216910192,-0.000284292366843524,-0.00103484961750065,0.00011031204227717057,-9.789645165408437e-05,5.2725467584128135e-05,0.4505855441093445,34.06295394897461,3.7990386486053467,-19.436067581176758,-0.1595969796180725,-1.783755898475647,0.07724325358867645,0
3,0.01000070571899414,-0.4505855441093445,-34.06295394897461,-3.7990386486053467,19.436067581176758,0.1595969796180725,1.783755898475647,-0.07724325358867645,0.0,0.0,0.0,0.0,0.0,0.0,0.0,-0.4180807416835087,-0.012214450617149958,-0.2460772948822871,0.466163970549723,0.1017933589577886,-0.11446742282140282,-0.07139065467529312,1.0544964370853023,0.32374980851641866,-0.39254756014174785,-2.153601986612394,0.8646968894978043,2.4659299157857895,0.5444855089104838,1.0544104758940245,0.3238615046091247,-0.39250456234122666,-2.153291787532338,0.8647539153680389,2.46587817577521,0.5445020185570556,0.0008159266263451711,-0.001072999216910192,0.000284292366843524,0.00103484961750065,-0.00011031204227717057,9.789645165408437e-05,-5.2725467584128135e-05,0.0,0.0,0.0,0.0,0.0,0.0,0.0,-8.596119127779467e-05,0.00011169609270605951,4.299780052119395e-05,0.0003101990800562504,5.702587023459493e-05,-5.174001057950406e-05,1.65096465718495e-05,-0.0008159266263451711,0.001072999216910192,-0.000284292366843524,-0.00103484961750065,0.00011031204227717057,-9.789645165408437e-05,5.2725467584128135e-05,0.4505855441093445,34.06295394897461,3.7990386486053467,-19.436067581176758,-0.1595969796180725,-1.783755898475647,0.07724325358867645,0
4,0.015001058578491211,-0.4505855441093445,-34.06295394897461,-3.7990386486053467,19.436067581176758,0.1595969796180725,1.783755898475647,-0.07724325358867645,0.0,0.0,0.0,0.0,0.0,0.0,0.0,-0.4180807416835087,-0.012214450617149958,-0.2460772948822871,0.466163970549723,0.1017933589577886,-0.11446742282140282,-0.07139065467529312,1.0544964370853023,0.32374980851641866,-0.39254756014174785,-2.153601986612394,0.8646968894978043,2.4659299157857895,0.5444855089104838,1.0544104758940245,0.3238615046091247,-0.39250456234122666,-2.153291787532338,0.8647539153680389,2.46587817577521,0.5445020185570556,0.0008159266263451711,-0.001072999216910192,0.000284292366843524,0.00103484961750065,-0.00011031204227717057,9.789645165408437e-05,-5.2725467584128135e-05,0.0,0.0,0.0,0.0,0.0,0.0,0.0,-8.596119127779467e-05,0.00011169609270605951,4.299780052119395e-05,0.0003101990800562504,5.702587023459493e-05,-5.174001057950406e-05,1.65096465718495e-05,-0.0008159266263451711,0.001072999216910192,-0.000284292366843524,-0.00103484961750065,0.00011031204227717057,-9.789645165408437e-05,5.2725467584128135e-05,0.4505855441093445,34.06295394897461,3.7990386486053467,-19.436067581176758,-0.1595969796180725,-1.783755898475647,0.07724325358867645,0
5,0.02000570297241211,-0.4029781222343445,-34.09072494506836,-3.8228423595428467,19.487642288208008,0.1595969796180725,1.790164589881897,-0.04977743700146675,0.0,0.0,0.0,0.0,0.0,0.0,0.0,-0.41816312178299675,-0.008718120499208427,-0.24290166675097966,0.46299589262761803,0.10207656076294219,-0.11554195177923646,-0.07255673948629807,1.0544930962135917,0.3237517573582498,-0.39254518068901784,-2.1536037796818546,0.8646968894998232,2.4659292037089666,0.5444824571530852,1.0544104758940245,0.3238615046091247,-0.39250456234122666,-2.153291787532338,0.8647539153680389,2.46587817577521,0.5445020185570556,0.0002559278579189274,5.6832390880166126e-05,0.0005215736306051283,0.00013562890968744578,-0.00024393051930174793,-0.00018459761154776568,-0.0016434044988429986,0.0,0.0,0.0,0.0,0.0,0.0,0.0,-8.262031956718374e-05,0.00010974725087492532,4.061834779117701e-05,0.0003119921495167155,5.7025868215765385e-05,-5.102793375666437e-05,1.956140397041395e-05,-0.0002559278579189274,-5.6832390880166126e-05,-0.0005215736306051283,-0.00013562890968744578,0.00024393051930174793,0.00018459761154776568,0.0016434044988429986,0.4029781222343445,34.09072494506836,3.8228423595428467,-19.487642288208008,-0.1595969796180725,-1.790164589881897,0.04977743700146675,0
6,0.0250089168548584,-0.4029781222343445,-34.09072494506836,-3.8228423595428467,19.487642288208008,0.1595969796180725,1.790164589881897,-0.04977743700146675,0.0,0.0,0.0,0.0,0.0,0.0,0.0,-0.41816312178299675,-0.008718120499208427,-0.24290166675097966,0.46299589262761803,0.10207656076294219,-0.11554195177923646,-0.07255673948629807,1.0544930962135917,0.3237517573582498,-0.39254518068901784,-2.1536037796818546,0.8646968894998232,2.4659292037089666,0.5444824571530852,1.0544104758940245,0.3238615046091247,-0.39250456234122666,-2.153291787532338,0.8647539153680389,2.46587817577521,0.5445020185570556,0.0002559278579189274,5.6832390880166126e-05,0.0005215736306051283,0.00013562890968744578,-0.00024393051930174793,-0.00018459761154776568,-0.0016434044988429986,0.0,0.0,0.0,0.0,0.0,0.0,0.0,-8.262031956718374e-05,0.00010974725087492532,4.061834779117701e-05,0.0003119921495167155,5.7025868215765385e-05,-5.102793375666437e-05,1.956140397041395e-05,-0.0002559278579189274,-5.6832390880166126e-05,-0.0005215736306051283,-0.00013562890968744578,0.00024393051930174793,0.00018459761154776568,0.0016434044988429986,0.4029781222343445,34.09072494506836,3.8228423595428467,-19.487642288208008,-0.1595969796180725,-1.790164589881897,0.04977743700146675,0
7,0.02996516227722168,-0.4029781222343445,-34.01534652709961,-3.7990386486053467,19.511445999145508,0.1476951241493225,1.796573281288147,-0.09097616374492645,0.0,0.0,0.0,0.0,0.0,0.0,0.0,-0.4138602858172403,0.06134199024907673,-0.23583011810259613,0.42458691587591435,0.10205090628183501,-0.12086695329839435,-0.07413327299653473,1.0544930962135917,0.32374646764470816,-0.3925446468808988,-2.153605209084249,0.8646982119282085,2.465928491632144,0.54448703478939,1.0544104758940245,0.3238615046091247,-0.39250456234122666,-2.153291787532338,0.8647539153680389,2.46587817577521,0.5445020185570556,0.00012072580201414392,-0.001676922206426886,-0.00021408975701468465,-0.0010405555033689287,0.00028308355745634996,-0.0002645960698401365,0.0010089271089666356,0.0,0.0,0.0,0.0,0.0,0.0,0.0,-8.262031956718374e-05,0.00011503696441655942,4.00845396721361e-05,0.0003134215519109418,5.570343983041237e-05,-5.0315856933824676e-05,1.4983767665621706e-05,-0.00012072580201414392,0.001676922206426886,0.00021408975701468465,0.0010405555033689287,-0.00028308355745634996,0.0002645960698401365,-0.0010089271089666356,0.4029781222343445,34.01534652709961,3.7990386486053467,-19.511445999145508,-0.1476951241493225,-1.796573281288147,0.09097616374492645,0
8,0.03539419174194336,-0.4029781222343445,-34.01534652709961,-3.7990386486053467,19.511445999145508,0.1476951241493225,1.796573281288147,-0.09097616374492645,0.0,0.0,0.0,0.0,0.0,0.0,0.0,-0.4138602858172403,0.06134199024907673,-0.23583011810259613,0.42458691587591435,0.10205090628183501,-0.12086695329839435,-0.07413327299653473,1.0544930962135917,0.32374646764470816,-0.3925446468808988,-2.153605209084249,0.8646982119282085,2.465928491632144,0.54448703478939,1.0544104758940245,0.3238615046091247,-0.39250456234122666,-2.153291787532338,0.8647539153680389,2.46587817577521,0.5445020185570556,0.00012072580201414392,-0.001676922206426886,-0.00021408975701468465,-0.0010405555033689287,0.00028308355745634996,-0.0002645960698401365,0.0010089271089666356,0.0,0.0,0.0,0.0,0.0,0.0,0.0,-8.262031956718374e-05,0.00011503696441655942,4.00845396721361e-05,0.0003134215519109418,5.570343983041237e-05,-5.0315856933824676e-05,1.4983767665621706e-05,-0.00012072580201414392,0.001676922206426886,0.00021408975701468465,0.0010405555033689287,-0.00028308355745634996,0.0002645960698401365,-0.0010089271089666356,0.4029781222343445,34.01534652709961,3.7990386486053467,-19.511445999145508,-0.1476951241493225,-1.796573281288147,0.09097616374492645,0
9,0.040001869201660156,-0.4029781222343445,-34.03915023803711,-3.7990386486053467,19.459871292114258,0.1531882882118225,1.783755898475647,-0.04336874559521675,0.0,0.0,0.0,0.0,0.0,0.0,0.0,-0.4253613274859032,-0.016774213795928056,-0.25630052572342155,0.4636763870491057,0.102059453753486,-0.11573954517305061,-0.07303521972149178,1.0544930962135917,0.3237481380805634,-0.39254753101160217,-2.1536022786749642,0.8646976015766461,2.4659299157857895,0.5444817407156114,1.0544104758940245,0.3238615046091247,-0.39250456234122666,-2.153291787532338,0.8647539153680389,2.46587817577521,0.5445020185570556,-0.0008198521739801067,-0.00017197593700134735,-0.0008645864118936695,0.0008103071301064215,6.693321081058258e-05,0.00014990243465266316,-0.0017149776177073754,0.0,0.0,0.0,0.0,0.0,0.0,0.0,-8.262031956718374e-05,0.00011336652856130947,4.2968670375509443e-05,0.000310491142626379,5.631379139281467e-05,-5.174001057950406e-05,2.027784144420508e-05,0.0008198521739801067,0.00017197593700134735,0.0008645864118936695,-0.0008103071301064215,-6.693321081058258e-05,-0.00014990243465266316,0.0017149776177073754,0.4029781222343445,34.03915023803711,3.7990386486053467,-19.459871292114258,-0.1531882882118225,-1.783755898475647,0.04336874559521675,0
10,0.04500174522399902,-0.4029781222343445,-34.03915023803711,-3.7990386486053467,19.459871292114258,0.1531882882118225,1.783755898475647,-0.04336874559521675,0.0,0.0,0.0,0.0,0.0,0.0,0.0,-0.4253613274859032,-0.016774213795928056,-0.25630052572342155,0.4636763870491057,0.102059453753486,-0.11573954517305061,-0.07303521972149178,1.0544930962135917,0.3237481380805634,-0.39254753101160217,-2.1536022786749642,0.8646976015766461,2.4659299157857895,0.5444817407156114,1.0544104758940245,0.3238615046091247,-0.39250456234122666,-2.153291787532338,0.8647539153680389,2.46587817577521,0.5445020185570556,-0.0008198521739801067,-0.00017197593700134735,-0.0008645864118936695,0.0008103071301064215,6.693321081058258e-05,0.00014990243465266316,-0.0017149776177073754,0.0,0.0,0.0,0.0,0.0,0.0,0.0,-8.262031956718374e-05,0.00011336652856130947,4.2968670375509443e-05,0.000310491142626379,5.631379139281467e-05,-5.174001057950406e-05,2.027784144420508e-05,0.0008198521739801067,0.00017197593700134735,0.0008645864118936695,-0.0008103071301064215,-6.693321081058258e-05,-0.00014990243465266316,0.0017149776177073754,0.4029781222343445,34.03915023803711,3.7990386486053467,-19.459871292114258,-0.1531882882118225,-1.783755898475647,0.04336874559521675,0
11,0.04996204376220703,-0.4505855441093445,-34.09072494506836,-3.8228423595428467,19.487642288208008,0.1595969796180725,1.777347207069397,-0.04977743700146675,0.0,0.0,0.0,0.0,0.0,0.0,0.0,-0.4103823535409303,-0.028935396588023295,-0.24421280255194688,0.4743926869693026,0.10135428416848125,-0.11644749025082884,-0.07309328562275846,1.0544964370853023,0.3237517573582498,-0.3925458080646923,-2.1536035386509216,0.8646968875375303,2.4659306278626123,0.5444824571530605,1.0544104758940245,0.3238615046091247,-0.39250456234122666,-2.153291787532338,0.8647539153680389,2.46587817577521,0.5445020185570556,0.0007209713706917912,0.00035276241342693825,0.00023711815075314898,0.00012762847733952573,-3.908662303523304e-05,0.00035459788768133426,-0.0010381302428997647,0.0,0.0,0.0,0.0,0.0,0.0,0.0,-8.596119127779467e-05,0.00010974725087492532,4.124572346564381e-05,0.0003117511185837252,5.7027830508649124e-05,-5.245208740234375e-05,1.95614039950609e-05,-0.0007209713706917912,-0.00035276241342693825,-0.00023711815075314898,-0.00012762847733952573,3.908662303523304e-05,-0.00035459788768133426,0.0010381302428997647,0.4505855441093445,34.09072494506836,3.8228423595428467,-19.487642288208008,-0.1595969796180725,-1.777347207069397,0.04977743700146675,0
12,0.05501675605773926,-0.4505855441093445,-34.09072494506836,-3.8228423595428467,19.487642288208008,0.1595969796180725,1.777347207069397,-0.04977743700146675,0.0,0.0,0.0,0.0,0.0,0.0,0.0,-0.4103823535409303,-0.028935396588023295,-0.24421280255194688,0.4743926869693026,0.10135428416848125,-0.11644749025082884,-0.07309328562275846,1.0544964370853023,0.3237517573582498,-0.3925458080646923,-2.1536035386509216,0.8646968875375303,2.4659306278626123,0.5444824571530605,1.0544104758940245,0.3238615046091247,-0.39250456234122666,-2.153291787532338,0.8647539153680389,2.46587817577521,0.5445020185570556,0.0007209713706917912,0.00035276241342693825,0.00023711815075314898,0.00012762847733952573,-3.908662303523304e-05,0.00035459788768133426,-0.0010381302428997647,0.0,0.0,0.0,0.0,0.0,0.0,0.0,-8.596119127779467e-05,0.00010974725087492532,4.124572346564381e-05,0.0003117511185837252,5.7027830508649124e-05,-5.245208740234375e-05,1.95614039950609e-05,-0.0007209713706917912,-0.00035276241342693825,-0.00023711815075314898,-0.00012762847733952573,3.908662303523304e-05,-0.00035459788768133426,0.0010381302428997647,0.4505855441093445,34.09072494506836,3.8228423595428467,-19.487642288208008,-0.1595969796180725,-1.777347207069397,0.04977743700146675,0
13,0.059995174407958984,-0.3514034152030945,-34.11452865600586,-3.7514312267303467,19.459871292114258,0.1595969796180725,1.783755898475647,-0.06991903483867645,0.0,0.0,0.0,0.0,0.0,0.0,0.0,-0.41226149385407423,-0.019322044729570786,-0.24261098023890013,0.46936795960819017,0.10169502664834236,-0.11773998289475908,-0.07325633883106926,1.0544894772629538,0.3237534277941051,-0.3925508193722691,-2.153601666369615,0.8646968894998195,2.465930286659135,0.5444846951084004,1.0544104758940245,0.3238615046091247,-0.39250456234122666,-2.153291787532338,0.8647539153680389,2.46587817577521,0.5445020185570556,-0.0011064577987252712,0.0007183991079553352,-0.0009917410727951813,0.0005994700079265467,-0.0002981246313200694,2.609413341367118e-05,0.00011379813438185156,0.0,0.0,0.0,0.0,0.0,0.0,0.0,-7.90013689293545e-05,0.00010807681501961985,4.625703104244039e-05,0.0003098788372772887,5.702586821942912e-05,-5.211088392487184e-05,1.7323448655237605e-05,0.0011064577987252712,-0.0007183991079553352,0.0009917410727951813,-0.0005994700079265467,0.0002981246313200694,-2.609413341367118e-05,-0.00011379813438185156,0.3514034152030945,34.11452865600586,3.7514312267303467,-19.459871292114258,-0.1595969796180725,-1.783755898475647,0.06991903483867645,0
14,0.06499767303466797,-0.3514034152030945,-34.11452865600586,-3.7514312267303467,19.459871292114258,0.1595969796180725,1.783755898475647,-0.06991903483867645,0.0,0.0,0.0,0.0,0.0,0.0,0.0,-0.41226149385407423,-0.019322044729570786,-0.24261098023890013,0.46936795960819017,0.10169502664834236,-0.11773998289475908,-0.07325633883106926,1.0544894772629538,0.3237534277941051,-0.3925508193722691,-2.153601666369615,0.8646968894998195,2.465930286659135,0.5444846951084004,1.0544104758940245,0.3238615046091247,-0.39250456234122666,-2.153291787532338,0.8647539153680389,2.46587817577521,0.5445020185570556,-0.0011064577987252712,0.0007183991079553352,-0.0009917410727951813,0.0005994700079265467,-0.0002981246313200694,2.609413341367118e-05,0.00011379813438185156,0.0,0.0,0.0,0.0,0.0,0.0,0.0,-7.90013689293545e-05,0.00010807681501961985,4.625703104244039e-05,0.0003098788372772887,5.702586821942912e-05,-5.211088392487184e-05,1.7323448655237605e-05,0.0011064577987252712,-0.0007183991079553352,0.0009917410727951813,-0.0005994700079265467,0.0002981246313200694,-2.609413341367118e-05,-0.00011379813438185156,0.3514034152030945,34.11452865600586,3.7514312267303467,-19.459871292114258,-0.1595969796180725,-1.783755898475647,0.06991903483867645,0
15,0.06999850273132324,-0.4267818331718445,-34.03915023803711,-3.7990386486053467,19.436067581176758,0.1650901436805725,1.790164589881897,-0.03604452684521675,0.0,0.0,0.0,0.0,0.0,0.0,0.0,-0.4250440492966051,-0.012070777316649623,-0.25462959011542696,0.4638431795487458,0.10208486950452558,-0.11680170684770591,-0.07215119960820214,1.0544947666494489,0.3237481380805634,-0.3925454252178654,-2.1536026747438504,0.8646962747331017,2.465929203657225,0.5444809317586956,1.0544104758940245,0.3238615046091247,-0.39250456234122666,-2.153291787532338,0.8647539153680389,2.46587817577521,0.5445020185570556,-0.00013164634966145606,-0.00048520269457407274,-0.00010068897457808788,0.0013229101618831912,-0.0005119798996760445,-0.00015325869477796018,-0.0013770248703297546,0.0,0.0,0.0,0.0,0.0,0.0,0.0,-8.429075542437658e-05,0.00011336652856130947,4.0862876638736445e-05,0.00031088721151251164,5.7640634937183854e-05,-5.102788201494235e-05,2.108679835999272e-05,0.00013164634966145606,0.00048520269457407274,0.00010068897457808788,-0.0013229101618831912,0.0005119798996760445,0.00015325869477796018,0.0013770248703297546,0.4267818331718445,34.03915023803711,3.7990386486053467,-19.436067581176758,-0.1650901436805725,-1.790164589881897,0.03604452684521675,0
16,0.07500076293945312,-0.4267818331718445,-34.03915023803711,-3.7990386486053467,19.436067581176758,0.1650901436805725,1.790164589881897,-0.03604452684521675,0.0,0.0,0.0,0.0,0.0,0.0,0.0,-0.4250440492966051,-0.012070777316649623,-0.25462959011542696,0.4638431795487458,0.10208486950452558,-0.11680170684770591,-0.07215119960820214,1.0544947666494489,0.3237481380805634,-0.3925454252178654,-2.1536026747438504,0.8646962747331017,2.465929203657225,0.5444809317586956,1.0544104758940245,0.3238615046091247,-0.39250456234122666,-2.153291787532338,0.8647539153680389,2.46587817577521,0.5445020185570556,-0.00013164634966145606,-0.00048520269457407274,-0.00010068897457808788,0.0013229101618831912,-0.0005119798996760445,-0.00015325869477796018,-0.0013770248703297546,0.0,0.0,0.0,0.0,0.0,0.0,0.0,-8.429075542437658e-05,0.00011336652856130947,4.0862876638736445e-05,0.00031088721151251164,5.7640634937183854e-05,-5.102788201494235e-05,2.108679835999272e-05,0.00013164634966145606,0.00048520269457407274,0.00010068897457808788,-0.0013229101618831912,0.0005119798996760445,0.00015325869477796018,0.0013770248703297546,0.4267818331718445,34.03915023803711,3.7990386486053467,-19.436067581176758,-0.1650901436805725,-1.790164589881897,0.03604452684521675,0
17,0.08000373840332031,-0.4029781222343445,-34.09072494506836,-3.8228423595428467,19.459871292114258,0.1476951241493225,1.790164589881897,-0.07724325358867645,0.0,0.0,0.0,0.0,0.0,0.0,0.0,-0.41330534901611904,-0.013791242604496476,-0.24225330673336828,0.4656773901946532,0.1012936998549871,-0.11721368555024508,-0.07139470695663146,1.0544930962135917,0.3237517573582498,-0.3925458546513544,-2.1536025168015036,0.8646982119279842,2.465929203708964,0.5444855089105083,1.0544104758940245,0.3238615046091247,-0.39250456234122666,-2.153291787532338,0.8647539153680389,2.46587817577521,0.5445020185570556,-0.00040459041908528235,0.0006587186015912063,0.0005381529499950648,0.0008069414818558572,0.0001824424988786448,-0.0002043362240023785,0.00044323953609062166,0.0,0.0,0.0,0.0,0.0,0.0,0.0,-8.262031956718374e-05,0.00010974725087492532,4.129231012772738e-05,0.00031072926916575483,5.570344005467742e-05,-5.102793375399983e-05,1.6509646547313572e-05,0.00040459041908528235,-0.0006587186015912063,-0.0005381529499950648,-0.0008069414818558572,-0.0001824424988786448,0.0002043362240023785,-0.00044323953609062166,0.4029781222343445,34.09072494506836,3.8228423595428467,-19.459871292114258,-0.1476951241493225,-1.790164589881897,0.07724325358867645,0
18,0.08500099182128906,-0.4029781222343445,-34.09072494506836,-3.8228423595428467,19.459871292114258,0.1476951241493225,1.790164589881897,-0.07724325358867645,0.0,0.0,0.0,0.0,0.0,0.0,0.0,-0.41330534901611904,-0.013791242604496476,-0.24225330673336828,0.4656773901946532,0.1012936998549871,-0.11721368555024508,-0.07139470695663146,1.0544930962135917,0.3237517573582498,-0.3925458546513544,-2.1536025168015036,0.8646982119279842,2.465929203708964,0.5444855089105083,1.0544104758940245,0.3238615046091247,-0.39250456234122666,-2.153291787532338,0.8647539153680389,2.46587817577521,0.5445020185570556,-0.00040459041908528235,0.0006587186015912063,0.0005381529499950648,0.0008069414818558572,0.0001824424988786448,-0.0002043362240023785,0.00044323953609062166,0.0,0.0,0.0,0.0,0.0,0.0,0.0,-8.262031956718374e-05,0.00010974725087492532,4.129231012772738e-05,0.00031072926916575483,5.570344005467742e-05,-5.102793375399983e-05,1.6509646547313572e-05,0.00040459041908528235,-0.0006587186015912063,-0.0005381529499950648,-0.0008069414818558572,-0.0001824424988786448,0.0002043362240023785,-0.00044323953609062166,0.4029781222343445,34.09072494506836,3.8228423595428467,-19.459871292114258,-0.1476951241493225,-1.790164589881897,0.07724325358867645,0
19,0.09001016616821289,-0.4029781222343445,-34.09072494506836,-3.8228423595428467,19.459871292114258,0.1476951241493225,1.790164589881897,-0.07724325358867645,0.0,0.0,0.0,0.0,0.0,0.0,0.0,-0.41330534901611904,-0.013791242604496476,-0.24225330673336828,0.4656773901946532,0.1012936998549871,-0.11721368555024508,-0.07139470695663146,1.0544930962135917,0.3237517573582498,-0.3925458546513544,-2.1536025168015036,0.8646982119279842,2.465929203708964,0.5444855089105083,1.0544104758940245,0.3238615046091247,-0.39250456234122666,-2.153291787532338,0.8647539153680389,2.46587817577521,0.5445020185570556,-0.00040459041908528235,0.0006587186015912063,0.0005381529499950648,0.0008069414818558572,0.0001824424988786448,-0.0002043362240023785,0.00044323953609062166,0.0,0.0,0.0,0.0,0.0,0.0,0.0,-8.262031956718374e-05,0.00010974725087492532,4.129231012772738e-05,0.00031072926916575483,5.570344005467742e-05,-5.102793375399983e-05,1.6509646547313572e-05,0.00040459041908528235,-0.0006587186015912063,-0.0005381529499950648,-0.0008069414818558572,-0.0001824424988786448,0.0002043362240023785,-0.00044323953609062166,0.4029781222343445,34.09072494506836,3.8228423595428467,-19.459871292114258,-0.1476951241493225,-1.790164589881897,0.07724325358867645,0
20,0.0950324535369873,-0.4029781222343445,-34.09072494506836,-3.8228423595428467,19.459871292114258,0.1476951241493225,1.790164589881897,-0.07724325358867645,0.0,0.0,0.0,0.0,0.0,0.0,0.0,-0.41330534901611904,-0.013791242604496476,-0.24225330673336828,0.4656773901946532,0.1012936998549871,-0.11721368555024508,-0.07139470695663146,1.0544930962135917,0.3237517573582498,-0.3925458546513544,-2.1536025168015036,0.8646982119279842,2.465929203708964,0.5444855089105083,1.0544104758940245,0.3238615046091247,-0.39250456234122666,-2.153291787532338,0.8647539153680389,2.46587817577521,0.5445020185570556,-0.00040459041908528235,0.0006587186015912063,0.0005381529499950648,0.0008069414818558572,0.0001824424988786448,-0.0002043362240023785,0.00044323953609062166,0.0,0.0,0.0,0.0,0.0,0.0,0.0,-8.262031956718374e-05,0.00010974725087492532,4.129231012772738e-05,0.00031072926916575483,5.570344005467742e-05,-5.102793375399983e-05,1.6509646547313572e-05,0.00040459041908528235,-0.0006587186015912063,-0.0005381529499950648,-0.0008069414818558572,-0.0001824424988786448,0.0002043362240023785,-0.00044323953609062166,0.4029781222343445,34.09072494506836,3.8228423595428467,-19.459871292114258,-0.1476951241493225,-1.790164589881897,0.07724325358867645,0
21,0.1000051498413086,-0.4267818331718445,-34.09072494506836,-3.8506133556365967,19.487642288208008,0.1595969796180725,1.790164589881897,-0.04977743700146675,0.0,0.0,0.0,0.0,0.0,0.0,0.0,-0.41946470843939937,-0.008345097573299936,-0.24448980551438934,0.4626248703531717,0.10096640926204624,-0.11720848045224597,-0.06981241404566753,1.054494766649447,0.3237517573582498,-0.3925439405881853,-2.153603615176647,0.8646968894998232,2.4659292037089666,0.5444824571530852,1.0544104758940245,0.3238615046091247,-0.39250456234122666,-2.153291787532338,0.8647539153680389,2.46587817577521,0.5445020185570556,6.212015842025014e-05,0.0006312225644238149,0.0006875921835259017,0.00026649741926089107,-0.0001686521015961981,-0.0001088632308642574,-0.0005299930618178408,0.0,0.0,0.0,0.0,0.0,0.0,0.0,-8.429075542260023e-05,0.00010974725087492532,3.937824695865455e-05,0.0003118276443090373,5.7025868215765385e-05,-5.102793375666437e-05,1.956140397041395e-05,-6.212015842025014e-05,-0.0006312225644238149,-0.0006875921835259017,-0.00026649741926089107,0.0001686521015961981,0.0001088632308642574,0.0005299930618178408,0.4267818331718445,34.09072494506836,3.8506133556365967,-19.487642288208008,-0.1595969796180725,-1.790164589881897,0.04977743700146675,0
22,0.1049947738647461,-0.4267818331718445,-34.09072494506836,-3.8506133556365967,19.487642288208008,0.1595969796180725,1.790164589881897,-0.04977743700146675,0.0,0.0,0.0,0.0,0.0,0.0,0.0,-0.41946470843939937,-0.008345097573299936,-0.24448980551438934,0.4626248703531717,0.10096640926204624,-0.11720848045224597,-0.06981241404566753,1.054494766649447,0.3237517573582498,-0.3925439405881853,-2.153603615176647,0.8646968894998232,2.4659292037089666,0.5444824571530852,1.0544104758940245,0.3238615046091247,-0.39250456234122666,-2.153291787532338,0.8647539153680389,2.46587817577521,0.5445020185570556,6.212015842025014e-05,0.0006312225644238149,0.0006875921835259017,0.00026649741926089107,-0.0001686521015961981,-0.0001088632308642574,-0.0005299930618178408,0.0,0.0,0.0,0.0,0.0,0.0,0.0,-8.429075542260023e-05,0.00010974725087492532,3.937824695865455e-05,0.0003118276443090373,5.7025868215765385e-05,-5.102793375666437e-05,1.956140397041395e-05,-6.212015842025014e-05,-0.0006312225644238149,-0.0006875921835259017,-0.00026649741926089107,0.0001686521015961981,0.0001088632308642574,0.0005299930618178408,0.4267818331718445,34.09072494506836,3.8506133556365967,-19.487642288208008,-0.1595969796180725,-1.790164589881897,0.04977743700146675,0
23,0.11001992225646973,-0.4267818331718445,-34.03915023803711,-3.7990386486053467,19.487642288208008,0.1595969796180725,1.783755898475647,-0.08365194499492645,0.0,0.0,0.0,0.0,0.0,0.0,0.0,-0.42401475799784183,-0.010727398416248956,-0.2525634958210966,0.46844232064860986,0.10103874874850419,-0.11442870179701399,-0.06972683394065078,1.054494766649447,0.3237481380805634,-0.3925475328641626,-2.153603538647465,0.8646968894998232,2.4659299157857895,0.5444862209873067,1.0544104758940245,0.3238615046091247,-0.39250456234122666,-2.153291787532338,0.8647539153680389,2.46587817577521,0.5445020185570556,-1.5331107730942256e-05,-0.00037416671730869296,-0.0003715913764869249,8.500586194049362e-05,-0.0002774165836974157,-0.002641910325606329,0.00040112685593745006,0.0,0.0,0.0,0.0,0.0,0.0,0.0,-8.429075542260023e-05,0.00011336652856130947,4.297052293594783e-05,0.00031175111512693476,5.7025868215765385e-05,-5.174001057950406e-05,1.5797569748898788e-05,1.5331107730942256e-05,0.00037416671730869296,0.0003715913764869249,-8.500586194049362e-05,0.0002774165836974157,0.002641910325606329,-0.00040112685593745006,0.4267818331718445,34.03915023803711,3.7990386486053467,-19.487642288208008,-0.1595969796180725,-1.783755898475647,0.08365194499492645,0
24,0.11502289772033691,-0.4267818331718445,-34.03915023803711,-3.7990386486053467,19.487642288208008,0.1595969796180725,1.783755898475647,-0.08365194499492645,0.0,0.0,0.0,0.0,0.0,0.0,0.0,-0.42401475799784183,-0.010727398416248956,-0.2525634958210966,0.46844232064860986,0.10103874874850419,-0.11442870179701399,-0.06972683394065078,1.054494766649447,0.3237481380805634,-0.3925475328641626,-2.153603538647465,0.8646968894998232,2.4659299157857895,0.5444862209873067,1.0544104758940245,0.3238615046091247,-0.39250456234122666,-2.153291787532338,0.8647539153680389,2.46587817577521,0.5445020185570556,-1.5331107730942256e-05,-0.00037416671730869296,-0.0003715913764869249,8.500586194049362e-05,-0.0002774165836974157,-0.002641910325606329,0.00040112685593745006,0.0,0.0,0.0,0.0,0.0,0.0,0.0,-8.429075542260023e-05,0.00011336652856130947,4.297052293594783e-05,0.00031175111512693476,5.7025868215765385e-05,-5.174001057950406e-05,1.5797569748898788e-05,1.5331107730942256e-05,0.00037416671730869296,0.0003715913764869249,-8.500586194049362e-05,0.0002774165836974157,0.002641910325606329,-0.00040112685593745006,0.4267818331718445,34.03915023803711,3.7990386486053467,-19.487642288208008,-0.1595969796180725,-1.783755898475647,0.08365194499492645,0
25,0.1199955940246582,-0.4029781222343445,-34.09072494506836,-3.7990386486053467,19.511445999145508,0.1595969796180725,1.770938515663147,-0.09097616374492645,0.0,0.0,0.0,0.0,0.0,0.0,0.0,-0.4071476031329903,-0.0060604739797415616,-0.23995793588451683,0.4644724576782752,0.10105626538968125,-0.1170313728421159,-0.07009764300897724,1.0544930962135917,0.3237517573582498,-0.39254535456978884,-2.153605211952304,0.8646968894998232,2.465931339939435,0.54448703478939,1.0544104758940245,0.3238615046091247,-0.39250456234122666,-2.153291787532338,0.8647539153680389,2.46587817577521,0.5445020185570556,0.000333536187529464,0.000838062089195205,0.00027686685946521684,-0.0005650536656564261,-0.0003760842005534082,0.0005250397734199431,0.001710393384695697,0.0,0.0,0.0,0.0,0.0,0.0,0.0,-8.262031956718374e-05,0.00010974725087492532,4.07922285621809e-05,0.0003134244199660685,5.7025868215765385e-05,-5.316416422518344e-05,1.4983767665621706e-05,-0.000333536187529464,-0.000838062089195205,-0.00027686685946521684,0.0005650536656564261,0.0003760842005534082,-0.0005250397734199431,-0.001710393384695697,0.4029781222343445,34.09072494506836,3.7990386486053467,-19.511445999145508,-0.1595969796180725,-1.770938515663147,0.09097616374492645,0
26,0.12499785423278809,-0.4029781222343445,-34.09072494506836,-3.7990386486053467,19.511445999145508,0.1595969796180725,1.770938515663147,-0.09097616374492645,0.0,0.0,0.0,0.0,0.0,0.0,0.0,-0.4071476031329903,-0.0060604739797415616,-0.23995793588451683,0.4644724576782752,0.10105626538968125,-0.1170313728421159,-0.07009764300897724,1.0544930962135917,0.3237517573582498,-0.39254535456978884,-2.153605211952304,0.8646968894998232,2.465931339939435,0.54448703478939,1.0544104758940245,0.3238615046091247,-0.39250456234122666,-2.153291787532338,0.8647539153680389,2.46587817577521,0.5445020185570556,0.000333536187529464,0.000838062089195205,0.00027686685946521684,-0.0005650536656564261,-0.0003760842005534082,0.0005250397734199431,0.001710393384695697,0.0,0.0,0.0,0.0,0.0,0.0,0.0,-8.262031956718374e-05,0.00010974725087492532,4.07922285621809e-05,0.0003134244199660685,5.7025868215765385e-05,-5.316416422518344e-05,1.4983767665621706e-05,-0.000333536187529464,-0.000838062089195205,-0.00027686685946521684,0.0005650536656564261,0.0003760842005534082,-0.0005250397734199431,-0.001710393384695697,0.4029781222343445,34.09072494506836,3.7990386486053467,-19.511445999145508,-0.1595969796180725,-1.770938515663147,0.09097616374492645,0
27,0.12994384765625,-0.4267818331718445,-34.01534652709961,-3.8228423595428467,19.459871292114258,0.1595969796180725,1.802981972694397,-0.05710165575146675,0.0,0.0,0.0,0.0,0.0,0.0,0.0,-0.41492177633494237,-0.010160250424224523,-0.24733457875950213,0.4612095519469248,0.10096922976752536,-0.11756340180537812,-0.0703252807990888,1.054494766649447,0.32374646764470816,-0.39254585461446295,-2.15360158980525,0.8646968894998232,2.465927779555321,0.5444832709551686,1.0544104758940245,0.3238615046091247,-0.39250456234122666,-2.153291787532338,0.8647539153680389,2.46587817577521,0.5445020185570556,0.0005421713374938593,-0.0018005111166019946,0.0008341775486239842,0.0006433606005616182,-0.00024091083638803549,-0.0005314828483750832,-0.0007937757230460171,0.0,0.0,0.0,0.0,0.0,0.0,0.0,-8.429075542260023e-05,0.00011503696441655942,4.129227323629303e-05,0.0003098022729122185,5.7025868215765385e-05,-4.9603780110984985e-05,1.8747601887025844e-05,-0.0005421713374938593,0.0018005111166019946,-0.0008341775486239842,-0.0006433606005616182,0.00024091083638803549,0.0005314828483750832,0.0007937757230460171,0.4267818331718445,34.01534652709961,3.8228423595428467,-19.459871292114258,-0.1595969796180725,-1.802981972694397,0.05710165575146675,0
28,0.13494133949279785,-0.4267818331718445,-34.01534652709961,-3.8228423595428467,19.459871292114258,0.1595969796180725,1.802981972694397,-0.05710165575146675,0.0,0.0,0.0,0.0,0.0,0.0,0.0,-0.41492177633494237,-0.010160250424224523,-0.24733457875950213,0.4612095519469248,0.10096922976752536,-0.11756340180537812,-0.0703252807990888,1.054494766649447,0.32374646764470816,-0.39254585461446295,-2.15360158980525,0.8646968894998232,2.465927779555321,0.5444832709551686,1.0544104758940245,0.3238615046091247,-0.39250456234122666,-2.153291787532338,0.8647539153680389,2.46587817577521,0.5445020185570556,0.0005421713374938593,-0.0018005111166019946,0.0008341775486239842,0.0006433606005616182,-0.00024091083638803549,-0.0005314828483750832,-0.0007937757230460171,0.0,0.0,0.0,0.0,0.0,0.0,0.0,-8.429075542260023e-05,0.00011503696441655942,4.129227323629303e-05,0.0003098022729122185,5.7025868215765385e-05,-4.9603780110984985e-05,1.8747601887025844e-05,-0.0005421713374938593,0.0018005111166019946,-0.0008341775486239842,-0.0006433606005616182,0.00024091083638803549,0.0005314828483750832,0.0007937757230460171,0.4267818331718445,34.01534652709961,3.8228423595428467,-19.459871292114258,-0.1595969796180725,-1.802981972694397,0.05710165575146675,0
29,0.14001679420471191,-0.3752071261405945,-34.06295394897461,-3.8228423595428467,19.511445999145508,0.1531882882118225,1.796573281288147,-0.08365194499492645,0.0,0.0,0.0,0.0,0.0,0.0,0.0,-0.4147068155346199,-0.006791482086340276,-0.24578635867394438,0.458912350649766,0.10080877677527827,-0.11718563234199791,-0.07108953615538934,1.0544911473717606,0.32374980851641866,-0.39254580097220826,-2.153605234907631,0.8646976015766461,2.465928491632144,0.5444862209873067,1.0544104758940245,0.3238615046091247,-0.39250456234122666,-2.153291787532338,0.8647539153680389,2.46587817577521,0.5445020185570556,-0.0006479585650731802,4.3849715302215896e-05,0.0003622754823000274,-0.00022900765888680992,-7.757561099036506e-05,-0.00020401551132780355,0.0007000566731380724,0.0,0.0,0.0,0.0,0.0,0.0,0.0,-8.067147773616057e-05,0.00011169609270605951,4.12386309815993e-05,0.0003134473752930411,5.631379139281467e-05,-5.0315856933824676e-05,1.5797569748898788e-05,0.0006479585650731802,-4.3849715302215896e-05,-0.0003622754823000274,0.00022900765888680992,7.757561099036506e-05,0.00020401551132780355,-0.0007000566731380724,0.3752071261405945,34.06295394897461,3.8228423595428467,-19.511445999145508,-0.1531882882118225,-1.796573281288147,0.08365194499492645,0
30,0.14500904083251953,-0.3752071261405945,-34.06295394897461,-3.8228423595428467,19.511445999145508,0.1531882882118225,1.796573281288147,-0.08365194499492645,0.0,0.0,0.0,0.0,0.0,0.0,0.0,-0.4147068155346199,-0.006791482086340276,-0.24578635867394438,0.458912350649766,0.10080877677527827,-0.11718563234199791,-0.07108953615538934,1.0544911473717606,0.32374980851641866,-0.39254580097220826,-2.153605234907631,0.8646976015766461,2.465928491632144,0.5444862209873067,1.0544104758940245,0.3238615046091247,-0.39250456234122666,-2.153291787532338,0.8647539153680389,2.46587817577521,0.5445020185570556,-0.0006479585650731802,4.3849715302215896e-05,0.0003622754823000274,-0.00022900765888680992,-7.757561099036506e-05,-0.00020401551132780355,0.0007000566731380724,0.0,0.0,0.0,0.0,0.0,0.0,0.0,-8.067147773616057e-05,0.00011169609270605951,4.12386309815993e-05,0.0003134473752930411,5.631379139281467e-05,-5.0315856933824676e-05,1.5797569748898788e-05,0.0006479585650731802,-4.3849715302215896e-05,-0.0003622754823000274,0.00022900765888680992,7.757561099036506e-05,0.00020401551132780355,-0.0007000566731380724,0.3752071261405945,34.06295394897461,3.8228423595428467,-19.511445999145508,-0.1531882882118225,-1.796573281288147,0.08365194499492645,0
31,0.14999771118164062,-0.4267818331718445,-34.09072494506836,-3.8506133556365967,19.436067581176758,0.1476951241493225,1.790164589881897,-0.06991903483867645,0.0,0.0,0.0,0.0,0.0,0.0,0.0,-0.41716528117448753,-0.005141691695253043,-0.25066459828374477,0.45961301271550375,0.10047129156374648,-0.11596223293247522,-0.07196196350868136,1.054494766649447,0.3237517573582498,-0.39254386120298457,-2.153599919486038,0.8646982119282085,2.4659292037089666,0.5444846951084005,1.0544104758940245,0.3238615046091247,-0.39250456234122666,-2.153291787532338,0.8647539153680389,2.46587817577521,0.5445020185570556,6.849076975935553e-05,0.0008024274040012152,0.000731590118756946,0.0016450353728305795,0.0003292232003935568,-0.00012575029207789976,5.0109983697540136e-05,0.0,0.0,0.0,0.0,0.0,0.0,0.0,-8.429075542260023e-05,0.00010974725087492532,3.92988617579082e-05,0.0003081319536999416,5.570343983041237e-05,-5.102793375666437e-05,1.7323448655126583e-05,-6.849076975935553e-05,-0.0008024274040012152,-0.000731590118756946,-0.0016450353728305795,-0.0003292232003935568,0.00012575029207789976,-5.0109983697540136e-05,0.4267818331718445,34.09072494506836,3.8506133556365967,-19.436067581176758,-0.1476951241493225,-1.790164589881897,0.06991903483867645,0
32,0.1550126075744629,-0.4267818331718445,-34.09072494506836,-3.8506133556365967,19.436067581176758,0.1476951241493225,1.790164589881897,-0.06991903483867645,0.0,0.0,0.0,0.0,0.0,0.0,0.0,-0.41716528117448753,-0.005141691695253043,-0.25066459828374477,0.45961301271550375,0.10047129156374648,-0.11596223293247522,-0.07196196350868136,1.054494766649447,0.3237517573582498,-0.39254386120298457,-2.153599919486038,0.8646982119282085,2.4659292037089666,0.5444846951084005,1.0544104758940245,0.3238615046091247,-0.39250456234122666,-2.153291787532338,0.8647539153680389,2.46587817577521,0.5445020185570556,6.849076975935553e-05,0.0008024274040012152,0.000731590118756946,0.0016450353728305795,0.0003292232003935568,-0.00012575029207789976,5.0109983697540136e-05,0.0,0.0,0.0,0.0,0.0,0.0,0.0,-8.429075542260023e-05,0.00010974725087492532,3.92988617579082e-05,0.0003081319536999416,5.570343983041237e-05,-5.102793375666437e-05,1.7323448655126583e-05,-6.849076975935553e-05,-0.0008024274040012152,-0.000731590118756946,-0.0016450353728305795,-0.0003292232003935568,0.00012575029207789976,-5.0109983697540136e-05,0.4267818331718445,34.09072494506836,3.8506133556365967,-19.436067581176758,-0.1476951241493225,-1.790164589881897,0.06991903483867645,0
33,0.15999817848205566,-0.4267818331718445,-34.09072494506836,-3.7990386486053467,19.487642288208008,0.1531882882118225,1.790164589881897,-0.09097616374492645,0.0,0.0,0.0,0.0,0.0,0.0,0.0,-0.4068392644733916,-0.008247407206374891,-0.24422227956824383,0.46051470836443514,0.10003789069282608,-0.11655024679472968,-0.07294850919909063,1.0544947676305934,0.3237517573582498,-0.3925472452414501,-2.1536056052563213,0.8646976015766461,2.4659292037089666,0.54448703478939,1.0544104758940245,0.3238615046091247,-0.39250456234122666,-2.153291787532338,0.8647539153680389,2.46587817577521,0.5445020185570556,0.00023377041537510655,0.0002052817773425149,-1.0391960978491407e-05,-0.0001350780622375864,-8.383926305536642e-05,-0.0001501586028271713,0.0010557107143321207,0.0,0.0,0.0,0.0,0.0,0.0,0.0,-8.429173656887556e-05,0.00010974725087492532,4.2682900223467435e-05,0.0003138177239834228,5.631379139281467e-05,-5.102793375666437e-05,1.4983767665621706e-05,-0.00023377041537510655,-0.0002052817773425149,1.0391960978491407e-05,0.0001350780622375864,8.383926305536642e-05,0.0001501586028271713,-0.0010557107143321207,0.4267818331718445,34.09072494506836,3.7990386486053467,-19.487642288208008,-0.1531882882118225,-1.790164589881897,0.09097616374492645,0
34,0.16501092910766602,-0.4267818331718445,-34.09072494506836,-3.7990386486053467,19.487642288208008,0.1531882882118225,1.790164589881897,-0.09097616374492645,0.0,0.0,0.0,0.0,0.0,0.0,0.0,-0.4068392644733916,-0.008247407206374891,-0.24422227956824383,0.46051470836443514,0.10003789069282608,-0.11655024679472968,-0.07294850919909063,1.0544947676305934,0.3237517573582498,-0.3925472452414501,-2.1536056052563213,0.8646976015766461,2.4659292037089666,0.54448703478939,1.0544104758940245,0.3238615046091247,-0.39250456234122666,-2.153291787532338,0.8647539153680389,2.46587817577521,0.5445020185570556,0.00023377041537510655,0.0002052817773425149,-1.0391960978491407e-05,-0.0001350780622375864,-8.383926305536642e-05,-0.0001501586028271713,0.0010557107143321207,0.0,0.0,0.0,0.0,0.0,0.0,0.0,-8.429173656887556e-05,0.00010974725087492532,4.2682900223467435e-05,0.0003138177239834228,5.631379139281467e-05,-5.102793375666437e-05,1.4983767665621706e-05,-0.00023377041537510655,-0.0002052817773425149,1.0391960978491407e-05,0.0001350780622375864,8.383926305536642e-05,0.0001501586028271713,-0.0010557107143321207,0.4267818331718445,34.09072494506836,3.7990386486053467,-19.487642288208008,-0.1531882882118225,-1.790164589881897,0.09097616374492645,0
35,0.1699965000152588,-0.4267818331718445,-34.03915023803711,-3.8228423595428467,19.487642288208008,0.1650901436805725,1.790164589881897,-0.06351034343242645,0.0,0.0,0.0,0.0,0.0,0.0,0.0,-0.3985793608607724,-0.0029888218076322293,-0.2339863429007983,0.4611129507462754,0.09962086601309056,-0.11776440941402545,-0.07273060768839262,1.0544947666494524,0.3237481380805634,-0.3925458800316492,-2.153603538658699,0.8646962791482606,2.4659292037089666,0.5444839830315775,1.0544104758940245,0.3238615046091247,-0.39250456234122666,-2.153291787532338,0.8647539153680389,2.46587817577521,0.5445020185570556,0.00044268109751456066,-0.00046792784743349174,0.0013168119310865314,0.00032417651054066933,-0.0003557635834005321,-4.201735466230807e-05,-0.00042249209219883473,0.0,0.0,0.0,0.0,0.0,0.0,0.0,-8.42907554279293e-05,0.00011336652856130947,4.1317690422537634e-05,0.0003117511263610595,5.763621977827871e-05,-5.102793375666437e-05,1.8035525478077297e-05,-0.00044268109751456066,0.00046792784743349174,-0.0013168119310865314,-0.00032417651054066933,0.0003557635834005321,4.201735466230807e-05,0.00042249209219883473,0.4267818331718445,34.03915023803711,3.8228423595428467,-19.487642288208008,-0.1650901436805725,-1.790164589881897,0.06351034343242645,0
36,0.17500591278076172,-0.4267818331718445,-34.03915023803711,-3.8228423595428467,19.487642288208008,0.1650901436805725,1.790164589881897,-0.06351034343242645,0.0,0.0,0.0,0.0,0.0,0.0,0.0,-0.3985793608607724,-0.0029888218076322293,-0.2339863429007983,0.4611129507462754,0.09962086601309056,-0.11776440941402545,-0.07273060768839262,1.0544947666494524,0.3237481380805634,-0.3925458800316492,-2.153603538658699,0.8646962791482606,2.4659292037089666,0.5444839830315775,1.0544104758940245,0.3238615046091247,-0.39250456234122666,-2.153291787532338,0.8647539153680389,2.46587817577521,0.5445020185570556,0.00044268109751456066,-0.00046792784743349174,0.0013168119310865314,0.00032417651054066933,-0.0003557635834005321,-4.201735466230807e-05,-0.00042249209219883473,0.0,0.0,0.0,0.0,0.0,0.0,0.0,-8.42907554279293e-05,0.00011336652856130947,4.1317690422537634e-05,0.0003117511263610595,5.763621977827871e-05,-5.102793375666437e-05,1.8035525478077297e-05,-0.00044268109751456066,0.00046792784743349174,-0.0013168119310865314,-0.00032417651054066933,0.0003557635834005321,4.201735466230807e-05,0.00042249209219883473,0.4267818331718445,34.03915023803711,3.8228423595428467,-19.487642288208008,-0.1650901436805725,-1.790164589881897,0.06351034343242645,0
37,0.17999482154846191,-0.4267818331718445,-34.06295394897461,-3.8228423595428467,19.511445999145508,0.1650901436805725,1.796573281288147,-0.08365194499492645,0.0,0.0,0.0,0.0,0.0,0.0,0.0,-0.41800809443626197,0.0028688751573598317,-0.24574211849811256,0.45684742362024144,0.10067306291291907,-0.11720846070837569,-0.07336517574734273,1.054494766649447,0.32374980851641866,-0.3925451519586996,-2.1536052119173115,0.8646962791482606,2.465928491632144,0.5444862209873067,1.0544104758940245,0.3238615046091247,-0.39250456234122666,-2.153291787532338,0.8647539153680389,2.46587817577521,0.5445020185570556,0.0003318878258164851,0.00026115622719935624,0.0002817252788021985,-0.0008576769165011092,-0.0005657843772498809,-0.000437173546793023,0.0004917652292022164,0.0,0.0,0.0,0.0,0.0,0.0,0.0,-8.429075542260023e-05,0.00011169609270605951,4.058961747294143e-05,0.00031342438497361513,5.763621977827871e-05,-5.0315856933824676e-05,1.5797569748898788e-05,-0.0003318878258164851,-0.00026115622719935624,-0.0002817252788021985,0.0008576769165011092,0.0005657843772498809,0.000437173546793023,-0.0004917652292022164,0.4267818331718445,34.06295394897461,3.8228423595428467,-19.511445999145508,-0.1650901436805725,-1.796573281288147,0.08365194499492645,0
38,0.18499517440795898,-0.4267818331718445,-34.06295394897461,-3.8228423595428467,19.511445999145508,0.1650901436805725,1.796573281288147,-0.08365194499492645,0.0,0.0,0.0,0.0,0.0,0.0,0.0,-0.41800809443626197,0.0028688751573598317,-0.24574211849811256,0.45684742362024144,0.10067306291291907,-0.11720846070837569,-0.07336517574734273,1.054494766649447,0.32374980851641866,-0.3925451519586996,-2.1536052119173115,0.8646962791482606,2.465928491632144,0.5444862209873067,1.0544104758940245,0.3238615046091247,-0.39250456234122666,-2.153291787532338,0.8647539153680389,2.46587817577521,0.5445020185570556,0.0003318878258164851,0.00026115622719935624,0.0002817252788021985,-0.0008576769165011092,-0.0005657843772498809,-0.000437173546793023,0.0004917652292022164,0.0,0.0,0.0,0.0,0.0,0.0,0.0,-8.429075542260023e-05,0.00011169609270605951,4.058961747294143e-05,0.00031342438497361513,5.763621977827871e-05,-5.0315856933824676e-05,1.5797569748898788e-05,-0.0003318878258164851,-0.00026115622719935624,-0.0002817252788021985,0.0008576769165011092,0.0005657843772498809,0.000437173546793023,-0.0004917652292022164,0.4267818331718445,34.06295394897461,3.8228423595428467,-19.511445999145508,-0.1650901436805725,-1.796573281288147,0.08365194499492645,0
39,0.18999695777893066,-0.4267818331718445,-34.03915023803711,-3.7990386486053467,19.511445999145508,0.1531882882118225,1.790164589881897,-0.05710165575146675,0.0,0.0,0.0,0.0,0.0,0.0,0.0,-0.41421845593888157,-0.0021370868036431428,-0.2418744939802547,0.4647948753638442,0.10009195399979165,-0.11679956477432794,-0.07464309874782846,1.0544947666615598,0.3237481380805634,-0.39254744613326875,-2.1536052100277012,0.8646976015766461,2.4659292037089666,0.5444832709551686,1.0544104758940245,0.3238615046091247,-0.39250456234122666,-2.153291787532338,0.8647539153680389,2.46587817577521,0.5445020185570556,-0.00016770081050858918,-0.0005574520076688402,0.00018505959641890757,-6.167333713900233e-05,0.00021658296077493226,0.00010642582758992272,-0.0005943236007354576,0.0,0.0,0.0,0.0,0.0,0.0,0.0,-8.429076753535547e-05,0.00011336652856130947,4.288379204209214e-05,0.0003134224953633691,5.631379139281467e-05,-5.102793375666437e-05,1.8747601887025844e-05,0.00016770081050858918,0.0005574520076688402,-0.00018505959641890757,6.167333713900233e-05,-0.00021658296077493226,-0.00010642582758992272,0.0005943236007354576,0.4267818331718445,34.03915023803711,3.7990386486053467,-19.511445999145508,-0.1531882882118225,-1.790164589881897,0.05710165575146675,0
40,0.1950063705444336,-0.4267818331718445,-34.03915023803711,-3.7990386486053467,19.511445999145508,0.1531882882118225,1.790164589881897,-0.05710165575146675,0.0,0.0,0.0,0.0,0.0,0.0,0.0,-0.41421845593888157,-0.0021370868036431428,-0.2418744939802547,0.4647948753638442,0.10009195399979165,-0.11679956477432794,-0.07464309874782846,1.0544947666615598,0.3237481380805634,-0.39254744613326875,-2.1536052100277012,0.8646976015766461,2.4659292037089666,0.5444832709551686,1.0544104758940245,0.3238615046091247,-0.39250456234122666,-2.153291787532338,0.8647539153680389,2.46587817577521,0.5445020185570556,-0.00016770081050858918,-0.0005574520076688402,0.00018505959641890757,-6.167333713900233e-05,0.00021658296077493226,0.00010642582758992272,-0.0005943236007354576,0.0,0.0,0.0,0.0,0.0,0.0,0.0,-8.429076753535547e-05,0.00011336652856130947,4.288379204209214e-05,0.0003134224953633691,5.631379139281467e-05,-5.102793375666437e-05,1.8747601887025844e-05,0.00016770081050858918,0.0005574520076688402,-0.00018505959641890757,6.167333713900233e-05,-0.00021658296077493226,-0.00010642582758992272,0.0005943236007354576,0.4267818331718445,34.03915023803711,3.7990386486053467,-19.511445999145508,-0.1531882882118225,-1.790164589881897,0.05710165575146675,0
41,0.1999964714050293,-0.4267818331718445,-34.03915023803711,-3.7990386486053467,19.511445999145508,0.1531882882118225,1.790164589881897,-0.05710165575146675,0.0,0.0,0.0,0.0,0.0,0.0,0.0,-0.41421845593888157,-0.0021370868036431428,-0.2418744939802547,0.4647948753638442,0.10009195399979165,-0.11679956477432794,-0.07464309874782846,1.0544947666615598,0.3237481380805634,-0.39254744613326875,-2.1536052100277012,0.8646976015766461,2.4659292037089666,0.5444832709551686,1.0544104758940245,0.3238615046091247,-0.39250456234122666,-2.153291787532338,0.8647539153680389,2.46587817577521,0.5445020185570556,-0.00016770081050858918,-0.0005574520076688402,0.00018505959641890757,-6.167333713900233e-05,0.00021658296077493226,0.00010642582758992272,-0.0005943236007354576,0.0,0.0,0.0,0.0,0.0,0.0,0.0,-8.429076753535547e-05,0.00011336652856130947,4.288379204209214e-05,0.0003134224953633691,5.631379139281467e-05,-5.102793375666437e-05,1.8747601887025844e-05,0.00016770081050858918,0.0005574520076688402,-0.00018505959641890757,6.167333713900233e-05,-0.00021658296077493226,-0.00010642582758992272,0.0005943236007354576,0.4267818331718445,34.03915023803711,3.7990386486053467,-19.511445999145508,-0.1531882882118225,-1.790164589881897,0.05710165575146675,0
42,0.20508408546447754,-0.4267818331718445,-34.03915023803711,-3.7990386486053467,19.511445999145508,0.1531882882118225,1.790164589881897,-0.05710165575146675,0.0,0.0,0.0,0.0,0.0,0.0,0.0,-0.41421845593888157,-0.0021370868036431428,-0.2418744939802547,0.4647948753638442,0.10009195399979165,-0.11679956477432794,-0.07464309874782846,1.0544947666615598,0.3237481380805634,-0.39254744613326875,-2.1536052100277012,0.8646976015766461,2.4659292037089666,0.5444832709551686,1.0544104758940245,0.3238615046091247,-0.39250456234122666,-2.153291787532338,0.8647539153680389,2.46587817577521,0.5445020185570556,-0.00016770081050858918,-0.0005574520076688402,0.00018505959641890757,-6.167333713900233e-05,0.00021658296077493226,0.00010642582758992272,-0.0005943236007354576,0.0,0.0,0.0,0.0,0.0,0.0,0.0,-8.429076753535547e-05,0.00011336652856130947,4.288379204209214e-05,0.0003134224953633691,5.631379139281467e-05,-5.102793375666437e-05,1.8747601887025844e-05,0.00016770081050858918,0.0005574520076688402,-0.00018505959641890757,6.167333713900233e-05,-0.00021658296077493226,-0.00010642582758992272,0.0005943236007354576,0.4267818331718445,34.03915023803711,3.7990386486053467,-19.511445999145508,-0.1531882882118225,-1.790164589881897,0.05710165575146675,0
43,0.20999932289123535,-0.4029781222343445,-34.11452865600586,-3.7514312267303467,19.459871292114258,0.1412864327430725,1.790164589881897,-0.06991903483867645,0.0,0.0,0.0,0.0,0.0,0.0,0.0,-0.41505368176162494,-0.004846009165461821,-0.23944920015627075,0.464692386038444,0.10063506482365928,-0.11681519282688947,-0.07376849510113367,1.0544931050439093,0.3237534277941051,-0.39254987712037415,-2.1536015898052034,0.8646974934935568,2.4659292037089666,0.5444846951084005,1.0544104758940245,0.3238615046091247,-0.39250456234122666,-2.153291787532338,0.8647539153680389,2.46587817577521,0.5445020185570556,-0.0004888027706467956,0.0006037227168376825,-0.0012057963832216554,0.0006823310066473555,0.0005177867612857675,0.00015527970198908397,0.00012252682207332876,0.0,0.0,0.0,0.0,0.0,0.0,0.0,-8.262914988477199e-05,0.00010807681501961985,4.531477914748727e-05,0.00030980227286558915,5.642187448207103e-05,-5.102793375666437e-05,1.7323448655126583e-05,0.0004888027706467956,-0.0006037227168376825,0.0012057963832216554,-0.0006823310066473555,-0.0005177867612857675,-0.00015527970198908397,-0.00012252682207332876,0.4029781222343445,34.11452865600586,3.7514312267303467,-19.459871292114258,-0.1412864327430725,-1.790164589881897,0.06991903483867645,0
44,0.21499896049499512,-0.4029781222343445,-34.11452865600586,-3.7514312267303467,19.459871292114258,0.1412864327430725,1.790164589881897,-0.06991903483867645,0.0,0.0,0.0,0.0,0.0,0.0,0.0,-0.41505368176162494,-0.004846009165461821,-0.23944920015627075,0.464692386038444,0.10063506482365928,-0.11681519282688947,-0.07376849510113367,1.0544931050439093,0.3237534277941051,-0.39254987712037415,-2.1536015898052034,0.8646974934935568,2.4659292037089666,0.5444846951084005,1.0544104758940245,0.3238615046091247,-0.39250456234122666,-2.153291787532338,0.8647539153680389,2.46587817577521,0.5445020185570556,-0.0004888027706467956,0.0006037227168376825,-0.0012057963832216554,0.0006823310066473555,0.0005177867612857675,0.00015527970198908397,0.00012252682207332876,0.0,0.0,0.0,0.0,0.0,0.0,0.0,-8.262914988477199e-05,0.00010807681501961985,4.531477914748727e-05,0.00030980227286558915,5.642187448207103e-05,-5.102793375666437e-05,1.7323448655126583e-05,0.0004888027706467956,-0.0006037227168376825,0.0012057963832216554,-0.0006823310066473555,-0.0005177867612857675,-0.00015527970198908397,-0.00012252682207332876,0.4029781222343445,34.11452865600586,3.7514312267303467,-19.459871292114258,-0.1412864327430725,-1.790164589881897,0.06991903483867645,0
45,0.2200026512145996,-0.4029781222343445,-34.06295394897461,-3.7990386486053467,19.459871292114258,0.1412864327430725,1.783755898475647,-0.07724325358867645,0.0,0.0,0.0,0.0,0.0,0.0,0.0,-0.412277859516434,-0.0015659422609425524,-0.23322607497563377,0.4613826297947707,0.10015025646419387,-0.11708878680512148,-0.07010296380650961,1.054493096213608,0.32374980851641866,-0.39254724491595283,-2.1536015898052017,0.8646989240023397,2.4659299157857895,0.5444855089104838,1.0544104758940245,0.3238615046091247,-0.39250456234122666,-2.153291787532338,0.8647539153680389,2.46587817577521,0.5445020185570556,-0.00026757152084445044,6.97208926070247e-05,0.00041393790748108075,0.000570105506928443,0.0005050539132097672,0.0002523741052784659,0.0004876423747402239,0.0,0.0,0.0,0.0,0.0,0.0,0.0,-8.262031958361504e-05,0.00011169609270605951,4.268257472617165e-05,0.0003098022728638128,5.499136569919738e-05,-5.174001057950406e-05,1.65096465718495e-05,0.00026757152084445044,-6.97208926070247e-05,-0.00041393790748108075,-0.000570105506928443,-0.0005050539132097672,-0.0002523741052784659,-0.0004876423747402239,0.4029781222343445,34.06295394897461,3.7990386486053467,-19.459871292114258,-0.1412864327430725,-1.783755898475647,0.07724325358867645,0
46,0.22503876686096191,-0.4029781222343445,-34.06295394897461,-3.7990386486053467,19.459871292114258,0.1412864327430725,1.783755898475647,-0.07724325358867645,0.0,0.0,0.0,0.0,0.0,0.0,0.0,-0.412277859516434,-0.0015659422609425524,-0.23322607497563377,0.4613826297947707,0.10015025646419387,-0.11708878680512148,-0.07010296380650961,1.054493096213608,0.32374980851641866,-0.39254724491595283,-2.1536015898052017,0.8646989240023397,2.4659299157857895,0.5444855089104838,1.0544104758940245,0.3238615046091247,-0.39250456234122666,-2.153291787532338,0.8647539153680389,2.46587817577521,0.5445020185570556,-0.00026757152084445044,6.97208926070247e-05,0.00041393790748108075,0.000570105506928443,0.0005050539132097672,0.0002523741052784659,0.0004876423747402239,0.0,0.0,0.0,0.0,0.0,0.0,0.0,-8.262031958361504e-05,0.00011169609270605951,4.268257472617165e-05,0.0003098022728638128,5.499136569919738e-05,-5.174001057950406e-05,1.65096465718495e-05,0.00026757152084445044,-6.97208926070247e-05,-0.00041393790748108075,-0.000570105506928443,-0.0005050539132097672,-0.0002523741052784659,-0.0004876423747402239,0.4029781222343445,34.06295394897461,3.7990386486053467,-19.459871292114258,-0.1412864327430725,-1.783755898475647,0.07724325358867645,0
47,0.23002099990844727,-0.3752071261405945,-34.06295394897461,-3.7752349376678467,19.487642288208008,0.1531882882118225,1.783755898475647,-0.02963583543896675,0.0,0.0,0.0,0.0,0.0,0.0,0.0,-0.4102448040375307,-0.006572940115828989,-0.23219475253115618,0.46310566150113497,0.09981566438364461,-0.1162069342393928,-0.06965785280280518,1.0544911473717606,0.32374980851641866,-0.39254923051596835,-2.1536035389619688,0.8646975966164059,2.4659299157857895,0.544480219197356,1.0544104758940245,0.3238615046091247,-0.39250456234122666,-2.153291787532338,0.8647539153680389,2.46587817577521,0.5445020185570556,-0.0006945043082307345,0.0001379510094272359,2.156090829104876e-05,0.0001755359202980347,-6.439546103963412e-05,0.00026728095073792134,-0.001662317855897813,0.0,0.0,0.0,0.0,0.0,0.0,0.0,-8.067147773616057e-05,0.00011169609270605951,4.466817474169105e-05,0.0003117514296309132,5.631875163303324e-05,-5.174001057950406e-05,2.1799359699592458e-05,0.0006945043082307345,-0.0001379510094272359,-2.156090829104876e-05,-0.0001755359202980347,6.439546103963412e-05,-0.00026728095073792134,0.001662317855897813,0.3752071261405945,34.06295394897461,3.7752349376678467,-19.487642288208008,-0.1531882882118225,-1.783755898475647,0.02963583543896675,0
48,0.2353043556213379,-0.3752071261405945,-34.06295394897461,-3.7752349376678467,19.487642288208008,0.1531882882118225,1.783755898475647,-0.02963583543896675,0.0,0.0,0.0,0.0,0.0,0.0,0.0,-0.4102448040375307,-0.006572940115828989,-0.23219475253115618,0.46310566150113497,0.09981566438364461,-0.1162069342393928,-0.06965785280280518,1.0544911473717606,0.32374980851641866,-0.39254923051596835,-2.1536035389619688,0.8646975966164059,2.4659299157857895,0.544480219197356,1.0544104758940245,0.3238615046091247,-0.39250456234122666,-2.153291787532338,0.8647539153680389,2.46587817577521,0.5445020185570556,-0.0006945043082307345,0.0001379510094272359,2.156090829104876e-05,0.0001755359202980347,-6.439546103963412e-05,0.00026728095073792134,-0.001662317855897813,0.0,0.0,0.0,0.0,0.0,0.0,0.0,-8.067147773616057e-05,0.00011169609270605951,4.466817474169105e-05,0.0003117514296309132,5.631875163303324e-05,-5.174001057950406e-05,2.1799359699592458e-05,0.0006945043082307345,-0.0001379510094272359,-2.156090829104876e-05,-0.0001755359202980347,6.439546103963412e-05,-0.00026728095073792134,0.001662317855897813,0.3752071261405945,34.06295394897461,3.7752349376678467,-19.487642288208008,-0.1531882882118225,-1.783755898475647,0.02963583543896675,0
49,0.24001431465148926,-0.4029781222343445,-34.09072494506836,-3.7990386486053467,19.487642288208008,0.1595969796180725,1.802981972694397,-0.01590292528271675,0.0,0.0,0.0,0.0,0.0,0.0,0.0,-0.41695306791292125,-0.013737216948857213,-0.23911137893433684,0.46543588201235386,0.099829599507451,-0.11485588633502256,-0.06986055486526355,1.0544930962135917,0.3237517573582498,-0.3925468486407149,-2.153603615176455,0.8646968497088572,2.465927779555321,0.5444786938029664,1.0544104758940245,0.3238615046091247,-0.39250456234122666,-2.153291787532338,0.8647539153680389,2.46587817577521,0.5445020185570556,-8.544668097662997e-05,0.00021521592766693444,0.00034868460672779673,7.999379733264556e-05,-0.0003075522544294122,-0.00045465267163725135,-0.0021387643997118878,0.0,0.0,0.0,0.0,0.0,0.0,0.0,-8.262031956718374e-05,0.00010974725087492532,4.2286299488214496e-05,0.00031182764411719077,5.706565918173201e-05,-4.9603780110984985e-05,2.332475408917123e-05,8.544668097662997e-05,-0.00021521592766693444,-0.00034868460672779673,-7.999379733264556e-05,0.0003075522544294122,0.00045465267163725135,0.0021387643997118878,0.4029781222343445,34.09072494506836,3.7990386486053467,-19.487642288208008,-0.1595969796180725,-1.802981972694397,0.01590292528271675,0
50,0.2449960708618164,-0.4029781222343445,-34.09072494506836,-3.7990386486053467,19.487642288208008,0.1595969796180725,1.802981972694397,-0.01590292528271675,0.0,0.0,0.0,0.0,0.0,0.0,0.0,-0.41695306791292125,-0.013737216948857213,-0.23911137893433684,0.46543588201235386,0.099829599507451,-0.11485588633502256,-0.06986055486526355,1.0544930962135917,0.3237517573582498,-0.3925468486407149,-2.153603615176455,0.8646968497088572,2.465927779555321,0.5444786938029664,1.0544104758940245,0.3238615046091247,-0.39250456234122666,-2.153291787532338,0.8647539153680389,2.46587817577521,0.5445020185570556,-8.544668097662997e-05,0.00021521592766693444,0.00034868460672779673,7.999379733264556e-05,-0.0003075522544294122,-0.00045465267163725135,-0.0021387643997118878,0.0,0.0,0.0,0.0,0.0,0.0,0.0,-8.262031956718374e-05,0.00010974725087492532,4.2286299488214496e-05,0.00031182764411719077,5.706565918173201e-05,-4.9603780110984985e-05,2.332475408917123e-05,8.544668097662997e-05,-0.00021521592766693444,-0.00034868460672779673,-7.999379733264556e-05,0.0003075522544294122,0.00045465267163725135,0.0021387643997118878,0.4029781222343445,34.09072494506836,3.7990386486053467,-19.487642288208008,-0.1595969796180725,-1.802981972694397,0.01590292528271675,0
51,0.2499990463256836,-0.4267818331718445,-34.01534652709961,-3.7990386486053467,19.459871292114258,0.1595969796180725,1.790164589881897,-0.02963583543896675,0.0,0.0,0.0,0.0,0.0,0.0,0.0,-0.42067477532196385,-0.0068134813400816075,-0.24177258109008234,0.4611027403222856,0.09983219780294185,-0.11490715099033211,-0.06892987922110265,1.054494766649447,0.32374646764470816,-0.39254517085012447,-2.1536022786762605,0.8646968894991492,2.4659292037089666,0.5444802191973641,1.0544104758940245,0.3238615046091247,-0.39250456234122666,-2.153291787532338,0.8647539153680389,2.46587817577521,0.5445020185570556,0.00011648326161539226,-0.0016601547834342637,-0.000129400901585306,0.0009115803635215642,-0.00012921122346826167,-0.00017548151570140693,-0.001593665530191382,0.0,0.0,0.0,0.0,0.0,0.0,0.0,-8.429075542260023e-05,0.00011503696441655942,4.0608508897810314e-05,0.0003104911439226754,5.702586888967076e-05,-5.102793375666437e-05,2.179935969148783e-05,-0.00011648326161539226,0.0016601547834342637,0.000129400901585306,-0.0009115803635215642,0.00012921122346826167,0.00017548151570140693,0.001593665530191382,0.4267818331718445,34.01534652709961,3.7990386486053467,-19.459871292114258,-0.1595969796180725,-1.790164589881897,0.02963583543896675,0
52,0.2550013065338135,-0.4267818331718445,-34.01534652709961,-3.7990386486053467,19.459871292114258,0.1595969796180725,1.790164589881897,-0.02963583543896675,0.0,0.0,0.0,0.0,0.0,0.0,0.0,-0.42067477532196385,-0.0068134813400816075,-0.24177258109008234,0.4611027403222856,0.09983219780294185,-0.11490715099033211,-0.06892987922110265,1.054494766649447,0.32374646764470816,-0.39254517085012447,-2.1536022786762605,0.8646968894991492,2.4659292037089666,0.5444802191973641,1.0544104758940245,0.3238615046091247,-0.39250456234122666,-2.153291787532338,0.8647539153680389,2.46587817577521,0.5445020185570556,0.00011648326161539226,-0.0016601547834342637,-0.000129400901585306,0.0009115803635215642,-0.00012921122346826167,-0.00017548151570140693,-0.001593665530191382,0.0,0.0,0.0,0.0,0.0,0.0,0.0,-8.429075542260023e-05,0.00011503696441655942,4.0608508897810314e-05,0.0003104911439226754,5.702586888967076e-05,-5.102793375666437e-05,2.179935969148783e-05,-0.00011648326161539226,0.0016601547834342637,0.000129400901585306,-0.0009115803635215642,0.00012921122346826167,0.00017548151570140693,0.001593665530191382,0.4267818331718445,34.01534652709961,3.7990386486053467,-19.459871292114258,-0.1595969796180725,-1.790164589881897,0.02963583543896675,0
53,0.25999999046325684,-0.4267818331718445,-34.03915023803711,-3.7990386486053467,19.487642288208008,0.1531882882118225,1.790164589881897,-0.05710165575146675,0.0,0.0,0.0,0.0,0.0,0.0,0.0,-0.4145718584804855,-0.005546293294518406,-0.23645455555183592,0.4593388738319154,0.10033243409910829,-0.11604057161910078,-0.06812285597698495,1.054494766649447,0.3237481380805634,-0.39254729481255224,-2.1536035503359496,0.8646975569344841,2.4659292037089666,0.5444832709551686,1.0544104758940245,0.3238615046091247,-0.39250456234122666,-2.153291787532338,0.8647539153680389,2.46587817577521,0.5445020185570556,0.0003046648214268729,-0.0009033392225737024,-0.00023560097444123615,-8.870822628799323e-05,0.00017591375079692337,-1.4352188905730764e-05,-0.0005506374457855418,0.0,0.0,0.0,0.0,0.0,0.0,0.0,-8.429075542260023e-05,0.00011336652856130947,4.2732471325579446e-05,0.00031176280361178144,5.635843355478176e-05,-5.102793375666437e-05,1.8747601887025844e-05,-0.0003046648214268729,0.0009033392225737024,0.00023560097444123615,8.870822628799323e-05,-0.00017591375079692337,1.4352188905730764e-05,0.0005506374457855418,0.4267818331718445,34.03915023803711,3.7990386486053467,-19.487642288208008,-0.1531882882118225,-1.790164589881897,0.05710165575146675,0
54,0.26500535011291504,-0.4267818331718445,-34.03915023803711,-3.7990386486053467,19.487642288208008,0.1531882882118225,1.790164589881897,-0.05710165575146675,0.0,0.0,0.0,0.0,0.0,0.0,0.0,-0.4145718584804855,-0.005546293294518406,-0.23645455555183592,0.4593388738319154,0.10033243409910829,-0.11604057161910078,-0.06812285597698495,1.054494766649447,0.3237481380805634,-0.39254729481255224,-2.1536035503359496,0.8646975569344841,2.4659292037089666,0.5444832709551686,1.0544104758940245,0.3238615046091247,-0.39250456234122666,-2.153291787532338,0.8647539153680389,2.46587817577521,0.5445020185570556,0.0003046648214268729,-0.0009033392225737024,-0.00023560097444123615,-8.870822628799323e-05,0.00017591375079692337,-1.4352188905730764e-05,-0.0005506374457855418,0.0,0.0,0.0,0.0,0.0,0.0,0.0,-8.429075542260023e-05,0.00011336652856130947,4.2732471325579446e-05,0.00031176280361178144,5.635843355478176e-05,-5.102793375666437e-05,1.8747601887025844e-05,-0.0003046648214268729,0.0009033392225737024,0.00023560097444123615,8.870822628799323e-05,-0.00017591375079692337,1.4352188905730764e-05,0.0005506374457855418,0.4267818331718445,34.03915023803711,3.7990386486053467,-19.487642288208008,-0.1531882882118225,-1.790164589881897,0.05710165575146675,0
55,0.2700021266937256,-0.4267818331718445,-34.09072494506836,-3.8228423595428467,19.511445999145508,0.1595969796180725,1.783755898475647,-0.06991903483867645,0.0,0.0,0.0,0.0,0.0,0.0,0.0,-0.419372426850236,-0.013420471409930062,-0.24519105940087657,0.46311467929249794,0.10138080918706636,-0.11561893197457536,-0.06786136395112685,1.054494766649447,0.3237517573582498,-0.3925451023825474,-2.1536052091879325,0.8646968890089979,2.46592885614766,0.5444846951084005,1.0544104758940245,0.3238615046091247,-0.39250456234122666,-2.153291787532338,0.8647539153680389,2.46587817577521,0.5445020185570556,-0.00016854075709272302,-2.0344665028802528e-05,3.925693849067334e-06,-0.0005191570468965467,-0.00013007753730149012,0.00017526158175329093,-0.00012747533227272726,0.0,0.0,0.0,0.0,0.0,0.0,0.0,-8.429075542260023e-05,0.00010974725087492532,4.054004132075795e-05,0.00031342165559467006,5.70263590410347e-05,-5.068037245026247e-05,1.7323448655126583e-05,0.00016854075709272302,2.0344665028802528e-05,-3.925693849067334e-06,0.0005191570468965467,0.00013007753730149012,-0.00017526158175329093,0.00012747533227272726,0.4267818331718445,34.09072494506836,3.8228423595428467,-19.511445999145508,-0.1595969796180725,-1.783755898475647,0.06991903483867645,0
56,0.27500295639038086,-0.4267818331718445,-34.09072494506836,-3.8228423595428467,19.511445999145508,0.1595969796180725,1.783755898475647,-0.06991903483867645,0.0,0.0,0.0,0.0,0.0,0.0,0.0,-0.419372426850236,-0.013420471409930062,-0.24519105940087657,0.46311467929249794,0.10138080918706636,-0.11561893197457536,-0.06786136395112685,1.054494766649447,0.3237517573582498,-0.3925451023825474,-2.1536052091879325,0.8646968890089979,2.46592885614766,0.5444846951084005,1.0544104758940245,0.3238615046091247,-0.39250456234122666,-2.153291787532338,0.8647539153680389,2.46587817577521,0.5445020185570556,-0.00016854075709272302,-2.0344665028802528e-05,3.925693849067334e-06,-0.0005191570468965467,-0.00013007753730149012,0.00017526158175329093,-0.00012747533227272726,0.0,0.0,0.0,0.0,0.0,0.0,0.0,-8.429075542260023e-05,0.00010974725087492532,4.054004132075795e-05,0.00031342165559467006,5.70263590410347e-05,-5.068037245026247e-05,1.7323448655126583e-05,0.00016854075709272302,2.0344665028802528e-05,-3.925693849067334e-06,0.0005191570468965467,0.00013007753730149012,-0.00017526158175329093,0.00012747533227272726,0.4267818331718445,34.09072494506836,3.8228423595428467,-19.511445999145508,-0.1595969796180725,-1.783755898475647,0.06991903483867645,0
57,0.2803933620452881,-0.4029781222343445,-34.06295394897461,-3.7990386486053467,19.487642288208008,0.1595969796180725,1.802981972694397,-0.09738485515117645,0.0,0.0,0.0,0.0,0.0,0.0,0.0,-0.4125785738430434,-0.004229778359838652,-0.23930282702651087,0.45606178649277673,0.10135209152796179,-0.11672413926112907,-0.06937408741376247,1.0544930962135917,0.32374980851641866,-0.3925473225614766,-2.153603566991264,0.8646968760908138,2.4659277795373757,0.5444877468662129,1.0544104758940245,0.3238615046091247,-0.39250456234122666,-2.153291787532338,0.8647539153680389,2.46587817577521,0.5445020185570556,-0.0003729425853461541,-0.00024007360623362782,-0.00011065498191330173,-0.00037916896794384935,-0.00017999457554176152,-0.0006130472141149591,0.0010420422023970277,0.0,0.0,0.0,0.0,0.0,0.0,0.0,-8.262031956718374e-05,0.00011169609270605951,4.276022024995996e-05,0.00031177945892624237,5.7039277225112706e-05,-4.9603762165784104e-05,1.4271690842670992e-05,0.0003729425853461541,0.00024007360623362782,0.00011065498191330173,0.00037916896794384935,0.00017999457554176152,0.0006130472141149591,-0.0010420422023970277,0.4029781222343445,34.06295394897461,3.7990386486053467,-19.487642288208008,-0.1595969796180725,-1.802981972694397,0.09738485515117645,0
58,0.28494834899902344,-0.4029781222343445,-34.06295394897461,-3.7990386486053467,19.487642288208008,0.1595969796180725,1.802981972694397,-0.09738485515117645,0.0,0.0,0.0,0.0,0.0,0.0,0.0,-0.4125785738430434,-0.004229778359838652,-0.23930282702651087,0.45606178649277673,0.10135209152796179,-0.11672413926112907,-0.06937408741376247,1.0544930962135917,0.32374980851641866,-0.3925473225614766,-2.153603566991264,0.8646968760908138,2.4659277795373757,0.5444877468662129,1.0544104758940245,0.3238615046091247,-0.39250456234122666,-2.153291787532338,0.8647539153680389,2.46587817577521,0.5445020185570556,-0.0003729425853461541,-0.00024007360623362782,-0.00011065498191330173,-0.00037916896794384935,-0.00017999457554176152,-0.0006130472141149591,0.0010420422023970277,0.0,0.0,0.0,0.0,0.0,0.0,0.0,-8.262031956718374e-05,0.00011169609270605951,4.276022024995996e-05,0.00031177945892624237,5.7039277225112706e-05,-4.9603762165784104e-05,1.4271690842670992e-05,0.0003729425853461541,0.00024007360623362782,0.00011065498191330173,0.00037916896794384935,0.00017999457554176152,0.0006130472141149591,-0.0010420422023970277,0.4029781222343445,34.06295394897461,3.7990386486053467,-19.487642288208008,-0.1595969796180725,-1.802981972694397,0.09738485515117645,0
59,0.290010929107666,-0.4267818331718445,-34.06295394897461,-3.7990386486053467,19.487642288208008,0.1531882882118225,1.790164589881897,-0.07724325358867645,0.0,0.0,0.0,0.0,0.0,0.0,0.0,-0.4099638791859487,-0.006779670333031423,-0.23955367569683916,0.4577782541222287,0.10132737471607284,-0.11664393765298357,-0.07089586222384821,1.054494766649447,0.32374980851641866,-0.39254748037238407,-2.1536056852850822,0.8646976015766209,2.4659292037089666,0.5444855089104838,1.0544104758940245,0.3238615046091247,-0.39250456234122666,-2.153291787532338,0.8647539153680389,2.46587817577521,0.5445020185570556,0.00040441773296322935,-0.00019315035250249766,-0.00017118603086049231,8.216876333794852e-05,-2.663402471645155e-05,-0.00022710920641297335,0.0003341891192329603,0.0,0.0,0.0,0.0,0.0,0.0,0.0,-8.429075542260023e-05,0.00011169609270605951,4.2918031157412884e-05,0.00031389775274437426,5.6313791418016734e-05,-5.102793375666437e-05,1.65096465718495e-05,-0.00040441773296322935,0.00019315035250249766,0.00017118603086049231,-8.216876333794852e-05,2.663402471645155e-05,0.00022710920641297335,-0.0003341891192329603,0.4267818331718445,34.06295394897461,3.7990386486053467,-19.487642288208008,-0.1531882882118225,-1.790164589881897,0.07724325358867645,0
60,0.2950458526611328,-0.4267818331718445,-34.06295394897461,-3.7990386486053467,19.487642288208008,0.1531882882118225,1.790164589881897,-0.07724325358867645,0.0,0.0,0.0,0.0,0.0,0.0,0.0,-0.4099638791859487,-0.006779670333031423,-0.23955367569683916,0.4577782541222287,0.10132737471607284,-0.11664393765298357,-0.07089586222384821,1.054494766649447,0.32374980851641866,-0.39254748037238407,-2.1536056852850822,0.8646976015766209,2.4659292037089666,0.5444855089104838,1.0544104758940245,0.3238615046091247,-0.39250456234122666,-2.153291787532338,0.8647539153680389,2.46587817577521,0.5445020185570556,0.00040441773296322935,-0.00019315035250249766,-0.00017118603086049231,8.216876333794852e-05,-2.663402471645155e-05,-0.00022710920641297335,0.0003341891192329603,0.0,0.0,0.0,0.0,0.0,0.0,0.0,-8.429075542260023e-05,0.00011169609270605951,4.2918031157412884e-05,0.00031389775274437426,5.6313791418016734e-05,-5.102793375666437e-05,1.65096465718495e-05,-0.00040441773296322935,0.00019315035250249766,0.00017118603086049231,-8.216876333794852e-05,2.663402471645155e-05,0.00022710920641297335,-0.0003341891192329603,0.4267818331718445,34.06295394897461,3.7990386486053467,-19.487642288208008,-0.1531882882118225,-1.790164589881897,0.07724325358867645,0
61,0.3000447750091553,-0.4267818331718445,-34.06295394897461,-3.8228423595428467,19.459871292114258,0.1476951241493225,1.796573281288147,-0.04977743700146675,0.0,0.0,0.0,0.0,0.0,0.0,0.0,-0.4132653784302026,-0.014598995596123564,-0.2453219662351499,0.4628266691585628,0.10128895061255017,-0.1161866176303242,-0.07115604368163346,1.054494766649447,0.32374980851641866,-0.39254518014853307,-2.15360166634674,0.864698092718919,2.465928491632144,0.5444824571530852,1.0544104758940245,0.3238615046091247,-0.39250456234122666,-2.153291787532338,0.8647539153680389,2.46587817577521,0.5445020185570556,0.0006902022826177412,-0.0004152190884235014,0.0003367625657641176,0.0009445963913652881,0.00040212379912548784,-0.0004185273259757693,-0.0012371785142382481,0.0,0.0,0.0,0.0,0.0,0.0,0.0,-8.429075542260023e-05,0.00011169609270605951,4.061780730640896e-05,0.0003098788144022535,5.582264911996315e-05,-5.0315856933824676e-05,1.956140397041395e-05,-0.0006902022826177412,0.0004152190884235014,-0.0003367625657641176,-0.0009445963913652881,-0.00040212379912548784,0.0004185273259757693,0.0012371785142382481,0.4267818331718445,34.06295394897461,3.8228423595428467,-19.459871292114258,-0.1476951241493225,-1.796573281288147,0.04977743700146675,0
62,0.30504488945007324,-0.4267818331718445,-34.06295394897461,-3.8228423595428467,19.459871292114258,0.1476951241493225,1.796573281288147,-0.04977743700146675,0.0,0.0,0.0,0.0,0.0,0.0,0.0,-0.4132653784302026,-0.014598995596123564,-0.2453219662351499,0.4628266691585628,0.10128895061255017,-0.1161866176303242,-0.07115604368163346,1.054494766649447,0.32374980851641866,-0.39254518014853307,-2.15360166634674,0.864698092718919,2.465928491632144,0.5444824571530852,1.0544104758940245,0.3238615046091247,-0.39250456234122666,-2.153291787532338,0.8647539153680389,2.46587817577521,0.5445020185570556,0.0006902022826177412,-0.0004152190884235014,0.0003367625657641176,0.0009445963913652881,0.00040212379912548784,-0.0004185273259757693,-0.0012371785142382481,0.0,0.0,0.0,0.0,0.0,0.0,0.0,-8.429075542260023e-05,0.00011169609270605951,4.061780730640896e-05,0.0003098788144022535,5.582264911996315e-05,-5.0315856933824676e-05,1.956140397041395e-05,-0.0006902022826177412,0.0004152190884235014,-0.0003367625657641176,-0.0009445963913652881,-0.00040212379912548784,0.0004185273259757693,0.0012371785142382481,0.4267818331718445,34.06295394897461,3.8228423595428467,-19.459871292114258,-0.1476951241493225,-1.796573281288147,0.04977743700146675,0
63,0.3099939823150635,-0.4267818331718445,-34.06295394897461,-3.8228423595428467,19.459871292114258,0.1476951241493225,1.796573281288147,-0.04977743700146675,0.0,0.0,0.0,0.0,0.0,0.0,0.0,-0.4132653784302026,-0.014598995596123564,-0.2453219662351499,0.4628266691585628,0.10128895061255017,-0.1161866176303242,-0.07115604368163346,1.054494766649447,0.32374980851641866,-0.39254518014853307,-2.15360166634674,0.864698092718919,2.465928491632144,0.5444824571530852,1.0544104758940245,0.3238615046091247,-0.39250456234122666,-2.153291787532338,0.8647539153680389,2.46587817577521,0.5445020185570556,0.0006902022826177412,-0.0004152190884235014,0.0003367625657641176,0.0009445963913652881,0.00040212379912548784,-0.0004185273259757693,-0.0012371785142382481,0.0,0.0,0.0,0.0,0.0,0.0,0.0,-8.429075542260023e-05,0.00011169609270605951,4.061780730640896e-05,0.0003098788144022535,5.582264911996315e-05,-5.0315856933824676e-05,1.956140397041395e-05,-0.0006902022826177412,0.0004152190884235014,-0.0003367625657641176,-0.0009445963913652881,-0.00040212379912548784,0.0004185273259757693,0.0012371785142382481,0.4267818331718445,34.06295394897461,3.8228423595428467,-19.459871292114258,-0.1476951241493225,-1.796573281288147,0.04977743700146675,0
64,0.31499266624450684,-0.4267818331718445,-34.06295394897461,-3.8228423595428467,19.459871292114258,0.1476951241493225,1.796573281288147,-0.04977743700146675,0.0,0.0,0.0,0.0,0.0,0.0,0.0,-0.4132653784302026,-0.014598995596123564,-0.2453219662351499,0.4628266691585628,0.10128895061255017,-0.1161866176303242,-0.07115604368163346,1.054494766649447,0.32374980851641866,-0.39254518014853307,-2.15360166634674,0.864698092718919,2.465928491632144,0.5444824571530852,1.0544104758940245,0.3238615046091247,-0.39250456234122666,-2.153291787532338,0.8647539153680389,2.46587817577521,0.5445020185570556,0.0006902022826177412,-0.0004152190884235014,0.0003367625657641176,0.0009445963913652881,0.00040212379912548784,-0.0004185273259757693,-0.0012371785142382481,0.0,0.0,0.0,0.0,0.0,0.0,0.0,-8.429075542260023e-05,0.00011169609270605951,4.061780730640896e-05,0.0003098788144022535,5.582264911996315e-05,-5.0315856933824676e-05,1.956140397041395e-05,-0.0006902022826177412,0.0004152190884235014,-0.0003367625657641176,-0.0009445963913652881,-0.00040212379912548784,0.0004185273259757693,0.0012371785142382481,0.4267818331718445,34.06295394897461,3.8228423595428467,-19.459871292114258,-0.1476951241493225,-1.796573281288147,0.04977743700146675,0
65,0.32000088691711426,-0.4029781222343445,-34.03915023803711,-3.8228423595428467,19.511445999145508,0.1595969796180725,1.790164589881897,-0.04336874559521675,0.0,0.0,0.0,0.0,0.0,0.0,0.0,-0.41971544118733833,-0.010288433032155826,-0.2533547385974104,0.45902746711802966,0.10146485103187959,-0.1161804715628144,-0.0713143940649018,1.0544930962135917,0.3237481380805634,-0.3925451451147534,-2.15360520908332,0.8646968880274306,2.4659292037089666,0.5444817450762622,1.0544104758940245,0.3238615046091247,-0.39250456234122666,-2.153291787532338,0.8647539153680389,2.46587817577521,0.5445020185570556,-0.0008068939953463503,-0.0010765329982497763,0.0003735422495718484,-0.0006888167999804782,-3.382410911156738e-05,-2.5178256970520016e-05,-0.0011783438704482904,0.0,0.0,0.0,0.0,0.0,0.0,0.0,-8.262031956718374e-05,0.00011336652856130947,4.058277352675388e-05,0.00031342155098235125,5.702734060830661e-05,-5.102793375666437e-05,2.0273480793364662e-05,0.0008068939953463503,0.0010765329982497763,-0.0003735422495718484,0.0006888167999804782,3.382410911156738e-05,2.5178256970520016e-05,0.0011783438704482904,0.4029781222343445,34.03915023803711,3.8228423595428467,-19.511445999145508,-0.1595969796180725,-1.790164589881897,0.04336874559521675,0
66,0.3250107765197754,-0.4029781222343445,-34.03915023803711,-3.8228423595428467,19.511445999145508,0.1595969796180725,1.790164589881897,-0.04336874559521675,0.0,0.0,0.0,0.0,0.0,0.0,0.0,-0.41971544118733833,-0.010288433032155826,-0.2533547385974104,0.45902746711802966,0.10146485103187959,-0.1161804715628144,-0.0713143940649018,1.0544930962135917,0.3237481380805634,-0.3925451451147534,-2.15360520908332,0.8646968880274306,2.4659292037089666,0.5444817450762622,1.0544104758940245,0.3238615046091247,-0.39250456234122666,-2.153291787532338,0.8647539153680389,2.46587817577521,0.5445020185570556,-0.0008068939953463503,-0.0010765329982497763,0.0003735422495718484,-0.0006888167999804782,-3.382410911156738e-05,-2.5178256970520016e-05,-0.0011783438704482904,0.0,0.0,0.0,0.0,0.0,0.0,0.0,-8.262031956718374e-05,0.00011336652856130947,4.058277352675388e-05,0.00031342155098235125,5.702734060830661e-05,-5.102793375666437e-05,2.0273480793364662e-05,0.0008068939953463503,0.0010765329982497763,-0.0003735422495718484,0.0006888167999804782,3.382410911156738e-05,2.5178256970520016e-05,0.0011783438704482904,0.4029781222343445,34.03915023803711,3.8228423595428467,-19.511445999145508,-0.1595969796180725,-1.790164589881897,0.04336874559521675,0
67,0.3299994468688965,-0.4267818331718445,-34.09072494506836,-3.7990386486053467,19.459871292114258,0.1476951241493225,1.783755898475647,-0.02963583543896675,0.0,0.0,0.0,0.0,0.0,0.0,0.0,-0.409541820947361,-0.004423516331729853,-0.24340834752427187,0.45841713697271,0.10127519721997548,-0.11720324596397413,-0.07216204901096186,1.054494766649447,0.3237517573582498,-0.39254755888961385,-2.1536015898401946,0.8646981972110039,2.4659299157857895,0.544480219197356,1.0544104758940245,0.3238615046091247,-0.39250456234122666,-2.153291787532338,0.8647539153680389,2.46587817577521,0.5445020185570556,0.00017549280462377892,0.0008351501076041056,-0.0001815211960033371,0.0010184691340684156,0.00025981124941613893,0.00023258589526539285,-0.0021088259147654673,0.0,0.0,0.0,0.0,0.0,0.0,0.0,-8.429075542260023e-05,0.00010974725087492532,4.299654838718636e-05,0.00030980230785671026,5.571815703497851e-05,-5.174001057950406e-05,2.1799359699592458e-05,-0.00017549280462377892,-0.0008351501076041056,0.0001815211960033371,-0.0010184691340684156,-0.00025981124941613893,-0.00023258589526539285,0.0021088259147654673,0.4267818331718445,34.09072494506836,3.7990386486053467,-19.459871292114258,-0.1476951241493225,-1.783755898475647,0.02963583543896675,0
68,0.33499670028686523,-0.4267818331718445,-34.09072494506836,-3.7990386486053467,19.459871292114258,0.1476951241493225,1.783755898475647,-0.02963583543896675,0.0,0.0,0.0,0.0,0.0,0.0,0.0,-0.409541820947361,-0.004423516331729853,-0.24340834752427187,0.45841713697271,0.10127519721997548,-0.11720324596397413,-0.07216204901096186,1.054494766649447,0.3237517573582498,-0.39254755888961385,-2.1536015898401946,0.8646981972110039,2.4659299157857895,0.544480219197356,1.0544104758940245,0.3238615046091247,-0.39250456234122666,-2.153291787532338,0.8647539153680389,2.46587817577521,0.5445020185570556,0.00017549280462377892,0.0008351501076041056,-0.0001815211960033371,0.0010184691340684156,0.00025981124941613893,0.00023258589526539285,-0.0021088259147654673,0.0,0.0,0.0,0.0,0.0,0.0,0.0,-8.429075542260023e-05,0.00010974725087492532,4.299654838718636e-05,0.00030980230785671026,5.571815703497851e-05,-5.174001057950406e-05,2.1799359699592458e-05,-0.00017549280462377892,-0.0008351501076041056,0.0001815211960033371,-0.0010184691340684156,-0.00025981124941613893,-0.00023258589526539285,0.0021088259147654673,0.4267818331718445,34.09072494506836,3.7990386486053467,-19.459871292114258,-0.1476951241493225,-1.783755898475647,0.02963583543896675,0
69,0.3399658203125,-0.4029781222343445,-34.03915023803711,-3.7990386486053467,19.511445999145508,0.1595969796180725,1.783755898475647,-0.06351034343242645,0.0,0.0,0.0,0.0,0.0,0.0,0.0,-0.4036886367722263,-0.00021620668541358945,-0.23744028401786407,0.4579632956938834,0.10109006420713099,-0.11778101422079172,-0.0728083259442907,1.0544930962135917,0.3237481380805634,-0.39254752519567016,-2.1536059743770926,0.8646968894997401,2.4659299157857895,0.5444839830315775,1.0544104758940245,0.3238615046091247,-0.39250456234122666,-2.153291787532338,0.8647539153680389,2.46587817577521,0.5445020185570556,-0.00011074041970353783,-0.0003567625138638677,0.00037415426539224726,-0.0005202531219342058,-0.0001098716357021988,0.0002791795971763763,-0.00016884694794183273,0.0,0.0,0.0,0.0,0.0,0.0,0.0,-8.262031956718374e-05,0.00011336652856130947,4.296285444349568e-05,0.0003141868447547047,5.702586829881007e-05,-5.174001057950406e-05,1.8035525478077297e-05,0.00011074041970353783,0.0003567625138638677,-0.00037415426539224726,0.0005202531219342058,0.0001098716357021988,-0.0002791795971763763,0.00016884694794183273,0.4029781222343445,34.03915023803711,3.7990386486053467,-19.511445999145508,-0.1595969796180725,-1.783755898475647,0.06351034343242645,0
70,0.3450002670288086,-0.4029781222343445,-34.03915023803711,-3.7990386486053467,19.511445999145508,0.1595969796180725,1.783755898475647,-0.06351034343242645,0.0,0.0,0.0,0.0,0.0,0.0,0.0,-0.4036886367722263,-0.00021620668541358945,-0.23744028401786407,0.4579632956938834,0.10109006420713099,-0.11778101422079172,-0.0728083259442907,1.0544930962135917,0.3237481380805634,-0.39254752519567016,-2.1536059743770926,0.8646968894997401,2.4659299157857895,0.5444839830315775,1.0544104758940245,0.3238615046091247,-0.39250456234122666,-2.153291787532338,0.8647539153680389,2.46587817577521,0.5445020185570556,-0.00011074041970353783,-0.0003567625138638677,0.00037415426539224726,-0.0005202531219342058,-0.0001098716357021988,0.0002791795971763763,-0.00016884694794183273,0.0,0.0,0.0,0.0,0.0,0.0,0.0,-8.262031956718374e-05,0.00011336652856130947,4.296285444349568e-05,0.0003141868447547047,5.702586829881007e-05,-5.174001057950406e-05,1.8035525478077297e-05,0.00011074041970353783,0.0003567625138638677,-0.00037415426539224726,0.0005202531219342058,0.0001098716357021988,-0.0002791795971763763,0.00016884694794183273,0.4029781222343445,34.03915023803711,3.7990386486053467,-19.511445999145508,-0.1595969796180725,-1.783755898475647,0.06351034343242645,0
71,0.34996461868286133,-0.4029781222343445,-34.06295394897461,-3.7990386486053467,19.511445999145508,0.1476951241493225,1.770938515663147,-0.08365194499492645,0.0,0.0,0.0,0.0,0.0,0.0,0.0,-0.40868363377230266,-0.0044398432630148804,-0.24108665105574487,0.46351974936039825,0.10109547272422241,-0.11656610531174712,-0.07158893636558347,1.0544930962135917,0.32374980851641866,-0.39254543425470284,-2.153607275416553,0.8646982070224765,2.465931339939435,0.5444862209873067,1.0544104758940245,0.3238615046091247,-0.39250456234122666,-2.153291787532338,0.8647539153680389,2.46587817577521,0.5445020185570556,0.0002310743908957575,0.0002528525365896028,0.00028330207518887615,-0.00039014440100974335,0.00027504299803052354,0.0006839106097041261,0.0046768866582062255,0.0,0.0,0.0,0.0,0.0,0.0,0.0,-8.262031956718374e-05,0.00011169609270605951,4.0871913476181465e-05,0.00031548788421531526,5.5708345562455186e-05,-5.316416422518344e-05,1.5797569748898788e-05,-0.0002310743908957575,-0.0002528525365896028,-0.00028330207518887615,0.00039014440100974335,-0.00027504299803052354,-0.0006839106097041261,-0.0046768866582062255,0.4029781222343445,34.06295394897461,3.7990386486053467,-19.511445999145508,-0.1476951241493225,-1.770938515663147,0.08365194499492645,0
72,0.35504746437072754,-0.4029781222343445,-34.06295394897461,-3.7990386486053467,19.511445999145508,0.1476951241493225,1.770938515663147,-0.08365194499492645,0.0,0.0,0.0,0.0,0.0,0.0,0.0,-0.40868363377230266,-0.0044398432630148804,-0.24108665105574487,0.46351974936039825,0.10109547272422241,-0.11656610531174712,-0.07158893636558347,1.0544930962135917,0.32374980851641866,-0.39254543425470284,-2.153607275416553,0.8646982070224765,2.465931339939435,0.5444862209873067,1.0544104758940245,0.3238615046091247,-0.39250456234122666,-2.153291787532338,0.8647539153680389,2.46587817577521,0.5445020185570556,0.0002310743908957575,0.0002528525365896028,0.00028330207518887615,-0.00039014440100974335,0.00027504299803052354,0.0006839106097041261,0.0046768866582062255,0.0,0.0,0.0,0.0,0.0,0.0,0.0,-8.262031956718374e-05,0.00011169609270605951,4.0871913476181465e-05,0.00031548788421531526,5.5708345562455186e-05,-5.316416422518344e-05,1.5797569748898788e-05,-0.0002310743908957575,-0.0002528525365896028,-0.00028330207518887615,0.00039014440100974335,-0.00027504299803052354,-0.0006839106097041261,-0.0046768866582062255,0.4029781222343445,34.06295394897461,3.7990386486053467,-19.511445999145508,-0.1476951241493225,-1.770938515663147,0.08365194499492645,0
73,0.3600008487701416,-0.4267818331718445,-34.06295394897461,-3.7990386486053467,19.487642288208008,0.1650901436805725,1.783755898475647,-0.04336874559521675,0.0,0.0,0.0,0.0,0.0,0.0,0.0,-0.42526701171692577,-0.003238556446817435,-0.25581010275898786,0.4633180983394496,0.10126152655290835,-0.11557734869156433,-0.07007321087277985,1.054494766649447,0.32374980851641866,-0.3925453545698401,-2.1536037682469584,0.864696279148233,2.4659299157857895,0.5444817450762622,1.0544104758940245,0.3238615046091247,-0.39250456234122666,-2.153291787532338,0.8647539153680389,2.46587817577521,0.5445020185570556,-0.00017603630411150694,8.514986227726266e-05,-0.0002715050109365759,0.00015957189098440567,-0.0002790992495076602,0.00015218157946112016,-0.0010226595066303702,0.0,0.0,0.0,0.0,0.0,0.0,0.0,-8.429075542260023e-05,0.00011169609270605951,4.079222861341769e-05,0.0003119807146205744,5.763621980592326e-05,-5.174001057950406e-05,2.0273480793364662e-05,0.00017603630411150694,-8.514986227726266e-05,0.0002715050109365759,-0.00015957189098440567,0.0002790992495076602,-0.00015218157946112016,0.0010226595066303702,0.4267818331718445,34.06295394897461,3.7990386486053467,-19.487642288208008,-0.1650901436805725,-1.783755898475647,0.04336874559521675,0
74,0.3650081157684326,-0.4267818331718445,-34.06295394897461,-3.7990386486053467,19.487642288208008,0.1650901436805725,1.783755898475647,-0.04336874559521675,0.0,0.0,0.0,0.0,0.0,0.0,0.0,-0.42526701171692577,-0.003238556446817435,-0.25581010275898786,0.4633180983394496,0.10126152655290835,-0.11557734869156433,-0.07007321087277985,1.054494766649447,0.32374980851641866,-0.3925453545698401,-2.1536037682469584,0.864696279148233,2.4659299157857895,0.5444817450762622,1.0544104758940245,0.3238615046091247,-0.39250456234122666,-2.153291787532338,0.8647539153680389,2.46587817577521,0.5445020185570556,-0.00017603630411150694,8.514986227726266e-05,-0.0002715050109365759,0.00015957189098440567,-0.0002790992495076602,0.00015218157946112016,-0.0010226595066303702,0.0,0.0,0.0,0.0,0.0,0.0,0.0,-8.429075542260023e-05,0.00011169609270605951,4.079222861341769e-05,0.0003119807146205744,5.763621980592326e-05,-5.174001057950406e-05,2.0273480793364662e-05,0.00017603630411150694,-8.514986227726266e-05,0.0002715050109365759,-0.00015957189098440567,0.0002790992495076602,-0.00015218157946112016,0.0010226595066303702,0.4267818331718445,34.06295394897461,3.7990386486053467,-19.487642288208008,-0.1650901436805725,-1.783755898475647,0.04336874559521675,0
75,0.3700103759765625,-0.4783565402030945,-34.03915023803711,-3.8228423595428467,19.487642288208008,0.1531882882118225,1.790164589881897,-0.03604452684521675,0.0,0.0,0.0,0.0,0.0,0.0,0.0,-0.4108016372877859,-0.0010433313585363042,-0.24012989882274416,0.4659752422001994,0.10067369319893762,-0.11697590564205032,-0.07001114361278361,1.0544983859271333,0.3237481380805634,-0.3925456535305939,-2.153605604977674,0.8646972439487774,2.4659292037089666,0.544480931274179,1.0544104758940245,0.3238615046091247,-0.39250456234122666,-2.153291787532338,0.8647539153680389,2.46587817577521,0.5445020185570556,0.0012924448947488117,-0.00047062113110203657,0.0004508709312658818,0.0002708069859066601,5.341541755709936e-05,3.025498863877244e-05,-0.0017132781522922454,0.0,0.0,0.0,0.0,0.0,0.0,0.0,-8.791003310881784e-05,0.00011336652856130947,4.109118936723721e-05,0.00031381744533609535,5.6671419261467015e-05,-5.102793375666437e-05,2.1087282876641744e-05,-0.0012924448947488117,0.00047062113110203657,-0.0004508709312658818,-0.0002708069859066601,-5.341541755709936e-05,-3.025498863877244e-05,0.0017132781522922454,0.4783565402030945,34.03915023803711,3.8228423595428467,-19.487642288208008,-0.1531882882118225,-1.790164589881897,0.03604452684521675,0
76,0.37499570846557617,-0.4783565402030945,-34.03915023803711,-3.8228423595428467,19.487642288208008,0.1531882882118225,1.790164589881897,-0.03604452684521675,0.0,0.0,0.0,0.0,0.0,0.0,0.0,-0.4108016372877859,-0.0010433313585363042,-0.24012989882274416,0.4659752422001994,0.10067369319893762,-0.11697590564205032,-0.07001114361278361,1.0544983859271333,0.3237481380805634,-0.3925456535305939,-2.153605604977674,0.8646972439487774,2.4659292037089666,0.544480931274179,1.0544104758940245,0.3238615046091247,-0.39250456234122666,-2.153291787532338,0.8647539153680389,2.46587817577521,0.5445020185570556,0.0012924448947488117,-0.00047062113110203657,0.0004508709312658818,0.0002708069859066601,5.341541755709936e-05,3.025498863877244e-05,-0.0017132781522922454,0.0,0.0,0.0,0.0,0.0,0.0,0.0,-8.791003310881784e-05,0.00011336652856130947,4.109118936723721e-05,0.00031381744533609535,5.6671419261467015e-05,-5.102793375666437e-05,2.1087282876641744e-05,-0.0012924448947488117,0.00047062113110203657,-0.0004508709312658818,-0.0002708069859066601,-5.341541755709936e-05,-3.025498863877244e-05,0.0017132781522922454,0.4783565402030945,34.03915023803711,3.8228423595428467,-19.487642288208008,-0.1531882882118225,-1.790164589881897,0.03604452684521675,0
77,0.3800060749053955,-0.4267818331718445,-34.06295394897461,-3.8228423595428467,19.459871292114258,0.1595969796180725,1.796573281288147,-0.02963583543896675,0.0,0.0,0.0,0.0,0.0,0.0,0.0,-0.4128595059291361,-0.0012358281284147387,-0.2390439824998441,0.46950679060198486,0.10137638116213554,-0.11689643478680804,-0.07048835168757686,1.054494766649447,0.32374980851641866,-0.3925430463290392,-2.153601615423875,0.8646968762536736,2.465928491632144,0.544480219197356,1.0544104758940245,0.3238615046091247,-0.39250456234122666,-2.153291787532338,0.8647539153680389,2.46587817577521,0.5445020185570556,0.00013360510896868368,9.701027477540941e-05,0.00013447813192832874,0.00112646249002581,-0.001979193828002805,-0.0002816291330780059,-0.0014130858444201882,0.0,0.0,0.0,0.0,0.0,0.0,0.0,-8.429075542260023e-05,0.00011169609270605951,3.848398781253204e-05,0.0003098278915372177,5.703911436527598e-05,-5.0315856933824676e-05,2.1799359699592458e-05,-0.00013360510896868368,-9.701027477540941e-05,-0.00013447813192832874,-0.00112646249002581,0.001979193828002805,0.0002816291330780059,0.0014130858444201882,0.4267818331718445,34.06295394897461,3.8228423595428467,-19.459871292114258,-0.1595969796180725,-1.796573281288147,0.02963583543896675,0
78,0.3854060173034668,-0.4267818331718445,-34.06295394897461,-3.8228423595428467,19.459871292114258,0.1595969796180725,1.796573281288147,-0.02963583543896675,0.0,0.0,0.0,0.0,0.0,0.0,0.0,-0.4128595059291361,-0.0012358281284147387,-0.2390439824998441,0.46950679060198486,0.10137638116213554,-0.11689643478680804,-0.07048835168757686,1.054494766649447,0.32374980851641866,-0.3925430463290392,-2.153601615423875,0.8646968762536736,2.465928491632144,0.544480219197356,1.0544104758940245,0.3238615046091247,-0.39250456234122666,-2.153291787532338,0.8647539153680389,2.46587817577521,0.5445020185570556,0.00013360510896868368,9.701027477540941e-05,0.00013447813192832874,0.00112646249002581,-0.001979193828002805,-0.0002816291330780059,-0.0014130858444201882,0.0,0.0,0.0,0.0,0.0,0.0,0.0,-8.429075542260023e-05,0.00011169609270605951,3.848398781253204e-05,0.0003098278915372177,5.703911436527598e-05,-5.0315856933824676e-05,2.1799359699592458e-05,-0.00013360510896868368,-9.701027477540941e-05,-0.00013447813192832874,-0.00112646249002581,0.001979193828002805,0.0002816291330780059,0.0014130858444201882,0.4267818331718445,34.06295394897461,3.8228423595428467,-19.459871292114258,-0.1595969796180725,-1.796573281288147,0.02963583543896675,0
79,0.389998197555542,-0.4267818331718445,-34.06295394897461,-3.7752349376678467,19.487642288208008,0.1476951241493225,1.790164589881897,-0.02963583543896675,0.0,0.0,0.0,0.0,0.0,0.0,0.0,-0.42245330808190806,-0.006702802487664019,-0.24817554562232416,0.4713059011621093,0.10057397643253227,-0.11569177911010595,-0.06956827835830422,1.054494766649447,0.32374980851641866,-0.39254922186114816,-2.1536035386471775,0.8646949932773158,2.4659292037089666,0.544480219197356,1.0544104758940245,0.3238615046091247,-0.39250456234122666,-2.153291787532338,0.8647539153680389,2.46587817577521,0.5445020185570556,-0.00035727278419225736,-0.00037368227352626025,-0.000669434705361779,0.0003414486589246975,0.00015750024698004035,-0.00010952860341306706,-0.0015100155972514705,0.0,0.0,0.0,0.0,0.0,0.0,0.0,-8.429075542260023e-05,0.00011169609270605951,4.465951992149719e-05,0.00031175111483960904,5.89220907231125e-05,-5.102793375666437e-05,2.1799359699592458e-05,0.00035727278419225736,0.00037368227352626025,0.000669434705361779,-0.0003414486589246975,-0.00015750024698004035,0.00010952860341306706,0.0015100155972514705,0.4267818331718445,34.06295394897461,3.7752349376678467,-19.487642288208008,-0.1476951241493225,-1.790164589881897,0.02963583543896675,0
80,0.39499568939208984,-0.4267818331718445,-34.06295394897461,-3.7752349376678467,19.487642288208008,0.1476951241493225,1.790164589881897,-0.02963583543896675,0.0,0.0,0.0,0.0,0.0,0.0,0.0,-0.42245330808190806,-0.006702802487664019,-0.24817554562232416,0.4713059011621093,0.10057397643253227,-0.11569177911010595,-0.06956827835830422,1.054494766649447,0.32374980851641866,-0.39254922186114816,-2.1536035386471775,0.8646949932773158,2.4659292037089666,0.544480219197356,1.0544104758940245,0.3238615046091247,-0.39250456234122666,-2.153291787532338,0.8647539153680389,2.46587817577521,0.5445020185570556,-0.00035727278419225736,-0.00037368227352626025,-0.000669434705361779,0.0003414486589246975,0.00015750024698004035,-0.00010952860341306706,-0.0015100155972514705,0.0,0.0,0.0,0.0,0.0,0.0,0.0,-8.429075542260023e-05,0.00011169609270605951,4.465951992149719e-05,0.00031175111483960904,5.89220907231125e-05,-5.102793375666437e-05,2.1799359699592458e-05,0.00035727278419225736,0.00037368227352626025,0.000669434705361779,-0.0003414486589246975,-0.00015750024698004035,0.00010952860341306706,0.0015100155972514705,0.4267818331718445,34.06295394897461,3.7752349376678467,-19.487642288208008,-0.1476951241493225,-1.790164589881897,0.02963583543896675,0
