rezayati/contactInterpretation/dataset/franka_main/labeled_data/link5/c8_4.csv
index,time,tau_J0,tau_J1,tau_J2,tau_J3,tau_J4,tau_J5,tau_J6,tau_J_d0,tau_J_d1,tau_J_d2,tau_J_d3,tau_J_d4,tau_J_d5,tau_J_d6,tau_ext0,tau_ext1,tau_ext2,tau_ext3,tau_ext4,tau_ext5,tau_ext6,q0,q1,q2,q3,q4,q5,q6,q_d0,q_d1,q_d2,q_d3,q_d4,q_d5,q_d6,dq0,dq1,dq2,dq3,dq4,dq5,dq6,dq_d0,dq_d1,dq_d2,dq_d3,dq_d4,dq_d5,dq_d6,e0,e1,e2,e3,e4,e5,e6,de0,de1,de2,de3,de4,de5,de6,etau_J0,etau_J1,etau_J2,etau_J3,etau_J4,etau_J5,etau_J6,label
1,0.0,-0.3752071261405945,-19.717248916625977,-0.3990752398967743,20.007356643676758,0.6475730538368225,2.4630770683288574,-0.24844686686992645,0.0,0.0,0.0,0.0,0.0,0.0,0.0,-0.3564909168305633,0.009186483219336232,-0.18315816481926364,0.21598896215480123,0.05851136837755116,0.09322340072231425,-0.2744090065169026,1.2134787887062943,-0.22044914524178755,-0.007510836611032576,-2.603761174151788,-0.10879284422695959,2.4682273634457945,0.826478889321556,1.2134413937687574,-0.2202432315892585,-0.0075118285948192216,-2.6038483821997875,-0.10888392708698907,2.4681821257803174,0.826474908251239,0.000701021211497434,-0.00012321962238812963,-0.00030201878042666994,-0.0007658016828289643,-6.565643782557257e-05,3.0252232820220457e-05,-0.0013931589598183921,0.0,0.0,0.0,0.0,0.0,0.0,0.0,-3.739493753696088e-05,0.00020591365252906058,-9.91983786645563e-07,-8.720804799944304e-05,-9.10828600294844e-05,-4.5237665477149136e-05,-3.981070316960711e-06,-0.000701021211497434,0.00012321962238812963,0.00030201878042666994,0.0007658016828289643,6.565643782557257e-05,-3.0252232820220457e-05,0.0013931589598183921,0.3752071261405945,19.717248916625977,0.3990752398967743,-20.007356643676758,-0.6475730538368225,-2.4630770683288574,0.24844686686992645,0
2,0.004801273345947266,-0.3752071261405945,-19.717248916625977,-0.3990752398967743,20.007356643676758,0.6475730538368225,2.4630770683288574,-0.24844686686992645,0.0,0.0,0.0,0.0,0.0,0.0,0.0,-0.3564909168305633,0.009186483219336232,-0.18315816481926364,0.21598896215480123,0.05851136837755116,0.09322340072231425,-0.2744090065169026,1.2134787887062943,-0.22044914524178755,-0.007510836611032576,-2.603761174151788,-0.10879284422695959,2.4682273634457945,0.826478889321556,1.2134413937687574,-0.2202432315892585,-0.0075118285948192216,-2.6038483821997875,-0.10888392708698907,2.4681821257803174,0.826474908251239,0.000701021211497434,-0.00012321962238812963,-0.00030201878042666994,-0.0007658016828289643,-6.565643782557257e-05,3.0252232820220457e-05,-0.0013931589598183921,0.0,0.0,0.0,0.0,0.0,0.0,0.0,-3.739493753696088e-05,0.00020591365252906058,-9.91983786645563e-07,-8.720804799944304e-05,-9.10828600294844e-05,-4.5237665477149136e-05,-3.981070316960711e-06,-0.000701021211497434,0.00012321962238812963,0.00030201878042666994,0.0007658016828289643,6.565643782557257e-05,-3.0252232820220457e-05,0.0013931589598183921,0.3752071261405945,19.717248916625977,0.3990752398967743,-20.007356643676758,-0.6475730538368225,-2.4630770683288574,0.24844686686992645,0
3,0.009798526763916016,-0.2998287081718445,-19.745019912719727,-0.3990752398967743,20.007356643676758,0.6475730538368225,2.4630770683288574,-0.28232139348983765,0.0,0.0,0.0,0.0,0.0,0.0,0.0,-0.34727121004791023,0.006041021093893957,-0.17475517744148128,0.21725186059739474,0.05839087047721004,0.09368804181483176,-0.2745063402973422,1.2134734989927527,-0.2204471963999564,-0.007510871681725952,-2.603761174151772,-0.10879284373919444,2.468227415773308,0.8264826706183295,1.2134413937687574,-0.2202432315892585,-0.0075118285948192216,-2.6038483821997875,-0.10888392708698907,2.4681821257803174,0.826474908251239,-0.0008936097931680721,0.0009530408545736495,0.0009645336040088954,-0.0005844964298962357,-0.00026056339624706755,0.000263093058453944,0.0005279153824933446,0.0,0.0,0.0,0.0,0.0,0.0,0.0,-3.210522399532678e-05,0.00020396481069792638,-9.56913093269271e-07,-8.720804801543025e-05,-9.108334779463212e-05,-4.528999299058256e-05,-7.762367090435873e-06,0.0008936097931680721,-0.0009530408545736495,-0.0009645336040088954,0.0005844964298962357,0.00026056339624706755,-0.000263093058453944,-0.0005279153824933446,0.2998287081718445,19.745019912719727,0.3990752398967743,-20.007356643676758,-0.6475730538368225,-2.4630770683288574,0.28232139348983765,0
4,0.01482081413269043,-0.2998287081718445,-19.745019912719727,-0.3990752398967743,20.007356643676758,0.6475730538368225,2.4630770683288574,-0.28232139348983765,0.0,0.0,0.0,0.0,0.0,0.0,0.0,-0.34727121004791023,0.006041021093893957,-0.17475517744148128,0.21725186059739474,0.05839087047721004,0.09368804181483176,-0.2745063402973422,1.2134734989927527,-0.2204471963999564,-0.007510871681725952,-2.603761174151772,-0.10879284373919444,2.468227415773308,0.8264826706183295,1.2134413937687574,-0.2202432315892585,-0.0075118285948192216,-2.6038483821997875,-0.10888392708698907,2.4681821257803174,0.826474908251239,-0.0008936097931680721,0.0009530408545736495,0.0009645336040088954,-0.0005844964298962357,-0.00026056339624706755,0.000263093058453944,0.0005279153824933446,0.0,0.0,0.0,0.0,0.0,0.0,0.0,-3.210522399532678e-05,0.00020396481069792638,-9.56913093269271e-07,-8.720804801543025e-05,-9.108334779463212e-05,-4.528999299058256e-05,-7.762367090435873e-06,0.0008936097931680721,-0.0009530408545736495,-0.0009645336040088954,0.0005844964298962357,0.00026056339624706755,-0.000263093058453944,-0.0005279153824933446,0.2998287081718445,19.745019912719727,0.3990752398967743,-20.007356643676758,-0.6475730538368225,-2.4630770683288574,0.28232139348983765,0
5,0.019807100296020508,-0.3514034152030945,-19.717248916625977,-0.3990752398967743,20.007356643676758,0.6475730538368225,2.4694857597351074,-0.28232139348983765,0.0,0.0,0.0,0.0,0.0,0.0,0.0,-0.3518211304566649,-0.003613819464079302,-0.18229039994102972,0.225722243524823,0.05849013886302186,0.09499740775049328,-0.2738650930359877,1.213477118270439,-0.22044914524178755,-0.007510871681923928,-2.6037612506811927,-0.10879283935128688,2.4682267036967804,0.8264826706184281,1.2134413937687574,-0.2202432315892585,-0.0075118285948192216,-2.6038483821997875,-0.10888392708698907,2.4681821257803174,0.826474908251239,0.0004544144325795195,-0.0007507710463685542,0.0006671142398717485,0.00013729010051862297,-0.00015366134088787276,-0.00022854331283737796,0.00047030686302877597,0.0,0.0,0.0,0.0,0.0,0.0,0.0,-3.5724501681544396e-05,0.00020591365252906058,-9.569128952939543e-07,-8.71315185948518e-05,-9.108773570219719e-05,-4.4577916463062195e-05,-7.762367189023678e-06,-0.0004544144325795195,0.0007507710463685542,-0.0006671142398717485,-0.00013729010051862297,0.00015366134088787276,0.00022854331283737796,-0.00047030686302877597,0.3514034152030945,19.717248916625977,0.3990752398967743,-20.007356643676758,-0.6475730538368225,-2.4694857597351074,0.28232139348983765,0
6,0.024758100509643555,-0.3514034152030945,-19.717248916625977,-0.3990752398967743,20.007356643676758,0.6475730538368225,2.4694857597351074,-0.28232139348983765,0.0,0.0,0.0,0.0,0.0,0.0,0.0,-0.3518211304566649,-0.003613819464079302,-0.18229039994102972,0.225722243524823,0.05849013886302186,0.09499740775049328,-0.2738650930359877,1.213477118270439,-0.22044914524178755,-0.007510871681923928,-2.6037612506811927,-0.10879283935128688,2.4682267036967804,0.8264826706184281,1.2134413937687574,-0.2202432315892585,-0.0075118285948192216,-2.6038483821997875,-0.10888392708698907,2.4681821257803174,0.826474908251239,0.0004544144325795195,-0.0007507710463685542,0.0006671142398717485,0.00013729010051862297,-0.00015366134088787276,-0.00022854331283737796,0.00047030686302877597,0.0,0.0,0.0,0.0,0.0,0.0,0.0,-3.5724501681544396e-05,0.00020591365252906058,-9.569128952939543e-07,-8.71315185948518e-05,-9.108773570219719e-05,-4.4577916463062195e-05,-7.762367189023678e-06,-0.0004544144325795195,0.0007507710463685542,-0.0006671142398717485,-0.00013729010051862297,0.00015366134088787276,0.00022854331283737796,-0.00047030686302877597,0.3514034152030945,19.717248916625977,0.3990752398967743,-20.007356643676758,-0.6475730538368225,-2.4694857597351074,0.28232139348983765,0
7,0.029798507690429688,-0.3514034152030945,-19.693445205688477,-0.3236968219280243,20.031160354614258,0.6420798897743225,2.4694857597351074,-0.28964561223983765,0.0,0.0,0.0,0.0,0.0,0.0,0.0,-0.34754930539774337,0.005812884419646455,-0.179659616090264,0.22025118756066273,0.05823904018389031,0.0937269716974483,-0.2736069679146427,1.2134771183794553,-0.22045081567764283,-0.007516161395465595,-2.603762844902995,-0.10879259027052857,2.4682267036967804,0.8264834839359946,1.2134413937687574,-0.2202432315892585,-0.0075118285948192216,-2.6038483821997875,-0.10888392708698907,2.4681821257803174,0.826474908251239,7.025527906317099e-05,-0.0007882107537009235,-0.0011930367195397888,-0.0007322288728046019,8.29644208118068e-05,-7.074787783799914e-05,0.0005999346350281772,0.0,0.0,0.0,0.0,0.0,0.0,0.0,-3.57246106978959e-05,0.00020758408838433828,4.332800646373106e-06,-8.553729679272593e-05,-9.133681646050773e-05,-4.4577916463062195e-05,-8.575684755540713e-06,-7.025527906317099e-05,0.0007882107537009235,0.0011930367195397888,0.0007322288728046019,-8.29644208118068e-05,7.074787783799914e-05,-0.0005999346350281772,0.3514034152030945,19.693445205688477,0.3236968219280243,-20.031160354614258,-0.6420798897743225,-2.4694857597351074,0.28964561223983765,0
8,0.034798383712768555,-0.3514034152030945,-19.693445205688477,-0.3236968219280243,20.031160354614258,0.6420798897743225,2.4694857597351074,-0.28964561223983765,0.0,0.0,0.0,0.0,0.0,0.0,0.0,-0.34754930539774337,0.005812884419646455,-0.179659616090264,0.22025118756066273,0.05823904018389031,0.0937269716974483,-0.2736069679146427,1.2134771183794553,-0.22045081567764283,-0.007516161395465595,-2.603762844902995,-0.10879259027052857,2.4682267036967804,0.8264834839359946,1.2134413937687574,-0.2202432315892585,-0.0075118285948192216,-2.6038483821997875,-0.10888392708698907,2.4681821257803174,0.826474908251239,7.025527906317099e-05,-0.0007882107537009235,-0.0011930367195397888,-0.0007322288728046019,8.29644208118068e-05,-7.074787783799914e-05,0.0005999346350281772,0.0,0.0,0.0,0.0,0.0,0.0,0.0,-3.57246106978959e-05,0.00020758408838433828,4.332800646373106e-06,-8.553729679272593e-05,-9.133681646050773e-05,-4.4577916463062195e-05,-8.575684755540713e-06,-7.025527906317099e-05,0.0007882107537009235,0.0011930367195397888,0.0007322288728046019,-8.29644208118068e-05,7.074787783799914e-05,-0.0005999346350281772,0.3514034152030945,19.693445205688477,0.3236968219280243,-20.031160354614258,-0.6420798897743225,-2.4694857597351074,0.28964561223983765,0
9,0.03979754447937012,-0.3752071261405945,-19.717248916625977,-0.3713042438030243,20.031160354614258,0.6475730538368225,2.4694857597351074,-0.31711143255233765,0.0,0.0,0.0,0.0,0.0,0.0,0.0,-0.3511634375841611,0.000860701104830629,-0.1817729162483001,0.22476349360049128,0.05854402522633196,0.09474464701856061,-0.2737808584633278,1.213478788706295,-0.22044914524178755,-0.007512820523755069,-2.603762844587629,-0.1087928437412063,2.4682267036967804,0.8264865359629803,1.2134413937687574,-0.2202432315892585,-0.0075118285948192216,-2.6038483821997875,-0.10888392708698907,2.4681821257803174,0.826474908251239,0.00020389408010520275,-0.0005926842734693482,-0.0005681105281790524,-0.0005073885859397986,-0.0002590685677024844,-2.84573370601095e-05,0.001775551160893322,0.0,0.0,0.0,0.0,0.0,0.0,0.0,-3.7394937537627015e-05,0.00020591365252906058,9.919289358471806e-07,-8.55376121586815e-05,-9.108334578276922e-05,-4.4577916463062195e-05,-1.1627711741235558e-05,-0.00020389408010520275,0.0005926842734693482,0.0005681105281790524,0.0005073885859397986,0.0002590685677024844,2.84573370601095e-05,-0.001775551160893322,0.3752071261405945,19.717248916625977,0.3713042438030243,-20.031160354614258,-0.6475730538368225,-2.4694857597351074,0.31711143255233765,0
10,0.044820547103881836,-0.3752071261405945,-19.717248916625977,-0.3713042438030243,20.031160354614258,0.6475730538368225,2.4694857597351074,-0.31711143255233765,0.0,0.0,0.0,0.0,0.0,0.0,0.0,-0.3511634375841611,0.000860701104830629,-0.1817729162483001,0.22476349360049128,0.05854402522633196,0.09474464701856061,-0.2737808584633278,1.213478788706295,-0.22044914524178755,-0.007512820523755069,-2.603762844587629,-0.1087928437412063,2.4682267036967804,0.8264865359629803,1.2134413937687574,-0.2202432315892585,-0.0075118285948192216,-2.6038483821997875,-0.10888392708698907,2.4681821257803174,0.826474908251239,0.00020389408010520275,-0.0005926842734693482,-0.0005681105281790524,-0.0005073885859397986,-0.0002590685677024844,-2.84573370601095e-05,0.001775551160893322,0.0,0.0,0.0,0.0,0.0,0.0,0.0,-3.7394937537627015e-05,0.00020591365252906058,9.919289358471806e-07,-8.55376121586815e-05,-9.108334578276922e-05,-4.4577916463062195e-05,-1.1627711741235558e-05,-0.00020389408010520275,0.0005926842734693482,0.0005681105281790524,0.0005073885859397986,0.0002590685677024844,2.84573370601095e-05,-0.001775551160893322,0.3752071261405945,19.717248916625977,0.3713042438030243,-20.031160354614258,-0.6475730538368225,-2.4694857597351074,0.31711143255233765,0
11,0.04983091354370117,-0.4029781222343445,-19.745019912719727,-0.3713042438030243,19.983552932739258,0.6420798897743225,2.4630770683288574,-0.30337852239608765,0.0,0.0,0.0,0.0,0.0,0.0,0.0,-0.35062013248784424,0.0036897614379814456,-0.1807448675796432,0.2233526119109689,0.05813446084450559,0.09491095408289632,-0.27454830263911745,1.2134807375481254,-0.2204471963999564,-0.007512820523755069,-2.6037597588139847,-0.1087922729329441,2.4682274157736033,0.8264845393491367,1.2134413937687574,-0.2202432315892585,-0.0075118285948192216,-2.6038483821997875,-0.10888392708698907,2.4681821257803174,0.826474908251239,0.0009605661973525045,0.00018761268573035445,-0.000757626155563675,0.0004826847185511439,-0.00016880577258540047,0.0003003883699578296,0.0013043528461462476,0.0,0.0,0.0,0.0,0.0,0.0,0.0,-3.9343779367984055e-05,0.00020396481069792638,9.919289358471806e-07,-8.862338580284401e-05,-9.16541540449678e-05,-4.5289993285901886e-05,-9.63109789764438e-06,-0.0009605661973525045,-0.00018761268573035445,0.000757626155563675,-0.0004826847185511439,0.00016880577258540047,-0.0003003883699578296,-0.0013043528461462476,0.4029781222343445,19.745019912719727,0.3713042438030243,-19.983552932739258,-0.6420798897743225,-2.4630770683288574,0.30337852239608765,0
12,0.05474591255187988,-0.4029781222343445,-19.745019912719727,-0.3713042438030243,19.983552932739258,0.6420798897743225,2.4630770683288574,-0.30337852239608765,0.0,0.0,0.0,0.0,0.0,0.0,0.0,-0.35062013248784424,0.0036897614379814456,-0.1807448675796432,0.2233526119109689,0.05813446084450559,0.09491095408289632,-0.27454830263911745,1.2134807375481254,-0.2204471963999564,-0.007512820523755069,-2.6037597588139847,-0.1087922729329441,2.4682274157736033,0.8264845393491367,1.2134413937687574,-0.2202432315892585,-0.0075118285948192216,-2.6038483821997875,-0.10888392708698907,2.4681821257803174,0.826474908251239,0.0009605661973525045,0.00018761268573035445,-0.000757626155563675,0.0004826847185511439,-0.00016880577258540047,0.0003003883699578296,0.0013043528461462476,0.0,0.0,0.0,0.0,0.0,0.0,0.0,-3.9343779367984055e-05,0.00020396481069792638,9.919289358471806e-07,-8.862338580284401e-05,-9.16541540449678e-05,-4.5289993285901886e-05,-9.63109789764438e-06,-0.0009605661973525045,-0.00018761268573035445,0.000757626155563675,-0.0004826847185511439,0.00016880577258540047,-0.0003003883699578296,-0.0013043528461462476,0.4029781222343445,19.745019912719727,0.3713042438030243,-19.983552932739258,-0.6420798897743225,-2.4630770683288574,0.30337852239608765,0
13,0.05975174903869629,-0.3752071261405945,-19.745019912719727,-0.3713042438030243,20.031160354614258,0.6420798897743225,2.4630770683288574,-0.24844686686992645,0.0,0.0,0.0,0.0,0.0,0.0,0.0,-0.35160023862716716,0.0010485114923193255,-0.17929828232354955,0.2273151029297933,0.05761498442656811,0.0953953725433424,-0.27472599301312095,1.213478788742633,-0.2204471963999564,-0.007512109039630514,-2.6037628445890673,-0.10879543233297037,2.4682274157736033,0.8264757128450712,1.2134413937687574,-0.2202432315892585,-0.0075118285948192216,-2.6038483821997875,-0.10888392708698907,2.4681821257803174,0.826474908251239,-0.00033661513317542437,0.0005461518942839813,1.3532783480655633e-05,-0.0005103163324123728,3.6932660793574066e-05,0.0003693373506178643,-0.001766815284391721,0.0,0.0,0.0,0.0,0.0,0.0,0.0,-3.73949738756707e-05,0.00020396481069792638,2.8044481129203824e-07,-8.553761072027655e-05,-8.84947540187031e-05,-4.5289993285901886e-05,-8.045938321155077e-07,0.00033661513317542437,-0.0005461518942839813,-1.3532783480655633e-05,0.0005103163324123728,-3.6932660793574066e-05,-0.0003693373506178643,0.001766815284391721,0.3752071261405945,19.745019912719727,0.3713042438030243,-20.031160354614258,-0.6420798897743225,-2.4630770683288574,0.24844686686992645,0
14,0.0648186206817627,-0.3752071261405945,-19.745019912719727,-0.3713042438030243,20.031160354614258,0.6420798897743225,2.4630770683288574,-0.24844686686992645,0.0,0.0,0.0,0.0,0.0,0.0,0.0,-0.35160023862716716,0.0010485114923193255,-0.17929828232354955,0.2273151029297933,0.05761498442656811,0.0953953725433424,-0.27472599301312095,1.213478788742633,-0.2204471963999564,-0.007512109039630514,-2.6037628445890673,-0.10879543233297037,2.4682274157736033,0.8264757128450712,1.2134413937687574,-0.2202432315892585,-0.0075118285948192216,-2.6038483821997875,-0.10888392708698907,2.4681821257803174,0.826474908251239,-0.00033661513317542437,0.0005461518942839813,1.3532783480655633e-05,-0.0005103163324123728,3.6932660793574066e-05,0.0003693373506178643,-0.001766815284391721,0.0,0.0,0.0,0.0,0.0,0.0,0.0,-3.73949738756707e-05,0.00020396481069792638,2.8044481129203824e-07,-8.553761072027655e-05,-8.84947540187031e-05,-4.5289993285901886e-05,-8.045938321155077e-07,0.00033661513317542437,-0.0005461518942839813,-1.3532783480655633e-05,0.0005103163324123728,-3.6932660793574066e-05,-0.0003693373506178643,0.001766815284391721,0.3752071261405945,19.745019912719727,0.3713042438030243,-20.031160354614258,-0.6420798897743225,-2.4630770683288574,0.24844686686992645,0
15,0.0697946548461914,-0.3752071261405945,-19.745019912719727,-0.3713042438030243,20.007356643676758,0.6420798897743225,2.4694857597351074,-0.27591270208358765,0.0,0.0,0.0,0.0,0.0,0.0,0.0,-0.35470554704820045,0.004468622758702986,-0.1806874648450501,0.225629724447683,0.05790469365338948,0.09526695825005234,-0.2744069762353442,1.2134787887062943,-0.2204471963999564,-0.007512820522416286,-2.603761176986195,-0.10879223355616356,2.4682267036967804,0.8264819570820449,1.2134413937687574,-0.2202432315892585,-0.0075118285948192216,-2.6038483821997875,-0.10888392708698907,2.4681821257803174,0.826474908251239,0.00023900603452398444,0.0005620434040095254,-0.00037736338814560444,-9.686142948410942e-05,8.831596253250216e-05,2.2869666396225766e-05,0.0006190338585553242,0.0,0.0,0.0,0.0,0.0,0.0,0.0,-3.739493753696088e-05,0.00020396481069792638,9.91927597064797e-07,-8.720521359251165e-05,-9.169353082551235e-05,-4.4577916463062195e-05,-7.048830805822526e-06,-0.00023900603452398444,-0.0005620434040095254,0.00037736338814560444,9.686142948410942e-05,-8.831596253250216e-05,-2.2869666396225766e-05,-0.0006190338585553242,0.3752071261405945,19.745019912719727,0.3713042438030243,-20.007356643676758,-0.6420798897743225,-2.4694857597351074,0.27591270208358765,0
16,0.07499217987060547,-0.3752071261405945,-19.745019912719727,-0.3713042438030243,20.007356643676758,0.6420798897743225,2.4694857597351074,-0.27591270208358765,0.0,0.0,0.0,0.0,0.0,0.0,0.0,-0.35470554704820045,0.004468622758702986,-0.1806874648450501,0.225629724447683,0.05790469365338948,0.09526695825005234,-0.2744069762353442,1.2134787887062943,-0.2204471963999564,-0.007512820522416286,-2.603761176986195,-0.10879223355616356,2.4682267036967804,0.8264819570820449,1.2134413937687574,-0.2202432315892585,-0.0075118285948192216,-2.6038483821997875,-0.10888392708698907,2.4681821257803174,0.826474908251239,0.00023900603452398444,0.0005620434040095254,-0.00037736338814560444,-9.686142948410942e-05,8.831596253250216e-05,2.2869666396225766e-05,0.0006190338585553242,0.0,0.0,0.0,0.0,0.0,0.0,0.0,-3.739493753696088e-05,0.00020396481069792638,9.91927597064797e-07,-8.720521359251165e-05,-9.169353082551235e-05,-4.4577916463062195e-05,-7.048830805822526e-06,-0.00023900603452398444,-0.0005620434040095254,0.00037736338814560444,9.686142948410942e-05,-8.831596253250216e-05,-2.2869666396225766e-05,-0.0006190338585553242,0.3752071261405945,19.745019912719727,0.3713042438030243,-20.007356643676758,-0.6420798897743225,-2.4694857597351074,0.27591270208358765,0
17,0.07979464530944824,-0.3752071261405945,-19.745019912719727,-0.3713042438030243,20.007356643676758,0.6420798897743225,2.4694857597351074,-0.27591270208358765,0.0,0.0,0.0,0.0,0.0,0.0,0.0,-0.35470554704820045,0.004468622758702986,-0.1806874648450501,0.225629724447683,0.05790469365338948,0.09526695825005234,-0.2744069762353442,1.2134787887062943,-0.2204471963999564,-0.007512820522416286,-2.603761176986195,-0.10879223355616356,2.4682267036967804,0.8264819570820449,1.2134413937687574,-0.2202432315892585,-0.0075118285948192216,-2.6038483821997875,-0.10888392708698907,2.4681821257803174,0.826474908251239,0.00023900603452398444,0.0005620434040095254,-0.00037736338814560444,-9.686142948410942e-05,8.831596253250216e-05,2.2869666396225766e-05,0.0006190338585553242,0.0,0.0,0.0,0.0,0.0,0.0,0.0,-3.739493753696088e-05,0.00020396481069792638,9.91927597064797e-07,-8.720521359251165e-05,-9.169353082551235e-05,-4.4577916463062195e-05,-7.048830805822526e-06,-0.00023900603452398444,-0.0005620434040095254,0.00037736338814560444,9.686142948410942e-05,-8.831596253250216e-05,-2.2869666396225766e-05,-0.0006190338585553242,0.3752071261405945,19.745019912719727,0.3713042438030243,-20.007356643676758,-0.6420798897743225,-2.4694857597351074,0.27591270208358765,0
18,0.0848245620727539,-0.3752071261405945,-19.745019912719727,-0.3713042438030243,20.007356643676758,0.6420798897743225,2.4694857597351074,-0.27591270208358765,0.0,0.0,0.0,0.0,0.0,0.0,0.0,-0.35470554704820045,0.004468622758702986,-0.1806874648450501,0.225629724447683,0.05790469365338948,0.09526695825005234,-0.2744069762353442,1.2134787887062943,-0.2204471963999564,-0.007512820522416286,-2.603761176986195,-0.10879223355616356,2.4682267036967804,0.8264819570820449,1.2134413937687574,-0.2202432315892585,-0.0075118285948192216,-2.6038483821997875,-0.10888392708698907,2.4681821257803174,0.826474908251239,0.00023900603452398444,0.0005620434040095254,-0.00037736338814560444,-9.686142948410942e-05,8.831596253250216e-05,2.2869666396225766e-05,0.0006190338585553242,0.0,0.0,0.0,0.0,0.0,0.0,0.0,-3.739493753696088e-05,0.00020396481069792638,9.91927597064797e-07,-8.720521359251165e-05,-9.169353082551235e-05,-4.4577916463062195e-05,-7.048830805822526e-06,-0.00023900603452398444,-0.0005620434040095254,0.00037736338814560444,9.686142948410942e-05,-8.831596253250216e-05,-2.2869666396225766e-05,-0.0006190338585553242,0.3752071261405945,19.745019912719727,0.3713042438030243,-20.007356643676758,-0.6420798897743225,-2.4694857597351074,0.27591270208358765,0
19,0.08982610702514648,-0.3514034152030945,-19.745019912719727,-0.3990752398967743,20.007356643676758,0.6475730538368225,2.4694857597351074,-0.30978721380233765,0.0,0.0,0.0,0.0,0.0,0.0,0.0,-0.35757233764800683,0.0014765497272094133,-0.18147065981205435,0.22738131466832467,0.058419396170684146,0.09634937311604037,-0.27331318208832456,1.213477118270439,-0.2204471963999564,-0.0075108716819239215,-2.603761174186781,-0.10879284373919264,2.4682267036967804,0.8264857092942801,1.2134413937687574,-0.2202432315892585,-0.0075118285948192216,-2.6038483821997875,-0.10888392708698907,2.4681821257803174,0.826474908251239,-0.00016371276650487042,3.644639292636776e-05,0.0008261278194482012,-0.00010787298980517688,-0.00020340341278408667,0.000107071699427584,0.0016917712235356359,0.0,0.0,0.0,0.0,0.0,0.0,0.0,-3.5724501681544396e-05,0.00020396481069792638,-9.569128953000258e-07,-8.720801300654557e-05,-9.108334779643623e-05,-4.4577916463062195e-05,-1.0801043041075431e-05,0.00016371276650487042,-3.644639292636776e-05,-0.0008261278194482012,0.00010787298980517688,0.00020340341278408667,-0.000107071699427584,-0.0016917712235356359,0.3514034152030945,19.745019912719727,0.3990752398967743,-20.007356643676758,-0.6475730538368225,-2.4694857597351074,0.30978721380233765,0
20,0.09483647346496582,-0.3514034152030945,-19.745019912719727,-0.3990752398967743,20.007356643676758,0.6475730538368225,2.4694857597351074,-0.30978721380233765,0.0,0.0,0.0,0.0,0.0,0.0,0.0,-0.35757233764800683,0.0014765497272094133,-0.18147065981205435,0.22738131466832467,0.058419396170684146,0.09634937311604037,-0.27331318208832456,1.213477118270439,-0.2204471963999564,-0.0075108716819239215,-2.603761174186781,-0.10879284373919264,2.4682267036967804,0.8264857092942801,1.2134413937687574,-0.2202432315892585,-0.0075118285948192216,-2.6038483821997875,-0.10888392708698907,2.4681821257803174,0.826474908251239,-0.00016371276650487042,3.644639292636776e-05,0.0008261278194482012,-0.00010787298980517688,-0.00020340341278408667,0.000107071699427584,0.0016917712235356359,0.0,0.0,0.0,0.0,0.0,0.0,0.0,-3.5724501681544396e-05,0.00020396481069792638,-9.569128953000258e-07,-8.720801300654557e-05,-9.108334779643623e-05,-4.4577916463062195e-05,-1.0801043041075431e-05,0.00016371276650487042,-3.644639292636776e-05,-0.0008261278194482012,0.00010787298980517688,0.00020340341278408667,-0.000107071699427584,-0.0016917712235356359,0.3514034152030945,19.745019912719727,0.3990752398967743,-20.007356643676758,-0.6475730538368225,-2.4694857597351074,0.30978721380233765,0
21,0.09981131553649902,-0.3752071261405945,-19.717248916625977,-0.3236968219280243,20.031160354614258,0.6539817452430725,2.4694857597351074,-0.28232139348983765,0.0,0.0,0.0,0.0,0.0,0.0,0.0,-0.395270145153318,0.003377925304687425,-0.21949560547501737,0.22725751413210032,0.060204897783361175,0.09640732241464244,-0.27266318371024983,1.2134787887062943,-0.22044914524178755,-0.007516161395465595,-2.603762844587627,-0.10879359530715785,2.4682267036967804,0.8264794914886255,1.2134413937687574,-0.2202432315892585,-0.0075118285948192216,-2.6038483821997875,-0.10888392708698907,2.4681821257803174,0.826474908251239,0.00044264974162062617,-0.0003803168526889846,0.0005935424915785625,-0.000622897410858466,-0.00038346510382888537,-8.952067523955015e-06,0.00014293338497626079,0.0,0.0,0.0,0.0,0.0,0.0,0.0,-3.739493753696088e-05,0.00020591365252906058,4.332800646373106e-06,-8.553761216045785e-05,-9.033177983122642e-05,-4.4577916463062195e-05,-4.583237386501793e-06,-0.00044264974162062617,0.0003803168526889846,-0.0005935424915785625,0.000622897410858466,0.00038346510382888537,8.952067523955015e-06,-0.00014293338497626079,0.3752071261405945,19.717248916625977,0.3236968219280243,-20.031160354614258,-0.6539817452430725,-2.4694857597351074,0.28232139348983765,0
22,0.10482978820800781,-0.3752071261405945,-19.717248916625977,-0.3236968219280243,20.031160354614258,0.6539817452430725,2.4694857597351074,-0.28232139348983765,0.0,0.0,0.0,0.0,0.0,0.0,0.0,-0.395270145153318,0.003377925304687425,-0.21949560547501737,0.22725751413210032,0.060204897783361175,0.09640732241464244,-0.27266318371024983,1.2134787887062943,-0.22044914524178755,-0.007516161395465595,-2.603762844587627,-0.10879359530715785,2.4682267036967804,0.8264794914886255,1.2134413937687574,-0.2202432315892585,-0.0075118285948192216,-2.6038483821997875,-0.10888392708698907,2.4681821257803174,0.826474908251239,0.00044264974162062617,-0.0003803168526889846,0.0005935424915785625,-0.000622897410858466,-0.00038346510382888537,-8.952067523955015e-06,0.00014293338497626079,0.0,0.0,0.0,0.0,0.0,0.0,0.0,-3.739493753696088e-05,0.00020591365252906058,4.332800646373106e-06,-8.553761216045785e-05,-9.033177983122642e-05,-4.4577916463062195e-05,-4.583237386501793e-06,-0.00044264974162062617,0.0003803168526889846,-0.0005935424915785625,0.000622897410858466,0.00038346510382888537,8.952067523955015e-06,-0.00014293338497626079,0.3752071261405945,19.717248916625977,0.3236968219280243,-20.031160354614258,-0.6539817452430725,-2.4694857597351074,0.28232139348983765,0
23,0.10982656478881836,-0.3514034152030945,-19.768823623657227,-0.3475005328655243,19.983552932739258,0.6475730538368225,2.4630770683288574,-0.29605430364608765,0.0,0.0,0.0,0.0,0.0,0.0,0.0,-0.35900378056181065,0.00897755718283757,-0.17753837932981048,0.21992420570563972,0.05833657323796465,0.09638168500784275,-0.2729338587985633,1.213477118270439,-0.22044552596410116,-0.007514490959610332,-2.6037595037159167,-0.10879285695730069,2.4682270625608935,0.826483014743038,1.2134413937687574,-0.2202432315892585,-0.0075118285948192216,-2.6038483821997875,-0.10888392708698907,2.4681821257803174,0.826474908251239,0.0004422859171010194,0.0010260244539938405,0.0001754620797463421,0.0002926712658740231,-0.0003048812939802813,0.0003924196736242976,0.0008482777195062789,0.0,0.0,0.0,0.0,0.0,0.0,0.0,-3.5724501681544396e-05,0.00020229437484267643,2.662364791110143e-06,-8.887848387084674e-05,-9.107012968838368e-05,-4.493678057615469e-05,-8.106491798942628e-06,-0.0004422859171010194,-0.0010260244539938405,-0.0001754620797463421,-0.0002926712658740231,0.0003048812939802813,-0.0003924196736242976,-0.0008482777195062789,0.3514034152030945,19.768823623657227,0.3475005328655243,-19.983552932739258,-0.6475730538368225,-2.4630770683288574,0.29605430364608765,0
24,0.11481547355651855,-0.3514034152030945,-19.768823623657227,-0.3475005328655243,19.983552932739258,0.6475730538368225,2.4630770683288574,-0.29605430364608765,0.0,0.0,0.0,0.0,0.0,0.0,0.0,-0.35900378056181065,0.00897755718283757,-0.17753837932981048,0.21992420570563972,0.05833657323796465,0.09638168500784275,-0.2729338587985633,1.213477118270439,-0.22044552596410116,-0.007514490959610332,-2.6037595037159167,-0.10879285695730069,2.4682270625608935,0.826483014743038,1.2134413937687574,-0.2202432315892585,-0.0075118285948192216,-2.6038483821997875,-0.10888392708698907,2.4681821257803174,0.826474908251239,0.0004422859171010194,0.0010260244539938405,0.0001754620797463421,0.0002926712658740231,-0.0003048812939802813,0.0003924196736242976,0.0008482777195062789,0.0,0.0,0.0,0.0,0.0,0.0,0.0,-3.5724501681544396e-05,0.00020229437484267643,2.662364791110143e-06,-8.887848387084674e-05,-9.107012968838368e-05,-4.493678057615469e-05,-8.106491798942628e-06,-0.0004422859171010194,-0.0010260244539938405,-0.0001754620797463421,-0.0002926712658740231,0.0003048812939802813,-0.0003924196736242976,-0.0008482777195062789,0.3514034152030945,19.768823623657227,0.3475005328655243,-19.983552932739258,-0.6475730538368225,-2.4630770683288574,0.29605430364608765,0
25,0.11984777450561523,-0.3514034152030945,-19.745019912719727,-0.3990752398967743,20.007356643676758,0.6420798897743225,2.4694857597351074,-0.28232139348983765,0.0,0.0,0.0,0.0,0.0,0.0,0.0,-0.3466730660051122,0.009244650731632264,-0.16499130760811517,0.22138171736707563,0.05745124441470634,0.09644535808917673,-0.2735757329813297,1.213477118270439,-0.2204471963999564,-0.007508741126314066,-2.603761174186765,-0.10879223387524878,2.468226703694787,0.8264825528741871,1.2134413937687574,-0.2202432315892585,-0.0075118285948192216,-2.6038483821997875,-0.10888392708698907,2.4681821257803174,0.826474908251239,0.00021882235975759944,0.0008670141165583215,0.0010245250534141018,-8.384636459315807e-06,1.0560270833987506e-05,-0.00021133632791452123,0.0003820945514751303,0.0,0.0,0.0,0.0,0.0,0.0,0.0,-3.5724501681544396e-05,0.00020396481069792638,-3.0874685051553857e-06,-8.720801302253278e-05,-9.169321174029577e-05,-4.457791446954573e-05,-7.644622948110857e-06,-0.00021882235975759944,-0.0008670141165583215,-0.0010245250534141018,8.384636459315807e-06,-1.0560270833987506e-05,0.00021133632791452123,-0.0003820945514751303,0.3514034152030945,19.745019912719727,0.3990752398967743,-20.007356643676758,-0.6420798897743225,-2.4694857597351074,0.28232139348983765,0
26,0.12483739852905273,-0.3514034152030945,-19.745019912719727,-0.3990752398967743,20.007356643676758,0.6420798897743225,2.4694857597351074,-0.28232139348983765,0.0,0.0,0.0,0.0,0.0,0.0,0.0,-0.3466730660051122,0.009244650731632264,-0.16499130760811517,0.22138171736707563,0.05745124441470634,0.09644535808917673,-0.2735757329813297,1.213477118270439,-0.2204471963999564,-0.007508741126314066,-2.603761174186765,-0.10879223387524878,2.468226703694787,0.8264825528741871,1.2134413937687574,-0.2202432315892585,-0.0075118285948192216,-2.6038483821997875,-0.10888392708698907,2.4681821257803174,0.826474908251239,0.00021882235975759944,0.0008670141165583215,0.0010245250534141018,-8.384636459315807e-06,1.0560270833987506e-05,-0.00021133632791452123,0.0003820945514751303,0.0,0.0,0.0,0.0,0.0,0.0,0.0,-3.5724501681544396e-05,0.00020396481069792638,-3.0874685051553857e-06,-8.720801302253278e-05,-9.169321174029577e-05,-4.457791446954573e-05,-7.644622948110857e-06,-0.00021882235975759944,-0.0008670141165583215,-0.0010245250534141018,8.384636459315807e-06,-1.0560270833987506e-05,0.00021133632791452123,-0.0003820945514751303,0.3514034152030945,19.745019912719727,0.3990752398967743,-20.007356643676758,-0.6420798897743225,-2.4694857597351074,0.28232139348983765,0
27,0.12983918190002441,-0.3514034152030945,-19.768823623657227,-0.3713042438030243,20.007356643676758,0.6182761788368225,2.4758944511413574,-0.26217979192733765,0.0,0.0,0.0,0.0,0.0,0.0,0.0,-0.34214383168505835,-0.0030764651604442152,-0.15989181885411377,0.22845402412316207,0.056850198050049934,0.09670663805325917,-0.2740077450104521,1.213477118270439,-0.22044552596410116,-0.00751282051172802,-2.603761174151772,-0.10878958907257776,2.4682259916199576,0.8264804268478332,1.2134413937687574,-0.2202432315892585,-0.0075118285948192216,-2.6038483821997875,-0.10888392708698907,2.4681821257803174,0.826474908251239,9.226873396315638e-05,0.00031924095511919986,0.0005008448386197324,4.632527776361915e-05,0.0008161797936958272,-0.0004947639619366624,-0.0006206925915077875,0.0,0.0,0.0,0.0,0.0,0.0,0.0,-3.5724501681544396e-05,0.00020229437484267643,9.919169087985527e-07,-8.720804801543025e-05,-9.433801441131873e-05,-4.3865839640222504e-05,-5.518596594145109e-06,-9.226873396315638e-05,-0.00031924095511919986,-0.0005008448386197324,-4.632527776361915e-05,-0.0008161797936958272,0.0004947639619366624,0.0006206925915077875,0.3514034152030945,19.768823623657227,0.3713042438030243,-20.007356643676758,-0.6182761788368225,-2.4758944511413574,0.26217979192733765,0
28,0.13483881950378418,-0.3514034152030945,-19.768823623657227,-0.3713042438030243,20.007356643676758,0.6182761788368225,2.4758944511413574,-0.26217979192733765,0.0,0.0,0.0,0.0,0.0,0.0,0.0,-0.34214383168505835,-0.0030764651604442152,-0.15989181885411377,0.22845402412316207,0.056850198050049934,0.09670663805325917,-0.2740077450104521,1.213477118270439,-0.22044552596410116,-0.00751282051172802,-2.603761174151772,-0.10878958907257776,2.4682259916199576,0.8264804268478332,1.2134413937687574,-0.2202432315892585,-0.0075118285948192216,-2.6038483821997875,-0.10888392708698907,2.4681821257803174,0.826474908251239,9.226873396315638e-05,0.00031924095511919986,0.0005008448386197324,4.632527776361915e-05,0.0008161797936958272,-0.0004947639619366624,-0.0006206925915077875,0.0,0.0,0.0,0.0,0.0,0.0,0.0,-3.5724501681544396e-05,0.00020229437484267643,9.919169087985527e-07,-8.720804801543025e-05,-9.433801441131873e-05,-4.3865839640222504e-05,-5.518596594145109e-06,-9.226873396315638e-05,-0.00031924095511919986,-0.0005008448386197324,-4.632527776361915e-05,-0.0008161797936958272,0.0004947639619366624,0.0006206925915077875,0.3514034152030945,19.768823623657227,0.3713042438030243,-20.007356643676758,-0.6182761788368225,-2.4758944511413574,0.26217979192733765,0
29,0.1398146152496338,-0.3752071261405945,-19.717248916625977,-0.3990752398967743,19.983552932739258,0.6420798897743225,2.4630770683288574,-0.24112264811992645,0.0,0.0,0.0,0.0,0.0,0.0,0.0,-0.3492921070530684,0.0061518137291486676,-0.16886960694158798,0.22358826247794672,0.056546187079806645,0.09468882547296917,-0.27444564259800763,1.2134787887062943,-0.22044914524178755,-0.007510871681923861,-2.6037595037159167,-0.10879235630313845,2.4682270625608935,0.8264749140656328,1.2134413937687574,-0.2202432315892585,-0.0075118285948192216,-2.6038483821997875,-0.10888392708698907,2.4681821257803174,0.826474908251239,0.00039636589640054594,-0.0002010522980196846,0.0004747039747573793,0.0005386956531275357,3.1936972241447615e-05,0.00020649577579646405,-0.0015690889876235055,0.0,0.0,0.0,0.0,0.0,0.0,0.0,-3.739493753696088e-05,0.00020591365252906058,-9.569128953607411e-07,-8.887848387084674e-05,-9.157078385062245e-05,-4.493678057615469e-05,-5.8143937442523e-09,-0.00039636589640054594,0.0002010522980196846,-0.0004747039747573793,-0.0005386956531275357,-3.1936972241447615e-05,-0.00020649577579646405,0.0015690889876235055,0.3752071261405945,19.717248916625977,0.3990752398967743,-19.983552932739258,-0.6420798897743225,-2.4630770683288574,0.24112264811992645,0
30,0.1448361873626709,-0.3752071261405945,-19.717248916625977,-0.3990752398967743,19.983552932739258,0.6420798897743225,2.4630770683288574,-0.24112264811992645,0.0,0.0,0.0,0.0,0.0,0.0,0.0,-0.3492921070530684,0.0061518137291486676,-0.16886960694158798,0.22358826247794672,0.056546187079806645,0.09468882547296917,-0.27444564259800763,1.2134787887062943,-0.22044914524178755,-0.007510871681923861,-2.6037595037159167,-0.10879235630313845,2.4682270625608935,0.8264749140656328,1.2134413937687574,-0.2202432315892585,-0.0075118285948192216,-2.6038483821997875,-0.10888392708698907,2.4681821257803174,0.826474908251239,0.00039636589640054594,-0.0002010522980196846,0.0004747039747573793,0.0005386956531275357,3.1936972241447615e-05,0.00020649577579646405,-0.0015690889876235055,0.0,0.0,0.0,0.0,0.0,0.0,0.0,-3.739493753696088e-05,0.00020591365252906058,-9.569128953607411e-07,-8.887848387084674e-05,-9.157078385062245e-05,-4.493678057615469e-05,-5.8143937442523e-09,-0.00039636589640054594,0.0002010522980196846,-0.0004747039747573793,-0.0005386956531275357,-3.1936972241447615e-05,-0.00020649577579646405,0.0015690889876235055,0.3752071261405945,19.717248916625977,0.3990752398967743,-19.983552932739258,-0.6420798897743225,-2.4630770683288574,0.24112264811992645,0
31,0.1498241424560547,-0.4267818331718445,-19.745019912719727,-0.3475005328655243,20.007356643676758,0.6420798897743225,2.4758944511413574,-0.23471395671367645,0.0,0.0,0.0,0.0,0.0,0.0,0.0,-0.35221685342454934,-0.03514952786421104,-0.17186688105286224,0.24404806444749771,0.05690521540767664,0.09861972273294495,-0.274252192248143,1.2134824079839808,-0.2204471963999564,-0.007514490959610332,-2.603761862916556,-0.10879272044575643,2.468225991617964,0.8264742019708976,1.2134413937687574,-0.2202432315892585,-0.0075118285948192216,-2.6038483821997875,-0.10888392708698907,2.4681821257803174,0.826474908251239,0.0012605454330015084,0.003557689966883157,-0.0006512278405967139,3.997662180896113e-05,0.00022924546105032394,-0.00019105245700117753,-0.0014272584102816347,0.0,0.0,0.0,0.0,0.0,0.0,0.0,-4.101421522340054e-05,0.00020396481069792638,2.662364791110143e-06,-8.651928323155644e-05,-9.120664123264677e-05,-4.386583764670604e-05,7.062803414337182e-07,-0.0012605454330015084,-0.003557689966883157,0.0006512278405967139,-3.997662180896113e-05,-0.00022924546105032394,0.00019105245700117753,0.0014272584102816347,0.4267818331718445,19.745019912719727,0.3475005328655243,-20.007356643676758,-0.6420798897743225,-2.4758944511413574,0.23471395671367645,0
32,0.1548163890838623,-0.4267818331718445,-19.745019912719727,-0.3475005328655243,20.007356643676758,0.6420798897743225,2.4758944511413574,-0.23471395671367645,0.0,0.0,0.0,0.0,0.0,0.0,0.0,-0.35221685342454934,-0.03514952786421104,-0.17186688105286224,0.24404806444749771,0.05690521540767664,0.09861972273294495,-0.274252192248143,1.2134824079839808,-0.2204471963999564,-0.007514490959610332,-2.603761862916556,-0.10879272044575643,2.468225991617964,0.8264742019708976,1.2134413937687574,-0.2202432315892585,-0.0075118285948192216,-2.6038483821997875,-0.10888392708698907,2.4681821257803174,0.826474908251239,0.0012605454330015084,0.003557689966883157,-0.0006512278405967139,3.997662180896113e-05,0.00022924546105032394,-0.00019105245700117753,-0.0014272584102816347,0.0,0.0,0.0,0.0,0.0,0.0,0.0,-4.101421522340054e-05,0.00020396481069792638,2.662364791110143e-06,-8.651928323155644e-05,-9.120664123264677e-05,-4.386583764670604e-05,7.062803414337182e-07,-0.0012605454330015084,-0.003557689966883157,0.0006512278405967139,-3.997662180896113e-05,-0.00022924546105032394,0.00019105245700117753,0.0014272584102816347,0.4267818331718445,19.745019912719727,0.3475005328655243,-20.007356643676758,-0.6420798897743225,-2.4758944511413574,0.23471395671367645,0
33,0.1598372459411621,-0.3236324191093445,-19.669641494750977,-0.3713042438030243,20.054964065551758,0.6356711983680725,2.4630770683288574,-0.30337852239608765,0.0,0.0,0.0,0.0,0.0,0.0,0.0,-0.35443382608583857,-0.025351511230443376,-0.1707350480111027,0.23959192053973433,0.05720501811428733,0.09833061691660801,-0.274325080870739,1.213475169428608,-0.22045248611349808,-0.007512820523755069,-2.6037665813217226,-0.1087915218011007,2.468226356135474,0.8264849710356158,1.2134413937687574,-0.2202432315892585,-0.0075118285948192216,-2.6038483821997875,-0.10888392708698907,2.4681821257803174,0.826474908251239,-0.0008995929875842047,-0.0012079948622952805,-0.00030903120659666456,-0.0005460054449849321,0.0002602392262914758,0.00026477532822663475,0.0013236135233547423,0.0,0.0,0.0,0.0,0.0,0.0,0.0,-3.377565985052122e-05,0.00020925452423958824,9.919289358471806e-07,-8.180087806497482e-05,-9.240528588837227e-05,-4.4230355156660295e-05,-1.0062784376763112e-05,0.0008995929875842047,0.0012079948622952805,0.00030903120659666456,0.0005460054449849321,-0.0002602392262914758,-0.00026477532822663475,-0.0013236135233547423,0.3236324191093445,19.669641494750977,0.3713042438030243,-20.054964065551758,-0.6356711983680725,-2.4630770683288574,0.30337852239608765,0
34,0.16483545303344727,-0.3236324191093445,-19.669641494750977,-0.3713042438030243,20.054964065551758,0.6356711983680725,2.4630770683288574,-0.30337852239608765,0.0,0.0,0.0,0.0,0.0,0.0,0.0,-0.35443382608583857,-0.025351511230443376,-0.1707350480111027,0.23959192053973433,0.05720501811428733,0.09833061691660801,-0.274325080870739,1.213475169428608,-0.22045248611349808,-0.007512820523755069,-2.6037665813217226,-0.1087915218011007,2.468226356135474,0.8264849710356158,1.2134413937687574,-0.2202432315892585,-0.0075118285948192216,-2.6038483821997875,-0.10888392708698907,2.4681821257803174,0.826474908251239,-0.0008995929875842047,-0.0012079948622952805,-0.00030903120659666456,-0.0005460054449849321,0.0002602392262914758,0.00026477532822663475,0.0013236135233547423,0.0,0.0,0.0,0.0,0.0,0.0,0.0,-3.377565985052122e-05,0.00020925452423958824,9.919289358471806e-07,-8.180087806497482e-05,-9.240528588837227e-05,-4.4230355156660295e-05,-1.0062784376763112e-05,0.0008995929875842047,0.0012079948622952805,0.00030903120659666456,0.0005460054449849321,-0.0002602392262914758,-0.00026477532822663475,-0.0013236135233547423,0.3236324191093445,19.669641494750977,0.3713042438030243,-20.054964065551758,-0.6356711983680725,-2.4630770683288574,0.30337852239608765,0
35,0.16982221603393555,-0.3752071261405945,-19.768823623657227,-0.3713042438030243,20.007356643676758,0.6420798897743225,2.4694857597351074,-0.32352012395858765,0.0,0.0,0.0,0.0,0.0,0.0,0.0,-0.3531176086888548,0.0123404891453515,-0.1726388961933326,0.22321272454972402,0.05699101068131634,0.09556613923542281,-0.2740656563622975,1.2134787887062943,-0.22044552596410116,-0.007512820523755069,-2.6037611741634366,-0.10879223338763196,2.468226703690799,0.8264826434077458,1.2134413937687574,-0.2202432315892585,-0.0075118285948192216,-2.6038483821997875,-0.10888392708698907,2.4681821257803174,0.826474908251239,0.0007405589945236155,0.0012232353071735778,-0.00021331505578756166,-1.831012967088995e-07,4.6284661952874045e-05,-3.7683881179318148e-06,0.001981686419935355,0.0,0.0,0.0,0.0,0.0,0.0,0.0,-3.739493753696088e-05,0.00020229437484267643,9.919289358471806e-07,-8.720803635098306e-05,-9.169369935711769e-05,-4.457791048162463e-05,-7.73515650676071e-06,-0.0007405589945236155,-0.0012232353071735778,0.00021331505578756166,1.831012967088995e-07,-4.6284661952874045e-05,3.7683881179318148e-06,-0.001981686419935355,0.3752071261405945,19.768823623657227,0.3713042438030243,-20.007356643676758,-0.6420798897743225,-2.4694857597351074,0.32352012395858765,0
36,0.1748342514038086,-0.3752071261405945,-19.768823623657227,-0.3713042438030243,20.007356643676758,0.6420798897743225,2.4694857597351074,-0.32352012395858765,0.0,0.0,0.0,0.0,0.0,0.0,0.0,-0.3531176086888548,0.0123404891453515,-0.1726388961933326,0.22321272454972402,0.05699101068131634,0.09556613923542281,-0.2740656563622975,1.2134787887062943,-0.22044552596410116,-0.007512820523755069,-2.6037611741634366,-0.10879223338763196,2.468226703690799,0.8264826434077458,1.2134413937687574,-0.2202432315892585,-0.0075118285948192216,-2.6038483821997875,-0.10888392708698907,2.4681821257803174,0.826474908251239,0.0007405589945236155,0.0012232353071735778,-0.00021331505578756166,-1.831012967088995e-07,4.6284661952874045e-05,-3.7683881179318148e-06,0.001981686419935355,0.0,0.0,0.0,0.0,0.0,0.0,0.0,-3.739493753696088e-05,0.00020229437484267643,9.919289358471806e-07,-8.720803635098306e-05,-9.169369935711769e-05,-4.457791048162463e-05,-7.73515650676071e-06,-0.0007405589945236155,-0.0012232353071735778,0.00021331505578756166,1.831012967088995e-07,-4.6284661952874045e-05,3.7683881179318148e-06,-0.001981686419935355,0.3752071261405945,19.768823623657227,0.3713042438030243,-20.007356643676758,-0.6420798897743225,-2.4694857597351074,0.32352012395858765,0
37,0.1798229217529297,-0.3514034152030945,-19.745019912719727,-0.3713042438030243,19.955781936645508,0.6356711983680725,2.4694857597351074,-0.28232139348983765,0.0,0.0,0.0,0.0,0.0,0.0,0.0,-0.3546569224742529,0.01883741739452922,-0.1774037266659376,0.22112696728781164,0.05719522119182388,0.09502794816743645,-0.2734009712215847,1.213477118270439,-0.2204471963999564,-0.007512820523755069,-2.6037575548740857,-0.10879153886242549,2.4682267036967804,0.826482665747266,1.2134413937687574,-0.2202432315892585,-0.0075118285948192216,-2.6038483821997875,-0.10888392708698907,2.4681821257803174,0.826474908251239,-0.00010590501688572265,0.0004646993318051995,-0.0004880983081637504,0.0007403534382786513,0.0003345010796966544,7.192906374625255e-05,0.00047287269786653745,0.0,0.0,0.0,0.0,0.0,0.0,0.0,-3.5724501681544396e-05,0.00020396481069792638,9.919289358471806e-07,-9.082732570186991e-05,-9.238822456358875e-05,-4.4577916463062195e-05,-7.757496026994382e-06,0.00010590501688572265,-0.0004646993318051995,0.0004880983081637504,-0.0007403534382786513,-0.0003345010796966544,-7.192906374625255e-05,-0.00047287269786653745,0.3514034152030945,19.745019912719727,0.3713042438030243,-19.955781936645508,-0.6356711983680725,-2.4694857597351074,0.28232139348983765,0
38,0.18483495712280273,-0.3514034152030945,-19.745019912719727,-0.3713042438030243,19.955781936645508,0.6356711983680725,2.4694857597351074,-0.28232139348983765,0.0,0.0,0.0,0.0,0.0,0.0,0.0,-0.3546569224742529,0.01883741739452922,-0.1774037266659376,0.22112696728781164,0.05719522119182388,0.09502794816743645,-0.2734009712215847,1.213477118270439,-0.2204471963999564,-0.007512820523755069,-2.6037575548740857,-0.10879153886242549,2.4682267036967804,0.826482665747266,1.2134413937687574,-0.2202432315892585,-0.0075118285948192216,-2.6038483821997875,-0.10888392708698907,2.4681821257803174,0.826474908251239,-0.00010590501688572265,0.0004646993318051995,-0.0004880983081637504,0.0007403534382786513,0.0003345010796966544,7.192906374625255e-05,0.00047287269786653745,0.0,0.0,0.0,0.0,0.0,0.0,0.0,-3.5724501681544396e-05,0.00020396481069792638,9.919289358471806e-07,-9.082732570186991e-05,-9.238822456358875e-05,-4.4577916463062195e-05,-7.757496026994382e-06,0.00010590501688572265,-0.0004646993318051995,0.0004880983081637504,-0.0007403534382786513,-0.0003345010796966544,-7.192906374625255e-05,-0.00047287269786653745,0.3514034152030945,19.745019912719727,0.3713042438030243,-19.955781936645508,-0.6356711983680725,-2.4694857597351074,0.28232139348983765,0
39,0.18982195854187012,-0.3236324191093445,-19.745019912719727,-0.3475005328655243,20.031160354614258,0.6475730538368225,2.4694857597351074,-0.29605430364608765,0.0,0.0,0.0,0.0,0.0,0.0,0.0,-0.34772954313514354,0.011168932621763956,-0.1739420014512497,0.22639001305530945,0.057187402003671964,0.09604681225333213,-0.2733398870820382,1.213475169428608,-0.2204471963999564,-0.007513780774407045,-2.603762844587627,-0.10879391000015842,2.468226662997374,0.826483843284597,1.2134413937687574,-0.2202432315892585,-0.0075118285948192216,-2.6038483821997875,-0.10888392708698907,2.4681821257803174,0.826474908251239,-0.0002655770103191428,-4.8377903690530286e-05,-0.0005076874048394995,-0.0006683928567562289,-0.00029938949059008906,-4.725603205247486e-05,0.0009032995803431326,0.0,0.0,0.0,0.0,0.0,0.0,0.0,-3.377565985052122e-05,0.00020396481069792638,1.9521795878232884e-06,-8.553761216045785e-05,-9.001708683065157e-05,-4.453721705655056e-05,-8.935033357970745e-06,0.0002655770103191428,4.8377903690530286e-05,0.0005076874048394995,0.0006683928567562289,0.00029938949059008906,4.725603205247486e-05,-0.0009032995803431326,0.3236324191093445,19.745019912719727,0.3475005328655243,-20.031160354614258,-0.6475730538368225,-2.4694857597351074,0.29605430364608765,0
40,0.1948394775390625,-0.3236324191093445,-19.745019912719727,-0.3475005328655243,20.031160354614258,0.6475730538368225,2.4694857597351074,-0.29605430364608765,0.0,0.0,0.0,0.0,0.0,0.0,0.0,-0.34772954313514354,0.011168932621763956,-0.1739420014512497,0.22639001305530945,0.057187402003671964,0.09604681225333213,-0.2733398870820382,1.213475169428608,-0.2204471963999564,-0.007513780774407045,-2.603762844587627,-0.10879391000015842,2.468226662997374,0.826483843284597,1.2134413937687574,-0.2202432315892585,-0.0075118285948192216,-2.6038483821997875,-0.10888392708698907,2.4681821257803174,0.826474908251239,-0.0002655770103191428,-4.8377903690530286e-05,-0.0005076874048394995,-0.0006683928567562289,-0.00029938949059008906,-4.725603205247486e-05,0.0009032995803431326,0.0,0.0,0.0,0.0,0.0,0.0,0.0,-3.377565985052122e-05,0.00020396481069792638,1.9521795878232884e-06,-8.553761216045785e-05,-9.001708683065157e-05,-4.453721705655056e-05,-8.935033357970745e-06,0.0002655770103191428,4.8377903690530286e-05,0.0005076874048394995,0.0006683928567562289,0.00029938949059008906,4.725603205247486e-05,-0.0009032995803431326,0.3236324191093445,19.745019912719727,0.3475005328655243,-20.031160354614258,-0.6475730538368225,-2.4694857597351074,0.29605430364608765,0
41,0.19982242584228516,-0.3236324191093445,-19.768823623657227,-0.3713042438030243,20.007356643676758,0.6356711983680725,2.4694857597351074,-0.29605430364608765,0.0,0.0,0.0,0.0,0.0,0.0,0.0,-0.3428338659808625,0.0087592691354333,-0.1718509405266002,0.22512307744169982,0.05696037468704226,0.09568747406168418,-0.27338578365173,1.213475169428608,-0.22044552596410116,-0.0075128205197460525,-2.6037612509961283,-0.10879187819974949,2.468226703696551,0.8264831324965604,1.2134413937687574,-0.2202432315892585,-0.0075118285948192216,-2.6038483821997875,-0.10888392708698907,2.4681821257803174,0.826474908251239,2.6691781784050055e-06,0.00031446081912791716,0.0004159852837011074,0.00022167744819954804,0.00033365904562924575,6.622883722924011e-05,0.0007108928138143627,0.0,0.0,0.0,0.0,0.0,0.0,0.0,-3.377565985052122e-05,0.00020229437484267643,9.919249268309713e-07,-8.713120365921867e-05,-9.204888723958471e-05,-4.4577916233468073e-05,-8.224245321319934e-06,-2.6691781784050055e-06,-0.00031446081912791716,-0.0004159852837011074,-0.00022167744819954804,-0.00033365904562924575,-6.622883722924011e-05,-0.0007108928138143627,0.3236324191093445,19.768823623657227,0.3713042438030243,-20.007356643676758,-0.6356711983680725,-2.4694857597351074,0.29605430364608765,0
42,0.204833984375,-0.3236324191093445,-19.768823623657227,-0.3713042438030243,20.007356643676758,0.6356711983680725,2.4694857597351074,-0.29605430364608765,0.0,0.0,0.0,0.0,0.0,0.0,0.0,-0.3428338659808625,0.0087592691354333,-0.1718509405266002,0.22512307744169982,0.05696037468704226,0.09568747406168418,-0.27338578365173,1.213475169428608,-0.22044552596410116,-0.0075128205197460525,-2.6037612509961283,-0.10879187819974949,2.468226703696551,0.8264831324965604,1.2134413937687574,-0.2202432315892585,-0.0075118285948192216,-2.6038483821997875,-0.10888392708698907,2.4681821257803174,0.826474908251239,2.6691781784050055e-06,0.00031446081912791716,0.0004159852837011074,0.00022167744819954804,0.00033365904562924575,6.622883722924011e-05,0.0007108928138143627,0.0,0.0,0.0,0.0,0.0,0.0,0.0,-3.377565985052122e-05,0.00020229437484267643,9.919249268309713e-07,-8.713120365921867e-05,-9.204888723958471e-05,-4.4577916233468073e-05,-8.224245321319934e-06,-2.6691781784050055e-06,-0.00031446081912791716,-0.0004159852837011074,-0.00022167744819954804,-0.00033365904562924575,-6.622883722924011e-05,-0.0007108928138143627,0.3236324191093445,19.768823623657227,0.3713042438030243,-20.007356643676758,-0.6356711983680725,-2.4694857597351074,0.29605430364608765,0
43,0.2098221778869629,-0.3236324191093445,-19.768823623657227,-0.3713042438030243,20.007356643676758,0.6356711983680725,2.4694857597351074,-0.29605430364608765,0.0,0.0,0.0,0.0,0.0,0.0,0.0,-0.3428338659808625,0.0087592691354333,-0.1718509405266002,0.22512307744169982,0.05696037468704226,0.09568747406168418,-0.27338578365173,1.213475169428608,-0.22044552596410116,-0.0075128205197460525,-2.6037612509961283,-0.10879187819974949,2.468226703696551,0.8264831324965604,1.2134413937687574,-0.2202432315892585,-0.0075118285948192216,-2.6038483821997875,-0.10888392708698907,2.4681821257803174,0.826474908251239,2.6691781784050055e-06,0.00031446081912791716,0.0004159852837011074,0.00022167744819954804,0.00033365904562924575,6.622883722924011e-05,0.0007108928138143627,0.0,0.0,0.0,0.0,0.0,0.0,0.0,-3.377565985052122e-05,0.00020229437484267643,9.919249268309713e-07,-8.713120365921867e-05,-9.204888723958471e-05,-4.4577916233468073e-05,-8.224245321319934e-06,-2.6691781784050055e-06,-0.00031446081912791716,-0.0004159852837011074,-0.00022167744819954804,-0.00033365904562924575,-6.622883722924011e-05,-0.0007108928138143627,0.3236324191093445,19.768823623657227,0.3713042438030243,-20.007356643676758,-0.6356711983680725,-2.4694857597351074,0.29605430364608765,0
44,0.21483635902404785,-0.3236324191093445,-19.768823623657227,-0.3713042438030243,20.007356643676758,0.6356711983680725,2.4694857597351074,-0.29605430364608765,0.0,0.0,0.0,0.0,0.0,0.0,0.0,-0.3428338659808625,0.0087592691354333,-0.1718509405266002,0.22512307744169982,0.05696037468704226,0.09568747406168418,-0.27338578365173,1.213475169428608,-0.22044552596410116,-0.0075128205197460525,-2.6037612509961283,-0.10879187819974949,2.468226703696551,0.8264831324965604,1.2134413937687574,-0.2202432315892585,-0.0075118285948192216,-2.6038483821997875,-0.10888392708698907,2.4681821257803174,0.826474908251239,2.6691781784050055e-06,0.00031446081912791716,0.0004159852837011074,0.00022167744819954804,0.00033365904562924575,6.622883722924011e-05,0.0007108928138143627,0.0,0.0,0.0,0.0,0.0,0.0,0.0,-3.377565985052122e-05,0.00020229437484267643,9.919249268309713e-07,-8.713120365921867e-05,-9.204888723958471e-05,-4.4577916233468073e-05,-8.224245321319934e-06,-2.6691781784050055e-06,-0.00031446081912791716,-0.0004159852837011074,-0.00022167744819954804,-0.00033365904562924575,-6.622883722924011e-05,-0.0007108928138143627,0.3236324191093445,19.768823623657227,0.3713042438030243,-20.007356643676758,-0.6356711983680725,-2.4694857597351074,0.29605430364608765,0
45,0.21982574462890625,-0.3752071261405945,-19.792627334594727,-0.3713042438030243,19.983552932739258,0.6420798897743225,2.4566683769226074,-0.22098104655742645,0.0,0.0,0.0,0.0,0.0,0.0,0.0,-0.3495372019149425,0.003320469467025215,-0.17778587183341066,0.22131030413528516,0.05718100820618723,0.09534575261917272,-0.2740915627355494,1.2134787887062943,-0.22044385552824589,-0.007512820523755046,-2.603759530170965,-0.10879223485227878,2.468228127850426,0.8264758544799662,1.2134413937687574,-0.2202432315892585,-0.0075118285948192216,-2.6038483821997875,-0.10888392708698907,2.4681821257803174,0.826474908251239,-0.00023239609872899108,0.0006406089878307422,0.00021344985573886458,0.00023522080120363638,-4.7539523575813523e-05,0.0006458611777624401,-0.0022961457368936905,0.0,0.0,0.0,0.0,0.0,0.0,0.0,-3.739493753696088e-05,0.00020062393898739872,9.919289358246292e-07,-8.885202882247256e-05,-9.16922347102972e-05,-4.600207010874158e-05,-9.462287271500003e-07,0.00023239609872899108,-0.0006406089878307422,-0.00021344985573886458,-0.00023522080120363638,4.7539523575813523e-05,-0.0006458611777624401,0.0022961457368936905,0.3752071261405945,19.792627334594727,0.3713042438030243,-19.983552932739258,-0.6420798897743225,-2.4566683769226074,0.22098104655742645,0
46,0.2248363494873047,-0.3752071261405945,-19.792627334594727,-0.3713042438030243,19.983552932739258,0.6420798897743225,2.4566683769226074,-0.22098104655742645,0.0,0.0,0.0,0.0,0.0,0.0,0.0,-0.3495372019149425,0.003320469467025215,-0.17778587183341066,0.22131030413528516,0.05718100820618723,0.09534575261917272,-0.2740915627355494,1.2134787887062943,-0.22044385552824589,-0.007512820523755046,-2.603759530170965,-0.10879223485227878,2.468228127850426,0.8264758544799662,1.2134413937687574,-0.2202432315892585,-0.0075118285948192216,-2.6038483821997875,-0.10888392708698907,2.4681821257803174,0.826474908251239,-0.00023239609872899108,0.0006406089878307422,0.00021344985573886458,0.00023522080120363638,-4.7539523575813523e-05,0.0006458611777624401,-0.0022961457368936905,0.0,0.0,0.0,0.0,0.0,0.0,0.0,-3.739493753696088e-05,0.00020062393898739872,9.919289358246292e-07,-8.885202882247256e-05,-9.16922347102972e-05,-4.600207010874158e-05,-9.462287271500003e-07,0.00023239609872899108,-0.0006406089878307422,-0.00021344985573886458,-0.00023522080120363638,4.7539523575813523e-05,-0.0006458611777624401,0.0022961457368936905,0.3752071261405945,19.792627334594727,0.3713042438030243,-19.983552932739258,-0.6420798897743225,-2.4566683769226074,0.22098104655742645,0
47,0.2298264503479004,-0.3236324191093445,-19.745019912719727,-0.3713042438030243,20.007356643676758,0.6475730538368225,2.4630770683288574,-0.24844686686992645,0.0,0.0,0.0,0.0,0.0,0.0,0.0,-0.34680527143768497,0.0013456857180713436,-0.16958542533357737,0.21842400140805437,0.05684443280325882,0.0951098033908883,-0.2740195572683236,1.213475169428608,-0.2204471963999564,-0.00751282041551163,-2.6037611741519213,-0.1087928832303432,2.4682274114129528,0.8264789067821338,1.2134413937687574,-0.2202432315892585,-0.0075118285948192216,-2.6038483821997875,-0.10888392708698907,2.4681821257803174,0.826474908251239,-0.0007069581281436351,-7.474509788327016e-05,-9.045216466104396e-05,-0.00036691382235993537,-5.2784387020748384e-05,2.185961726216538e-05,-0.0010553956337022508,0.0,0.0,0.0,0.0,0.0,0.0,0.0,-3.377565985052122e-05,0.00020396481069792638,9.918206924086626e-07,-8.720804786621628e-05,-9.104385664587822e-05,-4.5285632635394535e-05,-3.99853089472213e-06,0.0007069581281436351,7.474509788327016e-05,9.045216466104396e-05,0.00036691382235993537,5.2784387020748384e-05,-2.185961726216538e-05,0.0010553956337022508,0.3236324191093445,19.745019912719727,0.3713042438030243,-20.007356643676758,-0.6475730538368225,-2.4630770683288574,0.24844686686992645,0
48,0.23483777046203613,-0.3236324191093445,-19.745019912719727,-0.3713042438030243,20.007356643676758,0.6475730538368225,2.4630770683288574,-0.24844686686992645,0.0,0.0,0.0,0.0,0.0,0.0,0.0,-0.34680527143768497,0.0013456857180713436,-0.16958542533357737,0.21842400140805437,0.05684443280325882,0.0951098033908883,-0.2740195572683236,1.213475169428608,-0.2204471963999564,-0.00751282041551163,-2.6037611741519213,-0.1087928832303432,2.4682274114129528,0.8264789067821338,1.2134413937687574,-0.2202432315892585,-0.0075118285948192216,-2.6038483821997875,-0.10888392708698907,2.4681821257803174,0.826474908251239,-0.0007069581281436351,-7.474509788327016e-05,-9.045216466104396e-05,-0.00036691382235993537,-5.2784387020748384e-05,2.185961726216538e-05,-0.0010553956337022508,0.0,0.0,0.0,0.0,0.0,0.0,0.0,-3.377565985052122e-05,0.00020396481069792638,9.918206924086626e-07,-8.720804786621628e-05,-9.104385664587822e-05,-4.5285632635394535e-05,-3.99853089472213e-06,0.0007069581281436351,7.474509788327016e-05,9.045216466104396e-05,0.00036691382235993537,5.2784387020748384e-05,-2.185961726216538e-05,0.0010553956337022508,0.3236324191093445,19.745019912719727,0.3713042438030243,-20.007356643676758,-0.6475730538368225,-2.4630770683288574,0.24844686686992645,0
49,0.2398214340209961,-0.3752071261405945,-19.745019912719727,-0.4228789508342743,19.983552932739258,0.6475730538368225,2.4566683769226074,-0.24844686686992645,0.0,0.0,0.0,0.0,0.0,0.0,0.0,-0.35627220037546264,0.0019074847084213705,-0.1799688463373992,0.21937866396091463,0.05809403205054621,0.09384925926429867,-0.27375348749200545,1.2134787887062943,-0.2204471963999564,-0.007509201246068054,-2.6037595065503396,-0.10879288323055786,2.4682281278504017,0.8264789067821369,1.2134413937687574,-0.2202432315892585,-0.0075118285948192216,-2.6038483821997875,-0.10888392708698907,2.4681821257803174,0.826474908251239,0.00031456321881740546,0.0007719420264315249,0.000679063742596272,0.0003753773259100693,1.1664636212336325e-06,0.0002975131479938319,-0.001245948919982818,0.0,0.0,0.0,0.0,0.0,0.0,0.0,-3.739493753696088e-05,0.00020396481069792638,-2.6273487511675395e-06,-8.887564944792814e-05,-9.10438564312166e-05,-4.600207008431667e-05,-3.998530897830754e-06,-0.00031456321881740546,-0.0007719420264315249,-0.000679063742596272,-0.0003753773259100693,-1.1664636212336325e-06,-0.0002975131479938319,0.001245948919982818,0.3752071261405945,19.745019912719727,0.4228789508342743,-19.983552932739258,-0.6475730538368225,-2.4566683769226074,0.24844686686992645,0
50,0.24483513832092285,-0.3752071261405945,-19.745019912719727,-0.4228789508342743,19.983552932739258,0.6475730538368225,2.4566683769226074,-0.24844686686992645,0.0,0.0,0.0,0.0,0.0,0.0,0.0,-0.35627220037546264,0.0019074847084213705,-0.1799688463373992,0.21937866396091463,0.05809403205054621,0.09384925926429867,-0.27375348749200545,1.2134787887062943,-0.2204471963999564,-0.007509201246068054,-2.6037595065503396,-0.10879288323055786,2.4682281278504017,0.8264789067821369,1.2134413937687574,-0.2202432315892585,-0.0075118285948192216,-2.6038483821997875,-0.10888392708698907,2.4681821257803174,0.826474908251239,0.00031456321881740546,0.0007719420264315249,0.000679063742596272,0.0003753773259100693,1.1664636212336325e-06,0.0002975131479938319,-0.001245948919982818,0.0,0.0,0.0,0.0,0.0,0.0,0.0,-3.739493753696088e-05,0.00020396481069792638,-2.6273487511675395e-06,-8.887564944792814e-05,-9.10438564312166e-05,-4.600207008431667e-05,-3.998530897830754e-06,-0.00031456321881740546,-0.0007719420264315249,-0.000679063742596272,-0.0003753773259100693,-1.1664636212336325e-06,-0.0002975131479938319,0.001245948919982818,0.3752071261405945,19.745019912719727,0.4228789508342743,-19.983552932739258,-0.6475730538368225,-2.4566683769226074,0.24844686686992645,0
51,0.24981474876403809,-0.3752071261405945,-19.745019912719727,-0.3990752398967743,20.007356643676758,0.6420798897743225,2.4694857597351074,-0.27591270208358765,0.0,0.0,0.0,0.0,0.0,0.0,0.0,-0.3519986318216483,-0.0022835120904995112,-0.17842493198745152,0.22598984527104177,0.058984102174937915,0.09444729783972411,-0.2737127587898022,1.2134787887062943,-0.2204471963999564,-0.0075108453787682515,-2.603761176986211,-0.10879223387539709,2.4682267036967804,0.8264819192957484,1.2134413937687574,-0.2202432315892585,-0.0075118285948192216,-2.6038483821997875,-0.10888392708698907,2.4681821257803174,0.826474908251239,0.0002844896441108003,0.0005628021932677275,0.00019007883536157933,0.00032530334464009797,-3.686778583901815e-05,1.621414458229908e-05,0.0005788858872279086,0.0,0.0,0.0,0.0,0.0,0.0,0.0,-3.739493753696088e-05,0.00020396481069792638,-9.832160509700566e-07,-8.720521357652444e-05,-9.169321159198385e-05,-4.4577916463062195e-05,-7.0110445093973794e-06,-0.0002844896441108003,-0.0005628021932677275,-0.00019007883536157933,-0.00032530334464009797,3.686778583901815e-05,-1.621414458229908e-05,-0.0005788858872279086,0.3752071261405945,19.745019912719727,0.3990752398967743,-20.007356643676758,-0.6420798897743225,-2.4694857597351074,0.27591270208358765,0
52,0.2548196315765381,-0.3752071261405945,-19.745019912719727,-0.3990752398967743,20.007356643676758,0.6420798897743225,2.4694857597351074,-0.27591270208358765,0.0,0.0,0.0,0.0,0.0,0.0,0.0,-0.3519986318216483,-0.0022835120904995112,-0.17842493198745152,0.22598984527104177,0.058984102174937915,0.09444729783972411,-0.2737127587898022,1.2134787887062943,-0.2204471963999564,-0.0075108453787682515,-2.603761176986211,-0.10879223387539709,2.4682267036967804,0.8264819192957484,1.2134413937687574,-0.2202432315892585,-0.0075118285948192216,-2.6038483821997875,-0.10888392708698907,2.4681821257803174,0.826474908251239,0.0002844896441108003,0.0005628021932677275,0.00019007883536157933,0.00032530334464009797,-3.686778583901815e-05,1.621414458229908e-05,0.0005788858872279086,0.0,0.0,0.0,0.0,0.0,0.0,0.0,-3.739493753696088e-05,0.00020396481069792638,-9.832160509700566e-07,-8.720521357652444e-05,-9.169321159198385e-05,-4.4577916463062195e-05,-7.0110445093973794e-06,-0.0002844896441108003,-0.0005628021932677275,-0.00019007883536157933,-0.00032530334464009797,3.686778583901815e-05,-1.621414458229908e-05,-0.0005788858872279086,0.3752071261405945,19.745019912719727,0.3990752398967743,-20.007356643676758,-0.6420798897743225,-2.4694857597351074,0.27591270208358765,0
53,0.25982165336608887,-0.3752071261405945,-19.717248916625977,-0.3990752398967743,20.007356643676758,0.6420798897743225,2.4758944511413574,-0.30978721380233765,0.0,0.0,0.0,0.0,0.0,0.0,0.0,-0.3538043277178922,0.0023755664797673066,-0.18241907571459182,0.22487504779698686,0.058880270272663064,0.09413109382845575,-0.27183760672911084,1.2134787887062943,-0.22044914524178755,-0.007510871573532008,-2.6037620925048333,-0.10879223831725339,2.4682259916199576,0.8264814838235017,1.2134413937687574,-0.2202432315892585,-0.0075118285948192216,-2.6038483821997875,-0.10888392708698907,2.4681821257803174,0.826474908251239,0.0005979170191994792,-0.0003955285283030482,0.00011251823252720029,-0.00011651446586201666,-0.00011238448335593922,-0.0004915538361347358,0.0012024374366098526,0.0,0.0,0.0,0.0,0.0,0.0,0.0,-3.739493753696088e-05,0.00020591365252906058,-9.570212872135261e-07,-8.628969495427796e-05,-9.16887697356844e-05,-4.3865839640222504e-05,-6.5755722626903435e-06,-0.0005979170191994792,0.0003955285283030482,-0.00011251823252720029,0.00011651446586201666,0.00011238448335593922,0.0004915538361347358,-0.0012024374366098526,0.3752071261405945,19.717248916625977,0.3990752398967743,-20.007356643676758,-0.6420798897743225,-2.4758944511413574,0.30978721380233765,0
54,0.2648196220397949,-0.3752071261405945,-19.717248916625977,-0.3990752398967743,20.007356643676758,0.6420798897743225,2.4758944511413574,-0.30978721380233765,0.0,0.0,0.0,0.0,0.0,0.0,0.0,-0.3538043277178922,0.0023755664797673066,-0.18241907571459182,0.22487504779698686,0.058880270272663064,0.09413109382845575,-0.27183760672911084,1.2134787887062943,-0.22044914524178755,-0.007510871573532008,-2.6037620925048333,-0.10879223831725339,2.4682259916199576,0.8264814838235017,1.2134413937687574,-0.2202432315892585,-0.0075118285948192216,-2.6038483821997875,-0.10888392708698907,2.4681821257803174,0.826474908251239,0.0005979170191994792,-0.0003955285283030482,0.00011251823252720029,-0.00011651446586201666,-0.00011238448335593922,-0.0004915538361347358,0.0012024374366098526,0.0,0.0,0.0,0.0,0.0,0.0,0.0,-3.739493753696088e-05,0.00020591365252906058,-9.570212872135261e-07,-8.628969495427796e-05,-9.16887697356844e-05,-4.3865839640222504e-05,-6.5755722626903435e-06,-0.0005979170191994792,0.0003955285283030482,-0.00011251823252720029,0.00011651446586201666,0.00011238448335593922,0.0004915538361347358,-0.0012024374366098526,0.3752071261405945,19.717248916625977,0.3990752398967743,-20.007356643676758,-0.6420798897743225,-2.4758944511413574,0.30978721380233765,0
55,0.269819974899292,-0.3514034152030945,-19.768823623657227,-0.3713042438030243,20.007356643676758,0.6301780343055725,2.4694857597351074,-0.29605430364608765,0.0,0.0,0.0,0.0,0.0,0.0,0.0,-0.3552550450976229,-0.002566955504494498,-0.18542288761769027,0.2289122867841268,0.05857617923710787,0.09462309357422108,-0.27117132376469344,1.213477118270439,-0.22044552596410116,-0.007512820523754457,-2.6037611741569564,-0.10879091101344326,2.4682267036967804,0.8264841950198573,1.2134413937687574,-0.2202432315892585,-0.0075118285948192216,-2.6038483821997875,-0.10888392708698907,2.4681821257803174,0.826474908251239,-6.91518161253632e-05,0.00038850263453900114,-0.00024279219177956524,0.00035203888570371886,0.0007101521940462557,-0.0001071801500169338,0.0011433691981440285,0.0,0.0,0.0,0.0,0.0,0.0,0.0,-3.5724501681544396e-05,0.00020229437484267643,9.919289352356905e-07,-8.720804283113281e-05,-9.301607354580965e-05,-4.4577916463062195e-05,-9.286768618221863e-06,6.91518161253632e-05,-0.00038850263453900114,0.00024279219177956524,-0.00035203888570371886,-0.0007101521940462557,0.0001071801500169338,-0.0011433691981440285,0.3514034152030945,19.768823623657227,0.3713042438030243,-20.007356643676758,-0.6301780343055725,-2.4694857597351074,0.29605430364608765,0
56,0.27481985092163086,-0.3514034152030945,-19.768823623657227,-0.3713042438030243,20.007356643676758,0.6301780343055725,2.4694857597351074,-0.29605430364608765,0.0,0.0,0.0,0.0,0.0,0.0,0.0,-0.3552550450976229,-0.002566955504494498,-0.18542288761769027,0.2289122867841268,0.05857617923710787,0.09462309357422108,-0.27117132376469344,1.213477118270439,-0.22044552596410116,-0.007512820523754457,-2.6037611741569564,-0.10879091101344326,2.4682267036967804,0.8264841950198573,1.2134413937687574,-0.2202432315892585,-0.0075118285948192216,-2.6038483821997875,-0.10888392708698907,2.4681821257803174,0.826474908251239,-6.91518161253632e-05,0.00038850263453900114,-0.00024279219177956524,0.00035203888570371886,0.0007101521940462557,-0.0001071801500169338,0.0011433691981440285,0.0,0.0,0.0,0.0,0.0,0.0,0.0,-3.5724501681544396e-05,0.00020229437484267643,9.919289352356905e-07,-8.720804283113281e-05,-9.301607354580965e-05,-4.4577916463062195e-05,-9.286768618221863e-06,6.91518161253632e-05,-0.00038850263453900114,0.00024279219177956524,-0.00035203888570371886,-0.0007101521940462557,0.0001071801500169338,-0.0011433691981440285,0.3514034152030945,19.768823623657227,0.3713042438030243,-20.007356643676758,-0.6301780343055725,-2.4694857597351074,0.29605430364608765,0
57,0.27982521057128906,-0.4029781222343445,-19.745019912719727,-0.3713042438030243,19.983552932739258,0.6356711983680725,2.4694857597351074,-0.30337852239608765,0.0,0.0,0.0,0.0,0.0,0.0,0.0,-0.3533947910598758,-0.0034467193469913007,-0.18334350103522165,0.22732432331058067,0.058301934403998994,0.09404130657993173,-0.27187515130231626,1.2134807375481254,-0.2204471963999564,-0.007512820523755069,-2.603761570430183,-0.10879152569871138,2.468226703212264,0.826485008845859,1.2134413937687574,-0.2202432315892585,-0.0075118285948192216,-2.6038483821997875,-0.10888392708698907,2.4681821257803174,0.826474908251239,0.0011421459635635061,-0.00040591557482250635,0.0001579279037641027,0.0006706996924912651,0.0001813021488651872,-0.00011119785510406662,0.0013713471368615045,0.0,0.0,0.0,0.0,0.0,0.0,0.0,-3.9343779367984055e-05,0.00020396481069792638,9.919289358471806e-07,-8.681176960445569e-05,-9.240138827769362e-05,-4.4577431946635215e-05,-1.0100594619921743e-05,-0.0011421459635635061,0.00040591557482250635,-0.0001579279037641027,-0.0006706996924912651,-0.0001813021488651872,0.00011119785510406662,-0.0013713471368615045,0.4029781222343445,19.745019912719727,0.3713042438030243,-19.983552932739258,-0.6356711983680725,-2.4694857597351074,0.30337852239608765,0
58,0.2848198413848877,-0.4029781222343445,-19.745019912719727,-0.3713042438030243,19.983552932739258,0.6356711983680725,2.4694857597351074,-0.30337852239608765,0.0,0.0,0.0,0.0,0.0,0.0,0.0,-0.3533947910598758,-0.0034467193469913007,-0.18334350103522165,0.22732432331058067,0.058301934403998994,0.09404130657993173,-0.27187515130231626,1.2134807375481254,-0.2204471963999564,-0.007512820523755069,-2.603761570430183,-0.10879152569871138,2.468226703212264,0.826485008845859,1.2134413937687574,-0.2202432315892585,-0.0075118285948192216,-2.6038483821997875,-0.10888392708698907,2.4681821257803174,0.826474908251239,0.0011421459635635061,-0.00040591557482250635,0.0001579279037641027,0.0006706996924912651,0.0001813021488651872,-0.00011119785510406662,0.0013713471368615045,0.0,0.0,0.0,0.0,0.0,0.0,0.0,-3.9343779367984055e-05,0.00020396481069792638,9.919289358471806e-07,-8.681176960445569e-05,-9.240138827769362e-05,-4.4577431946635215e-05,-1.0100594619921743e-05,-0.0011421459635635061,0.00040591557482250635,-0.0001579279037641027,-0.0006706996924912651,-0.0001813021488651872,0.00011119785510406662,-0.0013713471368615045,0.4029781222343445,19.745019912719727,0.3713042438030243,-19.983552932739258,-0.6356711983680725,-2.4694857597351074,0.30337852239608765,0
59,0.2898132801055908,-0.3752071261405945,-19.693445205688477,-0.3713042438030243,20.031160354614258,0.6475730538368225,2.4758944511413574,-0.28964561223983765,0.0,0.0,0.0,0.0,0.0,0.0,0.0,-0.34713406898353943,0.00225059243893921,-0.17620502397164212,0.22207834230900628,0.057287998674718364,0.09316274622398055,-0.27268653913603613,1.2134787887062943,-0.22045081567764283,-0.0075106899681452064,-2.6037628446342866,-0.10879323881316391,2.468225991619955,0.8264834800598524,1.2134413937687574,-0.2202432315892585,-0.0075118285948192216,-2.6038483821997875,-0.10888392708698907,2.4681821257803174,0.826474908251239,0.0011659440741409897,-0.0011172338623557018,0.00045748266091428835,-0.0007891182455841846,-0.00023337479527895112,-0.000312104418717006,0.0003826146011888805,0.0,0.0,0.0,0.0,0.0,0.0,0.0,-3.739493753696088e-05,0.00020758408838433828,-1.1386266740151182e-06,-8.553756550089275e-05,-9.068827382516242e-05,-4.386583963755797e-05,-8.571808613355714e-06,-0.0011659440741409897,0.0011172338623557018,-0.00045748266091428835,0.0007891182455841846,0.00023337479527895112,0.000312104418717006,-0.0003826146011888805,0.3752071261405945,19.693445205688477,0.3713042438030243,-20.031160354614258,-0.6475730538368225,-2.4758944511413574,0.28964561223983765,0
60,0.2948172092437744,-0.3752071261405945,-19.693445205688477,-0.3713042438030243,20.031160354614258,0.6475730538368225,2.4758944511413574,-0.28964561223983765,0.0,0.0,0.0,0.0,0.0,0.0,0.0,-0.34713406898353943,0.00225059243893921,-0.17620502397164212,0.22207834230900628,0.057287998674718364,0.09316274622398055,-0.27268653913603613,1.2134787887062943,-0.22045081567764283,-0.0075106899681452064,-2.6037628446342866,-0.10879323881316391,2.468225991619955,0.8264834800598524,1.2134413937687574,-0.2202432315892585,-0.0075118285948192216,-2.6038483821997875,-0.10888392708698907,2.4681821257803174,0.826474908251239,0.0011659440741409897,-0.0011172338623557018,0.00045748266091428835,-0.0007891182455841846,-0.00023337479527895112,-0.000312104418717006,0.0003826146011888805,0.0,0.0,0.0,0.0,0.0,0.0,0.0,-3.739493753696088e-05,0.00020758408838433828,-1.1386266740151182e-06,-8.553756550089275e-05,-9.068827382516242e-05,-4.386583963755797e-05,-8.571808613355714e-06,-0.0011659440741409897,0.0011172338623557018,-0.00045748266091428835,0.0007891182455841846,0.00023337479527895112,0.000312104418717006,-0.0003826146011888805,0.3752071261405945,19.693445205688477,0.3713042438030243,-20.031160354614258,-0.6475730538368225,-2.4758944511413574,0.28964561223983765,0
61,0.2998223304748535,-0.3236324191093445,-19.745019912719727,-0.3990752398967743,20.007356643676758,0.6475730538368225,2.4566683769226074,-0.22098104655742645,0.0,0.0,0.0,0.0,0.0,0.0,0.0,-0.34772712932769206,-0.0051851290986898385,-0.17550237053371284,0.22789694350436193,0.05690756379035767,0.09426818641202464,-0.27349721833666274,1.2134751694649466,-0.2204471963999564,-0.007510871561653441,-2.6037632404461246,-0.10879391000228954,2.4682281273659097,0.8264757372867299,1.2134413937687574,-0.2202432315892585,-0.0075118285948192216,-2.6038483821997875,-0.10888392708698907,2.4681821257803174,0.826474908251239,0.00011851647758989469,-0.0001332671045562622,0.0009751058505858414,0.00014524994055533963,-0.00014707743798230918,0.0004692123407275506,-0.002023751305407834,0.0,0.0,0.0,0.0,0.0,0.0,0.0,-3.377569618923104e-05,0.00020396481069792638,-9.570331657802328e-07,-8.514175366292065e-05,-9.001708469953684e-05,-4.60015855923146e-05,-8.290354908124797e-07,-0.00011851647758989469,0.0001332671045562622,-0.0009751058505858414,-0.00014524994055533963,0.00014707743798230918,-0.0004692123407275506,0.002023751305407834,0.3236324191093445,19.745019912719727,0.3990752398967743,-20.007356643676758,-0.6475730538368225,-2.4566683769226074,0.22098104655742645,0
62,0.3048369884490967,-0.3236324191093445,-19.745019912719727,-0.3990752398967743,20.007356643676758,0.6475730538368225,2.4566683769226074,-0.22098104655742645,0.0,0.0,0.0,0.0,0.0,0.0,0.0,-0.34772712932769206,-0.0051851290986898385,-0.17550237053371284,0.22789694350436193,0.05690756379035767,0.09426818641202464,-0.27349721833666274,1.2134751694649466,-0.2204471963999564,-0.007510871561653441,-2.6037632404461246,-0.10879391000228954,2.4682281273659097,0.8264757372867299,1.2134413937687574,-0.2202432315892585,-0.0075118285948192216,-2.6038483821997875,-0.10888392708698907,2.4681821257803174,0.826474908251239,0.00011851647758989469,-0.0001332671045562622,0.0009751058505858414,0.00014524994055533963,-0.00014707743798230918,0.0004692123407275506,-0.002023751305407834,0.0,0.0,0.0,0.0,0.0,0.0,0.0,-3.377569618923104e-05,0.00020396481069792638,-9.570331657802328e-07,-8.514175366292065e-05,-9.001708469953684e-05,-4.60015855923146e-05,-8.290354908124797e-07,-0.00011851647758989469,0.0001332671045562622,-0.0009751058505858414,-0.00014524994055533963,0.00014707743798230918,-0.0004692123407275506,0.002023751305407834,0.3236324191093445,19.745019912719727,0.3990752398967743,-20.007356643676758,-0.6475730538368225,-2.4566683769226074,0.22098104655742645,0
63,0.3098108768463135,-0.3514034152030945,-19.717248916625977,-0.3475005328655243,20.007356643676758,0.6356711983680725,2.4630770683288574,-0.26217979192733765,0.0,0.0,0.0,0.0,0.0,0.0,0.0,-0.3506390888803506,0.0016097524480434382,-0.18155936059190875,0.22362927884598346,0.05726471321448315,0.09314202630213561,-0.27208333701376675,1.2134771182704391,-0.22044914524178755,-0.007514490959609653,-2.6037632404577886,-0.10879157835958782,2.4682272587901743,0.8264804326620343,1.2134413937687574,-0.2202432315892585,-0.0075118285948192216,-2.6038483821997875,-0.10888392708698907,2.4681821257803174,0.826474908251239,-0.000194417844596436,-0.0005611579790485089,-0.0005947301228944918,-0.00012467819710336035,0.0003955861414530361,0.0002901757124444884,-0.000471977247514104,0.0,0.0,0.0,0.0,0.0,0.0,0.0,-3.572450168176644e-05,0.00020591365252906058,2.662364790431866e-06,-8.514174199891755e-05,-9.234872740125633e-05,-4.51330098569791e-05,-5.524410795265666e-06,0.000194417844596436,0.0005611579790485089,0.0005947301228944918,0.00012467819710336035,-0.0003955861414530361,-0.0002901757124444884,0.000471977247514104,0.3514034152030945,19.717248916625977,0.3475005328655243,-20.007356643676758,-0.6356711983680725,-2.4630770683288574,0.26217979192733765,0
64,0.3148345947265625,-0.3514034152030945,-19.717248916625977,-0.3475005328655243,20.007356643676758,0.6356711983680725,2.4630770683288574,-0.26217979192733765,0.0,0.0,0.0,0.0,0.0,0.0,0.0,-0.3506390888803506,0.0016097524480434382,-0.18155936059190875,0.22362927884598346,0.05726471321448315,0.09314202630213561,-0.27208333701376675,1.2134771182704391,-0.22044914524178755,-0.007514490959609653,-2.6037632404577886,-0.10879157835958782,2.4682272587901743,0.8264804326620343,1.2134413937687574,-0.2202432315892585,-0.0075118285948192216,-2.6038483821997875,-0.10888392708698907,2.4681821257803174,0.826474908251239,-0.000194417844596436,-0.0005611579790485089,-0.0005947301228944918,-0.00012467819710336035,0.0003955861414530361,0.0002901757124444884,-0.000471977247514104,0.0,0.0,0.0,0.0,0.0,0.0,0.0,-3.572450168176644e-05,0.00020591365252906058,2.662364790431866e-06,-8.514174199891755e-05,-9.234872740125633e-05,-4.51330098569791e-05,-5.524410795265666e-06,0.000194417844596436,0.0005611579790485089,0.0005947301228944918,0.00012467819710336035,-0.0003955861414530361,-0.0002901757124444884,0.000471977247514104,0.3514034152030945,19.717248916625977,0.3475005328655243,-20.007356643676758,-0.6356711983680725,-2.4630770683288574,0.26217979192733765,0
65,0.3198378086090088,-0.3514034152030945,-19.717248916625977,-0.3475005328655243,20.031160354614258,0.6356711983680725,2.4694857597351074,-0.24844686686992645,0.0,0.0,0.0,0.0,0.0,0.0,0.0,-0.34494080008089845,0.00013184710524749736,-0.1752834237628767,0.22565392965739975,0.05781057673222889,0.09412777555849998,-0.27165579733798095,1.213477118270439,-0.22044914524178755,-0.007514490851366893,-2.603763074187553,-0.1087915213111283,2.4682267036958945,0.8264789053285866,1.2134413937687574,-0.2202432315892585,-0.0075118285948192216,-2.6038483821997875,-0.10888392708698907,2.4681821257803174,0.826474908251239,0.00024337923997647706,-0.0005379038662485167,-0.0006937116389855313,-0.0006156894136480425,0.0003663533500910613,0.0002663552994342438,-0.0010361531503133472,0.0,0.0,0.0,0.0,0.0,0.0,0.0,-3.5724501681544396e-05,0.00020591365252906058,2.662256547671625e-06,-8.53080122347194e-05,-9.240577586076826e-05,-4.457791557710422e-05,-3.997077347550615e-06,-0.00024337923997647706,0.0005379038662485167,0.0006937116389855313,0.0006156894136480425,-0.0003663533500910613,-0.0002663552994342438,0.0010361531503133472,0.3514034152030945,19.717248916625977,0.3475005328655243,-20.031160354614258,-0.6356711983680725,-2.4694857597351074,0.24844686686992645,0
66,0.32482242584228516,-0.3514034152030945,-19.717248916625977,-0.3475005328655243,20.031160354614258,0.6356711983680725,2.4694857597351074,-0.24844686686992645,0.0,0.0,0.0,0.0,0.0,0.0,0.0,-0.34494080008089845,0.00013184710524749736,-0.1752834237628767,0.22565392965739975,0.05781057673222889,0.09412777555849998,-0.27165579733798095,1.213477118270439,-0.22044914524178755,-0.007514490851366893,-2.603763074187553,-0.1087915213111283,2.4682267036958945,0.8264789053285866,1.2134413937687574,-0.2202432315892585,-0.0075118285948192216,-2.6038483821997875,-0.10888392708698907,2.4681821257803174,0.826474908251239,0.00024337923997647706,-0.0005379038662485167,-0.0006937116389855313,-0.0006156894136480425,0.0003663533500910613,0.0002663552994342438,-0.0010361531503133472,0.0,0.0,0.0,0.0,0.0,0.0,0.0,-3.5724501681544396e-05,0.00020591365252906058,2.662256547671625e-06,-8.53080122347194e-05,-9.240577586076826e-05,-4.457791557710422e-05,-3.997077347550615e-06,-0.00024337923997647706,0.0005379038662485167,0.0006937116389855313,0.0006156894136480425,-0.0003663533500910613,-0.0002663552994342438,0.0010361531503133472,0.3514034152030945,19.717248916625977,0.3475005328655243,-20.031160354614258,-0.6356711983680725,-2.4694857597351074,0.24844686686992645,0
67,0.32982444763183594,-0.3514034152030945,-19.717248916625977,-0.3475005328655243,20.031160354614258,0.6356711983680725,2.4694857597351074,-0.24844686686992645,0.0,0.0,0.0,0.0,0.0,0.0,0.0,-0.34494080008089845,0.00013184710524749736,-0.1752834237628767,0.22565392965739975,0.05781057673222889,0.09412777555849998,-0.27165579733798095,1.213477118270439,-0.22044914524178755,-0.007514490851366893,-2.603763074187553,-0.1087915213111283,2.4682267036958945,0.8264789053285866,1.2134413937687574,-0.2202432315892585,-0.0075118285948192216,-2.6038483821997875,-0.10888392708698907,2.4681821257803174,0.826474908251239,0.00024337923997647706,-0.0005379038662485167,-0.0006937116389855313,-0.0006156894136480425,0.0003663533500910613,0.0002663552994342438,-0.0010361531503133472,0.0,0.0,0.0,0.0,0.0,0.0,0.0,-3.5724501681544396e-05,0.00020591365252906058,2.662256547671625e-06,-8.53080122347194e-05,-9.240577586076826e-05,-4.457791557710422e-05,-3.997077347550615e-06,-0.00024337923997647706,0.0005379038662485167,0.0006937116389855313,0.0006156894136480425,-0.0003663533500910613,-0.0002663552994342438,0.0010361531503133472,0.3514034152030945,19.717248916625977,0.3475005328655243,-20.031160354614258,-0.6356711983680725,-2.4694857597351074,0.24844686686992645,0
68,0.3348207473754883,-0.3514034152030945,-19.717248916625977,-0.3475005328655243,20.031160354614258,0.6356711983680725,2.4694857597351074,-0.24844686686992645,0.0,0.0,0.0,0.0,0.0,0.0,0.0,-0.34494080008089845,0.00013184710524749736,-0.1752834237628767,0.22565392965739975,0.05781057673222889,0.09412777555849998,-0.27165579733798095,1.213477118270439,-0.22044914524178755,-0.007514490851366893,-2.603763074187553,-0.1087915213111283,2.4682267036958945,0.8264789053285866,1.2134413937687574,-0.2202432315892585,-0.0075118285948192216,-2.6038483821997875,-0.10888392708698907,2.4681821257803174,0.826474908251239,0.00024337923997647706,-0.0005379038662485167,-0.0006937116389855313,-0.0006156894136480425,0.0003663533500910613,0.0002663552994342438,-0.0010361531503133472,0.0,0.0,0.0,0.0,0.0,0.0,0.0,-3.5724501681544396e-05,0.00020591365252906058,2.662256547671625e-06,-8.53080122347194e-05,-9.240577586076826e-05,-4.457791557710422e-05,-3.997077347550615e-06,-0.00024337923997647706,0.0005379038662485167,0.0006937116389855313,0.0006156894136480425,-0.0003663533500910613,-0.0002663552994342438,0.0010361531503133472,0.3514034152030945,19.717248916625977,0.3475005328655243,-20.031160354614258,-0.6356711983680725,-2.4694857597351074,0.24844686686992645,0
69,0.3398129940032959,-0.3514034152030945,-19.717248916625977,-0.3475005328655243,20.031160354614258,0.6356711983680725,2.4694857597351074,-0.24844686686992645,0.0,0.0,0.0,0.0,0.0,0.0,0.0,-0.34494080008089845,0.00013184710524749736,-0.1752834237628767,0.22565392965739975,0.05781057673222889,0.09412777555849998,-0.27165579733798095,1.213477118270439,-0.22044914524178755,-0.007514490851366893,-2.603763074187553,-0.1087915213111283,2.4682267036958945,0.8264789053285866,1.2134413937687574,-0.2202432315892585,-0.0075118285948192216,-2.6038483821997875,-0.10888392708698907,2.4681821257803174,0.826474908251239,0.00024337923997647706,-0.0005379038662485167,-0.0006937116389855313,-0.0006156894136480425,0.0003663533500910613,0.0002663552994342438,-0.0010361531503133472,0.0,0.0,0.0,0.0,0.0,0.0,0.0,-3.5724501681544396e-05,0.00020591365252906058,2.662256547671625e-06,-8.53080122347194e-05,-9.240577586076826e-05,-4.457791557710422e-05,-3.997077347550615e-06,-0.00024337923997647706,0.0005379038662485167,0.0006937116389855313,0.0006156894136480425,-0.0003663533500910613,-0.0002663552994342438,0.0010361531503133472,0.3514034152030945,19.717248916625977,0.3475005328655243,-20.031160354614258,-0.6356711983680725,-2.4694857597351074,0.24844686686992645,0
70,0.34482574462890625,-0.3752071261405945,-19.717248916625977,-0.4228789508342743,19.983552932739258,0.6475730538368225,2.4694857597351074,-0.25485557317733765,0.0,0.0,0.0,0.0,0.0,0.0,0.0,-0.3456246826811927,0.0005594180326869828,-0.17567808979155589,0.2263715206064871,0.05827257336888072,0.09504086679037772,-0.2718711040056113,1.2134787887062943,-0.22044914524178755,-0.007509201246068054,-2.603759503717213,-0.1087928481270965,2.4682235247823927,0.8264785587379613,1.2134413937687574,-0.2202432315892585,-0.0075118285948192216,-2.6038483821997875,-0.10888392708698907,2.4681821257803174,0.826474908251239,0.0007126454602233677,-0.00031066784056774896,0.001482499513416626,0.0008046813711801728,1.4682030169782692e-05,-0.00013668543909618093,-0.000475708648611977,0.0,0.0,0.0,0.0,0.0,0.0,0.0,-3.739493753696088e-05,0.00020591365252906058,-2.6273487511675395e-06,-8.887848257455033e-05,-9.107895989257653e-05,-4.139900207533742e-05,-3.6504867222397763e-06,-0.0007126454602233677,0.00031066784056774896,-0.001482499513416626,-0.0008046813711801728,-1.4682030169782692e-05,0.00013668543909618093,0.000475708648611977,0.3752071261405945,19.717248916625977,0.4228789508342743,-19.983552932739258,-0.6475730538368225,-2.4694857597351074,0.25485557317733765,0
71,0.3498215675354004,-0.3752071261405945,-19.717248916625977,-0.4228789508342743,19.983552932739258,0.6475730538368225,2.4694857597351074,-0.25485557317733765,0.0,0.0,0.0,0.0,0.0,0.0,0.0,-0.3456246826811927,0.0005594180326869828,-0.17567808979155589,0.2263715206064871,0.05827257336888072,0.09504086679037772,-0.2718711040056113,1.2134787887062943,-0.22044914524178755,-0.007509201246068054,-2.603759503717213,-0.1087928481270965,2.4682235247823927,0.8264785587379613,1.2134413937687574,-0.2202432315892585,-0.0075118285948192216,-2.6038483821997875,-0.10888392708698907,2.4681821257803174,0.826474908251239,0.0007126454602233677,-0.00031066784056774896,0.001482499513416626,0.0008046813711801728,1.4682030169782692e-05,-0.00013668543909618093,-0.000475708648611977,0.0,0.0,0.0,0.0,0.0,0.0,0.0,-3.739493753696088e-05,0.00020591365252906058,-2.6273487511675395e-06,-8.887848257455033e-05,-9.107895989257653e-05,-4.139900207533742e-05,-3.6504867222397763e-06,-0.0007126454602233677,0.00031066784056774896,-0.001482499513416626,-0.0008046813711801728,-1.4682030169782692e-05,0.00013668543909618093,0.000475708648611977,0.3752071261405945,19.717248916625977,0.4228789508342743,-19.983552932739258,-0.6475730538368225,-2.4694857597351074,0.25485557317733765,0
72,0.35482287406921387,-0.3514034152030945,-19.745019912719727,-0.3475005328655243,20.007356643676758,0.6420798897743225,2.4566683769226074,-0.29605430364608765,0.0,0.0,0.0,0.0,0.0,0.0,0.0,-0.35137805214449264,0.0026130811458877855,-0.1814477398660304,0.22444337533893405,0.0587591907663618,0.09466563695486016,-0.2721262966023015,1.213477118270439,-0.2204471963999564,-0.007512360404000469,-2.603761862916556,-0.10879258929548816,2.468228127670976,0.8264810175769619,1.2134413937687574,-0.2202432315892585,-0.0075118285948192216,-2.6038483821997875,-0.10888392708698907,2.4681821257803174,0.826474908251239,-0.0007275024001224466,0.0003012598182713784,-0.0006557298487052228,-0.00018326013509769825,-4.980827105204172e-05,0.0001913088375485342,0.0009678753287061572,0.0,0.0,0.0,0.0,0.0,0.0,0.0,-3.5724501681544396e-05,0.00020396481069792638,5.318091812478443e-07,-8.651928323155644e-05,-9.133779150091725e-05,-4.6001890658509126e-05,-6.109325722869485e-06,0.0007275024001224466,-0.0003012598182713784,0.0006557298487052228,0.00018326013509769825,4.980827105204172e-05,-0.0001913088375485342,-0.0009678753287061572,0.3514034152030945,19.745019912719727,0.3475005328655243,-20.007356643676758,-0.6420798897743225,-2.4566683769226074,0.29605430364608765,0
73,0.35982441902160645,-0.3514034152030945,-19.745019912719727,-0.3475005328655243,20.007356643676758,0.6420798897743225,2.4566683769226074,-0.29605430364608765,0.0,0.0,0.0,0.0,0.0,0.0,0.0,-0.35137805214449264,0.0026130811458877855,-0.1814477398660304,0.22444337533893405,0.0587591907663618,0.09466563695486016,-0.2721262966023015,1.213477118270439,-0.2204471963999564,-0.007512360404000469,-2.603761862916556,-0.10879258929548816,2.468228127670976,0.8264810175769619,1.2134413937687574,-0.2202432315892585,-0.0075118285948192216,-2.6038483821997875,-0.10888392708698907,2.4681821257803174,0.826474908251239,-0.0007275024001224466,0.0003012598182713784,-0.0006557298487052228,-0.00018326013509769825,-4.980827105204172e-05,0.0001913088375485342,0.0009678753287061572,0.0,0.0,0.0,0.0,0.0,0.0,0.0,-3.5724501681544396e-05,0.00020396481069792638,5.318091812478443e-07,-8.651928323155644e-05,-9.133779150091725e-05,-4.6001890658509126e-05,-6.109325722869485e-06,0.0007275024001224466,-0.0003012598182713784,0.0006557298487052228,0.00018326013509769825,4.980827105204172e-05,-0.0001913088375485342,-0.0009678753287061572,0.3514034152030945,19.745019912719727,0.3475005328655243,-20.007356643676758,-0.6420798897743225,-2.4566683769226074,0.29605430364608765,0
74,0.3648345470428467,-0.3236324191093445,-19.717248916625977,-0.3713042438030243,20.007356643676758,0.6356711983680725,2.4566683769226074,-0.28232139348983765,0.0,0.0,0.0,0.0,0.0,0.0,0.0,-0.34964560328049765,-0.0005962283155380305,-0.1802881470675654,0.22700214644825892,0.05801792743181931,0.09479053821026477,-0.2730418488523233,1.213475169428608,-0.22044914524178755,-0.00751282051172802,-2.6037614037439214,-0.10879187678727625,2.4682277746377155,0.8264825528629131,1.2134413937687574,-0.2202432315892585,-0.0075118285948192216,-2.6038483821997875,-0.10888392708698907,2.4681821257803174,0.826474908251239,-0.0010686909906297904,-0.0006410453433659514,-0.0005881823164063493,4.821555164883444e-06,3.3057523771159445e-05,0.0006480525963508145,0.0004717881055304121,0.0,0.0,0.0,0.0,0.0,0.0,0.0,-3.377565985052122e-05,0.00020591365252906058,9.919169087985527e-07,-8.697845586613795e-05,-9.20502997128203e-05,-4.56488573981062e-05,-7.644611674018087e-06,0.0010686909906297904,0.0006410453433659514,0.0005881823164063493,-4.821555164883444e-06,-3.3057523771159445e-05,-0.0006480525963508145,-0.0004717881055304121,0.3236324191093445,19.717248916625977,0.3713042438030243,-20.007356643676758,-0.6356711983680725,-2.4566683769226074,0.28232139348983765,0
75,0.3698265552520752,-0.3236324191093445,-19.717248916625977,-0.3713042438030243,20.007356643676758,0.6356711983680725,2.4566683769226074,-0.28232139348983765,0.0,0.0,0.0,0.0,0.0,0.0,0.0,-0.34964560328049765,-0.0005962283155380305,-0.1802881470675654,0.22700214644825892,0.05801792743181931,0.09479053821026477,-0.2730418488523233,1.213475169428608,-0.22044914524178755,-0.00751282051172802,-2.6037614037439214,-0.10879187678727625,2.4682277746377155,0.8264825528629131,1.2134413937687574,-0.2202432315892585,-0.0075118285948192216,-2.6038483821997875,-0.10888392708698907,2.4681821257803174,0.826474908251239,-0.0010686909906297904,-0.0006410453433659514,-0.0005881823164063493,4.821555164883444e-06,3.3057523771159445e-05,0.0006480525963508145,0.0004717881055304121,0.0,0.0,0.0,0.0,0.0,0.0,0.0,-3.377565985052122e-05,0.00020591365252906058,9.919169087985527e-07,-8.697845586613795e-05,-9.20502997128203e-05,-4.56488573981062e-05,-7.644611674018087e-06,0.0010686909906297904,0.0006410453433659514,0.0005881823164063493,-4.821555164883444e-06,-3.3057523771159445e-05,-0.0006480525963508145,-0.0004717881055304121,0.3236324191093445,19.717248916625977,0.3713042438030243,-20.007356643676758,-0.6356711983680725,-2.4566683769226074,0.28232139348983765,0
76,0.37483668327331543,-0.3514034152030945,-19.745019912719727,-0.4228789508342743,20.031160354614258,0.6301780343055725,2.4694857597351074,-0.30337852239608765,0.0,0.0,0.0,0.0,0.0,0.0,0.0,-0.3476146012823386,0.0012072611937498758,-0.1800058683096341,0.22467829865955857,0.05725001164365705,0.09483284543772409,-0.2730292549456692,1.213477118270439,-0.2204471963999564,-0.007509201246068597,-2.603762844588923,-0.10879415362290144,2.468226703694787,0.8264839506606235,1.2134413937687574,-0.2202432315892585,-0.0075118285948192216,-2.6038483821997875,-0.10888392708698907,2.4681821257803174,0.826474908251239,0.0002711349759909567,-3.809524934794149e-05,0.0012006505976206907,-0.0004795933076418912,0.00032494150109875795,0.00012332366591866152,0.0010396013581168819,0.0,0.0,0.0,0.0,0.0,0.0,0.0,-3.5724501681544396e-05,0.00020396481069792638,-2.627348750624571e-06,-8.553761086460554e-05,-8.977346408763076e-05,-4.457791446954573e-05,-9.042409384485417e-06,-0.0002711349759909567,3.809524934794149e-05,-0.0012006505976206907,0.0004795933076418912,-0.00032494150109875795,-0.00012332366591866152,-0.0010396013581168819,0.3514034152030945,19.745019912719727,0.4228789508342743,-20.031160354614258,-0.6301780343055725,-2.4694857597351074,0.30337852239608765,0
77,0.37982654571533203,-0.3514034152030945,-19.745019912719727,-0.4228789508342743,20.031160354614258,0.6301780343055725,2.4694857597351074,-0.30337852239608765,0.0,0.0,0.0,0.0,0.0,0.0,0.0,-0.3476146012823386,0.0012072611937498758,-0.1800058683096341,0.22467829865955857,0.05725001164365705,0.09483284543772409,-0.2730292549456692,1.213477118270439,-0.2204471963999564,-0.007509201246068597,-2.603762844588923,-0.10879415362290144,2.468226703694787,0.8264839506606235,1.2134413937687574,-0.2202432315892585,-0.0075118285948192216,-2.6038483821997875,-0.10888392708698907,2.4681821257803174,0.826474908251239,0.0002711349759909567,-3.809524934794149e-05,0.0012006505976206907,-0.0004795933076418912,0.00032494150109875795,0.00012332366591866152,0.0010396013581168819,0.0,0.0,0.0,0.0,0.0,0.0,0.0,-3.5724501681544396e-05,0.00020396481069792638,-2.627348750624571e-06,-8.553761086460554e-05,-8.977346408763076e-05,-4.457791446954573e-05,-9.042409384485417e-06,-0.0002711349759909567,3.809524934794149e-05,-0.0012006505976206907,0.0004795933076418912,-0.00032494150109875795,-0.00012332366591866152,-0.0010396013581168819,0.3514034152030945,19.745019912719727,0.4228789508342743,-20.031160354614258,-0.6301780343055725,-2.4694857597351074,0.30337852239608765,0
78,0.3848257064819336,-0.3236324191093445,-19.717248916625977,-0.3713042438030243,20.054964065551758,0.6420798897743225,2.4566683769226074,-0.27591270208358765,0.0,0.0,0.0,0.0,0.0,0.0,0.0,-0.3496211132220622,3.449824299900659e-05,-0.18285304160840987,0.22349482768682735,0.05727468179158507,0.09505130174814733,-0.273332542700717,1.213475169428608,-0.22044914524178755,-0.007512820523755069,-2.6037645150234825,-0.10879223340593412,2.468228127850426,0.8264819454536712,1.2134413937687574,-0.2202432315892585,-0.0075118285948192216,-2.6038483821997875,-0.10888392708698907,2.4681821257803174,0.826474908251239,-0.000546666403203083,-0.0006884047880067199,6.064556917209398e-05,-0.0010844673450950374,9.201306778104394e-05,0.0004043157081515126,-0.00012198096026351913,0.0,0.0,0.0,0.0,0.0,0.0,0.0,-3.377565985052122e-05,0.00020591365252906058,9.919289358471806e-07,-8.386717630504137e-05,-9.169368105495235e-05,-4.600207010874158e-05,-7.0372024321141424e-06,0.000546666403203083,0.0006884047880067199,-6.064556917209398e-05,0.0010844673450950374,-9.201306778104394e-05,-0.0004043157081515126,0.00012198096026351913,0.3236324191093445,19.717248916625977,0.3713042438030243,-20.054964065551758,-0.6420798897743225,-2.4566683769226074,0.27591270208358765,0
79,0.3898122310638428,-0.3236324191093445,-19.717248916625977,-0.3713042438030243,20.054964065551758,0.6420798897743225,2.4566683769226074,-0.27591270208358765,0.0,0.0,0.0,0.0,0.0,0.0,0.0,-0.3496211132220622,3.449824299900659e-05,-0.18285304160840987,0.22349482768682735,0.05727468179158507,0.09505130174814733,-0.273332542700717,1.213475169428608,-0.22044914524178755,-0.007512820523755069,-2.6037645150234825,-0.10879223340593412,2.468228127850426,0.8264819454536712,1.2134413937687574,-0.2202432315892585,-0.0075118285948192216,-2.6038483821997875,-0.10888392708698907,2.4681821257803174,0.826474908251239,-0.000546666403203083,-0.0006884047880067199,6.064556917209398e-05,-0.0010844673450950374,9.201306778104394e-05,0.0004043157081515126,-0.00012198096026351913,0.0,0.0,0.0,0.0,0.0,0.0,0.0,-3.377565985052122e-05,0.00020591365252906058,9.919289358471806e-07,-8.386717630504137e-05,-9.169368105495235e-05,-4.600207010874158e-05,-7.0372024321141424e-06,0.000546666403203083,0.0006884047880067199,-6.064556917209398e-05,0.0010844673450950374,-9.201306778104394e-05,-0.0004043157081515126,0.00012198096026351913,0.3236324191093445,19.717248916625977,0.3713042438030243,-20.054964065551758,-0.6420798897743225,-2.4566683769226074,0.27591270208358765,0
