rezayati/contactInterpretation/dataset/franka_main/labeled_data/link5/c8_5.csv
index,time,tau_J0,tau_J1,tau_J2,tau_J3,tau_J4,tau_J5,tau_J6,tau_J_d0,tau_J_d1,tau_J_d2,tau_J_d3,tau_J_d4,tau_J_d5,tau_J_d6,tau_ext0,tau_ext1,tau_ext2,tau_ext3,tau_ext4,tau_ext5,tau_ext6,q0,q1,q2,q3,q4,q5,q6,q_d0,q_d1,q_d2,q_d3,q_d4,q_d5,q_d6,dq0,dq1,dq2,dq3,dq4,dq5,dq6,dq_d0,dq_d1,dq_d2,dq_d3,dq_d4,dq_d5,dq_d6,e0,e1,e2,e3,e4,e5,e6,de0,de1,de2,de3,de4,de5,de6,etau_J0,etau_J1,etau_J2,etau_J3,etau_J4,etau_J5,etau_J6,label
1,0.0,-0.8592159152030945,-46.47658920288086,-5.735073566436768,19.487642288208008,0.5404563546180725,2.3852572441101074,-0.17978231608867645,0.0,0.0,0.0,0.0,0.0,0.0,0.0,-0.8531598246391864,-0.15831981124445507,-0.5824192121323156,0.311458258013119,-0.04985716748567237,0.1138130617041516,-0.18871862499672473,0.8781397698255621,0.7549760426387452,-0.28246041053438875,-1.668856008595514,0.1414448925022354,2.403569314373864,1.0273460828382723,0.878092876070424,0.7554597494309409,-0.2825552651693207,-1.6690993614607135,0.1414185955172306,2.4034451173676383,1.0273381002308042,0.00033614779885848806,-0.00016887622792765135,-0.00036378644578307365,0.0008675519347907719,-0.0001982765950063032,-6.944366232481269e-05,-0.0007099479695860438,0.0,0.0,0.0,0.0,0.0,0.0,0.0,-4.6893755138111004e-05,0.0004837067921956706,-9.485463493197344e-05,-0.00024335286519949761,-2.6296985004808926e-05,-0.00012419700622556817,-7.982607468148828e-06,-0.00033614779885848806,0.00016887622792765135,0.00036378644578307365,-0.0008675519347907719,0.0001982765950063032,6.944366232481269e-05,0.0007099479695860438,0.8592159152030945,46.47658920288086,5.735073566436768,-19.487642288208008,-0.5404563546180725,-2.3852572441101074,0.17978231608867645,0
2,0.00494694709777832,-0.8592159152030945,-46.47658920288086,-5.735073566436768,19.487642288208008,0.5404563546180725,2.3852572441101074,-0.17978231608867645,0.0,0.0,0.0,0.0,0.0,0.0,0.0,-0.8531598246391864,-0.15831981124445507,-0.5824192121323156,0.311458258013119,-0.04985716748567237,0.1138130617041516,-0.18871862499672473,0.8781397698255621,0.7549760426387452,-0.28246041053438875,-1.668856008595514,0.1414448925022354,2.403569314373864,1.0273460828382723,0.878092876070424,0.7554597494309409,-0.2825552651693207,-1.6690993614607135,0.1414185955172306,2.4034451173676383,1.0273381002308042,0.00033614779885848806,-0.00016887622792765135,-0.00036378644578307365,0.0008675519347907719,-0.0001982765950063032,-6.944366232481269e-05,-0.0007099479695860438,0.0,0.0,0.0,0.0,0.0,0.0,0.0,-4.6893755138111004e-05,0.0004837067921956706,-9.485463493197344e-05,-0.00024335286519949761,-2.6296985004808926e-05,-0.00012419700622556817,-7.982607468148828e-06,-0.00033614779885848806,0.00016887622792765135,0.00036378644578307365,-0.0008675519347907719,0.0001982765950063032,6.944366232481269e-05,0.0007099479695860438,0.8592159152030945,46.47658920288086,5.735073566436768,-19.487642288208008,-0.5404563546180725,-2.3852572441101074,0.17978231608867645,0
3,0.009992837905883789,-0.8592159152030945,-46.47658920288086,-5.735073566436768,19.487642288208008,0.5404563546180725,2.3852572441101074,-0.17978231608867645,0.0,0.0,0.0,0.0,0.0,0.0,0.0,-0.8531598246391864,-0.15831981124445507,-0.5824192121323156,0.311458258013119,-0.04985716748567237,0.1138130617041516,-0.18871862499672473,0.8781397698255621,0.7549760426387452,-0.28246041053438875,-1.668856008595514,0.1414448925022354,2.403569314373864,1.0273460828382723,0.878092876070424,0.7554597494309409,-0.2825552651693207,-1.6690993614607135,0.1414185955172306,2.4034451173676383,1.0273381002308042,0.00033614779885848806,-0.00016887622792765135,-0.00036378644578307365,0.0008675519347907719,-0.0001982765950063032,-6.944366232481269e-05,-0.0007099479695860438,0.0,0.0,0.0,0.0,0.0,0.0,0.0,-4.6893755138111004e-05,0.0004837067921956706,-9.485463493197344e-05,-0.00024335286519949761,-2.6296985004808926e-05,-0.00012419700622556817,-7.982607468148828e-06,-0.00033614779885848806,0.00016887622792765135,0.00036378644578307365,-0.0008675519347907719,0.0001982765950063032,6.944366232481269e-05,0.0007099479695860438,0.8592159152030945,46.47658920288086,5.735073566436768,-19.487642288208008,-0.5404563546180725,-2.3852572441101074,0.17978231608867645,0
4,0.014954805374145508,-0.8869869112968445,-46.47658920288086,-5.735073566436768,19.511445999145508,0.5285544991493225,2.3852572441101074,-0.17978231608867645,0.0,0.0,0.0,0.0,0.0,0.0,0.0,-0.8662775178877807,-0.16317944893025021,-0.5906378459368762,0.3115296367535432,-0.04972591159319576,0.11480937341420923,-0.18955892157399254,0.8781417186678501,0.7549760426387452,-0.28246017426338504,-1.6688576795631354,0.14144621509313493,2.403569314373864,1.0273493412252928,0.878092876070424,0.7554597494309409,-0.2825552651693207,-1.6690993614607135,0.1414185955172306,2.4034451173676383,1.0273381002308042,0.0006479083671577712,3.8348410789174133e-05,-0.0005776091796402618,0.0001355574097654189,0.00026813021899047175,-0.00021064295193912383,-2.464153426390034e-06,0.0,0.0,0.0,0.0,0.0,0.0,0.0,-4.8842597426101975e-05,0.0004837067921956706,-9.50909059356797e-05,-0.00024168189757811653,-2.761957590433073e-05,-0.00012419700622556817,-1.1240994488570522e-05,-0.0006479083671577712,-3.8348410789174133e-05,0.0005776091796402618,-0.0001355574097654189,-0.00026813021899047175,0.00021064295193912383,2.464153426390034e-06,0.8869869112968445,46.47658920288086,5.735073566436768,-19.511445999145508,-0.5285544991493225,-2.3852572441101074,0.17978231608867645,0
5,0.01999664306640625,-0.8869869112968445,-46.47658920288086,-5.735073566436768,19.511445999145508,0.5285544991493225,2.3852572441101074,-0.17978231608867645,0.0,0.0,0.0,0.0,0.0,0.0,0.0,-0.8662775178877807,-0.16317944893025021,-0.5906378459368762,0.3115296367535432,-0.04972591159319576,0.11480937341420923,-0.18955892157399254,0.8781417186678501,0.7549760426387452,-0.28246017426338504,-1.6688576795631354,0.14144621509313493,2.403569314373864,1.0273493412252928,0.878092876070424,0.7554597494309409,-0.2825552651693207,-1.6690993614607135,0.1414185955172306,2.4034451173676383,1.0273381002308042,0.0006479083671577712,3.8348410789174133e-05,-0.0005776091796402618,0.0001355574097654189,0.00026813021899047175,-0.00021064295193912383,-2.464153426390034e-06,0.0,0.0,0.0,0.0,0.0,0.0,0.0,-4.8842597426101975e-05,0.0004837067921956706,-9.50909059356797e-05,-0.00024168189757811653,-2.761957590433073e-05,-0.00012419700622556817,-1.1240994488570522e-05,-0.0006479083671577712,-3.8348410789174133e-05,0.0005776091796402618,-0.0001355574097654189,-0.00026813021899047175,0.00021064295193912383,2.464153426390034e-06,0.8869869112968445,46.47658920288086,5.735073566436768,-19.511445999145508,-0.5285544991493225,-2.3852572441101074,0.17978231608867645,0
6,0.02499222755432129,-0.8076412081718445,-46.50039291381836,-5.762844562530518,19.511445999145508,0.5340476632118225,2.3980746269226074,-0.21457235515117645,0.0,0.0,0.0,0.0,0.0,0.0,0.0,-0.8541732308028946,-0.1662818241840916,-0.5793284081663376,0.31325073089659283,-0.05041631455733319,0.11468355173634534,-0.1892669351487926,0.8781361505483325,0.7549777130746005,-0.282458461740116,-1.6688574324524204,0.14144560474157333,2.403567890220218,1.0273499484040725,0.878092876070424,0.7554597494309409,-0.2825552651693207,-1.6690993614607135,0.1414185955172306,2.4034451173676383,1.0273381002308042,-0.0007238461912667654,0.00020064753555157518,0.00030083652875574694,0.0003708634526452443,0.00010658779362714282,-0.0006355306619734658,0.000522471236355029,0.0,0.0,0.0,0.0,0.0,0.0,0.0,-4.327447790852812e-05,0.0004820363563403651,-9.680342920470597e-05,-0.00024192900829311803,-2.700922434273334e-05,-0.0001227728525798888,-1.184817326826959e-05,0.0007238461912667654,-0.00020064753555157518,-0.00030083652875574694,-0.0003708634526452443,-0.00010658779362714282,0.0006355306619734658,-0.000522471236355029,0.8076412081718445,46.50039291381836,5.762844562530518,-19.511445999145508,-0.5340476632118225,-2.3980746269226074,0.21457235515117645,0
7,0.02999711036682129,-0.8076412081718445,-46.50039291381836,-5.762844562530518,19.511445999145508,0.5340476632118225,2.3980746269226074,-0.21457235515117645,0.0,0.0,0.0,0.0,0.0,0.0,0.0,-0.8541732308028946,-0.1662818241840916,-0.5793284081663376,0.31325073089659283,-0.05041631455733319,0.11468355173634534,-0.1892669351487926,0.8781361505483325,0.7549777130746005,-0.282458461740116,-1.6688574324524204,0.14144560474157333,2.403567890220218,1.0273499484040725,0.878092876070424,0.7554597494309409,-0.2825552651693207,-1.6690993614607135,0.1414185955172306,2.4034451173676383,1.0273381002308042,-0.0007238461912667654,0.00020064753555157518,0.00030083652875574694,0.0003708634526452443,0.00010658779362714282,-0.0006355306619734658,0.000522471236355029,0.0,0.0,0.0,0.0,0.0,0.0,0.0,-4.327447790852812e-05,0.0004820363563403651,-9.680342920470597e-05,-0.00024192900829311803,-2.700922434273334e-05,-0.0001227728525798888,-1.184817326826959e-05,0.0007238461912667654,-0.00020064753555157518,-0.00030083652875574694,-0.0003708634526452443,-0.00010658779362714282,0.0006355306619734658,-0.000522471236355029,0.8076412081718445,46.50039291381836,5.762844562530518,-19.511445999145508,-0.5340476632118225,-2.3980746269226074,0.21457235515117645,0
8,0.034995317459106445,-0.8076412081718445,-46.47658920288086,-5.711269855499268,19.535249710083008,0.5340476632118225,2.3788485527038574,-0.16604940593242645,0.0,0.0,0.0,0.0,0.0,0.0,0.0,-0.8520077231748757,-0.17335562969428064,-0.5808098042964787,0.31721954506728006,-0.05021431825480304,0.11530182752052802,-0.19062544781839025,0.8781361505483325,0.7549760426387452,-0.28246208101824705,-1.6688585263245095,0.1414456032789384,2.403570026450687,1.027344556959139,0.878092876070424,0.7554597494309409,-0.2825552651693207,-1.6690993614607135,0.1414185955172306,2.4034451173676383,1.0273381002308042,-0.00022663358075236315,-0.0005864210879695603,-0.0012071268290369378,-0.00011883550165203805,8.413673912637657e-05,0.00018575874148134042,-0.0009647945943368895,0.0,0.0,0.0,0.0,0.0,0.0,0.0,-4.327447790852812e-05,0.0004837067921956706,-9.31841510736775e-05,-0.00024083513620398733,-2.70077617078035e-05,-0.00012490908304885195,-6.456728334880424e-06,0.00022663358075236315,0.0005864210879695603,0.0012071268290369378,0.00011883550165203805,-8.413673912637657e-05,-0.00018575874148134042,0.0009647945943368895,0.8076412081718445,46.47658920288086,5.711269855499268,-19.535249710083008,-0.5340476632118225,-2.3788485527038574,0.16604940593242645,0
9,0.03996610641479492,-0.8076412081718445,-46.47658920288086,-5.711269855499268,19.535249710083008,0.5340476632118225,2.3788485527038574,-0.16604940593242645,0.0,0.0,0.0,0.0,0.0,0.0,0.0,-0.8520077231748757,-0.17335562969428064,-0.5808098042964787,0.31721954506728006,-0.05021431825480304,0.11530182752052802,-0.19062544781839025,0.8781361505483325,0.7549760426387452,-0.28246208101824705,-1.6688585263245095,0.1414456032789384,2.403570026450687,1.027344556959139,0.878092876070424,0.7554597494309409,-0.2825552651693207,-1.6690993614607135,0.1414185955172306,2.4034451173676383,1.0273381002308042,-0.00022663358075236315,-0.0005864210879695603,-0.0012071268290369378,-0.00011883550165203805,8.413673912637657e-05,0.00018575874148134042,-0.0009647945943368895,0.0,0.0,0.0,0.0,0.0,0.0,0.0,-4.327447790852812e-05,0.0004837067921956706,-9.31841510736775e-05,-0.00024083513620398733,-2.70077617078035e-05,-0.00012490908304885195,-6.456728334880424e-06,0.00022663358075236315,0.0005864210879695603,0.0012071268290369378,0.00011883550165203805,-8.413673912637657e-05,-0.00018575874148134042,0.0009647945943368895,0.8076412081718445,46.47658920288086,5.711269855499268,-19.535249710083008,-0.5340476632118225,-2.3788485527038574,0.16604940593242645,0
10,0.045003652572631836,-0.8076412081718445,-46.50039291381836,-5.786648273468018,19.487642288208008,0.5404563546180725,2.3788485527038574,-0.20724813640117645,0.0,0.0,0.0,0.0,0.0,0.0,0.0,-0.8580983650685626,-0.16349313603746063,-0.5863634104786136,0.310806688257346,-0.04961000062534384,0.1138473598913746,-0.1909072682540328,0.8781361505483325,0.7549777130746005,-0.28245679130470536,-1.6688552675266817,0.14144489266474217,2.403570026450687,1.0273491345958576,0.878092876070424,0.7554597494309409,-0.2825552651693207,-1.6690993614607135,0.1414185955172306,2.4034451173676383,1.0273381002308042,-0.0008630938137923794,0.00028620931808452866,0.001052336111328486,0.0005473757334518835,-8.556212839490012e-05,-6.257620700124534e-06,0.0004550909306178634,0.0,0.0,0.0,0.0,0.0,0.0,0.0,-4.327447790852812e-05,0.0004820363563403651,-9.847386461536711e-05,-0.00024409393403179713,-2.6297147511566976e-05,-0.00012490908304885195,-1.1034365053452788e-05,0.0008630938137923794,-0.00028620931808452866,-0.001052336111328486,-0.0005473757334518835,8.556212839490012e-05,6.257620700124534e-06,-0.0004550909306178634,0.8076412081718445,46.50039291381836,5.786648273468018,-19.487642288208008,-0.5404563546180725,-2.3788485527038574,0.20724813640117645,0
11,0.05000042915344238,-0.8076412081718445,-46.50039291381836,-5.786648273468018,19.487642288208008,0.5404563546180725,2.3788485527038574,-0.20724813640117645,0.0,0.0,0.0,0.0,0.0,0.0,0.0,-0.8580983650685626,-0.16349313603746063,-0.5863634104786136,0.310806688257346,-0.04961000062534384,0.1138473598913746,-0.1909072682540328,0.8781361505483325,0.7549777130746005,-0.28245679130470536,-1.6688552675266817,0.14144489266474217,2.403570026450687,1.0273491345958576,0.878092876070424,0.7554597494309409,-0.2825552651693207,-1.6690993614607135,0.1414185955172306,2.4034451173676383,1.0273381002308042,-0.0008630938137923794,0.00028620931808452866,0.001052336111328486,0.0005473757334518835,-8.556212839490012e-05,-6.257620700124534e-06,0.0004550909306178634,0.0,0.0,0.0,0.0,0.0,0.0,0.0,-4.327447790852812e-05,0.0004820363563403651,-9.847386461536711e-05,-0.00024409393403179713,-2.6297147511566976e-05,-0.00012490908304885195,-1.1034365053452788e-05,0.0008630938137923794,-0.00028620931808452866,-0.001052336111328486,-0.0005473757334518835,8.556212839490012e-05,6.257620700124534e-06,-0.0004550909306178634,0.8076412081718445,46.50039291381836,5.786648273468018,-19.487642288208008,-0.5404563546180725,-2.3788485527038574,0.20724813640117645,0
12,0.05499625205993652,-0.8869869112968445,-46.54800033569336,-5.762844562530518,19.511445999145508,0.5404563546180725,2.3916659355163574,-0.22830526530742645,0.0,0.0,0.0,0.0,0.0,0.0,0.0,-0.8578098842726629,-0.15822695348506527,-0.5873637025591684,0.3097352422382889,-0.04877598099914154,0.11298029764760673,-0.19130998726341006,0.8781417186678501,0.754981053946311,-0.28245846174056066,-1.668856691053265,0.14144487950103599,2.403568602297041,1.0273514742768473,0.878092876070424,0.7554597494309409,-0.2825552651693207,-1.6690993614607135,0.1414185955172306,2.4034451173676383,1.0273381002308042,0.0009401998025310584,0.0015869352834210406,-0.00029440157459318983,0.0002455021001484879,-2.9550263434343685e-05,-0.00043612880464921145,0.001649884294294423,0.0,0.0,0.0,0.0,0.0,0.0,0.0,-4.8842597426101975e-05,0.0004786954846298652,-9.680342876006165e-05,-0.00024267040744851975,-2.6283983805386324e-05,-0.00012348492940272848,-1.3374046043068688e-05,-0.0009401998025310584,-0.0015869352834210406,0.00029440157459318983,-0.0002455021001484879,2.9550263434343685e-05,0.00043612880464921145,-0.001649884294294423,0.8869869112968445,46.54800033569336,5.762844562530518,-19.511445999145508,-0.5404563546180725,-2.3916659355163574,0.22830526530742645,0
13,0.0599973201751709,-0.8869869112968445,-46.54800033569336,-5.762844562530518,19.511445999145508,0.5404563546180725,2.3916659355163574,-0.22830526530742645,0.0,0.0,0.0,0.0,0.0,0.0,0.0,-0.8578098842726629,-0.15822695348506527,-0.5873637025591684,0.3097352422382889,-0.04877598099914154,0.11298029764760673,-0.19130998726341006,0.8781417186678501,0.754981053946311,-0.28245846174056066,-1.668856691053265,0.14144487950103599,2.403568602297041,1.0273514742768473,0.878092876070424,0.7554597494309409,-0.2825552651693207,-1.6690993614607135,0.1414185955172306,2.4034451173676383,1.0273381002308042,0.0009401998025310584,0.0015869352834210406,-0.00029440157459318983,0.0002455021001484879,-2.9550263434343685e-05,-0.00043612880464921145,0.001649884294294423,0.0,0.0,0.0,0.0,0.0,0.0,0.0,-4.8842597426101975e-05,0.0004786954846298652,-9.680342876006165e-05,-0.00024267040744851975,-2.6283983805386324e-05,-0.00012348492940272848,-1.3374046043068688e-05,-0.0009401998025310584,-0.0015869352834210406,0.00029440157459318983,-0.0002455021001484879,2.9550263434343685e-05,0.00043612880464921145,-0.001649884294294423,0.8869869112968445,46.54800033569336,5.762844562530518,-19.511445999145508,-0.5404563546180725,-2.3916659355163574,0.22830526530742645,0
14,0.0650019645690918,-0.8869869112968445,-46.52419662475586,-5.762844562530518,19.511445999145508,0.5523582100868225,2.3916659355163574,-0.14590780436992645,0.0,0.0,0.0,0.0,0.0,0.0,0.0,-0.8533721262215637,-0.17042172834714003,-0.5881245961559647,0.31785347155706445,-0.047932329542544026,0.1140183816556774,-0.19139290620888116,0.8781417186678501,0.7549793835104558,-0.28245845299200517,-1.668857597291998,0.1414435702362907,2.403568602297041,1.0273423190034099,0.878092876070424,0.7554597494309409,-0.2825552651693207,-1.6690993614607135,0.1414185955172306,2.4034451173676383,1.0273381002308042,0.00037836549396180085,0.000439795783025272,1.5752776327687164e-06,0.00038572957037976715,-0.0005439461663882694,-0.0005484203776353745,-0.001489297642954331,0.0,0.0,0.0,0.0,0.0,0.0,0.0,-4.8842597426101975e-05,0.00048036592048505966,-9.68121773155528e-05,-0.0002417641687155747,-2.497471906010018e-05,-0.00012348492940272848,-4.218772605701915e-06,-0.00037836549396180085,-0.000439795783025272,-1.5752776327687164e-06,-0.00038572957037976715,0.0005439461663882694,0.0005484203776353745,0.001489297642954331,0.8869869112968445,46.52419662475586,5.762844562530518,-19.511445999145508,-0.5523582100868225,-2.3916659355163574,0.14590780436992645,0
15,0.06999492645263672,-0.8869869112968445,-46.52419662475586,-5.762844562530518,19.511445999145508,0.5523582100868225,2.3916659355163574,-0.14590780436992645,0.0,0.0,0.0,0.0,0.0,0.0,0.0,-0.8533721262215637,-0.17042172834714003,-0.5881245961559647,0.31785347155706445,-0.047932329542544026,0.1140183816556774,-0.19139290620888116,0.8781417186678501,0.7549793835104558,-0.28245845299200517,-1.668857597291998,0.1414435702362907,2.403568602297041,1.0273423190034099,0.878092876070424,0.7554597494309409,-0.2825552651693207,-1.6690993614607135,0.1414185955172306,2.4034451173676383,1.0273381002308042,0.00037836549396180085,0.000439795783025272,1.5752776327687164e-06,0.00038572957037976715,-0.0005439461663882694,-0.0005484203776353745,-0.001489297642954331,0.0,0.0,0.0,0.0,0.0,0.0,0.0,-4.8842597426101975e-05,0.00048036592048505966,-9.68121773155528e-05,-0.0002417641687155747,-2.497471906010018e-05,-0.00012348492940272848,-4.218772605701915e-06,-0.00037836549396180085,-0.000439795783025272,-1.5752776327687164e-06,-0.00038572957037976715,0.0005439461663882694,0.0005484203776353745,0.001489297642954331,0.8869869112968445,46.52419662475586,5.762844562530518,-19.511445999145508,-0.5523582100868225,-2.3916659355163574,0.14590780436992645,0
16,0.07499504089355469,-0.8076412081718445,-46.42501449584961,-5.762844562530518,19.559053421020508,0.5340476632118225,2.3852572441101074,-0.17978231608867645,0.0,0.0,0.0,0.0,0.0,0.0,0.0,-0.8459741719344366,-0.17031411914315686,-0.5816971260681599,0.31813530490254105,-0.047619727953681135,0.11379196757857568,-0.18894590872969896,0.8781361505483325,0.7549724233610589,-0.28245774435895676,-1.6688609290114578,0.14144560474157333,2.4035682017538282,1.0273460828380452,0.878092876070424,0.7554597494309409,-0.2825552651693207,-1.6690993614607135,0.1414185955172306,2.4034451173676383,1.0273381002308042,-0.0012003542657728304,-0.0019616076883684007,6.056448254421905e-05,-0.00037701743955321457,0.00022308610671820122,-0.0001630239711305639,-2.811040663477615e-07,0.0,0.0,0.0,0.0,0.0,0.0,0.0,-4.327447790852812e-05,0.0004873260698819992,-9.752081036396021e-05,-0.00023843244925569884,-2.700922434273334e-05,-0.0001230843861899089,-7.982607240997197e-06,0.0012003542657728304,0.0019616076883684007,-6.056448254421905e-05,0.00037701743955321457,-0.00022308610671820122,0.0001630239711305639,2.811040663477615e-07,0.8076412081718445,46.42501449584961,5.762844562530518,-19.559053421020508,-0.5340476632118225,-2.3852572441101074,0.17978231608867645,0
17,0.08016371726989746,-0.8076412081718445,-46.42501449584961,-5.762844562530518,19.559053421020508,0.5340476632118225,2.3852572441101074,-0.17978231608867645,0.0,0.0,0.0,0.0,0.0,0.0,0.0,-0.8459741719344366,-0.17031411914315686,-0.5816971260681599,0.31813530490254105,-0.047619727953681135,0.11379196757857568,-0.18894590872969896,0.8781361505483325,0.7549724233610589,-0.28245774435895676,-1.6688609290114578,0.14144560474157333,2.4035682017538282,1.0273460828380452,0.878092876070424,0.7554597494309409,-0.2825552651693207,-1.6690993614607135,0.1414185955172306,2.4034451173676383,1.0273381002308042,-0.0012003542657728304,-0.0019616076883684007,6.056448254421905e-05,-0.00037701743955321457,0.00022308610671820122,-0.0001630239711305639,-2.811040663477615e-07,0.0,0.0,0.0,0.0,0.0,0.0,0.0,-4.327447790852812e-05,0.0004873260698819992,-9.752081036396021e-05,-0.00023843244925569884,-2.700922434273334e-05,-0.0001230843861899089,-7.982607240997197e-06,0.0012003542657728304,0.0019616076883684007,-6.056448254421905e-05,0.00037701743955321457,-0.00022308610671820122,0.0001630239711305639,2.811040663477615e-07,0.8076412081718445,46.42501449584961,5.762844562530518,-19.559053421020508,-0.5340476632118225,-2.3852572441101074,0.17978231608867645,0
18,0.08499717712402344,-0.8592159152030945,-46.44881820678711,-5.762844562530518,19.535249710083008,0.5404563546180725,2.3852572441101074,-0.20083944499492645,0.0,0.0,0.0,0.0,0.0,0.0,0.0,-0.8570840014647018,-0.1647804581844837,-0.5892028481085937,0.3140388969295726,-0.04707218602367424,0.11306954796335408,-0.18925899716517067,0.8781397698260189,0.754974093796914,-0.28245846173651107,-1.6688593474359223,0.1414448926647504,2.403569314367583,1.0273484225190348,0.878092876070424,0.7554597494309409,-0.2825552651693207,-1.6690993614607135,0.1414185955172306,2.4034451173676383,1.0273381002308042,5.526722878959421e-05,-0.0011243028476622496,0.0007221335593201865,-9.384617285447879e-05,-0.0002356607253824596,-5.3421226661981185e-05,0.0005955948853236839,0.0,0.0,0.0,0.0,0.0,0.0,0.0,-4.689375559496778e-05,0.0004856556340268048,-9.680343280965564e-05,-0.00024001402479112421,-2.6297147519810382e-05,-0.00012419699994481448,-1.0322288230613097e-05,-5.526722878959421e-05,0.0011243028476622496,-0.0007221335593201865,9.384617285447879e-05,0.0002356607253824596,5.3421226661981185e-05,-0.0005955948853236839,0.8592159152030945,46.44881820678711,5.762844562530518,-19.535249710083008,-0.5404563546180725,-2.3852572441101074,0.20083944499492645,0
19,0.08999133110046387,-0.8592159152030945,-46.44881820678711,-5.762844562530518,19.535249710083008,0.5404563546180725,2.3852572441101074,-0.20083944499492645,0.0,0.0,0.0,0.0,0.0,0.0,0.0,-0.8570840014647018,-0.1647804581844837,-0.5892028481085937,0.3140388969295726,-0.04707218602367424,0.11306954796335408,-0.18925899716517067,0.8781397698260189,0.754974093796914,-0.28245846173651107,-1.6688593474359223,0.1414448926647504,2.403569314367583,1.0273484225190348,0.878092876070424,0.7554597494309409,-0.2825552651693207,-1.6690993614607135,0.1414185955172306,2.4034451173676383,1.0273381002308042,5.526722878959421e-05,-0.0011243028476622496,0.0007221335593201865,-9.384617285447879e-05,-0.0002356607253824596,-5.3421226661981185e-05,0.0005955948853236839,0.0,0.0,0.0,0.0,0.0,0.0,0.0,-4.689375559496778e-05,0.0004856556340268048,-9.680343280965564e-05,-0.00024001402479112421,-2.6297147519810382e-05,-0.00012419699994481448,-1.0322288230613097e-05,-5.526722878959421e-05,0.0011243028476622496,-0.0007221335593201865,9.384617285447879e-05,0.0002356607253824596,5.3421226661981185e-05,-0.0005955948853236839,0.8592159152030945,46.44881820678711,5.762844562530518,-19.535249710083008,-0.5404563546180725,-2.3852572441101074,0.20083944499492645,0
20,0.09499621391296387,-0.8354122042655945,-46.50039291381836,-5.711269855499268,19.511445999145508,0.5340476632118225,2.3852572441101074,-0.17337362468242645,0.0,0.0,0.0,0.0,0.0,0.0,0.0,-0.8580772768760926,-0.16538072529826092,-0.5894079313211296,0.31761492469052405,-0.04696205569687796,0.11370589746595007,-0.18918747231331484,0.8781380993901636,0.7549777130746005,-0.282462080010183,-1.6688576525809247,0.14144560474157333,2.403569314373864,1.0273453707612223,0.878092876070424,0.7554597494309409,-0.2825552651693207,-1.6690993614607135,0.1414185955172306,2.4034451173676383,1.0273381002308042,-0.0007042265152126994,0.00027144444179155784,-0.0007510784405605848,0.0006855922620993437,0.00011393394716581928,-0.0002461847610233638,-0.0010299623563008572,0.0,0.0,0.0,0.0,0.0,0.0,0.0,-4.5223319739662315e-05,0.0004820363563403651,-9.318515913769865e-05,-0.0002417088797888045,-2.700922434273334e-05,-0.00012419700622556817,-7.270530418157506e-06,0.0007042265152126994,-0.00027144444179155784,0.0007510784405605848,-0.0006855922620993437,-0.00011393394716581928,0.0002461847610233638,0.0010299623563008572,0.8354122042655945,46.50039291381836,5.711269855499268,-19.511445999145508,-0.5340476632118225,-2.3852572441101074,0.17337362468242645,0
21,0.09995293617248535,-0.8354122042655945,-46.50039291381836,-5.711269855499268,19.511445999145508,0.5340476632118225,2.3852572441101074,-0.17337362468242645,0.0,0.0,0.0,0.0,0.0,0.0,0.0,-0.8580772768760926,-0.16538072529826092,-0.5894079313211296,0.31761492469052405,-0.04696205569687796,0.11370589746595007,-0.18918747231331484,0.8781380993901636,0.7549777130746005,-0.282462080010183,-1.6688576525809247,0.14144560474157333,2.403569314373864,1.0273453707612223,0.878092876070424,0.7554597494309409,-0.2825552651693207,-1.6690993614607135,0.1414185955172306,2.4034451173676383,1.0273381002308042,-0.0007042265152126994,0.00027144444179155784,-0.0007510784405605848,0.0006855922620993437,0.00011393394716581928,-0.0002461847610233638,-0.0010299623563008572,0.0,0.0,0.0,0.0,0.0,0.0,0.0,-4.5223319739662315e-05,0.0004820363563403651,-9.318515913769865e-05,-0.0002417088797888045,-2.700922434273334e-05,-0.00012419700622556817,-7.270530418157506e-06,0.0007042265152126994,-0.00027144444179155784,0.0007510784405605848,-0.0006855922620993437,-0.00011393394716581928,0.0002461847610233638,0.0010299623563008572,0.8354122042655945,46.50039291381836,5.711269855499268,-19.511445999145508,-0.5340476632118225,-2.3852572441101074,0.17337362468242645,0
22,0.10500550270080566,-0.8354122042655945,-46.50039291381836,-5.762844562530518,19.511445999145508,0.5285544991493225,2.3852572441101074,-0.17337362468242645,0.0,0.0,0.0,0.0,0.0,0.0,0.0,-0.8612395773746985,-0.16583793790525847,-0.5904028369823551,0.31953071223217594,-0.04662892698342555,0.11419854697355028,-0.19000969471552168,0.8781380993901636,0.7549777130746005,-0.282458461740555,-1.6688576515256168,0.14144621509313585,2.403569314373864,1.0273453707612223,0.878092876070424,0.7554597494309409,-0.2825552651693207,-1.6690993614607135,0.1414185955172306,2.4034451173676383,1.0273381002308042,-0.0008101953926758363,0.00026303844411450526,0.00014323015003357253,0.0004981929919198267,0.00034450435363235157,8.499221744539367e-05,-0.0004652008998042939,0.0,0.0,0.0,0.0,0.0,0.0,0.0,-4.5223319739662315e-05,0.0004820363563403651,-9.680342876572379e-05,-0.00024170993509664562,-2.7619575905246663e-05,-0.00012419700622556817,-7.270530418157506e-06,0.0008101953926758363,-0.00026303844411450526,-0.00014323015003357253,-0.0004981929919198267,-0.00034450435363235157,-8.499221744539367e-05,0.0004652008998042939,0.8354122042655945,46.50039291381836,5.762844562530518,-19.511445999145508,-0.5285544991493225,-2.3852572441101074,0.17337362468242645,0
23,0.10999822616577148,-0.8354122042655945,-46.50039291381836,-5.762844562530518,19.511445999145508,0.5285544991493225,2.3852572441101074,-0.17337362468242645,0.0,0.0,0.0,0.0,0.0,0.0,0.0,-0.8612395773746985,-0.16583793790525847,-0.5904028369823551,0.31953071223217594,-0.04662892698342555,0.11419854697355028,-0.19000969471552168,0.8781380993901636,0.7549777130746005,-0.282458461740555,-1.6688576515256168,0.14144621509313585,2.403569314373864,1.0273453707612223,0.878092876070424,0.7554597494309409,-0.2825552651693207,-1.6690993614607135,0.1414185955172306,2.4034451173676383,1.0273381002308042,-0.0008101953926758363,0.00026303844411450526,0.00014323015003357253,0.0004981929919198267,0.00034450435363235157,8.499221744539367e-05,-0.0004652008998042939,0.0,0.0,0.0,0.0,0.0,0.0,0.0,-4.5223319739662315e-05,0.0004820363563403651,-9.680342876572379e-05,-0.00024170993509664562,-2.7619575905246663e-05,-0.00012419700622556817,-7.270530418157506e-06,0.0008101953926758363,-0.00026303844411450526,-0.00014323015003357253,-0.0004981929919198267,-0.00034450435363235157,-8.499221744539367e-05,0.0004652008998042939,0.8354122042655945,46.50039291381836,5.762844562530518,-19.511445999145508,-0.5285544991493225,-2.3852572441101074,0.17337362468242645,0
24,0.11499929428100586,-0.8354122042655945,-46.50039291381836,-5.762844562530518,19.511445999145508,0.5285544991493225,2.3852572441101074,-0.17337362468242645,0.0,0.0,0.0,0.0,0.0,0.0,0.0,-0.8612395773746985,-0.16583793790525847,-0.5904028369823551,0.31953071223217594,-0.04662892698342555,0.11419854697355028,-0.19000969471552168,0.8781380993901636,0.7549777130746005,-0.282458461740555,-1.6688576515256168,0.14144621509313585,2.403569314373864,1.0273453707612223,0.878092876070424,0.7554597494309409,-0.2825552651693207,-1.6690993614607135,0.1414185955172306,2.4034451173676383,1.0273381002308042,-0.0008101953926758363,0.00026303844411450526,0.00014323015003357253,0.0004981929919198267,0.00034450435363235157,8.499221744539367e-05,-0.0004652008998042939,0.0,0.0,0.0,0.0,0.0,0.0,0.0,-4.5223319739662315e-05,0.0004820363563403651,-9.680342876572379e-05,-0.00024170993509664562,-2.7619575905246663e-05,-0.00012419700622556817,-7.270530418157506e-06,0.0008101953926758363,-0.00026303844411450526,-0.00014323015003357253,-0.0004981929919198267,-0.00034450435363235157,-8.499221744539367e-05,0.0004652008998042939,0.8354122042655945,46.50039291381836,5.762844562530518,-19.511445999145508,-0.5285544991493225,-2.3852572441101074,0.17337362468242645,0
25,0.1199944019317627,-0.8354122042655945,-46.50039291381836,-5.762844562530518,19.511445999145508,0.5285544991493225,2.3852572441101074,-0.17337362468242645,0.0,0.0,0.0,0.0,0.0,0.0,0.0,-0.8612395773746985,-0.16583793790525847,-0.5904028369823551,0.31953071223217594,-0.04662892698342555,0.11419854697355028,-0.19000969471552168,0.8781380993901636,0.7549777130746005,-0.282458461740555,-1.6688576515256168,0.14144621509313585,2.403569314373864,1.0273453707612223,0.878092876070424,0.7554597494309409,-0.2825552651693207,-1.6690993614607135,0.1414185955172306,2.4034451173676383,1.0273381002308042,-0.0008101953926758363,0.00026303844411450526,0.00014323015003357253,0.0004981929919198267,0.00034450435363235157,8.499221744539367e-05,-0.0004652008998042939,0.0,0.0,0.0,0.0,0.0,0.0,0.0,-4.5223319739662315e-05,0.0004820363563403651,-9.680342876572379e-05,-0.00024170993509664562,-2.7619575905246663e-05,-0.00012419700622556817,-7.270530418157506e-06,0.0008101953926758363,-0.00026303844411450526,-0.00014323015003357253,-0.0004981929919198267,-0.00034450435363235157,-8.499221744539367e-05,0.0004652008998042939,0.8354122042655945,46.50039291381836,5.762844562530518,-19.511445999145508,-0.5285544991493225,-2.3852572441101074,0.17337362468242645,0
26,0.1254866123199463,-0.8592159152030945,-46.50039291381836,-5.735073566436768,19.487642288208008,0.5459495186805725,2.3788485527038574,-0.20083944499492645,0.0,0.0,0.0,0.0,0.0,0.0,0.0,-0.8601370573221132,-0.1577265616801445,-0.5903214412766417,0.3159608920130967,-0.04757643770039859,0.11410754241371387,-0.18915400729348814,0.8781397698260189,0.7549777130746005,-0.28246040766620667,-1.668855008411723,0.14144428231318792,2.403570026450687,1.0273484220345181,0.878092876070424,0.7554597494309409,-0.2825552651693207,-1.6690993614607135,0.1414185955172306,2.4034451173676383,1.0273381002308042,0.00021250477961388752,0.0005217084251331228,-0.0007600482204091274,0.0006442110520707322,-0.00044601983241784096,-4.152626978269132e-05,0.00020481330018500707,0.0,0.0,0.0,0.0,0.0,0.0,0.0,-4.689375559496778e-05,0.0004820363563403651,-9.485750311405416e-05,-0.0002443530489903978,-2.5686795957324815e-05,-0.00012490908304885195,-1.0321803713964073e-05,-0.00021250477961388752,-0.0005217084251331228,0.0007600482204091274,-0.0006442110520707322,0.00044601983241784096,4.152626978269132e-05,-0.00020481330018500707,0.8592159152030945,46.50039291381836,5.735073566436768,-19.487642288208008,-0.5459495186805725,-2.3788485527038574,0.20083944499492645,0
27,0.13019394874572754,-0.8592159152030945,-46.50039291381836,-5.735073566436768,19.487642288208008,0.5459495186805725,2.3788485527038574,-0.20083944499492645,0.0,0.0,0.0,0.0,0.0,0.0,0.0,-0.8601370573221132,-0.1577265616801445,-0.5903214412766417,0.3159608920130967,-0.04757643770039859,0.11410754241371387,-0.18915400729348814,0.8781397698260189,0.7549777130746005,-0.28246040766620667,-1.668855008411723,0.14144428231318792,2.403570026450687,1.0273484220345181,0.878092876070424,0.7554597494309409,-0.2825552651693207,-1.6690993614607135,0.1414185955172306,2.4034451173676383,1.0273381002308042,0.00021250477961388752,0.0005217084251331228,-0.0007600482204091274,0.0006442110520707322,-0.00044601983241784096,-4.152626978269132e-05,0.00020481330018500707,0.0,0.0,0.0,0.0,0.0,0.0,0.0,-4.689375559496778e-05,0.0004820363563403651,-9.485750311405416e-05,-0.0002443530489903978,-2.5686795957324815e-05,-0.00012490908304885195,-1.0321803713964073e-05,-0.00021250477961388752,-0.0005217084251331228,0.0007600482204091274,-0.0006442110520707322,0.00044601983241784096,4.152626978269132e-05,-0.00020481330018500707,0.8592159152030945,46.50039291381836,5.735073566436768,-19.487642288208008,-0.5459495186805725,-2.3788485527038574,0.20083944499492645,0
28,0.13499784469604492,-0.8354122042655945,-46.47658920288086,-5.762844562530518,19.535249710083008,0.5523582100868225,2.3788485527038574,-0.14590780436992645,0.0,0.0,0.0,0.0,0.0,0.0,0.0,-0.8422749094289045,-0.17230525371688635,-0.5814729089269435,0.3259834411416479,-0.0478175130323607,0.11528625367781715,-0.18850531434969958,0.8781380993901636,0.7549760426387452,-0.2824577529995384,-1.6688586087365542,0.141443570236365,2.403570026450687,1.0273423190034072,0.878092876070424,0.7554597494309409,-0.2825552651693207,-1.6690993614607135,0.1414185955172306,2.4034451173676383,1.0273381002308042,-0.0001713224191659779,-0.0005383898979319197,0.00048502703697493615,0.0001424238799803423,-0.0005343911457590663,0.00010280998403106865,-0.0015935467672476948,0.0,0.0,0.0,0.0,0.0,0.0,0.0,-4.5223319739662315e-05,0.0004837067921956706,-9.751216978232113e-05,-0.00024075272415924331,-2.4974719134401857e-05,-0.00012490908304885195,-4.2187726030373796e-06,0.0001713224191659779,0.0005383898979319197,-0.00048502703697493615,-0.0001424238799803423,0.0005343911457590663,-0.00010280998403106865,0.0015935467672476948,0.8354122042655945,46.47658920288086,5.762844562530518,-19.535249710083008,-0.5523582100868225,-2.3788485527038574,0.14590780436992645,0
29,0.13999295234680176,-0.8354122042655945,-46.47658920288086,-5.762844562530518,19.535249710083008,0.5523582100868225,2.3788485527038574,-0.14590780436992645,0.0,0.0,0.0,0.0,0.0,0.0,0.0,-0.8422749094289045,-0.17230525371688635,-0.5814729089269435,0.3259834411416479,-0.0478175130323607,0.11528625367781715,-0.18850531434969958,0.8781380993901636,0.7549760426387452,-0.2824577529995384,-1.6688586087365542,0.141443570236365,2.403570026450687,1.0273423190034072,0.878092876070424,0.7554597494309409,-0.2825552651693207,-1.6690993614607135,0.1414185955172306,2.4034451173676383,1.0273381002308042,-0.0001713224191659779,-0.0005383898979319197,0.00048502703697493615,0.0001424238799803423,-0.0005343911457590663,0.00010280998403106865,-0.0015935467672476948,0.0,0.0,0.0,0.0,0.0,0.0,0.0,-4.5223319739662315e-05,0.0004837067921956706,-9.751216978232113e-05,-0.00024075272415924331,-2.4974719134401857e-05,-0.00012490908304885195,-4.2187726030373796e-06,0.0001713224191659779,0.0005383898979319197,-0.00048502703697493615,-0.0001424238799803423,0.0005343911457590663,-0.00010280998403106865,0.0015935467672476948,0.8354122042655945,46.47658920288086,5.762844562530518,-19.535249710083008,-0.5523582100868225,-2.3788485527038574,0.14590780436992645,0
30,0.1449909210205078,-0.8076412081718445,-46.50039291381836,-5.762844562530518,19.586824417114258,0.5340476632118225,2.3788485527038574,-0.18710653483867645,0.0,0.0,0.0,0.0,0.0,0.0,0.0,-0.856834454894406,-0.1586533909486941,-0.5896889465031295,0.3170908538446139,-0.047235950735347615,0.11413580496925001,-0.1877224429677243,0.8781361505483325,0.7549777130746005,-0.28245838191949135,-1.668862928949935,0.14144560474157333,2.403570026450687,1.0273469011097955,0.878092876070424,0.7554597494309409,-0.2825552651693207,-1.6690993614607135,0.1414185955172306,2.4034451173676383,1.0273381002308042,-0.0012007968223209837,0.00039292371198196773,0.0002663657757530004,-0.0010468419666064814,0.00020656250238823556,3.299643091350803e-05,-0.00032658773719501763,0.0,0.0,0.0,0.0,0.0,0.0,0.0,-4.327447790852812e-05,0.0004820363563403651,-9.688324982937147e-05,-0.0002364325107784282,-2.700922434273334e-05,-0.00012490908304885195,-8.800878991355177e-06,0.0012007968223209837,-0.00039292371198196773,-0.0002663657757530004,0.0010468419666064814,-0.00020656250238823556,-3.299643091350803e-05,0.00032658773719501763,0.8076412081718445,46.50039291381836,5.762844562530518,-19.586824417114258,-0.5340476632118225,-2.3788485527038574,0.18710653483867645,0
31,0.1499924659729004,-0.8076412081718445,-46.50039291381836,-5.762844562530518,19.586824417114258,0.5340476632118225,2.3788485527038574,-0.18710653483867645,0.0,0.0,0.0,0.0,0.0,0.0,0.0,-0.856834454894406,-0.1586533909486941,-0.5896889465031295,0.3170908538446139,-0.047235950735347615,0.11413580496925001,-0.1877224429677243,0.8781361505483325,0.7549777130746005,-0.28245838191949135,-1.668862928949935,0.14144560474157333,2.403570026450687,1.0273469011097955,0.878092876070424,0.7554597494309409,-0.2825552651693207,-1.6690993614607135,0.1414185955172306,2.4034451173676383,1.0273381002308042,-0.0012007968223209837,0.00039292371198196773,0.0002663657757530004,-0.0010468419666064814,0.00020656250238823556,3.299643091350803e-05,-0.00032658773719501763,0.0,0.0,0.0,0.0,0.0,0.0,0.0,-4.327447790852812e-05,0.0004820363563403651,-9.688324982937147e-05,-0.0002364325107784282,-2.700922434273334e-05,-0.00012490908304885195,-8.800878991355177e-06,0.0012007968223209837,-0.00039292371198196773,-0.0002663657757530004,0.0010468419666064814,-0.00020656250238823556,-3.299643091350803e-05,0.00032658773719501763,0.8076412081718445,46.50039291381836,5.762844562530518,-19.586824417114258,-0.5340476632118225,-2.3788485527038574,0.18710653483867645,0
32,0.1577751636505127,-0.8354122042655945,-46.50039291381836,-5.735073566436768,19.559053421020508,0.5459495186805725,2.3724398612976074,-0.20083944499492645,0.0,0.0,0.0,0.0,0.0,0.0,0.0,-0.8614000281714299,-0.16552044526399418,-0.5911729781892371,0.32132679785979407,-0.04713764029866184,0.11457230113685087,-0.18903573616405234,0.8781380993901636,0.7549777130746005,-0.2824597009771809,-1.6688602669556012,0.14144428231318792,2.40357073852751,1.027348422465208,0.878092876070424,0.7554597494309409,-0.2825552651693207,-1.6690993614607135,0.1414185955172306,2.4034451173676383,1.0273381002308042,-0.0005395800438735033,-0.0002300067709286207,-0.0006119021898527338,-0.0005281601846195284,-0.0001827465473699673,0.00038371173257352193,0.0005259174660646738,0.0,0.0,0.0,0.0,0.0,0.0,0.0,-4.5223319739662315e-05,0.0004820363563403651,-9.55641921397965e-05,-0.00023909450511228059,-2.5686795957324815e-05,-0.00012562115987169165,-1.0322234403892239e-05,0.0005395800438735033,0.0002300067709286207,0.0006119021898527338,0.0005281601846195284,0.0001827465473699673,-0.00038371173257352193,-0.0005259174660646738,0.8354122042655945,46.50039291381836,5.735073566436768,-19.559053421020508,-0.5459495186805725,-2.3724398612976074,0.20083944499492645,0
33,0.15999436378479004,-0.8354122042655945,-46.50039291381836,-5.735073566436768,19.559053421020508,0.5459495186805725,2.3724398612976074,-0.20083944499492645,0.0,0.0,0.0,0.0,0.0,0.0,0.0,-0.8614000281714299,-0.16552044526399418,-0.5911729781892371,0.32132679785979407,-0.04713764029866184,0.11457230113685087,-0.18903573616405234,0.8781380993901636,0.7549777130746005,-0.2824597009771809,-1.6688602669556012,0.14144428231318792,2.40357073852751,1.027348422465208,0.878092876070424,0.7554597494309409,-0.2825552651693207,-1.6690993614607135,0.1414185955172306,2.4034451173676383,1.0273381002308042,-0.0005395800438735033,-0.0002300067709286207,-0.0006119021898527338,-0.0005281601846195284,-0.0001827465473699673,0.00038371173257352193,0.0005259174660646738,0.0,0.0,0.0,0.0,0.0,0.0,0.0,-4.5223319739662315e-05,0.0004820363563403651,-9.55641921397965e-05,-0.00023909450511228059,-2.5686795957324815e-05,-0.00012562115987169165,-1.0322234403892239e-05,0.0005395800438735033,0.0002300067709286207,0.0006119021898527338,0.0005281601846195284,0.0001827465473699673,-0.00038371173257352193,-0.0005259174660646738,0.8354122042655945,46.50039291381836,5.735073566436768,-19.559053421020508,-0.5459495186805725,-2.3724398612976074,0.20083944499492645,0
34,0.16499590873718262,-0.8592159152030945,-46.52419662475586,-5.735073566436768,19.535249710083008,0.5404563546180725,2.3788485527038574,-0.20724813640117645,0.0,0.0,0.0,0.0,0.0,0.0,0.0,-0.8616831822080732,-0.15641894074412585,-0.5872032543075152,0.31792257657660344,-0.04714762687036282,0.1139280409127633,-0.1889473939674811,0.8781397698260189,0.7549793835104558,-0.28245969319683156,-1.6688592670508564,0.1414448926647504,2.403570026450687,1.0273491345958574,0.878092876070424,0.7554597494309409,-0.2825552651693207,-1.6690993614607135,0.1414185955172306,2.4034451173676383,1.0273381002308042,-0.00014094077868824842,0.0011598811482395085,-0.0004764307900366049,-2.4462473857002425e-05,-5.898280012858404e-05,0.00013332760337535205,0.0005526357075278607,0.0,0.0,0.0,0.0,0.0,0.0,0.0,-4.689375559496778e-05,0.00048036592048505966,-9.557197248916127e-05,-0.0002400944098570612,-2.6297147519810382e-05,-0.00012490908304885195,-1.1034365053230744e-05,0.00014094077868824842,-0.0011598811482395085,0.0004764307900366049,2.4462473857002425e-05,5.898280012858404e-05,-0.00013332760337535205,-0.0005526357075278607,0.8592159152030945,46.52419662475586,5.735073566436768,-19.535249710083008,-0.5404563546180725,-2.3788485527038574,0.20724813640117645,0
35,0.16999125480651855,-0.8592159152030945,-46.52419662475586,-5.735073566436768,19.535249710083008,0.5404563546180725,2.3788485527038574,-0.20724813640117645,0.0,0.0,0.0,0.0,0.0,0.0,0.0,-0.8616831822080732,-0.15641894074412585,-0.5872032543075152,0.31792257657660344,-0.04714762687036282,0.1139280409127633,-0.1889473939674811,0.8781397698260189,0.7549793835104558,-0.28245969319683156,-1.6688592670508564,0.1414448926647504,2.403570026450687,1.0273491345958574,0.878092876070424,0.7554597494309409,-0.2825552651693207,-1.6690993614607135,0.1414185955172306,2.4034451173676383,1.0273381002308042,-0.00014094077868824842,0.0011598811482395085,-0.0004764307900366049,-2.4462473857002425e-05,-5.898280012858404e-05,0.00013332760337535205,0.0005526357075278607,0.0,0.0,0.0,0.0,0.0,0.0,0.0,-4.689375559496778e-05,0.00048036592048505966,-9.557197248916127e-05,-0.0002400944098570612,-2.6297147519810382e-05,-0.00012490908304885195,-1.1034365053230744e-05,0.00014094077868824842,-0.0011598811482395085,0.0004764307900366049,2.4462473857002425e-05,5.898280012858404e-05,-0.00013332760337535205,-0.0005526357075278607,0.8592159152030945,46.52419662475586,5.735073566436768,-19.535249710083008,-0.5404563546180725,-2.3788485527038574,0.20724813640117645,0
36,0.17499184608459473,-0.8592159152030945,-46.44881820678711,-5.810451984405518,19.535249710083008,0.5285544991493225,2.3916659355163574,-0.15964071452617645,0.0,0.0,0.0,0.0,0.0,0.0,0.0,-0.8512694258577087,-0.16705622688350782,-0.5789998174911576,0.32405586716563306,-0.047172835660538724,0.11464634363691599,-0.18976950984531804,0.8781397698260189,0.754974093796914,-0.2824550942951133,-1.6688586087417352,0.14144621509313585,2.403568602297041,1.027343844882316,0.878092876070424,0.7554597494309409,-0.2825552651693207,-1.6690993614607135,0.1414185955172306,2.4034451173676383,1.0273381002308042,6.887300018119047e-05,-0.0011054903887974033,0.001206712395239575,0.00010659294730982459,0.007457904415187648,-0.00046460247047829504,-0.0014740621577003824,0.0,0.0,0.0,0.0,0.0,0.0,0.0,-4.689375559496778e-05,0.0004856556340268048,-0.0001001708742074392,-0.00024075271897827655,-2.7619575905246663e-05,-0.00012348492940272848,-5.744651511818688e-06,-6.887300018119047e-05,0.0011054903887974033,-0.001206712395239575,-0.00010659294730982459,-0.007457904415187648,0.00046460247047829504,0.0014740621577003824,0.8592159152030945,46.44881820678711,5.810451984405518,-19.535249710083008,-0.5285544991493225,-2.3916659355163574,0.15964071452617645,0
37,0.18004250526428223,-0.8592159152030945,-46.44881820678711,-5.810451984405518,19.535249710083008,0.5285544991493225,2.3916659355163574,-0.15964071452617645,0.0,0.0,0.0,0.0,0.0,0.0,0.0,-0.8512694258577087,-0.16705622688350782,-0.5789998174911576,0.32405586716563306,-0.047172835660538724,0.11464634363691599,-0.18976950984531804,0.8781397698260189,0.754974093796914,-0.2824550942951133,-1.6688586087417352,0.14144621509313585,2.403568602297041,1.027343844882316,0.878092876070424,0.7554597494309409,-0.2825552651693207,-1.6690993614607135,0.1414185955172306,2.4034451173676383,1.0273381002308042,6.887300018119047e-05,-0.0011054903887974033,0.001206712395239575,0.00010659294730982459,0.007457904415187648,-0.00046460247047829504,-0.0014740621577003824,0.0,0.0,0.0,0.0,0.0,0.0,0.0,-4.689375559496778e-05,0.0004856556340268048,-0.0001001708742074392,-0.00024075271897827655,-2.7619575905246663e-05,-0.00012348492940272848,-5.744651511818688e-06,-6.887300018119047e-05,0.0011054903887974033,-0.001206712395239575,-0.00010659294730982459,-0.007457904415187648,0.00046460247047829504,0.0014740621577003824,0.8592159152030945,46.44881820678711,5.810451984405518,-19.535249710083008,-0.5285544991493225,-2.3916659355163574,0.15964071452617645,0
38,0.1849977970123291,-0.8592159152030945,-46.44881820678711,-5.810451984405518,19.535249710083008,0.5285544991493225,2.3916659355163574,-0.15964071452617645,0.0,0.0,0.0,0.0,0.0,0.0,0.0,-0.8512694258577087,-0.16705622688350782,-0.5789998174911576,0.32405586716563306,-0.047172835660538724,0.11464634363691599,-0.18976950984531804,0.8781397698260189,0.754974093796914,-0.2824550942951133,-1.6688586087417352,0.14144621509313585,2.403568602297041,1.027343844882316,0.878092876070424,0.7554597494309409,-0.2825552651693207,-1.6690993614607135,0.1414185955172306,2.4034451173676383,1.0273381002308042,6.887300018119047e-05,-0.0011054903887974033,0.001206712395239575,0.00010659294730982459,0.007457904415187648,-0.00046460247047829504,-0.0014740621577003824,0.0,0.0,0.0,0.0,0.0,0.0,0.0,-4.689375559496778e-05,0.0004856556340268048,-0.0001001708742074392,-0.00024075271897827655,-2.7619575905246663e-05,-0.00012348492940272848,-5.744651511818688e-06,-6.887300018119047e-05,0.0011054903887974033,-0.001206712395239575,-0.00010659294730982459,-0.007457904415187648,0.00046460247047829504,0.0014740621577003824,0.8592159152030945,46.44881820678711,5.810451984405518,-19.535249710083008,-0.5285544991493225,-2.3916659355163574,0.15964071452617645,0
39,0.19002723693847656,-0.8354122042655945,-46.52419662475586,-5.735073566436768,19.586824417114258,0.5340476632118225,2.3724398612976074,-0.20724813640117645,0.0,0.0,0.0,0.0,0.0,0.0,0.0,-0.8536028868605239,-0.1534122605788358,-0.5819364808315733,0.3174760443493753,-0.04796708670024291,0.11351782161191043,-0.19017644677136444,0.8781380993901636,0.7549793835104558,-0.2824603832565066,-1.6688629422902963,0.1414455652504301,2.40357073852751,1.0273491345958576,0.878092876070424,0.7554597494309409,-0.2825552651693207,-1.6690993614607135,0.1414185955172306,2.4034451173676383,1.0273381002308042,-0.0002776615968746294,0.001551931490416495,-0.000910562831874607,-0.0012003561570593927,0.0005179410405574041,0.0003839160361497798,0.0006099433963682494,0.0,0.0,0.0,0.0,0.0,0.0,0.0,-4.5223319739662315e-05,0.00048036592048505966,-9.48819128141487e-05,-0.0002364191704171681,-2.696973319948892e-05,-0.00012562115987169165,-1.1034365053452788e-05,0.0002776615968746294,-0.001551931490416495,0.000910562831874607,0.0012003561570593927,-0.0005179410405574041,-0.0003839160361497798,-0.0006099433963682494,0.8354122042655945,46.52419662475586,5.735073566436768,-19.586824417114258,-0.5340476632118225,-2.3724398612976074,0.20724813640117645,0
40,0.19577288627624512,-0.8869869112968445,-46.47658920288086,-5.711269855499268,19.535249710083008,0.5459495186805725,2.3724398612976074,-0.20083944499492645,0.0,0.0,0.0,0.0,0.0,0.0,0.0,-0.855057111620398,-0.1665372050822926,-0.5869301274107039,0.32547386264104566,-0.047624300074156765,0.11452891453662249,-0.19142082582195385,0.8781417186678501,0.7549767578944825,-0.2824620547724262,-1.6688571160913035,0.141444282312965,2.40357073852751,1.0273484225190348,0.878092876070424,0.7554597494309409,-0.2825552651693207,-1.6690993614607135,0.1414185955172306,2.4034451173676383,1.0273381002308042,0.0006277991746638278,-0.00029948556674061066,-0.0007793271574414721,-0.00024092782121422156,-0.0004281848315180149,0.0003703512519666656,0.0007743521023146367,0.0,0.0,0.0,0.0,0.0,0.0,0.0,-4.8842597426101975e-05,0.0004829915364583659,-9.321039689452748e-05,-0.00024224536940997687,-2.568679573439203e-05,-0.00012562115987169165,-1.0322288230613097e-05,-0.0006277991746638278,0.00029948556674061066,0.0007793271574414721,0.00024092782121422156,0.0004281848315180149,-0.0003703512519666656,-0.0007743521023146367,0.8869869112968445,46.47658920288086,5.711269855499268,-19.535249710083008,-0.5459495186805725,-2.3724398612976074,0.20083944499492645,0
41,0.19995594024658203,-0.8869869112968445,-46.47658920288086,-5.711269855499268,19.535249710083008,0.5459495186805725,2.3724398612976074,-0.20083944499492645,0.0,0.0,0.0,0.0,0.0,0.0,0.0,-0.855057111620398,-0.1665372050822926,-0.5869301274107039,0.32547386264104566,-0.047624300074156765,0.11452891453662249,-0.19142082582195385,0.8781417186678501,0.7549767578944825,-0.2824620547724262,-1.6688571160913035,0.141444282312965,2.40357073852751,1.0273484225190348,0.878092876070424,0.7554597494309409,-0.2825552651693207,-1.6690993614607135,0.1414185955172306,2.4034451173676383,1.0273381002308042,0.0006277991746638278,-0.00029948556674061066,-0.0007793271574414721,-0.00024092782121422156,-0.0004281848315180149,0.0003703512519666656,0.0007743521023146367,0.0,0.0,0.0,0.0,0.0,0.0,0.0,-4.8842597426101975e-05,0.0004829915364583659,-9.321039689452748e-05,-0.00024224536940997687,-2.568679573439203e-05,-0.00012562115987169165,-1.0322288230613097e-05,-0.0006277991746638278,0.00029948556674061066,0.0007793271574414721,0.00024092782121422156,0.0004281848315180149,-0.0003703512519666656,-0.0007743521023146367,0.8869869112968445,46.47658920288086,5.711269855499268,-19.535249710083008,-0.5459495186805725,-2.3724398612976074,0.20083944499492645,0
42,0.20499253273010254,-0.8869869112968445,-46.47658920288086,-5.711269855499268,19.535249710083008,0.5459495186805725,2.3724398612976074,-0.20083944499492645,0.0,0.0,0.0,0.0,0.0,0.0,0.0,-0.855057111620398,-0.1665372050822926,-0.5869301274107039,0.32547386264104566,-0.047624300074156765,0.11452891453662249,-0.19142082582195385,0.8781417186678501,0.7549767578944825,-0.2824620547724262,-1.6688571160913035,0.141444282312965,2.40357073852751,1.0273484225190348,0.878092876070424,0.7554597494309409,-0.2825552651693207,-1.6690993614607135,0.1414185955172306,2.4034451173676383,1.0273381002308042,0.0006277991746638278,-0.00029948556674061066,-0.0007793271574414721,-0.00024092782121422156,-0.0004281848315180149,0.0003703512519666656,0.0007743521023146367,0.0,0.0,0.0,0.0,0.0,0.0,0.0,-4.8842597426101975e-05,0.0004829915364583659,-9.321039689452748e-05,-0.00024224536940997687,-2.568679573439203e-05,-0.00012562115987169165,-1.0322288230613097e-05,-0.0006277991746638278,0.00029948556674061066,0.0007793271574414721,0.00024092782121422156,0.0004281848315180149,-0.0003703512519666656,-0.0007743521023146367,0.8869869112968445,46.47658920288086,5.711269855499268,-19.535249710083008,-0.5459495186805725,-2.3724398612976074,0.20083944499492645,0
43,0.2099933624267578,-0.8869869112968445,-46.42501449584961,-5.762844562530518,19.487642288208008,0.5404563546180725,2.3788485527038574,-0.19351522624492645,0.0,0.0,0.0,0.0,0.0,0.0,0.0,-0.8587060704313408,-0.15240821029801488,-0.5829507234632008,0.317642068162029,-0.047968183555533075,0.11321923758782938,-0.18967227444164922,0.8781417186678501,0.7549724233650964,-0.28245775310741356,-1.6688559231183333,0.1414448926647504,2.403570025941945,1.0273476087169515,0.878092876070424,0.7554597494309409,-0.2825552651693207,-1.6690993614607135,0.1414185955172306,2.4034451173676383,1.0273381002308042,0.0007484150749355779,-0.0014170295798274389,0.00047626873952687736,0.0008663368962833312,-5.162889361702101e-05,0.00031051804456813306,6.982483099352017e-05,0.0,0.0,0.0,0.0,0.0,0.0,0.0,-4.8842597426101975e-05,0.00048732606584445115,-9.751206190716788e-05,-0.00024343834238016449,-2.6297147519810382e-05,-0.0001249085743064704,-9.508486147336015e-06,-0.0007484150749355779,0.0014170295798274389,-0.00047626873952687736,-0.0008663368962833312,5.162889361702101e-05,-0.00031051804456813306,-6.982483099352017e-05,0.8869869112968445,46.42501449584961,5.762844562530518,-19.487642288208008,-0.5404563546180725,-2.3788485527038574,0.19351522624492645,0
44,0.21499395370483398,-0.8869869112968445,-46.42501449584961,-5.762844562530518,19.487642288208008,0.5404563546180725,2.3788485527038574,-0.19351522624492645,0.0,0.0,0.0,0.0,0.0,0.0,0.0,-0.8587060704313408,-0.15240821029801488,-0.5829507234632008,0.317642068162029,-0.047968183555533075,0.11321923758782938,-0.18967227444164922,0.8781417186678501,0.7549724233650964,-0.28245775310741356,-1.6688559231183333,0.1414448926647504,2.403570025941945,1.0273476087169515,0.878092876070424,0.7554597494309409,-0.2825552651693207,-1.6690993614607135,0.1414185955172306,2.4034451173676383,1.0273381002308042,0.0007484150749355779,-0.0014170295798274389,0.00047626873952687736,0.0008663368962833312,-5.162889361702101e-05,0.00031051804456813306,6.982483099352017e-05,0.0,0.0,0.0,0.0,0.0,0.0,0.0,-4.8842597426101975e-05,0.00048732606584445115,-9.751206190716788e-05,-0.00024343834238016449,-2.6297147519810382e-05,-0.0001249085743064704,-9.508486147336015e-06,-0.0007484150749355779,0.0014170295798274389,-0.00047626873952687736,-0.0008663368962833312,5.162889361702101e-05,-0.00031051804456813306,-6.982483099352017e-05,0.8869869112968445,46.42501449584961,5.762844562530518,-19.487642288208008,-0.5404563546180725,-2.3788485527038574,0.19351522624492645,0
45,0.22006869316101074,-0.8869869112968445,-46.47658920288086,-5.735073566436768,19.487642288208008,0.5285544991493225,2.3788485527038574,-0.16604940593242645,0.0,0.0,0.0,0.0,0.0,0.0,0.0,-0.844903030048015,-0.1648156602462721,-0.5726484353145049,0.32341287377321837,-0.04822760604436727,0.11484774977090595,-0.19014206334294287,0.8781417186678501,0.7549760426387452,-0.2824604105423893,-1.6688537843766265,0.14144621509313585,2.4035700264506845,1.027344556959139,0.878092876070424,0.7554597494309409,-0.2825552651693207,-1.6690993614607135,0.1414185955172306,2.4034451173676383,1.0273381002308042,0.0015295967648356003,-0.0003613475332496666,-0.00020306062351682698,0.0007672362389028904,0.004208589136646617,7.745983127016047e-05,-0.0008793111828119811,0.0,0.0,0.0,0.0,0.0,0.0,0.0,-4.8842597426101975e-05,0.0004837067921956706,-9.485462693142876e-05,-0.00024557708408701195,-2.7619575905246663e-05,-0.00012490908304618742,-6.456728334880424e-06,-0.0015295967648356003,0.0003613475332496666,0.00020306062351682698,-0.0007672362389028904,-0.004208589136646617,-7.745983127016047e-05,0.0008793111828119811,0.8869869112968445,46.47658920288086,5.735073566436768,-19.487642288208008,-0.5285544991493225,-2.3788485527038574,0.16604940593242645,0
46,0.2249908447265625,-0.8869869112968445,-46.47658920288086,-5.735073566436768,19.487642288208008,0.5285544991493225,2.3788485527038574,-0.16604940593242645,0.0,0.0,0.0,0.0,0.0,0.0,0.0,-0.844903030048015,-0.1648156602462721,-0.5726484353145049,0.32341287377321837,-0.04822760604436727,0.11484774977090595,-0.19014206334294287,0.8781417186678501,0.7549760426387452,-0.2824604105423893,-1.6688537843766265,0.14144621509313585,2.4035700264506845,1.027344556959139,0.878092876070424,0.7554597494309409,-0.2825552651693207,-1.6690993614607135,0.1414185955172306,2.4034451173676383,1.0273381002308042,0.0015295967648356003,-0.0003613475332496666,-0.00020306062351682698,0.0007672362389028904,0.004208589136646617,7.745983127016047e-05,-0.0008793111828119811,0.0,0.0,0.0,0.0,0.0,0.0,0.0,-4.8842597426101975e-05,0.0004837067921956706,-9.485462693142876e-05,-0.00024557708408701195,-2.7619575905246663e-05,-0.00012490908304618742,-6.456728334880424e-06,-0.0015295967648356003,0.0003613475332496666,0.00020306062351682698,-0.0007672362389028904,-0.004208589136646617,-7.745983127016047e-05,0.0008793111828119811,0.8869869112968445,46.47658920288086,5.735073566436768,-19.487642288208008,-0.5285544991493225,-2.3788485527038574,0.16604940593242645,0
47,0.23012280464172363,-0.8869869112968445,-46.47658920288086,-5.735073566436768,19.487642288208008,0.5285544991493225,2.3788485527038574,-0.16604940593242645,0.0,0.0,0.0,0.0,0.0,0.0,0.0,-0.844903030048015,-0.1648156602462721,-0.5726484353145049,0.32341287377321837,-0.04822760604436727,0.11484774977090595,-0.19014206334294287,0.8781417186678501,0.7549760426387452,-0.2824604105423893,-1.6688537843766265,0.14144621509313585,2.4035700264506845,1.027344556959139,0.878092876070424,0.7554597494309409,-0.2825552651693207,-1.6690993614607135,0.1414185955172306,2.4034451173676383,1.0273381002308042,0.0015295967648356003,-0.0003613475332496666,-0.00020306062351682698,0.0007672362389028904,0.004208589136646617,7.745983127016047e-05,-0.0008793111828119811,0.0,0.0,0.0,0.0,0.0,0.0,0.0,-4.8842597426101975e-05,0.0004837067921956706,-9.485462693142876e-05,-0.00024557708408701195,-2.7619575905246663e-05,-0.00012490908304618742,-6.456728334880424e-06,-0.0015295967648356003,0.0003613475332496666,0.00020306062351682698,-0.0007672362389028904,-0.004208589136646617,-7.745983127016047e-05,0.0008793111828119811,0.8869869112968445,46.47658920288086,5.735073566436768,-19.487642288208008,-0.5285544991493225,-2.3788485527038574,0.16604940593242645,0
48,0.2349393367767334,-0.8869869112968445,-46.47658920288086,-5.735073566436768,19.487642288208008,0.5285544991493225,2.3788485527038574,-0.16604940593242645,0.0,0.0,0.0,0.0,0.0,0.0,0.0,-0.844903030048015,-0.1648156602462721,-0.5726484353145049,0.32341287377321837,-0.04822760604436727,0.11484774977090595,-0.19014206334294287,0.8781417186678501,0.7549760426387452,-0.2824604105423893,-1.6688537843766265,0.14144621509313585,2.4035700264506845,1.027344556959139,0.878092876070424,0.7554597494309409,-0.2825552651693207,-1.6690993614607135,0.1414185955172306,2.4034451173676383,1.0273381002308042,0.0015295967648356003,-0.0003613475332496666,-0.00020306062351682698,0.0007672362389028904,0.004208589136646617,7.745983127016047e-05,-0.0008793111828119811,0.0,0.0,0.0,0.0,0.0,0.0,0.0,-4.8842597426101975e-05,0.0004837067921956706,-9.485462693142876e-05,-0.00024557708408701195,-2.7619575905246663e-05,-0.00012490908304618742,-6.456728334880424e-06,-0.0015295967648356003,0.0003613475332496666,0.00020306062351682698,-0.0007672362389028904,-0.004208589136646617,-7.745983127016047e-05,0.0008793111828119811,0.8869869112968445,46.47658920288086,5.735073566436768,-19.487642288208008,-0.5285544991493225,-2.3788485527038574,0.16604940593242645,0
49,0.23999285697937012,-0.7838374972343445,-46.50039291381836,-5.711269855499268,19.559053421020508,0.5459495186805725,2.3852572441101074,-0.20724813640117645,0.0,0.0,0.0,0.0,0.0,0.0,0.0,-0.8423305970749806,-0.15682976753555777,-0.5721237028314996,0.31942612749232546,-0.04877313267735835,0.11382498008391659,-0.18842436828630943,0.8781344801124772,0.7549777130746005,-0.2824620810182468,-1.6688610207991366,0.14144428231318792,2.403569314373864,1.0273491345958576,0.878092876070424,0.7554597494309409,-0.2825552651693207,-1.6690993614607135,0.1414185955172306,2.4034451173676383,1.0273381002308042,-0.0010819481620193989,0.0005046562992190663,-0.00037516174105459545,-0.00030311967399935483,-0.0003074226549485868,-0.00010380948787669021,0.001100463799211995,0.0,0.0,0.0,0.0,0.0,0.0,0.0,-4.1604042053222656e-05,0.0004820363563403651,-9.318415107389955e-05,-0.00023834066157690792,-2.5686795957324815e-05,-0.00012419700622556817,-1.1034365053452788e-05,0.0010819481620193989,-0.0005046562992190663,0.00037516174105459545,0.00030311967399935483,0.0003074226549485868,0.00010380948787669021,-0.001100463799211995,0.7838374972343445,46.50039291381836,5.711269855499268,-19.559053421020508,-0.5459495186805725,-2.3852572441101074,0.20724813640117645,0
50,0.24499726295471191,-0.7838374972343445,-46.50039291381836,-5.711269855499268,19.559053421020508,0.5459495186805725,2.3852572441101074,-0.20724813640117645,0.0,0.0,0.0,0.0,0.0,0.0,0.0,-0.8423305970749806,-0.15682976753555777,-0.5721237028314996,0.31942612749232546,-0.04877313267735835,0.11382498008391659,-0.18842436828630943,0.8781344801124772,0.7549777130746005,-0.2824620810182468,-1.6688610207991366,0.14144428231318792,2.403569314373864,1.0273491345958576,0.878092876070424,0.7554597494309409,-0.2825552651693207,-1.6690993614607135,0.1414185955172306,2.4034451173676383,1.0273381002308042,-0.0010819481620193989,0.0005046562992190663,-0.00037516174105459545,-0.00030311967399935483,-0.0003074226549485868,-0.00010380948787669021,0.001100463799211995,0.0,0.0,0.0,0.0,0.0,0.0,0.0,-4.1604042053222656e-05,0.0004820363563403651,-9.318415107389955e-05,-0.00023834066157690792,-2.5686795957324815e-05,-0.00012419700622556817,-1.1034365053452788e-05,0.0010819481620193989,-0.0005046562992190663,0.00037516174105459545,0.00030311967399935483,0.0003074226549485868,0.00010380948787669021,-0.001100463799211995,0.7838374972343445,46.50039291381836,5.711269855499268,-19.559053421020508,-0.5459495186805725,-2.3852572441101074,0.20724813640117645,0
51,0.24999451637268066,-0.8592159152030945,-46.47658920288086,-5.735073566436768,19.459871292114258,0.5404563546180725,2.3916659355163574,-0.20724813640117645,0.0,0.0,0.0,0.0,0.0,0.0,0.0,-0.8594450284234124,-0.17290784364633377,-0.5861346543438278,0.3254299386101388,-0.04832745795743624,0.11471745710424985,-0.18763217148217443,0.8781397698260189,0.7549760426387452,-0.28246017437139215,-1.6688530595322604,0.1414448926647504,2.403568602297041,1.0273491345958576,0.878092876070424,0.7554597494309409,-0.2825552651693207,-1.6690993614607135,0.1414185955172306,2.4034451173676383,1.0273381002308042,-0.00013212208083598944,-0.0011336645470762128,0.0003221269821074361,0.0022084438122137074,-0.00023430913341274288,-0.0003140650261604452,0.0010101241138927271,0.0,0.0,0.0,0.0,0.0,0.0,0.0,-4.689375559496778e-05,0.0004837067921956706,-9.509079792857644e-05,-0.0002463019284530965,-2.6297147519810382e-05,-0.00012348492940272848,-1.1034365053452788e-05,0.00013212208083598944,0.0011336645470762128,-0.0003221269821074361,-0.0022084438122137074,0.00023430913341274288,0.0003140650261604452,-0.0010101241138927271,0.8592159152030945,46.47658920288086,5.735073566436768,-19.459871292114258,-0.5404563546180725,-2.3916659355163574,0.20724813640117645,0
52,0.25495290756225586,-0.8592159152030945,-46.47658920288086,-5.735073566436768,19.459871292114258,0.5404563546180725,2.3916659355163574,-0.20724813640117645,0.0,0.0,0.0,0.0,0.0,0.0,0.0,-0.8594450284234124,-0.17290784364633377,-0.5861346543438278,0.3254299386101388,-0.04832745795743624,0.11471745710424985,-0.18763217148217443,0.8781397698260189,0.7549760426387452,-0.28246017437139215,-1.6688530595322604,0.1414448926647504,2.403568602297041,1.0273491345958576,0.878092876070424,0.7554597494309409,-0.2825552651693207,-1.6690993614607135,0.1414185955172306,2.4034451173676383,1.0273381002308042,-0.00013212208083598944,-0.0011336645470762128,0.0003221269821074361,0.0022084438122137074,-0.00023430913341274288,-0.0003140650261604452,0.0010101241138927271,0.0,0.0,0.0,0.0,0.0,0.0,0.0,-4.689375559496778e-05,0.0004837067921956706,-9.509079792857644e-05,-0.0002463019284530965,-2.6297147519810382e-05,-0.00012348492940272848,-1.1034365053452788e-05,0.00013212208083598944,0.0011336645470762128,-0.0003221269821074361,-0.0022084438122137074,0.00023430913341274288,0.0003140650261604452,-0.0010101241138927271,0.8592159152030945,46.47658920288086,5.735073566436768,-19.459871292114258,-0.5404563546180725,-2.3916659355163574,0.20724813640117645,0
53,0.2599976062774658,-0.8592159152030945,-46.44881820678711,-5.762844562530518,19.535249710083008,0.5459495186805725,2.3788485527038574,-0.19351522624492645,0.0,0.0,0.0,0.0,0.0,0.0,0.0,-0.8476146210162019,-0.15225169188420973,-0.5709292118202165,0.313777795115482,-0.049149098666066315,0.11357384370466082,-0.18732011321407688,0.8781397698260189,0.754974093796914,-0.282458461703225,-1.668859321654498,0.14144428231318792,2.403570026450687,1.0273476087169515,0.878092876070424,0.7554597494309409,-0.2825552651693207,-1.6690993614607135,0.1414185955172306,2.4034451173676383,1.0273381002308042,0.0002070754569288753,-0.0008369803659372261,0.0004674087530142269,-0.00012826273693585937,-0.00047904866087856946,0.00021890741529202251,-0.00044657801942565005,0.0,0.0,0.0,0.0,0.0,0.0,0.0,-4.689375559496778e-05,0.0004856556340268048,-9.680346609575174e-05,-0.00024003980621545296,-2.5686795957324815e-05,-0.00012490908304885195,-9.508486147336015e-06,-0.0002070754569288753,0.0008369803659372261,-0.0004674087530142269,0.00012826273693585937,0.00047904866087856946,-0.00021890741529202251,0.00044657801942565005,0.8592159152030945,46.44881820678711,5.762844562530518,-19.535249710083008,-0.5459495186805725,-2.3788485527038574,0.19351522624492645,0
54,0.26499390602111816,-0.8592159152030945,-46.44881820678711,-5.762844562530518,19.535249710083008,0.5459495186805725,2.3788485527038574,-0.19351522624492645,0.0,0.0,0.0,0.0,0.0,0.0,0.0,-0.8476146210162019,-0.15225169188420973,-0.5709292118202165,0.313777795115482,-0.049149098666066315,0.11357384370466082,-0.18732011321407688,0.8781397698260189,0.754974093796914,-0.282458461703225,-1.668859321654498,0.14144428231318792,2.403570026450687,1.0273476087169515,0.878092876070424,0.7554597494309409,-0.2825552651693207,-1.6690993614607135,0.1414185955172306,2.4034451173676383,1.0273381002308042,0.0002070754569288753,-0.0008369803659372261,0.0004674087530142269,-0.00012826273693585937,-0.00047904866087856946,0.00021890741529202251,-0.00044657801942565005,0.0,0.0,0.0,0.0,0.0,0.0,0.0,-4.689375559496778e-05,0.0004856556340268048,-9.680346609575174e-05,-0.00024003980621545296,-2.5686795957324815e-05,-0.00012490908304885195,-9.508486147336015e-06,-0.0002070754569288753,0.0008369803659372261,-0.0004674087530142269,0.00012826273693585937,0.00047904866087856946,-0.00021890741529202251,0.00044657801942565005,0.8592159152030945,46.44881820678711,5.762844562530518,-19.535249710083008,-0.5459495186805725,-2.3788485527038574,0.19351522624492645,0
55,0.2700009346008301,-0.8592159152030945,-46.47658920288086,-5.735073566436768,19.511445999145508,0.5340476632118225,2.3852572441101074,-0.17337362468242645,0.0,0.0,0.0,0.0,0.0,0.0,0.0,-0.8522409742173607,-0.1600151534098023,-0.5763848868559516,0.31648624883058707,-0.049229514153437924,0.11431048343651236,-0.18890754117103842,0.8781397698260189,0.7549760426387452,-0.2824580484723946,-1.668855451760026,0.14144560474157333,2.403569314373864,1.0273453707612223,0.878092876070424,0.7554597494309409,-0.2825552651693207,-1.6690993614607135,0.1414185955172306,2.4034451173676383,1.0273381002308042,9.321048717791765e-05,-6.509521251723562e-05,-0.00053831016950751,2.3745009610819075e-05,-8.07708336130249e-05,-0.00011250161199934465,0.0001235067189746335,0.0,0.0,0.0,0.0,0.0,0.0,0.0,-4.689375559496778e-05,0.0004837067921956706,-9.721669692613899e-05,-0.0002439097006874391,-2.700922434273334e-05,-0.00012419700622556817,-7.270530418157506e-06,-9.321048717791765e-05,6.509521251723562e-05,0.00053831016950751,-2.3745009610819075e-05,8.07708336130249e-05,0.00011250161199934465,-0.0001235067189746335,0.8592159152030945,46.47658920288086,5.735073566436768,-19.511445999145508,-0.5340476632118225,-2.3852572441101074,0.17337362468242645,0
56,0.2750418186187744,-0.8592159152030945,-46.47658920288086,-5.735073566436768,19.511445999145508,0.5340476632118225,2.3852572441101074,-0.17337362468242645,0.0,0.0,0.0,0.0,0.0,0.0,0.0,-0.8522409742173607,-0.1600151534098023,-0.5763848868559516,0.31648624883058707,-0.049229514153437924,0.11431048343651236,-0.18890754117103842,0.8781397698260189,0.7549760426387452,-0.2824580484723946,-1.668855451760026,0.14144560474157333,2.403569314373864,1.0273453707612223,0.878092876070424,0.7554597494309409,-0.2825552651693207,-1.6690993614607135,0.1414185955172306,2.4034451173676383,1.0273381002308042,9.321048717791765e-05,-6.509521251723562e-05,-0.00053831016950751,2.3745009610819075e-05,-8.07708336130249e-05,-0.00011250161199934465,0.0001235067189746335,0.0,0.0,0.0,0.0,0.0,0.0,0.0,-4.689375559496778e-05,0.0004837067921956706,-9.721669692613899e-05,-0.0002439097006874391,-2.700922434273334e-05,-0.00012419700622556817,-7.270530418157506e-06,-9.321048717791765e-05,6.509521251723562e-05,0.00053831016950751,-2.3745009610819075e-05,8.07708336130249e-05,0.00011250161199934465,-0.0001235067189746335,0.8592159152030945,46.47658920288086,5.735073566436768,-19.511445999145508,-0.5340476632118225,-2.3852572441101074,0.17337362468242645,0
57,0.28058743476867676,-0.8869869112968445,-46.44881820678711,-5.762844562530518,19.535249710083008,0.5404563546180725,2.3852572441101074,-0.19351522624492645,0.0,0.0,0.0,0.0,0.0,0.0,0.0,-0.8617209655524781,-0.16886605177685687,-0.5848761454965168,0.3231439342800055,-0.04909189951376055,0.11600825679739683,-0.18724282695800315,0.8781417186678501,0.754974093796914,-0.2824584617272265,-1.6688560405970527,0.1414448926647504,2.403569314373864,1.0273476092135811,0.878092876070424,0.7554597494309409,-0.2825552651693207,-1.6690993614607135,0.1414185955172306,2.4034451173676383,1.0273381002308042,0.0004982768255978186,-0.0009186686067054168,9.938405467701037e-05,3.935102465124152e-05,-0.00017133559017444203,-0.00013011174387226002,0.0007030138581354849,0.0,0.0,0.0,0.0,0.0,0.0,0.0,-4.8842597426101975e-05,0.0004856556340268048,-9.680344209422875e-05,-0.00024332086366074535,-2.6297147519810382e-05,-0.00012419700622556817,-9.508982776962327e-06,-0.0004982768255978186,0.0009186686067054168,-9.938405467701037e-05,-3.935102465124152e-05,0.00017133559017444203,0.00013011174387226002,-0.0007030138581354849,0.8869869112968445,46.44881820678711,5.762844562530518,-19.535249710083008,-0.5404563546180725,-2.3852572441101074,0.19351522624492645,0
58,0.28496646881103516,-0.8869869112968445,-46.44881820678711,-5.762844562530518,19.535249710083008,0.5404563546180725,2.3852572441101074,-0.19351522624492645,0.0,0.0,0.0,0.0,0.0,0.0,0.0,-0.8617209655524781,-0.16886605177685687,-0.5848761454965168,0.3231439342800055,-0.04909189951376055,0.11600825679739683,-0.18724282695800315,0.8781417186678501,0.754974093796914,-0.2824584617272265,-1.6688560405970527,0.1414448926647504,2.403569314373864,1.0273476092135811,0.878092876070424,0.7554597494309409,-0.2825552651693207,-1.6690993614607135,0.1414185955172306,2.4034451173676383,1.0273381002308042,0.0004982768255978186,-0.0009186686067054168,9.938405467701037e-05,3.935102465124152e-05,-0.00017133559017444203,-0.00013011174387226002,0.0007030138581354849,0.0,0.0,0.0,0.0,0.0,0.0,0.0,-4.8842597426101975e-05,0.0004856556340268048,-9.680344209422875e-05,-0.00024332086366074535,-2.6297147519810382e-05,-0.00012419700622556817,-9.508982776962327e-06,-0.0004982768255978186,0.0009186686067054168,-9.938405467701037e-05,-3.935102465124152e-05,0.00017133559017444203,0.00013011174387226002,-0.0007030138581354849,0.8869869112968445,46.44881820678711,5.762844562530518,-19.535249710083008,-0.5404563546180725,-2.3852572441101074,0.19351522624492645,0
59,0.2899434566497803,-0.8354122042655945,-46.47658920288086,-5.735073566436768,19.586824417114258,0.5285544991493225,2.3724398612976074,-0.15231649577617645,0.0,0.0,0.0,0.0,0.0,0.0,0.0,-0.8456680085847657,-0.15657966581905042,-0.5713964429126004,0.3196549311813905,-0.04928899943307811,0.11540952786563823,-0.1862855947012303,0.8781380993901636,0.7549760426387452,-0.28245970193739206,-1.668862969760355,0.14144621509313585,2.40357073852751,1.0273430355682944,0.878092876070424,0.7554597494309409,-0.2825552651693207,-1.6690993614607135,0.1414185955172306,2.4034451173676383,1.0273381002308042,-0.0005888477460727564,-0.00016767597711519092,-0.00030930268895364084,-0.0012851745805766196,0.00019352784891139046,0.0004742550445960552,-0.0016222378597914172,0.0,0.0,0.0,0.0,0.0,0.0,0.0,-4.5223319739662315e-05,0.0004837067921956706,-9.556323192866367e-05,-0.00023639170035849588,-2.7619575905246663e-05,-0.00012562115987169165,-4.935337490241665e-06,0.0005888477460727564,0.00016767597711519092,0.00030930268895364084,0.0012851745805766196,-0.00019352784891139046,-0.0004742550445960552,0.0016222378597914172,0.8354122042655945,46.47658920288086,5.735073566436768,-19.586824417114258,-0.5285544991493225,-2.3724398612976074,0.15231649577617645,0
60,0.294994592666626,-0.8354122042655945,-46.47658920288086,-5.735073566436768,19.586824417114258,0.5285544991493225,2.3724398612976074,-0.15231649577617645,0.0,0.0,0.0,0.0,0.0,0.0,0.0,-0.8456680085847657,-0.15657966581905042,-0.5713964429126004,0.3196549311813905,-0.04928899943307811,0.11540952786563823,-0.1862855947012303,0.8781380993901636,0.7549760426387452,-0.28245970193739206,-1.668862969760355,0.14144621509313585,2.40357073852751,1.0273430355682944,0.878092876070424,0.7554597494309409,-0.2825552651693207,-1.6690993614607135,0.1414185955172306,2.4034451173676383,1.0273381002308042,-0.0005888477460727564,-0.00016767597711519092,-0.00030930268895364084,-0.0012851745805766196,0.00019352784891139046,0.0004742550445960552,-0.0016222378597914172,0.0,0.0,0.0,0.0,0.0,0.0,0.0,-4.5223319739662315e-05,0.0004837067921956706,-9.556323192866367e-05,-0.00023639170035849588,-2.7619575905246663e-05,-0.00012562115987169165,-4.935337490241665e-06,0.0005888477460727564,0.00016767597711519092,0.00030930268895364084,0.0012851745805766196,-0.00019352784891139046,-0.0004742550445960552,0.0016222378597914172,0.8354122042655945,46.47658920288086,5.735073566436768,-19.586824417114258,-0.5285544991493225,-2.3724398612976074,0.15231649577617645,0
61,0.29999732971191406,-0.8354122042655945,-46.47658920288086,-5.735073566436768,19.559053421020508,0.5340476632118225,2.3852572441101074,-0.15964071452617645,0.0,0.0,0.0,0.0,0.0,0.0,0.0,-0.8589773167706439,-0.16409018912521003,-0.582907046265901,0.32335154001750094,-0.0496045736289215,0.11590587617439507,-0.1867152043054202,0.8781380993901636,0.7549760426387452,-0.2824604102543709,-1.6688610117673854,0.14144560474157333,2.403569314373864,1.0273438851093444,0.878092876070424,0.7554597494309409,-0.2825552651693207,-1.6690993614607135,0.1414185955172306,2.4034451173676383,1.0273381002308042,-0.00025860787271051225,-0.0005596274153844299,-0.000566487224264541,-0.00037374447531390983,-6.477666984596986e-05,-0.00016067120043764612,-0.0013119938108803395,0.0,0.0,0.0,0.0,0.0,0.0,0.0,-4.5223319739662315e-05,0.0004837067921956706,-9.485491494981568e-05,-0.00023834969332803269,-2.700922434273334e-05,-0.00012419700622556817,-5.784878540193716e-06,0.00025860787271051225,0.0005596274153844299,0.000566487224264541,0.00037374447531390983,6.477666984596986e-05,0.00016067120043764612,0.0013119938108803395,0.8354122042655945,46.47658920288086,5.735073566436768,-19.559053421020508,-0.5340476632118225,-2.3852572441101074,0.15964071452617645,0
62,0.3049943447113037,-0.8354122042655945,-46.47658920288086,-5.735073566436768,19.559053421020508,0.5340476632118225,2.3852572441101074,-0.15964071452617645,0.0,0.0,0.0,0.0,0.0,0.0,0.0,-0.8589773167706439,-0.16409018912521003,-0.582907046265901,0.32335154001750094,-0.0496045736289215,0.11590587617439507,-0.1867152043054202,0.8781380993901636,0.7549760426387452,-0.2824604102543709,-1.6688610117673854,0.14144560474157333,2.403569314373864,1.0273438851093444,0.878092876070424,0.7554597494309409,-0.2825552651693207,-1.6690993614607135,0.1414185955172306,2.4034451173676383,1.0273381002308042,-0.00025860787271051225,-0.0005596274153844299,-0.000566487224264541,-0.00037374447531390983,-6.477666984596986e-05,-0.00016067120043764612,-0.0013119938108803395,0.0,0.0,0.0,0.0,0.0,0.0,0.0,-4.5223319739662315e-05,0.0004837067921956706,-9.485491494981568e-05,-0.00023834969332803269,-2.700922434273334e-05,-0.00012419700622556817,-5.784878540193716e-06,0.00025860787271051225,0.0005596274153844299,0.000566487224264541,0.00037374447531390983,6.477666984596986e-05,0.00016067120043764612,0.0013119938108803395,0.8354122042655945,46.47658920288086,5.735073566436768,-19.559053421020508,-0.5340476632118225,-2.3852572441101074,0.15964071452617645,0
63,0.31049370765686035,-0.8354122042655945,-46.50039291381836,-5.735073566436768,19.559053421020508,0.5340476632118225,2.3852572441101074,-0.20083944499492645,0.0,0.0,0.0,0.0,0.0,0.0,0.0,-0.8534037835664177,-0.1555952570059529,-0.577956359597731,0.3202630554718154,-0.050212414422645936,0.11526155810966854,-0.18841515386551858,0.8781380993901636,0.7549777130746005,-0.28246041058238996,-1.6688609079461616,0.14144560474157333,2.403569190240673,1.027348422519262,0.878092876070424,0.7554597494309409,-0.2825552651693207,-1.6690993614607135,0.1414185955172306,2.4034451173676383,1.0273381002308042,-0.000537472289316117,-0.0001087345187727495,0.00016638135172696844,-0.0008305004665296305,0.00011474440400416213,3.6755662486190576e-05,0.0005755950303091288,0.0,0.0,0.0,0.0,0.0,0.0,0.0,-4.5223319739662315e-05,0.0004820363563403651,-9.485458693075932e-05,-0.00023845351455187291,-2.700922434273334e-05,-0.0001240728730347307,-1.0322288457764728e-05,0.000537472289316117,0.0001087345187727495,-0.00016638135172696844,0.0008305004665296305,-0.00011474440400416213,-3.6755662486190576e-05,-0.0005755950303091288,0.8354122042655945,46.50039291381836,5.735073566436768,-19.559053421020508,-0.5340476632118225,-2.3852572441101074,0.20083944499492645,0
64,0.3149547576904297,-0.8354122042655945,-46.50039291381836,-5.735073566436768,19.559053421020508,0.5340476632118225,2.3852572441101074,-0.20083944499492645,0.0,0.0,0.0,0.0,0.0,0.0,0.0,-0.8534037835664177,-0.1555952570059529,-0.577956359597731,0.3202630554718154,-0.050212414422645936,0.11526155810966854,-0.18841515386551858,0.8781380993901636,0.7549777130746005,-0.28246041058238996,-1.6688609079461616,0.14144560474157333,2.403569190240673,1.027348422519262,0.878092876070424,0.7554597494309409,-0.2825552651693207,-1.6690993614607135,0.1414185955172306,2.4034451173676383,1.0273381002308042,-0.000537472289316117,-0.0001087345187727495,0.00016638135172696844,-0.0008305004665296305,0.00011474440400416213,3.6755662486190576e-05,0.0005755950303091288,0.0,0.0,0.0,0.0,0.0,0.0,0.0,-4.5223319739662315e-05,0.0004820363563403651,-9.485458693075932e-05,-0.00023845351455187291,-2.700922434273334e-05,-0.0001240728730347307,-1.0322288457764728e-05,0.000537472289316117,0.0001087345187727495,-0.00016638135172696844,0.0008305004665296305,-0.00011474440400416213,-3.6755662486190576e-05,-0.0005755950303091288,0.8354122042655945,46.50039291381836,5.735073566436768,-19.559053421020508,-0.5340476632118225,-2.3852572441101074,0.20083944499492645,0
65,0.3200058937072754,-0.8592159152030945,-46.50039291381836,-5.762844562530518,19.535249710083008,0.5340476632118225,2.3916659355163574,-0.16604940593242645,0.0,0.0,0.0,0.0,0.0,0.0,0.0,-0.851208812788085,-0.155534108252991,-0.5756721587028256,0.3222568291043035,-0.04987159249183375,0.11565732284350111,-0.1894555542195241,0.8781397698260189,0.7549777130746005,-0.2824584617045584,-1.6688593409921557,0.14144560474157333,2.4035686022968075,1.027344556959139,0.878092876070424,0.7554597494309409,-0.2825552651693207,-1.6690993614607135,0.1414185955172306,2.4034451173676383,1.0273381002308042,0.0002203871322535791,0.0002904378345792536,0.00043500058579807016,-7.515050541673098e-05,0.00010483042082143209,-0.000240662559739695,-0.0007416105679546657,0.0,0.0,0.0,0.0,0.0,0.0,0.0,-4.689375559496778e-05,0.0004820363563403651,-9.680346476231838e-05,-0.0002400204685577556,-2.700922434273334e-05,-0.00012348492916913756,-6.456728334880424e-06,-0.0002203871322535791,-0.0002904378345792536,-0.00043500058579807016,7.515050541673098e-05,-0.00010483042082143209,0.000240662559739695,0.0007416105679546657,0.8592159152030945,46.50039291381836,5.762844562530518,-19.535249710083008,-0.5340476632118225,-2.3916659355163574,0.16604940593242645,0
66,0.32499146461486816,-0.8592159152030945,-46.50039291381836,-5.762844562530518,19.535249710083008,0.5340476632118225,2.3916659355163574,-0.16604940593242645,0.0,0.0,0.0,0.0,0.0,0.0,0.0,-0.851208812788085,-0.155534108252991,-0.5756721587028256,0.3222568291043035,-0.04987159249183375,0.11565732284350111,-0.1894555542195241,0.8781397698260189,0.7549777130746005,-0.2824584617045584,-1.6688593409921557,0.14144560474157333,2.4035686022968075,1.027344556959139,0.878092876070424,0.7554597494309409,-0.2825552651693207,-1.6690993614607135,0.1414185955172306,2.4034451173676383,1.0273381002308042,0.0002203871322535791,0.0002904378345792536,0.00043500058579807016,-7.515050541673098e-05,0.00010483042082143209,-0.000240662559739695,-0.0007416105679546657,0.0,0.0,0.0,0.0,0.0,0.0,0.0,-4.689375559496778e-05,0.0004820363563403651,-9.680346476231838e-05,-0.0002400204685577556,-2.700922434273334e-05,-0.00012348492916913756,-6.456728334880424e-06,-0.0002203871322535791,-0.0002904378345792536,-0.00043500058579807016,7.515050541673098e-05,-0.00010483042082143209,0.000240662559739695,0.0007416105679546657,0.8592159152030945,46.50039291381836,5.762844562530518,-19.535249710083008,-0.5340476632118225,-2.3916659355163574,0.16604940593242645,0
67,0.32999658584594727,-0.8592159152030945,-46.52419662475586,-5.762844562530518,19.535249710083008,0.5404563546180725,2.3788485527038574,-0.18710653483867645,0.0,0.0,0.0,0.0,0.0,0.0,0.0,-0.8570241301721163,-0.16098032546579333,-0.5829321351734682,0.3247894094745842,-0.04946977393183774,0.11652367230948865,-0.18995965334354364,0.8781397698260189,0.7549793835104558,-0.2824584617405605,-1.668859349471358,0.1414448926647504,2.403570026450687,1.0273468966401285,0.878092876070424,0.7554597494309409,-0.2825552651693207,-1.6690993614607135,0.1414185955172306,2.4034451173676383,1.0273381002308042,0.00018935259389981333,0.001026287198000337,0.00015476575362489845,-0.00019286610941255918,-0.0001914979505234632,4.382203346683229e-05,-0.007086453829611212,0.0,0.0,0.0,0.0,0.0,0.0,0.0,-4.689375559496778e-05,0.00048036592048505966,-9.680342876022818e-05,-0.00024001198935552637,-2.6297147519810382e-05,-0.00012490908304885195,-8.796409324274279e-06,-0.00018935259389981333,-0.001026287198000337,-0.00015476575362489845,0.00019286610941255918,0.0001914979505234632,-4.382203346683229e-05,0.007086453829611212,0.8592159152030945,46.52419662475586,5.762844562530518,-19.535249710083008,-0.5404563546180725,-2.3788485527038574,0.18710653483867645,0
68,0.33499717712402344,-0.8592159152030945,-46.52419662475586,-5.762844562530518,19.535249710083008,0.5404563546180725,2.3788485527038574,-0.18710653483867645,0.0,0.0,0.0,0.0,0.0,0.0,0.0,-0.8570241301721163,-0.16098032546579333,-0.5829321351734682,0.3247894094745842,-0.04946977393183774,0.11652367230948865,-0.18995965334354364,0.8781397698260189,0.7549793835104558,-0.2824584617405605,-1.668859349471358,0.1414448926647504,2.403570026450687,1.0273468966401285,0.878092876070424,0.7554597494309409,-0.2825552651693207,-1.6690993614607135,0.1414185955172306,2.4034451173676383,1.0273381002308042,0.00018935259389981333,0.001026287198000337,0.00015476575362489845,-0.00019286610941255918,-0.0001914979505234632,4.382203346683229e-05,-0.007086453829611212,0.0,0.0,0.0,0.0,0.0,0.0,0.0,-4.689375559496778e-05,0.00048036592048505966,-9.680342876022818e-05,-0.00024001198935552637,-2.6297147519810382e-05,-0.00012490908304885195,-8.796409324274279e-06,-0.00018935259389981333,-0.001026287198000337,-0.00015476575362489845,0.00019286610941255918,0.0001914979505234632,-4.382203346683229e-05,0.007086453829611212,0.8592159152030945,46.52419662475586,5.762844562530518,-19.535249710083008,-0.5404563546180725,-2.3788485527038574,0.18710653483867645,0
69,0.3400094509124756,-0.8592159152030945,-46.52419662475586,-5.762844562530518,19.535249710083008,0.5404563546180725,2.3788485527038574,-0.18710653483867645,0.0,0.0,0.0,0.0,0.0,0.0,0.0,-0.8570241301721163,-0.16098032546579333,-0.5829321351734682,0.3247894094745842,-0.04946977393183774,0.11652367230948865,-0.18995965334354364,0.8781397698260189,0.7549793835104558,-0.2824584617405605,-1.668859349471358,0.1414448926647504,2.403570026450687,1.0273468966401285,0.878092876070424,0.7554597494309409,-0.2825552651693207,-1.6690993614607135,0.1414185955172306,2.4034451173676383,1.0273381002308042,0.00018935259389981333,0.001026287198000337,0.00015476575362489845,-0.00019286610941255918,-0.0001914979505234632,4.382203346683229e-05,-0.007086453829611212,0.0,0.0,0.0,0.0,0.0,0.0,0.0,-4.689375559496778e-05,0.00048036592048505966,-9.680342876022818e-05,-0.00024001198935552637,-2.6297147519810382e-05,-0.00012490908304885195,-8.796409324274279e-06,-0.00018935259389981333,-0.001026287198000337,-0.00015476575362489845,0.00019286610941255918,0.0001914979505234632,-4.382203346683229e-05,0.007086453829611212,0.8592159152030945,46.52419662475586,5.762844562530518,-19.535249710083008,-0.5404563546180725,-2.3788485527038574,0.18710653483867645,0
70,0.3450000286102295,-0.8592159152030945,-46.52419662475586,-5.762844562530518,19.535249710083008,0.5404563546180725,2.3788485527038574,-0.18710653483867645,0.0,0.0,0.0,0.0,0.0,0.0,0.0,-0.8570241301721163,-0.16098032546579333,-0.5829321351734682,0.3247894094745842,-0.04946977393183774,0.11652367230948865,-0.18995965334354364,0.8781397698260189,0.7549793835104558,-0.2824584617405605,-1.668859349471358,0.1414448926647504,2.403570026450687,1.0273468966401285,0.878092876070424,0.7554597494309409,-0.2825552651693207,-1.6690993614607135,0.1414185955172306,2.4034451173676383,1.0273381002308042,0.00018935259389981333,0.001026287198000337,0.00015476575362489845,-0.00019286610941255918,-0.0001914979505234632,4.382203346683229e-05,-0.007086453829611212,0.0,0.0,0.0,0.0,0.0,0.0,0.0,-4.689375559496778e-05,0.00048036592048505966,-9.680342876022818e-05,-0.00024001198935552637,-2.6297147519810382e-05,-0.00012490908304885195,-8.796409324274279e-06,-0.00018935259389981333,-0.001026287198000337,-0.00015476575362489845,0.00019286610941255918,0.0001914979505234632,-4.382203346683229e-05,0.007086453829611212,0.8592159152030945,46.52419662475586,5.762844562530518,-19.535249710083008,-0.5404563546180725,-2.3788485527038574,0.18710653483867645,0
71,0.34999656677246094,-0.8354122042655945,-46.47658920288086,-5.735073566436768,19.535249710083008,0.5404563546180725,2.3788485527038574,-0.20724813640117645,0.0,0.0,0.0,0.0,0.0,0.0,0.0,-0.8522186980150173,-0.1606798215792088,-0.5793320583277112,0.3230111030912842,-0.04917064763363332,0.11630765654213679,-0.1903203342806358,0.8781380993901636,0.7549760426387452,-0.2824604105823918,-1.6688593230167912,0.14144169388214745,2.403570026450687,1.0273491345958576,0.878092876070424,0.7554597494309409,-0.2825552651693207,-1.6690993614607135,0.1414185955172306,2.4034451173676383,1.0273381002308042,-0.0005949817844256674,-0.00033050714294563294,-0.00013549401650268282,0.00011674428239698299,-0.0002430148595799845,-1.0350567461813346e-05,0.0007343950060912511,0.0,0.0,0.0,0.0,0.0,0.0,0.0,-4.5223319739662315e-05,0.0004837067921956706,-9.485458692892745e-05,-0.0002400384439222858,-2.3098364916845915e-05,-0.00012490908304885195,-1.1034365053452788e-05,0.0005949817844256674,0.00033050714294563294,0.00013549401650268282,-0.00011674428239698299,0.0002430148595799845,1.0350567461813346e-05,-0.0007343950060912511,0.8354122042655945,46.47658920288086,5.735073566436768,-19.535249710083008,-0.5404563546180725,-2.3788485527038574,0.20724813640117645,0
72,0.3549923896789551,-0.8354122042655945,-46.47658920288086,-5.735073566436768,19.535249710083008,0.5404563546180725,2.3788485527038574,-0.20724813640117645,0.0,0.0,0.0,0.0,0.0,0.0,0.0,-0.8522186980150173,-0.1606798215792088,-0.5793320583277112,0.3230111030912842,-0.04917064763363332,0.11630765654213679,-0.1903203342806358,0.8781380993901636,0.7549760426387452,-0.2824604105823918,-1.6688593230167912,0.14144169388214745,2.403570026450687,1.0273491345958576,0.878092876070424,0.7554597494309409,-0.2825552651693207,-1.6690993614607135,0.1414185955172306,2.4034451173676383,1.0273381002308042,-0.0005949817844256674,-0.00033050714294563294,-0.00013549401650268282,0.00011674428239698299,-0.0002430148595799845,-1.0350567461813346e-05,0.0007343950060912511,0.0,0.0,0.0,0.0,0.0,0.0,0.0,-4.5223319739662315e-05,0.0004837067921956706,-9.485458692892745e-05,-0.0002400384439222858,-2.3098364916845915e-05,-0.00012490908304885195,-1.1034365053452788e-05,0.0005949817844256674,0.00033050714294563294,0.00013549401650268282,-0.00011674428239698299,0.0002430148595799845,1.0350567461813346e-05,-0.0007343950060912511,0.8354122042655945,46.47658920288086,5.735073566436768,-19.535249710083008,-0.5404563546180725,-2.3788485527038574,0.20724813640117645,0
73,0.35999393463134766,-0.8592159152030945,-46.50039291381836,-5.762844562530518,19.586824417114258,0.5404563546180725,2.3852572441101074,-0.22098104655742645,0.0,0.0,0.0,0.0,0.0,0.0,0.0,-0.8381181324529468,-0.16931639652248698,-0.5693788138417695,0.32721958269424845,-0.0490509992448898,0.11645999220939914,-0.1881154764433959,0.8781397698260189,0.7549777130746005,-0.28245846141654013,-1.668862969653374,0.1414448926466932,2.403569314373864,1.027350673883765,0.878092876070424,0.7554597494309409,-0.2825552651693207,-1.6690993614607135,0.1414185955172306,2.4034451173676383,1.0273381002308042,0.0005889815746220662,-0.00010188945634692937,0.0007527827204842134,-0.0008979427795690326,-0.00010967020690927477,-0.0002861370061021316,0.002013246157688121,0.0,0.0,0.0,0.0,0.0,0.0,0.0,-4.689375559496778e-05,0.0004820363563403651,-9.680375278059428e-05,-0.0002363918073393645,-2.6297129462587998e-05,-0.00012419700622556817,-1.2573652960812254e-05,-0.0005889815746220662,0.00010188945634692937,-0.0007527827204842134,0.0008979427795690326,0.00010967020690927477,0.0002861370061021316,-0.002013246157688121,0.8592159152030945,46.50039291381836,5.762844562530518,-19.586824417114258,-0.5404563546180725,-2.3852572441101074,0.22098104655742645,0
74,0.3650343418121338,-0.8592159152030945,-46.50039291381836,-5.762844562530518,19.586824417114258,0.5404563546180725,2.3852572441101074,-0.22098104655742645,0.0,0.0,0.0,0.0,0.0,0.0,0.0,-0.8381181324529468,-0.16931639652248698,-0.5693788138417695,0.32721958269424845,-0.0490509992448898,0.11645999220939914,-0.1881154764433959,0.8781397698260189,0.7549777130746005,-0.28245846141654013,-1.668862969653374,0.1414448926466932,2.403569314373864,1.027350673883765,0.878092876070424,0.7554597494309409,-0.2825552651693207,-1.6690993614607135,0.1414185955172306,2.4034451173676383,1.0273381002308042,0.0005889815746220662,-0.00010188945634692937,0.0007527827204842134,-0.0008979427795690326,-0.00010967020690927477,-0.0002861370061021316,0.002013246157688121,0.0,0.0,0.0,0.0,0.0,0.0,0.0,-4.689375559496778e-05,0.0004820363563403651,-9.680375278059428e-05,-0.0002363918073393645,-2.6297129462587998e-05,-0.00012419700622556817,-1.2573652960812254e-05,-0.0005889815746220662,0.00010188945634692937,-0.0007527827204842134,0.0008979427795690326,0.00010967020690927477,0.0002861370061021316,-0.002013246157688121,0.8592159152030945,46.50039291381836,5.762844562530518,-19.586824417114258,-0.5404563546180725,-2.3852572441101074,0.22098104655742645,0
75,0.36999082565307617,-0.8869869112968445,-46.47658920288086,-5.735073566436768,19.535249710083008,0.5404563546180725,2.3788485527038574,-0.21457235515117645,0.0,0.0,0.0,0.0,0.0,0.0,0.0,-0.8578494018131888,-0.1577541198540247,-0.581167043004311,0.3195309853362188,-0.048535547033537865,0.11462764132460808,-0.1862478556219064,0.8781417186678501,0.7549760426387452,-0.2824603318453901,-1.668859350488896,0.1414448926647503,2.403570026450687,1.0273499483980169,0.878092876070424,0.7554597494309409,-0.2825552651693207,-1.6690993614607135,0.1414185955172306,2.4034451173676383,1.0273381002308042,0.0010413167181383858,-0.00031039533366293516,-0.00029430659254473906,5.384113186047874e-05,1.821498558635751e-05,2.0115767079930328e-07,0.0007453677854840565,0.0,0.0,0.0,0.0,0.0,0.0,0.0,-4.8842597426101975e-05,0.0004837067921956706,-9.493332393062381e-05,-0.00024001097181747255,-2.629714751969936e-05,-0.00012490908304885195,-1.1848167212669125e-05,-0.0010413167181383858,0.00031039533366293516,0.00029430659254473906,-5.384113186047874e-05,-1.821498558635751e-05,-2.0115767079930328e-07,-0.0007453677854840565,0.8869869112968445,46.47658920288086,5.735073566436768,-19.535249710083008,-0.5404563546180725,-2.3788485527038574,0.21457235515117645,0
76,0.3757600784301758,-0.8869869112968445,-46.47658920288086,-5.735073566436768,19.535249710083008,0.5404563546180725,2.3788485527038574,-0.21457235515117645,0.0,0.0,0.0,0.0,0.0,0.0,0.0,-0.8578494018131888,-0.1577541198540247,-0.581167043004311,0.3195309853362188,-0.048535547033537865,0.11462764132460808,-0.1862478556219064,0.8781417186678501,0.7549760426387452,-0.2824603318453901,-1.668859350488896,0.1414448926647503,2.403570026450687,1.0273499483980169,0.878092876070424,0.7554597494309409,-0.2825552651693207,-1.6690993614607135,0.1414185955172306,2.4034451173676383,1.0273381002308042,0.0010413167181383858,-0.00031039533366293516,-0.00029430659254473906,5.384113186047874e-05,1.821498558635751e-05,2.0115767079930328e-07,0.0007453677854840565,0.0,0.0,0.0,0.0,0.0,0.0,0.0,-4.8842597426101975e-05,0.0004837067921956706,-9.493332393062381e-05,-0.00024001097181747255,-2.629714751969936e-05,-0.00012490908304885195,-1.1848167212669125e-05,-0.0010413167181383858,0.00031039533366293516,0.00029430659254473906,-5.384113186047874e-05,-1.821498558635751e-05,-2.0115767079930328e-07,-0.0007453677854840565,0.8869869112968445,46.47658920288086,5.735073566436768,-19.535249710083008,-0.5404563546180725,-2.3788485527038574,0.21457235515117645,0
77,0.37999701499938965,-0.8869869112968445,-46.44881820678711,-5.735073566436768,19.535249710083008,0.5221458077430725,2.3788485527038574,-0.15231649577617645,0.0,0.0,0.0,0.0,0.0,0.0,0.0,-0.8603404254126642,-0.16762312242861688,-0.5833325734019625,0.3236410886887968,-0.04724504270209224,0.11485851006747727,-0.18763078487531346,0.8781417186678501,0.754974093796914,-0.2824604105819474,-1.6688593504888967,0.14144692716995874,2.403570026450687,1.0273429918343762,0.878092876070424,0.7554597494309409,-0.2825552651693207,-1.6690993614607135,0.1414185955172306,2.4034451173676383,1.0273381002308042,0.0003996243977693842,-0.0011976709580926743,0.0002599773294033974,2.661059941831094e-05,0.0008419018818799478,0.00010491233253858029,-0.0044630228953302774,0.0,0.0,0.0,0.0,0.0,0.0,0.0,-4.8842597426101975e-05,0.0004856556340268048,-9.485458737334973e-05,-0.00024001097181680642,-2.8331652728141865e-05,-0.00012490908304885195,-4.8916035719770434e-06,-0.0003996243977693842,0.0011976709580926743,-0.0002599773294033974,-2.661059941831094e-05,-0.0008419018818799478,-0.00010491233253858029,0.0044630228953302774,0.8869869112968445,46.44881820678711,5.735073566436768,-19.535249710083008,-0.5221458077430725,-2.3788485527038574,0.15231649577617645,0
78,0.38495731353759766,-0.8869869112968445,-46.44881820678711,-5.735073566436768,19.535249710083008,0.5221458077430725,2.3788485527038574,-0.15231649577617645,0.0,0.0,0.0,0.0,0.0,0.0,0.0,-0.8603404254126642,-0.16762312242861688,-0.5833325734019625,0.3236410886887968,-0.04724504270209224,0.11485851006747727,-0.18763078487531346,0.8781417186678501,0.754974093796914,-0.2824604105819474,-1.6688593504888967,0.14144692716995874,2.403570026450687,1.0273429918343762,0.878092876070424,0.7554597494309409,-0.2825552651693207,-1.6690993614607135,0.1414185955172306,2.4034451173676383,1.0273381002308042,0.0003996243977693842,-0.0011976709580926743,0.0002599773294033974,2.661059941831094e-05,0.0008419018818799478,0.00010491233253858029,-0.0044630228953302774,0.0,0.0,0.0,0.0,0.0,0.0,0.0,-4.8842597426101975e-05,0.0004856556340268048,-9.485458737334973e-05,-0.00024001097181680642,-2.8331652728141865e-05,-0.00012490908304885195,-4.8916035719770434e-06,-0.0003996243977693842,0.0011976709580926743,-0.0002599773294033974,-2.661059941831094e-05,-0.0008419018818799478,-0.00010491233253858029,0.0044630228953302774,0.8869869112968445,46.44881820678711,5.735073566436768,-19.535249710083008,-0.5221458077430725,-2.3788485527038574,0.15231649577617645,0
79,0.3899955749511719,-0.8869869112968445,-46.50039291381836,-5.786648273468018,19.535249710083008,0.5285544991493225,2.3852572441101074,-0.22830526530742645,0.0,0.0,0.0,0.0,0.0,0.0,0.0,-0.8603647885895389,-0.1686854051823919,-0.5793030862674602,0.32544692737973224,-0.04689981926307928,0.11463728709563899,-0.18700496303378802,0.8781417176685343,0.7549777130746005,-0.2824567125677055,-1.6688593504888967,0.14144621509313585,2.403569314373864,1.0273514742766257,0.878092876070424,0.7554597494309409,-0.2825552651693207,-1.6690993614607135,0.1414185955172306,2.4034451173676383,1.0273381002308042,0.0001608820930422149,0.0005238061578425915,0.0012254619193607925,0.0005402169331373587,0.0003724228147102438,-0.00010675208120758319,0.0018591672384865332,0.0,0.0,0.0,0.0,0.0,0.0,0.0,-4.884159811036071e-05,0.0004820363563403651,-9.85526016152316e-05,-0.00024001097181680642,-2.7619575905246663e-05,-0.00012419700622556817,-1.3374045821468172e-05,-0.0001608820930422149,-0.0005238061578425915,-0.0012254619193607925,-0.0005402169331373587,-0.0003724228147102438,0.00010675208120758319,-0.0018591672384865332,0.8869869112968445,46.50039291381836,5.786648273468018,-19.535249710083008,-0.5285544991493225,-2.3852572441101074,0.22830526530742645,0
80,0.3950040340423584,-0.8869869112968445,-46.50039291381836,-5.786648273468018,19.535249710083008,0.5285544991493225,2.3852572441101074,-0.22830526530742645,0.0,0.0,0.0,0.0,0.0,0.0,0.0,-0.8603647885895389,-0.1686854051823919,-0.5793030862674602,0.32544692737973224,-0.04689981926307928,0.11463728709563899,-0.18700496303378802,0.8781417176685343,0.7549777130746005,-0.2824567125677055,-1.6688593504888967,0.14144621509313585,2.403569314373864,1.0273514742766257,0.878092876070424,0.7554597494309409,-0.2825552651693207,-1.6690993614607135,0.1414185955172306,2.4034451173676383,1.0273381002308042,0.0001608820930422149,0.0005238061578425915,0.0012254619193607925,0.0005402169331373587,0.0003724228147102438,-0.00010675208120758319,0.0018591672384865332,0.0,0.0,0.0,0.0,0.0,0.0,0.0,-4.884159811036071e-05,0.0004820363563403651,-9.85526016152316e-05,-0.00024001097181680642,-2.7619575905246663e-05,-0.00012419700622556817,-1.3374045821468172e-05,-0.0001608820930422149,-0.0005238061578425915,-0.0012254619193607925,-0.0005402169331373587,-0.0003724228147102438,0.00010675208120758319,-0.0018591672384865332,0.8869869112968445,46.50039291381836,5.786648273468018,-19.535249710083008,-0.5285544991493225,-2.3852572441101074,0.22830526530742645,0
