rezayati/contactInterpretation/dataset/franka_main/labeled_data/link5/c8_6.csv
index,time,tau_J0,tau_J1,tau_J2,tau_J3,tau_J4,tau_J5,tau_J6,tau_J_d0,tau_J_d1,tau_J_d2,tau_J_d3,tau_J_d4,tau_J_d5,tau_J_d6,tau_ext0,tau_ext1,tau_ext2,tau_ext3,tau_ext4,tau_ext5,tau_ext6,q0,q1,q2,q3,q4,q5,q6,q_d0,q_d1,q_d2,q_d3,q_d4,q_d5,q_d6,dq0,dq1,dq2,dq3,dq4,dq5,dq6,dq_d0,dq_d1,dq_d2,dq_d3,dq_d4,dq_d5,dq_d6,e0,e1,e2,e3,e4,e5,e6,de0,de1,de2,de3,de4,de5,de6,etau_J0,etau_J1,etau_J2,etau_J3,etau_J4,etau_J5,etau_J6,label
1,0.0,0.10880166292190552,-18.154138565063477,1.0926239490509033,18.099092483520508,0.5221458077430725,2.2360262870788574,-0.21457235515117645,0.0,0.0,0.0,0.0,0.0,0.0,0.0,0.06654621135548762,0.5384915004613409,0.26406277183509846,0.47232536529505165,0.09395927044000676,0.06652327130897344,-0.21405552192951002,-0.6092409549637845,-0.057793878158979246,-0.6666488885377583,-2.5944934280652956,-0.05577028023203211,2.507958873801761,0.8763200039780801,-0.6090851748156966,-0.05753196718556838,-0.666603097082616,-2.5945565370258534,-0.05562143941554,2.507976027223799,0.8763108487046415,-0.0010711459891643979,0.00015388803350036023,-1.1040250972806091e-05,0.0003598918067929813,-1.0292060109096461e-05,0.0005913733486046116,0.0001248411277143554,0.0,0.0,0.0,0.0,0.0,0.0,0.0,0.00015578014808792506,0.00026191097341086295,4.579145514227445e-05,-6.310896055783388e-05,0.00014884081649210734,1.7153422037896604e-05,-9.155273438588019e-06,0.0010711459891643979,-0.00015388803350036023,1.1040250972806091e-05,-0.0003598918067929813,1.0292060109096461e-05,-0.0005913733486046116,-0.0001248411277143554,-0.10880166292190552,18.154138565063477,-1.0926239490509033,-18.099092483520508,-0.5221458077430725,-2.2360262870788574,0.21457235515117645,0
2,0.004904031753540039,0.10880166292190552,-18.154138565063477,1.0926239490509033,18.099092483520508,0.5221458077430725,2.2488436698913574,-0.20724813640117645,0.0,0.0,0.0,0.0,0.0,0.0,0.0,0.06534623866706836,0.5350920720473555,0.2629554418367579,0.4712954139515747,0.09420844910938866,0.06598573695586539,-0.21272648197529723,-0.6092409549637845,-0.057793878158979246,-0.6666488885377583,-2.5944935984964417,-0.05577028023203214,2.507957488893972,0.8763191887224466,-0.6090851748156966,-0.05753196718556838,-0.666603097082616,-2.5945565370258534,-0.05562143941554,2.507976027223799,0.8763108487046415,-0.0007192197996833355,0.0003725061578365978,2.387084634597822e-05,0.0005118032813225874,4.071307009480303e-05,-0.00014131757562678318,0.00031970490036539,0.0,0.0,0.0,0.0,0.0,0.0,0.0,0.00015578014808792506,0.00026191097341086295,4.579145514227445e-05,-6.293852941174904e-05,0.00014884081649214204,1.853832982678938e-05,-8.34001780514182e-06,0.0007192197996833355,-0.0003725061578365978,-2.387084634597822e-05,-0.0005118032813225874,-4.071307009480303e-05,0.00014131757562678318,-0.00031970490036539,-0.10880166292190552,18.154138565063477,-1.0926239490509033,-18.099092483520508,-0.5221458077430725,-2.2488436698913574,0.20724813640117645,0
3,0.009902000427246094,0.10880166292190552,-18.154138565063477,1.0926239490509033,18.099092483520508,0.5221458077430725,2.2488436698913574,-0.20724813640117645,0.0,0.0,0.0,0.0,0.0,0.0,0.0,0.06534623866706836,0.5350920720473555,0.2629554418367579,0.4712954139515747,0.09420844910938866,0.06598573695586539,-0.21272648197529723,-0.6092409549637845,-0.057793878158979246,-0.6666488885377583,-2.5944935984964417,-0.05577028023203214,2.507957488893972,0.8763191887224466,-0.6090851748156966,-0.05753196718556838,-0.666603097082616,-2.5945565370258534,-0.05562143941554,2.507976027223799,0.8763108487046415,-0.0007192197996833355,0.0003725061578365978,2.387084634597822e-05,0.0005118032813225874,4.071307009480303e-05,-0.00014131757562678318,0.00031970490036539,0.0,0.0,0.0,0.0,0.0,0.0,0.0,0.00015578014808792506,0.00026191097341086295,4.579145514227445e-05,-6.293852941174904e-05,0.00014884081649214204,1.853832982678938e-05,-8.34001780514182e-06,0.0007192197996833355,-0.0003725061578365978,-2.387084634597822e-05,-0.0005118032813225874,-4.071307009480303e-05,0.00014131757562678318,-0.00031970490036539,-0.10880166292190552,18.154138565063477,-1.0926239490509033,-18.099092483520508,-0.5221458077430725,-2.2488436698913574,0.20724813640117645,0
4,0.014897584915161133,0.08103066682815552,-18.106531143188477,1.0688202381134033,18.122896194458008,0.5285544991493225,2.2488436698913574,-0.16604940593242645,0.0,0.0,0.0,0.0,0.0,0.0,0.0,0.07189091998248202,0.5349036382589438,0.269387099952877,0.47032802593314926,0.09412839133365165,0.06531514656661122,-0.20965902970182146,-0.6092390061219534,-0.05779732413599959,-0.666647218101903,-2.5944953529861476,-0.05577099230885506,2.507957449648337,0.8763146125392699,-0.6090851748156966,-0.05753196718556838,-0.666603097082616,-2.5945565370258534,-0.05562143941554,2.507976027223799,0.8763108487046415,0.0002081680604437464,-0.00046232956878921623,0.000913274443663206,-0.00041881688927594734,-0.00023151507328452266,-8.765466352825567e-05,-0.001457825759729735,0.0,0.0,0.0,0.0,0.0,0.0,0.0,0.00015383130625679087,0.00026535695043120727,4.412101928696899e-05,-6.118403970578612e-05,0.00014955289331505806,1.857757546197547e-05,-3.7638346284118995e-06,-0.0002081680604437464,0.00046232956878921623,-0.000913274443663206,0.00041881688927594734,0.00023151507328452266,8.765466352825567e-05,0.001457825759729735,-0.08103066682815552,18.106531143188477,-1.0688202381134033,-18.122896194458008,-0.5285544991493225,-2.2488436698913574,0.16604940593242645,0
5,0.019894838333129883,0.08103066682815552,-18.106531143188477,1.0688202381134033,18.122896194458008,0.5285544991493225,2.2488436698913574,-0.16604940593242645,0.0,0.0,0.0,0.0,0.0,0.0,0.0,0.07189091998248202,0.5349036382589438,0.269387099952877,0.47032802593314926,0.09412839133365165,0.06531514656661122,-0.20965902970182146,-0.6092390061219534,-0.05779732413599959,-0.666647218101903,-2.5944953529861476,-0.05577099230885506,2.507957449648337,0.8763146125392699,-0.6090851748156966,-0.05753196718556838,-0.666603097082616,-2.5945565370258534,-0.05562143941554,2.507976027223799,0.8763108487046415,0.0002081680604437464,-0.00046232956878921623,0.000913274443663206,-0.00041881688927594734,-0.00023151507328452266,-8.765466352825567e-05,-0.001457825759729735,0.0,0.0,0.0,0.0,0.0,0.0,0.0,0.00015383130625679087,0.00026535695043120727,4.412101928696899e-05,-6.118403970578612e-05,0.00014955289331505806,1.857757546197547e-05,-3.7638346284118995e-06,-0.0002081680604437464,0.00046232956878921623,-0.000913274443663206,0.00041881688927594734,0.00023151507328452266,8.765466352825567e-05,0.001457825759729735,-0.08103066682815552,18.106531143188477,-1.0688202381134033,-18.122896194458008,-0.5285544991493225,-2.2488436698913574,0.16604940593242645,0
6,0.02500128746032715,0.08103066682815552,-18.106531143188477,1.0926239490509033,18.099092483520508,0.5221458077430725,2.2488436698913574,-0.18710653483867645,0.0,0.0,0.0,0.0,0.0,0.0,0.0,0.07451931367615094,0.5365992504482981,0.2672677360599738,0.46855380138053576,0.09458499985198686,0.06418477047451816,-0.20831448953920617,-0.6092390061219534,-0.05779722000448041,-0.6666488885377583,-2.594491386598168,-0.05577027974524422,2.5079574496481154,0.8763169521664325,-0.6090851748156966,-0.05753196718556838,-0.666603097082616,-2.5945565370258534,-0.05562143941554,2.507976027223799,0.8763108487046415,0.0002028811917259874,-0.00030899889000696895,-0.0001242574548938177,-0.0001593846366077045,-0.00012508773297378753,-0.0002190697452605254,-0.0009594941358859064,0.0,0.0,0.0,0.0,0.0,0.0,0.0,0.00015383130625679087,0.000265252818912029,4.579145514227445e-05,-6.515042768562296e-05,0.00014884032970421956,1.8577575683575986e-05,-6.103461790973874e-06,-0.0002028811917259874,0.00030899889000696895,0.0001242574548938177,0.0001593846366077045,0.00012508773297378753,0.0002190697452605254,0.0009594941358859064,-0.08103066682815552,18.106531143188477,-1.0926239490509033,-18.099092483520508,-0.5221458077430725,-2.2488436698913574,0.18710653483867645,0
7,0.02989816665649414,0.08103066682815552,-18.106531143188477,1.0926239490509033,18.099092483520508,0.5221458077430725,2.2488436698913574,-0.18710653483867645,0.0,0.0,0.0,0.0,0.0,0.0,0.0,0.07451931367615094,0.5365992504482981,0.2672677360599738,0.46855380138053576,0.09458499985198686,0.06418477047451816,-0.20831448953920617,-0.6092390061219534,-0.05779722000448041,-0.6666488885377583,-2.594491386598168,-0.05577027974524422,2.5079574496481154,0.8763169521664325,-0.6090851748156966,-0.05753196718556838,-0.666603097082616,-2.5945565370258534,-0.05562143941554,2.507976027223799,0.8763108487046415,0.0002028811917259874,-0.00030899889000696895,-0.0001242574548938177,-0.0001593846366077045,-0.00012508773297378753,-0.0002190697452605254,-0.0009594941358859064,0.0,0.0,0.0,0.0,0.0,0.0,0.0,0.00015383130625679087,0.000265252818912029,4.579145514227445e-05,-6.515042768562296e-05,0.00014884032970421956,1.8577575683575986e-05,-6.103461790973874e-06,-0.0002028811917259874,0.00030899889000696895,0.0001242574548938177,0.0001593846366077045,0.00012508773297378753,0.0002190697452605254,0.0009594941358859064,-0.08103066682815552,18.106531143188477,-1.0926239490509033,-18.099092483520508,-0.5221458077430725,-2.2488436698913574,0.18710653483867645,0
8,0.034897565841674805,0.03342324495315552,-18.078760147094727,1.1164276599884033,18.071321487426758,0.5285544991493225,2.2488436698913574,-0.17978231608867645,0.0,0.0,0.0,0.0,0.0,0.0,0.0,0.07666820066079921,0.5412271246428909,0.266476792343725,0.47329121121089585,0.09486485786976709,0.06427015840932443,-0.20840417378400106,-0.6092356652502428,-0.05780129625505026,-0.6666505589736136,-2.594491645723884,-0.05577099230885231,2.5079574496481154,0.876316138418184,-0.6090851748156966,-0.05753196718556838,-0.666603097082616,-2.5945565370258534,-0.05562143941554,2.507976027223799,0.8763108487046415,0.0008256396369558946,-6.422391092023511e-05,-0.000385553714326335,0.0011484296253991097,-0.00036928781191312337,-0.00015809886682806637,-0.0011611014885379595,0.0,0.0,0.0,0.0,0.0,0.0,0.0,0.00015049043454617994,0.0002693290694818773,4.7461890997579914e-05,-6.489130196962734e-05,0.00014955289331231025,1.8577575683575986e-05,-5.2897135425222785e-06,-0.0008256396369558946,6.422391092023511e-05,0.000385553714326335,-0.0011484296253991097,0.00036928781191312337,0.00015809886682806637,0.0011611014885379595,-0.03342324495315552,18.078760147094727,-1.1164276599884033,-18.071321487426758,-0.5285544991493225,-2.2488436698913574,0.17978231608867645,0
9,0.03991532325744629,0.03342324495315552,-18.078760147094727,1.1164276599884033,18.071321487426758,0.5285544991493225,2.2488436698913574,-0.17978231608867645,0.0,0.0,0.0,0.0,0.0,0.0,0.0,0.07666820066079921,0.5412271246428909,0.266476792343725,0.47329121121089585,0.09486485786976709,0.06427015840932443,-0.20840417378400106,-0.6092356652502428,-0.05780129625505026,-0.6666505589736136,-2.594491645723884,-0.05577099230885231,2.5079574496481154,0.876316138418184,-0.6090851748156966,-0.05753196718556838,-0.666603097082616,-2.5945565370258534,-0.05562143941554,2.507976027223799,0.8763108487046415,0.0008256396369558946,-6.422391092023511e-05,-0.000385553714326335,0.0011484296253991097,-0.00036928781191312337,-0.00015809886682806637,-0.0011611014885379595,0.0,0.0,0.0,0.0,0.0,0.0,0.0,0.00015049043454617994,0.0002693290694818773,4.7461890997579914e-05,-6.489130196962734e-05,0.00014955289331231025,1.8577575683575986e-05,-5.2897135425222785e-06,-0.0008256396369558946,6.422391092023511e-05,0.000385553714326335,-0.0011484296253991097,0.00036928781191312337,0.00015809886682806637,0.0011611014885379595,-0.03342324495315552,18.078760147094727,-1.1164276599884033,-18.071321487426758,-0.5285544991493225,-2.2488436698913574,0.17978231608867645,0
10,0.04491877555847168,0.05722695589065552,-18.106531143188477,1.0926239490509033,18.071321487426758,0.5166526436805725,2.2424349784851074,-0.22098104655742645,0.0,0.0,0.0,0.0,0.0,0.0,0.0,0.07666155476748479,0.5408241286691259,0.27011420964638844,0.47435428632662885,0.09449875834874272,0.06481169218141214,-0.20739920442940124,-0.6092373356860981,-0.05779745552965165,-0.6666488885377583,-2.594491044943655,-0.05576966988046964,2.5079581617249382,0.876320716054903,-0.6090851748156966,-0.05753196718556838,-0.666603097082616,-2.5945565370258534,-0.05562143941554,2.507976027223799,0.8763108487046415,0.0008324291695820576,-0.0002832645160748086,-0.0002940893794495432,0.0007284773851385061,0.00020375731215050127,0.0003461336254351182,0.0008018101513542031,0.0,0.0,0.0,0.0,0.0,0.0,0.0,0.0001521608704014854,0.00026548834408327004,4.579145514227445e-05,-6.549208219830405e-05,0.0001482304649296426,1.7865498860736295e-05,-9.867350261538732e-06,-0.0008324291695820576,0.0002832645160748086,0.0002940893794495432,-0.0007284773851385061,-0.00020375731215050127,-0.0003461336254351182,-0.0008018101513542031,-0.05722695589065552,18.106531143188477,-1.0926239490509033,-18.071321487426758,-0.5166526436805725,-2.2424349784851074,0.22098104655742645,0
11,0.049900054931640625,0.05722695589065552,-18.106531143188477,1.0926239490509033,18.071321487426758,0.5166526436805725,2.2424349784851074,-0.22098104655742645,0.0,0.0,0.0,0.0,0.0,0.0,0.0,0.07666155476748479,0.5408241286691259,0.27011420964638844,0.47435428632662885,0.09449875834874272,0.06481169218141214,-0.20739920442940124,-0.6092373356860981,-0.05779745552965165,-0.6666488885377583,-2.594491044943655,-0.05576966988046964,2.5079581617249382,0.876320716054903,-0.6090851748156966,-0.05753196718556838,-0.666603097082616,-2.5945565370258534,-0.05562143941554,2.507976027223799,0.8763108487046415,0.0008324291695820576,-0.0002832645160748086,-0.0002940893794495432,0.0007284773851385061,0.00020375731215050127,0.0003461336254351182,0.0008018101513542031,0.0,0.0,0.0,0.0,0.0,0.0,0.0,0.0001521608704014854,0.00026548834408327004,4.579145514227445e-05,-6.549208219830405e-05,0.0001482304649296426,1.7865498860736295e-05,-9.867350261538732e-06,-0.0008324291695820576,0.0002832645160748086,0.0002940893794495432,-0.0007284773851385061,-0.00020375731215050127,-0.0003461336254351182,-0.0008018101513542031,-0.05722695589065552,18.106531143188477,-1.0926239490509033,-18.071321487426758,-0.5166526436805725,-2.2424349784851074,0.22098104655742645,0
12,0.054900407791137695,0.05722695589065552,-18.154138565063477,1.1164276599884033,18.099092483520508,0.5166526436805725,2.2360262870788574,-0.18710653483867645,0.0,0.0,0.0,0.0,0.0,0.0,0.0,0.035985760097464375,0.543443136850848,0.2277051850909236,0.47593747781185536,0.09615878380530203,0.06488899089848559,-0.20697666218901967,-0.6092373356860981,-0.05779387816031429,-0.6666505589736136,-2.594491307300422,-0.05576965673719578,2.507958873801761,0.8763169522202676,-0.6090851748156966,-0.05753196718556838,-0.666603097082616,-2.5945565370258534,-0.05562143941554,2.507976027223799,0.8763108487046415,0.0018522491572724113,0.0013459679736117897,-0.0006488318629968897,0.00021423682858693116,0.00011801144120286201,0.0004598459254945838,-0.0006164450917565727,0.0,0.0,0.0,0.0,0.0,0.0,0.0,0.0001521608704014854,0.00026191097474590613,4.7461890997579914e-05,-6.52297254313261e-05,0.0001482173216557775,1.7153422037896604e-05,-6.1035156261324275e-06,-0.0018522491572724113,-0.0013459679736117897,0.0006488318629968897,-0.00021423682858693116,-0.00011801144120286201,-0.0004598459254945838,0.0006164450917565727,-0.05722695589065552,18.154138565063477,-1.1164276599884033,-18.099092483520508,-0.5166526436805725,-2.2360262870788574,0.18710653483867645,0
13,0.05989670753479004,0.05722695589065552,-18.154138565063477,1.1164276599884033,18.099092483520508,0.5166526436805725,2.2360262870788574,-0.18710653483867645,0.0,0.0,0.0,0.0,0.0,0.0,0.0,0.035985760097464375,0.543443136850848,0.2277051850909236,0.47593747781185536,0.09615878380530203,0.06488899089848559,-0.20697666218901967,-0.6092373356860981,-0.05779387816031429,-0.6666505589736136,-2.594491307300422,-0.05576965673719578,2.507958873801761,0.8763169522202676,-0.6090851748156966,-0.05753196718556838,-0.666603097082616,-2.5945565370258534,-0.05562143941554,2.507976027223799,0.8763108487046415,0.0018522491572724113,0.0013459679736117897,-0.0006488318629968897,0.00021423682858693116,0.00011801144120286201,0.0004598459254945838,-0.0006164450917565727,0.0,0.0,0.0,0.0,0.0,0.0,0.0,0.0001521608704014854,0.00026191097474590613,4.7461890997579914e-05,-6.52297254313261e-05,0.0001482173216557775,1.7153422037896604e-05,-6.1035156261324275e-06,-0.0018522491572724113,-0.0013459679736117897,0.0006488318629968897,-0.00021423682858693116,-0.00011801144120286201,-0.0004598459254945838,0.0006164450917565727,-0.05722695589065552,18.154138565063477,-1.1164276599884033,-18.099092483520508,-0.5166526436805725,-2.2360262870788574,0.18710653483867645,0
14,0.06489849090576172,0.10880166292190552,-18.130334854125977,1.1164276599884033,18.122896194458008,0.5221458077430725,2.2625765800476074,-0.17978231608867645,0.0,0.0,0.0,0.0,0.0,0.0,0.0,0.06816267921835278,0.5424534000652367,0.26263045173462507,0.47621663948360426,0.09430994226780223,0.06503117819006601,-0.2068814287409365,-0.6092409549637845,-0.057795583629937794,-0.6666505589736136,-2.5944945800505623,-0.05577028006969531,2.507955923769209,0.8763161384181842,-0.6090851748156966,-0.05753196718556838,-0.666603097082616,-2.5945565370258534,-0.05562143941554,2.507976027223799,0.8763108487046415,-0.000590864854486366,-0.00012652534368150925,-0.001004890366308121,-0.0004717690587128428,-0.00015511088970941673,-0.0003163385180886942,-0.0009989817597843692,0.0,0.0,0.0,0.0,0.0,0.0,0.0,0.00015578014808792506,0.00026361644436941056,4.7461890997579914e-05,-6.195697529109978e-05,0.00014884065415531056,2.0103454589914804e-05,-5.289713542744323e-06,0.000590864854486366,0.00012652534368150925,0.001004890366308121,0.0004717690587128428,0.00015511088970941673,0.0003163385180886942,0.0009989817597843692,-0.10880166292190552,18.130334854125977,-1.1164276599884033,-18.122896194458008,-0.5221458077430725,-2.2625765800476074,0.17978231608867645,0
15,0.06989717483520508,0.10880166292190552,-18.130334854125977,1.1164276599884033,18.122896194458008,0.5221458077430725,2.2625765800476074,-0.17978231608867645,0.0,0.0,0.0,0.0,0.0,0.0,0.0,0.06816267921835278,0.5424534000652367,0.26263045173462507,0.47621663948360426,0.09430994226780223,0.06503117819006601,-0.2068814287409365,-0.6092409549637845,-0.057795583629937794,-0.6666505589736136,-2.5944945800505623,-0.05577028006969531,2.507955923769209,0.8763161384181842,-0.6090851748156966,-0.05753196718556838,-0.666603097082616,-2.5945565370258534,-0.05562143941554,2.507976027223799,0.8763108487046415,-0.000590864854486366,-0.00012652534368150925,-0.001004890366308121,-0.0004717690587128428,-0.00015511088970941673,-0.0003163385180886942,-0.0009989817597843692,0.0,0.0,0.0,0.0,0.0,0.0,0.0,0.00015578014808792506,0.00026361644436941056,4.7461890997579914e-05,-6.195697529109978e-05,0.00014884065415531056,2.0103454589914804e-05,-5.289713542744323e-06,0.000590864854486366,0.00012652534368150925,0.001004890366308121,0.0004717690587128428,0.00015511088970941673,0.0003163385180886942,0.0009989817597843692,-0.10880166292190552,18.130334854125977,-1.1164276599884033,-18.122896194458008,-0.5221458077430725,-2.2625765800476074,0.17978231608867645,0
16,0.07489728927612305,0.08103066682815552,-18.078760147094727,1.1164276599884033,18.071321487426758,0.5221458077430725,2.2488436698913574,-0.17978231608867645,0.0,0.0,0.0,0.0,0.0,0.0,0.0,0.08579566170374132,0.5520469243393951,0.28127686385982886,0.46855822371961864,0.09381125038244915,0.06461561243079368,-0.2067119145667124,-0.6092390061219534,-0.05779916917031511,-0.6666505589736136,-2.594491734369437,-0.055770280232031226,2.5079574496481154,0.8763161384181842,-0.6090851748156966,-0.05753196718556838,-0.666603097082616,-2.5945565370258534,-0.05562143941554,2.507976027223799,0.8763108487046415,-0.00027274917668909735,-0.0006900023393079906,-0.00013384480135774295,0.00041277954724744376,-0.00014577065795838516,-0.00013440752188768264,-0.0014903288195122252,0.0,0.0,0.0,0.0,0.0,0.0,0.0,0.00015383130625679087,0.0002672019847467233,4.7461890997579914e-05,-6.480265641650718e-05,0.0001488408164912261,1.8577575683575986e-05,-5.289713542744323e-06,0.00027274917668909735,0.0006900023393079906,0.00013384480135774295,-0.00041277954724744376,0.00014577065795838516,0.00013440752188768264,0.0014903288195122252,-0.08103066682815552,18.078760147094727,-1.1164276599884033,-18.071321487426758,-0.5221458077430725,-2.2488436698913574,0.17978231608867645,0
17,0.07989859580993652,0.08103066682815552,-18.078760147094727,1.1164276599884033,18.071321487426758,0.5221458077430725,2.2488436698913574,-0.17978231608867645,0.0,0.0,0.0,0.0,0.0,0.0,0.0,0.08579566170374132,0.5520469243393951,0.28127686385982886,0.46855822371961864,0.09381125038244915,0.06461561243079368,-0.2067119145667124,-0.6092390061219534,-0.05779916917031511,-0.6666505589736136,-2.594491734369437,-0.055770280232031226,2.5079574496481154,0.8763161384181842,-0.6090851748156966,-0.05753196718556838,-0.666603097082616,-2.5945565370258534,-0.05562143941554,2.507976027223799,0.8763108487046415,-0.00027274917668909735,-0.0006900023393079906,-0.00013384480135774295,0.00041277954724744376,-0.00014577065795838516,-0.00013440752188768264,-0.0014903288195122252,0.0,0.0,0.0,0.0,0.0,0.0,0.0,0.00015383130625679087,0.0002672019847467233,4.7461890997579914e-05,-6.480265641650718e-05,0.0001488408164912261,1.8577575683575986e-05,-5.289713542744323e-06,0.00027274917668909735,0.0006900023393079906,0.00013384480135774295,-0.00041277954724744376,0.00014577065795838516,0.00013440752188768264,0.0014903288195122252,-0.08103066682815552,18.078760147094727,-1.1164276599884033,-18.071321487426758,-0.5221458077430725,-2.2488436698913574,0.17978231608867645,0
18,0.08489823341369629,0.10880166292190552,-18.154138565063477,1.0926239490509033,18.099092483520508,0.5102439522743225,2.2360262870788574,-0.20083944499492645,0.0,0.0,0.0,0.0,0.0,0.0,0.0,0.07920093450985698,0.5445994140622222,0.27808035165580225,0.474989808395977,0.09459825567961941,0.06604844238377308,-0.2064702385477691,-0.6092409549637845,-0.05779387815900122,-0.6666488885377583,-2.5944913848135314,-0.055768957803646727,2.507958878162412,0.8763184780991738,-0.6090851748156966,-0.05753196718556838,-0.666603097082616,-2.5945565370258534,-0.05562143941554,2.507976027223799,0.8763108487046415,-0.0015088652072917646,0.0011018939487820614,-6.276518971254281e-05,0.0003668148640662064,0.0005644316483079835,0.0005456563186388553,-0.00011932495630995154,0.0,0.0,0.0,0.0,0.0,0.0,0.0,0.00015578014808792506,0.0002619109734328384,4.579145514227445e-05,-6.515221232206159e-05,0.00014751838810672657,1.7149061386945164e-05,-7.629394532360223e-06,0.0015088652072917646,-0.0011018939487820614,6.276518971254281e-05,-0.0003668148640662064,-0.0005644316483079835,-0.0005456563186388553,0.00011932495630995154,-0.10880166292190552,18.154138565063477,-1.0926239490509033,-18.099092483520508,-0.5102439522743225,-2.2360262870788574,0.20083944499492645,0
19,0.08989787101745605,0.10880166292190552,-18.154138565063477,1.0926239490509033,18.099092483520508,0.5102439522743225,2.2360262870788574,-0.20083944499492645,0.0,0.0,0.0,0.0,0.0,0.0,0.0,0.07920093450985698,0.5445994140622222,0.27808035165580225,0.474989808395977,0.09459825567961941,0.06604844238377308,-0.2064702385477691,-0.6092409549637845,-0.05779387815900122,-0.6666488885377583,-2.5944913848135314,-0.055768957803646727,2.507958878162412,0.8763184780991738,-0.6090851748156966,-0.05753196718556838,-0.666603097082616,-2.5945565370258534,-0.05562143941554,2.507976027223799,0.8763108487046415,-0.0015088652072917646,0.0011018939487820614,-6.276518971254281e-05,0.0003668148640662064,0.0005644316483079835,0.0005456563186388553,-0.00011932495630995154,0.0,0.0,0.0,0.0,0.0,0.0,0.0,0.00015578014808792506,0.0002619109734328384,4.579145514227445e-05,-6.515221232206159e-05,0.00014751838810672657,1.7149061386945164e-05,-7.629394532360223e-06,0.0015088652072917646,-0.0011018939487820614,6.276518971254281e-05,-0.0003668148640662064,-0.0005644316483079835,-0.0005456563186388553,0.00011932495630995154,-0.10880166292190552,18.154138565063477,-1.0926239490509033,-18.099092483520508,-0.5102439522743225,-2.2360262870788574,0.20083944499492645,0
20,0.09543085098266602,0.05722695589065552,-18.130334854125977,1.0688202381134033,18.099092483520508,0.5166526436805725,2.2625765800476074,-0.22098104655742645,0.0,0.0,0.0,0.0,0.0,0.0,0.0,0.07701459448325221,0.540587638698363,0.275725022612886,0.47537207900686057,0.09534023745876789,0.06603747868258478,-0.20661703187440492,-0.6092373356860981,-0.05779554859483451,-0.666647218101903,-2.594493675022979,-0.05576635777545564,2.507955923769217,0.8763196564167737,-0.6090851748156966,-0.05753196718556838,-0.666603097082616,-2.5945565370258534,-0.05562143941554,2.507976027223799,0.8763108487046415,0.0004520651359406757,-0.00011940807685575979,3.3725479241710626e-05,0.00033157338133364494,4.7547821679661835e-05,-0.0003023083943047477,0.0008803275187763794,0.0,0.0,0.0,0.0,0.0,0.0,0.0,0.0001521608704014854,0.0002635814092661268,4.412101928696899e-05,-6.286200287464183e-05,0.00014491835991563978,2.01034545819212e-05,-8.807712132186118e-06,-0.0004520651359406757,0.00011940807685575979,-3.3725479241710626e-05,-0.00033157338133364494,-4.7547821679661835e-05,0.0003023083943047477,-0.0008803275187763794,-0.05722695589065552,18.130334854125977,-1.0688202381134033,-18.099092483520508,-0.5166526436805725,-2.2625765800476074,0.22098104655742645,0
21,0.09989595413208008,0.05722695589065552,-18.130334854125977,1.0688202381134033,18.099092483520508,0.5166526436805725,2.2625765800476074,-0.22098104655742645,0.0,0.0,0.0,0.0,0.0,0.0,0.0,0.07701459448325221,0.540587638698363,0.275725022612886,0.47537207900686057,0.09534023745876789,0.06603747868258478,-0.20661703187440492,-0.6092373356860981,-0.05779554859483451,-0.666647218101903,-2.594493675022979,-0.05576635777545564,2.507955923769217,0.8763196564167737,-0.6090851748156966,-0.05753196718556838,-0.666603097082616,-2.5945565370258534,-0.05562143941554,2.507976027223799,0.8763108487046415,0.0004520651359406757,-0.00011940807685575979,3.3725479241710626e-05,0.00033157338133364494,4.7547821679661835e-05,-0.0003023083943047477,0.0008803275187763794,0.0,0.0,0.0,0.0,0.0,0.0,0.0,0.0001521608704014854,0.0002635814092661268,4.412101928696899e-05,-6.286200287464183e-05,0.00014491835991563978,2.01034545819212e-05,-8.807712132186118e-06,-0.0004520651359406757,0.00011940807685575979,-3.3725479241710626e-05,-0.00033157338133364494,-4.7547821679661835e-05,0.0003023083943047477,-0.0008803275187763794,-0.05722695589065552,18.130334854125977,-1.0688202381134033,-18.099092483520508,-0.5166526436805725,-2.2625765800476074,0.22098104655742645,0
22,0.10489821434020996,0.05722695589065552,-18.130334854125977,1.0688202381134033,18.099092483520508,0.5166526436805725,2.2625765800476074,-0.22098104655742645,0.0,0.0,0.0,0.0,0.0,0.0,0.0,0.07701459448325221,0.540587638698363,0.275725022612886,0.47537207900686057,0.09534023745876789,0.06603747868258478,-0.20661703187440492,-0.6092373356860981,-0.05779554859483451,-0.666647218101903,-2.594493675022979,-0.05576635777545564,2.507955923769217,0.8763196564167737,-0.6090851748156966,-0.05753196718556838,-0.666603097082616,-2.5945565370258534,-0.05562143941554,2.507976027223799,0.8763108487046415,0.0004520651359406757,-0.00011940807685575979,3.3725479241710626e-05,0.00033157338133364494,4.7547821679661835e-05,-0.0003023083943047477,0.0008803275187763794,0.0,0.0,0.0,0.0,0.0,0.0,0.0,0.0001521608704014854,0.0002635814092661268,4.412101928696899e-05,-6.286200287464183e-05,0.00014491835991563978,2.01034545819212e-05,-8.807712132186118e-06,-0.0004520651359406757,0.00011940807685575979,-3.3725479241710626e-05,-0.00033157338133364494,-4.7547821679661835e-05,0.0003023083943047477,-0.0008803275187763794,-0.05722695589065552,18.130334854125977,-1.0688202381134033,-18.099092483520508,-0.5166526436805725,-2.2625765800476074,0.22098104655742645,0
23,0.10989618301391602,0.05722695589065552,-18.130334854125977,1.0688202381134033,18.099092483520508,0.5166526436805725,2.2625765800476074,-0.22098104655742645,0.0,0.0,0.0,0.0,0.0,0.0,0.0,0.07701459448325221,0.540587638698363,0.275725022612886,0.47537207900686057,0.09534023745876789,0.06603747868258478,-0.20661703187440492,-0.6092373356860981,-0.05779554859483451,-0.666647218101903,-2.594493675022979,-0.05576635777545564,2.507955923769217,0.8763196564167737,-0.6090851748156966,-0.05753196718556838,-0.666603097082616,-2.5945565370258534,-0.05562143941554,2.507976027223799,0.8763108487046415,0.0004520651359406757,-0.00011940807685575979,3.3725479241710626e-05,0.00033157338133364494,4.7547821679661835e-05,-0.0003023083943047477,0.0008803275187763794,0.0,0.0,0.0,0.0,0.0,0.0,0.0,0.0001521608704014854,0.0002635814092661268,4.412101928696899e-05,-6.286200287464183e-05,0.00014491835991563978,2.01034545819212e-05,-8.807712132186118e-06,-0.0004520651359406757,0.00011940807685575979,-3.3725479241710626e-05,-0.00033157338133364494,-4.7547821679661835e-05,0.0003023083943047477,-0.0008803275187763794,-0.05722695589065552,18.130334854125977,-1.0688202381134033,-18.099092483520508,-0.5166526436805725,-2.2625765800476074,0.22098104655742645,0
24,0.11500144004821777,0.08103066682815552,-18.106531143188477,1.1164276599884033,18.122896194458008,0.5221458077430725,2.2552523612976074,-0.20724813640117645,0.0,0.0,0.0,0.0,0.0,0.0,0.0,0.08176673216765223,0.5427162583012692,0.27635543735432866,0.47237366673438935,0.0949983961770404,0.06580934989425549,-0.2072247865730578,-0.6092390061219534,-0.05779721935508888,-0.6666505589736136,-2.5944952771220238,-0.05577028021333521,2.5079567375712926,0.8763191901700151,-0.6090851748156966,-0.05753196718556838,-0.666603097082616,-2.5945565370258534,-0.05562143941554,2.507976027223799,0.8763108487046415,0.00019693145185350556,-0.0004615950010867754,-0.0008708351807142467,-0.000325365509199257,-0.00011893169822562645,-0.000114384583027412,4.3117732006386076e-05,0.0,0.0,0.0,0.0,0.0,0.0,0.0,0.00015383130625679087,0.0002652521695204954,4.7461890997579914e-05,-6.125990382965796e-05,0.00014884079779520915,1.9289652506415678e-05,-8.341465373651324e-06,-0.00019693145185350556,0.0004615950010867754,0.0008708351807142467,0.000325365509199257,0.00011893169822562645,0.000114384583027412,-4.3117732006386076e-05,-0.08103066682815552,18.106531143188477,-1.1164276599884033,-18.122896194458008,-0.5221458077430725,-2.2552523612976074,0.20724813640117645,0
25,0.11990690231323242,0.08103066682815552,-18.106531143188477,1.1164276599884033,18.122896194458008,0.5221458077430725,2.2552523612976074,-0.20724813640117645,0.0,0.0,0.0,0.0,0.0,0.0,0.0,0.08176673216765223,0.5427162583012692,0.27635543735432866,0.47237366673438935,0.0949983961770404,0.06580934989425549,-0.2072247865730578,-0.6092390061219534,-0.05779721935508888,-0.6666505589736136,-2.5944952771220238,-0.05577028021333521,2.5079567375712926,0.8763191901700151,-0.6090851748156966,-0.05753196718556838,-0.666603097082616,-2.5945565370258534,-0.05562143941554,2.507976027223799,0.8763108487046415,0.00019693145185350556,-0.0004615950010867754,-0.0008708351807142467,-0.000325365509199257,-0.00011893169822562645,-0.000114384583027412,4.3117732006386076e-05,0.0,0.0,0.0,0.0,0.0,0.0,0.0,0.00015383130625679087,0.0002652521695204954,4.7461890997579914e-05,-6.125990382965796e-05,0.00014884079779520915,1.9289652506415678e-05,-8.341465373651324e-06,-0.00019693145185350556,0.0004615950010867754,0.0008708351807142467,0.000325365509199257,0.00011893169822562645,0.000114384583027412,-4.3117732006386076e-05,-0.08103066682815552,18.106531143188477,-1.1164276599884033,-18.122896194458008,-0.5221458077430725,-2.2552523612976074,0.20724813640117645,0
26,0.12490177154541016,0.05722695589065552,-18.078760147094727,1.0926239490509033,18.099092483520508,0.5221458077430725,2.2488436698913574,-0.18710653483867645,0.0,0.0,0.0,0.0,0.0,0.0,0.0,0.08524891371233491,0.5471358822902919,0.27592199517770166,0.4683416808035977,0.09505781006556074,0.06549443329945162,-0.20844723606152843,-0.6092373356860981,-0.05779916787252275,-0.6666488885377583,-2.5944929947303623,-0.05576992536363768,2.5079574496481154,0.8763169522202676,-0.6090851748156966,-0.05753196718556838,-0.666603097082616,-2.5945565370258534,-0.05562143941554,2.507976027223799,0.8763108487046415,0.0006964913951102047,-0.0003710344126013409,0.00021923013898276383,-0.0001429653308844438,-7.394998182563682e-05,-0.0001729231609700003,-0.0012284926758726914,0.0,0.0,0.0,0.0,0.0,0.0,0.0,0.0001521608704014854,0.0002672006869543636,4.579145514227445e-05,-6.354229549110357e-05,0.0001484859480976805,1.8577575683575986e-05,-6.1035156261324275e-06,-0.0006964913951102047,0.0003710344126013409,-0.00021923013898276383,0.0001429653308844438,7.394998182563682e-05,0.0001729231609700003,0.0012284926758726914,-0.05722695589065552,18.078760147094727,-1.0926239490509033,-18.099092483520508,-0.5221458077430725,-2.2488436698913574,0.18710653483867645,0
27,0.13000202178955078,0.05722695589065552,-18.078760147094727,1.0926239490509033,18.099092483520508,0.5221458077430725,2.2488436698913574,-0.18710653483867645,0.0,0.0,0.0,0.0,0.0,0.0,0.0,0.08524891371233491,0.5471358822902919,0.27592199517770166,0.4683416808035977,0.09505781006556074,0.06549443329945162,-0.20844723606152843,-0.6092373356860981,-0.05779916787252275,-0.6666488885377583,-2.5944929947303623,-0.05576992536363768,2.5079574496481154,0.8763169522202676,-0.6090851748156966,-0.05753196718556838,-0.666603097082616,-2.5945565370258534,-0.05562143941554,2.507976027223799,0.8763108487046415,0.0006964913951102047,-0.0003710344126013409,0.00021923013898276383,-0.0001429653308844438,-7.394998182563682e-05,-0.0001729231609700003,-0.0012284926758726914,0.0,0.0,0.0,0.0,0.0,0.0,0.0,0.0001521608704014854,0.0002672006869543636,4.579145514227445e-05,-6.354229549110357e-05,0.0001484859480976805,1.8577575683575986e-05,-6.1035156261324275e-06,-0.0006964913951102047,0.0003710344126013409,-0.00021923013898276383,0.0001429653308844438,7.394998182563682e-05,0.0001729231609700003,0.0012284926758726914,-0.05722695589065552,18.078760147094727,-1.0926239490509033,-18.099092483520508,-0.5221458077430725,-2.2488436698913574,0.18710653483867645,0
28,0.1349046230316162,0.05722695589065552,-18.106531143188477,1.0688202381134033,18.099092483520508,0.5221458077430725,2.2424349784851074,-0.17978231608867645,0.0,0.0,0.0,0.0,0.0,0.0,0.0,0.07985988376649672,0.5443937194960193,0.2673415522994558,0.47406228681302454,0.0956596079688801,0.06635589287577845,-0.20881960749545717,-0.6092373356860981,-0.05779793725030687,-0.666647218101903,-2.594492994446965,-0.0557702802300289,2.5079581617249382,0.8763161384181842,-0.6090851748156966,-0.05753196718556838,-0.666603097082616,-2.5945565370258534,-0.05562143941554,2.507976027223799,0.8763108487046415,0.0006277536439845197,9.804112643346055e-05,0.0002258257129125332,0.000291901898494166,-8.709805711480525e-05,0.00028685837616311186,-0.001462477886657337,0.0,0.0,0.0,0.0,0.0,0.0,0.0,0.0001521608704014854,0.00026597006473848966,4.412101928696899e-05,-6.35425788884092e-05,0.00014884081448889724,1.7865498860736295e-05,-5.289713542744323e-06,-0.0006277536439845197,-9.804112643346055e-05,-0.0002258257129125332,-0.000291901898494166,8.709805711480525e-05,-0.00028685837616311186,0.001462477886657337,-0.05722695589065552,18.106531143188477,-1.0688202381134033,-18.099092483520508,-0.5221458077430725,-2.2424349784851074,0.17978231608867645,0
29,0.13989758491516113,0.05722695589065552,-18.106531143188477,1.0688202381134033,18.099092483520508,0.5221458077430725,2.2424349784851074,-0.17978231608867645,0.0,0.0,0.0,0.0,0.0,0.0,0.0,0.07985988376649672,0.5443937194960193,0.2673415522994558,0.47406228681302454,0.0956596079688801,0.06635589287577845,-0.20881960749545717,-0.6092373356860981,-0.05779793725030687,-0.666647218101903,-2.594492994446965,-0.0557702802300289,2.5079581617249382,0.8763161384181842,-0.6090851748156966,-0.05753196718556838,-0.666603097082616,-2.5945565370258534,-0.05562143941554,2.507976027223799,0.8763108487046415,0.0006277536439845197,9.804112643346055e-05,0.0002258257129125332,0.000291901898494166,-8.709805711480525e-05,0.00028685837616311186,-0.001462477886657337,0.0,0.0,0.0,0.0,0.0,0.0,0.0,0.0001521608704014854,0.00026597006473848966,4.412101928696899e-05,-6.35425788884092e-05,0.00014884081448889724,1.7865498860736295e-05,-5.289713542744323e-06,-0.0006277536439845197,-9.804112643346055e-05,-0.0002258257129125332,-0.000291901898494166,8.709805711480525e-05,-0.00028685837616311186,0.001462477886657337,-0.05722695589065552,18.106531143188477,-1.0688202381134033,-18.099092483520508,-0.5221458077430725,-2.2424349784851074,0.17978231608867645,0
30,0.1448981761932373,0.08103066682815552,-18.130334854125977,1.0688202381134033,18.099092483520508,0.5102439522743225,2.2296175956726074,-0.20724813640117645,0.0,0.0,0.0,0.0,0.0,0.0,0.0,0.08146909058606511,0.5479274877037396,0.2653761449426082,0.4721632665143451,0.09512204182997451,0.06593911592696008,-0.20813402807500633,-0.6092390061219534,-0.057795548707021915,-0.666647218101903,-2.594493350954387,-0.05576895780364671,2.507959585878584,0.8763191901759968,-0.6090851748156966,-0.05753196718556838,-0.666603097082616,-2.5945565370258534,-0.05562143941554,2.507976027223799,0.8763108487046415,-0.0001724404015704012,0.00043718919023110706,-0.00011027639068817441,0.0002300731227991309,0.00027717257056238207,0.0007440122747336768,-0.0004234372430609022,0.0,0.0,0.0,0.0,0.0,0.0,0.0,0.00015383130625679087,0.000263581521453532,4.412101928696899e-05,-6.318607146660327e-05,0.0001475183881067127,1.6441345215056913e-05,-8.341471355310937e-06,0.0001724404015704012,-0.00043718919023110706,0.00011027639068817441,-0.0002300731227991309,-0.00027717257056238207,-0.0007440122747336768,0.0004234372430609022,-0.08103066682815552,18.130334854125977,-1.0688202381134033,-18.099092483520508,-0.5102439522743225,-2.2296175956726074,0.20724813640117645,0
31,0.14989805221557617,0.08103066682815552,-18.130334854125977,1.0688202381134033,18.099092483520508,0.5102439522743225,2.2296175956726074,-0.20724813640117645,0.0,0.0,0.0,0.0,0.0,0.0,0.0,0.08146909058606511,0.5479274877037396,0.2653761449426082,0.4721632665143451,0.09512204182997451,0.06593911592696008,-0.20813402807500633,-0.6092390061219534,-0.057795548707021915,-0.666647218101903,-2.594493350954387,-0.05576895780364671,2.507959585878584,0.8763191901759968,-0.6090851748156966,-0.05753196718556838,-0.666603097082616,-2.5945565370258534,-0.05562143941554,2.507976027223799,0.8763108487046415,-0.0001724404015704012,0.00043718919023110706,-0.00011027639068817441,0.0002300731227991309,0.00027717257056238207,0.0007440122747336768,-0.0004234372430609022,0.0,0.0,0.0,0.0,0.0,0.0,0.0,0.00015383130625679087,0.000263581521453532,4.412101928696899e-05,-6.318607146660327e-05,0.0001475183881067127,1.6441345215056913e-05,-8.341471355310937e-06,0.0001724404015704012,-0.00043718919023110706,0.00011027639068817441,-0.0002300731227991309,-0.00027717257056238207,-0.0007440122747336768,0.0004234372430609022,-0.08103066682815552,18.130334854125977,-1.0688202381134033,-18.099092483520508,-0.5102439522743225,-2.2296175956726074,0.20724813640117645,0
32,0.15489625930786133,0.08103066682815552,-18.054956436157227,1.0926239490509033,18.071321487426758,0.5166526436805725,2.2424349784851074,-0.22830526530742645,0.0,0.0,0.0,0.0,0.0,0.0,0.0,0.08554088240631262,0.553320662898802,0.26761796811016997,0.4708762748987092,0.09448703845337422,0.06530014929617092,-0.2075202860349987,-0.6092390061219534,-0.05780367917946692,-0.6666488885377583,-2.5944893594404075,-0.05576966988046964,2.5079581617249382,0.8763215298569863,-0.6090851748156966,-0.05753196718556838,-0.666603097082616,-2.5945565370258534,-0.05562143941554,2.507976027223799,0.8763108487046415,1.1277086927648658e-05,-0.0011799096379632086,5.1238865065912186e-05,0.0006959802945104569,-6.730908343405428e-05,0.00025636115413598586,0.0010736581532358063,0.0,0.0,0.0,0.0,0.0,0.0,0.0,0.00015383130625679087,0.0002717119938985338,4.579145514227445e-05,-6.717758544594332e-05,0.0001482304649296426,1.7865498860736295e-05,-1.0681152344815814e-05,-1.1277086927648658e-05,0.0011799096379632086,-5.1238865065912186e-05,-0.0006959802945104569,6.730908343405428e-05,-0.00025636115413598586,-0.0010736581532358063,-0.08103066682815552,18.054956436157227,-1.0926239490509033,-18.071321487426758,-0.5166526436805725,-2.2424349784851074,0.22830526530742645,0
33,0.1598961353302002,0.08103066682815552,-18.054956436157227,1.0926239490509033,18.071321487426758,0.5166526436805725,2.2424349784851074,-0.22830526530742645,0.0,0.0,0.0,0.0,0.0,0.0,0.0,0.08554088240631262,0.553320662898802,0.26761796811016997,0.4708762748987092,0.09448703845337422,0.06530014929617092,-0.2075202860349987,-0.6092390061219534,-0.05780367917946692,-0.6666488885377583,-2.5944893594404075,-0.05576966988046964,2.5079581617249382,0.8763215298569863,-0.6090851748156966,-0.05753196718556838,-0.666603097082616,-2.5945565370258534,-0.05562143941554,2.507976027223799,0.8763108487046415,1.1277086927648658e-05,-0.0011799096379632086,5.1238865065912186e-05,0.0006959802945104569,-6.730908343405428e-05,0.00025636115413598586,0.0010736581532358063,0.0,0.0,0.0,0.0,0.0,0.0,0.0,0.00015383130625679087,0.0002717119938985338,4.579145514227445e-05,-6.717758544594332e-05,0.0001482304649296426,1.7865498860736295e-05,-1.0681152344815814e-05,-1.1277086927648658e-05,0.0011799096379632086,-5.1238865065912186e-05,-0.0006959802945104569,6.730908343405428e-05,-0.00025636115413598586,-0.0010736581532358063,-0.08103066682815552,18.054956436157227,-1.0926239490509033,-18.071321487426758,-0.5166526436805725,-2.2424349784851074,0.22830526530742645,0
34,0.16489696502685547,0.05722695589065552,-18.078760147094727,1.1164276599884033,18.122896194458008,0.5166526436805725,2.2360262870788574,-0.22830526530742645,0.0,0.0,0.0,0.0,0.0,0.0,0.0,0.0816872188866897,0.5498898692619925,0.2651675814057992,0.47465222360595505,0.09441103634283375,0.06619612052190228,-0.20497607775785154,-0.6092373356860981,-0.05779916799669075,-0.6666505589736136,-2.5944932787354844,-0.05576966988046964,2.507958873801761,0.8763215284034361,-0.6090851748156966,-0.05753196718556838,-0.666603097082616,-2.5945565370258534,-0.05562143941554,2.507976027223799,0.8763108487046415,0.0005407751755187318,-0.0009982561219302947,-0.0005725140294765023,-0.00041236254475629535,-6.208179158189742e-08,0.00038874708586638545,0.001455282501024713,0.0,0.0,0.0,0.0,0.0,0.0,0.0,0.0001521608704014854,0.0002672008111223659,4.7461890997579914e-05,-6.325829036901709e-05,0.0001482304649296426,1.7153422037896604e-05,-1.0679698794646697e-05,-0.0005407751755187318,0.0009982561219302947,0.0005725140294765023,0.00041236254475629535,6.208179158189742e-08,-0.00038874708586638545,-0.001455282501024713,-0.05722695589065552,18.078760147094727,-1.1164276599884033,-18.122896194458008,-0.5166526436805725,-2.2360262870788574,0.22830526530742645,0
35,0.1698925495147705,0.05722695589065552,-18.078760147094727,1.1164276599884033,18.122896194458008,0.5166526436805725,2.2360262870788574,-0.22830526530742645,0.0,0.0,0.0,0.0,0.0,0.0,0.0,0.0816872188866897,0.5498898692619925,0.2651675814057992,0.47465222360595505,0.09441103634283375,0.06619612052190228,-0.20497607775785154,-0.6092373356860981,-0.05779916799669075,-0.6666505589736136,-2.5944932787354844,-0.05576966988046964,2.507958873801761,0.8763215284034361,-0.6090851748156966,-0.05753196718556838,-0.666603097082616,-2.5945565370258534,-0.05562143941554,2.507976027223799,0.8763108487046415,0.0005407751755187318,-0.0009982561219302947,-0.0005725140294765023,-0.00041236254475629535,-6.208179158189742e-08,0.00038874708586638545,0.001455282501024713,0.0,0.0,0.0,0.0,0.0,0.0,0.0,0.0001521608704014854,0.0002672008111223659,4.7461890997579914e-05,-6.325829036901709e-05,0.0001482304649296426,1.7153422037896604e-05,-1.0679698794646697e-05,-0.0005407751755187318,0.0009982561219302947,0.0005725140294765023,0.00041236254475629535,6.208179158189742e-08,-0.00038874708586638545,-0.001455282501024713,-0.05722695589065552,18.078760147094727,-1.1164276599884033,-18.122896194458008,-0.5166526436805725,-2.2360262870788574,0.22830526530742645,0
36,0.1748943328857422,0.03342324495315552,-18.130334854125977,1.0926239490509033,18.099092483520508,0.5102439522743225,2.2488436698913574,-0.16604940593242645,0.0,0.0,0.0,0.0,0.0,0.0,0.0,0.08206602281212293,0.5473456324902638,0.2694577718957847,0.4757138552894612,0.09408944630025987,0.06601107823119602,-0.20331421175842515,-0.6092356652502428,-0.057795549676166964,-0.6666488885377583,-2.5944913592685857,-0.055768957803646727,2.5079574496481154,0.8763146081786027,-0.6090851748156966,-0.05753196718556838,-0.666603097082616,-2.5945565370258534,-0.05562143941554,2.507976027223799,0.8763108487046415,0.0011101868654098547,-0.0002684796934035538,6.260467013346204e-05,-6.0008952588353154e-05,0.00024642284973541755,0.0001905873656975226,-0.001618943413303864,0.0,0.0,0.0,0.0,0.0,0.0,0.0,0.00015049043454617994,0.0002635824905985809,4.579145514227445e-05,-6.517775726777586e-05,0.00014751838810672657,1.8577575683575986e-05,-3.759473961251203e-06,-0.0011101868654098547,0.0002684796934035538,-6.260467013346204e-05,6.0008952588353154e-05,-0.00024642284973541755,-0.0001905873656975226,0.001618943413303864,-0.03342324495315552,18.130334854125977,-1.0926239490509033,-18.099092483520508,-0.5102439522743225,-2.2488436698913574,0.16604940593242645,0
37,0.1799027919769287,0.03342324495315552,-18.130334854125977,1.0926239490509033,18.099092483520508,0.5102439522743225,2.2488436698913574,-0.16604940593242645,0.0,0.0,0.0,0.0,0.0,0.0,0.0,0.08206602281212293,0.5473456324902638,0.2694577718957847,0.4757138552894612,0.09408944630025987,0.06601107823119602,-0.20331421175842515,-0.6092356652502428,-0.057795549676166964,-0.6666488885377583,-2.5944913592685857,-0.055768957803646727,2.5079574496481154,0.8763146081786027,-0.6090851748156966,-0.05753196718556838,-0.666603097082616,-2.5945565370258534,-0.05562143941554,2.507976027223799,0.8763108487046415,0.0011101868654098547,-0.0002684796934035538,6.260467013346204e-05,-6.0008952588353154e-05,0.00024642284973541755,0.0001905873656975226,-0.001618943413303864,0.0,0.0,0.0,0.0,0.0,0.0,0.0,0.00015049043454617994,0.0002635824905985809,4.579145514227445e-05,-6.517775726777586e-05,0.00014751838810672657,1.8577575683575986e-05,-3.759473961251203e-06,-0.0011101868654098547,0.0002684796934035538,-6.260467013346204e-05,6.0008952588353154e-05,-0.00024642284973541755,-0.0001905873656975226,0.001618943413303864,-0.03342324495315552,18.130334854125977,-1.0926239490509033,-18.099092483520508,-0.5102439522743225,-2.2488436698913574,0.16604940593242645,0
38,0.18490123748779297,0.08103066682815552,-18.106531143188477,1.0926239490509033,18.099092483520508,0.5285544991493225,2.2424349784851074,-0.17978231608867645,0.0,0.0,0.0,0.0,0.0,0.0,0.0,0.07912849370123472,0.5442722115661016,0.26879240961345036,0.4741402786807977,0.09391030124102737,0.06617554368413332,-0.20399792398010935,-0.6092390061219534,-0.05779721903069181,-0.6666488885377583,-2.5944934283931387,-0.05577099230885506,2.5079581617249382,0.8763161384181761,-0.6090851748156966,-0.05753196718556838,-0.666603097082616,-2.5945565370258534,-0.05562143941554,2.507976027223799,0.8763108487046415,0.00017208731811163886,-0.0007973981632606776,-0.0004834193101863645,0.00014975196278274431,-0.00043861771485634966,0.00021212905294412418,-0.0014815260319487036,0.0,0.0,0.0,0.0,0.0,0.0,0.0,0.00015383130625679087,0.0002652518451234237,4.579145514227445e-05,-6.310863271474787e-05,0.00014955289331505806,1.7865498860736295e-05,-5.289713534639695e-06,-0.00017208731811163886,0.0007973981632606776,0.0004834193101863645,-0.00014975196278274431,0.00043861771485634966,-0.00021212905294412418,0.0014815260319487036,-0.08103066682815552,18.106531143188477,-1.0926239490509033,-18.099092483520508,-0.5285544991493225,-2.2424349784851074,0.17978231608867645,0
39,0.18990182876586914,0.08103066682815552,-18.106531143188477,1.0926239490509033,18.099092483520508,0.5285544991493225,2.2424349784851074,-0.17978231608867645,0.0,0.0,0.0,0.0,0.0,0.0,0.0,0.07912849370123472,0.5442722115661016,0.26879240961345036,0.4741402786807977,0.09391030124102737,0.06617554368413332,-0.20399792398010935,-0.6092390061219534,-0.05779721903069181,-0.6666488885377583,-2.5944934283931387,-0.05577099230885506,2.5079581617249382,0.8763161384181761,-0.6090851748156966,-0.05753196718556838,-0.666603097082616,-2.5945565370258534,-0.05562143941554,2.507976027223799,0.8763108487046415,0.00017208731811163886,-0.0007973981632606776,-0.0004834193101863645,0.00014975196278274431,-0.00043861771485634966,0.00021212905294412418,-0.0014815260319487036,0.0,0.0,0.0,0.0,0.0,0.0,0.0,0.00015383130625679087,0.0002652518451234237,4.579145514227445e-05,-6.310863271474787e-05,0.00014955289331505806,1.7865498860736295e-05,-5.289713534639695e-06,-0.00017208731811163886,0.0007973981632606776,0.0004834193101863645,-0.00014975196278274431,0.00043861771485634966,-0.00021212905294412418,0.0014815260319487036,-0.08103066682815552,18.106531143188477,-1.0926239490509033,-18.099092483520508,-0.5285544991493225,-2.2424349784851074,0.17978231608867645,0
40,0.1949145793914795,0.03342324495315552,-18.106531143188477,1.0926239490509033,18.099092483520508,0.5285544991493225,2.2488436698913574,-0.20724813640117645,0.0,0.0,0.0,0.0,0.0,0.0,0.0,0.0715379821180399,0.5416564132811958,0.2621703009706543,0.4737671873195338,0.09421089602778582,0.06537950446708946,-0.20677324218813428,-0.6092356652502428,-0.057799583936205066,-0.6666488885377583,-2.594492994449413,-0.05577099230885506,2.5079574496481154,0.8763191901759968,-0.6090851748156966,-0.05753196718556838,-0.666603097082616,-2.5945565370258534,-0.05562143941554,2.507976027223799,0.8763108487046415,0.0001271776617270759,-0.0003667819869039924,-0.0003419541970248087,0.00034809210102033965,-0.0002361361160068496,0.0002055750568217026,-0.0005648256846987937,0.0,0.0,0.0,0.0,0.0,0.0,0.0,0.00015049043454617994,0.00026761675063668305,4.579145514227445e-05,-6.354257644058947e-05,0.00014955289331505806,1.8577575683575986e-05,-8.341471355310937e-06,-0.0001271776617270759,0.0003667819869039924,0.0003419541970248087,-0.00034809210102033965,0.0002361361160068496,-0.0002055750568217026,0.0005648256846987937,-0.03342324495315552,18.106531143188477,-1.0926239490509033,-18.099092483520508,-0.5285544991493225,-2.2488436698913574,0.20724813640117645,0
41,0.1999044418334961,0.03342324495315552,-18.106531143188477,1.0926239490509033,18.099092483520508,0.5285544991493225,2.2488436698913574,-0.20724813640117645,0.0,0.0,0.0,0.0,0.0,0.0,0.0,0.0715379821180399,0.5416564132811958,0.2621703009706543,0.4737671873195338,0.09421089602778582,0.06537950446708946,-0.20677324218813428,-0.6092356652502428,-0.057799583936205066,-0.6666488885377583,-2.594492994449413,-0.05577099230885506,2.5079574496481154,0.8763191901759968,-0.6090851748156966,-0.05753196718556838,-0.666603097082616,-2.5945565370258534,-0.05562143941554,2.507976027223799,0.8763108487046415,0.0001271776617270759,-0.0003667819869039924,-0.0003419541970248087,0.00034809210102033965,-0.0002361361160068496,0.0002055750568217026,-0.0005648256846987937,0.0,0.0,0.0,0.0,0.0,0.0,0.0,0.00015049043454617994,0.00026761675063668305,4.579145514227445e-05,-6.354257644058947e-05,0.00014955289331505806,1.8577575683575986e-05,-8.341471355310937e-06,-0.0001271776617270759,0.0003667819869039924,0.0003419541970248087,-0.00034809210102033965,0.0002361361160068496,-0.0002055750568217026,0.0005648256846987937,-0.03342324495315552,18.106531143188477,-1.0926239490509033,-18.099092483520508,-0.5285544991493225,-2.2488436698913574,0.20724813640117645,0
42,0.20485281944274902,0.10880166292190552,-18.106531143188477,1.0926239490509033,18.099092483520508,0.5221458077430725,2.2488436698913574,-0.19351522624492645,0.0,0.0,0.0,0.0,0.0,0.0,0.0,0.07197404631813809,0.5407063733932947,0.2681863815976258,0.4737923967292244,0.09419091473300141,0.06611312984344826,-0.20937324036896385,-0.6092409549637845,-0.057799435987519084,-0.6666488885377583,-2.594493648253864,-0.055770280177944595,2.5079574496481154,0.8763176642970906,-0.6090851748156966,-0.05753196718556838,-0.666603097082616,-2.5945565370258534,-0.05562143941554,2.507976027223799,0.8763108487046415,-0.0012443149898846274,-0.00034933761511199836,-0.00030977919279103394,0.00010362036120385406,-9.496588451527749e-05,5.9270839148689656e-05,-0.0012464001379014359,0.0,0.0,0.0,0.0,0.0,0.0,0.0,0.00015578014808792506,0.00026746880195070016,4.579145514227445e-05,-6.288877198956655e-05,0.0001488407624045951,1.8577575683575986e-05,-6.815592449083141e-06,0.0012443149898846274,0.00034933761511199836,0.00030977919279103394,-0.00010362036120385406,9.496588451527749e-05,-5.9270839148689656e-05,0.0012464001379014359,-0.10880166292190552,18.106531143188477,-1.0926239490509033,-18.099092483520508,-0.5221458077430725,-2.2488436698913574,0.19351522624492645,0
43,0.2098989486694336,0.10880166292190552,-18.106531143188477,1.0926239490509033,18.099092483520508,0.5221458077430725,2.2488436698913574,-0.19351522624492645,0.0,0.0,0.0,0.0,0.0,0.0,0.0,0.07197404631813809,0.5407063733932947,0.2681863815976258,0.4737923967292244,0.09419091473300141,0.06611312984344826,-0.20937324036896385,-0.6092409549637845,-0.057799435987519084,-0.6666488885377583,-2.594493648253864,-0.055770280177944595,2.5079574496481154,0.8763176642970906,-0.6090851748156966,-0.05753196718556838,-0.666603097082616,-2.5945565370258534,-0.05562143941554,2.507976027223799,0.8763108487046415,-0.0012443149898846274,-0.00034933761511199836,-0.00030977919279103394,0.00010362036120385406,-9.496588451527749e-05,5.9270839148689656e-05,-0.0012464001379014359,0.0,0.0,0.0,0.0,0.0,0.0,0.0,0.00015578014808792506,0.00026746880195070016,4.579145514227445e-05,-6.288877198956655e-05,0.0001488407624045951,1.8577575683575986e-05,-6.815592449083141e-06,0.0012443149898846274,0.00034933761511199836,0.00030977919279103394,-0.00010362036120385406,9.496588451527749e-05,-5.9270839148689656e-05,0.0012464001379014359,-0.10880166292190552,18.106531143188477,-1.0926239490509033,-18.099092483520508,-0.5221458077430725,-2.2488436698913574,0.19351522624492645,0
44,0.21489810943603516,0.08103066682815552,-18.130334854125977,1.0688202381134033,18.099092483520508,0.5166526436805725,2.2552523612976074,-0.24112264811992645,0.0,0.0,0.0,0.0,0.0,0.0,0.0,0.07409317080629728,0.5423161503563688,0.2707686345470575,0.4743170063824808,0.09422094700227869,0.06660363958284704,-0.211075386191521,-0.6092390061219534,-0.05779649490456635,-0.666647218101903,-2.5944929852121366,-0.05576966988046873,2.5079567375712926,0.8763229540106322,-0.6090851748156966,-0.05753196718556838,-0.666603097082616,-2.5945565370258534,-0.05562143941554,2.507976027223799,0.8763108487046415,0.00013611386678092328,0.0006297650182902344,0.000914769394109961,0.00042893221271302095,9.141137108916078e-05,-8.432634614160966e-05,0.0009323951167178137,0.0,0.0,0.0,0.0,0.0,0.0,0.0,0.00015383130625679087,0.00026452771899796584,4.412101928696899e-05,-6.355181371686669e-05,0.00014823046492872666,1.9289652506415678e-05,-1.2105305990717241e-05,-0.00013611386678092328,-0.0006297650182902344,-0.000914769394109961,-0.00042893221271302095,-9.141137108916078e-05,8.432634614160966e-05,-0.0009323951167178137,-0.08103066682815552,18.130334854125977,-1.0688202381134033,-18.099092483520508,-0.5166526436805725,-2.2552523612976074,0.24112264811992645,0
45,0.21989750862121582,0.08103066682815552,-18.130334854125977,1.0688202381134033,18.099092483520508,0.5166526436805725,2.2552523612976074,-0.24112264811992645,0.0,0.0,0.0,0.0,0.0,0.0,0.0,0.07409317080629728,0.5423161503563688,0.2707686345470575,0.4743170063824808,0.09422094700227869,0.06660363958284704,-0.211075386191521,-0.6092390061219534,-0.05779649490456635,-0.666647218101903,-2.5944929852121366,-0.05576966988046873,2.5079567375712926,0.8763229540106322,-0.6090851748156966,-0.05753196718556838,-0.666603097082616,-2.5945565370258534,-0.05562143941554,2.507976027223799,0.8763108487046415,0.00013611386678092328,0.0006297650182902344,0.000914769394109961,0.00042893221271302095,9.141137108916078e-05,-8.432634614160966e-05,0.0009323951167178137,0.0,0.0,0.0,0.0,0.0,0.0,0.0,0.00015383130625679087,0.00026452771899796584,4.412101928696899e-05,-6.355181371686669e-05,0.00014823046492872666,1.9289652506415678e-05,-1.2105305990717241e-05,-0.00013611386678092328,-0.0006297650182902344,-0.000914769394109961,-0.00042893221271302095,-9.141137108916078e-05,8.432634614160966e-05,-0.0009323951167178137,-0.08103066682815552,18.130334854125977,-1.0688202381134033,-18.099092483520508,-0.5166526436805725,-2.2552523612976074,0.24112264811992645,0
46,0.22489547729492188,0.08103066682815552,-18.130334854125977,1.0688202381134033,18.099092483520508,0.5166526436805725,2.2552523612976074,-0.24112264811992645,0.0,0.0,0.0,0.0,0.0,0.0,0.0,0.07409317080629728,0.5423161503563688,0.2707686345470575,0.4743170063824808,0.09422094700227869,0.06660363958284704,-0.211075386191521,-0.6092390061219534,-0.05779649490456635,-0.666647218101903,-2.5944929852121366,-0.05576966988046873,2.5079567375712926,0.8763229540106322,-0.6090851748156966,-0.05753196718556838,-0.666603097082616,-2.5945565370258534,-0.05562143941554,2.507976027223799,0.8763108487046415,0.00013611386678092328,0.0006297650182902344,0.000914769394109961,0.00042893221271302095,9.141137108916078e-05,-8.432634614160966e-05,0.0009323951167178137,0.0,0.0,0.0,0.0,0.0,0.0,0.0,0.00015383130625679087,0.00026452771899796584,4.412101928696899e-05,-6.355181371686669e-05,0.00014823046492872666,1.9289652506415678e-05,-1.2105305990717241e-05,-0.00013611386678092328,-0.0006297650182902344,-0.000914769394109961,-0.00042893221271302095,-9.141137108916078e-05,8.432634614160966e-05,-0.0009323951167178137,-0.08103066682815552,18.130334854125977,-1.0688202381134033,-18.099092483520508,-0.5166526436805725,-2.2552523612976074,0.24112264811992645,0
47,0.22989964485168457,0.08103066682815552,-18.130334854125977,1.0688202381134033,18.099092483520508,0.5166526436805725,2.2552523612976074,-0.24112264811992645,0.0,0.0,0.0,0.0,0.0,0.0,0.0,0.07409317080629728,0.5423161503563688,0.2707686345470575,0.4743170063824808,0.09422094700227869,0.06660363958284704,-0.211075386191521,-0.6092390061219534,-0.05779649490456635,-0.666647218101903,-2.5944929852121366,-0.05576966988046873,2.5079567375712926,0.8763229540106322,-0.6090851748156966,-0.05753196718556838,-0.666603097082616,-2.5945565370258534,-0.05562143941554,2.507976027223799,0.8763108487046415,0.00013611386678092328,0.0006297650182902344,0.000914769394109961,0.00042893221271302095,9.141137108916078e-05,-8.432634614160966e-05,0.0009323951167178137,0.0,0.0,0.0,0.0,0.0,0.0,0.0,0.00015383130625679087,0.00026452771899796584,4.412101928696899e-05,-6.355181371686669e-05,0.00014823046492872666,1.9289652506415678e-05,-1.2105305990717241e-05,-0.00013611386678092328,-0.0006297650182902344,-0.000914769394109961,-0.00042893221271302095,-9.141137108916078e-05,8.432634614160966e-05,-0.0009323951167178137,-0.08103066682815552,18.130334854125977,-1.0688202381134033,-18.099092483520508,-0.5166526436805725,-2.2552523612976074,0.24112264811992645,0
48,0.23490071296691895,0.08103066682815552,-18.154138565063477,1.1441986560821533,18.146699905395508,0.5166526436805725,2.2488436698913574,-0.24844686686992645,0.0,0.0,0.0,0.0,0.0,0.0,0.0,0.0758166034167958,0.5356412912122805,0.2696215373732936,0.47710183943013224,0.09387335410456656,0.06709367494807815,-0.21282662542266037,-0.6092390061219534,-0.05779600654328375,-0.6666525078154447,-2.5944947281684274,-0.05576966988046964,2.5079574496481154,0.8763237678127155,-0.6090851748156966,-0.05753196718556838,-0.666603097082616,-2.5945565370258534,-0.05562143941554,2.507976027223799,0.8763108487046415,0.00038444016439868775,0.00018721399841133707,-0.0006605034257173605,-0.0011285994642895806,-0.00011214608720638802,2.42582003429234e-05,0.0016249676655485257,0.0,0.0,0.0,0.0,0.0,0.0,0.0,0.00015383130625679087,0.0002640393577153649,4.941073282871411e-05,-6.18088574260156e-05,0.0001482304649296426,1.8577575683575986e-05,-1.2919108073994323e-05,-0.00038444016439868775,-0.00018721399841133707,0.0006605034257173605,0.0011285994642895806,0.00011214608720638802,-2.42582003429234e-05,-0.0016249676655485257,-0.08103066682815552,18.154138565063477,-1.1441986560821533,-18.146699905395508,-0.5166526436805725,-2.2488436698913574,0.24844686686992645,0
49,0.2398989200592041,0.08103066682815552,-18.154138565063477,1.1441986560821533,18.146699905395508,0.5166526436805725,2.2488436698913574,-0.24844686686992645,0.0,0.0,0.0,0.0,0.0,0.0,0.0,0.0758166034167958,0.5356412912122805,0.2696215373732936,0.47710183943013224,0.09387335410456656,0.06709367494807815,-0.21282662542266037,-0.6092390061219534,-0.05779600654328375,-0.6666525078154447,-2.5944947281684274,-0.05576966988046964,2.5079574496481154,0.8763237678127155,-0.6090851748156966,-0.05753196718556838,-0.666603097082616,-2.5945565370258534,-0.05562143941554,2.507976027223799,0.8763108487046415,0.00038444016439868775,0.00018721399841133707,-0.0006605034257173605,-0.0011285994642895806,-0.00011214608720638802,2.42582003429234e-05,0.0016249676655485257,0.0,0.0,0.0,0.0,0.0,0.0,0.0,0.00015383130625679087,0.0002640393577153649,4.941073282871411e-05,-6.18088574260156e-05,0.0001482304649296426,1.8577575683575986e-05,-1.2919108073994323e-05,-0.00038444016439868775,-0.00018721399841133707,0.0006605034257173605,0.0011285994642895806,0.00011214608720638802,-2.42582003429234e-05,-0.0016249676655485257,-0.08103066682815552,18.154138565063477,-1.1441986560821533,-18.146699905395508,-0.5166526436805725,-2.2488436698913574,0.24844686686992645,0
50,0.24500417709350586,0.08103066682815552,-18.078760147094727,1.0688202381134033,18.099092483520508,0.5166526436805725,2.2360262870788574,-0.24112264811992645,0.0,0.0,0.0,0.0,0.0,0.0,0.0,0.0799104685056565,0.53918808240187,0.2741883737462135,0.47570250277181125,0.09366293435129651,0.06674613389539825,-0.2131248267244159,-0.6092390061219534,-0.05779916791257019,-0.666647218101903,-2.5944927641117563,-0.05576966842010588,2.507958873801761,0.876322952557082,-0.6090851748156966,-0.05753196718556838,-0.666603097082616,-2.5945565370258534,-0.05562143941554,2.507976027223799,0.8763108487046415,0.00047436111145876704,-0.000900049793202227,0.000922546765667388,0.0006215924929297126,0.0001446399787724957,0.0006021375587520346,0.0013275012093436629,0.0,0.0,0.0,0.0,0.0,0.0,0.0,0.00015383130625679087,0.00026720072700180814,4.412101928696899e-05,-6.377291409709329e-05,0.00014822900456588212,1.7153422037896604e-05,-1.2103852440548124e-05,-0.00047436111145876704,0.000900049793202227,-0.000922546765667388,-0.0006215924929297126,-0.0001446399787724957,-0.0006021375587520346,-0.0013275012093436629,-0.08103066682815552,18.078760147094727,-1.0688202381134033,-18.099092483520508,-0.5166526436805725,-2.2360262870788574,0.24112264811992645,0
51,0.2498950958251953,0.08103066682815552,-18.078760147094727,1.0688202381134033,18.099092483520508,0.5166526436805725,2.2360262870788574,-0.24112264811992645,0.0,0.0,0.0,0.0,0.0,0.0,0.0,0.0799104685056565,0.53918808240187,0.2741883737462135,0.47570250277181125,0.09366293435129651,0.06674613389539825,-0.2131248267244159,-0.6092390061219534,-0.05779916791257019,-0.666647218101903,-2.5944927641117563,-0.05576966842010588,2.507958873801761,0.876322952557082,-0.6090851748156966,-0.05753196718556838,-0.666603097082616,-2.5945565370258534,-0.05562143941554,2.507976027223799,0.8763108487046415,0.00047436111145876704,-0.000900049793202227,0.000922546765667388,0.0006215924929297126,0.0001446399787724957,0.0006021375587520346,0.0013275012093436629,0.0,0.0,0.0,0.0,0.0,0.0,0.0,0.00015383130625679087,0.00026720072700180814,4.412101928696899e-05,-6.377291409709329e-05,0.00014822900456588212,1.7153422037896604e-05,-1.2103852440548124e-05,-0.00047436111145876704,0.000900049793202227,-0.000922546765667388,-0.0006215924929297126,-0.0001446399787724957,-0.0006021375587520346,-0.0013275012093436629,-0.08103066682815552,18.078760147094727,-1.0688202381134033,-18.099092483520508,-0.5166526436805725,-2.2360262870788574,0.24112264811992645,0
52,0.254896879196167,0.03342324495315552,-18.106531143188477,1.0688202381134033,18.122896194458008,0.5221458077430725,2.2552523612976074,-0.20724813640117645,0.0,0.0,0.0,0.0,0.0,0.0,0.0,0.07944567066871046,0.5415156046886531,0.27083295258661033,0.46809451231603705,0.09379637827862802,0.06516363482638925,-0.21288282318396434,-0.6092356652502428,-0.05779722000388777,-0.666647218101903,-2.59449325899734,-0.05577028023200741,2.5079567375712926,0.8763191901759723,-0.6090851748156966,-0.05753196718556838,-0.666603097082616,-2.5945565370258534,-0.05562143941554,2.507976027223799,0.8763108487046415,0.0012967890901686837,-0.00022108994612811235,0.0006008729901540957,-0.0010035125076758072,-0.0003444677316723097,-0.0004179690147297231,-0.00018821117322260619,0.0,0.0,0.0,0.0,0.0,0.0,0.0,0.00015049043454617994,0.000265252818319385,4.412101928696899e-05,-6.327802851346931e-05,0.00014884081646741182,1.9289652506415678e-05,-8.341471330775008e-06,-0.0012967890901686837,0.00022108994612811235,-0.0006008729901540957,0.0010035125076758072,0.0003444677316723097,0.0004179690147297231,0.00018821117322260619,-0.03342324495315552,18.106531143188477,-1.0688202381134033,-18.122896194458008,-0.5221458077430725,-2.2552523612976074,0.20724813640117645,0
53,0.2599067687988281,0.03342324495315552,-18.106531143188477,1.0688202381134033,18.122896194458008,0.5221458077430725,2.2552523612976074,-0.20724813640117645,0.0,0.0,0.0,0.0,0.0,0.0,0.0,0.07944567066871046,0.5415156046886531,0.27083295258661033,0.46809451231603705,0.09379637827862802,0.06516363482638925,-0.21288282318396434,-0.6092356652502428,-0.05779722000388777,-0.666647218101903,-2.59449325899734,-0.05577028023200741,2.5079567375712926,0.8763191901759723,-0.6090851748156966,-0.05753196718556838,-0.666603097082616,-2.5945565370258534,-0.05562143941554,2.507976027223799,0.8763108487046415,0.0012967890901686837,-0.00022108994612811235,0.0006008729901540957,-0.0010035125076758072,-0.0003444677316723097,-0.0004179690147297231,-0.00018821117322260619,0.0,0.0,0.0,0.0,0.0,0.0,0.0,0.00015049043454617994,0.000265252818319385,4.412101928696899e-05,-6.327802851346931e-05,0.00014884081646741182,1.9289652506415678e-05,-8.341471330775008e-06,-0.0012967890901686837,0.00022108994612811235,-0.0006008729901540957,0.0010035125076758072,0.0003444677316723097,0.0004179690147297231,0.00018821117322260619,-0.03342324495315552,18.106531143188477,-1.0688202381134033,-18.122896194458008,-0.5221458077430725,-2.2552523612976074,0.20724813640117645,0
54,0.26491284370422363,0.05722695589065552,-18.106531143188477,1.0688202381134033,18.122896194458008,0.5166526436805725,2.2552523612976074,-0.22098104655742645,0.0,0.0,0.0,0.0,0.0,0.0,0.0,0.07856034075170235,0.544468682633583,0.267690565566919,0.46747128121531467,0.09332570189507651,0.06506142243835199,-0.21247736262757982,-0.6092373356860981,-0.05779819125480744,-0.666647218101903,-2.5944932788499293,-0.05576825040689221,2.5079567375712926,0.876320716054903,-0.6090851748156966,-0.05753196718556838,-0.666603097082616,-2.5945565370258534,-0.05562143941554,2.507976027223799,0.8763108487046415,-0.00010062453017540123,-2.3363944253377508e-05,-0.00023182228525515111,-0.0006724342457202123,-0.00010725676258242255,-0.00019620064871815816,0.0006283740766689274,0.0,0.0,0.0,0.0,0.0,0.0,0.0,0.0001521608704014854,0.0002662240692390544,4.412101928696899e-05,-6.325817592411909e-05,0.00014681099135221282,1.9289652506415678e-05,-9.867350261538732e-06,0.00010062453017540123,2.3363944253377508e-05,0.00023182228525515111,0.0006724342457202123,0.00010725676258242255,0.00019620064871815816,-0.0006283740766689274,-0.05722695589065552,18.106531143188477,-1.0688202381134033,-18.122896194458008,-0.5166526436805725,-2.2552523612976074,0.22098104655742645,0
55,0.27005672454833984,0.05722695589065552,-18.106531143188477,1.0688202381134033,18.122896194458008,0.5166526436805725,2.2552523612976074,-0.22098104655742645,0.0,0.0,0.0,0.0,0.0,0.0,0.0,0.07856034075170235,0.544468682633583,0.267690565566919,0.46747128121531467,0.09332570189507651,0.06506142243835199,-0.21247736262757982,-0.6092373356860981,-0.05779819125480744,-0.666647218101903,-2.5944932788499293,-0.05576825040689221,2.5079567375712926,0.876320716054903,-0.6090851748156966,-0.05753196718556838,-0.666603097082616,-2.5945565370258534,-0.05562143941554,2.507976027223799,0.8763108487046415,-0.00010062453017540123,-2.3363944253377508e-05,-0.00023182228525515111,-0.0006724342457202123,-0.00010725676258242255,-0.00019620064871815816,0.0006283740766689274,0.0,0.0,0.0,0.0,0.0,0.0,0.0,0.0001521608704014854,0.0002662240692390544,4.412101928696899e-05,-6.325817592411909e-05,0.00014681099135221282,1.9289652506415678e-05,-9.867350261538732e-06,0.00010062453017540123,2.3363944253377508e-05,0.00023182228525515111,0.0006724342457202123,0.00010725676258242255,0.00019620064871815816,-0.0006283740766689274,-0.05722695589065552,18.106531143188477,-1.0688202381134033,-18.122896194458008,-0.5166526436805725,-2.2552523612976074,0.22098104655742645,0
56,0.2749044895172119,0.05722695589065552,-18.130334854125977,1.0926239490509033,18.122896194458008,0.5166526436805725,2.2689852714538574,-0.17337362468242645,0.0,0.0,0.0,0.0,0.0,0.0,0.0,0.07928946429383404,0.5405443517487022,0.2679374687129857,0.4733408349467836,0.0929275530328812,0.06633586048845108,-0.2110470098197777,-0.6092373356860981,-0.057795548600322745,-0.6666488885377583,-2.5944932504979272,-0.05576966987245667,2.507955211692386,0.8763154263413614,-0.6090851748156966,-0.05753196718556838,-0.666603097082616,-2.5945565370258534,-0.05562143941554,2.507976027223799,0.8763108487046415,5.500915822454461e-05,0.0002502382178252532,-0.0001953091821567305,-0.0001122640803818639,0.00017793041995267322,-0.0007435263619275928,-0.0015104864387232824,0.0,0.0,0.0,0.0,0.0,0.0,0.0,0.0001521608704014854,0.00026358141475436164,4.579145514227445e-05,-6.328652792619849e-05,0.00014823045691667036,2.0815531412754495e-05,-4.577636719904632e-06,-5.500915822454461e-05,-0.0002502382178252532,0.0001953091821567305,0.0001122640803818639,-0.00017793041995267322,0.0007435263619275928,0.0015104864387232824,-0.05722695589065552,18.130334854125977,-1.0926239490509033,-18.122896194458008,-0.5166526436805725,-2.2689852714538574,0.17337362468242645,0
57,0.2799046039581299,0.05722695589065552,-18.130334854125977,1.0926239490509033,18.122896194458008,0.5166526436805725,2.2689852714538574,-0.17337362468242645,0.0,0.0,0.0,0.0,0.0,0.0,0.0,0.07928946429383404,0.5405443517487022,0.2679374687129857,0.4733408349467836,0.0929275530328812,0.06633586048845108,-0.2110470098197777,-0.6092373356860981,-0.057795548600322745,-0.6666488885377583,-2.5944932504979272,-0.05576966987245667,2.507955211692386,0.8763154263413614,-0.6090851748156966,-0.05753196718556838,-0.666603097082616,-2.5945565370258534,-0.05562143941554,2.507976027223799,0.8763108487046415,5.500915822454461e-05,0.0002502382178252532,-0.0001953091821567305,-0.0001122640803818639,0.00017793041995267322,-0.0007435263619275928,-0.0015104864387232824,0.0,0.0,0.0,0.0,0.0,0.0,0.0,0.0001521608704014854,0.00026358141475436164,4.579145514227445e-05,-6.328652792619849e-05,0.00014823045691667036,2.0815531412754495e-05,-4.577636719904632e-06,-5.500915822454461e-05,-0.0002502382178252532,0.0001953091821567305,0.0001122640803818639,-0.00017793041995267322,0.0007435263619275928,0.0015104864387232824,-0.05722695589065552,18.130334854125977,-1.0926239490509033,-18.122896194458008,-0.5166526436805725,-2.2689852714538574,0.17337362468242645,0
58,0.2848963737487793,0.08103066682815552,-18.130334854125977,1.0926239490509033,18.122896194458008,0.5166526436805725,2.2552523612976074,-0.17978231608867645,0.0,0.0,0.0,0.0,0.0,0.0,0.0,0.07918868154634637,0.5455693729653035,0.26998796355102295,0.46982928902446736,0.0928770820527812,0.06576616767909839,-0.20882957362339394,-0.6092390061219534,-0.05779562753194994,-0.6666488885377583,-2.5944932762175315,-0.055769669880469594,2.5079567375712926,0.876316125336232,-0.6090851748156966,-0.05753196718556838,-0.666603097082616,-2.5945565370258534,-0.05562143941554,2.507976027223799,0.8763108487046415,-4.574853210043408e-05,0.00047800639264306097,-0.00014773875696487648,-0.0004448407715661863,1.2031591718939147e-06,-0.0003884863404016662,-0.0011263575118754074,0.0,0.0,0.0,0.0,0.0,0.0,0.0,0.00015383130625679087,0.0002636603463815543,4.579145514227445e-05,-6.326080832197434e-05,0.00014823046492959402,1.9289652506415678e-05,-5.276631590556136e-06,4.574853210043408e-05,-0.00047800639264306097,0.00014773875696487648,0.0004448407715661863,-1.2031591718939147e-06,0.0003884863404016662,0.0011263575118754074,-0.08103066682815552,18.130334854125977,-1.0926239490509033,-18.122896194458008,-0.5166526436805725,-2.2552523612976074,0.17978231608867645,0
59,0.2898564338684082,0.08103066682815552,-18.130334854125977,1.0926239490509033,18.122896194458008,0.5166526436805725,2.2552523612976074,-0.17978231608867645,0.0,0.0,0.0,0.0,0.0,0.0,0.0,0.07918868154634637,0.5455693729653035,0.26998796355102295,0.46982928902446736,0.0928770820527812,0.06576616767909839,-0.20882957362339394,-0.6092390061219534,-0.05779562753194994,-0.6666488885377583,-2.5944932762175315,-0.055769669880469594,2.5079567375712926,0.876316125336232,-0.6090851748156966,-0.05753196718556838,-0.666603097082616,-2.5945565370258534,-0.05562143941554,2.507976027223799,0.8763108487046415,-4.574853210043408e-05,0.00047800639264306097,-0.00014773875696487648,-0.0004448407715661863,1.2031591718939147e-06,-0.0003884863404016662,-0.0011263575118754074,0.0,0.0,0.0,0.0,0.0,0.0,0.0,0.00015383130625679087,0.0002636603463815543,4.579145514227445e-05,-6.326080832197434e-05,0.00014823046492959402,1.9289652506415678e-05,-5.276631590556136e-06,4.574853210043408e-05,-0.00047800639264306097,0.00014773875696487648,0.0004448407715661863,-1.2031591718939147e-06,0.0003884863404016662,0.0011263575118754074,-0.08103066682815552,18.130334854125977,-1.0926239490509033,-18.122896194458008,-0.5166526436805725,-2.2552523612976074,0.17978231608867645,0
60,0.29490041732788086,0.08103066682815552,-18.106531143188477,1.1164276599884033,18.099092483520508,0.5221458077430725,2.2552523612976074,-0.20724813640117645,0.0,0.0,0.0,0.0,0.0,0.0,0.0,0.07558859103656561,0.541695026070138,0.2667469252888215,0.470798736819565,0.09307049408916054,0.06592292924177617,-0.20631078452041654,-0.6092390061219534,-0.05779792946606518,-0.6666505589736136,-2.5944936746771816,-0.05577028023203214,2.5079567375712926,0.8763191858151246,-0.6090851748156966,-0.05753196718556838,-0.666603097082616,-2.5945565370258534,-0.05562143941554,2.507976027223799,0.8763108487046415,-0.00017007459321522096,-0.00048730524144843714,-0.0004448318963626182,-0.000318680808973294,-4.1283219169807795e-05,5.188398023483938e-05,0.0003625765261826337,0.0,0.0,0.0,0.0,0.0,0.0,0.0,0.00015383130625679087,0.000265962280496794,4.7461890997579914e-05,-6.286234867181051e-05,0.00014884081649214204,1.9289652506415678e-05,-8.337110483092047e-06,0.00017007459321522096,0.00048730524144843714,0.0004448318963626182,0.000318680808973294,4.1283219169807795e-05,-5.188398023483938e-05,-0.0003625765261826337,-0.08103066682815552,18.106531143188477,-1.1164276599884033,-18.099092483520508,-0.5221458077430725,-2.2552523612976074,0.20724813640117645,0
61,0.29990506172180176,0.08103066682815552,-18.106531143188477,1.1164276599884033,18.099092483520508,0.5221458077430725,2.2552523612976074,-0.20724813640117645,0.0,0.0,0.0,0.0,0.0,0.0,0.0,0.07558859103656561,0.541695026070138,0.2667469252888215,0.470798736819565,0.09307049408916054,0.06592292924177617,-0.20631078452041654,-0.6092390061219534,-0.05779792946606518,-0.6666505589736136,-2.5944936746771816,-0.05577028023203214,2.5079567375712926,0.8763191858151246,-0.6090851748156966,-0.05753196718556838,-0.666603097082616,-2.5945565370258534,-0.05562143941554,2.507976027223799,0.8763108487046415,-0.00017007459321522096,-0.00048730524144843714,-0.0004448318963626182,-0.000318680808973294,-4.1283219169807795e-05,5.188398023483938e-05,0.0003625765261826337,0.0,0.0,0.0,0.0,0.0,0.0,0.0,0.00015383130625679087,0.000265962280496794,4.7461890997579914e-05,-6.286234867181051e-05,0.00014884081649214204,1.9289652506415678e-05,-8.337110483092047e-06,0.00017007459321522096,0.00048730524144843714,0.0004448318963626182,0.000318680808973294,4.1283219169807795e-05,-5.188398023483938e-05,-0.0003625765261826337,-0.08103066682815552,18.106531143188477,-1.1164276599884033,-18.099092483520508,-0.5221458077430725,-2.2552523612976074,0.20724813640117645,0
62,0.3048982620239258,0.08103066682815552,-18.054956436157227,1.0688202381134033,18.099092483520508,0.5166526436805725,2.2488436698913574,-0.20083944499492645,0.0,0.0,0.0,0.0,0.0,0.0,0.0,0.07367637952604397,0.5454552084588016,0.26498799314536997,0.46958939742167954,0.09368214464108847,0.06639952536338523,-0.2040600450830754,-0.6092390061219534,-0.057800917138695354,-0.666647218101903,-2.5944906890734893,-0.05576966988046964,2.5079574496481154,0.8763184780991657,-0.6090851748156966,-0.05753196718556838,-0.666603097082616,-2.5945565370258534,-0.05562143941554,2.507976027223799,0.8763108487046415,-3.0694553013960586e-06,-0.0012449845028586813,0.0004892680813658401,0.0001671550982936971,0.00015375785487576325,-5.6211575482939664e-05,6.453088535305094e-05,0.0,0.0,0.0,0.0,0.0,0.0,0.0,0.00015383130625679087,0.0002689499531269707,4.412101928696899e-05,-6.584795236408425e-05,0.0001482304649296426,1.8577575683575986e-05,-7.629394524255595e-06,3.0694553013960586e-06,0.0012449845028586813,-0.0004892680813658401,-0.0001671550982936971,-0.00015375785487576325,5.6211575482939664e-05,-6.453088535305094e-05,-0.08103066682815552,18.054956436157227,-1.0688202381134033,-18.099092483520508,-0.5166526436805725,-2.2488436698913574,0.20083944499492645,0
63,0.30989694595336914,0.08103066682815552,-18.054956436157227,1.0688202381134033,18.099092483520508,0.5166526436805725,2.2488436698913574,-0.20083944499492645,0.0,0.0,0.0,0.0,0.0,0.0,0.0,0.07367637952604397,0.5454552084588016,0.26498799314536997,0.46958939742167954,0.09368214464108847,0.06639952536338523,-0.2040600450830754,-0.6092390061219534,-0.057800917138695354,-0.666647218101903,-2.5944906890734893,-0.05576966988046964,2.5079574496481154,0.8763184780991657,-0.6090851748156966,-0.05753196718556838,-0.666603097082616,-2.5945565370258534,-0.05562143941554,2.507976027223799,0.8763108487046415,-3.0694553013960586e-06,-0.0012449845028586813,0.0004892680813658401,0.0001671550982936971,0.00015375785487576325,-5.6211575482939664e-05,6.453088535305094e-05,0.0,0.0,0.0,0.0,0.0,0.0,0.0,0.00015383130625679087,0.0002689499531269707,4.412101928696899e-05,-6.584795236408425e-05,0.0001482304649296426,1.8577575683575986e-05,-7.629394524255595e-06,3.0694553013960586e-06,0.0012449845028586813,-0.0004892680813658401,-0.0001671550982936971,-0.00015375785487576325,5.6211575482939664e-05,-6.453088535305094e-05,-0.08103066682815552,18.054956436157227,-1.0688202381134033,-18.099092483520508,-0.5166526436805725,-2.2488436698913574,0.20083944499492645,0
64,0.31490349769592285,0.08103066682815552,-18.106531143188477,1.1164276599884033,18.099092483520508,0.5221458077430725,2.2488436698913574,-0.22098104655742645,0.0,0.0,0.0,0.0,0.0,0.0,0.0,0.07494458037339533,0.5412882769586933,0.2651377604284129,0.47170170381057086,0.09388031941746461,0.0667799237975362,-0.2024097534640746,-0.6092390061219534,-0.05779721935553388,-0.6666505589736136,-2.594491301653559,-0.05577028023203214,2.5079574496481154,0.876320716054903,-0.6090851748156966,-0.05753196718556838,-0.666603097082616,-2.5945565370258534,-0.05562143941554,2.507976027223799,0.8763108487046415,-0.00012478987851664906,-0.0003575480220988002,-0.0004173769372790877,0.000185675681242198,-0.0003198984553343872,-9.478947808617286e-07,0.0007731682424417464,0.0,0.0,0.0,0.0,0.0,0.0,0.0,0.00015383130625679087,0.0002652521699654936,4.7461890997579914e-05,-6.523537229430332e-05,0.00014884081649214204,1.8577575683575986e-05,-9.867350261538732e-06,0.00012478987851664906,0.0003575480220988002,0.0004173769372790877,-0.000185675681242198,0.0003198984553343872,9.478947808617286e-07,-0.0007731682424417464,-0.08103066682815552,18.106531143188477,-1.1164276599884033,-18.099092483520508,-0.5221458077430725,-2.2488436698913574,0.22098104655742645,0
65,0.31989479064941406,0.08103066682815552,-18.106531143188477,1.1164276599884033,18.099092483520508,0.5221458077430725,2.2488436698913574,-0.22098104655742645,0.0,0.0,0.0,0.0,0.0,0.0,0.0,0.07494458037339533,0.5412882769586933,0.2651377604284129,0.47170170381057086,0.09388031941746461,0.0667799237975362,-0.2024097534640746,-0.6092390061219534,-0.05779721935553388,-0.6666505589736136,-2.594491301653559,-0.05577028023203214,2.5079574496481154,0.876320716054903,-0.6090851748156966,-0.05753196718556838,-0.666603097082616,-2.5945565370258534,-0.05562143941554,2.507976027223799,0.8763108487046415,-0.00012478987851664906,-0.0003575480220988002,-0.0004173769372790877,0.000185675681242198,-0.0003198984553343872,-9.478947808617286e-07,0.0007731682424417464,0.0,0.0,0.0,0.0,0.0,0.0,0.0,0.00015383130625679087,0.0002652521699654936,4.7461890997579914e-05,-6.523537229430332e-05,0.00014884081649214204,1.8577575683575986e-05,-9.867350261538732e-06,0.00012478987851664906,0.0003575480220988002,0.0004173769372790877,-0.000185675681242198,0.0003198984553343872,9.478947808617286e-07,-0.0007731682424417464,-0.08103066682815552,18.106531143188477,-1.1164276599884033,-18.099092483520508,-0.5221458077430725,-2.2488436698913574,0.22098104655742645,0
66,0.32489657402038574,0.10880166292190552,-18.130334854125977,1.0688202381134033,18.122896194458008,0.5166526436805725,2.2488436698913574,-0.20083944499492645,0.0,0.0,0.0,0.0,0.0,0.0,0.0,0.07939547276891176,0.5472072091062343,0.2686807948716607,0.46578825938117013,0.09355227002396878,0.06637262148802366,-0.2019957169476737,-0.6092409549637845,-0.05779554859483634,-0.666647218101903,-2.5944950979101065,-0.05576955159100486,2.5079574496481154,0.8763184780991738,-0.6090851748156966,-0.05753196718556838,-0.666603097082616,-2.5945565370258534,-0.05562143941554,2.507976027223799,0.8763108487046415,-0.0004924560590728934,0.00034713376183114186,0.0012404790776481861,-0.000982814316994057,0.00020390049314291338,0.0003506792492856641,0.00020641127432948744,0.0,0.0,0.0,0.0,0.0,0.0,0.0,0.00015578014808792506,0.00026358140926795864,4.412101928696899e-05,-6.143911574696403e-05,0.00014811217546485678,1.8577575683575986e-05,-7.629394532360223e-06,0.0004924560590728934,-0.00034713376183114186,-0.0012404790776481861,0.000982814316994057,-0.00020390049314291338,-0.0003506792492856641,-0.00020641127432948744,-0.10880166292190552,18.130334854125977,-1.0688202381134033,-18.122896194458008,-0.5166526436805725,-2.2488436698913574,0.20083944499492645,0
67,0.32990574836730957,0.10880166292190552,-18.130334854125977,1.0688202381134033,18.122896194458008,0.5166526436805725,2.2488436698913574,-0.20083944499492645,0.0,0.0,0.0,0.0,0.0,0.0,0.0,0.07939547276891176,0.5472072091062343,0.2686807948716607,0.46578825938117013,0.09355227002396878,0.06637262148802366,-0.2019957169476737,-0.6092409549637845,-0.05779554859483634,-0.666647218101903,-2.5944950979101065,-0.05576955159100486,2.5079574496481154,0.8763184780991738,-0.6090851748156966,-0.05753196718556838,-0.666603097082616,-2.5945565370258534,-0.05562143941554,2.507976027223799,0.8763108487046415,-0.0004924560590728934,0.00034713376183114186,0.0012404790776481861,-0.000982814316994057,0.00020390049314291338,0.0003506792492856641,0.00020641127432948744,0.0,0.0,0.0,0.0,0.0,0.0,0.0,0.00015578014808792506,0.00026358140926795864,4.412101928696899e-05,-6.143911574696403e-05,0.00014811217546485678,1.8577575683575986e-05,-7.629394532360223e-06,0.0004924560590728934,-0.00034713376183114186,-0.0012404790776481861,0.000982814316994057,-0.00020390049314291338,-0.0003506792492856641,-0.00020641127432948744,-0.10880166292190552,18.130334854125977,-1.0688202381134033,-18.122896194458008,-0.5166526436805725,-2.2488436698913574,0.20083944499492645,0
68,0.33489513397216797,0.05722695589065552,-18.130334854125977,1.0926239490509033,18.122896194458008,0.5285544991493225,2.2488436698913574,-0.17978231608867645,0.0,0.0,0.0,0.0,0.0,0.0,0.0,0.08241562123974298,0.5430977947865117,0.27011070772975954,0.4711327597651039,0.09449564410661583,0.06820217923285891,-0.20177672404208288,-0.6092373356860981,-0.057795551514426446,-0.6666467825069762,-2.594495111744293,-0.05576779265118304,2.5079574496481154,0.8763161384181842,-0.6090851748156966,-0.05753196718556838,-0.666603097082616,-2.5945565370258534,-0.05562143941554,2.507976027223799,0.8763108487046415,0.0013931259397584699,0.0006584834385944851,-0.00016264407196515173,-0.00014899764300058637,-0.00025734884779773053,0.00011159022574316553,-0.000670534079618059,0.0,0.0,0.0,0.0,0.0,0.0,0.0,0.0001521608704014854,0.00026358432885806304,4.368542436017364e-05,-6.142528156027893e-05,0.00014635323564304165,1.8577575683575986e-05,-5.289713542744323e-06,-0.0013931259397584699,-0.0006584834385944851,0.00016264407196515173,0.00014899764300058637,0.00025734884779773053,-0.00011159022574316553,0.000670534079618059,-0.05722695589065552,18.130334854125977,-1.0926239490509033,-18.122896194458008,-0.5285544991493225,-2.2488436698913574,0.17978231608867645,0
69,0.33992910385131836,0.05722695589065552,-18.130334854125977,1.0926239490509033,18.122896194458008,0.5285544991493225,2.2488436698913574,-0.17978231608867645,0.0,0.0,0.0,0.0,0.0,0.0,0.0,0.08241562123974298,0.5430977947865117,0.27011070772975954,0.4711327597651039,0.09449564410661583,0.06820217923285891,-0.20177672404208288,-0.6092373356860981,-0.057795551514426446,-0.6666467825069762,-2.594495111744293,-0.05576779265118304,2.5079574496481154,0.8763161384181842,-0.6090851748156966,-0.05753196718556838,-0.666603097082616,-2.5945565370258534,-0.05562143941554,2.507976027223799,0.8763108487046415,0.0013931259397584699,0.0006584834385944851,-0.00016264407196515173,-0.00014899764300058637,-0.00025734884779773053,0.00011159022574316553,-0.000670534079618059,0.0,0.0,0.0,0.0,0.0,0.0,0.0,0.0001521608704014854,0.00026358432885806304,4.368542436017364e-05,-6.142528156027893e-05,0.00014635323564304165,1.8577575683575986e-05,-5.289713542744323e-06,-0.0013931259397584699,-0.0006584834385944851,0.00016264407196515173,0.00014899764300058637,0.00025734884779773053,-0.00011159022574316553,0.000670534079618059,-0.05722695589065552,18.130334854125977,-1.0926239490509033,-18.122896194458008,-0.5285544991493225,-2.2488436698913574,0.17978231608867645,0
70,0.33992910385131836,0.05722695589065552,-18.130334854125977,1.0926239490509033,18.122896194458008,0.5285544991493225,2.2488436698913574,-0.17978231608867645,0.0,0.0,0.0,0.0,0.0,0.0,0.0,0.08241562123974298,0.5430977947865117,0.27011070772975954,0.4711327597651039,0.09449564410661583,0.06820217923285891,-0.20177672404208288,-0.6092373356860981,-0.057795551514426446,-0.6666467825069762,-2.594495111744293,-0.05576779265118304,2.5079574496481154,0.8763161384181842,-0.6090851748156966,-0.05753196718556838,-0.666603097082616,-2.5945565370258534,-0.05562143941554,2.507976027223799,0.8763108487046415,0.0013931259397584699,0.0006584834385944851,-0.00016264407196515173,-0.00014899764300058637,-0.00025734884779773053,0.00011159022574316553,-0.000670534079618059,0.0,0.0,0.0,0.0,0.0,0.0,0.0,0.0001521608704014854,0.00026358432885806304,4.368542436017364e-05,-6.142528156027893e-05,0.00014635323564304165,1.8577575683575986e-05,-5.289713542744323e-06,-0.0013931259397584699,-0.0006584834385944851,0.00016264407196515173,0.00014899764300058637,0.00025734884779773053,-0.00011159022574316553,0.000670534079618059,-0.05722695589065552,18.130334854125977,-1.0926239490509033,-18.122896194458008,-0.5285544991493225,-2.2488436698913574,0.17978231608867645,0
71,0.34985828399658203,0.05722695589065552,-18.130334854125977,1.0926239490509033,18.122896194458008,0.5285544991493225,2.2488436698913574,-0.17978231608867645,0.0,0.0,0.0,0.0,0.0,0.0,0.0,0.08241562123974298,0.5430977947865117,0.27011070772975954,0.4711327597651039,0.09449564410661583,0.06820217923285891,-0.20177672404208288,-0.6092373356860981,-0.057795551514426446,-0.6666467825069762,-2.594495111744293,-0.05576779265118304,2.5079574496481154,0.8763161384181842,-0.6090851748156966,-0.05753196718556838,-0.666603097082616,-2.5945565370258534,-0.05562143941554,2.507976027223799,0.8763108487046415,0.0013931259397584699,0.0006584834385944851,-0.00016264407196515173,-0.00014899764300058637,-0.00025734884779773053,0.00011159022574316553,-0.000670534079618059,0.0,0.0,0.0,0.0,0.0,0.0,0.0,0.0001521608704014854,0.00026358432885806304,4.368542436017364e-05,-6.142528156027893e-05,0.00014635323564304165,1.8577575683575986e-05,-5.289713542744323e-06,-0.0013931259397584699,-0.0006584834385944851,0.00016264407196515173,0.00014899764300058637,0.00025734884779773053,-0.00011159022574316553,0.000670534079618059,-0.05722695589065552,18.130334854125977,-1.0926239490509033,-18.122896194458008,-0.5285544991493225,-2.2488436698913574,0.17978231608867645,0
72,0.35489749908447266,0.05722695589065552,-18.130334854125977,1.0926239490509033,18.122896194458008,0.5285544991493225,2.2488436698913574,-0.17978231608867645,0.0,0.0,0.0,0.0,0.0,0.0,0.0,0.08241562123974298,0.5430977947865117,0.27011070772975954,0.4711327597651039,0.09449564410661583,0.06820217923285891,-0.20177672404208288,-0.6092373356860981,-0.057795551514426446,-0.6666467825069762,-2.594495111744293,-0.05576779265118304,2.5079574496481154,0.8763161384181842,-0.6090851748156966,-0.05753196718556838,-0.666603097082616,-2.5945565370258534,-0.05562143941554,2.507976027223799,0.8763108487046415,0.0013931259397584699,0.0006584834385944851,-0.00016264407196515173,-0.00014899764300058637,-0.00025734884779773053,0.00011159022574316553,-0.000670534079618059,0.0,0.0,0.0,0.0,0.0,0.0,0.0,0.0001521608704014854,0.00026358432885806304,4.368542436017364e-05,-6.142528156027893e-05,0.00014635323564304165,1.8577575683575986e-05,-5.289713542744323e-06,-0.0013931259397584699,-0.0006584834385944851,0.00016264407196515173,0.00014899764300058637,0.00025734884779773053,-0.00011159022574316553,0.000670534079618059,-0.05722695589065552,18.130334854125977,-1.0926239490509033,-18.122896194458008,-0.5285544991493225,-2.2488436698913574,0.17978231608867645,0
73,0.35989832878112793,0.10880166292190552,-18.106531143188477,1.0688202381134033,18.099092483520508,0.5102439522743225,2.2488436698913574,-0.20083944499492645,0.0,0.0,0.0,0.0,0.0,0.0,0.0,0.08549698304551218,0.5408942299561649,0.26820287087965017,0.4694277971787288,0.09533365432416961,0.06702680398386178,-0.2011849109461287,-0.6092409549637845,-0.057797219030706254,-0.6666472180900144,-2.5944929603314315,-0.055768957785584564,2.5079574496481154,0.8763184780991738,-0.6090851748156966,-0.05753196718556838,-0.666603097082616,-2.5945565370258534,-0.05562143941554,2.507976027223799,0.8763108487046415,-3.020467163738538e-05,-0.0008377184970599533,0.000533809183572175,-7.881474429467698e-05,0.0004920507376763827,-4.06473759711854e-05,-0.00024942125983590767,0.0,0.0,0.0,0.0,0.0,0.0,0.0,0.00015578014808792506,0.0002652518451378705,4.412100739836777e-05,-6.357669442191849e-05,0.0001475183700445637,1.8577575683575986e-05,-7.629394532360223e-06,3.020467163738538e-05,0.0008377184970599533,-0.000533809183572175,7.881474429467698e-05,-0.0004920507376763827,4.06473759711854e-05,0.00024942125983590767,-0.10880166292190552,18.106531143188477,-1.0688202381134033,-18.099092483520508,-0.5102439522743225,-2.2488436698913574,0.20083944499492645,0
74,0.3648982048034668,0.10880166292190552,-18.106531143188477,1.0688202381134033,18.099092483520508,0.5102439522743225,2.2488436698913574,-0.20083944499492645,0.0,0.0,0.0,0.0,0.0,0.0,0.0,0.08549698304551218,0.5408942299561649,0.26820287087965017,0.4694277971787288,0.09533365432416961,0.06702680398386178,-0.2011849109461287,-0.6092409549637845,-0.057797219030706254,-0.6666472180900144,-2.5944929603314315,-0.055768957785584564,2.5079574496481154,0.8763184780991738,-0.6090851748156966,-0.05753196718556838,-0.666603097082616,-2.5945565370258534,-0.05562143941554,2.507976027223799,0.8763108487046415,-3.020467163738538e-05,-0.0008377184970599533,0.000533809183572175,-7.881474429467698e-05,0.0004920507376763827,-4.06473759711854e-05,-0.00024942125983590767,0.0,0.0,0.0,0.0,0.0,0.0,0.0,0.00015578014808792506,0.0002652518451378705,4.412100739836777e-05,-6.357669442191849e-05,0.0001475183700445637,1.8577575683575986e-05,-7.629394532360223e-06,3.020467163738538e-05,0.0008377184970599533,-0.000533809183572175,7.881474429467698e-05,-0.0004920507376763827,4.06473759711854e-05,0.00024942125983590767,-0.10880166292190552,18.106531143188477,-1.0688202381134033,-18.099092483520508,-0.5102439522743225,-2.2488436698913574,0.20083944499492645,0
75,0.36989545822143555,0.10880166292190552,-18.130334854125977,1.0926239490509033,18.099092483520508,0.5221458077430725,2.2552523612976074,-0.17978231608867645,0.0,0.0,0.0,0.0,0.0,0.0,0.0,0.09344573001118969,0.5433331795734032,0.27234708729076873,0.468922701346294,0.09562491042030767,0.0662277924600324,-0.2004494511685103,-0.6092409549637845,-0.05779562742381687,-0.6666488885377582,-2.59449158318407,-0.05577028017794449,2.5079567375712926,0.8763161384181842,-0.6090851748156966,-0.05753196718556838,-0.666603097082616,-2.5945565370258534,-0.05562143941554,2.507976027223799,0.8763108487046415,-0.00033255452219037605,0.0004046260602252286,0.0002515971211078371,0.00013359976780335936,1.0535785725630804e-05,-0.00028504017808685155,-0.0012186126043274219,0.0,0.0,0.0,0.0,0.0,0.0,0.0,0.00015578014808792506,0.0002636602382484893,4.579145514216343e-05,-6.495384178339947e-05,0.000148840762404491,1.9289652506415678e-05,-5.289713542744323e-06,0.00033255452219037605,-0.0004046260602252286,-0.0002515971211078371,-0.00013359976780335936,-1.0535785725630804e-05,0.00028504017808685155,0.0012186126043274219,-0.10880166292190552,18.130334854125977,-1.0926239490509033,-18.099092483520508,-0.5221458077430725,-2.2552523612976074,0.17978231608867645,0
76,0.37489748001098633,0.10880166292190552,-18.130334854125977,1.0926239490509033,18.099092483520508,0.5221458077430725,2.2552523612976074,-0.17978231608867645,0.0,0.0,0.0,0.0,0.0,0.0,0.0,0.09344573001118969,0.5433331795734032,0.27234708729076873,0.468922701346294,0.09562491042030767,0.0662277924600324,-0.2004494511685103,-0.6092409549637845,-0.05779562742381687,-0.6666488885377582,-2.59449158318407,-0.05577028017794449,2.5079567375712926,0.8763161384181842,-0.6090851748156966,-0.05753196718556838,-0.666603097082616,-2.5945565370258534,-0.05562143941554,2.507976027223799,0.8763108487046415,-0.00033255452219037605,0.0004046260602252286,0.0002515971211078371,0.00013359976780335936,1.0535785725630804e-05,-0.00028504017808685155,-0.0012186126043274219,0.0,0.0,0.0,0.0,0.0,0.0,0.0,0.00015578014808792506,0.0002636602382484893,4.579145514216343e-05,-6.495384178339947e-05,0.000148840762404491,1.9289652506415678e-05,-5.289713542744323e-06,0.00033255452219037605,-0.0004046260602252286,-0.0002515971211078371,-0.00013359976780335936,-1.0535785725630804e-05,0.00028504017808685155,0.0012186126043274219,-0.10880166292190552,18.130334854125977,-1.0926239490509033,-18.099092483520508,-0.5221458077430725,-2.2552523612976074,0.17978231608867645,0
77,0.3799006938934326,0.05722695589065552,-18.078760147094727,1.0926239490509033,18.122896194458008,0.5166526436805725,2.2625765800476074,-0.18710653483867645,0.0,0.0,0.0,0.0,0.0,0.0,0.0,0.08402287454687656,0.5409506168758486,0.2666838857233573,0.4700699924988296,0.09563164310815792,0.06617264867078318,-0.20098918587385706,-0.6092373356860981,-0.057799167872965906,-0.6666488885377583,-2.594495328444765,-0.055769669718206696,2.5079559239307145,0.8763169522202676,-0.6090851748156966,-0.05753196718556838,-0.666603097082616,-2.5945565370258534,-0.05562143941554,2.507976027223799,0.8763108487046415,0.00016042628190791728,-0.0007584550071931831,-0.0001824972417379654,-0.0005335414671569183,9.158019083138727e-05,-0.0005161251092376847,-0.0011992516877556497,0.0,0.0,0.0,0.0,0.0,0.0,0.0,0.0001521608704014854,0.000267200687397523,4.579145514227445e-05,-6.120858108848992e-05,0.00014823030266669646,2.0103293084439144e-05,-6.1035156261324275e-06,-0.00016042628190791728,0.0007584550071931831,0.0001824972417379654,0.0005335414671569183,-9.158019083138727e-05,0.0005161251092376847,0.0011992516877556497,-0.05722695589065552,18.078760147094727,-1.0926239490509033,-18.122896194458008,-0.5166526436805725,-2.2625765800476074,0.18710653483867645,0
78,0.38489842414855957,0.05722695589065552,-18.078760147094727,1.0926239490509033,18.122896194458008,0.5166526436805725,2.2625765800476074,-0.18710653483867645,0.0,0.0,0.0,0.0,0.0,0.0,0.0,0.08402287454687656,0.5409506168758486,0.2666838857233573,0.4700699924988296,0.09563164310815792,0.06617264867078318,-0.20098918587385706,-0.6092373356860981,-0.057799167872965906,-0.6666488885377583,-2.594495328444765,-0.055769669718206696,2.5079559239307145,0.8763169522202676,-0.6090851748156966,-0.05753196718556838,-0.666603097082616,-2.5945565370258534,-0.05562143941554,2.507976027223799,0.8763108487046415,0.00016042628190791728,-0.0007584550071931831,-0.0001824972417379654,-0.0005335414671569183,9.158019083138727e-05,-0.0005161251092376847,-0.0011992516877556497,0.0,0.0,0.0,0.0,0.0,0.0,0.0,0.0001521608704014854,0.000267200687397523,4.579145514227445e-05,-6.120858108848992e-05,0.00014823030266669646,2.0103293084439144e-05,-6.1035156261324275e-06,-0.00016042628190791728,0.0007584550071931831,0.0001824972417379654,0.0005335414671569183,-9.158019083138727e-05,0.0005161251092376847,0.0011992516877556497,-0.05722695589065552,18.078760147094727,-1.0926239490509033,-18.122896194458008,-0.5166526436805725,-2.2625765800476074,0.18710653483867645,0
79,0.38991379737854004,0.08103066682815552,-18.130334854125977,1.0688202381134033,18.099092483520508,0.5166526436805725,2.2296175956726074,-0.20083944499492645,0.0,0.0,0.0,0.0,0.0,0.0,0.0,0.08049247035456315,0.5390124153526455,0.26981846225672135,0.47150417754080953,0.09499295595026612,0.0671147286916846,-0.20416628093712516,-0.6092390061219534,-0.057795786379378024,-0.666647218101903,-2.5944929578131677,-0.05576966988046873,2.507959585878585,0.8763184780991738,-0.6090851748156966,-0.05753196718556838,-0.666603097082616,-2.5945565370258534,-0.05562143941554,2.507976027223799,0.8763108487046415,-0.00029170003209114424,-0.0001842073246620191,0.0002598743699622177,-3.79556650286456e-05,0.00011049781458918873,0.0007940843499838762,-0.0006784096565297385,0.0,0.0,0.0,0.0,0.0,0.0,0.0,0.00015383130625679087,0.0002638191938096404,4.412101928696899e-05,-6.357921268573818e-05,0.00014823046492872666,1.6441345214168734e-05,-7.629394532360223e-06,0.00029170003209114424,0.0001842073246620191,-0.0002598743699622177,3.79556650286456e-05,-0.00011049781458918873,-0.0007940843499838762,0.0006784096565297385,-0.08103066682815552,18.130334854125977,-1.0688202381134033,-18.099092483520508,-0.5166526436805725,-2.2296175956726074,0.20083944499492645,0
