rezayati/contactInterpretation/dataset/franka_main/labeled_data/link5/c8_7.csv
index,time,tau_J0,tau_J1,tau_J2,tau_J3,tau_J4,tau_J5,tau_J6,tau_J_d0,tau_J_d1,tau_J_d2,tau_J_d3,tau_J_d4,tau_J_d5,tau_J_d6,tau_ext0,tau_ext1,tau_ext2,tau_ext3,tau_ext4,tau_ext5,tau_ext6,q0,q1,q2,q3,q4,q5,q6,q_d0,q_d1,q_d2,q_d3,q_d4,q_d5,q_d6,dq0,dq1,dq2,dq3,dq4,dq5,dq6,dq_d0,dq_d1,dq_d2,dq_d3,dq_d4,dq_d5,dq_d6,e0,e1,e2,e3,e4,e5,e6,de0,de1,de2,de3,de4,de5,de6,etau_J0,etau_J1,etau_J2,etau_J3,etau_J4,etau_J5,etau_J6,label
1,0.0,-0.22445029020309448,-11.750940322875977,1.0688202381134033,21.717256546020508,0.5166526436805725,2.5271639823913574,-0.24112264811992645,0.0,0.0,0.0,0.0,0.0,0.0,0.0,-0.23280793362631313,0.6231627975727501,-0.11539000915954954,0.40422836122530476,-0.02192610284750254,0.12504684664162138,-0.22368885969847493,0.1728571440417071,-0.48752141286351597,-0.11139408492409618,-1.946378515912775,0.13372490642468132,2.5955455914073515,0.945251374609484,0.1728802376190821,-0.48752024683155326,-0.11147110072896137,-1.9463801863486305,0.1336059019074957,2.595550359778934,0.9452445589611904,-0.0003384054130747279,0.001331956714939156,1.6124642960588274e-05,-0.0004502508815527835,-0.00019956493236286666,-6.522165656779386e-05,0.0016542196523176226,0.0,0.0,0.0,0.0,0.0,0.0,0.0,2.309357737501072e-05,1.166031962707148e-06,-7.701580486518811e-05,-1.6704358554164855e-06,-0.00011900451718563354,4.768371582475339e-06,-6.8156482936343465e-06,0.0003384054130747279,-0.001331956714939156,-1.6124642960588274e-05,0.0004502508815527835,0.00019956493236286666,6.522165656779386e-05,-0.0016542196523176226,0.22445029020309448,11.750940322875977,-1.0688202381134033,-21.717256546020508,-0.5166526436805725,-2.5271639823913574,0.24112264811992645,0
2,0.004997730255126953,-0.24825400114059448,-11.675561904907227,1.0688202381134033,21.717256546020508,0.5102439522743225,2.5207552909851074,-0.24844686686992645,0.0,0.0,0.0,0.0,0.0,0.0,0.0,-0.23508907345000812,0.6157250871482759,-0.11646805058627292,0.4073252901198683,-0.021657442339895916,0.12505413393277306,-0.22417147658994194,0.17286110398961302,-0.4875267285717136,-0.11139408492414574,-1.9463785149316288,0.13372561850150425,2.5955463034841744,0.9452521883563866,0.1728802376190821,-0.48752024683155326,-0.11147110072896137,-1.9463801863486305,0.1336059019074957,2.595550359778934,0.9452445589611904,0.00015670307505473037,-0.0011634233613436206,0.00028605596852862976,-0.0006188592974105157,0.0002075586646279336,7.653263742297588e-05,0.0012542986652598846,0.0,0.0,0.0,0.0,0.0,0.0,0.0,1.9133629469092472e-05,6.481740160324545e-06,-7.701580481563053e-05,-1.6714170016918217e-06,-0.0001197165940085565,4.056294759635648e-06,-7.62939519616257e-06,-0.00015670307505473037,0.0011634233613436206,-0.00028605596852862976,0.0006188592974105157,-0.0002075586646279336,-7.653263742297588e-05,-0.0012542986652598846,0.24825400114059448,11.675561904907227,-1.0688202381134033,-21.717256546020508,-0.5102439522743225,-2.5207552909851074,0.24844686686992645,0
3,0.00999593734741211,-0.24825400114059448,-11.675561904907227,1.0688202381134033,21.717256546020508,0.5102439522743225,2.5207552909851074,-0.24844686686992645,0.0,0.0,0.0,0.0,0.0,0.0,0.0,-0.23508907345000812,0.6157250871482759,-0.11646805058627292,0.4073252901198683,-0.021657442339895916,0.12505413393277306,-0.22417147658994194,0.17286110398961302,-0.4875267285717136,-0.11139408492414574,-1.9463785149316288,0.13372561850150425,2.5955463034841744,0.9452521883563866,0.1728802376190821,-0.48752024683155326,-0.11147110072896137,-1.9463801863486305,0.1336059019074957,2.595550359778934,0.9452445589611904,0.00015670307505473037,-0.0011634233613436206,0.00028605596852862976,-0.0006188592974105157,0.0002075586646279336,7.653263742297588e-05,0.0012542986652598846,0.0,0.0,0.0,0.0,0.0,0.0,0.0,1.9133629469092472e-05,6.481740160324545e-06,-7.701580481563053e-05,-1.6714170016918217e-06,-0.0001197165940085565,4.056294759635648e-06,-7.62939519616257e-06,-0.00015670307505473037,0.0011634233613436206,-0.00028605596852862976,0.0006188592974105157,-0.0002075586646279336,-7.653263742297588e-05,-0.0012542986652598846,0.24825400114059448,11.675561904907227,-1.0688202381134033,-21.717256546020508,-0.5102439522743225,-2.5207552909851074,0.24844686686992645,0
4,0.014997482299804688,-0.24825400114059448,-11.699365615844727,1.0172455310821533,21.669649124145508,0.5166526436805725,2.5207552909851074,-0.23471395671367645,0.0,0.0,0.0,0.0,0.0,0.0,0.0,-0.23588248578009624,0.6165127389339934,-0.11595633517991455,0.40631536203389373,-0.021814234567530996,0.12429809310000772,-0.2236343108051278,0.17285875809356951,-0.48752503213562504,-0.11139046564645932,-1.9463751750410594,0.13372490642468132,2.5955463034841744,0.94525066247748,0.1728802376190821,-0.48752024683155326,-0.11147110072896137,-1.9463801863486305,0.1336059019074957,2.595550359778934,0.9452445589611904,0.0003553578633513052,-0.00016705322417181803,0.0015910684161449503,0.0006380509333128663,-0.00013893117538361975,0.00017824979579567963,0.001127565168539943,0.0,0.0,0.0,0.0,0.0,0.0,0.0,2.1479525512596576e-05,4.7853040717749096e-06,-8.063508250204243e-05,-5.011307571134438e-06,-0.00011900451718563354,4.056294759635648e-06,-6.103516289601707e-06,-0.0003553578633513052,0.00016705322417181803,-0.0015910684161449503,-0.0006380509333128663,0.00013893117538361975,-0.00017824979579567963,-0.001127565168539943,0.24825400114059448,11.699365615844727,-1.0172455310821533,-21.669649124145508,-0.5166526436805725,-2.5207552909851074,0.23471395671367645,0
5,0.01999497413635254,-0.24825400114059448,-11.699365615844727,1.0172455310821533,21.669649124145508,0.5166526436805725,2.5207552909851074,-0.23471395671367645,0.0,0.0,0.0,0.0,0.0,0.0,0.0,-0.23588248578009624,0.6165127389339934,-0.11595633517991455,0.40631536203389373,-0.021814234567530996,0.12429809310000772,-0.2236343108051278,0.17285875809356951,-0.48752503213562504,-0.11139046564645932,-1.9463751750410594,0.13372490642468132,2.5955463034841744,0.94525066247748,0.1728802376190821,-0.48752024683155326,-0.11147110072896137,-1.9463801863486305,0.1336059019074957,2.595550359778934,0.9452445589611904,0.0003553578633513052,-0.00016705322417181803,0.0015910684161449503,0.0006380509333128663,-0.00013893117538361975,0.00017824979579567963,0.001127565168539943,0.0,0.0,0.0,0.0,0.0,0.0,0.0,2.1479525512596576e-05,4.7853040717749096e-06,-8.063508250204243e-05,-5.011307571134438e-06,-0.00011900451718563354,4.056294759635648e-06,-6.103516289601707e-06,-0.0003553578633513052,0.00016705322417181803,-0.0015910684161449503,-0.0006380509333128663,0.00013893117538361975,-0.00017824979579567963,-0.001127565168539943,0.24825400114059448,11.699365615844727,-1.0172455310821533,-21.669649124145508,-0.5166526436805725,-2.5207552909851074,0.23471395671367645,0
6,0.025411128997802734,-0.24825400114059448,-11.699365615844727,1.0688202381134033,21.693452835083008,0.5102439522743225,2.5207552909851074,-0.18710653483867645,0.0,0.0,0.0,0.0,0.0,0.0,0.0,-0.23926058171677902,0.6178642607167013,-0.12261387738468593,0.4047259375210066,-0.021326818508982822,0.1238960856436443,-0.22160463562517452,0.17285873489485454,-0.48752503217114407,-0.11139408492414574,-1.9463761302211826,0.13372561850150425,2.5955463034841744,0.9452453727639384,0.1728802376190821,-0.48752024683155326,-0.11147110072896137,-1.9463801863486305,0.1336059019074957,2.595550359778934,0.9452445589611904,0.00037149096872737234,-0.00021494102270766703,-0.00046051130457168914,0.00023449929336253602,7.838573338088586e-05,0.0001836745669866691,-0.001101076873421349,0.0,0.0,0.0,0.0,0.0,0.0,0.0,2.1502724227573378e-05,4.7853395908070695e-06,-7.701580481563053e-05,-4.056127447915614e-06,-0.0001197165940085565,4.056294759635648e-06,-8.138027479676069e-07,-0.00037149096872737234,0.00021494102270766703,0.00046051130457168914,-0.00023449929336253602,-7.838573338088586e-05,-0.0001836745669866691,0.001101076873421349,0.24825400114059448,11.699365615844727,-1.0688202381134033,-21.693452835083008,-0.5102439522743225,-2.5207552909851074,0.18710653483867645,0
7,0.03002643585205078,-0.24825400114059448,-11.699365615844727,1.0688202381134033,21.693452835083008,0.5102439522743225,2.5207552909851074,-0.18710653483867645,0.0,0.0,0.0,0.0,0.0,0.0,0.0,-0.23926058171677902,0.6178642607167013,-0.12261387738468593,0.4047259375210066,-0.021326818508982822,0.1238960856436443,-0.22160463562517452,0.17285873489485454,-0.48752503217114407,-0.11139408492414574,-1.9463761302211826,0.13372561850150425,2.5955463034841744,0.9452453727639384,0.1728802376190821,-0.48752024683155326,-0.11147110072896137,-1.9463801863486305,0.1336059019074957,2.595550359778934,0.9452445589611904,0.00037149096872737234,-0.00021494102270766703,-0.00046051130457168914,0.00023449929336253602,7.838573338088586e-05,0.0001836745669866691,-0.001101076873421349,0.0,0.0,0.0,0.0,0.0,0.0,0.0,2.1502724227573378e-05,4.7853395908070695e-06,-7.701580481563053e-05,-4.056127447915614e-06,-0.0001197165940085565,4.056294759635648e-06,-8.138027479676069e-07,-0.00037149096872737234,0.00021494102270766703,0.00046051130457168914,-0.00023449929336253602,-7.838573338088586e-05,-0.0001836745669866691,0.001101076873421349,0.24825400114059448,11.699365615844727,-1.0688202381134033,-21.693452835083008,-0.5102439522743225,-2.5207552909851074,0.18710653483867645,0
8,0.0350339412689209,-0.24825400114059448,-11.727136611938477,1.0926239490509033,21.669649124145508,0.5166526436805725,2.5207552909851074,-0.19351522624492645,0.0,0.0,0.0,0.0,0.0,0.0,0.0,-0.23450734133329254,0.617357515636018,-0.11933168487452596,0.40119031338662786,-0.021352123481394595,0.12367876031737982,-0.22090374500330476,0.17286180693380157,-0.48752378530390794,-0.111395755360001,-1.9463751750370273,0.13372490642468132,2.5955463034841744,0.9452460848407613,0.1728802376190821,-0.48752024683155326,-0.11147110072896137,-1.9463801863486305,0.1336059019074957,2.595550359778934,0.9452445589611904,0.0003035073336116836,-1.8150744760279073e-05,-0.00034267004168178004,0.00027060767159947836,-3.5384731522634716e-05,0.00015159178589827676,-0.0006743620510054005,0.0,0.0,0.0,0.0,0.0,0.0,0.0,1.8430685280540482e-05,3.538472354680522e-06,-7.53453689603667e-05,-5.011311603242419e-06,-0.00011900451718563354,4.056294759635648e-06,-1.5258795709183204e-06,-0.0003035073336116836,1.8150744760279073e-05,0.00034267004168178004,-0.00027060767159947836,3.5384731522634716e-05,-0.00015159178589827676,0.0006743620510054005,0.24825400114059448,11.727136611938477,-1.0926239490509033,-21.669649124145508,-0.5166526436805725,-2.5207552909851074,0.19351522624492645,0
9,0.04000115394592285,-0.24825400114059448,-11.727136611938477,1.0926239490509033,21.669649124145508,0.5166526436805725,2.5207552909851074,-0.19351522624492645,0.0,0.0,0.0,0.0,0.0,0.0,0.0,-0.23450734133329254,0.617357515636018,-0.11933168487452596,0.40119031338662786,-0.021352123481394595,0.12367876031737982,-0.22090374500330476,0.17286180693380157,-0.48752378530390794,-0.111395755360001,-1.9463751750370273,0.13372490642468132,2.5955463034841744,0.9452460848407613,0.1728802376190821,-0.48752024683155326,-0.11147110072896137,-1.9463801863486305,0.1336059019074957,2.595550359778934,0.9452445589611904,0.0003035073336116836,-1.8150744760279073e-05,-0.00034267004168178004,0.00027060767159947836,-3.5384731522634716e-05,0.00015159178589827676,-0.0006743620510054005,0.0,0.0,0.0,0.0,0.0,0.0,0.0,1.8430685280540482e-05,3.538472354680522e-06,-7.53453689603667e-05,-5.011311603242419e-06,-0.00011900451718563354,4.056294759635648e-06,-1.5258795709183204e-06,-0.0003035073336116836,1.8150744760279073e-05,0.00034267004168178004,-0.00027060767159947836,3.5384731522634716e-05,-0.00015159178589827676,0.0006743620510054005,0.24825400114059448,11.727136611938477,-1.0926239490509033,-21.669649124145508,-0.5166526436805725,-2.5207552909851074,0.19351522624492645,0
10,0.045255422592163086,-0.19667929410934448,-11.675561904907227,1.0688202381134033,21.717256546020508,0.5166526436805725,2.5335726737976074,-0.17978231608867645,0.0,0.0,0.0,0.0,0.0,0.0,0.0,-0.23912031961779462,0.6028869123925051,-0.12518328836907572,0.40726756021310245,-0.02009440678879135,0.1255712559288117,-0.2209915980781554,0.17285542784620472,-0.4875267025752964,-0.11139408492414574,-1.9463785149316288,0.13372490642468132,2.5955448793305287,0.945244558961855,0.1728802376190821,-0.48752024683155326,-0.11147110072896137,-1.9463801863486305,0.1336059019074957,2.595550359778934,0.9452445589611904,-0.0012795141635901632,-0.001357453707366135,-1.0750969878991798e-05,-0.00045563385370890933,-8.382865521863381e-05,-0.00024130229242922262,-0.0012051443882253566,0.0,0.0,0.0,0.0,0.0,0.0,0.0,2.4809772877387726e-05,6.455743743138953e-06,-7.701580481563053e-05,-1.6714170016918217e-06,-0.00011900451718563354,5.48044840531503e-06,-6.645795025406187e-13,0.0012795141635901632,0.001357453707366135,1.0750969878991798e-05,0.00045563385370890933,8.382865521863381e-05,0.00024130229242922262,0.0012051443882253566,0.19667929410934448,11.675561904907227,-1.0688202381134033,-21.717256546020508,-0.5166526436805725,-2.5335726737976074,0.17978231608867645,0
11,0.05095672607421875,-0.19667929410934448,-11.675561904907227,1.0688202381134033,21.717256546020508,0.5166526436805725,2.5335726737976074,-0.17978231608867645,0.0,0.0,0.0,0.0,0.0,0.0,0.0,-0.23912031961779462,0.6028869123925051,-0.12518328836907572,0.40726756021310245,-0.02009440678879135,0.1255712559288117,-0.2209915980781554,0.17285542784620472,-0.4875267025752964,-0.11139408492414574,-1.9463785149316288,0.13372490642468132,2.5955448793305287,0.945244558961855,0.1728802376190821,-0.48752024683155326,-0.11147110072896137,-1.9463801863486305,0.1336059019074957,2.595550359778934,0.9452445589611904,-0.0012795141635901632,-0.001357453707366135,-1.0750969878991798e-05,-0.00045563385370890933,-8.382865521863381e-05,-0.00024130229242922262,-0.0012051443882253566,0.0,0.0,0.0,0.0,0.0,0.0,0.0,2.4809772877387726e-05,6.455743743138953e-06,-7.701580481563053e-05,-1.6714170016918217e-06,-0.00011900451718563354,5.48044840531503e-06,-6.645795025406187e-13,0.0012795141635901632,0.001357453707366135,1.0750969878991798e-05,0.00045563385370890933,8.382865521863381e-05,0.00024130229242922262,0.0012051443882253566,0.19667929410934448,11.675561904907227,-1.0688202381134033,-21.717256546020508,-0.5166526436805725,-2.5335726737976074,0.17978231608867645,0
12,0.05499458312988281,-0.22445029020309448,-11.727136611938477,1.0410492420196533,21.693452835083008,0.5166526436805725,2.5207552909851074,-0.20083944499492645,0.0,0.0,0.0,0.0,0.0,0.0,0.0,-0.23433563570067728,0.6109903288038997,-0.11800282247131129,0.4067684139995775,-0.02036250947887994,0.12514801020756075,-0.22168710456530913,0.17285921354510017,-0.4875230832936471,-0.11139213608231459,-1.9463768454769146,0.13372490642468132,2.5955463034841744,0.9452468986428446,0.1728802376190821,-0.48752024683155326,-0.11147110072896137,-1.9463801863486305,0.1336059019074957,2.595550359778934,0.9452445589611904,-0.00019410060349209056,0.0009090684229201984,0.0007908779630166482,0.0008472301862211903,-0.00018004423809491547,0.00025830553642361496,-0.0005877555719562173,0.0,0.0,0.0,0.0,0.0,0.0,0.0,2.102407398194006e-05,2.8364620938137186e-06,-7.89646466467786e-05,-3.340871715939997e-06,-0.00011900451718563354,4.056294759635648e-06,-2.3396816541954024e-06,0.00019410060349209056,-0.0009090684229201984,-0.0007908779630166482,-0.0008472301862211903,0.00018004423809491547,-0.00025830553642361496,0.0005877555719562173,0.22445029020309448,11.727136611938477,-1.0410492420196533,-21.693452835083008,-0.5166526436805725,-2.5207552909851074,0.20083944499492645,0
13,0.05999588966369629,-0.22445029020309448,-11.727136611938477,1.0410492420196533,21.693452835083008,0.5166526436805725,2.5207552909851074,-0.20083944499492645,0.0,0.0,0.0,0.0,0.0,0.0,0.0,-0.23433563570067728,0.6109903288038997,-0.11800282247131129,0.4067684139995775,-0.02036250947887994,0.12514801020756075,-0.22168710456530913,0.17285921354510017,-0.4875230832936471,-0.11139213608231459,-1.9463768454769146,0.13372490642468132,2.5955463034841744,0.9452468986428446,0.1728802376190821,-0.48752024683155326,-0.11147110072896137,-1.9463801863486305,0.1336059019074957,2.595550359778934,0.9452445589611904,-0.00019410060349209056,0.0009090684229201984,0.0007908779630166482,0.0008472301862211903,-0.00018004423809491547,0.00025830553642361496,-0.0005877555719562173,0.0,0.0,0.0,0.0,0.0,0.0,0.0,2.102407398194006e-05,2.8364620938137186e-06,-7.89646466467786e-05,-3.340871715939997e-06,-0.00011900451718563354,4.056294759635648e-06,-2.3396816541954024e-06,0.00019410060349209056,-0.0009090684229201984,-0.0007908779630166482,-0.0008472301862211903,0.00018004423809491547,-0.00025830553642361496,0.0005877555719562173,0.22445029020309448,11.727136611938477,-1.0410492420196533,-21.693452835083008,-0.5166526436805725,-2.5207552909851074,0.20083944499492645,0
14,0.06499767303466797,-0.24825400114059448,-11.727136611938477,1.0926239490509033,21.693452835083008,0.5102439522743225,2.5271639823913574,-0.20724813640117645,0.0,0.0,0.0,0.0,0.0,0.0,0.0,-0.239590704660757,0.6169597866952973,-0.12894558505789508,0.40548759754738184,-0.020443321921824534,0.1245935125184909,-0.2223623330203315,0.17285968979549177,-0.4875230832936471,-0.11139572905301273,-1.94637684547692,0.13372561850150425,2.5955455914073515,0.9452476107196676,0.1728802376190821,-0.48752024683155326,-0.11147110072896137,-1.9463801863486305,0.1336059019074957,2.595550359778934,0.9452445589611904,-1.3955637793406868e-05,0.0006840184585366051,-0.0009970908727155742,-0.00026157660496260054,0.00019669756654616696,-8.732822073586402e-05,-2.9930692658159887e-05,0.0,0.0,0.0,0.0,0.0,0.0,0.0,2.054782359034446e-05,2.8364620938137186e-06,-7.537167594863503e-05,-3.3408717106109265e-06,-0.0001197165940085565,4.768371582475339e-06,-3.051758477146116e-06,1.3955637793406868e-05,-0.0006840184585366051,0.0009970908727155742,0.00026157660496260054,-0.00019669756654616696,8.732822073586402e-05,2.9930692658159887e-05,0.24825400114059448,11.727136611938477,-1.0926239490509033,-21.693452835083008,-0.5102439522743225,-2.5271639823913574,0.20724813640117645,0
15,0.07042050361633301,-0.24825400114059448,-11.727136611938477,1.0926239490509033,21.693452835083008,0.5102439522743225,2.5271639823913574,-0.20724813640117645,0.0,0.0,0.0,0.0,0.0,0.0,0.0,-0.239590704660757,0.6169597866952973,-0.12894558505789508,0.40548759754738184,-0.020443321921824534,0.1245935125184909,-0.2223623330203315,0.17285968979549177,-0.4875230832936471,-0.11139572905301273,-1.94637684547692,0.13372561850150425,2.5955455914073515,0.9452476107196676,0.1728802376190821,-0.48752024683155326,-0.11147110072896137,-1.9463801863486305,0.1336059019074957,2.595550359778934,0.9452445589611904,-1.3955637793406868e-05,0.0006840184585366051,-0.0009970908727155742,-0.00026157660496260054,0.00019669756654616696,-8.732822073586402e-05,-2.9930692658159887e-05,0.0,0.0,0.0,0.0,0.0,0.0,0.0,2.054782359034446e-05,2.8364620938137186e-06,-7.537167594863503e-05,-3.3408717106109265e-06,-0.0001197165940085565,4.768371582475339e-06,-3.051758477146116e-06,1.3955637793406868e-05,-0.0006840184585366051,0.0009970908727155742,0.00026157660496260054,-0.00019669756654616696,8.732822073586402e-05,2.9930692658159887e-05,0.24825400114059448,11.727136611938477,-1.0926239490509033,-21.693452835083008,-0.5102439522743225,-2.5271639823913574,0.20724813640117645,0
16,0.0749979019165039,-0.19667929410934448,-11.699365615844727,1.0926239490509033,21.717256546020508,0.5166526436805725,2.5271639823913574,-0.24844686686992645,0.0,0.0,0.0,0.0,0.0,0.0,0.0,-0.23609086597352885,0.6118379562809306,-0.12173370744624344,0.41071425638684234,-0.020336032264815614,0.1256337287059688,-0.22117874381211297,0.1728559389587104,-0.48752503213547826,-0.11139575535985251,-1.9463785149316288,0.13372490642468132,2.5955455914073515,0.9452521883563862,0.1728802376190821,-0.48752024683155326,-0.11147110072896137,-1.9463801863486305,0.1336059019074957,2.595550359778934,0.9452445589611904,-0.0010907533020857762,-0.0006019662651802904,-0.00048721912351819963,-0.0007621493842914001,1.125919019811852e-05,0.0002611267346147411,0.001579681607387253,0.0,0.0,0.0,0.0,0.0,0.0,0.0,2.4298660371707692e-05,4.785303925003426e-06,-7.534536910885903e-05,-1.6714170016918217e-06,-0.00011900451718563354,4.768371582475339e-06,-7.629395195829503e-06,0.0010907533020857762,0.0006019662651802904,0.00048721912351819963,0.0007621493842914001,-1.125919019811852e-05,-0.0002611267346147411,-0.001579681607387253,0.19667929410934448,11.699365615844727,-1.0926239490509033,-21.717256546020508,-0.5166526436805725,-2.5271639823913574,0.24844686686992645,0
17,0.07999801635742188,-0.19667929410934448,-11.699365615844727,1.0926239490509033,21.717256546020508,0.5166526436805725,2.5271639823913574,-0.24844686686992645,0.0,0.0,0.0,0.0,0.0,0.0,0.0,-0.23609086597352885,0.6118379562809306,-0.12173370744624344,0.41071425638684234,-0.020336032264815614,0.1256337287059688,-0.22117874381211297,0.1728559389587104,-0.48752503213547826,-0.11139575535985251,-1.9463785149316288,0.13372490642468132,2.5955455914073515,0.9452521883563862,0.1728802376190821,-0.48752024683155326,-0.11147110072896137,-1.9463801863486305,0.1336059019074957,2.595550359778934,0.9452445589611904,-0.0010907533020857762,-0.0006019662651802904,-0.00048721912351819963,-0.0007621493842914001,1.125919019811852e-05,0.0002611267346147411,0.001579681607387253,0.0,0.0,0.0,0.0,0.0,0.0,0.0,2.4298660371707692e-05,4.785303925003426e-06,-7.534536910885903e-05,-1.6714170016918217e-06,-0.00011900451718563354,4.768371582475339e-06,-7.629395195829503e-06,0.0010907533020857762,0.0006019662651802904,0.00048721912351819963,0.0007621493842914001,-1.125919019811852e-05,-0.0002611267346147411,-0.001579681607387253,0.19667929410934448,11.699365615844727,-1.0926239490509033,-21.717256546020508,-0.5166526436805725,-2.5271639823913574,0.24844686686992645,0
18,0.0853414535522461,-0.24825400114059448,-11.699365615844727,1.0410492420196533,21.693452835083008,0.5102439522743225,2.5335726737976074,-0.22830526530742645,0.0,0.0,0.0,0.0,0.0,0.0,0.0,-0.2369186127911161,0.6089948806961548,-0.12447232832398444,0.41265461859513236,-0.019783240272557914,0.12695797507078646,-0.2209509188863888,0.17286188178720233,-0.48752573414573896,-0.11139213608231459,-1.9463768454769146,0.13372561850150425,2.5955448793305287,0.9452499504006571,0.1728802376190821,-0.48752024683155326,-0.11147110072896137,-1.9463801863486305,0.1336059019074957,2.595550359778934,0.9452445589611904,0.0002026940468006811,-0.0007295777099783974,0.0004430461553862867,4.848338564892526e-05,0.00027927211037369814,-0.00013952349554300625,0.0003477266545165014,0.0,0.0,0.0,0.0,0.0,0.0,0.0,1.8355831879784956e-05,5.4873141857036956e-06,-7.89646466467786e-05,-3.340871715939997e-06,-0.0001197165940085565,5.48044840531503e-06,-5.3914394666509935e-06,-0.0002026940468006811,0.0007295777099783974,-0.0004430461553862867,-4.848338564892526e-05,-0.00027927211037369814,0.00013952349554300625,-0.0003477266545165014,0.24825400114059448,11.699365615844727,-1.0410492420196533,-21.693452835083008,-0.5102439522743225,-2.5335726737976074,0.22830526530742645,0
19,0.0899958610534668,-0.24825400114059448,-11.699365615844727,1.0410492420196533,21.693452835083008,0.5102439522743225,2.5335726737976074,-0.22830526530742645,0.0,0.0,0.0,0.0,0.0,0.0,0.0,-0.2369186127911161,0.6089948806961548,-0.12447232832398444,0.41265461859513236,-0.019783240272557914,0.12695797507078646,-0.2209509188863888,0.17286188178720233,-0.48752573414573896,-0.11139213608231459,-1.9463768454769146,0.13372561850150425,2.5955448793305287,0.9452499504006571,0.1728802376190821,-0.48752024683155326,-0.11147110072896137,-1.9463801863486305,0.1336059019074957,2.595550359778934,0.9452445589611904,0.0002026940468006811,-0.0007295777099783974,0.0004430461553862867,4.848338564892526e-05,0.00027927211037369814,-0.00013952349554300625,0.0003477266545165014,0.0,0.0,0.0,0.0,0.0,0.0,0.0,1.8355831879784956e-05,5.4873141857036956e-06,-7.89646466467786e-05,-3.340871715939997e-06,-0.0001197165940085565,5.48044840531503e-06,-5.3914394666509935e-06,-0.0002026940468006811,0.0007295777099783974,-0.0004430461553862867,-4.848338564892526e-05,-0.00027927211037369814,0.00013952349554300625,-0.0003477266545165014,0.24825400114059448,11.699365615844727,-1.0410492420196533,-21.693452835083008,-0.5102439522743225,-2.5335726737976074,0.22830526530742645,0
20,0.09501934051513672,-0.24825400114059448,-11.727136611938477,1.0688202381134033,21.669649124145508,0.5102439522743225,2.5335726737976074,-0.24112264811992645,0.0,0.0,0.0,0.0,0.0,0.0,0.0,-0.2335885234134142,0.6172383957319699,-0.12226288466769047,0.40636002906061747,-0.01982489782780684,0.12627326146968867,-0.22061633748513057,0.17286094559686885,-0.48752308329760996,-0.11139408492414574,-1.9463751750410647,0.13372561850150425,2.5955448793305287,0.945251374554303,0.1728802376190821,-0.48752024683155326,-0.11147110072896137,-1.9463801863486305,0.1336059019074957,2.595550359778934,0.9452445589611904,0.0005049159014028367,0.00039229285380590714,0.00019605695007847323,0.0002526153103636709,9.286924302647894e-06,-0.0005929301944375481,0.0014918732452391997,0.0,0.0,0.0,0.0,0.0,0.0,0.0,1.9292022213263094e-05,2.836466056699294e-06,-7.701580481563053e-05,-5.011307565805367e-06,-0.0001197165940085565,5.48044840531503e-06,-6.8155931125524205e-06,-0.0005049159014028367,-0.00039229285380590714,-0.00019605695007847323,-0.0002526153103636709,-9.286924302647894e-06,0.0005929301944375481,-0.0014918732452391997,0.24825400114059448,11.727136611938477,-1.0688202381134033,-21.669649124145508,-0.5102439522743225,-2.5335726737976074,0.24112264811992645,0
21,0.10001373291015625,-0.24825400114059448,-11.727136611938477,1.0688202381134033,21.669649124145508,0.5102439522743225,2.5335726737976074,-0.24112264811992645,0.0,0.0,0.0,0.0,0.0,0.0,0.0,-0.2335885234134142,0.6172383957319699,-0.12226288466769047,0.40636002906061747,-0.01982489782780684,0.12627326146968867,-0.22061633748513057,0.17286094559686885,-0.48752308329760996,-0.11139408492414574,-1.9463751750410647,0.13372561850150425,2.5955448793305287,0.945251374554303,0.1728802376190821,-0.48752024683155326,-0.11147110072896137,-1.9463801863486305,0.1336059019074957,2.595550359778934,0.9452445589611904,0.0005049159014028367,0.00039229285380590714,0.00019605695007847323,0.0002526153103636709,9.286924302647894e-06,-0.0005929301944375481,0.0014918732452391997,0.0,0.0,0.0,0.0,0.0,0.0,0.0,1.9292022213263094e-05,2.836466056699294e-06,-7.701580481563053e-05,-5.011307565805367e-06,-0.0001197165940085565,5.48044840531503e-06,-6.8155931125524205e-06,-0.0005049159014028367,-0.00039229285380590714,-0.00019605695007847323,-0.0002526153103636709,-9.286924302647894e-06,0.0005929301944375481,-0.0014918732452391997,0.24825400114059448,11.727136611938477,-1.0688202381134033,-21.669649124145508,-0.5102439522743225,-2.5335726737976074,0.24112264811992645,0
22,0.1054084300994873,-0.24825400114059448,-11.750940322875977,1.0410492420196533,21.693452835083008,0.5221458077430725,2.5335726737976074,-0.22098104655742645,0.0,0.0,0.0,0.0,0.0,0.0,0.0,-0.2352248371311859,0.6047335314517464,-0.1277202178018644,0.41312476059483977,-0.019665159272778867,0.12705527770093117,-0.22081166951838382,0.17286118565482833,-0.4875214128577918,-0.11139213608231459,-1.94637684547692,0.1337242960731188,2.5955448793305287,0.9452491365985738,0.1728802376190821,-0.48752024683155326,-0.11147110072896137,-1.9463801863486305,0.1336059019074957,2.595550359778934,0.9452445589611904,0.0007195541104120223,0.0007225661422404157,0.00039568772022726,0.00046107934684355847,-0.0002425420668690589,-0.00022787778029704716,0.0006151323434480494,0.0,0.0,0.0,0.0,0.0,0.0,0.0,1.9051964253780085e-05,1.1660262385637665e-06,-7.89646466467786e-05,-3.3408717106109265e-06,-0.00011839416562312022,5.48044840531503e-06,-4.5776373833739115e-06,-0.0007195541104120223,-0.0007225661422404157,-0.00039568772022726,-0.00046107934684355847,0.0002425420668690589,0.00022787778029704716,-0.0006151323434480494,0.24825400114059448,11.750940322875977,-1.0410492420196533,-21.693452835083008,-0.5221458077430725,-2.5335726737976074,0.22098104655742645,0
23,0.10999870300292969,-0.24825400114059448,-11.750940322875977,1.0410492420196533,21.693452835083008,0.5221458077430725,2.5335726737976074,-0.22098104655742645,0.0,0.0,0.0,0.0,0.0,0.0,0.0,-0.2352248371311859,0.6047335314517464,-0.1277202178018644,0.41312476059483977,-0.019665159272778867,0.12705527770093117,-0.22081166951838382,0.17286118565482833,-0.4875214128577918,-0.11139213608231459,-1.94637684547692,0.1337242960731188,2.5955448793305287,0.9452491365985738,0.1728802376190821,-0.48752024683155326,-0.11147110072896137,-1.9463801863486305,0.1336059019074957,2.595550359778934,0.9452445589611904,0.0007195541104120223,0.0007225661422404157,0.00039568772022726,0.00046107934684355847,-0.0002425420668690589,-0.00022787778029704716,0.0006151323434480494,0.0,0.0,0.0,0.0,0.0,0.0,0.0,1.9051964253780085e-05,1.1660262385637665e-06,-7.89646466467786e-05,-3.3408717106109265e-06,-0.00011839416562312022,5.48044840531503e-06,-4.5776373833739115e-06,-0.0007195541104120223,-0.0007225661422404157,-0.00039568772022726,-0.00046107934684355847,0.0002425420668690589,0.00022787778029704716,-0.0006151323434480494,0.24825400114059448,11.750940322875977,-1.0410492420196533,-21.693452835083008,-0.5221458077430725,-2.5335726737976074,0.22098104655742645,0
24,0.11500144004821777,-0.24825400114059448,-11.675561904907227,1.0688202381134033,21.717256546020508,0.5166526436805725,2.5207552909851074,-0.21457235515117645,0.0,0.0,0.0,0.0,0.0,0.0,0.0,-0.23142662315668833,0.6059474581254122,-0.12359653915102115,0.4107787153925314,-0.01962257840187404,0.12701681445912197,-0.2209544578716488,0.17286093680838133,-0.4875274045815942,-0.11139408492414574,-1.946378515912775,0.13372490642468132,2.5955463039686912,0.9452484245217508,0.1728802376190821,-0.48752024683155326,-0.11147110072896137,-1.9463801863486305,0.1336059019074957,2.595550359778934,0.9452445589611904,8.14929355561535e-05,-0.0016382676491305363,0.0005482541332002789,-0.0005293877124998845,1.8980413589949782e-05,0.00032591925070065157,0.00045752177230637045,0.0,0.0,0.0,0.0,0.0,0.0,0.0,1.9300810700784155e-05,7.157750040953648e-06,-7.701580481563053e-05,-1.6704358554164855e-06,-0.00011900451718563354,4.055810242764579e-06,-3.865560560423198e-06,-8.14929355561535e-05,0.0016382676491305363,-0.0005482541332002789,0.0005293877124998845,-1.8980413589949782e-05,-0.00032591925070065157,-0.00045752177230637045,0.24825400114059448,11.675561904907227,-1.0688202381134033,-21.717256546020508,-0.5166526436805725,-2.5207552909851074,0.21457235515117645,0
25,0.11999893188476562,-0.24825400114059448,-11.675561904907227,1.0688202381134033,21.717256546020508,0.5166526436805725,2.5207552909851074,-0.21457235515117645,0.0,0.0,0.0,0.0,0.0,0.0,0.0,-0.23142662315668833,0.6059474581254122,-0.12359653915102115,0.4107787153925314,-0.01962257840187404,0.12701681445912197,-0.2209544578716488,0.17286093680838133,-0.4875274045815942,-0.11139408492414574,-1.946378515912775,0.13372490642468132,2.5955463039686912,0.9452484245217508,0.1728802376190821,-0.48752024683155326,-0.11147110072896137,-1.9463801863486305,0.1336059019074957,2.595550359778934,0.9452445589611904,8.14929355561535e-05,-0.0016382676491305363,0.0005482541332002789,-0.0005293877124998845,1.8980413589949782e-05,0.00032591925070065157,0.00045752177230637045,0.0,0.0,0.0,0.0,0.0,0.0,0.0,1.9300810700784155e-05,7.157750040953648e-06,-7.701580481563053e-05,-1.6704358554164855e-06,-0.00011900451718563354,4.055810242764579e-06,-3.865560560423198e-06,-8.14929355561535e-05,0.0016382676491305363,-0.0005482541332002789,0.0005293877124998845,-1.8980413589949782e-05,-0.00032591925070065157,-0.00045752177230637045,0.24825400114059448,11.675561904907227,-1.0688202381134033,-21.717256546020508,-0.5166526436805725,-2.5207552909851074,0.21457235515117645,0
26,0.12500238418579102,-0.24825400114059448,-11.727136611938477,1.0688202381134033,21.693452835083008,0.5102439522743225,2.5271639823913574,-0.19351522624492645,0.0,0.0,0.0,0.0,0.0,0.0,0.0,-0.23984406540745534,0.603999827668144,-0.13182367579652163,0.40987347088891335,-0.018729695345517102,0.12730482276130264,-0.22029401416815772,0.17286164554798245,-0.48752331730103016,-0.11139408492414574,-1.94637684547692,0.13372561850150425,2.5955455914073546,0.9452460848407613,0.1728802376190821,-0.48752024683155326,-0.11147110072896137,-1.9463801863486305,0.1336059019074957,2.595550359778934,0.9452445589611904,5.6190515267014625e-05,-0.00017327842187823224,-0.00046743128019816895,0.00045427342355314323,0.0001232151939640932,7.516979249382539e-05,-0.00018638971425481555,0.0,0.0,0.0,0.0,0.0,0.0,0.0,1.8592071099665652e-05,3.0704694768957097e-06,-7.701580481563053e-05,-3.3408717106109265e-06,-0.0001197165940085565,4.768371579366715e-06,-1.5258795709183204e-06,-5.6190515267014625e-05,0.00017327842187823224,0.00046743128019816895,-0.00045427342355314323,-0.0001232151939640932,-7.516979249382539e-05,0.00018638971425481555,0.24825400114059448,11.727136611938477,-1.0688202381134033,-21.693452835083008,-0.5102439522743225,-2.5271639823913574,0.19351522624492645,0
27,0.1300055980682373,-0.24825400114059448,-11.727136611938477,1.0688202381134033,21.693452835083008,0.5102439522743225,2.5271639823913574,-0.19351522624492645,0.0,0.0,0.0,0.0,0.0,0.0,0.0,-0.23984406540745534,0.603999827668144,-0.13182367579652163,0.40987347088891335,-0.018729695345517102,0.12730482276130264,-0.22029401416815772,0.17286164554798245,-0.48752331730103016,-0.11139408492414574,-1.94637684547692,0.13372561850150425,2.5955455914073546,0.9452460848407613,0.1728802376190821,-0.48752024683155326,-0.11147110072896137,-1.9463801863486305,0.1336059019074957,2.595550359778934,0.9452445589611904,5.6190515267014625e-05,-0.00017327842187823224,-0.00046743128019816895,0.00045427342355314323,0.0001232151939640932,7.516979249382539e-05,-0.00018638971425481555,0.0,0.0,0.0,0.0,0.0,0.0,0.0,1.8592071099665652e-05,3.0704694768957097e-06,-7.701580481563053e-05,-3.3408717106109265e-06,-0.0001197165940085565,4.768371579366715e-06,-1.5258795709183204e-06,-5.6190515267014625e-05,0.00017327842187823224,0.00046743128019816895,-0.00045427342355314323,-0.0001232151939640932,-7.516979249382539e-05,0.00018638971425481555,0.24825400114059448,11.727136611938477,-1.0688202381134033,-21.693452835083008,-0.5102439522743225,-2.5271639823913574,0.19351522624492645,0
28,0.13500452041625977,-0.24825400114059448,-11.727136611938477,1.0688202381134033,21.693452835083008,0.5102439522743225,2.5271639823913574,-0.19351522624492645,0.0,0.0,0.0,0.0,0.0,0.0,0.0,-0.23984406540745534,0.603999827668144,-0.13182367579652163,0.40987347088891335,-0.018729695345517102,0.12730482276130264,-0.22029401416815772,0.17286164554798245,-0.48752331730103016,-0.11139408492414574,-1.94637684547692,0.13372561850150425,2.5955455914073546,0.9452460848407613,0.1728802376190821,-0.48752024683155326,-0.11147110072896137,-1.9463801863486305,0.1336059019074957,2.595550359778934,0.9452445589611904,5.6190515267014625e-05,-0.00017327842187823224,-0.00046743128019816895,0.00045427342355314323,0.0001232151939640932,7.516979249382539e-05,-0.00018638971425481555,0.0,0.0,0.0,0.0,0.0,0.0,0.0,1.8592071099665652e-05,3.0704694768957097e-06,-7.701580481563053e-05,-3.3408717106109265e-06,-0.0001197165940085565,4.768371579366715e-06,-1.5258795709183204e-06,-5.6190515267014625e-05,0.00017327842187823224,0.00046743128019816895,-0.00045427342355314323,-0.0001232151939640932,-7.516979249382539e-05,0.00018638971425481555,0.24825400114059448,11.727136611938477,-1.0688202381134033,-21.693452835083008,-0.5102439522743225,-2.5271639823913574,0.19351522624492645,0
29,0.13999700546264648,-0.24825400114059448,-11.727136611938477,1.0688202381134033,21.693452835083008,0.5102439522743225,2.5271639823913574,-0.19351522624492645,0.0,0.0,0.0,0.0,0.0,0.0,0.0,-0.23984406540745534,0.603999827668144,-0.13182367579652163,0.40987347088891335,-0.018729695345517102,0.12730482276130264,-0.22029401416815772,0.17286164554798245,-0.48752331730103016,-0.11139408492414574,-1.94637684547692,0.13372561850150425,2.5955455914073546,0.9452460848407613,0.1728802376190821,-0.48752024683155326,-0.11147110072896137,-1.9463801863486305,0.1336059019074957,2.595550359778934,0.9452445589611904,5.6190515267014625e-05,-0.00017327842187823224,-0.00046743128019816895,0.00045427342355314323,0.0001232151939640932,7.516979249382539e-05,-0.00018638971425481555,0.0,0.0,0.0,0.0,0.0,0.0,0.0,1.8592071099665652e-05,3.0704694768957097e-06,-7.701580481563053e-05,-3.3408717106109265e-06,-0.0001197165940085565,4.768371579366715e-06,-1.5258795709183204e-06,-5.6190515267014625e-05,0.00017327842187823224,0.00046743128019816895,-0.00045427342355314323,-0.0001232151939640932,-7.516979249382539e-05,0.00018638971425481555,0.24825400114059448,11.727136611938477,-1.0688202381134033,-21.693452835083008,-0.5102439522743225,-2.5271639823913574,0.19351522624492645,0
30,0.14541935920715332,-0.2998287081718445,-11.675561904907227,1.0688202381134033,21.669649124145508,0.5047507882118225,2.5271639823913574,-0.17337362468242645,0.0,0.0,0.0,0.0,0.0,0.0,0.0,-0.23515677130727558,0.606321593850181,-0.12251498850607109,0.4083639577890491,-0.019276388959366737,0.12674290452420828,-0.2193373829801723,0.1728626174735596,-0.48752671123944785,-0.11139408492414574,-1.946375148223063,0.13372622885306673,2.595545591407352,0.9452438468850322,0.1728802376190821,-0.48752024683155326,-0.11147110072896137,-1.9463801863486305,0.1336059019074957,2.595550359778934,0.9452445589611904,0.0014783008054589793,-0.0011283336447009665,0.00038263592732639193,0.0013155878901869632,0.0003013557217166918,-0.00022037896591604091,-0.0016522532323343638,0.0,0.0,0.0,0.0,0.0,0.0,0.0,1.762014552250668e-05,6.464407894590796e-06,-7.701580481563053e-05,-5.038125567624618e-06,-0.00012032694557104207,4.76837158203125e-06,7.120761582601887e-07,-0.0014783008054589793,0.0011283336447009665,-0.00038263592732639193,-0.0013155878901869632,-0.0003013557217166918,0.00022037896591604091,0.0016522532323343638,0.2998287081718445,11.675561904907227,-1.0688202381134033,-21.669649124145508,-0.5047507882118225,-2.5271639823913574,0.17337362468242645,0
31,0.14999890327453613,-0.2998287081718445,-11.675561904907227,1.0688202381134033,21.669649124145508,0.5047507882118225,2.5271639823913574,-0.17337362468242645,0.0,0.0,0.0,0.0,0.0,0.0,0.0,-0.23515677130727558,0.606321593850181,-0.12251498850607109,0.4083639577890491,-0.019276388959366737,0.12674290452420828,-0.2193373829801723,0.1728626174735596,-0.48752671123944785,-0.11139408492414574,-1.946375148223063,0.13372622885306673,2.595545591407352,0.9452438468850322,0.1728802376190821,-0.48752024683155326,-0.11147110072896137,-1.9463801863486305,0.1336059019074957,2.595550359778934,0.9452445589611904,0.0014783008054589793,-0.0011283336447009665,0.00038263592732639193,0.0013155878901869632,0.0003013557217166918,-0.00022037896591604091,-0.0016522532323343638,0.0,0.0,0.0,0.0,0.0,0.0,0.0,1.762014552250668e-05,6.464407894590796e-06,-7.701580481563053e-05,-5.038125567624618e-06,-0.00012032694557104207,4.76837158203125e-06,7.120761582601887e-07,-0.0014783008054589793,0.0011283336447009665,-0.00038263592732639193,-0.0013155878901869632,-0.0003013557217166918,0.00022037896591604091,0.0016522532323343638,0.2998287081718445,11.675561904907227,-1.0688202381134033,-21.669649124145508,-0.5047507882118225,-2.5271639823913574,0.17337362468242645,0
32,0.15535211563110352,-0.22445029020309448,-11.699365615844727,1.0688202381134033,21.717256546020508,0.5102439522743225,2.5271639823913574,-0.21457235515117645,0.0,0.0,0.0,0.0,0.0,0.0,0.0,-0.23643767833676652,0.6025026562924016,-0.11762832860660936,0.4122533429187365,-0.019557431512511155,0.1263951714351878,-0.2194206234804354,0.17285740356588827,-0.48752503213552717,-0.11139408492414574,-1.946378515912624,0.13372561850150425,2.595545591407352,0.9452484245217508,0.1728802376190821,-0.48752024683155326,-0.11147110072896137,-1.9463801863486305,0.1336059019074957,2.595550359778934,0.9452445589611904,-0.0005346732757164201,-0.0007011536439481906,0.0007011246089938165,-0.0003502369081701681,0.0002514876457790749,-1.0281697852561533e-05,-0.003492502104914847,0.0,0.0,0.0,0.0,0.0,0.0,0.0,2.2834053193837578e-05,4.78530397390875e-06,-7.701580481563053e-05,-1.6704360066288615e-06,-0.0001197165940085565,4.76837158203125e-06,-3.865560560423198e-06,0.0005346732757164201,0.0007011536439481906,-0.0007011246089938165,0.0003502369081701681,-0.0002514876457790749,1.0281697852561533e-05,0.003492502104914847,0.22445029020309448,11.699365615844727,-1.0688202381134033,-21.717256546020508,-0.5102439522743225,-2.5271639823913574,0.21457235515117645,0
33,0.16020727157592773,-0.22445029020309448,-11.699365615844727,1.0688202381134033,21.717256546020508,0.5102439522743225,2.5271639823913574,-0.21457235515117645,0.0,0.0,0.0,0.0,0.0,0.0,0.0,-0.23643767833676652,0.6025026562924016,-0.11762832860660936,0.4122533429187365,-0.019557431512511155,0.1263951714351878,-0.2194206234804354,0.17285740356588827,-0.48752503213552717,-0.11139408492414574,-1.946378515912624,0.13372561850150425,2.595545591407352,0.9452484245217508,0.1728802376190821,-0.48752024683155326,-0.11147110072896137,-1.9463801863486305,0.1336059019074957,2.595550359778934,0.9452445589611904,-0.0005346732757164201,-0.0007011536439481906,0.0007011246089938165,-0.0003502369081701681,0.0002514876457790749,-1.0281697852561533e-05,-0.003492502104914847,0.0,0.0,0.0,0.0,0.0,0.0,0.0,2.2834053193837578e-05,4.78530397390875e-06,-7.701580481563053e-05,-1.6704360066288615e-06,-0.0001197165940085565,4.76837158203125e-06,-3.865560560423198e-06,0.0005346732757164201,0.0007011536439481906,-0.0007011246089938165,0.0003502369081701681,-0.0002514876457790749,1.0281697852561533e-05,0.003492502104914847,0.22445029020309448,11.699365615844727,-1.0688202381134033,-21.717256546020508,-0.5102439522743225,-2.5271639823913574,0.21457235515117645,0
34,0.16501760482788086,-0.22445029020309448,-11.675561904907227,1.0688202381134033,21.693452835083008,0.5166526436805725,2.5271639823913574,-0.22830526530742645,0.0,0.0,0.0,0.0,0.0,0.0,0.0,-0.23970356477246488,0.6111399127358937,-0.11994372572669285,0.40847085860928123,-0.01943274458528239,0.12556692993987903,-0.2190972850981295,0.17285730095980056,-0.4875267025713335,-0.11139407615514965,-1.9463768189859667,0.13372490642468132,2.595545591407352,0.9452499504006571,0.1728802376190821,-0.48752024683155326,-0.11147110072896137,-1.9463801863486305,0.1336059019074957,2.595550359778934,0.9452445589611904,-0.0006530654257513542,-0.0008919433022218497,0.00042247323402060593,-2.535069622952672e-05,1.880708862868412e-06,-8.142740637246169e-07,-1.2296313972685245e-05,0.0,0.0,0.0,0.0,0.0,0.0,0.0,2.29366592815472e-05,6.455739780253378e-06,-7.702457381171535e-05,-3.367362663819762e-06,-0.00011900451718563354,4.76837158203125e-06,-5.3914394666509935e-06,0.0006530654257513542,0.0008919433022218497,-0.00042247323402060593,2.535069622952672e-05,-1.880708862868412e-06,8.142740637246169e-07,1.2296313972685245e-05,0.22445029020309448,11.675561904907227,-1.0688202381134033,-21.693452835083008,-0.5166526436805725,-2.5271639823913574,0.22830526530742645,0
35,0.1700000762939453,-0.22445029020309448,-11.675561904907227,1.0688202381134033,21.693452835083008,0.5166526436805725,2.5271639823913574,-0.22830526530742645,0.0,0.0,0.0,0.0,0.0,0.0,0.0,-0.23970356477246488,0.6111399127358937,-0.11994372572669285,0.40847085860928123,-0.01943274458528239,0.12556692993987903,-0.2190972850981295,0.17285730095980056,-0.4875267025713335,-0.11139407615514965,-1.9463768189859667,0.13372490642468132,2.595545591407352,0.9452499504006571,0.1728802376190821,-0.48752024683155326,-0.11147110072896137,-1.9463801863486305,0.1336059019074957,2.595550359778934,0.9452445589611904,-0.0006530654257513542,-0.0008919433022218497,0.00042247323402060593,-2.535069622952672e-05,1.880708862868412e-06,-8.142740637246169e-07,-1.2296313972685245e-05,0.0,0.0,0.0,0.0,0.0,0.0,0.0,2.29366592815472e-05,6.455739780253378e-06,-7.702457381171535e-05,-3.367362663819762e-06,-0.00011900451718563354,4.76837158203125e-06,-5.3914394666509935e-06,0.0006530654257513542,0.0008919433022218497,-0.00042247323402060593,2.535069622952672e-05,-1.880708862868412e-06,8.142740637246169e-07,1.2296313972685245e-05,0.22445029020309448,11.675561904907227,-1.0688202381134033,-21.693452835083008,-0.5166526436805725,-2.5271639823913574,0.22830526530742645,0
36,0.1750047206878662,-0.22445029020309448,-11.675561904907227,1.0688202381134033,21.693452835083008,0.5166526436805725,2.5271639823913574,-0.22830526530742645,0.0,0.0,0.0,0.0,0.0,0.0,0.0,-0.23970356477246488,0.6111399127358937,-0.11994372572669285,0.40847085860928123,-0.01943274458528239,0.12556692993987903,-0.2190972850981295,0.17285730095980056,-0.4875267025713335,-0.11139407615514965,-1.9463768189859667,0.13372490642468132,2.595545591407352,0.9452499504006571,0.1728802376190821,-0.48752024683155326,-0.11147110072896137,-1.9463801863486305,0.1336059019074957,2.595550359778934,0.9452445589611904,-0.0006530654257513542,-0.0008919433022218497,0.00042247323402060593,-2.535069622952672e-05,1.880708862868412e-06,-8.142740637246169e-07,-1.2296313972685245e-05,0.0,0.0,0.0,0.0,0.0,0.0,0.0,2.29366592815472e-05,6.455739780253378e-06,-7.702457381171535e-05,-3.367362663819762e-06,-0.00011900451718563354,4.76837158203125e-06,-5.3914394666509935e-06,0.0006530654257513542,0.0008919433022218497,-0.00042247323402060593,2.535069622952672e-05,-1.880708862868412e-06,8.142740637246169e-07,1.2296313972685245e-05,0.22445029020309448,11.675561904907227,-1.0688202381134033,-21.693452835083008,-0.5166526436805725,-2.5271639823913574,0.22830526530742645,0
37,0.18000292778015137,-0.22445029020309448,-11.675561904907227,1.0688202381134033,21.693452835083008,0.5166526436805725,2.5271639823913574,-0.22830526530742645,0.0,0.0,0.0,0.0,0.0,0.0,0.0,-0.23970356477246488,0.6111399127358937,-0.11994372572669285,0.40847085860928123,-0.01943274458528239,0.12556692993987903,-0.2190972850981295,0.17285730095980056,-0.4875267025713335,-0.11139407615514965,-1.9463768189859667,0.13372490642468132,2.595545591407352,0.9452499504006571,0.1728802376190821,-0.48752024683155326,-0.11147110072896137,-1.9463801863486305,0.1336059019074957,2.595550359778934,0.9452445589611904,-0.0006530654257513542,-0.0008919433022218497,0.00042247323402060593,-2.535069622952672e-05,1.880708862868412e-06,-8.142740637246169e-07,-1.2296313972685245e-05,0.0,0.0,0.0,0.0,0.0,0.0,0.0,2.29366592815472e-05,6.455739780253378e-06,-7.702457381171535e-05,-3.367362663819762e-06,-0.00011900451718563354,4.76837158203125e-06,-5.3914394666509935e-06,0.0006530654257513542,0.0008919433022218497,-0.00042247323402060593,2.535069622952672e-05,-1.880708862868412e-06,8.142740637246169e-07,1.2296313972685245e-05,0.22445029020309448,11.675561904907227,-1.0688202381134033,-21.693452835083008,-0.5166526436805725,-2.5271639823913574,0.22830526530742645,0
38,0.1849970817565918,-0.22445029020309448,-11.675561904907227,1.0688202381134033,21.693452835083008,0.5166526436805725,2.5271639823913574,-0.22830526530742645,0.0,0.0,0.0,0.0,0.0,0.0,0.0,-0.23970356477246488,0.6111399127358937,-0.11994372572669285,0.40847085860928123,-0.01943274458528239,0.12556692993987903,-0.2190972850981295,0.17285730095980056,-0.4875267025713335,-0.11139407615514965,-1.9463768189859667,0.13372490642468132,2.595545591407352,0.9452499504006571,0.1728802376190821,-0.48752024683155326,-0.11147110072896137,-1.9463801863486305,0.1336059019074957,2.595550359778934,0.9452445589611904,-0.0006530654257513542,-0.0008919433022218497,0.00042247323402060593,-2.535069622952672e-05,1.880708862868412e-06,-8.142740637246169e-07,-1.2296313972685245e-05,0.0,0.0,0.0,0.0,0.0,0.0,0.0,2.29366592815472e-05,6.455739780253378e-06,-7.702457381171535e-05,-3.367362663819762e-06,-0.00011900451718563354,4.76837158203125e-06,-5.3914394666509935e-06,0.0006530654257513542,0.0008919433022218497,-0.00042247323402060593,2.535069622952672e-05,-1.880708862868412e-06,8.142740637246169e-07,1.2296313972685245e-05,0.22445029020309448,11.675561904907227,-1.0688202381134033,-21.693452835083008,-0.5166526436805725,-2.5271639823913574,0.22830526530742645,0
39,0.19000768661499023,-0.24825400114059448,-11.750940322875977,1.0688202381134033,21.669649124145508,0.5166526436805725,2.5271639823913574,-0.20083944499492645,0.0,0.0,0.0,0.0,0.0,0.0,0.0,-0.23563958770978977,0.617360380896433,-0.11484868184526713,0.40890093346616035,-0.019334471755417294,0.1255396738975297,-0.22012282311235667,0.17285907443811316,-0.4875214128577918,-0.11139408492414574,-1.9463751749320486,0.13372490642468132,2.595545591407352,0.9452468986428446,0.1728802376190821,-0.48752024683155326,-0.11147110072896137,-1.9463801863486305,0.1336059019074957,2.595550359778934,0.9452445589611904,0.0003226742689905016,0.0014113246193785596,3.2786397014807424e-05,0.0009820510739429293,-8.48208419513053e-05,-0.00024781892557337415,0.0002965101962601093,0.0,0.0,0.0,0.0,0.0,0.0,0.0,2.1163180968952755e-05,1.1660262385637665e-06,-7.701580481563053e-05,-5.011416581934824e-06,-0.00011900451718563354,4.76837158203125e-06,-2.3396816541954024e-06,-0.0003226742689905016,-0.0014113246193785596,-3.2786397014807424e-05,-0.0009820510739429293,8.48208419513053e-05,0.00024781892557337415,-0.0002965101962601093,0.24825400114059448,11.750940322875977,-1.0688202381134033,-21.669649124145508,-0.5166526436805725,-2.5271639823913574,0.20083944499492645,0
40,0.19500446319580078,-0.24825400114059448,-11.750940322875977,1.0688202381134033,21.669649124145508,0.5166526436805725,2.5271639823913574,-0.20083944499492645,0.0,0.0,0.0,0.0,0.0,0.0,0.0,-0.23563958770978977,0.617360380896433,-0.11484868184526713,0.40890093346616035,-0.019334471755417294,0.1255396738975297,-0.22012282311235667,0.17285907443811316,-0.4875214128577918,-0.11139408492414574,-1.9463751749320486,0.13372490642468132,2.595545591407352,0.9452468986428446,0.1728802376190821,-0.48752024683155326,-0.11147110072896137,-1.9463801863486305,0.1336059019074957,2.595550359778934,0.9452445589611904,0.0003226742689905016,0.0014113246193785596,3.2786397014807424e-05,0.0009820510739429293,-8.48208419513053e-05,-0.00024781892557337415,0.0002965101962601093,0.0,0.0,0.0,0.0,0.0,0.0,0.0,2.1163180968952755e-05,1.1660262385637665e-06,-7.701580481563053e-05,-5.011416581934824e-06,-0.00011900451718563354,4.76837158203125e-06,-2.3396816541954024e-06,-0.0003226742689905016,-0.0014113246193785596,-3.2786397014807424e-05,-0.0009820510739429293,8.48208419513053e-05,0.00024781892557337415,-0.0002965101962601093,0.24825400114059448,11.750940322875977,-1.0688202381134033,-21.669649124145508,-0.5166526436805725,-2.5271639823913574,0.20083944499492645,0
41,0.20000267028808594,-0.2720577120780945,-11.699365615844727,1.0926239490509033,21.717256546020508,0.5102439522743225,2.5271639823913574,-0.22098104655742645,0.0,0.0,0.0,0.0,0.0,0.0,0.0,-0.23638358381105176,0.6114102279676209,-0.11696323805956194,0.41098743881999894,-0.0190594189149844,0.12558385205744238,-0.2188243734231811,0.17286051017115298,-0.48752503213547826,-0.111395755360001,-1.9463784334601368,0.13372561850150425,2.595545591407352,0.9452491365985738,0.1728802376190821,-0.48752024683155326,-0.11147110072896137,-1.9463801863486305,0.1336059019074957,2.595550359778934,0.9452445589611904,0.0009589926489552263,-0.00015754456280322576,-0.0005438443124047912,-0.0006301367801783956,9.47133804837718e-05,-0.00014321267326971213,0.0005230121029594041,0.0,0.0,0.0,0.0,0.0,0.0,0.0,1.972744792913539e-05,4.785303925003426e-06,-7.53453689603667e-05,-1.752888493689042e-06,-0.0001197165940085565,4.76837158203125e-06,-4.5776373833739115e-06,-0.0009589926489552263,0.00015754456280322576,0.0005438443124047912,0.0006301367801783956,-9.47133804837718e-05,0.00014321267326971213,-0.0005230121029594041,0.2720577120780945,11.699365615844727,-1.0926239490509033,-21.717256546020508,-0.5102439522743225,-2.5271639823913574,0.22098104655742645,0
42,0.20499444007873535,-0.2720577120780945,-11.699365615844727,1.0926239490509033,21.717256546020508,0.5102439522743225,2.5271639823913574,-0.22098104655742645,0.0,0.0,0.0,0.0,0.0,0.0,0.0,-0.23638358381105176,0.6114102279676209,-0.11696323805956194,0.41098743881999894,-0.0190594189149844,0.12558385205744238,-0.2188243734231811,0.17286051017115298,-0.48752503213547826,-0.111395755360001,-1.9463784334601368,0.13372561850150425,2.595545591407352,0.9452491365985738,0.1728802376190821,-0.48752024683155326,-0.11147110072896137,-1.9463801863486305,0.1336059019074957,2.595550359778934,0.9452445589611904,0.0009589926489552263,-0.00015754456280322576,-0.0005438443124047912,-0.0006301367801783956,9.47133804837718e-05,-0.00014321267326971213,0.0005230121029594041,0.0,0.0,0.0,0.0,0.0,0.0,0.0,1.972744792913539e-05,4.785303925003426e-06,-7.53453689603667e-05,-1.752888493689042e-06,-0.0001197165940085565,4.76837158203125e-06,-4.5776373833739115e-06,-0.0009589926489552263,0.00015754456280322576,0.0005438443124047912,0.0006301367801783956,-9.47133804837718e-05,0.00014321267326971213,-0.0005230121029594041,0.2720577120780945,11.699365615844727,-1.0926239490509033,-21.717256546020508,-0.5102439522743225,-2.5271639823913574,0.22098104655742645,0
43,0.2101132869720459,-0.22445029020309448,-11.699365615844727,1.0688202381134033,21.693452835083008,0.5166526436805725,2.5271639823913574,-0.24112264811992645,0.0,0.0,0.0,0.0,0.0,0.0,0.0,-0.234534821030138,0.6102050543240789,-0.11595075077426278,0.4093139663349865,-0.019188710160087753,0.12560988615162627,-0.21963140489646457,0.1728594245893311,-0.48752503213547826,-0.11139384816125122,-1.9463761300753621,0.13372490637050968,2.595545591407352,0.945251374554303,0.1728802376190821,-0.48752024683155326,-0.11147110072896137,-1.9463801863486305,0.1336059019074957,2.595550359778934,0.9452445589611904,5.968268232123036e-05,-0.0006296842387705532,-3.7890898071768025e-05,-6.416472875494771e-05,-0.00019481746186693626,-0.00017928598485745666,0.001538255522636363,0.0,0.0,0.0,0.0,0.0,0.0,0.0,2.081302975101562e-05,4.785303925003426e-06,-7.725256771014266e-05,-4.0562732683824265e-06,-0.00011900446301399414,4.76837158203125e-06,-6.8155931125524205e-06,-5.968268232123036e-05,0.0006296842387705532,3.7890898071768025e-05,6.416472875494771e-05,0.00019481746186693626,0.00017928598485745666,-0.001538255522636363,0.22445029020309448,11.699365615844727,-1.0688202381134033,-21.693452835083008,-0.5166526436805725,-2.5271639823913574,0.24112264811992645,0
44,0.2149982452392578,-0.22445029020309448,-11.699365615844727,1.0688202381134033,21.693452835083008,0.5166526436805725,2.5271639823913574,-0.24112264811992645,0.0,0.0,0.0,0.0,0.0,0.0,0.0,-0.234534821030138,0.6102050543240789,-0.11595075077426278,0.4093139663349865,-0.019188710160087753,0.12560988615162627,-0.21963140489646457,0.1728594245893311,-0.48752503213547826,-0.11139384816125122,-1.9463761300753621,0.13372490637050968,2.595545591407352,0.945251374554303,0.1728802376190821,-0.48752024683155326,-0.11147110072896137,-1.9463801863486305,0.1336059019074957,2.595550359778934,0.9452445589611904,5.968268232123036e-05,-0.0006296842387705532,-3.7890898071768025e-05,-6.416472875494771e-05,-0.00019481746186693626,-0.00017928598485745666,0.001538255522636363,0.0,0.0,0.0,0.0,0.0,0.0,0.0,2.081302975101562e-05,4.785303925003426e-06,-7.725256771014266e-05,-4.0562732683824265e-06,-0.00011900446301399414,4.76837158203125e-06,-6.8155931125524205e-06,-5.968268232123036e-05,0.0006296842387705532,3.7890898071768025e-05,6.416472875494771e-05,0.00019481746186693626,0.00017928598485745666,-0.001538255522636363,0.22445029020309448,11.699365615844727,-1.0688202381134033,-21.693452835083008,-0.5166526436805725,-2.5271639823913574,0.24112264811992645,0
45,0.21999406814575195,-0.24825400114059448,-11.727136611938477,1.0688202381134033,21.693452835083008,0.5102439522743225,2.5143465995788574,-0.23471395671367645,0.0,0.0,0.0,0.0,0.0,0.0,0.0,-0.23529257965008016,0.6094041184488448,-0.11905671983384906,0.4076556535276902,-0.02031194318741633,0.12580136219877094,-0.21969209711612184,0.1728590500360576,-0.4875230832936471,-0.11139408492280921,-1.9463768454728816,0.13372561850150394,2.5955470155609977,0.94525066247748,0.1728802376190821,-0.48752024683155326,-0.11147110072896137,-1.9463801863486305,0.1336059019074957,2.595550359778934,0.9452445589611904,0.0002486428838622083,4.3904398614519666e-05,-0.0001306553658629933,-5.2256038441479474e-05,0.004072075949412988,0.0002497611320470631,0.0009654640925334283,0.0,0.0,0.0,0.0,0.0,0.0,0.0,2.1187583024523393e-05,2.8364620938137186e-06,-7.701580615215864e-05,-3.3408757489361562e-06,-0.00011971659400825119,3.3442179363518676e-06,-6.103516289601707e-06,-0.0002486428838622083,-4.3904398614519666e-05,0.0001306553658629933,5.2256038441479474e-05,-0.004072075949412988,-0.0002497611320470631,-0.0009654640925334283,0.24825400114059448,11.727136611938477,-1.0688202381134033,-21.693452835083008,-0.5102439522743225,-2.5143465995788574,0.23471395671367645,0
46,0.22498798370361328,-0.24825400114059448,-11.727136611938477,1.0688202381134033,21.693452835083008,0.5102439522743225,2.5143465995788574,-0.23471395671367645,0.0,0.0,0.0,0.0,0.0,0.0,0.0,-0.23529257965008016,0.6094041184488448,-0.11905671983384906,0.4076556535276902,-0.02031194318741633,0.12580136219877094,-0.21969209711612184,0.1728590500360576,-0.4875230832936471,-0.11139408492280921,-1.9463768454728816,0.13372561850150394,2.5955470155609977,0.94525066247748,0.1728802376190821,-0.48752024683155326,-0.11147110072896137,-1.9463801863486305,0.1336059019074957,2.595550359778934,0.9452445589611904,0.0002486428838622083,4.3904398614519666e-05,-0.0001306553658629933,-5.2256038441479474e-05,0.004072075949412988,0.0002497611320470631,0.0009654640925334283,0.0,0.0,0.0,0.0,0.0,0.0,0.0,2.1187583024523393e-05,2.8364620938137186e-06,-7.701580615215864e-05,-3.3408757489361562e-06,-0.00011971659400825119,3.3442179363518676e-06,-6.103516289601707e-06,-0.0002486428838622083,-4.3904398614519666e-05,0.0001306553658629933,5.2256038441479474e-05,-0.004072075949412988,-0.0002497611320470631,-0.0009654640925334283,0.24825400114059448,11.727136611938477,-1.0688202381134033,-21.693452835083008,-0.5102439522743225,-2.5143465995788574,0.23471395671367645,0
47,0.23000311851501465,-0.22445029020309448,-11.774744033813477,1.0926239490509033,21.669649124145508,0.5166526436805725,2.5143465995788574,-0.19351522624492645,0.0,0.0,0.0,0.0,0.0,0.0,0.0,-0.22904495201491837,0.6138506964909328,-0.11362075841237593,0.40475027848471445,-0.020652857881132074,0.12448501965011982,-0.22070260928884958,0.17285919604800554,-0.4875197427429289,-0.111395755360001,-1.9463749366224856,0.1337247879512516,2.5955470155609977,0.9452460848407613,0.1728802376190821,-0.48752024683155326,-0.11147110072896137,-1.9463801863486305,0.1336059019074957,2.595550359778934,0.9452445589611904,0.0004356440638877587,0.0015615641018901821,-0.0003659291224338397,0.0007545135536412712,-8.312620740188754e-05,0.0002786264775584513,-0.0010007287053887567,0.0,0.0,0.0,0.0,0.0,0.0,0.0,2.104157107657434e-05,-5.040886243423692e-07,-7.53453689603667e-05,-5.24972614490693e-06,-0.00011888604375590028,3.3442179363518676e-06,-1.5258795709183204e-06,-0.0004356440638877587,-0.0015615641018901821,0.0003659291224338397,-0.0007545135536412712,8.312620740188754e-05,-0.0002786264775584513,0.0010007287053887567,0.22445029020309448,11.774744033813477,-1.0926239490509033,-21.669649124145508,-0.5166526436805725,-2.5143465995788574,0.19351522624492645,0
48,0.2349987030029297,-0.22445029020309448,-11.774744033813477,1.0926239490509033,21.669649124145508,0.5166526436805725,2.5143465995788574,-0.19351522624492645,0.0,0.0,0.0,0.0,0.0,0.0,0.0,-0.22904495201491837,0.6138506964909328,-0.11362075841237593,0.40475027848471445,-0.020652857881132074,0.12448501965011982,-0.22070260928884958,0.17285919604800554,-0.4875197427429289,-0.111395755360001,-1.9463749366224856,0.1337247879512516,2.5955470155609977,0.9452460848407613,0.1728802376190821,-0.48752024683155326,-0.11147110072896137,-1.9463801863486305,0.1336059019074957,2.595550359778934,0.9452445589611904,0.0004356440638877587,0.0015615641018901821,-0.0003659291224338397,0.0007545135536412712,-8.312620740188754e-05,0.0002786264775584513,-0.0010007287053887567,0.0,0.0,0.0,0.0,0.0,0.0,0.0,2.104157107657434e-05,-5.040886243423692e-07,-7.53453689603667e-05,-5.24972614490693e-06,-0.00011888604375590028,3.3442179363518676e-06,-1.5258795709183204e-06,-0.0004356440638877587,-0.0015615641018901821,0.0003659291224338397,-0.0007545135536412712,8.312620740188754e-05,-0.0002786264775584513,0.0010007287053887567,0.22445029020309448,11.774744033813477,-1.0926239490509033,-21.669649124145508,-0.5166526436805725,-2.5143465995788574,0.19351522624492645,0
49,0.23996615409851074,-0.22445029020309448,-11.699365615844727,1.1164276599884033,21.717256546020508,0.5102439522743225,2.5271639823913574,-0.18710653483867645,0.0,0.0,0.0,0.0,0.0,0.0,0.0,-0.23232947669742193,0.6092711204480257,-0.12398856753443716,0.4067651645488097,-0.020417020316094082,0.12445154614398088,-0.22206593758541474,0.17285777105176992,-0.4875250321354801,-0.11139742579585626,-1.9463785159114293,0.13372561850083547,2.595545591407352,0.9452453727639384,0.1728802376190821,-0.48752024683155326,-0.11147110072896137,-1.9463801863486305,0.1336059019074957,2.595550359778934,0.9452445589611904,-0.00013714391315018467,-0.0002463355136084569,-0.0009698653444038731,0.00025467203482282307,3.691776930479277e-05,-0.00013573963285965588,-0.0010793547768545191,0.0,0.0,0.0,0.0,0.0,0.0,0.0,2.2466567312195984e-05,4.785303926835294e-06,-7.367493310510287e-05,-1.670437201228836e-06,-0.0001197165933397859,4.76837158203125e-06,-8.138027479676069e-07,0.00013714391315018467,0.0002463355136084569,0.0009698653444038731,-0.00025467203482282307,-3.691776930479277e-05,0.00013573963285965588,0.0010793547768545191,0.22445029020309448,11.699365615844727,-1.1164276599884033,-21.717256546020508,-0.5102439522743225,-2.5271639823913574,0.18710653483867645,0
50,0.24501323699951172,-0.22445029020309448,-11.699365615844727,1.1164276599884033,21.717256546020508,0.5102439522743225,2.5271639823913574,-0.18710653483867645,0.0,0.0,0.0,0.0,0.0,0.0,0.0,-0.23232947669742193,0.6092711204480257,-0.12398856753443716,0.4067651645488097,-0.020417020316094082,0.12445154614398088,-0.22206593758541474,0.17285777105176992,-0.4875250321354801,-0.11139742579585626,-1.9463785159114293,0.13372561850083547,2.595545591407352,0.9452453727639384,0.1728802376190821,-0.48752024683155326,-0.11147110072896137,-1.9463801863486305,0.1336059019074957,2.595550359778934,0.9452445589611904,-0.00013714391315018467,-0.0002463355136084569,-0.0009698653444038731,0.00025467203482282307,3.691776930479277e-05,-0.00013573963285965588,-0.0010793547768545191,0.0,0.0,0.0,0.0,0.0,0.0,0.0,2.2466567312195984e-05,4.785303926835294e-06,-7.367493310510287e-05,-1.670437201228836e-06,-0.0001197165933397859,4.76837158203125e-06,-8.138027479676069e-07,0.00013714391315018467,0.0002463355136084569,0.0009698653444038731,-0.00025467203482282307,-3.691776930479277e-05,0.00013573963285965588,0.0010793547768545191,0.22445029020309448,11.699365615844727,-1.1164276599884033,-21.717256546020508,-0.5102439522743225,-2.5271639823913574,0.18710653483867645,0
51,0.24999499320983887,-0.22445029020309448,-11.675561904907227,1.0688202381134033,21.693452835083008,0.5166526436805725,2.5335726737976074,-0.20724813640117645,0.0,0.0,0.0,0.0,0.0,0.0,0.0,-0.23048369654303427,0.6205841937786899,-0.1200492229447994,0.4023651365587204,-0.021236890957787864,0.12278103623809287,-0.2216834085429314,0.1728570993130701,-0.48752670289232586,-0.11139408492414574,-1.946374461291129,0.13372490642468132,2.595544879330529,0.9452476107196676,0.1728802376190821,-0.48752024683155326,-0.11147110072896137,-1.9463801863486305,0.1336059019074957,2.595550359778934,0.9452445589611904,-0.00013668110902547088,-0.0004136321376862101,0.00035774164667503504,0.0001321683194626127,-0.00015759022574356413,-0.0005997922842894526,-0.000514026636400693,0.0,0.0,0.0,0.0,0.0,0.0,0.0,2.31383060119994e-05,6.456060772597194e-06,-7.701580481563053e-05,-5.7250575016265515e-06,-0.00011900451718563354,5.480448404870941e-06,-3.051758477146116e-06,0.00013668110902547088,0.0004136321376862101,-0.00035774164667503504,-0.0001321683194626127,0.00015759022574356413,0.0005997922842894526,0.000514026636400693,0.22445029020309448,11.675561904907227,-1.0688202381134033,-21.693452835083008,-0.5166526436805725,-2.5335726737976074,0.20724813640117645,0
52,0.2550239562988281,-0.22445029020309448,-11.675561904907227,1.0688202381134033,21.693452835083008,0.5166526436805725,2.5335726737976074,-0.20724813640117645,0.0,0.0,0.0,0.0,0.0,0.0,0.0,-0.23048369654303427,0.6205841937786899,-0.1200492229447994,0.4023651365587204,-0.021236890957787864,0.12278103623809287,-0.2216834085429314,0.1728570993130701,-0.48752670289232586,-0.11139408492414574,-1.946374461291129,0.13372490642468132,2.595544879330529,0.9452476107196676,0.1728802376190821,-0.48752024683155326,-0.11147110072896137,-1.9463801863486305,0.1336059019074957,2.595550359778934,0.9452445589611904,-0.00013668110902547088,-0.0004136321376862101,0.00035774164667503504,0.0001321683194626127,-0.00015759022574356413,-0.0005997922842894526,-0.000514026636400693,0.0,0.0,0.0,0.0,0.0,0.0,0.0,2.31383060119994e-05,6.456060772597194e-06,-7.701580481563053e-05,-5.7250575016265515e-06,-0.00011900451718563354,5.480448404870941e-06,-3.051758477146116e-06,0.00013668110902547088,0.0004136321376862101,-0.00035774164667503504,-0.0001321683194626127,0.00015759022574356413,0.0005997922842894526,0.000514026636400693,0.22445029020309448,11.675561904907227,-1.0688202381134033,-21.693452835083008,-0.5166526436805725,-2.5335726737976074,0.20724813640117645,0
53,0.2600080966949463,-0.22445029020309448,-11.727136611938477,1.1164276599884033,21.669649124145508,0.5047507882118225,2.5271639823913574,-0.19351522624492645,0.0,0.0,0.0,0.0,0.0,0.0,0.0,-0.22929880619148296,0.6117550889177128,-0.11619216001096686,0.40951062748157463,-0.02131849022632318,0.12343351090595024,-0.2229121775037568,0.17285926603486765,-0.48752309196044225,-0.11139742579585626,-1.9463751661972883,0.13372622885306673,2.595545591407352,0.9452460848407613,0.1728802376190821,-0.48752024683155326,-0.11147110072896137,-1.9463801863486305,0.1336059019074957,2.595550359778934,0.9452445589611904,-1.991143069832255e-05,0.0007647206226063156,-0.0007904826712217836,0.0003297932999806967,0.00010667078057715414,-1.089360965072913e-05,-0.001326451000312196,0.0,0.0,0.0,0.0,0.0,0.0,0.0,2.09715842144631e-05,2.8451288889841386e-06,-7.367493310510287e-05,-5.0201513421832544e-06,-0.00012032694557104207,4.76837158203125e-06,-1.5258795709183204e-06,1.991143069832255e-05,-0.0007647206226063156,0.0007904826712217836,-0.0003297932999806967,-0.00010667078057715414,1.089360965072913e-05,0.001326451000312196,0.22445029020309448,11.727136611938477,-1.1164276599884033,-21.669649124145508,-0.5047507882118225,-2.5271639823913574,0.19351522624492645,0
54,0.2650017738342285,-0.22445029020309448,-11.727136611938477,1.1164276599884033,21.669649124145508,0.5047507882118225,2.5271639823913574,-0.19351522624492645,0.0,0.0,0.0,0.0,0.0,0.0,0.0,-0.22929880619148296,0.6117550889177128,-0.11619216001096686,0.40951062748157463,-0.02131849022632318,0.12343351090595024,-0.2229121775037568,0.17285926603486765,-0.48752309196044225,-0.11139742579585626,-1.9463751661972883,0.13372622885306673,2.595545591407352,0.9452460848407613,0.1728802376190821,-0.48752024683155326,-0.11147110072896137,-1.9463801863486305,0.1336059019074957,2.595550359778934,0.9452445589611904,-1.991143069832255e-05,0.0007647206226063156,-0.0007904826712217836,0.0003297932999806967,0.00010667078057715414,-1.089360965072913e-05,-0.001326451000312196,0.0,0.0,0.0,0.0,0.0,0.0,0.0,2.09715842144631e-05,2.8451288889841386e-06,-7.367493310510287e-05,-5.0201513421832544e-06,-0.00012032694557104207,4.76837158203125e-06,-1.5258795709183204e-06,1.991143069832255e-05,-0.0007647206226063156,0.0007904826712217836,-0.0003297932999806967,-0.00010667078057715414,1.089360965072913e-05,0.001326451000312196,0.22445029020309448,11.727136611938477,-1.1164276599884033,-21.669649124145508,-0.5047507882118225,-2.5271639823913574,0.19351522624492645,0
55,0.2700037956237793,-0.22445029020309448,-11.727136611938477,1.1164276599884033,21.669649124145508,0.5047507882118225,2.5271639823913574,-0.19351522624492645,0.0,0.0,0.0,0.0,0.0,0.0,0.0,-0.22929880619148296,0.6117550889177128,-0.11619216001096686,0.40951062748157463,-0.02131849022632318,0.12343351090595024,-0.2229121775037568,0.17285926603486765,-0.48752309196044225,-0.11139742579585626,-1.9463751661972883,0.13372622885306673,2.595545591407352,0.9452460848407613,0.1728802376190821,-0.48752024683155326,-0.11147110072896137,-1.9463801863486305,0.1336059019074957,2.595550359778934,0.9452445589611904,-1.991143069832255e-05,0.0007647206226063156,-0.0007904826712217836,0.0003297932999806967,0.00010667078057715414,-1.089360965072913e-05,-0.001326451000312196,0.0,0.0,0.0,0.0,0.0,0.0,0.0,2.09715842144631e-05,2.8451288889841386e-06,-7.367493310510287e-05,-5.0201513421832544e-06,-0.00012032694557104207,4.76837158203125e-06,-1.5258795709183204e-06,1.991143069832255e-05,-0.0007647206226063156,0.0007904826712217836,-0.0003297932999806967,-0.00010667078057715414,1.089360965072913e-05,0.001326451000312196,0.22445029020309448,11.727136611938477,-1.1164276599884033,-21.669649124145508,-0.5047507882118225,-2.5271639823913574,0.19351522624492645,0
56,0.27502918243408203,-0.22445029020309448,-11.727136611938477,1.1164276599884033,21.669649124145508,0.5047507882118225,2.5271639823913574,-0.19351522624492645,0.0,0.0,0.0,0.0,0.0,0.0,0.0,-0.22929880619148296,0.6117550889177128,-0.11619216001096686,0.40951062748157463,-0.02131849022632318,0.12343351090595024,-0.2229121775037568,0.17285926603486765,-0.48752309196044225,-0.11139742579585626,-1.9463751661972883,0.13372622885306673,2.595545591407352,0.9452460848407613,0.1728802376190821,-0.48752024683155326,-0.11147110072896137,-1.9463801863486305,0.1336059019074957,2.595550359778934,0.9452445589611904,-1.991143069832255e-05,0.0007647206226063156,-0.0007904826712217836,0.0003297932999806967,0.00010667078057715414,-1.089360965072913e-05,-0.001326451000312196,0.0,0.0,0.0,0.0,0.0,0.0,0.0,2.09715842144631e-05,2.8451288889841386e-06,-7.367493310510287e-05,-5.0201513421832544e-06,-0.00012032694557104207,4.76837158203125e-06,-1.5258795709183204e-06,1.991143069832255e-05,-0.0007647206226063156,0.0007904826712217836,-0.0003297932999806967,-0.00010667078057715414,1.089360965072913e-05,0.001326451000312196,0.22445029020309448,11.727136611938477,-1.1164276599884033,-21.669649124145508,-0.5047507882118225,-2.5271639823913574,0.19351522624492645,0
57,0.2800438404083252,-0.22445029020309448,-11.727136611938477,1.0410492420196533,21.693452835083008,0.5047507882118225,2.5207552909851074,-0.24844686686992645,0.0,0.0,0.0,0.0,0.0,0.0,0.0,-0.23120284550686754,0.6120350809600463,-0.11755389871951348,0.41128031429406436,-0.021427017976196915,0.12472824222705337,-0.2239036741639973,0.1728570715637467,-0.487523083293696,-0.11139213608231459,-1.9463768454768702,0.1337261893619235,2.595546303484175,0.9452521883563862,0.1728802376190821,-0.48752024683155326,-0.11147110072896137,-1.9463801863486305,0.1336059019074957,2.595550359778934,0.9452445589611904,-0.000299015237672593,0.0007151444341590346,0.0011141552331892638,0.00016100516737848968,0.00038342903525523815,0.00016712550782881997,0.0014506628831827306,0.0,0.0,0.0,0.0,0.0,0.0,0.0,2.316605533542182e-05,2.836462142719043e-06,-7.89646466467786e-05,-3.340871760348918e-06,-0.00012028745442779765,4.056294759191559e-06,-7.629395195829503e-06,0.000299015237672593,-0.0007151444341590346,-0.0011141552331892638,-0.00016100516737848968,-0.00038342903525523815,-0.00016712550782881997,-0.0014506628831827306,0.22445029020309448,11.727136611938477,-1.0410492420196533,-21.693452835083008,-0.5047507882118225,-2.5207552909851074,0.24844686686992645,0
58,0.2850172519683838,-0.22445029020309448,-11.727136611938477,1.0410492420196533,21.693452835083008,0.5047507882118225,2.5207552909851074,-0.24844686686992645,0.0,0.0,0.0,0.0,0.0,0.0,0.0,-0.23120284550686754,0.6120350809600463,-0.11755389871951348,0.41128031429406436,-0.021427017976196915,0.12472824222705337,-0.2239036741639973,0.1728570715637467,-0.487523083293696,-0.11139213608231459,-1.9463768454768702,0.1337261893619235,2.595546303484175,0.9452521883563862,0.1728802376190821,-0.48752024683155326,-0.11147110072896137,-1.9463801863486305,0.1336059019074957,2.595550359778934,0.9452445589611904,-0.000299015237672593,0.0007151444341590346,0.0011141552331892638,0.00016100516737848968,0.00038342903525523815,0.00016712550782881997,0.0014506628831827306,0.0,0.0,0.0,0.0,0.0,0.0,0.0,2.316605533542182e-05,2.836462142719043e-06,-7.89646466467786e-05,-3.340871760348918e-06,-0.00012028745442779765,4.056294759191559e-06,-7.629395195829503e-06,0.000299015237672593,-0.0007151444341590346,-0.0011141552331892638,-0.00016100516737848968,-0.00038342903525523815,-0.00016712550782881997,-0.0014506628831827306,0.22445029020309448,11.727136611938477,-1.0410492420196533,-21.693452835083008,-0.5047507882118225,-2.5207552909851074,0.24844686686992645,0
59,0.29002833366394043,-0.24825400114059448,-11.651758193969727,1.0410492420196533,21.693452835083008,0.5047507882118225,2.5271639823913574,-0.23471395671367645,0.0,0.0,0.0,0.0,0.0,0.0,0.0,-0.23330791680938479,0.6127220142661625,-0.11658070185704818,0.40848581946067347,-0.02123395696105821,0.12507492054135838,-0.22485012580988684,0.17286109495263005,-0.48752845100832887,-0.11139213608231459,-1.946374699709708,0.13372622885284383,2.595545591407352,0.94525066247748,0.1728802376190821,-0.48752024683155326,-0.11147110072896137,-1.9463801863486305,0.1336059019074957,2.595550359778934,0.9452445589611904,-0.0001956993851885918,-0.0013918071513090435,0.0010111500806055417,-0.00012405285662493747,0.0004908428718618505,-5.033996604613631e-05,0.0007193706742765066,0.0,0.0,0.0,0.0,0.0,0.0,0.0,1.9142666452059975e-05,8.20417677560581e-06,-7.89646466467786e-05,-5.486638922524989e-06,-0.00012032694534813704,4.76837158203125e-06,-6.103516289601707e-06,0.0001956993851885918,0.0013918071513090435,-0.0010111500806055417,0.00012405285662493747,-0.0004908428718618505,5.033996604613631e-05,-0.0007193706742765066,0.24825400114059448,11.651758193969727,-1.0410492420196533,-21.693452835083008,-0.5047507882118225,-2.5271639823913574,0.23471395671367645,0
60,0.2950475215911865,-0.24825400114059448,-11.651758193969727,1.0410492420196533,21.693452835083008,0.5047507882118225,2.5271639823913574,-0.23471395671367645,0.0,0.0,0.0,0.0,0.0,0.0,0.0,-0.23330791680938479,0.6127220142661625,-0.11658070185704818,0.40848581946067347,-0.02123395696105821,0.12507492054135838,-0.22485012580988684,0.17286109495263005,-0.48752845100832887,-0.11139213608231459,-1.946374699709708,0.13372622885284383,2.595545591407352,0.94525066247748,0.1728802376190821,-0.48752024683155326,-0.11147110072896137,-1.9463801863486305,0.1336059019074957,2.595550359778934,0.9452445589611904,-0.0001956993851885918,-0.0013918071513090435,0.0010111500806055417,-0.00012405285662493747,0.0004908428718618505,-5.033996604613631e-05,0.0007193706742765066,0.0,0.0,0.0,0.0,0.0,0.0,0.0,1.9142666452059975e-05,8.20417677560581e-06,-7.89646466467786e-05,-5.486638922524989e-06,-0.00012032694534813704,4.76837158203125e-06,-6.103516289601707e-06,0.0001956993851885918,0.0013918071513090435,-0.0010111500806055417,0.00012405285662493747,-0.0004908428718618505,5.033996604613631e-05,-0.0007193706742765066,0.24825400114059448,11.651758193969727,-1.0410492420196533,-21.693452835083008,-0.5047507882118225,-2.5271639823913574,0.23471395671367645,0
61,0.3000349998474121,-0.24825400114059448,-11.699365615844727,1.0688202381134033,21.717256546020508,0.4983420968055725,2.5207552909851074,-0.17337362468242645,0.0,0.0,0.0,0.0,0.0,0.0,0.0,-0.23536494177312245,0.6061414599829871,-0.11608479600641328,0.4090823142190703,-0.020784876466403788,0.12608893968988916,-0.22513570231976854,0.17285944374773635,-0.4875250321367992,-0.11139408492414574,-1.9463785158764364,0.13372694092988965,2.595546303484175,0.9452438468850322,0.1728802376190821,-0.48752024683155326,-0.11147110072896137,-1.9463801863486305,0.1336059019074957,2.595550359778934,0.9452445589611904,0.00021969315287595294,-0.0008318005285209105,6.369399142443604e-07,-0.0006413972996420856,0.0005658655803691023,0.0002029617167526829,-0.0038072531658222327,0.0,0.0,0.0,0.0,0.0,0.0,0.0,2.0793871345764492e-05,4.78530524594678e-06,-7.701580481563053e-05,-1.6704721941263045e-06,-0.00012103902239396502,4.056294759191559e-06,7.120761582601887e-07,-0.00021969315287595294,0.0008318005285209105,-6.369399142443604e-07,0.0006413972996420856,-0.0005658655803691023,-0.0002029617167526829,0.0038072531658222327,0.24825400114059448,11.699365615844727,-1.0688202381134033,-21.717256546020508,-0.4983420968055725,-2.5207552909851074,0.17337362468242645,0
62,0.30501723289489746,-0.24825400114059448,-11.699365615844727,1.0688202381134033,21.717256546020508,0.4983420968055725,2.5207552909851074,-0.17337362468242645,0.0,0.0,0.0,0.0,0.0,0.0,0.0,-0.23536494177312245,0.6061414599829871,-0.11608479600641328,0.4090823142190703,-0.020784876466403788,0.12608893968988916,-0.22513570231976854,0.17285944374773635,-0.4875250321367992,-0.11139408492414574,-1.9463785158764364,0.13372694092988965,2.595546303484175,0.9452438468850322,0.1728802376190821,-0.48752024683155326,-0.11147110072896137,-1.9463801863486305,0.1336059019074957,2.595550359778934,0.9452445589611904,0.00021969315287595294,-0.0008318005285209105,6.369399142443604e-07,-0.0006413972996420856,0.0005658655803691023,0.0002029617167526829,-0.0038072531658222327,0.0,0.0,0.0,0.0,0.0,0.0,0.0,2.0793871345764492e-05,4.78530524594678e-06,-7.701580481563053e-05,-1.6704721941263045e-06,-0.00012103902239396502,4.056294759191559e-06,7.120761582601887e-07,-0.00021969315287595294,0.0008318005285209105,-6.369399142443604e-07,0.0006413972996420856,-0.0005658655803691023,-0.0002029617167526829,0.0038072531658222327,0.24825400114059448,11.699365615844727,-1.0688202381134033,-21.717256546020508,-0.4983420968055725,-2.5207552909851074,0.17337362468242645,0
63,0.3100097179412842,-0.24825400114059448,-11.774744033813477,1.0688202381134033,21.669649124145508,0.5166526436805725,2.5335726737976074,-0.19351522624492645,0.0,0.0,0.0,0.0,0.0,0.0,0.0,-0.23577384422362474,0.6111650925327069,-0.11822702811899993,0.40381135035904725,-0.02146434379512465,0.1256352180250028,-0.22523473507728947,0.1728594676892581,-0.4875197424219366,-0.11139408492414574,-1.9463751750410647,0.13372490642468132,2.595544879330529,0.9452460848407613,0.1728802376190821,-0.48752024683155326,-0.11147110072896137,-1.9463801863486305,0.1336059019074957,2.595550359778934,0.9452445589611904,0.00026796906999830127,0.0009428042721286962,0.0002945899200740934,0.0007385179916167087,-4.5185742591442814e-05,-0.0003597436170841218,-0.0008308142394832939,0.0,0.0,0.0,0.0,0.0,0.0,0.0,2.076992982399939e-05,-5.044096166861856e-07,-7.701580481563053e-05,-5.011307565805367e-06,-0.00011900451718563354,5.480448404870941e-06,-1.5258795709183204e-06,-0.00026796906999830127,-0.0009428042721286962,-0.0002945899200740934,-0.0007385179916167087,4.5185742591442814e-05,0.0003597436170841218,0.0008308142394832939,0.24825400114059448,11.774744033813477,-1.0688202381134033,-21.669649124145508,-0.5166526436805725,-2.5335726737976074,0.19351522624492645,0
64,0.31503868103027344,-0.24825400114059448,-11.774744033813477,1.0688202381134033,21.669649124145508,0.5166526436805725,2.5335726737976074,-0.19351522624492645,0.0,0.0,0.0,0.0,0.0,0.0,0.0,-0.23577384422362474,0.6111650925327069,-0.11822702811899993,0.40381135035904725,-0.02146434379512465,0.1256352180250028,-0.22523473507728947,0.1728594676892581,-0.4875197424219366,-0.11139408492414574,-1.9463751750410647,0.13372490642468132,2.595544879330529,0.9452460848407613,0.1728802376190821,-0.48752024683155326,-0.11147110072896137,-1.9463801863486305,0.1336059019074957,2.595550359778934,0.9452445589611904,0.00026796906999830127,0.0009428042721286962,0.0002945899200740934,0.0007385179916167087,-4.5185742591442814e-05,-0.0003597436170841218,-0.0008308142394832939,0.0,0.0,0.0,0.0,0.0,0.0,0.0,2.076992982399939e-05,-5.044096166861856e-07,-7.701580481563053e-05,-5.011307565805367e-06,-0.00011900451718563354,5.480448404870941e-06,-1.5258795709183204e-06,-0.00026796906999830127,-0.0009428042721286962,-0.0002945899200740934,-0.0007385179916167087,4.5185742591442814e-05,0.0003597436170841218,0.0008308142394832939,0.24825400114059448,11.774744033813477,-1.0688202381134033,-21.669649124145508,-0.5166526436805725,-2.5335726737976074,0.19351522624492645,0
65,0.31999754905700684,-0.24825400114059448,-11.750940322875977,1.0688202381134033,21.717256546020508,0.5166526436805725,2.5143465995788574,-0.24112264811992645,0.0,0.0,0.0,0.0,0.0,0.0,0.0,-0.23769014349741835,0.6045840971460503,-0.12064318803803874,0.4051976305254735,-0.021280889695487058,0.12539993741082153,-0.22513454655659318,0.17285905585924158,-0.4875214128577918,-0.11139408492414574,-1.946378277494196,0.13372490642468132,2.5955470155609977,0.945251374554303,0.1728802376190821,-0.48752024683155326,-0.11147110072896137,-1.9463801863486305,0.1336059019074957,2.595550359778934,0.9452445589611904,0.0001814600013415929,-0.00014288381963137764,-0.00010284764100319802,-0.00010567401216004981,0.00011231330276570694,0.00018981939471569547,0.0010840748197920476,0.0,0.0,0.0,0.0,0.0,0.0,0.0,2.1181759840532832e-05,1.1660262385637665e-06,-7.701580481563053e-05,-1.908854434518048e-06,-0.00011900451718563354,3.3442179363518676e-06,-6.8155931125524205e-06,-0.0001814600013415929,0.00014288381963137764,0.00010284764100319802,0.00010567401216004981,-0.00011231330276570694,-0.00018981939471569547,-0.0010840748197920476,0.24825400114059448,11.750940322875977,-1.0688202381134033,-21.717256546020508,-0.5166526436805725,-2.5143465995788574,0.24112264811992645,0
66,0.32501745223999023,-0.24825400114059448,-11.750940322875977,1.0688202381134033,21.717256546020508,0.5166526436805725,2.5143465995788574,-0.24112264811992645,0.0,0.0,0.0,0.0,0.0,0.0,0.0,-0.23769014349741835,0.6045840971460503,-0.12064318803803874,0.4051976305254735,-0.021280889695487058,0.12539993741082153,-0.22513454655659318,0.17285905585924158,-0.4875214128577918,-0.11139408492414574,-1.946378277494196,0.13372490642468132,2.5955470155609977,0.945251374554303,0.1728802376190821,-0.48752024683155326,-0.11147110072896137,-1.9463801863486305,0.1336059019074957,2.595550359778934,0.9452445589611904,0.0001814600013415929,-0.00014288381963137764,-0.00010284764100319802,-0.00010567401216004981,0.00011231330276570694,0.00018981939471569547,0.0010840748197920476,0.0,0.0,0.0,0.0,0.0,0.0,0.0,2.1181759840532832e-05,1.1660262385637665e-06,-7.701580481563053e-05,-1.908854434518048e-06,-0.00011900451718563354,3.3442179363518676e-06,-6.8155931125524205e-06,-0.0001814600013415929,0.00014288381963137764,0.00010284764100319802,0.00010567401216004981,-0.00011231330276570694,-0.00018981939471569547,-0.0010840748197920476,0.24825400114059448,11.750940322875977,-1.0688202381134033,-21.717256546020508,-0.5166526436805725,-2.5143465995788574,0.24112264811992645,0
67,0.3300652503967285,-0.22445029020309448,-11.699365615844727,1.0688202381134033,21.741060256958008,0.5166526436805725,2.5207552909851074,-0.22098104655742645,0.0,0.0,0.0,0.0,0.0,0.0,0.0,-0.23737780831191446,0.6199663370412563,-0.1226579157471453,0.3966868327518609,-0.020845727805427552,0.12288822686884443,-0.22485384736596947,0.17285737778857688,-0.48752503213547826,-0.11139408492414574,-1.9463801863472847,0.13372490642468132,2.595546303484175,0.9452491365985738,0.1728802376190821,-0.48752024683155326,-0.11147110072896137,-1.9463801863486305,0.1336059019074957,2.595550359778934,0.9452445589611904,-0.0006251536439990654,-0.00030187494695619655,0.00012374138916072688,-0.001009912354227866,-0.00017048433692802093,2.5058528166594658e-05,0.0010490002040936862,0.0,0.0,0.0,0.0,0.0,0.0,0.0,2.2859830505234102e-05,4.785303925003426e-06,-7.701580481563053e-05,-1.3458123504506148e-12,-0.00011900451718563354,4.056294759191559e-06,-4.5776373833739115e-06,0.0006251536439990654,0.00030187494695619655,-0.00012374138916072688,0.001009912354227866,0.00017048433692802093,-2.5058528166594658e-05,-0.0010490002040936862,0.22445029020309448,11.699365615844727,-1.0688202381134033,-21.741060256958008,-0.5166526436805725,-2.5207552909851074,0.22098104655742645,0
68,0.3350698947906494,-0.22445029020309448,-11.699365615844727,1.0688202381134033,21.741060256958008,0.5166526436805725,2.5207552909851074,-0.22098104655742645,0.0,0.0,0.0,0.0,0.0,0.0,0.0,-0.23737780831191446,0.6199663370412563,-0.1226579157471453,0.3966868327518609,-0.020845727805427552,0.12288822686884443,-0.22485384736596947,0.17285737778857688,-0.48752503213547826,-0.11139408492414574,-1.9463801863472847,0.13372490642468132,2.595546303484175,0.9452491365985738,0.1728802376190821,-0.48752024683155326,-0.11147110072896137,-1.9463801863486305,0.1336059019074957,2.595550359778934,0.9452445589611904,-0.0006251536439990654,-0.00030187494695619655,0.00012374138916072688,-0.001009912354227866,-0.00017048433692802093,2.5058528166594658e-05,0.0010490002040936862,0.0,0.0,0.0,0.0,0.0,0.0,0.0,2.2859830505234102e-05,4.785303925003426e-06,-7.701580481563053e-05,-1.3458123504506148e-12,-0.00011900451718563354,4.056294759191559e-06,-4.5776373833739115e-06,0.0006251536439990654,0.00030187494695619655,-0.00012374138916072688,0.001009912354227866,0.00017048433692802093,-2.5058528166594658e-05,-0.0010490002040936862,0.22445029020309448,11.699365615844727,-1.0688202381134033,-21.741060256958008,-0.5166526436805725,-2.5207552909851074,0.22098104655742645,0
69,0.3400716781616211,-0.2720577120780945,-11.727136611938477,1.0688202381134033,21.669649124145508,0.5102439522743225,2.5271639823913574,-0.22830526530742645,0.0,0.0,0.0,0.0,0.0,0.0,0.0,-0.2353040397428413,0.6132724028898432,-0.12068475447216763,0.40433855174980665,-0.02065586950782153,0.12339705923395232,-0.22305830674769905,0.1728606681130345,-0.4875230832936471,-0.11139408492414574,-1.9463751750410647,0.13372561850150425,2.595545591407352,0.9452499504006571,0.1728802376190821,-0.48752024683155326,-0.11147110072896137,-1.9463801863486305,0.1336059019074957,2.595550359778934,0.9452445589611904,0.0010007843056501716,0.0008440682261476216,0.00025383426703715057,0.0009514226353020031,8.724212707968203e-05,-5.562826814966419e-05,0.0007171304866213252,0.0,0.0,0.0,0.0,0.0,0.0,0.0,1.9569506047617535e-05,2.8364620938137186e-06,-7.701580481563053e-05,-5.011307565805367e-06,-0.0001197165940085565,4.76837158203125e-06,-5.3914394666509935e-06,-0.0010007843056501716,-0.0008440682261476216,-0.00025383426703715057,-0.0009514226353020031,-8.724212707968203e-05,5.562826814966419e-05,-0.0007171304866213252,0.2720577120780945,11.727136611938477,-1.0688202381134033,-21.669649124145508,-0.5102439522743225,-2.5271639823913574,0.22830526530742645,0
70,0.3450653553009033,-0.2720577120780945,-11.727136611938477,1.0688202381134033,21.669649124145508,0.5102439522743225,2.5271639823913574,-0.22830526530742645,0.0,0.0,0.0,0.0,0.0,0.0,0.0,-0.2353040397428413,0.6132724028898432,-0.12068475447216763,0.40433855174980665,-0.02065586950782153,0.12339705923395232,-0.22305830674769905,0.1728606681130345,-0.4875230832936471,-0.11139408492414574,-1.9463751750410647,0.13372561850150425,2.595545591407352,0.9452499504006571,0.1728802376190821,-0.48752024683155326,-0.11147110072896137,-1.9463801863486305,0.1336059019074957,2.595550359778934,0.9452445589611904,0.0010007843056501716,0.0008440682261476216,0.00025383426703715057,0.0009514226353020031,8.724212707968203e-05,-5.562826814966419e-05,0.0007171304866213252,0.0,0.0,0.0,0.0,0.0,0.0,0.0,1.9569506047617535e-05,2.8364620938137186e-06,-7.701580481563053e-05,-5.011307565805367e-06,-0.0001197165940085565,4.76837158203125e-06,-5.3914394666509935e-06,-0.0010007843056501716,-0.0008440682261476216,-0.00025383426703715057,-0.0009514226353020031,-8.724212707968203e-05,5.562826814966419e-05,-0.0007171304866213252,0.2720577120780945,11.727136611938477,-1.0688202381134033,-21.669649124145508,-0.5102439522743225,-2.5271639823913574,0.22830526530742645,0
71,0.35001134872436523,-0.22445029020309448,-11.699365615844727,1.0926239490509033,21.693452835083008,0.5047507882118225,2.5271639823913574,-0.18710653483867645,0.0,0.0,0.0,0.0,0.0,0.0,0.0,-0.24231081568430304,0.597722087692282,-0.1277824182903957,0.4125246107584835,-0.020675761437800234,0.1251203029918288,-0.2226139817943225,0.1728591961917191,-0.48752503213547826,-0.111395755360001,-1.94637684547692,0.13372622885306673,2.595545591407352,0.9452453727101032,0.1728802376190821,-0.48752024683155326,-0.11147110072896137,-1.9463801863486305,0.1336059019074957,2.595550359778934,0.9452445589611904,-0.0005883856989350278,-0.0006741041766790973,-0.0008208404530525346,-1.0981119756585849e-05,0.00024781497952006224,-6.092245835170138e-05,-0.0005559602829824266,0.0,0.0,0.0,0.0,0.0,0.0,0.0,2.1041427363005516e-05,4.785303925003426e-06,-7.53453689603667e-05,-3.3408717106109265e-06,-0.00012032694557104207,4.76837158203125e-06,-8.137489128090536e-07,0.0005883856989350278,0.0006741041766790973,0.0008208404530525346,1.0981119756585849e-05,-0.00024781497952006224,6.092245835170138e-05,0.0005559602829824266,0.22445029020309448,11.699365615844727,-1.0926239490509033,-21.693452835083008,-0.5047507882118225,-2.5271639823913574,0.18710653483867645,0
72,0.35547471046447754,-0.22445029020309448,-11.699365615844727,1.0926239490509033,21.693452835083008,0.5047507882118225,2.5271639823913574,-0.18710653483867645,0.0,0.0,0.0,0.0,0.0,0.0,0.0,-0.24231081568430304,0.597722087692282,-0.1277824182903957,0.4125246107584835,-0.020675761437800234,0.1251203029918288,-0.2226139817943225,0.1728591961917191,-0.48752503213547826,-0.111395755360001,-1.94637684547692,0.13372622885306673,2.595545591407352,0.9452453727101032,0.1728802376190821,-0.48752024683155326,-0.11147110072896137,-1.9463801863486305,0.1336059019074957,2.595550359778934,0.9452445589611904,-0.0005883856989350278,-0.0006741041766790973,-0.0008208404530525346,-1.0981119756585849e-05,0.00024781497952006224,-6.092245835170138e-05,-0.0005559602829824266,0.0,0.0,0.0,0.0,0.0,0.0,0.0,2.1041427363005516e-05,4.785303925003426e-06,-7.53453689603667e-05,-3.3408717106109265e-06,-0.00012032694557104207,4.76837158203125e-06,-8.137489128090536e-07,0.0005883856989350278,0.0006741041766790973,0.0008208404530525346,1.0981119756585849e-05,-0.00024781497952006224,6.092245835170138e-05,0.0005559602829824266,0.22445029020309448,11.699365615844727,-1.0926239490509033,-21.693452835083008,-0.5047507882118225,-2.5271639823913574,0.18710653483867645,0
73,0.3600311279296875,-0.22445029020309448,-11.727136611938477,1.0926239490509033,21.741060256958008,0.5102439522743225,2.5207552909851074,-0.19351522624492645,0.0,0.0,0.0,0.0,0.0,0.0,0.0,-0.23581460065638332,0.5975060044233336,-0.11778273742061672,0.4128776621140273,-0.021729565686928704,0.12530908572108704,-0.22117815560556017,0.17285737747477814,-0.4875230832936471,-0.111395755360001,-1.9463801863486305,0.13372561850150425,2.595546303484175,0.945246084840761,0.1728802376190821,-0.48752024683155326,-0.11147110072896137,-1.9463801863486305,0.1336059019074957,2.595550359778934,0.9452445589611904,0.00025887831185749993,0.00010279928399952248,-0.00016819720523539232,-0.0009536352416115513,-6.656144688636177e-05,0.0001081168439504802,-0.0012073043199163137,0.0,0.0,0.0,0.0,0.0,0.0,0.0,2.2860144303971097e-05,2.8364620938137186e-06,-7.53453689603667e-05,0.0,-0.0001197165940085565,4.056294759191559e-06,-1.5258795705852535e-06,-0.00025887831185749993,-0.00010279928399952248,0.00016819720523539232,0.0009536352416115513,6.656144688636177e-05,-0.0001081168439504802,0.0012073043199163137,0.22445029020309448,11.727136611938477,-1.0926239490509033,-21.741060256958008,-0.5102439522743225,-2.5207552909851074,0.19351522624492645,0
74,0.3650333881378174,-0.22445029020309448,-11.727136611938477,1.0926239490509033,21.741060256958008,0.5102439522743225,2.5207552909851074,-0.19351522624492645,0.0,0.0,0.0,0.0,0.0,0.0,0.0,-0.23581460065638332,0.5975060044233336,-0.11778273742061672,0.4128776621140273,-0.021729565686928704,0.12530908572108704,-0.22117815560556017,0.17285737747477814,-0.4875230832936471,-0.111395755360001,-1.9463801863486305,0.13372561850150425,2.595546303484175,0.945246084840761,0.1728802376190821,-0.48752024683155326,-0.11147110072896137,-1.9463801863486305,0.1336059019074957,2.595550359778934,0.9452445589611904,0.00025887831185749993,0.00010279928399952248,-0.00016819720523539232,-0.0009536352416115513,-6.656144688636177e-05,0.0001081168439504802,-0.0012073043199163137,0.0,0.0,0.0,0.0,0.0,0.0,0.0,2.2860144303971097e-05,2.8364620938137186e-06,-7.53453689603667e-05,0.0,-0.0001197165940085565,4.056294759191559e-06,-1.5258795705852535e-06,-0.00025887831185749993,-0.00010279928399952248,0.00016819720523539232,0.0009536352416115513,6.656144688636177e-05,-0.0001081168439504802,0.0012073043199163137,0.22445029020309448,11.727136611938477,-1.0926239490509033,-21.741060256958008,-0.5102439522743225,-2.5207552909851074,0.19351522624492645,0
75,0.3700222969055176,-0.24825400114059448,-11.627954483032227,1.0926239490509033,21.693452835083008,0.5102439522743225,2.5207552909851074,-0.17978231608867645,0.0,0.0,0.0,0.0,0.0,0.0,0.0,-0.23399332513295582,0.6243259722975015,-0.11851013600206514,0.3998767923026584,-0.02215899189794599,0.12313769366008824,-0.22162784467910798,0.17285873216031683,-0.48753004376403636,-0.111395755360001,-1.9463768454405812,0.1337257366070041,2.595546303484175,0.945244558961855,0.1728802376190821,-0.48752024683155326,-0.11147110072896137,-1.9463801863486305,0.1336059019074957,2.595550359778934,0.9452445589611904,0.0003963731373867413,-0.0015031345125367961,0.0003444477165453917,-0.0002519527910537246,0.00013553200587092254,0.00020312703854387273,-0.0017645237171006435,0.0,0.0,0.0,0.0,0.0,0.0,0.0,2.150545876528076e-05,9.796932483097098e-06,-7.53453689603667e-05,-3.3409080493207455e-06,-0.00011983469950840875,4.056294759191559e-06,-6.645795025406187e-13,-0.0003963731373867413,0.0015031345125367961,-0.0003444477165453917,0.0002519527910537246,-0.00013553200587092254,-0.00020312703854387273,0.0017645237171006435,0.24825400114059448,11.627954483032227,-1.0926239490509033,-21.693452835083008,-0.5102439522743225,-2.5207552909851074,0.17978231608867645,0
76,0.3750474452972412,-0.24825400114059448,-11.627954483032227,1.0926239490509033,21.693452835083008,0.5102439522743225,2.5207552909851074,-0.17978231608867645,0.0,0.0,0.0,0.0,0.0,0.0,0.0,-0.23399332513295582,0.6243259722975015,-0.11851013600206514,0.3998767923026584,-0.02215899189794599,0.12313769366008824,-0.22162784467910798,0.17285873216031683,-0.48753004376403636,-0.111395755360001,-1.9463768454405812,0.1337257366070041,2.595546303484175,0.945244558961855,0.1728802376190821,-0.48752024683155326,-0.11147110072896137,-1.9463801863486305,0.1336059019074957,2.595550359778934,0.9452445589611904,0.0003963731373867413,-0.0015031345125367961,0.0003444477165453917,-0.0002519527910537246,0.00013553200587092254,0.00020312703854387273,-0.0017645237171006435,0.0,0.0,0.0,0.0,0.0,0.0,0.0,2.150545876528076e-05,9.796932483097098e-06,-7.53453689603667e-05,-3.3409080493207455e-06,-0.00011983469950840875,4.056294759191559e-06,-6.645795025406187e-13,-0.0003963731373867413,0.0015031345125367961,-0.0003444477165453917,0.0002519527910537246,-0.00013553200587092254,-0.00020312703854387273,0.0017645237171006435,0.24825400114059448,11.627954483032227,-1.0926239490509033,-21.693452835083008,-0.5102439522743225,-2.5207552909851074,0.17978231608867645,0
77,0.3800649642944336,-0.22445029020309448,-11.727136611938477,1.0926239490509033,21.693452835083008,0.5166526436805725,2.5207552909851074,-0.17978231608867645,0.0,0.0,0.0,0.0,0.0,0.0,0.0,-0.22837447175636422,0.605785256238139,-0.10855399887525462,0.4136192132867362,-0.022202686269863985,0.12431458852702955,-0.22191574481698587,0.17285944975432188,-0.48752308618258,-0.111395755360001,-1.94637684547692,0.13372490642534804,2.595546264238318,0.945244558961855,0.1728802376190821,-0.48752024683155326,-0.11147110072896137,-1.9463801863486305,0.1336059019074957,2.595550359778934,0.9452445589611904,0.0003934569122733833,0.0004308893755232921,0.00027681049932436853,8.704509010066106e-06,-5.2202842477441616e-05,-0.00011590703697182323,-0.0008690387468039977,0.0,0.0,0.0,0.0,0.0,0.0,0.0,2.078786476022998e-05,2.8393510267399336e-06,-7.53453689603667e-05,-3.3408717106109265e-06,-0.00011900451785235022,4.095540615978166e-06,-6.645795025406187e-13,-0.0003934569122733833,-0.0004308893755232921,-0.00027681049932436853,-8.704509010066106e-06,5.2202842477441616e-05,0.00011590703697182323,0.0008690387468039977,0.22445029020309448,11.727136611938477,-1.0926239490509033,-21.693452835083008,-0.5166526436805725,-2.5207552909851074,0.17978231608867645,0
78,0.3850677013397217,-0.22445029020309448,-11.727136611938477,1.0926239490509033,21.693452835083008,0.5166526436805725,2.5207552909851074,-0.17978231608867645,0.0,0.0,0.0,0.0,0.0,0.0,0.0,-0.22837447175636422,0.605785256238139,-0.10855399887525462,0.4136192132867362,-0.022202686269863985,0.12431458852702955,-0.22191574481698587,0.17285944975432188,-0.48752308618258,-0.111395755360001,-1.94637684547692,0.13372490642534804,2.595546264238318,0.945244558961855,0.1728802376190821,-0.48752024683155326,-0.11147110072896137,-1.9463801863486305,0.1336059019074957,2.595550359778934,0.9452445589611904,0.0003934569122733833,0.0004308893755232921,0.00027681049932436853,8.704509010066106e-06,-5.2202842477441616e-05,-0.00011590703697182323,-0.0008690387468039977,0.0,0.0,0.0,0.0,0.0,0.0,0.0,2.078786476022998e-05,2.8393510267399336e-06,-7.53453689603667e-05,-3.3408717106109265e-06,-0.00011900451785235022,4.095540615978166e-06,-6.645795025406187e-13,-0.0003934569122733833,-0.0004308893755232921,-0.00027681049932436853,-8.704509010066106e-06,5.2202842477441616e-05,0.00011590703697182323,0.0008690387468039977,0.22445029020309448,11.727136611938477,-1.0926239490509033,-21.693452835083008,-0.5166526436805725,-2.5207552909851074,0.17978231608867645,0
79,0.39003610610961914,-0.19667929410934448,-11.699365615844727,1.1164276599884033,21.669649124145508,0.5285544991493225,2.5271639823913574,-0.20083944499492645,0.0,0.0,0.0,0.0,0.0,0.0,0.0,-0.22578937226910956,0.6188249248164578,-0.10672000089085197,0.40959551440107866,-0.021448502004804866,0.12353336400959473,-0.22094943273333179,0.1728553492493373,-0.4875250321711604,-0.11139742579585626,-1.9463751737328696,0.13372358399629594,2.5955455914071304,0.9452468986428446,0.1728802376190821,-0.48752024683155326,-0.11147110072896137,-1.9463801863486305,0.1336059019074957,2.595550359778934,0.9452445589611904,-0.000413384738046698,0.00016910474070645827,-0.0004040290546426326,0.0008875258693247325,-0.0005266040883318188,4.255411188344742e-06,-0.00047366762817791083,0.0,0.0,0.0,0.0,0.0,0.0,0.0,2.4888369744818784e-05,4.785339607127348e-06,-7.367493310510287e-05,-5.012615760913164e-06,-0.00011768208880025277,4.768371803631766e-06,-2.3396816541954024e-06,0.000413384738046698,-0.00016910474070645827,0.0004040290546426326,-0.0008875258693247325,0.0005266040883318188,-4.255411188344742e-06,0.00047366762817791083,0.19667929410934448,11.699365615844727,-1.1164276599884033,-21.669649124145508,-0.5285544991493225,-2.5271639823913574,0.20083944499492645,0
