rezayati/contactInterpretation/dataset/franka_main/labeled_data/link5/c8_8.csv
index,time,tau_J0,tau_J1,tau_J2,tau_J3,tau_J4,tau_J5,tau_J6,tau_J_d0,tau_J_d1,tau_J_d2,tau_J_d3,tau_J_d4,tau_J_d5,tau_J_d6,tau_ext0,tau_ext1,tau_ext2,tau_ext3,tau_ext4,tau_ext5,tau_ext6,q0,q1,q2,q3,q4,q5,q6,q_d0,q_d1,q_d2,q_d3,q_d4,q_d5,q_d6,dq0,dq1,dq2,dq3,dq4,dq5,dq6,dq_d0,dq_d1,dq_d2,dq_d3,dq_d4,dq_d5,dq_d6,e0,e1,e2,e3,e4,e5,e6,de0,de1,de2,de3,de4,de5,de6,etau_J0,etau_J1,etau_J2,etau_J3,etau_J4,etau_J5,etau_J6,label
1,0.0,-0.3236324191093445,-22.720483779907227,0.02542426437139511,14.056428909301758,0.04057842493057251,2.1582064628601074,-0.44711631536483765,0.0,0.0,0.0,0.0,0.0,0.0,0.0,-0.26975931970147793,0.08588045264879247,-0.044566921390365125,0.18299410822291584,-0.18867043715747947,-0.04732728656139198,-0.4155379672743939,1.6755271957955054,0.05226371891079307,0.029937121915013437,-2.7524784395318287,0.03442389323976304,2.7663269134227546,0.7692005954773833,1.6754973547542302,0.052104326824870026,0.029969505109285054,-2.752394845125968,0.0342448039870148,2.7663679543071322,0.7691630533470046,0.00037808548483983544,-0.0003677457425494092,0.00047905197816841143,-0.0001608479362330014,5.067376063698902e-05,-0.000568319696995387,0.0012631053049526103,0.0,0.0,0.0,0.0,0.0,0.0,0.0,-2.984104127512488e-05,-0.00015939208592304077,3.2383194271616567e-05,8.359440586058753e-05,-0.00017908925274823934,4.104088437761888e-05,-3.754213037865384e-05,-0.00037808548483983544,0.0003677457425494092,-0.00047905197816841143,0.0001608479362330014,-5.067376063698902e-05,0.000568319696995387,-0.0012631053049526103,0.3236324191093445,22.720483779907227,-0.02542426437139511,-14.056428909301758,-0.04057842493057251,-2.1582064628601074,0.44711631536483765,0
2,0.005007028579711914,-0.2720577120780945,-22.672876358032227,0.04922797530889511,14.056428909301758,0.04607158899307251,2.1325716972351074,-0.45352500677108765,0.0,0.0,0.0,0.0,0.0,0.0,0.0,-0.26965193928615366,0.08718128395493831,-0.040418020187965524,0.17922069887410405,-0.18974314321509655,-0.04696167441183247,-0.4161138861362021,1.6755257111515156,0.05226030595047183,0.029934749073893138,-2.752478470056383,0.03442316450742155,2.766326226171478,0.7692016621586074,1.6754973547542302,0.052104326824870026,0.029969505109285054,-2.752394845125968,0.0342448039870148,2.7663679543071322,0.7691630533470046,-0.00023212008647688294,-0.0011592606224118032,-0.0008878841701607944,0.00012580859100635468,0.0007049880714641972,0.0004612095338730647,0.0008885773987638164,0.0,0.0,0.0,0.0,0.0,0.0,0.0,-2.835639728537842e-05,-0.00015597912560180727,3.475603539191546e-05,8.362493041502717e-05,-0.00017836052040674788,4.172813565439526e-05,-3.860881160278051e-05,0.00023212008647688294,0.0011592606224118032,0.0008878841701607944,-0.00012580859100635468,-0.0007049880714641972,-0.0004612095338730647,-0.0008885773987638164,0.2720577120780945,22.672876358032227,-0.04922797530889511,-14.056428909301758,-0.04607158899307251,-2.1325716972351074,0.45352500677108765,0
3,0.009998798370361328,-0.2720577120780945,-22.672876358032227,0.04922797530889511,14.056428909301758,0.04607158899307251,2.1325716972351074,-0.45352500677108765,0.0,0.0,0.0,0.0,0.0,0.0,0.0,-0.26965193928615366,0.08718128395493831,-0.040418020187965524,0.17922069887410405,-0.18974314321509655,-0.04696167441183247,-0.4161138861362021,1.6755257111515156,0.05226030595047183,0.029934749073893138,-2.752478470056383,0.03442316450742155,2.766326226171478,0.7692016621586074,1.6754973547542302,0.052104326824870026,0.029969505109285054,-2.752394845125968,0.0342448039870148,2.7663679543071322,0.7691630533470046,-0.00023212008647688294,-0.0011592606224118032,-0.0008878841701607944,0.00012580859100635468,0.0007049880714641972,0.0004612095338730647,0.0008885773987638164,0.0,0.0,0.0,0.0,0.0,0.0,0.0,-2.835639728537842e-05,-0.00015597912560180727,3.475603539191546e-05,8.362493041502717e-05,-0.00017836052040674788,4.172813565439526e-05,-3.860881160278051e-05,0.00023212008647688294,0.0011592606224118032,0.0008878841701607944,-0.00012580859100635468,-0.0007049880714641972,-0.0004612095338730647,-0.0008885773987638164,0.2720577120780945,22.672876358032227,-0.04922797530889511,-14.056428909301758,-0.04607158899307251,-2.1325716972351074,0.45352500677108765,0
4,0.015005350112915039,-0.2720577120780945,-22.696680068969727,0.04922797530889511,14.032625198364258,0.03416973352432251,2.1389803886413574,-0.43338340520858765,0.0,0.0,0.0,0.0,0.0,0.0,0.0,-0.2725696184775832,0.08690167971378608,-0.04594158825591296,0.17967341651323157,-0.1891443819585277,-0.04688003225671448,-0.4176504790369143,1.6755258027749158,0.05226205812162449,0.029934740306042085,-2.752476769096145,0.0344244869351387,2.7663258672874056,0.7692000898232223,1.6754973547542302,0.052104326824870026,0.029969505109285054,-2.752394845125968,0.0342448039870148,2.7663679543071322,0.7691630533470046,0.00019778158201908482,-0.00011863723291637007,-0.00012729634811857015,0.00030801269933437354,0.00029204468128058916,-5.06904297313392e-05,0.0005857989388001301,0.0,0.0,0.0,0.0,0.0,0.0,0.0,-2.8448020685578612e-05,-0.0001577312967544625,3.4764803242968295e-05,8.192397017703357e-05,-0.0001796829481238993,4.20870197266332e-05,-3.70364762176667e-05,-0.00019778158201908482,0.00011863723291637007,0.00012729634811857015,-0.00030801269933437354,-0.00029204468128058916,5.06904297313392e-05,-0.0005857989388001301,0.2720577120780945,22.696680068969727,-0.04922797530889511,-14.032625198364258,-0.03416973352432251,-2.1389803886413574,0.43338340520858765,0
5,0.020801782608032227,-0.2720577120780945,-22.696680068969727,0.04922797530889511,14.032625198364258,0.03416973352432251,2.1389803886413574,-0.43338340520858765,0.0,0.0,0.0,0.0,0.0,0.0,0.0,-0.2725696184775832,0.08690167971378608,-0.04594158825591296,0.17967341651323157,-0.1891443819585277,-0.04688003225671448,-0.4176504790369143,1.6755258027749158,0.05226205812162449,0.029934740306042085,-2.752476769096145,0.0344244869351387,2.7663258672874056,0.7692000898232223,1.6754973547542302,0.052104326824870026,0.029969505109285054,-2.752394845125968,0.0342448039870148,2.7663679543071322,0.7691630533470046,0.00019778158201908482,-0.00011863723291637007,-0.00012729634811857015,0.00030801269933437354,0.00029204468128058916,-5.06904297313392e-05,0.0005857989388001301,0.0,0.0,0.0,0.0,0.0,0.0,0.0,-2.8448020685578612e-05,-0.0001577312967544625,3.4764803242968295e-05,8.192397017703357e-05,-0.0001796829481238993,4.20870197266332e-05,-3.70364762176667e-05,-0.00019778158201908482,0.00011863723291637007,0.00012729634811857015,-0.00030801269933437354,-0.00029204468128058916,5.06904297313392e-05,-0.0005857989388001301,0.2720577120780945,22.696680068969727,-0.04922797530889511,-14.032625198364258,-0.03416973352432251,-2.1389803886413574,0.43338340520858765,0
6,0.025006771087646484,-0.22445029020309448,-22.672876358032227,0.07303168624639511,14.056428909301758,0.04057842493057251,2.1325716972351074,-0.39950889348983765,0.0,0.0,0.0,0.0,0.0,0.0,0.0,-0.2760541717792051,0.08615267836191282,-0.04987703835520537,0.1854370232035184,-0.18947931064889295,-0.04660357894221319,-0.41682031229877686,1.675519137779665,0.05226038775840343,0.02993307001439883,-2.75247868779821,0.034423774858315784,2.76632941718082,0.7691930438758889,1.6754973547542302,0.052104326824870026,0.029969505109285054,-2.752394845125968,0.0342448039870148,2.7663679543071322,0.7691630533470046,-0.0009447435559166065,-0.0003378218110879789,-0.000593267663360979,1.2883930697012933e-06,-6.715306128714081e-06,0.00011115343484985756,-0.00042240173571803975,0.0,0.0,0.0,0.0,0.0,0.0,0.0,-2.1783025434762848e-05,-0.0001560609335334029,3.6435094886225206e-05,8.38426722418184e-05,-0.00017897087130098327,3.853712631229911e-05,-2.999052888430498e-05,0.0009447435559166065,0.0003378218110879789,0.000593267663360979,-1.2883930697012933e-06,6.715306128714081e-06,-0.00011115343484985756,0.00042240173571803975,0.22445029020309448,22.672876358032227,-0.07303168624639511,-14.056428909301758,-0.04057842493057251,-2.1325716972351074,0.39950889348983765,0
7,0.030002832412719727,-0.22445029020309448,-22.672876358032227,0.07303168624639511,14.056428909301758,0.04057842493057251,2.1325716972351074,-0.39950889348983765,0.0,0.0,0.0,0.0,0.0,0.0,0.0,-0.2760541717792051,0.08615267836191282,-0.04987703835520537,0.1854370232035184,-0.18947931064889295,-0.04660357894221319,-0.41682031229877686,1.675519137779665,0.05226038775840343,0.02993307001439883,-2.75247868779821,0.034423774858315784,2.76632941718082,0.7691930438758889,1.6754973547542302,0.052104326824870026,0.029969505109285054,-2.752394845125968,0.0342448039870148,2.7663679543071322,0.7691630533470046,-0.0009447435559166065,-0.0003378218110879789,-0.000593267663360979,1.2883930697012933e-06,-6.715306128714081e-06,0.00011115343484985756,-0.00042240173571803975,0.0,0.0,0.0,0.0,0.0,0.0,0.0,-2.1783025434762848e-05,-0.0001560609335334029,3.6435094886225206e-05,8.38426722418184e-05,-0.00017897087130098327,3.853712631229911e-05,-2.999052888430498e-05,0.0009447435559166065,0.0003378218110879789,0.000593267663360979,-1.2883930697012933e-06,6.715306128714081e-06,-0.00011115343484985756,0.00042240173571803975,0.22445029020309448,22.672876358032227,-0.07303168624639511,-14.056428909301758,-0.04057842493057251,-2.1325716972351074,0.39950889348983765,0
8,0.03559446334838867,-0.24825400114059448,-22.672876358032227,0.07303168624639511,14.056428909301758,0.04057842493057251,2.1325716972351074,-0.41324180364608765,0.0,0.0,0.0,0.0,0.0,0.0,0.0,-0.269488611450199,0.08993965280174364,-0.0449159548780117,0.18567016874407286,-0.19014445079446876,-0.04725838207156916,-0.41546500182954654,1.675524131190274,0.052259676531473766,0.02993527934316414,-2.752479181392974,0.034423774858315784,2.7663294560120146,0.7691966710315712,1.6754973547542302,0.052104326824870026,0.029969505109285054,-2.752394845125968,0.0342448039870148,2.7663679543071322,0.7691630533470046,0.0004388536899965842,-0.00044284677525305484,-0.0003178300835432251,-8.099530787176213e-05,0.00022113345129860259,0.00021978760111476163,-0.0005269125069463881,0.0,0.0,0.0,0.0,0.0,0.0,0.0,-2.6776436043762786e-05,-0.00015534970660373987,3.422576612091208e-05,8.433626700599106e-05,-0.00017897087130098327,3.849829511759495e-05,-3.3617684566555894e-05,-0.0004388536899965842,0.00044284677525305484,0.0003178300835432251,8.099530787176213e-05,-0.00022113345129860259,-0.00021978760111476163,0.0005269125069463881,0.24825400114059448,22.672876358032227,-0.07303168624639511,-14.056428909301758,-0.04057842493057251,-2.1325716972351074,0.41324180364608765,0
9,0.040004730224609375,-0.24825400114059448,-22.672876358032227,0.07303168624639511,14.056428909301758,0.04057842493057251,2.1325716972351074,-0.41324180364608765,0.0,0.0,0.0,0.0,0.0,0.0,0.0,-0.269488611450199,0.08993965280174364,-0.0449159548780117,0.18567016874407286,-0.19014445079446876,-0.04725838207156916,-0.41546500182954654,1.675524131190274,0.052259676531473766,0.02993527934316414,-2.752479181392974,0.034423774858315784,2.7663294560120146,0.7691966710315712,1.6754973547542302,0.052104326824870026,0.029969505109285054,-2.752394845125968,0.0342448039870148,2.7663679543071322,0.7691630533470046,0.0004388536899965842,-0.00044284677525305484,-0.0003178300835432251,-8.099530787176213e-05,0.00022113345129860259,0.00021978760111476163,-0.0005269125069463881,0.0,0.0,0.0,0.0,0.0,0.0,0.0,-2.6776436043762786e-05,-0.00015534970660373987,3.422576612091208e-05,8.433626700599106e-05,-0.00017897087130098327,3.849829511759495e-05,-3.3617684566555894e-05,-0.0004388536899965842,0.00044284677525305484,0.0003178300835432251,8.099530787176213e-05,-0.00022113345129860259,-0.00021978760111476163,0.0005269125069463881,0.24825400114059448,22.672876358032227,-0.07303168624639511,-14.056428909301758,-0.04057842493057251,-2.1325716972351074,0.41324180364608765,0
10,0.04500150680541992,-0.2998287081718445,-22.696680068969727,0.02542426437139511,14.080232620239258,0.04607158899307251,2.1325716972351074,-0.44711631536483765,0.0,0.0,0.0,0.0,0.0,0.0,0.0,-0.2691376726734185,0.09085445641496508,-0.048610611627119944,0.18680528452905862,-0.18924390132383306,-0.047238011717532745,-0.4164163207290224,1.6755267348103573,0.052259690565264555,0.02993738364544182,-2.752481099000961,0.03442304612530602,2.7663262248621283,0.7691976083509832,1.6754973547542302,0.052104326824870026,0.029969505109285054,-2.752394845125968,0.0342448039870148,2.7663679543071322,0.7691630533470046,0.0013500075917476076,-7.058684673031155e-05,0.00026551323813975584,-0.0007715104944086841,-0.00020061055790820628,0.0001590363677941163,0.0013937800661757457,0.0,0.0,0.0,0.0,0.0,0.0,0.0,-2.938005612707073e-05,-0.00015536374039452905,3.2121463843234194e-05,8.625387499305859e-05,-0.00017824213829122082,4.172944500391296e-05,-3.4555003978531396e-05,-0.0013500075917476076,7.058684673031155e-05,-0.00026551323813975584,0.0007715104944086841,0.00020061055790820628,-0.0001590363677941163,-0.0013937800661757457,0.2998287081718445,22.696680068969727,-0.02542426437139511,-14.080232620239258,-0.04607158899307251,-2.1325716972351074,0.44711631536483765,0
11,0.04999947547912598,-0.2998287081718445,-22.696680068969727,0.02542426437139511,14.080232620239258,0.04607158899307251,2.1325716972351074,-0.44711631536483765,0.0,0.0,0.0,0.0,0.0,0.0,0.0,-0.2691376726734185,0.09085445641496508,-0.048610611627119944,0.18680528452905862,-0.18924390132383306,-0.047238011717532745,-0.4164163207290224,1.6755267348103573,0.052259690565264555,0.02993738364544182,-2.752481099000961,0.03442304612530602,2.7663262248621283,0.7691976083509832,1.6754973547542302,0.052104326824870026,0.029969505109285054,-2.752394845125968,0.0342448039870148,2.7663679543071322,0.7691630533470046,0.0013500075917476076,-7.058684673031155e-05,0.00026551323813975584,-0.0007715104944086841,-0.00020061055790820628,0.0001590363677941163,0.0013937800661757457,0.0,0.0,0.0,0.0,0.0,0.0,0.0,-2.938005612707073e-05,-0.00015536374039452905,3.2121463843234194e-05,8.625387499305859e-05,-0.00017824213829122082,4.172944500391296e-05,-3.4555003978531396e-05,-0.0013500075917476076,7.058684673031155e-05,-0.00026551323813975584,0.0007715104944086841,0.00020061055790820628,-0.0001590363677941163,-0.0013937800661757457,0.2998287081718445,22.696680068969727,-0.02542426437139511,-14.080232620239258,-0.04607158899307251,-2.1325716972351074,0.44711631536483765,0
12,0.05500030517578125,-0.2720577120780945,-22.772058486938477,0.001620553433895111,14.080232620239258,0.03416973352432251,2.1389803886413574,-0.38577598333358765,0.0,0.0,0.0,0.0,0.0,0.0,0.0,-0.26449590013219615,0.08600050805751866,-0.049789070045665684,0.191103420409059,-0.18861155586142236,-0.04689795095052708,-0.4166043518356434,1.6755257198937192,0.052267347926363915,0.029938085073373772,-2.752482585513915,0.03442448693506445,2.7663298689291698,0.7691948407585392,1.6754973547542302,0.052104326824870026,0.029969505109285054,-2.752394845125968,0.0342448039870148,2.7663679543071322,0.7691630533470046,8.665429216742497e-05,0.0008002841842667135,0.0006132035208186608,-0.00021036686831045376,0.00031615585607248675,-0.00012472459335063338,-0.0012420025293618442,0.0,0.0,0.0,0.0,0.0,0.0,0.0,-2.8365139489006097e-05,-0.000163021101493889,3.1420035911281646e-05,8.77403879466776e-05,-0.00017968294804964619,3.808537796246014e-05,-3.1787411534534016e-05,-8.665429216742497e-05,-0.0008002841842667135,-0.0006132035208186608,0.00021036686831045376,-0.00031615585607248675,0.00012472459335063338,0.0012420025293618442,0.2720577120780945,22.772058486938477,-0.001620553433895111,-14.080232620239258,-0.03416973352432251,-2.1389803886413574,0.38577598333358765,0
13,0.0600581169128418,-0.2720577120780945,-22.772058486938477,0.001620553433895111,14.080232620239258,0.03416973352432251,2.1389803886413574,-0.38577598333358765,0.0,0.0,0.0,0.0,0.0,0.0,0.0,-0.26449590013219615,0.08600050805751866,-0.049789070045665684,0.191103420409059,-0.18861155586142236,-0.04689795095052708,-0.4166043518356434,1.6755257198937192,0.052267347926363915,0.029938085073373772,-2.752482585513915,0.03442448693506445,2.7663298689291698,0.7691948407585392,1.6754973547542302,0.052104326824870026,0.029969505109285054,-2.752394845125968,0.0342448039870148,2.7663679543071322,0.7691630533470046,8.665429216742497e-05,0.0008002841842667135,0.0006132035208186608,-0.00021036686831045376,0.00031615585607248675,-0.00012472459335063338,-0.0012420025293618442,0.0,0.0,0.0,0.0,0.0,0.0,0.0,-2.8365139489006097e-05,-0.000163021101493889,3.1420035911281646e-05,8.77403879466776e-05,-0.00017968294804964619,3.808537796246014e-05,-3.1787411534534016e-05,-8.665429216742497e-05,-0.0008002841842667135,-0.0006132035208186608,0.00021036686831045376,-0.00031615585607248675,0.00012472459335063338,0.0012420025293618442,0.2720577120780945,22.772058486938477,-0.001620553433895111,-14.080232620239258,-0.03416973352432251,-2.1389803886413574,0.38577598333358765,0
14,0.06500005722045898,-0.2998287081718445,-22.748254776000977,0.001620553433895111,14.080232620239258,0.04607158899307251,2.1389803886413574,-0.39950889348983765,0.0,0.0,0.0,0.0,0.0,0.0,0.0,-0.26396501132354483,0.08829857012772772,-0.04912068273693908,0.18426023728426955,-0.18991708941720506,-0.04823386958798763,-0.4162223511973921,1.6755270098701058,0.05226353480564089,0.029940448400698313,-2.752480109981658,0.03442316450675328,2.7663259067731865,0.7691963624390002,1.6754973547542302,0.052104326824870026,0.029969505109285054,-2.752394845125968,0.0342448039870148,2.7663679543071322,0.7691630533470046,3.929723000986999e-05,0.0008760813902257638,0.00013333353678526746,-0.0006247329911233983,0.003004188356539493,2.8191244397926987e-05,-0.0004627597580162811,0.0,0.0,0.0,0.0,0.0,0.0,0.0,-2.965511587560421e-05,-0.00015920798077086185,2.9056708586740893e-05,8.526485568971509e-05,-0.00017836051973847689,4.204753394576599e-05,-3.3309091995614715e-05,-3.929723000986999e-05,-0.0008760813902257638,-0.00013333353678526746,0.0006247329911233983,-0.003004188356539493,-2.8191244397926987e-05,0.0004627597580162811,0.2998287081718445,22.748254776000977,-0.001620553433895111,-14.080232620239258,-0.04607158899307251,-2.1389803886413574,0.39950889348983765,0
15,0.07000136375427246,-0.2998287081718445,-22.748254776000977,0.001620553433895111,14.080232620239258,0.04607158899307251,2.1389803886413574,-0.39950889348983765,0.0,0.0,0.0,0.0,0.0,0.0,0.0,-0.26396501132354483,0.08829857012772772,-0.04912068273693908,0.18426023728426955,-0.18991708941720506,-0.04823386958798763,-0.4162223511973921,1.6755270098701058,0.05226353480564089,0.029940448400698313,-2.752480109981658,0.03442316450675328,2.7663259067731865,0.7691963624390002,1.6754973547542302,0.052104326824870026,0.029969505109285054,-2.752394845125968,0.0342448039870148,2.7663679543071322,0.7691630533470046,3.929723000986999e-05,0.0008760813902257638,0.00013333353678526746,-0.0006247329911233983,0.003004188356539493,2.8191244397926987e-05,-0.0004627597580162811,0.0,0.0,0.0,0.0,0.0,0.0,0.0,-2.965511587560421e-05,-0.00015920798077086185,2.9056708586740893e-05,8.526485568971509e-05,-0.00017836051973847689,4.204753394576599e-05,-3.3309091995614715e-05,-3.929723000986999e-05,-0.0008760813902257638,-0.00013333353678526746,0.0006247329911233983,-0.003004188356539493,-2.8191244397926987e-05,0.0004627597580162811,0.2998287081718445,22.748254776000977,-0.001620553433895111,-14.080232620239258,-0.04607158899307251,-2.1389803886413574,0.39950889348983765,0
16,0.07499957084655762,-0.2998287081718445,-22.720483779907227,0.001620553433895111,14.032625198364258,0.04057842493057251,2.1389803886413574,-0.39218467473983765,0.0,0.0,0.0,0.0,0.0,0.0,0.0,-0.270452511818764,0.08555797454829421,-0.051936751477220724,0.18144005334169963,-0.1900405611340335,-0.04883328865157536,-0.41648072784462276,1.6755277512739153,0.052263412645468355,0.029938081551719904,-2.7524768606696384,0.03442377485831578,2.7663258672896225,0.7691913275269789,1.6754973547542302,0.052104326824870026,0.029969505109285054,-2.752394845125968,0.0342448039870148,2.7663679543071322,0.7691630533470046,-4.6873143945455304e-05,0.00032468296921229714,0.00010771943534804077,7.204828152505601e-06,0.00010867494424216643,6.803365382273081e-05,-0.000990892931715025,0.0,0.0,0.0,0.0,0.0,0.0,0.0,-3.0396519685060852e-05,-0.00015908582059832865,3.1423557565149474e-05,8.201554367026631e-05,-0.00017897087130097633,4.2087017509739866e-05,-2.8274179974308034e-05,4.6873143945455304e-05,-0.00032468296921229714,-0.00010771943534804077,-7.204828152505601e-06,-0.00010867494424216643,-6.803365382273081e-05,0.000990892931715025,0.2998287081718445,22.720483779907227,-0.001620553433895111,-14.032625198364258,-0.04057842493057251,-2.1389803886413574,0.39218467473983765,0
17,0.08000826835632324,-0.2998287081718445,-22.720483779907227,0.001620553433895111,14.032625198364258,0.04057842493057251,2.1389803886413574,-0.39218467473983765,0.0,0.0,0.0,0.0,0.0,0.0,0.0,-0.270452511818764,0.08555797454829421,-0.051936751477220724,0.18144005334169963,-0.1900405611340335,-0.04883328865157536,-0.41648072784462276,1.6755277512739153,0.052263412645468355,0.029938081551719904,-2.7524768606696384,0.03442377485831578,2.7663258672896225,0.7691913275269789,1.6754973547542302,0.052104326824870026,0.029969505109285054,-2.752394845125968,0.0342448039870148,2.7663679543071322,0.7691630533470046,-4.6873143945455304e-05,0.00032468296921229714,0.00010771943534804077,7.204828152505601e-06,0.00010867494424216643,6.803365382273081e-05,-0.000990892931715025,0.0,0.0,0.0,0.0,0.0,0.0,0.0,-3.0396519685060852e-05,-0.00015908582059832865,3.1423557565149474e-05,8.201554367026631e-05,-0.00017897087130097633,4.2087017509739866e-05,-2.8274179974308034e-05,4.6873143945455304e-05,-0.00032468296921229714,-0.00010771943534804077,-7.204828152505601e-06,-0.00010867494424216643,-6.803365382273081e-05,0.000990892931715025,0.2998287081718445,22.720483779907227,-0.001620553433895111,-14.032625198364258,-0.04057842493057251,-2.1389803886413574,0.39218467473983765,0
18,0.0856935977935791,-0.24825400114059448,-22.672876358032227,0.001620553433895111,14.056428909301758,0.04057842493057251,2.1389803886413574,-0.41965049505233765,0.0,0.0,0.0,0.0,0.0,0.0,0.0,-0.27680846098499806,0.0838357465190551,-0.054729343707788765,0.1849981247529192,-0.19050094915275448,-0.04776407551361143,-0.4159999345023876,1.675524132226522,0.0522603868183736,0.02994094808643942,-2.752478439532345,0.03442377485831578,2.766325631975765,0.7691956549935623,1.6754973547542302,0.052104326824870026,0.029969505109285054,-2.752394845125968,0.0342448039870148,2.7663679543071322,0.7691630533470046,-0.0008168203582880633,-0.0003210226591815097,0.0006924393729184365,-3.691868791453592e-05,0.00014696364488857658,-0.00022897919961889122,0.0004172016181215538,0.0,0.0,0.0,0.0,0.0,0.0,0.0,-2.6777472291739102e-05,-0.00015605999350357114,2.8557022845633606e-05,8.359440637706328e-05,-0.00017897087130097633,4.2322331367028454e-05,-3.2601646557717245e-05,0.0008168203582880633,0.0003210226591815097,-0.0006924393729184365,3.691868791453592e-05,-0.00014696364488857658,0.00022897919961889122,-0.0004172016181215538,0.24825400114059448,22.672876358032227,-0.001620553433895111,-14.056428909301758,-0.04057842493057251,-2.1389803886413574,0.41965049505233765,0
19,0.09000563621520996,-0.24825400114059448,-22.672876358032227,0.001620553433895111,14.056428909301758,0.04057842493057251,2.1389803886413574,-0.41965049505233765,0.0,0.0,0.0,0.0,0.0,0.0,0.0,-0.27680846098499806,0.0838357465190551,-0.054729343707788765,0.1849981247529192,-0.19050094915275448,-0.04776407551361143,-0.4159999345023876,1.675524132226522,0.0522603868183736,0.02994094808643942,-2.752478439532345,0.03442377485831578,2.766325631975765,0.7691956549935623,1.6754973547542302,0.052104326824870026,0.029969505109285054,-2.752394845125968,0.0342448039870148,2.7663679543071322,0.7691630533470046,-0.0008168203582880633,-0.0003210226591815097,0.0006924393729184365,-3.691868791453592e-05,0.00014696364488857658,-0.00022897919961889122,0.0004172016181215538,0.0,0.0,0.0,0.0,0.0,0.0,0.0,-2.6777472291739102e-05,-0.00015605999350357114,2.8557022845633606e-05,8.359440637706328e-05,-0.00017897087130097633,4.2322331367028454e-05,-3.2601646557717245e-05,0.0008168203582880633,0.0003210226591815097,-0.0006924393729184365,3.691868791453592e-05,-0.00014696364488857658,0.00022897919961889122,-0.0004172016181215538,0.24825400114059448,22.672876358032227,-0.001620553433895111,-14.056428909301758,-0.04057842493057251,-2.1389803886413574,0.41965049505233765,0
20,0.09500622749328613,-0.2720577120780945,-22.696680068969727,0.02542426437139511,14.056428909301758,0.04607158899307251,2.1389803886413574,-0.43338340520858765,0.0,0.0,0.0,0.0,0.0,0.0,0.0,-0.2798435311757854,0.08843741126422291,-0.056776377572221336,0.1817320644652868,-0.19049970229221388,-0.04818127838431929,-0.4155863072012908,1.6755258027377478,0.052261812373671945,0.02993861925729253,-2.7524784395318282,0.03442316450675328,2.7663269274107174,0.7691971812026812,1.6754973547542302,0.052104326824870026,0.029969505109285054,-2.752394845125968,0.0342448039870148,2.7663679543071322,0.7691630533470046,0.00021363103028690763,0.00011805069790093914,0.00036438041916429564,-0.0005953440226557694,-0.00021214251632313387,2.0060021179228328e-05,0.0008006165539254735,0.0,0.0,0.0,0.0,0.0,0.0,0.0,-2.8447983517532194e-05,-0.00015748554880191945,3.0885851992523e-05,8.359440586014344e-05,-0.00017836051973847689,4.1026896414830816e-05,-3.4127855676580054e-05,-0.00021363103028690763,-0.00011805069790093914,-0.00036438041916429564,0.0005953440226557694,0.00021214251632313387,-2.0060021179228328e-05,-0.0008006165539254735,0.2720577120780945,22.696680068969727,-0.02542426437139511,-14.056428909301758,-0.04607158899307251,-2.1389803886413574,0.43338340520858765,0
21,0.10000276565551758,-0.2720577120780945,-22.696680068969727,0.02542426437139511,14.056428909301758,0.04607158899307251,2.1389803886413574,-0.43338340520858765,0.0,0.0,0.0,0.0,0.0,0.0,0.0,-0.2798435311757854,0.08843741126422291,-0.056776377572221336,0.1817320644652868,-0.19049970229221388,-0.04818127838431929,-0.4155863072012908,1.6755258027377478,0.052261812373671945,0.02993861925729253,-2.7524784395318282,0.03442316450675328,2.7663269274107174,0.7691971812026812,1.6754973547542302,0.052104326824870026,0.029969505109285054,-2.752394845125968,0.0342448039870148,2.7663679543071322,0.7691630533470046,0.00021363103028690763,0.00011805069790093914,0.00036438041916429564,-0.0005953440226557694,-0.00021214251632313387,2.0060021179228328e-05,0.0008006165539254735,0.0,0.0,0.0,0.0,0.0,0.0,0.0,-2.8447983517532194e-05,-0.00015748554880191945,3.0885851992523e-05,8.359440586014344e-05,-0.00017836051973847689,4.1026896414830816e-05,-3.4127855676580054e-05,-0.00021363103028690763,-0.00011805069790093914,-0.00036438041916429564,0.0005953440226557694,0.00021214251632313387,-2.0060021179228328e-05,-0.0008006165539254735,0.2720577120780945,22.696680068969727,-0.02542426437139511,-14.056428909301758,-0.04607158899307251,-2.1389803886413574,0.43338340520858765,0
22,0.10500025749206543,-0.2720577120780945,-22.696680068969727,0.02542426437139511,14.056428909301758,0.04607158899307251,2.1389803886413574,-0.43338340520858765,0.0,0.0,0.0,0.0,0.0,0.0,0.0,-0.2798435311757854,0.08843741126422291,-0.056776377572221336,0.1817320644652868,-0.19049970229221388,-0.04818127838431929,-0.4155863072012908,1.6755258027377478,0.052261812373671945,0.02993861925729253,-2.7524784395318282,0.03442316450675328,2.7663269274107174,0.7691971812026812,1.6754973547542302,0.052104326824870026,0.029969505109285054,-2.752394845125968,0.0342448039870148,2.7663679543071322,0.7691630533470046,0.00021363103028690763,0.00011805069790093914,0.00036438041916429564,-0.0005953440226557694,-0.00021214251632313387,2.0060021179228328e-05,0.0008006165539254735,0.0,0.0,0.0,0.0,0.0,0.0,0.0,-2.8447983517532194e-05,-0.00015748554880191945,3.0885851992523e-05,8.359440586014344e-05,-0.00017836051973847689,4.1026896414830816e-05,-3.4127855676580054e-05,-0.00021363103028690763,-0.00011805069790093914,-0.00036438041916429564,0.0005953440226557694,0.00021214251632313387,-2.0060021179228328e-05,-0.0008006165539254735,0.2720577120780945,22.696680068969727,-0.02542426437139511,-14.056428909301758,-0.04607158899307251,-2.1389803886413574,0.43338340520858765,0
23,0.11000895500183105,-0.2720577120780945,-22.696680068969727,0.02542426437139511,14.056428909301758,0.04607158899307251,2.1389803886413574,-0.43338340520858765,0.0,0.0,0.0,0.0,0.0,0.0,0.0,-0.2798435311757854,0.08843741126422291,-0.056776377572221336,0.1817320644652868,-0.19049970229221388,-0.04818127838431929,-0.4155863072012908,1.6755258027377478,0.052261812373671945,0.02993861925729253,-2.7524784395318282,0.03442316450675328,2.7663269274107174,0.7691971812026812,1.6754973547542302,0.052104326824870026,0.029969505109285054,-2.752394845125968,0.0342448039870148,2.7663679543071322,0.7691630533470046,0.00021363103028690763,0.00011805069790093914,0.00036438041916429564,-0.0005953440226557694,-0.00021214251632313387,2.0060021179228328e-05,0.0008006165539254735,0.0,0.0,0.0,0.0,0.0,0.0,0.0,-2.8447983517532194e-05,-0.00015748554880191945,3.0885851992523e-05,8.359440586014344e-05,-0.00017836051973847689,4.1026896414830816e-05,-3.4127855676580054e-05,-0.00021363103028690763,-0.00011805069790093914,-0.00036438041916429564,0.0005953440226557694,0.00021214251632313387,-2.0060021179228328e-05,-0.0008006165539254735,0.2720577120780945,22.696680068969727,-0.02542426437139511,-14.056428909301758,-0.04607158899307251,-2.1389803886413574,0.43338340520858765,0
24,0.11500263214111328,-0.24825400114059448,-22.720483779907227,0.07303168624639511,14.032625198364258,0.05248028039932251,2.1453890800476074,-0.46084922552108765,0.0,0.0,0.0,0.0,0.0,0.0,0.0,-0.27632340753099394,0.08306482060528057,-0.05570358841599476,0.18766385337903674,-0.19047498569945176,-0.04663853915584192,-0.4168100349451375,1.6755210828234628,0.052263648769515364,0.029933151678873386,-2.752476854564727,0.03442245242993036,2.76632497207123,0.7692035341884449,1.6754973547542302,0.052104326824870026,0.029969505109285054,-2.752394845125968,0.0342448039870148,2.7663679543071322,0.7691630533470046,-0.00020848111550330812,-0.00031530674682649936,-0.00039709483101515124,0.00042562739879849074,-0.000358266163988283,-0.0003644347714137126,0.0015544557989685816,0.0,0.0,0.0,0.0,0.0,0.0,0.0,-2.3728069232564764e-05,-0.0001593219446453381,3.63534304116675e-05,8.200943875902311e-05,-0.00017764844291556087,4.298223590204486e-05,-4.048084144026021e-05,0.00020848111550330812,0.00031530674682649936,0.00039709483101515124,-0.00042562739879849074,0.000358266163988283,0.0003644347714137126,-0.0015544557989685816,0.24825400114059448,22.720483779907227,-0.07303168624639511,-14.032625198364258,-0.05248028039932251,-2.1453890800476074,0.46084922552108765,0
25,0.11999797821044922,-0.24825400114059448,-22.720483779907227,0.07303168624639511,14.032625198364258,0.05248028039932251,2.1453890800476074,-0.46084922552108765,0.0,0.0,0.0,0.0,0.0,0.0,0.0,-0.27632340753099394,0.08306482060528057,-0.05570358841599476,0.18766385337903674,-0.19047498569945176,-0.04663853915584192,-0.4168100349451375,1.6755210828234628,0.052263648769515364,0.029933151678873386,-2.752476854564727,0.03442245242993036,2.76632497207123,0.7692035341884449,1.6754973547542302,0.052104326824870026,0.029969505109285054,-2.752394845125968,0.0342448039870148,2.7663679543071322,0.7691630533470046,-0.00020848111550330812,-0.00031530674682649936,-0.00039709483101515124,0.00042562739879849074,-0.000358266163988283,-0.0003644347714137126,0.0015544557989685816,0.0,0.0,0.0,0.0,0.0,0.0,0.0,-2.3728069232564764e-05,-0.0001593219446453381,3.63534304116675e-05,8.200943875902311e-05,-0.00017764844291556087,4.298223590204486e-05,-4.048084144026021e-05,0.00020848111550330812,0.00031530674682649936,0.00039709483101515124,-0.00042562739879849074,0.000358266163988283,0.0003644347714137126,-0.0015544557989685816,0.24825400114059448,22.720483779907227,-0.07303168624639511,-14.032625198364258,-0.05248028039932251,-2.1453890800476074,0.46084922552108765,0
26,0.12499666213989258,-0.2720577120780945,-22.720483779907227,0.04922797530889511,14.008821487426758,0.04607158899307251,2.1389803886413574,-0.39950889348983765,0.0,0.0,0.0,0.0,0.0,0.0,0.0,-0.27449838462838094,0.08889993087580417,-0.053175551319927676,0.18291449574226074,-0.19004991791028386,-0.047437443310937126,-0.4178995699741841,1.675525793235482,0.05226278150621332,0.02993757981721804,-2.7524750986602786,0.03442316450675328,2.766325669604887,0.7691956560156223,1.6754973547542302,0.052104326824870026,0.029969505109285054,-2.752394845125968,0.0342448039870148,2.7663679543071322,0.7691630533470046,0.00037620189312043953,-0.00020615639586700173,-1.9455581802854303e-05,0.0010766962941691693,-0.00011364987757368035,-6.41011269571045e-05,-0.0005374311156199366,0.0,0.0,0.0,0.0,0.0,0.0,0.0,-2.8438481251669145e-05,-0.0001584546813432966,3.1925292067015026e-05,8.025353431051485e-05,-0.00017836051973847689,4.2284702245432015e-05,-3.260266861770944e-05,-0.00037620189312043953,0.00020615639586700173,1.9455581802854303e-05,-0.0010766962941691693,0.00011364987757368035,6.41011269571045e-05,0.0005374311156199366,0.2720577120780945,22.720483779907227,-0.04922797530889511,-14.008821487426758,-0.04607158899307251,-2.1389803886413574,0.39950889348983765,0
27,0.1306455135345459,-0.2720577120780945,-22.720483779907227,0.04922797530889511,14.008821487426758,0.04607158899307251,2.1389803886413574,-0.39950889348983765,0.0,0.0,0.0,0.0,0.0,0.0,0.0,-0.27449838462838094,0.08889993087580417,-0.053175551319927676,0.18291449574226074,-0.19004991791028386,-0.047437443310937126,-0.4178995699741841,1.675525793235482,0.05226278150621332,0.02993757981721804,-2.7524750986602786,0.03442316450675328,2.766325669604887,0.7691956560156223,1.6754973547542302,0.052104326824870026,0.029969505109285054,-2.752394845125968,0.0342448039870148,2.7663679543071322,0.7691630533470046,0.00037620189312043953,-0.00020615639586700173,-1.9455581802854303e-05,0.0010766962941691693,-0.00011364987757368035,-6.41011269571045e-05,-0.0005374311156199366,0.0,0.0,0.0,0.0,0.0,0.0,0.0,-2.8438481251669145e-05,-0.0001584546813432966,3.1925292067015026e-05,8.025353431051485e-05,-0.00017836051973847689,4.2284702245432015e-05,-3.260266861770944e-05,-0.00037620189312043953,0.00020615639586700173,1.9455581802854303e-05,-0.0010766962941691693,0.00011364987757368035,6.41011269571045e-05,0.0005374311156199366,0.2720577120780945,22.720483779907227,-0.04922797530889511,-14.008821487426758,-0.04607158899307251,-2.1389803886413574,0.39950889348983765,0
28,0.13500046730041504,-0.24825400114059448,-22.720483779907227,0.07303168624639511,14.056428909301758,0.05248028039932251,2.1261630058288574,-0.39218467473983765,0.0,0.0,0.0,0.0,0.0,0.0,0.0,-0.27064669819234516,0.0876447887215137,-0.05001123654884913,0.1806317622901799,-0.18972011667332161,-0.047731913881610334,-0.4170755974750992,1.6755240224511254,0.05226299174040474,0.02993523460206294,-2.7524784395318282,0.03442245242993036,2.7663302746653864,0.7691927271303725,1.6754973547542302,0.052104326824870026,0.029969505109285054,-2.752394845125968,0.0342448039870148,2.7663679543071322,0.7691630533470046,-0.00037869291266312197,0.00021995855833016864,-0.0003002059627150978,-0.00039216954339067766,-0.00026285474814855296,0.0004799380144918614,-0.0012381273048275119,0.0,0.0,0.0,0.0,0.0,0.0,0.0,-2.6667696895188442e-05,-0.00015866491553471335,3.4270507222114444e-05,8.359440586014344e-05,-0.00017764844291556087,3.7679641745835823e-05,-2.9673783367822892e-05,0.00037869291266312197,-0.00021995855833016864,0.0003002059627150978,0.00039216954339067766,0.00026285474814855296,-0.0004799380144918614,0.0012381273048275119,0.24825400114059448,22.720483779907227,-0.07303168624639511,-14.056428909301758,-0.05248028039932251,-2.1261630058288574,0.39218467473983765,0
29,0.14000153541564941,-0.24825400114059448,-22.720483779907227,0.07303168624639511,14.056428909301758,0.05248028039932251,2.1261630058288574,-0.39218467473983765,0.0,0.0,0.0,0.0,0.0,0.0,0.0,-0.27064669819234516,0.0876447887215137,-0.05001123654884913,0.1806317622901799,-0.18972011667332161,-0.047731913881610334,-0.4170755974750992,1.6755240224511254,0.05226299174040474,0.02993523460206294,-2.7524784395318282,0.03442245242993036,2.7663302746653864,0.7691927271303725,1.6754973547542302,0.052104326824870026,0.029969505109285054,-2.752394845125968,0.0342448039870148,2.7663679543071322,0.7691630533470046,-0.00037869291266312197,0.00021995855833016864,-0.0003002059627150978,-0.00039216954339067766,-0.00026285474814855296,0.0004799380144918614,-0.0012381273048275119,0.0,0.0,0.0,0.0,0.0,0.0,0.0,-2.6667696895188442e-05,-0.00015866491553471335,3.4270507222114444e-05,8.359440586014344e-05,-0.00017764844291556087,3.7679641745835823e-05,-2.9673783367822892e-05,0.00037869291266312197,-0.00021995855833016864,0.0003002059627150978,0.00039216954339067766,0.00026285474814855296,-0.0004799380144918614,0.0012381273048275119,0.24825400114059448,22.720483779907227,-0.07303168624639511,-14.056428909301758,-0.05248028039932251,-2.1261630058288574,0.39218467473983765,0
30,0.14499783515930176,-0.2720577120780945,-22.696680068969727,0.02542426437139511,14.056428909301758,0.04607158899307251,2.1261630058288574,-0.37204307317733765,0.0,0.0,0.0,0.0,0.0,0.0,0.0,-0.2646692513696039,0.08230886530120626,-0.04277098335697667,0.1833143920854848,-0.18908111313677492,-0.0467364491890456,-0.4175838113360598,1.675525689834556,0.05226203181494414,0.029936490062080334,-2.7524784425842834,0.03442316450675328,2.766326936936987,0.7691903438230377,1.6754973547542302,0.052104326824870026,0.029969505109285054,-2.752394845125968,0.0342448039870148,2.7663679543071322,0.7691630533470046,0.00025196597855434817,-0.00045226308339831224,0.00110207589370785,-1.918708118660566e-05,-2.108261098114739e-05,0.00042890449694068107,-0.0017229043465444903,0.0,0.0,0.0,0.0,0.0,0.0,0.0,-2.8335080325847528e-05,-0.00015770499007411454,3.301504720472012e-05,8.359745831532095e-05,-0.00017836051973847689,4.101737014527984e-05,-2.7290476033114963e-05,-0.00025196597855434817,0.00045226308339831224,-0.00110207589370785,1.918708118660566e-05,2.108261098114739e-05,-0.00042890449694068107,0.0017229043465444903,0.2720577120780945,22.696680068969727,-0.02542426437139511,-14.056428909301758,-0.04607158899307251,-2.1261630058288574,0.37204307317733765,0
31,0.15002083778381348,-0.2720577120780945,-22.696680068969727,0.02542426437139511,14.056428909301758,0.04607158899307251,2.1261630058288574,-0.37204307317733765,0.0,0.0,0.0,0.0,0.0,0.0,0.0,-0.2646692513696039,0.08230886530120626,-0.04277098335697667,0.1833143920854848,-0.18908111313677492,-0.0467364491890456,-0.4175838113360598,1.675525689834556,0.05226203181494414,0.029936490062080334,-2.7524784425842834,0.03442316450675328,2.766326936936987,0.7691903438230377,1.6754973547542302,0.052104326824870026,0.029969505109285054,-2.752394845125968,0.0342448039870148,2.7663679543071322,0.7691630533470046,0.00025196597855434817,-0.00045226308339831224,0.00110207589370785,-1.918708118660566e-05,-2.108261098114739e-05,0.00042890449694068107,-0.0017229043465444903,0.0,0.0,0.0,0.0,0.0,0.0,0.0,-2.8335080325847528e-05,-0.00015770499007411454,3.301504720472012e-05,8.359745831532095e-05,-0.00017836051973847689,4.101737014527984e-05,-2.7290476033114963e-05,-0.00025196597855434817,0.00045226308339831224,-0.00110207589370785,1.918708118660566e-05,2.108261098114739e-05,-0.00042890449694068107,0.0017229043465444903,0.2720577120780945,22.696680068969727,-0.02542426437139511,-14.056428909301758,-0.04607158899307251,-2.1261630058288574,0.37204307317733765,0
32,0.15591835975646973,-0.2998287081718445,-22.672876358032227,0.02542426437139511,14.056428909301758,0.04057842493057251,2.1453890800476074,-0.40591758489608765,0.0,0.0,0.0,0.0,0.0,0.0,0.0,-0.26953660080459557,0.08851509586053155,-0.04554374080023046,0.18171669770918727,-0.18844560343423797,-0.048216855703263464,-0.41655883870403454,1.675526642557789,0.052257542417497804,0.029936410778360994,-2.752478439531845,0.03442377485831578,2.7663248007596564,0.7691973923958737,1.6754973547542302,0.052104326824870026,0.029969505109285054,-2.752394845125968,0.0342448039870148,2.7663679543071322,0.7691630533470046,0.0006020028129101022,-0.0008336053323395689,-0.00012170696085188246,3.105950087548465e-05,0.00023990831793377988,-0.0002696790143914427,-0.000783222915473885,0.0,0.0,0.0,0.0,0.0,0.0,0.0,-2.9287803558819547e-05,-0.0001532155926277784,3.309433092405986e-05,8.359440587701883e-05,-0.00017897087130097633,4.315354747586042e-05,-3.43390488690698e-05,-0.0006020028129101022,0.0008336053323395689,0.00012170696085188246,-3.105950087548465e-05,-0.00023990831793377988,0.0002696790143914427,0.000783222915473885,0.2998287081718445,22.672876358032227,-0.02542426437139511,-14.056428909301758,-0.04057842493057251,-2.1453890800476074,0.40591758489608765,0
33,0.1600196361541748,-0.2998287081718445,-22.672876358032227,0.02542426437139511,14.056428909301758,0.04057842493057251,2.1453890800476074,-0.40591758489608765,0.0,0.0,0.0,0.0,0.0,0.0,0.0,-0.26953660080459557,0.08851509586053155,-0.04554374080023046,0.18171669770918727,-0.18844560343423797,-0.048216855703263464,-0.41655883870403454,1.675526642557789,0.052257542417497804,0.029936410778360994,-2.752478439531845,0.03442377485831578,2.7663248007596564,0.7691973923958737,1.6754973547542302,0.052104326824870026,0.029969505109285054,-2.752394845125968,0.0342448039870148,2.7663679543071322,0.7691630533470046,0.0006020028129101022,-0.0008336053323395689,-0.00012170696085188246,3.105950087548465e-05,0.00023990831793377988,-0.0002696790143914427,-0.000783222915473885,0.0,0.0,0.0,0.0,0.0,0.0,0.0,-2.9287803558819547e-05,-0.0001532155926277784,3.309433092405986e-05,8.359440587701883e-05,-0.00017897087130097633,4.315354747586042e-05,-3.43390488690698e-05,-0.0006020028129101022,0.0008336053323395689,0.00012170696085188246,-3.105950087548465e-05,-0.00023990831793377988,0.0002696790143914427,0.000783222915473885,0.2998287081718445,22.672876358032227,-0.02542426437139511,-14.056428909301758,-0.04057842493057251,-2.1453890800476074,0.40591758489608765,0
34,0.1658000946044922,-0.2998287081718445,-22.696680068969727,0.02542426437139511,14.108003616333008,0.04057842493057251,2.1453890800476074,-0.39950889348983765,0.0,0.0,0.0,0.0,0.0,0.0,0.0,-0.27621301708851287,0.08926855638516885,-0.05135899537737922,0.18251015323311448,-0.1878784480480395,-0.048230715614155775,-0.41724182045000624,1.675527751573319,0.05226182047705605,0.0299392503490939,-2.7524820588095147,0.03442377485831578,2.7663249184433916,0.7691955121677123,1.6754973547542302,0.052104326824870026,0.029969505109285054,-2.752394845125968,0.0342448039870148,2.7663679543071322,0.7691630533470046,-0.0002677639273958743,-0.0005630970357472585,-0.00033887570347780404,-0.0017245189136980668,0.00011402724397424402,-0.0003587682754021891,-0.000512135127893459,0.0,0.0,0.0,0.0,0.0,0.0,0.0,-3.0396819088673865e-05,-0.00015749365218602207,3.0254760191153474e-05,8.72136835465831e-05,-0.00017897087130097633,4.303586374065915e-05,-3.245882070768147e-05,0.0002677639273958743,0.0005630970357472585,0.00033887570347780404,0.0017245189136980668,-0.00011402724397424402,0.0003587682754021891,0.000512135127893459,0.2998287081718445,22.696680068969727,-0.02542426437139511,-14.108003616333008,-0.04057842493057251,-2.1453890800476074,0.39950889348983765,0
35,0.16999435424804688,-0.2998287081718445,-22.696680068969727,0.02542426437139511,14.108003616333008,0.04057842493057251,2.1453890800476074,-0.39950889348983765,0.0,0.0,0.0,0.0,0.0,0.0,0.0,-0.27621301708851287,0.08926855638516885,-0.05135899537737922,0.18251015323311448,-0.1878784480480395,-0.048230715614155775,-0.41724182045000624,1.675527751573319,0.05226182047705605,0.0299392503490939,-2.7524820588095147,0.03442377485831578,2.7663249184433916,0.7691955121677123,1.6754973547542302,0.052104326824870026,0.029969505109285054,-2.752394845125968,0.0342448039870148,2.7663679543071322,0.7691630533470046,-0.0002677639273958743,-0.0005630970357472585,-0.00033887570347780404,-0.0017245189136980668,0.00011402724397424402,-0.0003587682754021891,-0.000512135127893459,0.0,0.0,0.0,0.0,0.0,0.0,0.0,-3.0396819088673865e-05,-0.00015749365218602207,3.0254760191153474e-05,8.72136835465831e-05,-0.00017897087130097633,4.303586374065915e-05,-3.245882070768147e-05,0.0002677639273958743,0.0005630970357472585,0.00033887570347780404,0.0017245189136980668,-0.00011402724397424402,0.0003587682754021891,0.000512135127893459,0.2998287081718445,22.696680068969727,-0.02542426437139511,-14.108003616333008,-0.04057842493057251,-2.1453890800476074,0.39950889348983765,0
36,0.1750016212463379,-0.3236324191093445,-22.748254776000977,0.04922797530889511,14.056428909301758,0.05248028039932251,2.1325716972351074,-0.42605918645858765,0.0,0.0,0.0,0.0,0.0,0.0,0.0,-0.2803060978390813,0.09093608059153899,-0.05389999194440697,0.1822110547994981,-0.18844877367559817,-0.047739639328307416,-0.4173316743370828,1.6755286528343292,0.05226496710974721,0.029934740322022257,-2.7524784486891947,0.03442245237580076,2.7663294210556173,0.7691995460576369,1.6754973547542302,0.052104326824870026,0.029969505109285054,-2.752394845125968,0.0342448039870148,2.7663679543071322,0.7691630533470046,0.000259228067843424,0.0011047046494980907,-0.0011461795275563523,-0.0003496295187317379,-0.0003926864419607787,0.00027270471232105996,0.000864427470026666,0.0,0.0,0.0,0.0,0.0,0.0,0.0,-3.129808009894042e-05,-0.00016064028487718096,3.476478726279625e-05,8.360356322656415e-05,-0.0001776483887859573,3.853325151492726e-05,-3.649271063221882e-05,-0.000259228067843424,-0.0011047046494980907,0.0011461795275563523,0.0003496295187317379,0.0003926864419607787,-0.00027270471232105996,-0.000864427470026666,0.3236324191093445,22.748254776000977,-0.04922797530889511,-14.056428909301758,-0.05248028039932251,-2.1325716972351074,0.42605918645858765,0
37,0.18000102043151855,-0.3236324191093445,-22.748254776000977,0.04922797530889511,14.056428909301758,0.05248028039932251,2.1325716972351074,-0.42605918645858765,0.0,0.0,0.0,0.0,0.0,0.0,0.0,-0.2803060978390813,0.09093608059153899,-0.05389999194440697,0.1822110547994981,-0.18844877367559817,-0.047739639328307416,-0.4173316743370828,1.6755286528343292,0.05226496710974721,0.029934740322022257,-2.7524784486891947,0.03442245237580076,2.7663294210556173,0.7691995460576369,1.6754973547542302,0.052104326824870026,0.029969505109285054,-2.752394845125968,0.0342448039870148,2.7663679543071322,0.7691630533470046,0.000259228067843424,0.0011047046494980907,-0.0011461795275563523,-0.0003496295187317379,-0.0003926864419607787,0.00027270471232105996,0.000864427470026666,0.0,0.0,0.0,0.0,0.0,0.0,0.0,-3.129808009894042e-05,-0.00016064028487718096,3.476478726279625e-05,8.360356322656415e-05,-0.0001776483887859573,3.853325151492726e-05,-3.649271063221882e-05,-0.000259228067843424,-0.0011047046494980907,0.0011461795275563523,0.0003496295187317379,0.0003926864419607787,-0.00027270471232105996,-0.000864427470026666,0.3236324191093445,22.748254776000977,-0.04922797530889511,-14.056428909301758,-0.05248028039932251,-2.1325716972351074,0.42605918645858765,0
38,0.1849989891052246,-0.3236324191093445,-22.748254776000977,0.04922797530889511,14.056428909301758,0.05248028039932251,2.1325716972351074,-0.42605918645858765,0.0,0.0,0.0,0.0,0.0,0.0,0.0,-0.2803060978390813,0.09093608059153899,-0.05389999194440697,0.1822110547994981,-0.18844877367559817,-0.047739639328307416,-0.4173316743370828,1.6755286528343292,0.05226496710974721,0.029934740322022257,-2.7524784486891947,0.03442245237580076,2.7663294210556173,0.7691995460576369,1.6754973547542302,0.052104326824870026,0.029969505109285054,-2.752394845125968,0.0342448039870148,2.7663679543071322,0.7691630533470046,0.000259228067843424,0.0011047046494980907,-0.0011461795275563523,-0.0003496295187317379,-0.0003926864419607787,0.00027270471232105996,0.000864427470026666,0.0,0.0,0.0,0.0,0.0,0.0,0.0,-3.129808009894042e-05,-0.00016064028487718096,3.476478726279625e-05,8.360356322656415e-05,-0.0001776483887859573,3.853325151492726e-05,-3.649271063221882e-05,-0.000259228067843424,-0.0011047046494980907,0.0011461795275563523,0.0003496295187317379,0.0003926864419607787,-0.00027270471232105996,-0.000864427470026666,0.3236324191093445,22.748254776000977,-0.04922797530889511,-14.056428909301758,-0.05248028039932251,-2.1325716972351074,0.42605918645858765,0
39,0.18999719619750977,-0.3236324191093445,-22.748254776000977,0.04922797530889511,14.056428909301758,0.05248028039932251,2.1325716972351074,-0.42605918645858765,0.0,0.0,0.0,0.0,0.0,0.0,0.0,-0.2803060978390813,0.09093608059153899,-0.05389999194440697,0.1822110547994981,-0.18844877367559817,-0.047739639328307416,-0.4173316743370828,1.6755286528343292,0.05226496710974721,0.029934740322022257,-2.7524784486891947,0.03442245237580076,2.7663294210556173,0.7691995460576369,1.6754973547542302,0.052104326824870026,0.029969505109285054,-2.752394845125968,0.0342448039870148,2.7663679543071322,0.7691630533470046,0.000259228067843424,0.0011047046494980907,-0.0011461795275563523,-0.0003496295187317379,-0.0003926864419607787,0.00027270471232105996,0.000864427470026666,0.0,0.0,0.0,0.0,0.0,0.0,0.0,-3.129808009894042e-05,-0.00016064028487718096,3.476478726279625e-05,8.360356322656415e-05,-0.0001776483887859573,3.853325151492726e-05,-3.649271063221882e-05,-0.000259228067843424,-0.0011047046494980907,0.0011461795275563523,0.0003496295187317379,0.0003926864419607787,-0.00027270471232105996,-0.000864427470026666,0.3236324191093445,22.748254776000977,-0.04922797530889511,-14.056428909301758,-0.05248028039932251,-2.1325716972351074,0.42605918645858765,0
40,0.19523024559020996,-0.2998287081718445,-22.720483779907227,0.02542426437139511,14.080232620239258,0.04607158899307251,2.1389803886413574,-0.43979209661483765,0.0,0.0,0.0,0.0,0.0,0.0,0.0,-0.2910024753139727,0.09138860707971637,-0.062381476450678645,0.18305727933804403,-0.18823497312637572,-0.047006299612939346,-0.4157236189118195,1.6755277485604665,0.052263728662190756,0.029936446771156873,-2.752480109967735,0.03442316450675297,2.7663255142542367,0.7691999917394879,1.6754973547542302,0.052104326824870026,0.029969505109285054,-2.752394845125968,0.0342448039870148,2.7663679543071322,0.7691630533470046,-0.00025181131262724013,0.0005559041718209804,-0.00015879779560716375,-0.000640581794938931,-0.0041514277142160735,0.0001270718868945482,0.0009618240165522257,0.0,0.0,0.0,0.0,0.0,0.0,0.0,-3.0393806236261867e-05,-0.0001594018373207301,3.305833812818071e-05,8.526484176707427e-05,-0.00017836051973817157,4.244005289555375e-05,-3.693839248330999e-05,0.00025181131262724013,-0.0005559041718209804,0.00015879779560716375,0.000640581794938931,0.0041514277142160735,-0.0001270718868945482,-0.0009618240165522257,0.2998287081718445,22.720483779907227,-0.02542426437139511,-14.080232620239258,-0.04607158899307251,-2.1389803886413574,0.43979209661483765,0
41,0.1999976634979248,-0.2998287081718445,-22.720483779907227,0.02542426437139511,14.080232620239258,0.04607158899307251,2.1389803886413574,-0.43979209661483765,0.0,0.0,0.0,0.0,0.0,0.0,0.0,-0.2910024753139727,0.09138860707971637,-0.062381476450678645,0.18305727933804403,-0.18823497312637572,-0.047006299612939346,-0.4157236189118195,1.6755277485604665,0.052263728662190756,0.029936446771156873,-2.752480109967735,0.03442316450675297,2.7663255142542367,0.7691999917394879,1.6754973547542302,0.052104326824870026,0.029969505109285054,-2.752394845125968,0.0342448039870148,2.7663679543071322,0.7691630533470046,-0.00025181131262724013,0.0005559041718209804,-0.00015879779560716375,-0.000640581794938931,-0.0041514277142160735,0.0001270718868945482,0.0009618240165522257,0.0,0.0,0.0,0.0,0.0,0.0,0.0,-3.0393806236261867e-05,-0.0001594018373207301,3.305833812818071e-05,8.526484176707427e-05,-0.00017836051973817157,4.244005289555375e-05,-3.693839248330999e-05,0.00025181131262724013,-0.0005559041718209804,0.00015879779560716375,0.000640581794938931,0.0041514277142160735,-0.0001270718868945482,-0.0009618240165522257,0.2998287081718445,22.720483779907227,-0.02542426437139511,-14.080232620239258,-0.04607158899307251,-2.1389803886413574,0.43979209661483765,0
42,0.20499801635742188,-0.2720577120780945,-22.720483779907227,0.07303168624639511,14.080232620239258,0.04057842493057251,2.1261630058288574,-0.44711631536483765,0.0,0.0,0.0,0.0,0.0,0.0,0.0,-0.2847052784140238,0.08865689032562302,-0.05314857977173832,0.18316167357412652,-0.19014465011977555,-0.045804481713698095,-0.4167589295589865,1.6755257753033161,0.052261518554407756,0.029933386344000237,-2.752482335207755,0.03442377485831578,2.7663269935170876,0.7691983729383842,1.6754973547542302,0.052104326824870026,0.029969505109285054,-2.752394845125968,0.0342448039870148,2.7663679543071322,0.7691630533470046,0.00023557431764128066,0.0001973208420003541,-0.0003271025322294526,-0.0006417861080281566,-6.26459308837213e-05,0.0004931621324682305,0.0012579645877462352,0.0,0.0,0.0,0.0,0.0,0.0,0.0,-2.8420549085916846e-05,-0.0001571917295377298,3.6118765284816334e-05,8.749008178687845e-05,-0.00017897087130097633,4.096079004467512e-05,-3.5319591379590065e-05,-0.00023557431764128066,-0.0001973208420003541,0.0003271025322294526,0.0006417861080281566,6.26459308837213e-05,-0.0004931621324682305,-0.0012579645877462352,0.2720577120780945,22.720483779907227,-0.07303168624639511,-14.080232620239258,-0.04057842493057251,-2.1261630058288574,0.44711631536483765,0
43,0.20999741554260254,-0.2720577120780945,-22.720483779907227,0.07303168624639511,14.080232620239258,0.04057842493057251,2.1261630058288574,-0.44711631536483765,0.0,0.0,0.0,0.0,0.0,0.0,0.0,-0.2847052784140238,0.08865689032562302,-0.05314857977173832,0.18316167357412652,-0.19014465011977555,-0.045804481713698095,-0.4167589295589865,1.6755257753033161,0.052261518554407756,0.029933386344000237,-2.752482335207755,0.03442377485831578,2.7663269935170876,0.7691983729383842,1.6754973547542302,0.052104326824870026,0.029969505109285054,-2.752394845125968,0.0342448039870148,2.7663679543071322,0.7691630533470046,0.00023557431764128066,0.0001973208420003541,-0.0003271025322294526,-0.0006417861080281566,-6.26459308837213e-05,0.0004931621324682305,0.0012579645877462352,0.0,0.0,0.0,0.0,0.0,0.0,0.0,-2.8420549085916846e-05,-0.0001571917295377298,3.6118765284816334e-05,8.749008178687845e-05,-0.00017897087130097633,4.096079004467512e-05,-3.5319591379590065e-05,-0.00023557431764128066,-0.0001973208420003541,0.0003271025322294526,0.0006417861080281566,6.26459308837213e-05,-0.0004931621324682305,-0.0012579645877462352,0.2720577120780945,22.720483779907227,-0.07303168624639511,-14.080232620239258,-0.04057842493057251,-2.1261630058288574,0.44711631536483765,0
44,0.21499848365783691,-0.22445029020309448,-22.696680068969727,0.07303168624639511,14.056428909301758,0.03416973352432251,2.1325716972351074,-0.44711631536483765,0.0,0.0,0.0,0.0,0.0,0.0,0.0,-0.27541015103903727,0.08872602783881386,-0.045912464493932874,0.17977347462694185,-0.18972798058966805,-0.0463694733803882,-0.4177977858908768,1.6755194664273583,0.05225991531004992,0.029933070844100938,-2.7524806648863493,0.03442448693513869,2.766329416766117,0.7691983596995089,1.6754973547542302,0.052104326824870026,0.029969505109285054,-2.752394845125968,0.0342448039870148,2.7663679543071322,0.7691630533470046,-3.5914831858616857e-05,-0.0006955648309982278,0.0003366109181851523,-0.00035594699593325546,0.0005308999182028842,0.00023687457802939877,0.0013941004757325253,0.0,0.0,0.0,0.0,0.0,0.0,0.0,-2.211167312804463e-05,-0.00015558848517989443,3.6434265184116105e-05,8.581976038124495e-05,-0.00017968294812389235,3.8537541015237764e-05,-3.530635250426073e-05,3.5914831858616857e-05,0.0006955648309982278,-0.0003366109181851523,0.00035594699593325546,-0.0005308999182028842,-0.00023687457802939877,-0.0013941004757325253,0.22445029020309448,22.696680068969727,-0.07303168624639511,-14.056428909301758,-0.03416973352432251,-2.1325716972351074,0.44711631536483765,0
45,0.2200005054473877,-0.22445029020309448,-22.696680068969727,0.07303168624639511,14.056428909301758,0.03416973352432251,2.1325716972351074,-0.44711631536483765,0.0,0.0,0.0,0.0,0.0,0.0,0.0,-0.27541015103903727,0.08872602783881386,-0.045912464493932874,0.17977347462694185,-0.18972798058966805,-0.0463694733803882,-0.4177977858908768,1.6755194664273583,0.05225991531004992,0.029933070844100938,-2.7524806648863493,0.03442448693513869,2.766329416766117,0.7691983596995089,1.6754973547542302,0.052104326824870026,0.029969505109285054,-2.752394845125968,0.0342448039870148,2.7663679543071322,0.7691630533470046,-3.5914831858616857e-05,-0.0006955648309982278,0.0003366109181851523,-0.00035594699593325546,0.0005308999182028842,0.00023687457802939877,0.0013941004757325253,0.0,0.0,0.0,0.0,0.0,0.0,0.0,-2.211167312804463e-05,-0.00015558848517989443,3.6434265184116105e-05,8.581976038124495e-05,-0.00017968294812389235,3.8537541015237764e-05,-3.530635250426073e-05,3.5914831858616857e-05,0.0006955648309982278,-0.0003366109181851523,0.00035594699593325546,-0.0005308999182028842,-0.00023687457802939877,-0.0013941004757325253,0.22445029020309448,22.696680068969727,-0.07303168624639511,-14.056428909301758,-0.03416973352432251,-2.1325716972351074,0.44711631536483765,0
46,0.22579646110534668,-0.2720577120780945,-22.720483779907227,0.02542426437139511,14.032625198364258,0.04607158899307251,2.1453890800476074,-0.44711631536483765,0.0,0.0,0.0,0.0,0.0,0.0,0.0,-0.2706369637133288,0.08748491360396587,-0.04444468032000025,0.17949526039824504,-0.18854576833956876,-0.04633867338170024,-0.41788911461103684,1.6755257895312163,0.05226371988510803,0.029936414636913777,-2.752476769221589,0.03442316450675328,2.7663280187225787,0.7692004379349601,1.6754973547542302,0.052104326824870026,0.029969505109285054,-2.752394845125968,0.0342448039870148,2.7663679543071322,0.7691630533470046,0.000674107176655759,6.102138579859101e-05,0.0007613855264248782,0.00016539244518134214,-0.0002440920619036373,-2.3160379990899486e-05,0.0014270426288550155,0.0,0.0,0.0,0.0,0.0,0.0,0.0,-2.843477698610819e-05,-0.00015939306023800281,3.309047237127702e-05,8.192409562068903e-05,-0.00017836051973847689,3.993558455350765e-05,-3.7384587955435755e-05,-0.000674107176655759,-6.102138579859101e-05,-0.0007613855264248782,-0.00016539244518134214,0.0002440920619036373,2.3160379990899486e-05,-0.0014270426288550155,0.2720577120780945,22.720483779907227,-0.02542426437139511,-14.032625198364258,-0.04607158899307251,-2.1453890800476074,0.44711631536483765,0
47,0.2300124168395996,-0.2720577120780945,-22.720483779907227,0.02542426437139511,14.032625198364258,0.04607158899307251,2.1453890800476074,-0.44711631536483765,0.0,0.0,0.0,0.0,0.0,0.0,0.0,-0.2706369637133288,0.08748491360396587,-0.04444468032000025,0.17949526039824504,-0.18854576833956876,-0.04633867338170024,-0.41788911461103684,1.6755257895312163,0.05226371988510803,0.029936414636913777,-2.752476769221589,0.03442316450675328,2.7663280187225787,0.7692004379349601,1.6754973547542302,0.052104326824870026,0.029969505109285054,-2.752394845125968,0.0342448039870148,2.7663679543071322,0.7691630533470046,0.000674107176655759,6.102138579859101e-05,0.0007613855264248782,0.00016539244518134214,-0.0002440920619036373,-2.3160379990899486e-05,0.0014270426288550155,0.0,0.0,0.0,0.0,0.0,0.0,0.0,-2.843477698610819e-05,-0.00015939306023800281,3.309047237127702e-05,8.192409562068903e-05,-0.00017836051973847689,3.993558455350765e-05,-3.7384587955435755e-05,-0.000674107176655759,-6.102138579859101e-05,-0.0007613855264248782,-0.00016539244518134214,0.0002440920619036373,2.3160379990899486e-05,-0.0014270426288550155,0.2720577120780945,22.720483779907227,-0.02542426437139511,-14.032625198364258,-0.04607158899307251,-2.1453890800476074,0.44711631536483765,0
48,0.23500442504882812,-0.2998287081718445,-22.696680068969727,0.02542426437139511,14.008821487426758,0.04057842493057251,2.1325716972351074,-0.43979209661483765,0.0,0.0,0.0,0.0,0.0,0.0,0.0,-0.2677804330463061,0.08789788662640696,-0.044494898757763676,0.1825082774284624,-0.18900338320722293,-0.04564258921412632,-0.41666519629997495,1.67552775161704,0.05226204946120091,0.029936726350004352,-2.7524750986601196,0.03442377485831578,2.7663262639983177,0.7691968512911971,1.6754973547542302,0.052104326824870026,0.029969505109285054,-2.752394845125968,0.0342448039870148,2.7663679543071322,0.7691630533470046,0.0004364773417251276,0.00021364987300987975,-4.882754134412766e-07,0.0014208531746334652,0.00012613296121359282,0.00022146138222341028,0.0013633691143005464,0.0,0.0,0.0,0.0,0.0,0.0,0.0,-3.0396862809700664e-05,-0.00015772263633088285,3.277875928070148e-05,8.025353415153091e-05,-0.00017897087130097633,4.169030881451263e-05,-3.3797944192448526e-05,-0.0004364773417251276,-0.00021364987300987975,4.882754134412766e-07,-0.0014208531746334652,-0.00012613296121359282,-0.00022146138222341028,-0.0013633691143005464,0.2998287081718445,22.696680068969727,-0.02542426437139511,-14.008821487426758,-0.04057842493057251,-2.1325716972351074,0.43979209661483765,0
49,0.2400205135345459,-0.2998287081718445,-22.696680068969727,0.02542426437139511,14.008821487426758,0.04057842493057251,2.1325716972351074,-0.43979209661483765,0.0,0.0,0.0,0.0,0.0,0.0,0.0,-0.2677804330463061,0.08789788662640696,-0.044494898757763676,0.1825082774284624,-0.18900338320722293,-0.04564258921412632,-0.41666519629997495,1.67552775161704,0.05226204946120091,0.029936726350004352,-2.7524750986601196,0.03442377485831578,2.7663262639983177,0.7691968512911971,1.6754973547542302,0.052104326824870026,0.029969505109285054,-2.752394845125968,0.0342448039870148,2.7663679543071322,0.7691630533470046,0.0004364773417251276,0.00021364987300987975,-4.882754134412766e-07,0.0014208531746334652,0.00012613296121359282,0.00022146138222341028,0.0013633691143005464,0.0,0.0,0.0,0.0,0.0,0.0,0.0,-3.0396862809700664e-05,-0.00015772263633088285,3.277875928070148e-05,8.025353415153091e-05,-0.00017897087130097633,4.169030881451263e-05,-3.3797944192448526e-05,-0.0004364773417251276,-0.00021364987300987975,4.882754134412766e-07,-0.0014208531746334652,-0.00012613296121359282,-0.00022146138222341028,-0.0013633691143005464,0.2998287081718445,22.696680068969727,-0.02542426437139511,-14.008821487426758,-0.04057842493057251,-2.1325716972351074,0.43979209661483765,0
50,0.24500417709350586,-0.2720577120780945,-22.696680068969727,-0.02615044265985489,14.056428909301758,0.05248028039932251,2.1389803886413574,-0.38577598333358765,0.0,0.0,0.0,0.0,0.0,0.0,0.0,-0.26654679901626205,0.09233981443661789,-0.04556846433850097,0.17967821053746072,-0.19049256238800905,-0.047352631053722935,-0.4159513690347874,1.6755248106143363,0.05225992702747205,0.02994029293670681,-2.7524785219606884,0.034421386996905,2.7663287046354967,0.7691952052712088,1.6754973547542302,0.052104326824870026,0.029969505109285054,-2.752394845125968,0.0342448039870148,2.7663679543071322,0.7691630533470046,-0.0007363691154343822,0.0003551216432892342,0.0007274740204303116,-0.00023554762024401664,-0.00043450244769365593,-8.120869886618096e-05,-0.001361339508414214,0.0,0.0,0.0,0.0,0.0,0.0,0.0,-2.745586010610701e-05,-0.00015560020260202423,2.9212172578244044e-05,8.367683472032539e-05,-0.00017658300989020076,3.9249671635488426e-05,-3.215192420413793e-05,0.0007363691154343822,-0.0003551216432892342,-0.0007274740204303116,0.00023554762024401664,0.00043450244769365593,8.120869886618096e-05,0.001361339508414214,0.2720577120780945,22.696680068969727,0.02615044265985489,-14.056428909301758,-0.05248028039932251,-2.1389803886413574,0.38577598333358765,0
51,0.2500016689300537,-0.2720577120780945,-22.696680068969727,-0.02615044265985489,14.056428909301758,0.05248028039932251,2.1389803886413574,-0.38577598333358765,0.0,0.0,0.0,0.0,0.0,0.0,0.0,-0.26654679901626205,0.09233981443661789,-0.04556846433850097,0.17967821053746072,-0.19049256238800905,-0.047352631053722935,-0.4159513690347874,1.6755248106143363,0.05225992702747205,0.02994029293670681,-2.7524785219606884,0.034421386996905,2.7663287046354967,0.7691952052712088,1.6754973547542302,0.052104326824870026,0.029969505109285054,-2.752394845125968,0.0342448039870148,2.7663679543071322,0.7691630533470046,-0.0007363691154343822,0.0003551216432892342,0.0007274740204303116,-0.00023554762024401664,-0.00043450244769365593,-8.120869886618096e-05,-0.001361339508414214,0.0,0.0,0.0,0.0,0.0,0.0,0.0,-2.745586010610701e-05,-0.00015560020260202423,2.9212172578244044e-05,8.367683472032539e-05,-0.00017658300989020076,3.9249671635488426e-05,-3.215192420413793e-05,0.0007363691154343822,-0.0003551216432892342,-0.0007274740204303116,0.00023554762024401664,0.00043450244769365593,8.120869886618096e-05,0.001361339508414214,0.2720577120780945,22.696680068969727,0.02615044265985489,-14.056428909301758,-0.05248028039932251,-2.1389803886413574,0.38577598333358765,0
52,0.25499916076660156,-0.2998287081718445,-22.720483779907227,0.001620553433895111,14.008821487426758,0.04607158899307251,2.1389803886413574,-0.43338340520858765,0.0,0.0,0.0,0.0,0.0,0.0,0.0,-0.27057055034689675,0.09239345967955352,-0.051553607412934785,0.1814549355954519,-0.19092066681188116,-0.04749767482896458,-0.41512015283008613,1.6755255263339073,0.052263728545911055,0.02994021080347458,-2.752475098660583,0.03442316450073888,2.766326694537012,0.769197159471971,1.6754973547542302,0.052104326824870026,0.029969505109285054,-2.752394845125968,0.0342448039870148,2.7663679543071322,0.7691630533470046,0.0001948484259522968,0.0008741802316188698,0.0003316904945146116,0.0007441529937840249,-8.802195289740562e-05,1.4392259464321875e-05,0.0011377748838582093,0.0,0.0,0.0,0.0,0.0,0.0,0.0,-2.8171579677049863e-05,-0.00015940172104102895,2.929430581047332e-05,8.025353461471596e-05,-0.00017836051372407957,4.125977012003901e-05,-3.4106124966348794e-05,-0.0001948484259522968,-0.0008741802316188698,-0.0003316904945146116,-0.0007441529937840249,8.802195289740562e-05,-1.4392259464321875e-05,-0.0011377748838582093,0.2998287081718445,22.720483779907227,-0.001620553433895111,-14.008821487426758,-0.04607158899307251,-2.1389803886413574,0.43338340520858765,0
53,0.26000070571899414,-0.2998287081718445,-22.720483779907227,0.001620553433895111,14.008821487426758,0.04607158899307251,2.1389803886413574,-0.43338340520858765,0.0,0.0,0.0,0.0,0.0,0.0,0.0,-0.27057055034689675,0.09239345967955352,-0.051553607412934785,0.1814549355954519,-0.19092066681188116,-0.04749767482896458,-0.41512015283008613,1.6755255263339073,0.052263728545911055,0.02994021080347458,-2.752475098660583,0.03442316450073888,2.766326694537012,0.769197159471971,1.6754973547542302,0.052104326824870026,0.029969505109285054,-2.752394845125968,0.0342448039870148,2.7663679543071322,0.7691630533470046,0.0001948484259522968,0.0008741802316188698,0.0003316904945146116,0.0007441529937840249,-8.802195289740562e-05,1.4392259464321875e-05,0.0011377748838582093,0.0,0.0,0.0,0.0,0.0,0.0,0.0,-2.8171579677049863e-05,-0.00015940172104102895,2.929430581047332e-05,8.025353461471596e-05,-0.00017836051372407957,4.125977012003901e-05,-3.4106124966348794e-05,-0.0001948484259522968,-0.0008741802316188698,-0.0003316904945146116,-0.0007441529937840249,8.802195289740562e-05,-1.4392259464321875e-05,-0.0011377748838582093,0.2998287081718445,22.720483779907227,-0.001620553433895111,-14.008821487426758,-0.04607158899307251,-2.1389803886413574,0.43338340520858765,0
54,0.2650151252746582,-0.24825400114059448,-22.748254776000977,0.02542426437139511,14.032625198364258,0.02867656946182251,2.1389803886413574,-0.41324180364608765,0.0,0.0,0.0,0.0,0.0,0.0,0.0,-0.2745121244699381,0.08666722899350741,-0.05358427861688164,0.18404029380657574,-0.19056600215422922,-0.046749588084356794,-0.41371148749504616,1.6755240468582615,0.052265673610699837,0.02993712095322045,-2.7524770166840313,0.034425097286701165,2.7663266129653454,0.7691950229229187,1.6754973547542302,0.052104326824870026,0.029969505109285054,-2.752394845125968,0.0342448039870148,2.7663679543071322,0.7691630533470046,-0.0008480495927465341,0.0006949778549125357,-2.4906921111145998e-05,0.0002674190262927263,0.00047931290001768535,-1.7952217209458971e-06,0.00027180567514435965,0.0,0.0,0.0,0.0,0.0,0.0,0.0,-2.669210403127842e-05,-0.00016134678582981066,3.23841560646021e-05,8.217155806322651e-05,-0.00018029329968636404,4.1341341786793606e-05,-3.1969575914114756e-05,0.0008480495927465341,-0.0006949778549125357,2.4906921111145998e-05,-0.0002674190262927263,-0.00047931290001768535,1.7952217209458971e-06,-0.00027180567514435965,0.24825400114059448,22.748254776000977,-0.02542426437139511,-14.032625198364258,-0.02867656946182251,-2.1389803886413574,0.41324180364608765,0
55,0.27018284797668457,-0.24825400114059448,-22.748254776000977,0.02542426437139511,14.032625198364258,0.02867656946182251,2.1389803886413574,-0.41324180364608765,0.0,0.0,0.0,0.0,0.0,0.0,0.0,-0.2745121244699381,0.08666722899350741,-0.05358427861688164,0.18404029380657574,-0.19056600215422922,-0.046749588084356794,-0.41371148749504616,1.6755240468582615,0.052265673610699837,0.02993712095322045,-2.7524770166840313,0.034425097286701165,2.7663266129653454,0.7691950229229187,1.6754973547542302,0.052104326824870026,0.029969505109285054,-2.752394845125968,0.0342448039870148,2.7663679543071322,0.7691630533470046,-0.0008480495927465341,0.0006949778549125357,-2.4906921111145998e-05,0.0002674190262927263,0.00047931290001768535,-1.7952217209458971e-06,0.00027180567514435965,0.0,0.0,0.0,0.0,0.0,0.0,0.0,-2.669210403127842e-05,-0.00016134678582981066,3.23841560646021e-05,8.217155806322651e-05,-0.00018029329968636404,4.1341341786793606e-05,-3.1969575914114756e-05,0.0008480495927465341,-0.0006949778549125357,2.4906921111145998e-05,-0.0002674190262927263,-0.00047931290001768535,1.7952217209458971e-06,-0.00027180567514435965,0.24825400114059448,22.748254776000977,-0.02542426437139511,-14.032625198364258,-0.02867656946182251,-2.1389803886413574,0.41324180364608765,0
56,0.2750129699707031,-0.24825400114059448,-22.748254776000977,-0.02615044265985489,14.032625198364258,0.04057842493057251,2.1453890800476074,-0.45352500677108765,0.0,0.0,0.0,0.0,0.0,0.0,0.0,-0.2778265503751924,0.08772333698285502,-0.054845468215192636,0.17866370350118202,-0.19022874878533877,-0.046698997665346006,-0.413421625659664,1.6755241231817288,0.05226495743991114,0.029940030023543424,-2.7524767969086317,0.03442377485831578,2.7663253123617184,0.7692015176009005,1.6754973547542302,0.052104326824870026,0.029969505109285054,-2.752394845125968,0.0342448039870148,2.7663679543071322,0.7691630533470046,-0.0007724798769245695,0.0006361112547231756,0.0018437715076343368,0.0003108757161094288,-4.9503776363388084e-05,-7.151102140966212e-05,0.0016565477880572457,0.0,0.0,0.0,0.0,0.0,0.0,0.0,-2.676842749860242e-05,-0.00016063061504111714,2.9475085741630103e-05,8.195178266356962e-05,-0.00017897087130097633,4.264194541381272e-05,-3.846425389586461e-05,0.0007724798769245695,-0.0006361112547231756,-0.0018437715076343368,-0.0003108757161094288,4.9503776363388084e-05,7.151102140966212e-05,-0.0016565477880572457,0.24825400114059448,22.748254776000977,0.02615044265985489,-14.032625198364258,-0.04057842493057251,-2.1453890800476074,0.45352500677108765,0
57,0.2800006866455078,-0.24825400114059448,-22.748254776000977,-0.02615044265985489,14.032625198364258,0.04057842493057251,2.1453890800476074,-0.45352500677108765,0.0,0.0,0.0,0.0,0.0,0.0,0.0,-0.2778265503751924,0.08772333698285502,-0.054845468215192636,0.17866370350118202,-0.19022874878533877,-0.046698997665346006,-0.413421625659664,1.6755241231817288,0.05226495743991114,0.029940030023543424,-2.7524767969086317,0.03442377485831578,2.7663253123617184,0.7692015176009005,1.6754973547542302,0.052104326824870026,0.029969505109285054,-2.752394845125968,0.0342448039870148,2.7663679543071322,0.7691630533470046,-0.0007724798769245695,0.0006361112547231756,0.0018437715076343368,0.0003108757161094288,-4.9503776363388084e-05,-7.151102140966212e-05,0.0016565477880572457,0.0,0.0,0.0,0.0,0.0,0.0,0.0,-2.676842749860242e-05,-0.00016063061504111714,2.9475085741630103e-05,8.195178266356962e-05,-0.00017897087130097633,4.264194541381272e-05,-3.846425389586461e-05,0.0007724798769245695,-0.0006361112547231756,-0.0018437715076343368,-0.0003108757161094288,4.9503776363388084e-05,7.151102140966212e-05,-0.0016565477880572457,0.24825400114059448,22.748254776000977,0.02615044265985489,-14.032625198364258,-0.04057842493057251,-2.1453890800476074,0.45352500677108765,0
58,0.285020112991333,-0.24825400114059448,-22.748254776000977,-0.02615044265985489,14.032625198364258,0.04057842493057251,2.1453890800476074,-0.45352500677108765,0.0,0.0,0.0,0.0,0.0,0.0,0.0,-0.2778265503751924,0.08772333698285502,-0.054845468215192636,0.17866370350118202,-0.19022874878533877,-0.046698997665346006,-0.413421625659664,1.6755241231817288,0.05226495743991114,0.029940030023543424,-2.7524767969086317,0.03442377485831578,2.7663253123617184,0.7692015176009005,1.6754973547542302,0.052104326824870026,0.029969505109285054,-2.752394845125968,0.0342448039870148,2.7663679543071322,0.7691630533470046,-0.0007724798769245695,0.0006361112547231756,0.0018437715076343368,0.0003108757161094288,-4.9503776363388084e-05,-7.151102140966212e-05,0.0016565477880572457,0.0,0.0,0.0,0.0,0.0,0.0,0.0,-2.676842749860242e-05,-0.00016063061504111714,2.9475085741630103e-05,8.195178266356962e-05,-0.00017897087130097633,4.264194541381272e-05,-3.846425389586461e-05,0.0007724798769245695,-0.0006361112547231756,-0.0018437715076343368,-0.0003108757161094288,4.9503776363388084e-05,7.151102140966212e-05,-0.0016565477880572457,0.24825400114059448,22.748254776000977,0.02615044265985489,-14.032625198364258,-0.04057842493057251,-2.1453890800476074,0.45352500677108765,0
59,0.2900726795196533,-0.24825400114059448,-22.748254776000977,-0.02615044265985489,14.032625198364258,0.04057842493057251,2.1453890800476074,-0.45352500677108765,0.0,0.0,0.0,0.0,0.0,0.0,0.0,-0.2778265503751924,0.08772333698285502,-0.054845468215192636,0.17866370350118202,-0.19022874878533877,-0.046698997665346006,-0.413421625659664,1.6755241231817288,0.05226495743991114,0.029940030023543424,-2.7524767969086317,0.03442377485831578,2.7663253123617184,0.7692015176009005,1.6754973547542302,0.052104326824870026,0.029969505109285054,-2.752394845125968,0.0342448039870148,2.7663679543071322,0.7691630533470046,-0.0007724798769245695,0.0006361112547231756,0.0018437715076343368,0.0003108757161094288,-4.9503776363388084e-05,-7.151102140966212e-05,0.0016565477880572457,0.0,0.0,0.0,0.0,0.0,0.0,0.0,-2.676842749860242e-05,-0.00016063061504111714,2.9475085741630103e-05,8.195178266356962e-05,-0.00017897087130097633,4.264194541381272e-05,-3.846425389586461e-05,0.0007724798769245695,-0.0006361112547231756,-0.0018437715076343368,-0.0003108757161094288,4.9503776363388084e-05,7.151102140966212e-05,-0.0016565477880572457,0.24825400114059448,22.748254776000977,0.02615044265985489,-14.032625198364258,-0.04057842493057251,-2.1453890800476074,0.45352500677108765,0
60,0.29500246047973633,-0.2720577120780945,-22.696680068969727,0.04922797530889511,14.056428909301758,0.04057842493057251,2.1389803886413574,-0.44711631536483765,0.0,0.0,0.0,0.0,0.0,0.0,0.0,-0.2786547148505277,0.08583752318119849,-0.053678394586258754,0.17805370587459687,-0.1897961473866642,-0.046073890907029666,-0.41381470505458806,1.6755255554134305,0.05225992703545255,0.02993545407581547,-2.752478439531985,0.03442270942529042,2.7663255126240265,0.7692015076002423,1.6754973547542302,0.052104326824870026,0.029969505109285054,-2.752394845125968,0.0342448039870148,2.7663679543071322,0.7691630533470046,9.04699018395842e-06,-0.00041139507188324664,-6.796727826013537e-05,-0.0002517422740561436,0.0001747150784832479,4.443903950401417e-05,0.0007748539494220876,0.0,0.0,0.0,0.0,0.0,0.0,0.0,-2.8200659200283695e-05,-0.00015560021058252244,3.405103346958496e-05,8.359440601690693e-05,-0.00017790543827561622,4.244168310574281e-05,-3.845425323767415e-05,-9.04699018395842e-06,0.00041139507188324664,6.796727826013537e-05,0.0002517422740561436,-0.0001747150784832479,-4.443903950401417e-05,-0.0007748539494220876,0.2720577120780945,22.696680068969727,-0.04922797530889511,-14.056428909301758,-0.04057842493057251,-2.1389803886413574,0.44711631536483765,0
61,0.30006933212280273,-0.2720577120780945,-22.696680068969727,0.04922797530889511,14.056428909301758,0.04057842493057251,2.1389803886413574,-0.44711631536483765,0.0,0.0,0.0,0.0,0.0,0.0,0.0,-0.2786547148505277,0.08583752318119849,-0.053678394586258754,0.17805370587459687,-0.1897961473866642,-0.046073890907029666,-0.41381470505458806,1.6755255554134305,0.05225992703545255,0.02993545407581547,-2.752478439531985,0.03442270942529042,2.7663255126240265,0.7692015076002423,1.6754973547542302,0.052104326824870026,0.029969505109285054,-2.752394845125968,0.0342448039870148,2.7663679543071322,0.7691630533470046,9.04699018395842e-06,-0.00041139507188324664,-6.796727826013537e-05,-0.0002517422740561436,0.0001747150784832479,4.443903950401417e-05,0.0007748539494220876,0.0,0.0,0.0,0.0,0.0,0.0,0.0,-2.8200659200283695e-05,-0.00015560021058252244,3.405103346958496e-05,8.359440601690693e-05,-0.00017790543827561622,4.244168310574281e-05,-3.845425323767415e-05,-9.04699018395842e-06,0.00041139507188324664,6.796727826013537e-05,0.0002517422740561436,-0.0001747150784832479,-4.443903950401417e-05,-0.0007748539494220876,0.2720577120780945,22.696680068969727,-0.04922797530889511,-14.056428909301758,-0.04057842493057251,-2.1389803886413574,0.44711631536483765,0
62,0.30501818656921387,-0.2998287081718445,-22.696680068969727,0.07303168624639511,14.056428909301758,0.04057842493057251,2.1389803886413574,-0.39950889348983765,0.0,0.0,0.0,0.0,0.0,0.0,0.0,-0.27150566702586043,0.08838296868506704,-0.04634927227134351,0.1772998332082292,-0.1898290170205065,-0.04675901253490698,-0.41589913087657904,1.6755277241437683,0.052259190648333266,0.029933072831527276,-2.7524806647718996,0.03442377485230138,2.7663255300637406,0.7691956684486709,1.6754973547542302,0.052104326824870026,0.029969505109285054,-2.752394845125968,0.0342448039870148,2.7663679543071322,0.7691630533470046,0.0013519075452642698,-0.00011974141208316164,-0.00038844849436682775,-0.00022303636405093021,-3.4888376218800994e-05,-2.4118927319847994e-05,-0.0008561278181389739,0.0,0.0,0.0,0.0,0.0,0.0,0.0,-3.0369389538043023e-05,-0.00015486382346324018,3.643227775777802e-05,8.581964593146196e-05,-0.00017897086528657902,4.242424339162554e-05,-3.2615101666300106e-05,-0.0013519075452642698,0.00011974141208316164,0.00038844849436682775,0.00022303636405093021,3.4888376218800994e-05,2.4118927319847994e-05,0.0008561278181389739,0.2998287081718445,22.696680068969727,-0.07303168624639511,-14.056428909301758,-0.04057842493057251,-2.1389803886413574,0.39950889348983765,0
63,0.31002092361450195,-0.2998287081718445,-22.696680068969727,0.07303168624639511,14.056428909301758,0.04057842493057251,2.1389803886413574,-0.39950889348983765,0.0,0.0,0.0,0.0,0.0,0.0,0.0,-0.27150566702586043,0.08838296868506704,-0.04634927227134351,0.1772998332082292,-0.1898290170205065,-0.04675901253490698,-0.41589913087657904,1.6755277241437683,0.052259190648333266,0.029933072831527276,-2.7524806647718996,0.03442377485230138,2.7663255300637406,0.7691956684486709,1.6754973547542302,0.052104326824870026,0.029969505109285054,-2.752394845125968,0.0342448039870148,2.7663679543071322,0.7691630533470046,0.0013519075452642698,-0.00011974141208316164,-0.00038844849436682775,-0.00022303636405093021,-3.4888376218800994e-05,-2.4118927319847994e-05,-0.0008561278181389739,0.0,0.0,0.0,0.0,0.0,0.0,0.0,-3.0369389538043023e-05,-0.00015486382346324018,3.643227775777802e-05,8.581964593146196e-05,-0.00017897086528657902,4.242424339162554e-05,-3.2615101666300106e-05,-0.0013519075452642698,0.00011974141208316164,0.00038844849436682775,0.00022303636405093021,3.4888376218800994e-05,2.4118927319847994e-05,0.0008561278181389739,0.2998287081718445,22.696680068969727,-0.07303168624639511,-14.056428909301758,-0.04057842493057251,-2.1389803886413574,0.39950889348983765,0
64,0.3150210380554199,-0.24825400114059448,-22.696680068969727,0.07303168624639511,14.056428909301758,0.02867656946182251,2.1453890800476074,-0.40591758489608765,0.0,0.0,0.0,0.0,0.0,0.0,0.0,-0.2718227553997125,0.09021902703405581,-0.04691088578571738,0.1813354580032331,-0.18982846761854688,-0.04665603987453517,-0.41521383983313326,1.6755238535484855,0.0522599273481074,0.02993310492569787,-2.75247918129108,0.034425097286701165,2.7663262133952524,0.7691963848830429,1.6754973547542302,0.052104326824870026,0.029969505109285054,-2.752394845125968,0.0342448039870148,2.7663679543071322,0.7691630533470046,4.450619007642677e-05,0.000245795326266134,-0.0004798399858890021,-0.00011743177807516676,0.0004603862952627475,-0.0003963755164724013,-0.00036316454287544785,0.0,0.0,0.0,0.0,0.0,0.0,0.0,-2.6498794255314095e-05,-0.00015560052323737583,3.640018358718258e-05,8.433616511194231e-05,-0.00018029329968636404,4.174091187980622e-05,-3.333153603823913e-05,-4.450619007642677e-05,-0.000245795326266134,0.0004798399858890021,0.00011743177807516676,-0.0004603862952627475,0.0003963755164724013,0.00036316454287544785,0.24825400114059448,22.696680068969727,-0.07303168624639511,-14.056428909301758,-0.02867656946182251,-2.1453890800476074,0.40591758489608765,0
65,0.31999874114990234,-0.24825400114059448,-22.696680068969727,0.07303168624639511,14.056428909301758,0.02867656946182251,2.1453890800476074,-0.40591758489608765,0.0,0.0,0.0,0.0,0.0,0.0,0.0,-0.2718227553997125,0.09021902703405581,-0.04691088578571738,0.1813354580032331,-0.18982846761854688,-0.04665603987453517,-0.41521383983313326,1.6755238535484855,0.0522599273481074,0.02993310492569787,-2.75247918129108,0.034425097286701165,2.7663262133952524,0.7691963848830429,1.6754973547542302,0.052104326824870026,0.029969505109285054,-2.752394845125968,0.0342448039870148,2.7663679543071322,0.7691630533470046,4.450619007642677e-05,0.000245795326266134,-0.0004798399858890021,-0.00011743177807516676,0.0004603862952627475,-0.0003963755164724013,-0.00036316454287544785,0.0,0.0,0.0,0.0,0.0,0.0,0.0,-2.6498794255314095e-05,-0.00015560052323737583,3.640018358718258e-05,8.433616511194231e-05,-0.00018029329968636404,4.174091187980622e-05,-3.333153603823913e-05,-4.450619007642677e-05,-0.000245795326266134,0.0004798399858890021,0.00011743177807516676,-0.0004603862952627475,0.0003963755164724013,0.00036316454287544785,0.24825400114059448,22.696680068969727,-0.07303168624639511,-14.056428909301758,-0.02867656946182251,-2.1453890800476074,0.40591758489608765,0
66,0.3249983787536621,-0.3236324191093445,-22.720483779907227,0.07303168624639511,14.080232620239258,0.04057842493057251,2.1389803886413574,-0.40591758489608765,0.0,0.0,0.0,0.0,0.0,0.0,0.0,-0.2688083885156138,0.09287972639776758,-0.04697231461354195,0.18178893812343797,-0.18999478248296592,-0.04689034047194653,-0.41565944976549024,1.6755294125550175,0.05226078227148467,0.02993306987033522,-2.7524801099718705,0.03442377485831578,2.7663258789237752,0.7691973139170155,1.6754973547542302,0.052104326824870026,0.029969505109285054,-2.752394845125968,0.0342448039870148,2.7663679543071322,0.7691630533470046,0.0017266938231410482,0.0005152776197776921,-0.0006685562143897924,-0.0007017644346383484,4.470635344157544e-05,-7.17516004712074e-05,-0.000284106534099073,0.0,0.0,0.0,0.0,0.0,0.0,0.0,-3.2057800787299584e-05,-0.0001564554466146409,3.643523894983347e-05,8.5264845902433e-05,-0.00017897087130097633,4.207538335698757e-05,-3.426057001088001e-05,-0.0017266938231410482,-0.0005152776197776921,0.0006685562143897924,0.0007017644346383484,-4.470635344157544e-05,7.17516004712074e-05,0.000284106534099073,0.3236324191093445,22.720483779907227,-0.07303168624639511,-14.080232620239258,-0.04057842493057251,-2.1389803886413574,0.40591758489608765,0
67,0.33001017570495605,-0.3236324191093445,-22.720483779907227,0.07303168624639511,14.080232620239258,0.04057842493057251,2.1389803886413574,-0.40591758489608765,0.0,0.0,0.0,0.0,0.0,0.0,0.0,-0.2688083885156138,0.09287972639776758,-0.04697231461354195,0.18178893812343797,-0.18999478248296592,-0.04689034047194653,-0.41565944976549024,1.6755294125550175,0.05226078227148467,0.02993306987033522,-2.7524801099718705,0.03442377485831578,2.7663258789237752,0.7691973139170155,1.6754973547542302,0.052104326824870026,0.029969505109285054,-2.752394845125968,0.0342448039870148,2.7663679543071322,0.7691630533470046,0.0017266938231410482,0.0005152776197776921,-0.0006685562143897924,-0.0007017644346383484,4.470635344157544e-05,-7.17516004712074e-05,-0.000284106534099073,0.0,0.0,0.0,0.0,0.0,0.0,0.0,-3.2057800787299584e-05,-0.0001564554466146409,3.643523894983347e-05,8.5264845902433e-05,-0.00017897087130097633,4.207538335698757e-05,-3.426057001088001e-05,-0.0017266938231410482,-0.0005152776197776921,0.0006685562143897924,0.0007017644346383484,-4.470635344157544e-05,7.17516004712074e-05,0.000284106534099073,0.3236324191093445,22.720483779907227,-0.07303168624639511,-14.080232620239258,-0.04057842493057251,-2.1389803886413574,0.40591758489608765,0
68,0.33001017570495605,-0.3236324191093445,-22.720483779907227,0.07303168624639511,14.080232620239258,0.04057842493057251,2.1389803886413574,-0.40591758489608765,0.0,0.0,0.0,0.0,0.0,0.0,0.0,-0.2688083885156138,0.09287972639776758,-0.04697231461354195,0.18178893812343797,-0.18999478248296592,-0.04689034047194653,-0.41565944976549024,1.6755294125550175,0.05226078227148467,0.02993306987033522,-2.7524801099718705,0.03442377485831578,2.7663258789237752,0.7691973139170155,1.6754973547542302,0.052104326824870026,0.029969505109285054,-2.752394845125968,0.0342448039870148,2.7663679543071322,0.7691630533470046,0.0017266938231410482,0.0005152776197776921,-0.0006685562143897924,-0.0007017644346383484,4.470635344157544e-05,-7.17516004712074e-05,-0.000284106534099073,0.0,0.0,0.0,0.0,0.0,0.0,0.0,-3.2057800787299584e-05,-0.0001564554466146409,3.643523894983347e-05,8.5264845902433e-05,-0.00017897087130097633,4.207538335698757e-05,-3.426057001088001e-05,-0.0017266938231410482,-0.0005152776197776921,0.0006685562143897924,0.0007017644346383484,-4.470635344157544e-05,7.17516004712074e-05,0.000284106534099073,0.3236324191093445,22.720483779907227,-0.07303168624639511,-14.080232620239258,-0.04057842493057251,-2.1389803886413574,0.40591758489608765,0
69,0.34005069732666016,-0.2720577120780945,-22.748254776000977,0.001620553433895111,14.108003616333008,0.04057842493057251,2.1389803886413574,-0.37845176458358765,0.0,0.0,0.0,0.0,0.0,0.0,0.0,-0.26847909753856103,0.08881120953742992,-0.04771444584975607,0.18586402754650863,-0.18985052337221495,-0.046170950818187124,-0.4157324160296588,1.6755255555264825,0.05226566868631713,0.029938160052676722,-2.7524823092616053,0.03442377485831578,2.7663266900527397,0.7691942740620253,1.6754973547542302,0.052104326824870026,0.029969505109285054,-2.752394845125968,0.0342448039870148,2.7663679543071322,0.7691630533470046,-0.00018551150593782125,0.0004684159156800609,0.0006722529697472228,-0.0010942637037753872,0.0001775637213836673,-6.991601118412269e-05,-0.0010807958315931442,0.0,0.0,0.0,0.0,0.0,0.0,0.0,-2.820077225229589e-05,-0.0001613418614471035,3.13450566083312e-05,8.746413563720523e-05,-0.00017897087130097633,4.126425439254788e-05,-3.122071502070778e-05,0.00018551150593782125,-0.0004684159156800609,-0.0006722529697472228,0.0010942637037753872,-0.0001775637213836673,6.991601118412269e-05,0.0010807958315931442,0.2720577120780945,22.748254776000977,-0.001620553433895111,-14.108003616333008,-0.04057842493057251,-2.1389803886413574,0.37845176458358765,0
70,0.3450474739074707,-0.2720577120780945,-22.748254776000977,0.001620553433895111,14.108003616333008,0.04057842493057251,2.1389803886413574,-0.37845176458358765,0.0,0.0,0.0,0.0,0.0,0.0,0.0,-0.26847909753856103,0.08881120953742992,-0.04771444584975607,0.18586402754650863,-0.18985052337221495,-0.046170950818187124,-0.4157324160296588,1.6755255555264825,0.05226566868631713,0.029938160052676722,-2.7524823092616053,0.03442377485831578,2.7663266900527397,0.7691942740620253,1.6754973547542302,0.052104326824870026,0.029969505109285054,-2.752394845125968,0.0342448039870148,2.7663679543071322,0.7691630533470046,-0.00018551150593782125,0.0004684159156800609,0.0006722529697472228,-0.0010942637037753872,0.0001775637213836673,-6.991601118412269e-05,-0.0010807958315931442,0.0,0.0,0.0,0.0,0.0,0.0,0.0,-2.820077225229589e-05,-0.0001613418614471035,3.13450566083312e-05,8.746413563720523e-05,-0.00017897087130097633,4.126425439254788e-05,-3.122071502070778e-05,0.00018551150593782125,-0.0004684159156800609,-0.0006722529697472228,0.0010942637037753872,-0.0001775637213836673,6.991601118412269e-05,0.0010807958315931442,0.2720577120780945,22.748254776000977,-0.001620553433895111,-14.108003616333008,-0.04057842493057251,-2.1389803886413574,0.37845176458358765,0
71,0.35002565383911133,-0.2998287081718445,-22.720483779907227,0.001620553433895111,14.056428909301758,0.04057842493057251,2.1389803886413574,-0.39950889348983765,0.0,0.0,0.0,0.0,0.0,0.0,0.0,-0.27124415127258233,0.09236485916869633,-0.0510475928743456,0.18035410435154098,-0.18938939020084525,-0.04698535627605196,-0.41394394230581927,1.6755277516158686,0.05226349175891103,0.0299388699278844,-2.7524784398724034,0.03442377485831578,2.7663255562342917,0.7691931482101199,1.6754973547542302,0.052104326824870026,0.029969505109285054,-2.752394845125968,0.0342448039870148,2.7663679543071322,0.7691630533470046,-0.00010782603716713591,-4.296507288348509e-05,0.000331105517582351,-0.00013010035425147686,0.00010379702812928672,-0.00012658856123327238,-0.0007797910427723201,0.0,0.0,0.0,0.0,0.0,0.0,0.0,-3.0396861638415373e-05,-0.00015916493404100757,3.063518140065252e-05,8.35947464352671e-05,-0.00017897087130097633,4.239807284056596e-05,-3.0094863115226467e-05,0.00010782603716713591,4.296507288348509e-05,-0.000331105517582351,0.00013010035425147686,-0.00010379702812928672,0.00012658856123327238,0.0007797910427723201,0.2998287081718445,22.720483779907227,-0.001620553433895111,-14.056428909301758,-0.04057842493057251,-2.1389803886413574,0.39950889348983765,0
72,0.35505151748657227,-0.2998287081718445,-22.720483779907227,0.001620553433895111,14.056428909301758,0.04057842493057251,2.1389803886413574,-0.39950889348983765,0.0,0.0,0.0,0.0,0.0,0.0,0.0,-0.27124415127258233,0.09236485916869633,-0.0510475928743456,0.18035410435154098,-0.18938939020084525,-0.04698535627605196,-0.41394394230581927,1.6755277516158686,0.05226349175891103,0.0299388699278844,-2.7524784398724034,0.03442377485831578,2.7663255562342917,0.7691931482101199,1.6754973547542302,0.052104326824870026,0.029969505109285054,-2.752394845125968,0.0342448039870148,2.7663679543071322,0.7691630533470046,-0.00010782603716713591,-4.296507288348509e-05,0.000331105517582351,-0.00013010035425147686,0.00010379702812928672,-0.00012658856123327238,-0.0007797910427723201,0.0,0.0,0.0,0.0,0.0,0.0,0.0,-3.0396861638415373e-05,-0.00015916493404100757,3.063518140065252e-05,8.35947464352671e-05,-0.00017897087130097633,4.239807284056596e-05,-3.0094863115226467e-05,0.00010782603716713591,4.296507288348509e-05,-0.000331105517582351,0.00013010035425147686,-0.00010379702812928672,0.00012658856123327238,0.0007797910427723201,0.2998287081718445,22.720483779907227,-0.001620553433895111,-14.056428909301758,-0.04057842493057251,-2.1389803886413574,0.39950889348983765,0
73,0.3600122928619385,-0.3236324191093445,-22.696680068969727,0.001620553433895111,14.056428909301758,0.04057842493057251,2.1389803886413574,-0.38577598333358765,0.0,0.0,0.0,0.0,0.0,0.0,0.0,-0.2792776283527131,0.09194396716897725,-0.05708289169803154,0.18229711477161492,-0.18935526075658946,-0.04721597643174492,-0.4151305190593003,1.6755286803064289,0.05226179512393072,0.029938405815643193,-2.7524784395318287,0.03442377485831578,2.7663255126212194,0.7691951893374455,1.6754973547542302,0.052104326824870026,0.029969505109285054,-2.752394845125968,0.0342448039870148,2.7663679543071322,0.7691630533470046,-0.000190297529783764,-0.00011751352277787475,0.0001404292799974706,7.531464737341572e-05,5.860550366074043e-05,-6.679413978621143e-05,-0.0012253365952032374,0.0,0.0,0.0,0.0,0.0,0.0,0.0,-3.1325552198646633e-05,-0.00015746829906069376,3.109929364186054e-05,8.359440586058753e-05,-0.00017897087130097633,4.244168591283071e-05,-3.2135990440829154e-05,0.000190297529783764,0.00011751352277787475,-0.0001404292799974706,-7.531464737341572e-05,-5.860550366074043e-05,6.679413978621143e-05,0.0012253365952032374,0.3236324191093445,22.696680068969727,-0.001620553433895111,-14.056428909301758,-0.04057842493057251,-2.1389803886413574,0.38577598333358765,0
74,0.3650016784667969,-0.3236324191093445,-22.696680068969727,0.001620553433895111,14.056428909301758,0.04057842493057251,2.1389803886413574,-0.38577598333358765,0.0,0.0,0.0,0.0,0.0,0.0,0.0,-0.2792776283527131,0.09194396716897725,-0.05708289169803154,0.18229711477161492,-0.18935526075658946,-0.04721597643174492,-0.4151305190593003,1.6755286803064289,0.05226179512393072,0.029938405815643193,-2.7524784395318287,0.03442377485831578,2.7663255126212194,0.7691951893374455,1.6754973547542302,0.052104326824870026,0.029969505109285054,-2.752394845125968,0.0342448039870148,2.7663679543071322,0.7691630533470046,-0.000190297529783764,-0.00011751352277787475,0.0001404292799974706,7.531464737341572e-05,5.860550366074043e-05,-6.679413978621143e-05,-0.0012253365952032374,0.0,0.0,0.0,0.0,0.0,0.0,0.0,-3.1325552198646633e-05,-0.00015746829906069376,3.109929364186054e-05,8.359440586058753e-05,-0.00017897087130097633,4.244168591283071e-05,-3.2135990440829154e-05,0.000190297529783764,0.00011751352277787475,-0.0001404292799974706,-7.531464737341572e-05,-5.860550366074043e-05,6.679413978621143e-05,0.0012253365952032374,0.3236324191093445,22.696680068969727,-0.001620553433895111,-14.056428909301758,-0.04057842493057251,-2.1389803886413574,0.38577598333358765,0
75,0.37002015113830566,-0.22445029020309448,-22.696680068969727,0.04922797530889511,14.056428909301758,0.04057842493057251,2.1389803886413574,-0.38577598333358765,0.0,0.0,0.0,0.0,0.0,0.0,0.0,-0.28021201077299446,0.09598524302015356,-0.05572705196643908,0.17825824444043534,-0.18997633934491648,-0.048338768638405784,-0.4145343836201241,1.6755214729039478,0.052262058228860465,0.029934766743744547,-2.7524784395318282,0.03442377485831578,2.7663256363344138,0.7691946969135677,1.6754973547542302,0.052104326824870026,0.029969505109285054,-2.752394845125968,0.0342448039870148,2.7663679543071322,0.7691630533470046,-0.0019086083978466055,0.0004140084861377147,-0.0005096463348689511,-0.000793898689942134,0.00023471506422154175,-1.8523179327237608e-05,-0.0010622762169894989,0.0,0.0,0.0,0.0,0.0,0.0,0.0,-2.4118149717589077e-05,-0.00015773140399043956,3.473836554050702e-05,8.359440586014344e-05,-0.00017897087130097633,4.231797271847526e-05,-3.1643566563044345e-05,0.0019086083978466055,-0.0004140084861377147,0.0005096463348689511,0.000793898689942134,-0.00023471506422154175,1.8523179327237608e-05,0.0010622762169894989,0.22445029020309448,22.696680068969727,-0.04922797530889511,-14.056428909301758,-0.04057842493057251,-2.1389803886413574,0.38577598333358765,0
76,0.375011682510376,-0.22445029020309448,-22.696680068969727,0.04922797530889511,14.056428909301758,0.04057842493057251,2.1389803886413574,-0.38577598333358765,0.0,0.0,0.0,0.0,0.0,0.0,0.0,-0.28021201077299446,0.09598524302015356,-0.05572705196643908,0.17825824444043534,-0.18997633934491648,-0.048338768638405784,-0.4145343836201241,1.6755214729039478,0.052262058228860465,0.029934766743744547,-2.7524784395318282,0.03442377485831578,2.7663256363344138,0.7691946969135677,1.6754973547542302,0.052104326824870026,0.029969505109285054,-2.752394845125968,0.0342448039870148,2.7663679543071322,0.7691630533470046,-0.0019086083978466055,0.0004140084861377147,-0.0005096463348689511,-0.000793898689942134,0.00023471506422154175,-1.8523179327237608e-05,-0.0010622762169894989,0.0,0.0,0.0,0.0,0.0,0.0,0.0,-2.4118149717589077e-05,-0.00015773140399043956,3.473836554050702e-05,8.359440586014344e-05,-0.00017897087130097633,4.231797271847526e-05,-3.1643566563044345e-05,0.0019086083978466055,-0.0004140084861377147,0.0005096463348689511,0.000793898689942134,-0.00023471506422154175,1.8523179327237608e-05,0.0010622762169894989,0.22445029020309448,22.696680068969727,-0.04922797530889511,-14.056428909301758,-0.04057842493057251,-2.1389803886413574,0.38577598333358765,0
77,0.3800477981567383,-0.24825400114059448,-22.696680068969727,0.04922797530889511,14.032625198364258,0.04607158899307251,2.1325716972351074,-0.40591758489608765,0.0,0.0,0.0,0.0,0.0,0.0,0.0,-0.27643491165496303,0.09186319963300936,-0.05245166034581471,0.1843203589031649,-0.18925128128888408,-0.04710535363366445,-0.41377649304742126,1.6755238850850982,0.05225982213634186,0.02993760609684942,-2.75247775809156,0.03442316450675328,2.7663265781267095,0.7691941049656938,1.6754973547542302,0.052104326824870026,0.029969505109285054,-2.752394845125968,0.0342448039870148,2.7663679543071322,0.7691630533470046,0.0002992831845574336,-0.00018924302413369864,0.00031780616964278437,0.000229637272736164,-0.0001291220979494626,0.00022454707154015161,-0.0009328208993313623,0.0,0.0,0.0,0.0,0.0,0.0,0.0,-2.6530330867968743e-05,-0.000155495311471833,3.189901243563428e-05,8.291296559193029e-05,-0.00017836051973847689,4.137618042276969e-05,-3.105161868921513e-05,-0.0002992831845574336,0.00018924302413369864,-0.00031780616964278437,-0.000229637272736164,0.0001291220979494626,-0.00022454707154015161,0.0009328208993313623,0.24825400114059448,22.696680068969727,-0.04922797530889511,-14.032625198364258,-0.04607158899307251,-2.1325716972351074,0.40591758489608765,0
78,0.3850102424621582,-0.24825400114059448,-22.696680068969727,0.04922797530889511,14.032625198364258,0.04607158899307251,2.1325716972351074,-0.40591758489608765,0.0,0.0,0.0,0.0,0.0,0.0,0.0,-0.27643491165496303,0.09186319963300936,-0.05245166034581471,0.1843203589031649,-0.18925128128888408,-0.04710535363366445,-0.41377649304742126,1.6755238850850982,0.05225982213634186,0.02993760609684942,-2.75247775809156,0.03442316450675328,2.7663265781267095,0.7691941049656938,1.6754973547542302,0.052104326824870026,0.029969505109285054,-2.752394845125968,0.0342448039870148,2.7663679543071322,0.7691630533470046,0.0002992831845574336,-0.00018924302413369864,0.00031780616964278437,0.000229637272736164,-0.0001291220979494626,0.00022454707154015161,-0.0009328208993313623,0.0,0.0,0.0,0.0,0.0,0.0,0.0,-2.6530330867968743e-05,-0.000155495311471833,3.189901243563428e-05,8.291296559193029e-05,-0.00017836051973847689,4.137618042276969e-05,-3.105161868921513e-05,-0.0002992831845574336,0.00018924302413369864,-0.00031780616964278437,-0.000229637272736164,0.0001291220979494626,-0.00022454707154015161,0.0009328208993313623,0.24825400114059448,22.696680068969727,-0.04922797530889511,-14.032625198364258,-0.04607158899307251,-2.1325716972351074,0.40591758489608765,0
79,0.3900182247161865,-0.22445029020309448,-22.672876358032227,0.04922797530889511,14.032625198364258,0.04057842493057251,2.1325716972351074,-0.39218467473983765,0.0,0.0,0.0,0.0,0.0,0.0,0.0,-0.27591214904807554,0.09575156669841473,-0.05471046949156695,0.1809742844859243,-0.18809933652608163,-0.04759383387802717,-0.4166475161184505,1.6755221840158208,0.052258245223822115,0.029934740322170063,-2.7524777582101967,0.03442377485831578,2.766329813677019,0.7691958800834213,1.6754973547542302,0.052104326824870026,0.029969505109285054,-2.752394845125968,0.0342448039870148,2.7663679543071322,0.7691630533470046,3.329074604762496e-05,-0.0008326390772338318,0.00018342232896100262,0.00020936240251196657,8.861957983496476e-05,0.00018366715195638873,-0.0008479982936502911,0.0,0.0,0.0,0.0,0.0,0.0,0.0,-2.4829261590531004e-05,-0.00015391839895208953,3.476478711499087e-05,8.291308422858634e-05,-0.00017897087130097633,3.81406301133147e-05,-3.2826736416691205e-05,-3.329074604762496e-05,0.0008326390772338318,-0.00018342232896100262,-0.00020936240251196657,-8.861957983496476e-05,-0.00018366715195638873,0.0008479982936502911,0.22445029020309448,22.672876358032227,-0.04922797530889511,-14.032625198364258,-0.04057842493057251,-2.1325716972351074,0.39218467473983765,0
