rezayati/contactInterpretation/dataset/franka_main/labeled_data/link5/c9_3.csv
index,time,tau_J0,tau_J1,tau_J2,tau_J3,tau_J4,tau_J5,tau_J6,tau_J_d0,tau_J_d1,tau_J_d2,tau_J_d3,tau_J_d4,tau_J_d5,tau_J_d6,tau_ext0,tau_ext1,tau_ext2,tau_ext3,tau_ext4,tau_ext5,tau_ext6,q0,q1,q2,q3,q4,q5,q6,q_d0,q_d1,q_d2,q_d3,q_d4,q_d5,q_d6,dq0,dq1,dq2,dq3,dq4,dq5,dq6,dq_d0,dq_d1,dq_d2,dq_d3,dq_d4,dq_d5,dq_d6,e0,e1,e2,e3,e4,e5,e6,de0,de1,de2,de3,de4,de5,de6,etau_J0,etau_J1,etau_J2,etau_J3,etau_J4,etau_J5,etau_J6,label
1,0.0,-0.6806880831718445,-34.13833236694336,-4.072781085968018,19.412263870239258,0.4095359444618225,1.796573281288147,-0.07724325358867645,0.0,0.0,0.0,0.0,0.0,0.0,0.0,-0.6490595587803482,-0.010914401065142266,-0.44879461969657636,0.3979566710187766,0.3613802447667836,-0.1161116870305654,-0.07384927082473022,1.054669225638373,0.3237550982312938,-0.39241650532258027,-2.153035902262712,0.8645923879482618,2.465928491632144,0.5444855089104836,1.0544104758940245,0.3238615046091247,-0.39250456234122666,-2.153291787532338,0.8647539153680389,2.46587817577521,0.5445020185570556,0.00030027012805356216,0.001083430374834682,0.0014474167149190862,0.000689222125798202,5.2078105756504464e-05,-0.00018541101717546303,0.0006212309882764521,0.0,0.0,0.0,0.0,0.0,0.0,0.0,-0.0002587497443484743,0.00010640637783093654,-8.805701864639248e-05,-0.0002558852696257219,0.00016152741977715213,-5.0315856933824676e-05,1.6509646571960523e-05,-0.00030027012805356216,-0.001083430374834682,-0.0014474167149190862,-0.000689222125798202,-5.2078105756504464e-05,0.00018541101717546303,-0.0006212309882764521,0.6806880831718445,34.13833236694336,4.072781085968018,-19.412263870239258,-0.4095359444618225,-1.796573281288147,0.07724325358867645,0
2,0.004995584487915039,-0.6568843722343445,-34.06295394897461,-4.025173664093018,19.459871292114258,0.4214377999305725,1.790164589881897,-0.04977743700146675,0.0,0.0,0.0,0.0,0.0,0.0,0.0,-0.6489978823805491,-0.005418735190897265,-0.449293576227512,0.39342671581640914,0.36090748633805814,-0.11629376432698875,-0.072597864099531,1.0546675552025175,0.3237498085164187,-0.3924205525551638,-2.1530391888671527,0.8645910252931004,2.4659292037089666,0.5444824571530851,1.0544104758940245,0.3238615046091247,-0.39250456234122666,-2.153291787532338,0.8647539153680389,2.46587817577521,0.5445020185570556,0.00011643874730199395,-0.0008914157244076826,0.0004738978145331413,-0.0007523138860760619,-0.00011540146962118753,-0.00020297551745012817,-0.0006582908966291134,0.0,0.0,0.0,0.0,0.0,0.0,0.0,-0.0002570793084930578,0.000111696092706004,-8.400978606287746e-05,-0.000252598665185122,0.00016289007493852647,-5.102793375666437e-05,1.956140397052497e-05,-0.00011643874730199395,0.0008914157244076826,-0.0004738978145331413,0.0007523138860760619,0.00011540146962118753,0.00020297551745012817,0.0006582908966291134,0.6568843722343445,34.06295394897461,4.025173664093018,-19.459871292114258,-0.4214377999305725,-1.790164589881897,0.04977743700146675,0
3,0.009996652603149414,-0.6568843722343445,-34.06295394897461,-4.025173664093018,19.459871292114258,0.4214377999305725,1.790164589881897,-0.04977743700146675,0.0,0.0,0.0,0.0,0.0,0.0,0.0,-0.6489978823805491,-0.005418735190897265,-0.449293576227512,0.39342671581640914,0.36090748633805814,-0.11629376432698875,-0.072597864099531,1.0546675552025175,0.3237498085164187,-0.3924205525551638,-2.1530391888671527,0.8645910252931004,2.4659292037089666,0.5444824571530851,1.0544104758940245,0.3238615046091247,-0.39250456234122666,-2.153291787532338,0.8647539153680389,2.46587817577521,0.5445020185570556,0.00011643874730199395,-0.0008914157244076826,0.0004738978145331413,-0.0007523138860760619,-0.00011540146962118753,-0.00020297551745012817,-0.0006582908966291134,0.0,0.0,0.0,0.0,0.0,0.0,0.0,-0.0002570793084930578,0.000111696092706004,-8.400978606287746e-05,-0.000252598665185122,0.00016289007493852647,-5.102793375666437e-05,1.956140397052497e-05,-0.00011643874730199395,0.0008914157244076826,-0.0004738978145331413,0.0007523138860760619,0.00011540146962118753,0.00020297551745012817,0.0006582908966291134,0.6568843722343445,34.06295394897461,4.025173664093018,-19.459871292114258,-0.4214377999305725,-1.790164589881897,0.04977743700146675,0
4,0.015003204345703125,-0.6568843722343445,-34.06295394897461,-4.048977375030518,19.487642288208008,0.4095359444618225,1.777347207069397,-0.03604452684521675,0.0,0.0,0.0,0.0,0.0,0.0,0.0,-0.6625987102692977,-0.006350714211566131,-0.4611614328603876,0.39258965672263446,0.36117923613953556,-0.11580853809748001,-0.07219122285829256,1.0546675552025175,0.3237498094884804,-0.3924184116814224,-2.153041440052512,0.8645923477212588,2.4659306278626123,0.5444809312741788,1.0544104758940245,0.3238615046091247,-0.39250456234122666,-2.153291787532338,0.8647539153680389,2.46587817577521,0.5445020185570556,-7.86157885382264e-05,-0.0005516797028455432,0.000194656036458063,-0.0015740508195222589,0.0003852778918209959,0.00046018356419240126,-0.001231749820304418,0.0,0.0,0.0,0.0,0.0,0.0,0.0,-0.0002570793084930578,0.0001116951206442951,-8.615065980427383e-05,-0.0002503474798256633,0.00016156764678010305,-5.245208740234375e-05,2.1087282876752766e-05,7.86157885382264e-05,0.0005516797028455432,-0.000194656036458063,0.0015740508195222589,-0.0003852778918209959,-0.00046018356419240126,0.001231749820304418,0.6568843722343445,34.06295394897461,4.048977375030518,-19.487642288208008,-0.4095359444618225,-1.777347207069397,0.03604452684521675,0
5,0.02000260353088379,-0.6568843722343445,-34.06295394897461,-4.048977375030518,19.487642288208008,0.4095359444618225,1.777347207069397,-0.03604452684521675,0.0,0.0,0.0,0.0,0.0,0.0,0.0,-0.6625987102692977,-0.006350714211566131,-0.4611614328603876,0.39258965672263446,0.36117923613953556,-0.11580853809748001,-0.07219122285829256,1.0546675552025175,0.3237498094884804,-0.3924184116814224,-2.153041440052512,0.8645923477212588,2.4659306278626123,0.5444809312741788,1.0544104758940245,0.3238615046091247,-0.39250456234122666,-2.153291787532338,0.8647539153680389,2.46587817577521,0.5445020185570556,-7.86157885382264e-05,-0.0005516797028455432,0.000194656036458063,-0.0015740508195222589,0.0003852778918209959,0.00046018356419240126,-0.001231749820304418,0.0,0.0,0.0,0.0,0.0,0.0,0.0,-0.0002570793084930578,0.0001116951206442951,-8.615065980427383e-05,-0.0002503474798256633,0.00016156764678010305,-5.245208740234375e-05,2.1087282876752766e-05,7.86157885382264e-05,0.0005516797028455432,-0.000194656036458063,0.0015740508195222589,-0.0003852778918209959,-0.00046018356419240126,0.001231749820304418,0.6568843722343445,34.06295394897461,4.048977375030518,-19.487642288208008,-0.4095359444618225,-1.777347207069397,0.03604452684521675,0
6,0.024999141693115234,-0.6568843722343445,-34.09072494506836,-4.025173664093018,19.436067581176758,0.4214377999305725,1.790164589881897,-0.03604452684521675,0.0,0.0,0.0,0.0,0.0,0.0,0.0,-0.6520533468801167,-0.005093496152236189,-0.4538939563448083,0.3928607297507732,0.3609437127147162,-0.11734599274549395,-0.07197259525902006,1.0546675552025175,0.323751993569255,-0.3924198432754554,-2.153037494013054,0.8645910252928733,2.4659292037089666,0.5444809705738708,1.0544104758940245,0.3238615046091247,-0.39250456234122666,-2.153291787532338,0.8647539153680389,2.46587817577521,0.5445020185570556,0.0001155238394550038,0.000895205889707789,1.9600750615396355e-05,-0.00024601191506283467,-0.00026745118577530533,-8.359143144748548e-05,-0.001334547906425814,0.0,0.0,0.0,0.0,0.0,0.0,0.0,-0.0002570793084930578,0.00010951103986972521,-8.471906577123267e-05,-0.0002542935192839657,0.00016289007516556708,-5.102793375666437e-05,2.1047983184807606e-05,-0.0001155238394550038,-0.000895205889707789,-1.9600750615396355e-05,0.00024601191506283467,0.00026745118577530533,8.359143144748548e-05,0.001334547906425814,0.6568843722343445,34.09072494506836,4.025173664093018,-19.436067581176758,-0.4214377999305725,-1.790164589881897,0.03604452684521675,0
7,0.030011892318725586,-0.6568843722343445,-34.09072494506836,-4.025173664093018,19.436067581176758,0.4214377999305725,1.790164589881897,-0.03604452684521675,0.0,0.0,0.0,0.0,0.0,0.0,0.0,-0.6520533468801167,-0.005093496152236189,-0.4538939563448083,0.3928607297507732,0.3609437127147162,-0.11734599274549395,-0.07197259525902006,1.0546675552025175,0.323751993569255,-0.3924198432754554,-2.153037494013054,0.8645910252928733,2.4659292037089666,0.5444809705738708,1.0544104758940245,0.3238615046091247,-0.39250456234122666,-2.153291787532338,0.8647539153680389,2.46587817577521,0.5445020185570556,0.0001155238394550038,0.000895205889707789,1.9600750615396355e-05,-0.00024601191506283467,-0.00026745118577530533,-8.359143144748548e-05,-0.001334547906425814,0.0,0.0,0.0,0.0,0.0,0.0,0.0,-0.0002570793084930578,0.00010951103986972521,-8.471906577123267e-05,-0.0002542935192839657,0.00016289007516556708,-5.102793375666437e-05,2.1047983184807606e-05,-0.0001155238394550038,-0.000895205889707789,-1.9600750615396355e-05,0.00024601191506283467,0.00026745118577530533,8.359143144748548e-05,0.001334547906425814,0.6568843722343445,34.09072494506836,4.025173664093018,-19.436067581176758,-0.4214377999305725,-1.790164589881897,0.03604452684521675,0
8,0.03500962257385254,-0.6568843722343445,-34.06295394897461,-4.025173664093018,19.412263870239258,0.4095359444618225,1.790164589881897,-0.04336874559521675,0.0,0.0,0.0,0.0,0.0,0.0,0.0,-0.6529804438324508,-0.010478120615918214,-0.4554573346455508,0.39785904784616916,0.36110043876107684,-0.11613903918792229,-0.07240041926791542,1.0546675552025175,0.3237498085177521,-0.3924227562190824,-2.153035902939197,0.8645923477212588,2.4659292037089666,0.5444820982891938,1.0544104758940245,0.3238615046091247,-0.39250456234122666,-2.153291787532338,0.8647539153680389,2.46587817577521,0.5445020185570556,0.00040016144171554257,-0.0002011593364686218,0.00054131095773829,0.0004804730385468818,0.0001606251648194463,-7.57367397397493e-05,-0.001333406608736037,0.0,0.0,0.0,0.0,0.0,0.0,0.0,-0.0002570793084930578,0.00011169609137262615,-8.180612214425675e-05,-0.0002558845931406317,0.00016156764678010305,-5.102793375666437e-05,1.9920267861794905e-05,-0.00040016144171554257,0.0002011593364686218,-0.00054131095773829,-0.0004804730385468818,-0.0001606251648194463,7.57367397397493e-05,0.001333406608736037,0.6568843722343445,34.06295394897461,4.025173664093018,-19.412263870239258,-0.4095359444618225,-1.790164589881897,0.04336874559521675,0
9,0.04001283645629883,-0.6568843722343445,-34.06295394897461,-4.025173664093018,19.412263870239258,0.4095359444618225,1.790164589881897,-0.04336874559521675,0.0,0.0,0.0,0.0,0.0,0.0,0.0,-0.6529804438324508,-0.010478120615918214,-0.4554573346455508,0.39785904784616916,0.36110043876107684,-0.11613903918792229,-0.07240041926791542,1.0546675552025175,0.3237498085177521,-0.3924227562190824,-2.153035902939197,0.8645923477212588,2.4659292037089666,0.5444820982891938,1.0544104758940245,0.3238615046091247,-0.39250456234122666,-2.153291787532338,0.8647539153680389,2.46587817577521,0.5445020185570556,0.00040016144171554257,-0.0002011593364686218,0.00054131095773829,0.0004804730385468818,0.0001606251648194463,-7.57367397397493e-05,-0.001333406608736037,0.0,0.0,0.0,0.0,0.0,0.0,0.0,-0.0002570793084930578,0.00011169609137262615,-8.180612214425675e-05,-0.0002558845931406317,0.00016156764678010305,-5.102793375666437e-05,1.9920267861794905e-05,-0.00040016144171554257,0.0002011593364686218,-0.00054131095773829,-0.0004804730385468818,-0.0001606251648194463,7.57367397397493e-05,0.001333406608736037,0.6568843722343445,34.06295394897461,4.025173664093018,-19.412263870239258,-0.4095359444618225,-1.790164589881897,0.04336874559521675,0
10,0.045003652572631836,-0.6806880831718445,-34.06295394897461,-4.048977375030518,19.412263870239258,0.4214377999305725,1.783755898475647,-0.09097616374492645,0.0,0.0,0.0,0.0,0.0,0.0,0.0,-0.6554706432208071,-0.012798428624194558,-0.46099947883878645,0.39914711784670087,0.3611039029166194,-0.11563339177843093,-0.07301934128178429,1.054669225638373,0.3237498085164187,-0.39241890744223157,-2.1530360942277995,0.8645910252928733,2.4659299157857895,0.5444870347953716,1.0544104758940245,0.3238615046091247,-0.39250456234122666,-2.153291787532338,0.8647539153680389,2.46587817577521,0.5445020185570556,0.0007588510141960015,-0.0006352237203399394,0.0010057364206018157,0.0006584835718650194,-0.00039925576583594316,-1.5786907754182135e-06,0.0007938037122616087,0.0,0.0,0.0,0.0,0.0,0.0,0.0,-0.0002587497443484743,0.000111696092706004,-8.565489899509116e-05,-0.00025569330453834027,0.00016289007516556708,-5.174001057950406e-05,1.4983761683962094e-05,-0.0007588510141960015,0.0006352237203399394,-0.0010057364206018157,-0.0006584835718650194,0.00039925576583594316,1.5786907754182135e-06,-0.0007938037122616087,0.6806880831718445,34.06295394897461,4.048977375030518,-19.412263870239258,-0.4214377999305725,-1.783755898475647,0.09097616374492645,0
11,0.050003767013549805,-0.6806880831718445,-34.06295394897461,-4.048977375030518,19.412263870239258,0.4214377999305725,1.783755898475647,-0.09097616374492645,0.0,0.0,0.0,0.0,0.0,0.0,0.0,-0.6554706432208071,-0.012798428624194558,-0.46099947883878645,0.39914711784670087,0.3611039029166194,-0.11563339177843093,-0.07301934128178429,1.054669225638373,0.3237498085164187,-0.39241890744223157,-2.1530360942277995,0.8645910252928733,2.4659299157857895,0.5444870347953716,1.0544104758940245,0.3238615046091247,-0.39250456234122666,-2.153291787532338,0.8647539153680389,2.46587817577521,0.5445020185570556,0.0007588510141960015,-0.0006352237203399394,0.0010057364206018157,0.0006584835718650194,-0.00039925576583594316,-1.5786907754182135e-06,0.0007938037122616087,0.0,0.0,0.0,0.0,0.0,0.0,0.0,-0.0002587497443484743,0.000111696092706004,-8.565489899509116e-05,-0.00025569330453834027,0.00016289007516556708,-5.174001057950406e-05,1.4983761683962094e-05,-0.0007588510141960015,0.0006352237203399394,-0.0010057364206018157,-0.0006584835718650194,0.00039925576583594316,1.5786907754182135e-06,-0.0007938037122616087,0.6806880831718445,34.06295394897461,4.048977375030518,-19.412263870239258,-0.4214377999305725,-1.783755898475647,0.09097616374492645,0
12,0.05501747131347656,-0.6291133761405945,-34.09072494506836,-3.9735991954803467,19.459871292114258,0.4150291085243225,1.790164589881897,-0.04977743700146675,0.0,0.0,0.0,0.0,0.0,0.0,0.0,-0.647523676057115,-0.012705884274478711,-0.45385137804890585,0.40100375909143104,0.36072235974264666,-0.11673486777952456,-0.07341834253774578,1.0546656063606865,0.3237519935692495,-0.3924234622124229,-2.1530391604153025,0.8645917373880899,2.4659292037089666,0.5444824572069203,1.0544104758940245,0.3238615046091247,-0.39250456234122666,-2.153291787532338,0.8647539153680389,2.46587817577521,0.5445020185570556,-0.00042968680413556665,-1.4451277486141288e-05,-0.0008828560179676832,-0.00021516396137336,-4.778883955470133e-05,-5.5958275672141624e-05,-0.0003685810609718504,0.0,0.0,0.0,0.0,0.0,0.0,0.0,-0.00025513046666203465,0.00010951103987522082,-8.110012880374606e-05,-0.00025262711703533114,0.0001621779799489964,-5.102793375666437e-05,1.9561350135255395e-05,0.00042968680413556665,1.4451277486141288e-05,0.0008828560179676832,0.00021516396137336,4.778883955470133e-05,5.5958275672141624e-05,0.0003685810609718504,0.6291133761405945,34.09072494506836,3.9735991954803467,-19.459871292114258,-0.4150291085243225,-1.790164589881897,0.04977743700146675,0
13,0.05999922752380371,-0.6291133761405945,-34.09072494506836,-3.9735991954803467,19.459871292114258,0.4150291085243225,1.790164589881897,-0.04977743700146675,0.0,0.0,0.0,0.0,0.0,0.0,0.0,-0.647523676057115,-0.012705884274478711,-0.45385137804890585,0.40100375909143104,0.36072235974264666,-0.11673486777952456,-0.07341834253774578,1.0546656063606865,0.3237519935692495,-0.3924234622124229,-2.1530391604153025,0.8645917373880899,2.4659292037089666,0.5444824572069203,1.0544104758940245,0.3238615046091247,-0.39250456234122666,-2.153291787532338,0.8647539153680389,2.46587817577521,0.5445020185570556,-0.00042968680413556665,-1.4451277486141288e-05,-0.0008828560179676832,-0.00021516396137336,-4.778883955470133e-05,-5.5958275672141624e-05,-0.0003685810609718504,0.0,0.0,0.0,0.0,0.0,0.0,0.0,-0.00025513046666203465,0.00010951103987522082,-8.110012880374606e-05,-0.00025262711703533114,0.0001621779799489964,-5.102793375666437e-05,1.9561350135255395e-05,0.00042968680413556665,1.4451277486141288e-05,0.0008828560179676832,0.00021516396137336,4.778883955470133e-05,5.5958275672141624e-05,0.0003685810609718504,0.6291133761405945,34.09072494506836,3.9735991954803467,-19.459871292114258,-0.4150291085243225,-1.790164589881897,0.04977743700146675,0
14,0.06500983238220215,-0.6291133761405945,-34.09072494506836,-3.9735991954803467,19.459871292114258,0.4150291085243225,1.790164589881897,-0.04977743700146675,0.0,0.0,0.0,0.0,0.0,0.0,0.0,-0.647523676057115,-0.012705884274478711,-0.45385137804890585,0.40100375909143104,0.36072235974264666,-0.11673486777952456,-0.07341834253774578,1.0546656063606865,0.3237519935692495,-0.3924234622124229,-2.1530391604153025,0.8645917373880899,2.4659292037089666,0.5444824572069203,1.0544104758940245,0.3238615046091247,-0.39250456234122666,-2.153291787532338,0.8647539153680389,2.46587817577521,0.5445020185570556,-0.00042968680413556665,-1.4451277486141288e-05,-0.0008828560179676832,-0.00021516396137336,-4.778883955470133e-05,-5.5958275672141624e-05,-0.0003685810609718504,0.0,0.0,0.0,0.0,0.0,0.0,0.0,-0.00025513046666203465,0.00010951103987522082,-8.110012880374606e-05,-0.00025262711703533114,0.0001621779799489964,-5.102793375666437e-05,1.9561350135255395e-05,0.00042968680413556665,1.4451277486141288e-05,0.0008828560179676832,0.00021516396137336,4.778883955470133e-05,5.5958275672141624e-05,0.0003685810609718504,0.6291133761405945,34.09072494506836,3.9735991954803467,-19.459871292114258,-0.4150291085243225,-1.790164589881897,0.04977743700146675,0
15,0.0700068473815918,-0.6291133761405945,-34.09072494506836,-3.9735991954803467,19.459871292114258,0.4150291085243225,1.790164589881897,-0.04977743700146675,0.0,0.0,0.0,0.0,0.0,0.0,0.0,-0.647523676057115,-0.012705884274478711,-0.45385137804890585,0.40100375909143104,0.36072235974264666,-0.11673486777952456,-0.07341834253774578,1.0546656063606865,0.3237519935692495,-0.3924234622124229,-2.1530391604153025,0.8645917373880899,2.4659292037089666,0.5444824572069203,1.0544104758940245,0.3238615046091247,-0.39250456234122666,-2.153291787532338,0.8647539153680389,2.46587817577521,0.5445020185570556,-0.00042968680413556665,-1.4451277486141288e-05,-0.0008828560179676832,-0.00021516396137336,-4.778883955470133e-05,-5.5958275672141624e-05,-0.0003685810609718504,0.0,0.0,0.0,0.0,0.0,0.0,0.0,-0.00025513046666203465,0.00010951103987522082,-8.110012880374606e-05,-0.00025262711703533114,0.0001621779799489964,-5.102793375666437e-05,1.9561350135255395e-05,0.00042968680413556665,1.4451277486141288e-05,0.0008828560179676832,0.00021516396137336,4.778883955470133e-05,5.5958275672141624e-05,0.0003685810609718504,0.6291133761405945,34.09072494506836,3.9735991954803467,-19.459871292114258,-0.4150291085243225,-1.790164589881897,0.04977743700146675,0
16,0.07544398307800293,-0.6806880831718445,-34.06295394897461,-3.9735991954803467,19.436067581176758,0.4095359444618225,1.777347207069397,-0.06991903483867645,0.0,0.0,0.0,0.0,0.0,0.0,0.0,-0.6457854701630904,-0.012873911530343427,-0.45197523391379685,0.40067556119317077,0.36099109867470314,-0.11663944694937567,-0.07203700697313933,1.054669225638373,0.3237498085177521,-0.3924242508771212,-2.153039742653417,0.8645923477212588,2.4659307514870608,0.5444846951084007,1.0544104758940245,0.3238615046091247,-0.39250456234122666,-2.153291787532338,0.8647539153680389,2.46587817577521,0.5445020185570556,0.001189086564759583,-0.0009883906508715524,-0.0005793895330190697,0.0003319070630970294,0.00011149362542908675,0.0006110822344908497,0.00012338759958514263,0.0,0.0,0.0,0.0,0.0,0.0,0.0,-0.0002587497443484743,0.00011169609137262615,-8.031146410547585e-05,-0.0002520448789207208,0.00016156764678010305,-5.257571185079968e-05,1.732344865490454e-05,-0.001189086564759583,0.0009883906508715524,0.0005793895330190697,-0.0003319070630970294,-0.00011149362542908675,-0.0006110822344908497,-0.00012338759958514263,0.6806880831718445,34.06295394897461,3.9735991954803467,-19.436067581176758,-0.4095359444618225,-1.777347207069397,0.06991903483867645,0
17,0.08000946044921875,-0.6806880831718445,-34.06295394897461,-3.9735991954803467,19.436067581176758,0.4095359444618225,1.777347207069397,-0.06991903483867645,0.0,0.0,0.0,0.0,0.0,0.0,0.0,-0.6457854701630904,-0.012873911530343427,-0.45197523391379685,0.40067556119317077,0.36099109867470314,-0.11663944694937567,-0.07203700697313933,1.054669225638373,0.3237498085177521,-0.3924242508771212,-2.153039742653417,0.8645923477212588,2.4659307514870608,0.5444846951084007,1.0544104758940245,0.3238615046091247,-0.39250456234122666,-2.153291787532338,0.8647539153680389,2.46587817577521,0.5445020185570556,0.001189086564759583,-0.0009883906508715524,-0.0005793895330190697,0.0003319070630970294,0.00011149362542908675,0.0006110822344908497,0.00012338759958514263,0.0,0.0,0.0,0.0,0.0,0.0,0.0,-0.0002587497443484743,0.00011169609137262615,-8.031146410547585e-05,-0.0002520448789207208,0.00016156764678010305,-5.257571185079968e-05,1.732344865490454e-05,-0.001189086564759583,0.0009883906508715524,0.0005793895330190697,-0.0003319070630970294,-0.00011149362542908675,-0.0006110822344908497,-0.00012338759958514263,0.6806880831718445,34.06295394897461,3.9735991954803467,-19.436067581176758,-0.4095359444618225,-1.777347207069397,0.06991903483867645,0
18,0.08500289916992188,-0.6568843722343445,-34.11452865600586,-4.025173664093018,19.436067581176758,0.4150291085243225,1.770938515663147,-0.09738485515117645,0.0,0.0,0.0,0.0,0.0,0.0,0.0,-0.6536096420557752,-0.01051402070491223,-0.45759609548715,0.3944606076385021,0.3616110575590318,-0.11722359921436726,-0.07162681327875776,1.0546675552025175,0.32375342779410515,-0.3924198429545368,-2.153037502163784,0.8645917373696963,2.465931341466361,0.5444877468662129,1.0544104758940245,0.3238615046091247,-0.39250456234122666,-2.153291787532338,0.8647539153680389,2.46587817577521,0.5445020185570556,0.00022797948303020265,0.0004409673871257688,9.565899424711233e-05,-0.00039604637757863247,-0.0011271539831906887,0.0006513936255878932,0.0011833584535550419,0.0,0.0,0.0,0.0,0.0,0.0,0.0,-0.0002570793084930578,0.00010807681501956434,-8.471938668985768e-05,-0.0002542853685536528,0.00016217799834261637,-5.3165691150880434e-05,1.4271690842670992e-05,-0.00022797948303020265,-0.0004409673871257688,-9.565899424711233e-05,0.00039604637757863247,0.0011271539831906887,-0.0006513936255878932,-0.0011833584535550419,0.6568843722343445,34.11452865600586,4.025173664093018,-19.436067581176758,-0.4150291085243225,-1.770938515663147,0.09738485515117645,0
19,0.09000849723815918,-0.6568843722343445,-34.11452865600586,-4.025173664093018,19.436067581176758,0.4150291085243225,1.770938515663147,-0.09738485515117645,0.0,0.0,0.0,0.0,0.0,0.0,0.0,-0.6536096420557752,-0.01051402070491223,-0.45759609548715,0.3944606076385021,0.3616110575590318,-0.11722359921436726,-0.07162681327875776,1.0546675552025175,0.32375342779410515,-0.3924198429545368,-2.153037502163784,0.8645917373696963,2.465931341466361,0.5444877468662129,1.0544104758940245,0.3238615046091247,-0.39250456234122666,-2.153291787532338,0.8647539153680389,2.46587817577521,0.5445020185570556,0.00022797948303020265,0.0004409673871257688,9.565899424711233e-05,-0.00039604637757863247,-0.0011271539831906887,0.0006513936255878932,0.0011833584535550419,0.0,0.0,0.0,0.0,0.0,0.0,0.0,-0.0002570793084930578,0.00010807681501956434,-8.471938668985768e-05,-0.0002542853685536528,0.00016217799834261637,-5.3165691150880434e-05,1.4271690842670992e-05,-0.00022797948303020265,-0.0004409673871257688,-9.565899424711233e-05,0.00039604637757863247,0.0011271539831906887,-0.0006513936255878932,-0.0011833584535550419,0.6568843722343445,34.11452865600586,4.025173664093018,-19.436067581176758,-0.4150291085243225,-1.770938515663147,0.09738485515117645,0
20,0.09499382972717285,-0.6806880831718445,-34.09072494506836,-3.9974029064178467,19.436067581176758,0.4150291085243225,1.796573281288147,-0.10470907390117645,0.0,0.0,0.0,0.0,0.0,0.0,0.0,-0.6496526214306886,-0.011652814313901309,-0.4580390524024254,0.39389437728804727,0.36031004961905555,-0.11776642341430535,-0.07260792765610746,1.054669225638373,0.32375175735824985,-0.3924218005237403,-2.1530375205789234,0.864594995756944,2.465928491632152,0.5444885606682963,1.0544104758940245,0.3238615046091247,-0.39250456234122666,-2.153291787532338,0.8647539153680389,2.46587817577521,0.5445020185570556,0.00047848457239123765,2.688997538962965e-05,-0.001160250611929427,-0.000428658767577385,-0.0001095238074044032,-0.00013921219299334352,0.0013965332362420868,0.0,0.0,0.0,0.0,0.0,0.0,0.0,-0.0002587497443484743,0.0001097472508748698,-8.276181748634315e-05,-0.0002542669534144615,0.00015891961109493202,-5.031585694226237e-05,1.3457888759282888e-05,-0.00047848457239123765,-2.688997538962965e-05,0.001160250611929427,0.000428658767577385,0.0001095238074044032,0.00013921219299334352,-0.0013965332362420868,0.6806880831718445,34.09072494506836,3.9974029064178467,-19.436067581176758,-0.4150291085243225,-1.796573281288147,0.10470907390117645,0
21,0.09999442100524902,-0.6806880831718445,-34.09072494506836,-3.9974029064178467,19.436067581176758,0.4150291085243225,1.796573281288147,-0.10470907390117645,0.0,0.0,0.0,0.0,0.0,0.0,0.0,-0.6496526214306886,-0.011652814313901309,-0.4580390524024254,0.39389437728804727,0.36031004961905555,-0.11776642341430535,-0.07260792765610746,1.054669225638373,0.32375175735824985,-0.3924218005237403,-2.1530375205789234,0.864594995756944,2.465928491632152,0.5444885606682963,1.0544104758940245,0.3238615046091247,-0.39250456234122666,-2.153291787532338,0.8647539153680389,2.46587817577521,0.5445020185570556,0.00047848457239123765,2.688997538962965e-05,-0.001160250611929427,-0.000428658767577385,-0.0001095238074044032,-0.00013921219299334352,0.0013965332362420868,0.0,0.0,0.0,0.0,0.0,0.0,0.0,-0.0002587497443484743,0.0001097472508748698,-8.276181748634315e-05,-0.0002542669534144615,0.00015891961109493202,-5.031585694226237e-05,1.3457888759282888e-05,-0.00047848457239123765,-2.688997538962965e-05,0.001160250611929427,0.000428658767577385,0.0001095238074044032,0.00013921219299334352,-0.0013965332362420868,0.6806880831718445,34.09072494506836,3.9974029064178467,-19.436067581176758,-0.4150291085243225,-1.796573281288147,0.10470907390117645,0
22,0.10499286651611328,-0.6053096652030945,-34.06295394897461,-4.025173664093018,19.436067581176758,0.4150291085243225,1.783755898475647,-0.06991903483867645,0.0,0.0,0.0,0.0,0.0,0.0,0.0,-0.6403160018138288,-0.010212022115698015,-0.45320133968741366,0.39371573023688017,0.3597978440901091,-0.11755975979575654,-0.072909088193208,1.054663935924831,0.3237498085164187,-0.39241984586631934,-2.1530375184310033,0.8645913841753802,2.4659299203644727,0.5444846951084005,1.0544104758940245,0.3238615046091247,-0.39250456234122666,-2.153291787532338,0.8647539153680389,2.46587817577521,0.5445020185570556,-0.0010313488516461014,-0.00023096251995552907,2.545641425052572e-06,-0.0001579613842938265,-2.472311337491697e-05,0.00011775539346000806,-2.4030373850273528e-05,0.0,0.0,0.0,0.0,0.0,0.0,0.0,-0.00025346003080661816,0.000111696092706004,-8.471647490732037e-05,-0.0002542691013345255,0.0001625311926587436,-5.174458926271441e-05,1.7323448655126583e-05,0.0010313488516461014,0.00023096251995552907,-2.545641425052572e-06,0.0001579613842938265,2.472311337491697e-05,-0.00011775539346000806,2.4030373850273528e-05,0.6053096652030945,34.06295394897461,4.025173664093018,-19.436067581176758,-0.4150291085243225,-1.783755898475647,0.06991903483867645,0
23,0.10999298095703125,-0.6053096652030945,-34.06295394897461,-4.025173664093018,19.436067581176758,0.4150291085243225,1.783755898475647,-0.06991903483867645,0.0,0.0,0.0,0.0,0.0,0.0,0.0,-0.6403160018138288,-0.010212022115698015,-0.45320133968741366,0.39371573023688017,0.3597978440901091,-0.11755975979575654,-0.072909088193208,1.054663935924831,0.3237498085164187,-0.39241984586631934,-2.1530375184310033,0.8645913841753802,2.4659299203644727,0.5444846951084005,1.0544104758940245,0.3238615046091247,-0.39250456234122666,-2.153291787532338,0.8647539153680389,2.46587817577521,0.5445020185570556,-0.0010313488516461014,-0.00023096251995552907,2.545641425052572e-06,-0.0001579613842938265,-2.472311337491697e-05,0.00011775539346000806,-2.4030373850273528e-05,0.0,0.0,0.0,0.0,0.0,0.0,0.0,-0.00025346003080661816,0.000111696092706004,-8.471647490732037e-05,-0.0002542691013345255,0.0001625311926587436,-5.174458926271441e-05,1.7323448655126583e-05,0.0010313488516461014,0.00023096251995552907,-2.545641425052572e-06,0.0001579613842938265,2.472311337491697e-05,-0.00011775539346000806,2.4030373850273528e-05,0.6053096652030945,34.06295394897461,4.025173664093018,-19.436067581176758,-0.4150291085243225,-1.783755898475647,0.06991903483867645,0
24,0.11499428749084473,-0.6806880831718445,-34.09072494506836,-4.025173664093018,19.412263870239258,0.4095359444618225,1.783755898475647,-0.06351034343242645,0.0,0.0,0.0,0.0,0.0,0.0,0.0,-0.650886891380381,-0.01597442946563263,-0.4637109112675019,0.394154382682778,0.35997444942237206,-0.1171320004685986,-0.07253244462277897,1.054669225638373,0.32375175735824985,-0.39241984295010124,-2.1530360667544475,0.8645923521889319,2.465929915785815,0.5444839830315775,1.0544104758940245,0.3238615046091247,-0.39250456234122666,-2.153291787532338,0.8647539153680389,2.46587817577521,0.5445020185570556,0.0009250090745920168,9.344795253163874e-06,-8.955891270350292e-05,-0.00017168264760842136,0.00015650969072653745,7.905435110470001e-06,-0.00030301134923510877,0.0,0.0,0.0,0.0,0.0,0.0,0.0,-0.0002587497443484743,0.0001097472508748698,-8.47193911254207e-05,-0.00025572077789037806,0.0001615631791069827,-5.174001060526123e-05,1.8035525478077297e-05,-0.0009250090745920168,-9.344795253163874e-06,8.955891270350292e-05,0.00017168264760842136,-0.00015650969072653745,-7.905435110470001e-06,0.00030301134923510877,0.6806880831718445,34.09072494506836,4.025173664093018,-19.412263870239258,-0.4095359444618225,-1.783755898475647,0.06351034343242645,0
25,0.12001252174377441,-0.6806880831718445,-34.09072494506836,-4.025173664093018,19.412263870239258,0.4095359444618225,1.783755898475647,-0.06351034343242645,0.0,0.0,0.0,0.0,0.0,0.0,0.0,-0.650886891380381,-0.01597442946563263,-0.4637109112675019,0.394154382682778,0.35997444942237206,-0.1171320004685986,-0.07253244462277897,1.054669225638373,0.32375175735824985,-0.39241984295010124,-2.1530360667544475,0.8645923521889319,2.465929915785815,0.5444839830315775,1.0544104758940245,0.3238615046091247,-0.39250456234122666,-2.153291787532338,0.8647539153680389,2.46587817577521,0.5445020185570556,0.0009250090745920168,9.344795253163874e-06,-8.955891270350292e-05,-0.00017168264760842136,0.00015650969072653745,7.905435110470001e-06,-0.00030301134923510877,0.0,0.0,0.0,0.0,0.0,0.0,0.0,-0.0002587497443484743,0.0001097472508748698,-8.47193911254207e-05,-0.00025572077789037806,0.0001615631791069827,-5.174001060526123e-05,1.8035525478077297e-05,-0.0009250090745920168,-9.344795253163874e-06,8.955891270350292e-05,0.00017168264760842136,-0.00015650969072653745,-7.905435110470001e-06,0.00030301134923510877,0.6806880831718445,34.09072494506836,4.025173664093018,-19.412263870239258,-0.4095359444618225,-1.783755898475647,0.06351034343242645,0
26,0.1249992847442627,-0.6806880831718445,-34.09072494506836,-4.025173664093018,19.412263870239258,0.4095359444618225,1.783755898475647,-0.06351034343242645,0.0,0.0,0.0,0.0,0.0,0.0,0.0,-0.650886891380381,-0.01597442946563263,-0.4637109112675019,0.394154382682778,0.35997444942237206,-0.1171320004685986,-0.07253244462277897,1.054669225638373,0.32375175735824985,-0.39241984295010124,-2.1530360667544475,0.8645923521889319,2.465929915785815,0.5444839830315775,1.0544104758940245,0.3238615046091247,-0.39250456234122666,-2.153291787532338,0.8647539153680389,2.46587817577521,0.5445020185570556,0.0009250090745920168,9.344795253163874e-06,-8.955891270350292e-05,-0.00017168264760842136,0.00015650969072653745,7.905435110470001e-06,-0.00030301134923510877,0.0,0.0,0.0,0.0,0.0,0.0,0.0,-0.0002587497443484743,0.0001097472508748698,-8.47193911254207e-05,-0.00025572077789037806,0.0001615631791069827,-5.174001060526123e-05,1.8035525478077297e-05,-0.0009250090745920168,-9.344795253163874e-06,8.955891270350292e-05,0.00017168264760842136,-0.00015650969072653745,-7.905435110470001e-06,0.00030301134923510877,0.6806880831718445,34.09072494506836,4.025173664093018,-19.412263870239258,-0.4095359444618225,-1.783755898475647,0.06351034343242645,0
27,0.1299448013305664,-0.6568843722343445,-34.06295394897461,-4.025173664093018,19.412263870239258,0.4095359444618225,1.790164589881897,-0.09097616374492645,0.0,0.0,0.0,0.0,0.0,0.0,0.0,-0.6408684719441761,-0.009596227016954877,-0.45234184468637717,0.3940103684088452,0.3593456555789548,-0.11833145147529724,-0.07190664270396893,1.0546675552025175,0.3237498085164187,-0.3924198439581488,-2.153035847129624,0.864592347721284,2.4659292037089666,0.54448703478939,1.0544104758940245,0.3238615046091247,-0.39250456234122666,-2.153291787532338,0.8647539153680389,2.46587817577521,0.5445020185570556,0.0002514473946689234,2.8463020866595607e-05,0.0003419193271415325,0.0009723771536865565,9.04035871105349e-05,-0.00014409102739584457,0.0011703107866247846,0.0,0.0,0.0,0.0,0.0,0.0,0.0,-0.0002570793084930578,0.000111696092706004,-8.471838307788637e-05,-0.00025594040271403884,0.00016156764675490098,-5.102793375666437e-05,1.4983767665621706e-05,-0.0002514473946689234,-2.8463020866595607e-05,-0.0003419193271415325,-0.0009723771536865565,-9.04035871105349e-05,0.00014409102739584457,-0.0011703107866247846,0.6568843722343445,34.06295394897461,4.025173664093018,-19.412263870239258,-0.4095359444618225,-1.790164589881897,0.09097616374492645,0
28,0.13502192497253418,-0.6568843722343445,-34.06295394897461,-4.025173664093018,19.412263870239258,0.4095359444618225,1.790164589881897,-0.09097616374492645,0.0,0.0,0.0,0.0,0.0,0.0,0.0,-0.6408684719441761,-0.009596227016954877,-0.45234184468637717,0.3940103684088452,0.3593456555789548,-0.11833145147529724,-0.07190664270396893,1.0546675552025175,0.3237498085164187,-0.3924198439581488,-2.153035847129624,0.864592347721284,2.4659292037089666,0.54448703478939,1.0544104758940245,0.3238615046091247,-0.39250456234122666,-2.153291787532338,0.8647539153680389,2.46587817577521,0.5445020185570556,0.0002514473946689234,2.8463020866595607e-05,0.0003419193271415325,0.0009723771536865565,9.04035871105349e-05,-0.00014409102739584457,0.0011703107866247846,0.0,0.0,0.0,0.0,0.0,0.0,0.0,-0.0002570793084930578,0.000111696092706004,-8.471838307788637e-05,-0.00025594040271403884,0.00016156764675490098,-5.102793375666437e-05,1.4983767665621706e-05,-0.0002514473946689234,-2.8463020866595607e-05,-0.0003419193271415325,-0.0009723771536865565,-9.04035871105349e-05,0.00014409102739584457,-0.0011703107866247846,0.6568843722343445,34.06295394897461,4.025173664093018,-19.412263870239258,-0.4095359444618225,-1.790164589881897,0.09097616374492645,0
29,0.14000606536865234,-0.6053096652030945,-34.06295394897461,-4.048977375030518,19.459871292114258,0.4214377999305725,1.783755898475647,-0.10470907390117645,0.0,0.0,0.0,0.0,0.0,0.0,0.0,-0.6535088524850986,-0.013557742983785353,-0.46127116226533266,0.3962714863893052,0.35985471561167665,-0.1169198739181904,-0.07191482730623987,1.054663935924831,0.3237498085164187,-0.3924191173582338,-2.153039160377257,0.8645910252928733,2.4659299203644727,0.5444885606682963,1.0544104758940245,0.3238615046091247,-0.39250456234122666,-2.153291787532338,0.8647539153680389,2.46587817577521,0.5445020185570556,-0.0012410300918016994,-0.0003188114708730223,0.0005557857557971145,-0.00026133205993602356,-0.00035305958603545874,0.00036663465031194423,0.0014047346980540561,0.0,0.0,0.0,0.0,0.0,0.0,0.0,-0.00025346003080661816,0.000111696092706004,-8.544498299284387e-05,-0.00025262715508089784,0.00016289007516556708,-5.174458926271441e-05,1.3457888759282888e-05,0.0012410300918016994,0.0003188114708730223,-0.0005557857557971145,0.00026133205993602356,0.00035305958603545874,-0.00036663465031194423,-0.0014047346980540561,0.6053096652030945,34.06295394897461,4.048977375030518,-19.459871292114258,-0.4214377999305725,-1.783755898475647,0.10470907390117645,0
30,0.14501214027404785,-0.6053096652030945,-34.06295394897461,-4.048977375030518,19.459871292114258,0.4214377999305725,1.783755898475647,-0.10470907390117645,0.0,0.0,0.0,0.0,0.0,0.0,0.0,-0.6535088524850986,-0.013557742983785353,-0.46127116226533266,0.3962714863893052,0.35985471561167665,-0.1169198739181904,-0.07191482730623987,1.054663935924831,0.3237498085164187,-0.3924191173582338,-2.153039160377257,0.8645910252928733,2.4659299203644727,0.5444885606682963,1.0544104758940245,0.3238615046091247,-0.39250456234122666,-2.153291787532338,0.8647539153680389,2.46587817577521,0.5445020185570556,-0.0012410300918016994,-0.0003188114708730223,0.0005557857557971145,-0.00026133205993602356,-0.00035305958603545874,0.00036663465031194423,0.0014047346980540561,0.0,0.0,0.0,0.0,0.0,0.0,0.0,-0.00025346003080661816,0.000111696092706004,-8.544498299284387e-05,-0.00025262715508089784,0.00016289007516556708,-5.174458926271441e-05,1.3457888759282888e-05,0.0012410300918016994,0.0003188114708730223,-0.0005557857557971145,0.00026133205993602356,0.00035305958603545874,-0.00036663465031194423,-0.0014047346980540561,0.6053096652030945,34.06295394897461,4.048977375030518,-19.459871292114258,-0.4214377999305725,-1.783755898475647,0.10470907390117645,0
31,0.1500093936920166,-0.6806880831718445,-34.09072494506836,-4.048977375030518,19.412263870239258,0.4031272530555725,1.790164589881897,-0.09738485515117645,0.0,0.0,0.0,0.0,0.0,0.0,0.0,-0.6479657019203028,-0.009877993697724631,-0.45747132991228723,0.3972330887617395,0.3600690282883957,-0.11772979849598954,-0.07184300323650947,1.054669225638373,0.32375175735824985,-0.39241895988956205,-2.153038896418235,0.8645930597980818,2.4659292037089924,0.5444877468662129,1.0544104758940245,0.3238615046091247,-0.39250456234122666,-2.153291787532338,0.8647539153680389,2.46587817577521,0.5445020185570556,0.0008765022006144178,-3.116695618066659e-05,0.00041720790794591236,0.0007730585542014227,0.0005950365062584853,-6.163608308421521e-05,0.0016775729385205937,0.0,0.0,0.0,0.0,0.0,0.0,0.0,-0.0002587497443484743,0.0001097472508748698,-8.560245166461256e-05,-0.0002528911141026491,0.00016085556995715233,-5.102793378242154e-05,1.4271690842670992e-05,-0.0008765022006144178,3.116695618066659e-05,-0.00041720790794591236,-0.0007730585542014227,-0.0005950365062584853,6.163608308421521e-05,-0.0016775729385205937,0.6806880831718445,34.09072494506836,4.048977375030518,-19.412263870239258,-0.4031272530555725,-1.790164589881897,0.09738485515117645,0
32,0.15496206283569336,-0.6806880831718445,-34.09072494506836,-4.048977375030518,19.412263870239258,0.4031272530555725,1.790164589881897,-0.09738485515117645,0.0,0.0,0.0,0.0,0.0,0.0,0.0,-0.6479657019203028,-0.009877993697724631,-0.45747132991228723,0.3972330887617395,0.3600690282883957,-0.11772979849598954,-0.07184300323650947,1.054669225638373,0.32375175735824985,-0.39241895988956205,-2.153038896418235,0.8645930597980818,2.4659292037089924,0.5444877468662129,1.0544104758940245,0.3238615046091247,-0.39250456234122666,-2.153291787532338,0.8647539153680389,2.46587817577521,0.5445020185570556,0.0008765022006144178,-3.116695618066659e-05,0.00041720790794591236,0.0007730585542014227,0.0005950365062584853,-6.163608308421521e-05,0.0016775729385205937,0.0,0.0,0.0,0.0,0.0,0.0,0.0,-0.0002587497443484743,0.0001097472508748698,-8.560245166461256e-05,-0.0002528911141026491,0.00016085556995715233,-5.102793378242154e-05,1.4271690842670992e-05,-0.0008765022006144178,3.116695618066659e-05,-0.00041720790794591236,-0.0007730585542014227,-0.0005950365062584853,6.163608308421521e-05,-0.0016775729385205937,0.6806880831718445,34.09072494506836,4.048977375030518,-19.412263870239258,-0.4031272530555725,-1.790164589881897,0.09738485515117645,0
33,0.15999913215637207,-0.6568843722343445,-34.11452865600586,-4.072781085968018,19.436067581176758,0.4150291085243225,1.783755898475647,-0.09097616374492645,0.0,0.0,0.0,0.0,0.0,0.0,0.0,-0.6507143856555301,-0.01639284091162694,-0.46079058676254575,0.4003772903896451,0.36051065968512297,-0.11727599564632772,-0.07124806816491554,1.0546675552025175,0.32375342779410515,-0.3924165021188213,-2.153037828781177,0.8645917373696963,2.4659299157857895,0.5444870347355547,1.0544104758940245,0.3238615046091247,-0.39250456234122666,-2.153291787532338,0.8647539153680389,2.46587817577521,0.5445020185570556,0.00019186951141915637,0.0003066033772523586,0.001082312553223529,-9.610905919167168e-05,-8.336176445747553e-05,0.00011422656876110064,0.0010047857549435296,0.0,0.0,0.0,0.0,0.0,0.0,0.0,-0.0002570793084930578,0.00010807681501956434,-8.806022240537281e-05,-0.00025395875116096533,0.00016217799834261637,-5.174001057950406e-05,1.4983821500891281e-05,-0.00019186951141915637,-0.0003066033772523586,-0.001082312553223529,9.610905919167168e-05,8.336176445747553e-05,-0.00011422656876110064,-0.0010047857549435296,0.6568843722343445,34.11452865600586,4.072781085968018,-19.436067581176758,-0.4150291085243225,-1.783755898475647,0.09097616374492645,0
34,0.16495490074157715,-0.6568843722343445,-34.11452865600586,-4.072781085968018,19.436067581176758,0.4150291085243225,1.783755898475647,-0.09097616374492645,0.0,0.0,0.0,0.0,0.0,0.0,0.0,-0.6507143856555301,-0.01639284091162694,-0.46079058676254575,0.4003772903896451,0.36051065968512297,-0.11727599564632772,-0.07124806816491554,1.0546675552025175,0.32375342779410515,-0.3924165021188213,-2.153037828781177,0.8645917373696963,2.4659299157857895,0.5444870347355547,1.0544104758940245,0.3238615046091247,-0.39250456234122666,-2.153291787532338,0.8647539153680389,2.46587817577521,0.5445020185570556,0.00019186951141915637,0.0003066033772523586,0.001082312553223529,-9.610905919167168e-05,-8.336176445747553e-05,0.00011422656876110064,0.0010047857549435296,0.0,0.0,0.0,0.0,0.0,0.0,0.0,-0.0002570793084930578,0.00010807681501956434,-8.806022240537281e-05,-0.00025395875116096533,0.00016217799834261637,-5.174001057950406e-05,1.4983821500891281e-05,-0.00019186951141915637,-0.0003066033772523586,-0.001082312553223529,9.610905919167168e-05,8.336176445747553e-05,-0.00011422656876110064,-0.0010047857549435296,0.6568843722343445,34.11452865600586,4.072781085968018,-19.436067581176758,-0.4150291085243225,-1.783755898475647,0.09097616374492645,0
35,0.17000699043273926,-0.6291133761405945,-34.06295394897461,-3.9974029064178467,19.388460159301758,0.4214377999305725,1.796573281288147,-0.06991903483867645,0.0,0.0,0.0,0.0,0.0,0.0,0.0,-0.6456950984734174,-0.00822658781231409,-0.4551397082669399,0.3933208606481833,0.3598562505953831,-0.11834544350212199,-0.07133937270863419,1.0546656063606865,0.3237498085164187,-0.3924218267694072,-2.153034149071448,0.8645910252928733,2.465928491632144,0.5444846951084001,1.0544104758940245,0.3238615046091247,-0.39250456234122666,-2.153291787532338,0.8647539153680389,2.46587817577521,0.5445020185570556,-0.00015420255275954274,-0.0004407997575747693,-0.0004377703252978993,0.000590788595243746,-0.0004542916860144094,-0.0004029159828107105,0.00015059318934105626,0.0,0.0,0.0,0.0,0.0,0.0,0.0,-0.00025513046666203465,0.000111696092706004,-8.27355718194811e-05,-0.0002576384608898863,0.00016289007516556708,-5.0315856933824676e-05,1.732344865545965e-05,0.00015420255275954274,0.0004407997575747693,0.0004377703252978993,-0.000590788595243746,0.0004542916860144094,0.0004029159828107105,-0.00015059318934105626,0.6291133761405945,34.06295394897461,3.9974029064178467,-19.388460159301758,-0.4214377999305725,-1.796573281288147,0.06991903483867645,0
36,0.1750197410583496,-0.6291133761405945,-34.06295394897461,-3.9974029064178467,19.388460159301758,0.4214377999305725,1.796573281288147,-0.06991903483867645,0.0,0.0,0.0,0.0,0.0,0.0,0.0,-0.6456950984734174,-0.00822658781231409,-0.4551397082669399,0.3933208606481833,0.3598562505953831,-0.11834544350212199,-0.07133937270863419,1.0546656063606865,0.3237498085164187,-0.3924218267694072,-2.153034149071448,0.8645910252928733,2.465928491632144,0.5444846951084001,1.0544104758940245,0.3238615046091247,-0.39250456234122666,-2.153291787532338,0.8647539153680389,2.46587817577521,0.5445020185570556,-0.00015420255275954274,-0.0004407997575747693,-0.0004377703252978993,0.000590788595243746,-0.0004542916860144094,-0.0004029159828107105,0.00015059318934105626,0.0,0.0,0.0,0.0,0.0,0.0,0.0,-0.00025513046666203465,0.000111696092706004,-8.27355718194811e-05,-0.0002576384608898863,0.00016289007516556708,-5.0315856933824676e-05,1.732344865545965e-05,0.00015420255275954274,0.0004407997575747693,0.0004377703252978993,-0.000590788595243746,0.0004542916860144094,0.0004029159828107105,-0.00015059318934105626,0.6291133761405945,34.06295394897461,3.9974029064178467,-19.388460159301758,-0.4214377999305725,-1.796573281288147,0.06991903483867645,0
37,0.18002057075500488,-0.6291133761405945,-34.09072494506836,-4.048977375030518,19.436067581176758,0.4214377999305725,1.783755898475647,-0.04977743700146675,0.0,0.0,0.0,0.0,0.0,0.0,0.0,-0.6593518443949193,-0.015140817404244339,-0.47093412008777785,0.3941447914988269,0.3607051763377992,-0.11666967876267874,-0.07101225543019746,1.0546656063606865,0.32375175735824985,-0.39241817251442707,-2.1530374994377737,0.8645910252928733,2.4659299157857895,0.5444824571530851,1.0544104758940245,0.3238615046091247,-0.39250456234122666,-2.153291787532338,0.8647539153680389,2.46587817577521,0.5445020185570556,-0.0005914051900617786,0.00021772203954019919,0.0003867000416957453,-0.0001728897577853496,-0.0003819721020630067,-0.00010447919341725191,-0.00142232285358675,0.0,0.0,0.0,0.0,0.0,0.0,0.0,-0.00025513046666203465,0.0001097472508748698,-8.638982679959328e-05,-0.0002542880945641812,0.00016289007516556708,-5.174001057950406e-05,1.956140397052497e-05,0.0005914051900617786,-0.00021772203954019919,-0.0003867000416957453,0.0001728897577853496,0.0003819721020630067,0.00010447919341725191,0.00142232285358675,0.6291133761405945,34.09072494506836,4.048977375030518,-19.436067581176758,-0.4214377999305725,-1.783755898475647,0.04977743700146675,0
38,0.18500638008117676,-0.6291133761405945,-34.09072494506836,-4.048977375030518,19.436067581176758,0.4214377999305725,1.783755898475647,-0.04977743700146675,0.0,0.0,0.0,0.0,0.0,0.0,0.0,-0.6593518443949193,-0.015140817404244339,-0.47093412008777785,0.3941447914988269,0.3607051763377992,-0.11666967876267874,-0.07101225543019746,1.0546656063606865,0.32375175735824985,-0.39241817251442707,-2.1530374994377737,0.8645910252928733,2.4659299157857895,0.5444824571530851,1.0544104758940245,0.3238615046091247,-0.39250456234122666,-2.153291787532338,0.8647539153680389,2.46587817577521,0.5445020185570556,-0.0005914051900617786,0.00021772203954019919,0.0003867000416957453,-0.0001728897577853496,-0.0003819721020630067,-0.00010447919341725191,-0.00142232285358675,0.0,0.0,0.0,0.0,0.0,0.0,0.0,-0.00025513046666203465,0.0001097472508748698,-8.638982679959328e-05,-0.0002542880945641812,0.00016289007516556708,-5.174001057950406e-05,1.956140397052497e-05,0.0005914051900617786,-0.00021772203954019919,-0.0003867000416957453,0.0001728897577853496,0.0003819721020630067,0.00010447919341725191,0.00142232285358675,0.6291133761405945,34.09072494506836,4.048977375030518,-19.436067581176758,-0.4214377999305725,-1.783755898475647,0.04977743700146675,0
39,0.18996524810791016,-0.6291133761405945,-34.09072494506836,-4.048977375030518,19.436067581176758,0.4214377999305725,1.783755898475647,-0.04977743700146675,0.0,0.0,0.0,0.0,0.0,0.0,0.0,-0.6593518443949193,-0.015140817404244339,-0.47093412008777785,0.3941447914988269,0.3607051763377992,-0.11666967876267874,-0.07101225543019746,1.0546656063606865,0.32375175735824985,-0.39241817251442707,-2.1530374994377737,0.8645910252928733,2.4659299157857895,0.5444824571530851,1.0544104758940245,0.3238615046091247,-0.39250456234122666,-2.153291787532338,0.8647539153680389,2.46587817577521,0.5445020185570556,-0.0005914051900617786,0.00021772203954019919,0.0003867000416957453,-0.0001728897577853496,-0.0003819721020630067,-0.00010447919341725191,-0.00142232285358675,0.0,0.0,0.0,0.0,0.0,0.0,0.0,-0.00025513046666203465,0.0001097472508748698,-8.638982679959328e-05,-0.0002542880945641812,0.00016289007516556708,-5.174001057950406e-05,1.956140397052497e-05,0.0005914051900617786,-0.00021772203954019919,-0.0003867000416957453,0.0001728897577853496,0.0003819721020630067,0.00010447919341725191,0.00142232285358675,0.6291133761405945,34.09072494506836,4.048977375030518,-19.436067581176758,-0.4214377999305725,-1.783755898475647,0.04977743700146675,0
40,0.19499707221984863,-0.6291133761405945,-34.09072494506836,-4.048977375030518,19.436067581176758,0.4214377999305725,1.783755898475647,-0.04977743700146675,0.0,0.0,0.0,0.0,0.0,0.0,0.0,-0.6593518443949193,-0.015140817404244339,-0.47093412008777785,0.3941447914988269,0.3607051763377992,-0.11666967876267874,-0.07101225543019746,1.0546656063606865,0.32375175735824985,-0.39241817251442707,-2.1530374994377737,0.8645910252928733,2.4659299157857895,0.5444824571530851,1.0544104758940245,0.3238615046091247,-0.39250456234122666,-2.153291787532338,0.8647539153680389,2.46587817577521,0.5445020185570556,-0.0005914051900617786,0.00021772203954019919,0.0003867000416957453,-0.0001728897577853496,-0.0003819721020630067,-0.00010447919341725191,-0.00142232285358675,0.0,0.0,0.0,0.0,0.0,0.0,0.0,-0.00025513046666203465,0.0001097472508748698,-8.638982679959328e-05,-0.0002542880945641812,0.00016289007516556708,-5.174001057950406e-05,1.956140397052497e-05,0.0005914051900617786,-0.00021772203954019919,-0.0003867000416957453,0.0001728897577853496,0.0003819721020630067,0.00010447919341725191,0.00142232285358675,0.6291133761405945,34.09072494506836,4.048977375030518,-19.436067581176758,-0.4214377999305725,-1.783755898475647,0.04977743700146675,0
41,0.20000815391540527,-0.6568843722343445,-34.09072494506836,-3.9974029064178467,19.412263870239258,0.4150291085243225,1.790164589881897,-0.08365194499492645,0.0,0.0,0.0,0.0,0.0,0.0,0.0,-0.632393692880156,-0.013094321259610948,-0.4491951973392715,0.3951927815550468,0.35960113585665654,-0.11955660134478575,-0.0701586660388182,1.0546675552025175,0.32375175735824985,-0.3924218714842464,-2.153038127161814,0.8645917373696963,2.4659292037089666,0.5444865742000164,1.0544104758940245,0.3238615046091247,-0.39250456234122666,-2.153291787532338,0.8647539153680389,2.46587817577521,0.5445020185570556,0.0006411422222382979,9.764349181681348e-05,-0.00013098840787478233,0.00039862029324183227,-0.00011099876119789256,-1.8343843724208023e-05,0.00045057675331147397,0.0,0.0,0.0,0.0,0.0,0.0,0.0,-0.0002570793084930578,0.0001097472508748698,-8.269085698026091e-05,-0.00025366037052387824,0.00016217799834261637,-5.102793375666437e-05,1.544435703915159e-05,-0.0006411422222382979,-9.764349181681348e-05,0.00013098840787478233,-0.00039862029324183227,0.00011099876119789256,1.8343843724208023e-05,-0.00045057675331147397,0.6568843722343445,34.09072494506836,3.9974029064178467,-19.412263870239258,-0.4150291085243225,-1.790164589881897,0.08365194499492645,0
42,0.20504975318908691,-0.6568843722343445,-34.09072494506836,-3.9974029064178467,19.412263870239258,0.4150291085243225,1.790164589881897,-0.08365194499492645,0.0,0.0,0.0,0.0,0.0,0.0,0.0,-0.632393692880156,-0.013094321259610948,-0.4491951973392715,0.3951927815550468,0.35960113585665654,-0.11955660134478575,-0.0701586660388182,1.0546675552025175,0.32375175735824985,-0.3924218714842464,-2.153038127161814,0.8645917373696963,2.4659292037089666,0.5444865742000164,1.0544104758940245,0.3238615046091247,-0.39250456234122666,-2.153291787532338,0.8647539153680389,2.46587817577521,0.5445020185570556,0.0006411422222382979,9.764349181681348e-05,-0.00013098840787478233,0.00039862029324183227,-0.00011099876119789256,-1.8343843724208023e-05,0.00045057675331147397,0.0,0.0,0.0,0.0,0.0,0.0,0.0,-0.0002570793084930578,0.0001097472508748698,-8.269085698026091e-05,-0.00025366037052387824,0.00016217799834261637,-5.102793375666437e-05,1.544435703915159e-05,-0.0006411422222382979,-9.764349181681348e-05,0.00013098840787478233,-0.00039862029324183227,0.00011099876119789256,1.8343843724208023e-05,-0.00045057675331147397,0.6568843722343445,34.09072494506836,3.9974029064178467,-19.412263870239258,-0.4150291085243225,-1.790164589881897,0.08365194499492645,0
43,0.21000313758850098,-0.6806880831718445,-34.09072494506836,-4.025173664093018,19.436067581176758,0.4031272530555725,1.790164589881897,-0.05710165575146675,0.0,0.0,0.0,0.0,0.0,0.0,0.0,-0.6475707308176667,-0.020311030353324152,-0.462827482273004,0.39678042496629085,0.36010526327637965,-0.11772348219389082,-0.07149906157803897,1.054669225638373,0.32375175735824985,-0.3924205546086257,-2.153037820097737,0.8645930597980818,2.465929205235194,0.5444832709611502,1.0544104758940245,0.3238615046091247,-0.39250456234122666,-2.153291787532338,0.8647539153680389,2.46587817577521,0.5445020185570556,0.0010010958830205777,-0.00021935678567640263,0.0003536143844433866,-0.00010398010757763792,0.00037812057432425446,8.292075320308727e-06,-0.0007760093926939962,0.0,0.0,0.0,0.0,0.0,0.0,0.0,-0.0002587497443484743,0.0001097472508748698,-8.400773260097694e-05,-0.00025396743460071036,0.00016085556995715233,-5.102945998425312e-05,1.8747595905366232e-05,-0.0010010958830205777,0.00021935678567640263,-0.0003536143844433866,0.00010398010757763792,-0.00037812057432425446,-8.292075320308727e-06,0.0007760093926939962,0.6806880831718445,34.09072494506836,4.025173664093018,-19.436067581176758,-0.4031272530555725,-1.790164589881897,0.05710165575146675,0
44,0.21504521369934082,-0.6806880831718445,-34.09072494506836,-4.025173664093018,19.436067581176758,0.4031272530555725,1.790164589881897,-0.05710165575146675,0.0,0.0,0.0,0.0,0.0,0.0,0.0,-0.6475707308176667,-0.020311030353324152,-0.462827482273004,0.39678042496629085,0.36010526327637965,-0.11772348219389082,-0.07149906157803897,1.054669225638373,0.32375175735824985,-0.3924205546086257,-2.153037820097737,0.8645930597980818,2.465929205235194,0.5444832709611502,1.0544104758940245,0.3238615046091247,-0.39250456234122666,-2.153291787532338,0.8647539153680389,2.46587817577521,0.5445020185570556,0.0010010958830205777,-0.00021935678567640263,0.0003536143844433866,-0.00010398010757763792,0.00037812057432425446,8.292075320308727e-06,-0.0007760093926939962,0.0,0.0,0.0,0.0,0.0,0.0,0.0,-0.0002587497443484743,0.0001097472508748698,-8.400773260097694e-05,-0.00025396743460071036,0.00016085556995715233,-5.102945998425312e-05,1.8747595905366232e-05,-0.0010010958830205777,0.00021935678567640263,-0.0003536143844433866,0.00010398010757763792,-0.00037812057432425446,-8.292075320308727e-06,0.0007760093926939962,0.6806880831718445,34.09072494506836,4.025173664093018,-19.436067581176758,-0.4031272530555725,-1.790164589881897,0.05710165575146675,0
45,0.21996188163757324,-0.6806880831718445,-34.03915023803711,-4.048977375030518,19.388460159301758,0.4214377999305725,1.802981972694397,-0.10470907390117645,0.0,0.0,0.0,0.0,0.0,0.0,0.0,-0.6431030364162903,-0.0056089350208381366,-0.4568879273850649,0.3883905543702736,0.3599301770220749,-0.11852377470257972,-0.0719049668987153,1.054669225638373,0.32374813808056346,-0.3924181725155686,-2.15303414918321,0.8645910252928733,2.4659277795553236,0.5444885606682963,1.0544104758940245,0.3238615046091247,-0.39250456234122666,-2.153291787532338,0.8647539153680389,2.46587817577521,0.5445020185570556,0.0006167869165509628,-0.0006295309953123047,0.0009552630894319167,0.0007973532410380088,-0.00022945083416179066,-0.00047371202363275536,0.0016400946424685956,0.0,0.0,0.0,0.0,0.0,0.0,0.0,-0.0002587497443484743,0.00011336652856125395,-8.638982565806197e-05,-0.0002576383491277312,0.00016289007516556708,-4.960378011364952e-05,1.3457888759282888e-05,-0.0006167869165509628,0.0006295309953123047,-0.0009552630894319167,-0.0007973532410380088,0.00022945083416179066,0.00047371202363275536,-0.0016400946424685956,0.6806880831718445,34.03915023803711,4.048977375030518,-19.388460159301758,-0.4214377999305725,-1.802981972694397,0.10470907390117645,0
46,0.2250220775604248,-0.6806880831718445,-34.03915023803711,-4.048977375030518,19.388460159301758,0.4214377999305725,1.802981972694397,-0.10470907390117645,0.0,0.0,0.0,0.0,0.0,0.0,0.0,-0.6431030364162903,-0.0056089350208381366,-0.4568879273850649,0.3883905543702736,0.3599301770220749,-0.11852377470257972,-0.0719049668987153,1.054669225638373,0.32374813808056346,-0.3924181725155686,-2.15303414918321,0.8645910252928733,2.4659277795553236,0.5444885606682963,1.0544104758940245,0.3238615046091247,-0.39250456234122666,-2.153291787532338,0.8647539153680389,2.46587817577521,0.5445020185570556,0.0006167869165509628,-0.0006295309953123047,0.0009552630894319167,0.0007973532410380088,-0.00022945083416179066,-0.00047371202363275536,0.0016400946424685956,0.0,0.0,0.0,0.0,0.0,0.0,0.0,-0.0002587497443484743,0.00011336652856125395,-8.638982565806197e-05,-0.0002576383491277312,0.00016289007516556708,-4.960378011364952e-05,1.3457888759282888e-05,-0.0006167869165509628,0.0006295309953123047,-0.0009552630894319167,-0.0007973532410380088,0.00022945083416179066,0.00047371202363275536,-0.0016400946424685956,0.6806880831718445,34.03915023803711,4.048977375030518,-19.388460159301758,-0.4214377999305725,-1.802981972694397,0.10470907390117645,0
47,0.22999334335327148,-0.6291133761405945,-34.06295394897461,-3.9735991954803467,19.459871292114258,0.4095359444618225,1.790164589881897,-0.09097616374492645,0.0,0.0,0.0,0.0,0.0,0.0,0.0,-0.6331157455482648,-0.013325461101538023,-0.44549056649329505,0.39520903661210144,0.3601292728727803,-0.11836735267969362,-0.0720118110320964,1.0546656063606865,0.32375004472741836,-0.39242346221104,-2.1530391888666864,0.8645923477212588,2.4659292037089666,0.54448703478939,1.0544104758940245,0.3238615046091247,-0.39250456234122666,-2.153291787532338,0.8647539153680389,2.46587817577521,0.5445020185570556,-0.00016595385374977074,-0.0003345154869323046,-0.00035411849615608497,-0.0008992823081264887,0.0002139491271077786,-0.00024198335988951438,-0.004415772535050929,0.0,0.0,0.0,0.0,0.0,0.0,0.0,-0.00025513046666203465,0.00011145988170635501,-8.110013018663986e-05,-0.00025259866565141564,0.00016156764678010305,-5.102793375666437e-05,1.4983767665621706e-05,0.00016595385374977074,0.0003345154869323046,0.00035411849615608497,0.0008992823081264887,-0.0002139491271077786,0.00024198335988951438,0.004415772535050929,0.6291133761405945,34.06295394897461,3.9735991954803467,-19.459871292114258,-0.4095359444618225,-1.790164589881897,0.09097616374492645,0
48,0.23500776290893555,-0.6291133761405945,-34.06295394897461,-3.9735991954803467,19.459871292114258,0.4095359444618225,1.790164589881897,-0.09097616374492645,0.0,0.0,0.0,0.0,0.0,0.0,0.0,-0.6331157455482648,-0.013325461101538023,-0.44549056649329505,0.39520903661210144,0.3601292728727803,-0.11836735267969362,-0.0720118110320964,1.0546656063606865,0.32375004472741836,-0.39242346221104,-2.1530391888666864,0.8645923477212588,2.4659292037089666,0.54448703478939,1.0544104758940245,0.3238615046091247,-0.39250456234122666,-2.153291787532338,0.8647539153680389,2.46587817577521,0.5445020185570556,-0.00016595385374977074,-0.0003345154869323046,-0.00035411849615608497,-0.0008992823081264887,0.0002139491271077786,-0.00024198335988951438,-0.004415772535050929,0.0,0.0,0.0,0.0,0.0,0.0,0.0,-0.00025513046666203465,0.00011145988170635501,-8.110013018663986e-05,-0.00025259866565141564,0.00016156764678010305,-5.102793375666437e-05,1.4983767665621706e-05,0.00016595385374977074,0.0003345154869323046,0.00035411849615608497,0.0008992823081264887,-0.0002139491271077786,0.00024198335988951438,0.004415772535050929,0.6291133761405945,34.06295394897461,3.9735991954803467,-19.459871292114258,-0.4095359444618225,-1.790164589881897,0.09097616374492645,0
49,0.24000859260559082,-0.6568843722343445,-34.09072494506836,-3.9735991954803467,19.412263870239258,0.4031272530555725,1.777347207069397,-0.07724325358867645,0.0,0.0,0.0,0.0,0.0,0.0,0.0,-0.6487132821579257,-0.016668546343114474,-0.4560879899320448,0.39731798448974776,0.3605614777793994,-0.1170355642507933,-0.07208249360433908,1.0546675552025175,0.3237517573595832,-0.39242346221104,-2.153036069806903,0.8645930597980818,2.4659306278626123,0.5444855437956896,1.0544104758940245,0.3238615046091247,-0.39250456234122666,-2.153291787532338,0.8647539153680389,2.46587817577521,0.5445020185570556,0.0004658349387227658,-0.0003277949963433609,-0.0008195817115215466,0.00047419357050884647,0.0004313754483157236,0.00043473813330047704,-7.961707203678065e-05,0.0,0.0,0.0,0.0,0.0,0.0,0.0,-0.0002570793084930578,0.00010974724954149195,-8.110013018663986e-05,-0.00025571772543475646,0.00016085556995715233,-5.245208740234375e-05,1.6474761366014334e-05,-0.0004658349387227658,0.0003277949963433609,0.0008195817115215466,-0.00047419357050884647,-0.0004313754483157236,-0.00043473813330047704,7.961707203678065e-05,0.6568843722343445,34.09072494506836,3.9735991954803467,-19.412263870239258,-0.4031272530555725,-1.777347207069397,0.07724325358867645,0
50,0.24500226974487305,-0.6568843722343445,-34.09072494506836,-3.9735991954803467,19.412263870239258,0.4031272530555725,1.777347207069397,-0.07724325358867645,0.0,0.0,0.0,0.0,0.0,0.0,0.0,-0.6487132821579257,-0.016668546343114474,-0.4560879899320448,0.39731798448974776,0.3605614777793994,-0.1170355642507933,-0.07208249360433908,1.0546675552025175,0.3237517573595832,-0.39242346221104,-2.153036069806903,0.8645930597980818,2.4659306278626123,0.5444855437956896,1.0544104758940245,0.3238615046091247,-0.39250456234122666,-2.153291787532338,0.8647539153680389,2.46587817577521,0.5445020185570556,0.0004658349387227658,-0.0003277949963433609,-0.0008195817115215466,0.00047419357050884647,0.0004313754483157236,0.00043473813330047704,-7.961707203678065e-05,0.0,0.0,0.0,0.0,0.0,0.0,0.0,-0.0002570793084930578,0.00010974724954149195,-8.110013018663986e-05,-0.00025571772543475646,0.00016085556995715233,-5.245208740234375e-05,1.6474761366014334e-05,-0.0004658349387227658,0.0003277949963433609,0.0008195817115215466,-0.00047419357050884647,-0.0004313754483157236,-0.00043473813330047704,7.961707203678065e-05,0.6568843722343445,34.09072494506836,3.9735991954803467,-19.412263870239258,-0.4031272530555725,-1.777347207069397,0.07724325358867645,0
51,0.25000619888305664,-0.6568843722343445,-34.09072494506836,-4.025173664093018,19.412263870239258,0.4150291085243225,1.790164589881897,-0.09097616374492645,0.0,0.0,0.0,0.0,0.0,0.0,0.0,-0.6482589157158734,-0.01502790395384198,-0.4540356649971948,0.39579602661758073,0.3600699393694302,-0.11728219182825156,-0.07293215271639014,1.0546675552025175,0.32375246599124885,-0.3924219688490817,-2.153038044784559,0.8645917373696963,2.4659292037089666,0.5444870348434221,1.0544104758940245,0.3238615046091247,-0.39250456234122666,-2.153291787532338,0.8647539153680389,2.46587817577521,0.5445020185570556,0.0005265989433202037,-0.0004235949331169889,0.00015580302113349896,0.0005833505422876986,2.373499534417143e-05,-0.0001067415895510426,0.001828761654628827,0.0,0.0,0.0,0.0,0.0,0.0,0.0,-0.0002570793084930578,0.00010903861787586733,-8.25934921449556e-05,-0.00025374274777867356,0.00016217799834261637,-5.102793375666437e-05,1.4983713633509588e-05,-0.0005265989433202037,0.0004235949331169889,-0.00015580302113349896,-0.0005833505422876986,-2.373499534417143e-05,0.0001067415895510426,-0.001828761654628827,0.6568843722343445,34.09072494506836,4.025173664093018,-19.412263870239258,-0.4150291085243225,-1.790164589881897,0.09097616374492645,0
52,0.25499749183654785,-0.6568843722343445,-34.09072494506836,-4.025173664093018,19.412263870239258,0.4150291085243225,1.790164589881897,-0.09097616374492645,0.0,0.0,0.0,0.0,0.0,0.0,0.0,-0.6482589157158734,-0.01502790395384198,-0.4540356649971948,0.39579602661758073,0.3600699393694302,-0.11728219182825156,-0.07293215271639014,1.0546675552025175,0.32375246599124885,-0.3924219688490817,-2.153038044784559,0.8645917373696963,2.4659292037089666,0.5444870348434221,1.0544104758940245,0.3238615046091247,-0.39250456234122666,-2.153291787532338,0.8647539153680389,2.46587817577521,0.5445020185570556,0.0005265989433202037,-0.0004235949331169889,0.00015580302113349896,0.0005833505422876986,2.373499534417143e-05,-0.0001067415895510426,0.001828761654628827,0.0,0.0,0.0,0.0,0.0,0.0,0.0,-0.0002570793084930578,0.00010903861787586733,-8.25934921449556e-05,-0.00025374274777867356,0.00016217799834261637,-5.102793375666437e-05,1.4983713633509588e-05,-0.0005265989433202037,0.0004235949331169889,-0.00015580302113349896,-0.0005833505422876986,-2.373499534417143e-05,0.0001067415895510426,-0.001828761654628827,0.6568843722343445,34.09072494506836,4.025173664093018,-19.412263870239258,-0.4150291085243225,-1.790164589881897,0.09097616374492645,0
53,0.2600095272064209,-0.6568843722343445,-34.09072494506836,-4.048977375030518,19.459871292114258,0.4150291085243225,1.770938515663147,-0.04336874559521675,0.0,0.0,0.0,0.0,0.0,0.0,0.0,-0.6493674492141516,-0.004811486797856048,-0.45415146147237506,0.3904799731904618,0.3598281990598706,-0.11754558903583319,-0.07222143542223307,1.0546675552025175,0.3237517573622501,-0.3924181725262303,-2.1530391603896626,0.8645917373696963,2.465931339939435,0.5444817450762625,1.0544104758940245,0.3238615046091247,-0.39250456234122666,-2.153291787532338,0.8647539153680389,2.46587817577521,0.5445020185570556,0.0004961144106784346,0.0006695261878506569,0.0006684238231878664,-0.0006258445666013182,-0.000267581388203863,0.0006833078738947826,-0.0013738481603085108,0.0,0.0,0.0,0.0,0.0,0.0,0.0,-0.0002570793084930578,0.00010974724687462523,-8.638981499636822e-05,-0.00025262714267526576,0.00016217799834261637,-5.316416422518344e-05,2.0273480793142618e-05,-0.0004961144106784346,-0.0006695261878506569,-0.0006684238231878664,0.0006258445666013182,0.000267581388203863,-0.0006833078738947826,0.0013738481603085108,0.6568843722343445,34.09072494506836,4.048977375030518,-19.459871292114258,-0.4150291085243225,-1.770938515663147,0.04336874559521675,0
54,0.26500487327575684,-0.6568843722343445,-34.09072494506836,-4.048977375030518,19.459871292114258,0.4150291085243225,1.770938515663147,-0.04336874559521675,0.0,0.0,0.0,0.0,0.0,0.0,0.0,-0.6493674492141516,-0.004811486797856048,-0.45415146147237506,0.3904799731904618,0.3598281990598706,-0.11754558903583319,-0.07222143542223307,1.0546675552025175,0.3237517573622501,-0.3924181725262303,-2.1530391603896626,0.8645917373696963,2.465931339939435,0.5444817450762625,1.0544104758940245,0.3238615046091247,-0.39250456234122666,-2.153291787532338,0.8647539153680389,2.46587817577521,0.5445020185570556,0.0004961144106784346,0.0006695261878506569,0.0006684238231878664,-0.0006258445666013182,-0.000267581388203863,0.0006833078738947826,-0.0013738481603085108,0.0,0.0,0.0,0.0,0.0,0.0,0.0,-0.0002570793084930578,0.00010974724687462523,-8.638981499636822e-05,-0.00025262714267526576,0.00016217799834261637,-5.316416422518344e-05,2.0273480793142618e-05,-0.0004961144106784346,-0.0006695261878506569,-0.0006684238231878664,0.0006258445666013182,0.000267581388203863,-0.0006833078738947826,0.0013738481603085108,0.6568843722343445,34.09072494506836,4.048977375030518,-19.459871292114258,-0.4150291085243225,-1.770938515663147,0.04336874559521675,0
55,0.2700493335723877,-0.6291133761405945,-34.03915023803711,-3.9974029064178467,19.436067581176758,0.4150291085243225,1.783755898475647,-0.03604452684521675,0.0,0.0,0.0,0.0,0.0,0.0,0.0,-0.6463285701520705,-0.00613280865886107,-0.4523928165823723,0.39372963068373174,0.3592955585942256,-0.11788130605110463,-0.07191755217504044,1.0546656063606865,0.3237483742915631,-0.3924217918831917,-2.153038231687936,0.8645917373696963,2.4659299157857895,0.5444809314356844,1.0544104758940245,0.3238615046091247,-0.39250456234122666,-2.153291787532338,0.8647539153680389,2.46587817577521,0.5445020185570556,-0.0004458209344891052,-0.00035215197107066744,-0.000474982735977125,0.00018698257616853867,-0.00026257053664423627,7.395939549384983e-05,-0.00131956122849989,0.0,0.0,0.0,0.0,0.0,0.0,0.0,-0.00025513046666203465,0.00011313031756160496,-8.277045803495309e-05,-0.00025355584440189816,0.00016217799834261637,-5.174001057950406e-05,2.1087121371166084e-05,0.0004458209344891052,0.00035215197107066744,0.000474982735977125,-0.00018698257616853867,0.00026257053664423627,-7.395939549384983e-05,0.00131956122849989,0.6291133761405945,34.03915023803711,3.9974029064178467,-19.436067581176758,-0.4150291085243225,-1.783755898475647,0.03604452684521675,0
56,0.27499961853027344,-0.6291133761405945,-34.03915023803711,-3.9974029064178467,19.436067581176758,0.4150291085243225,1.783755898475647,-0.03604452684521675,0.0,0.0,0.0,0.0,0.0,0.0,0.0,-0.6463285701520705,-0.00613280865886107,-0.4523928165823723,0.39372963068373174,0.3592955585942256,-0.11788130605110463,-0.07191755217504044,1.0546656063606865,0.3237483742915631,-0.3924217918831917,-2.153038231687936,0.8645917373696963,2.4659299157857895,0.5444809314356844,1.0544104758940245,0.3238615046091247,-0.39250456234122666,-2.153291787532338,0.8647539153680389,2.46587817577521,0.5445020185570556,-0.0004458209344891052,-0.00035215197107066744,-0.000474982735977125,0.00018698257616853867,-0.00026257053664423627,7.395939549384983e-05,-0.00131956122849989,0.0,0.0,0.0,0.0,0.0,0.0,0.0,-0.00025513046666203465,0.00011313031756160496,-8.277045803495309e-05,-0.00025355584440189816,0.00016217799834261637,-5.174001057950406e-05,2.1087121371166084e-05,0.0004458209344891052,0.00035215197107066744,0.000474982735977125,-0.00018698257616853867,0.00026257053664423627,-7.395939549384983e-05,0.00131956122849989,0.6291133761405945,34.03915023803711,3.9974029064178467,-19.436067581176758,-0.4150291085243225,-1.783755898475647,0.03604452684521675,0
57,0.2799992561340332,-0.6053096652030945,-34.03915023803711,-3.9974029064178467,19.436067581176758,0.4095359444618225,1.790164589881897,-0.06351034343242645,0.0,0.0,0.0,0.0,0.0,0.0,0.0,-0.6492410116310013,-0.012707384238179518,-0.45610286285856744,0.3990987852203391,0.3583996186937796,-0.11725423291947061,-0.07121399823066112,1.054663935924831,0.32374813808189684,-0.39242179479937744,-2.1530377371943294,0.8645923477212588,2.4659292037089666,0.5444839835160952,1.0544104758940245,0.3238615046091247,-0.39250456234122666,-2.153291787532338,0.8647539153680389,2.46587817577521,0.5445020185570556,-0.0007992854751851713,-0.0009022415690507932,-0.00045331284138175315,0.00013925952579306577,0.00010642529216445536,5.2270958491526755e-05,0.0006968368338726979,0.0,0.0,0.0,0.0,0.0,0.0,0.0,-0.00025346003080661816,0.0001133665272278761,-8.276754184921575e-05,-0.0002540503380084047,0.00016156764678010305,-5.102793375666437e-05,1.8035040960429072e-05,0.0007992854751851713,0.0009022415690507932,0.00045331284138175315,-0.00013925952579306577,-0.00010642529216445536,-5.2270958491526755e-05,-0.0006968368338726979,0.6053096652030945,34.03915023803711,3.9974029064178467,-19.436067581176758,-0.4095359444618225,-1.790164589881897,0.06351034343242645,0
58,0.28502488136291504,-0.6053096652030945,-34.03915023803711,-3.9974029064178467,19.436067581176758,0.4095359444618225,1.790164589881897,-0.06351034343242645,0.0,0.0,0.0,0.0,0.0,0.0,0.0,-0.6492410116310013,-0.012707384238179518,-0.45610286285856744,0.3990987852203391,0.3583996186937796,-0.11725423291947061,-0.07121399823066112,1.054663935924831,0.32374813808189684,-0.39242179479937744,-2.1530377371943294,0.8645923477212588,2.4659292037089666,0.5444839835160952,1.0544104758940245,0.3238615046091247,-0.39250456234122666,-2.153291787532338,0.8647539153680389,2.46587817577521,0.5445020185570556,-0.0007992854751851713,-0.0009022415690507932,-0.00045331284138175315,0.00013925952579306577,0.00010642529216445536,5.2270958491526755e-05,0.0006968368338726979,0.0,0.0,0.0,0.0,0.0,0.0,0.0,-0.00025346003080661816,0.0001133665272278761,-8.276754184921575e-05,-0.0002540503380084047,0.00016156764678010305,-5.102793375666437e-05,1.8035040960429072e-05,0.0007992854751851713,0.0009022415690507932,0.00045331284138175315,-0.00013925952579306577,-0.00010642529216445536,-5.2270958491526755e-05,-0.0006968368338726979,0.6053096652030945,34.03915023803711,3.9974029064178467,-19.436067581176758,-0.4095359444618225,-1.790164589881897,0.06351034343242645,0
59,0.28995347023010254,-0.6053096652030945,-34.06295394897461,-4.025173664093018,19.459871292114258,0.4214377999305725,1.783755898475647,-0.05710165575146675,0.0,0.0,0.0,0.0,0.0,0.0,0.0,-0.6415891104074078,-0.0071379841517872685,-0.450102258893157,0.3955397600420013,0.35866325674790994,-0.11789173046924595,-0.07103440018542502,1.054663935924831,0.3237498085164187,-0.3924219688490988,-2.1530392427947955,0.8645910238393231,2.4659299157857895,0.5444864498695593,1.0544104758940245,0.3238615046091247,-0.39250456234122666,-2.153291787532338,0.8647539153680389,2.46587817577521,0.5445020185570556,-0.0005993706365854907,-0.00022154204508711744,0.0003981854596496986,-0.000748189376746012,-0.00036866018092690034,0.00021780045891630625,-0.0007390835192669895,0.0,0.0,0.0,0.0,0.0,0.0,0.0,-0.00025346003080661816,0.000111696092706004,-8.259349212785816e-05,-0.0002525447375423262,0.00016289152871584722,-5.174001057950406e-05,1.5568687496303468e-05,0.0005993706365854907,0.00022154204508711744,-0.0003981854596496986,0.000748189376746012,0.00036866018092690034,-0.00021780045891630625,0.0007390835192669895,0.6053096652030945,34.06295394897461,4.025173664093018,-19.459871292114258,-0.4214377999305725,-1.783755898475647,0.05710165575146675,0
60,0.29500246047973633,-0.6053096652030945,-34.06295394897461,-4.025173664093018,19.459871292114258,0.4214377999305725,1.783755898475647,-0.05710165575146675,0.0,0.0,0.0,0.0,0.0,0.0,0.0,-0.6415891104074078,-0.0071379841517872685,-0.450102258893157,0.3955397600420013,0.35866325674790994,-0.11789173046924595,-0.07103440018542502,1.054663935924831,0.3237498085164187,-0.3924219688490988,-2.1530392427947955,0.8645910238393231,2.4659299157857895,0.5444864498695593,1.0544104758940245,0.3238615046091247,-0.39250456234122666,-2.153291787532338,0.8647539153680389,2.46587817577521,0.5445020185570556,-0.0005993706365854907,-0.00022154204508711744,0.0003981854596496986,-0.000748189376746012,-0.00036866018092690034,0.00021780045891630625,-0.0007390835192669895,0.0,0.0,0.0,0.0,0.0,0.0,0.0,-0.00025346003080661816,0.000111696092706004,-8.259349212785816e-05,-0.0002525447375423262,0.00016289152871584722,-5.174001057950406e-05,1.5568687496303468e-05,0.0005993706365854907,0.00022154204508711744,-0.0003981854596496986,0.000748189376746012,0.00036866018092690034,-0.00021780045891630625,0.0007390835192669895,0.6053096652030945,34.06295394897461,4.025173664093018,-19.459871292114258,-0.4214377999305725,-1.783755898475647,0.05710165575146675,0
61,0.3000047206878662,-0.6053096652030945,-34.06295394897461,-4.025173664093018,19.459871292114258,0.4214377999305725,1.783755898475647,-0.05710165575146675,0.0,0.0,0.0,0.0,0.0,0.0,0.0,-0.6415891104074078,-0.0071379841517872685,-0.450102258893157,0.3955397600420013,0.35866325674790994,-0.11789173046924595,-0.07103440018542502,1.054663935924831,0.3237498085164187,-0.3924219688490988,-2.1530392427947955,0.8645910238393231,2.4659299157857895,0.5444864498695593,1.0544104758940245,0.3238615046091247,-0.39250456234122666,-2.153291787532338,0.8647539153680389,2.46587817577521,0.5445020185570556,-0.0005993706365854907,-0.00022154204508711744,0.0003981854596496986,-0.000748189376746012,-0.00036866018092690034,0.00021780045891630625,-0.0007390835192669895,0.0,0.0,0.0,0.0,0.0,0.0,0.0,-0.00025346003080661816,0.000111696092706004,-8.259349212785816e-05,-0.0002525447375423262,0.00016289152871584722,-5.174001057950406e-05,1.5568687496303468e-05,0.0005993706365854907,0.00022154204508711744,-0.0003981854596496986,0.000748189376746012,0.00036866018092690034,-0.00021780045891630625,0.0007390835192669895,0.6053096652030945,34.06295394897461,4.025173664093018,-19.459871292114258,-0.4214377999305725,-1.783755898475647,0.05710165575146675,0
62,0.30499720573425293,-0.6053096652030945,-34.06295394897461,-4.025173664093018,19.459871292114258,0.4214377999305725,1.783755898475647,-0.05710165575146675,0.0,0.0,0.0,0.0,0.0,0.0,0.0,-0.6415891104074078,-0.0071379841517872685,-0.450102258893157,0.3955397600420013,0.35866325674790994,-0.11789173046924595,-0.07103440018542502,1.054663935924831,0.3237498085164187,-0.3924219688490988,-2.1530392427947955,0.8645910238393231,2.4659299157857895,0.5444864498695593,1.0544104758940245,0.3238615046091247,-0.39250456234122666,-2.153291787532338,0.8647539153680389,2.46587817577521,0.5445020185570556,-0.0005993706365854907,-0.00022154204508711744,0.0003981854596496986,-0.000748189376746012,-0.00036866018092690034,0.00021780045891630625,-0.0007390835192669895,0.0,0.0,0.0,0.0,0.0,0.0,0.0,-0.00025346003080661816,0.000111696092706004,-8.259349212785816e-05,-0.0002525447375423262,0.00016289152871584722,-5.174001057950406e-05,1.5568687496303468e-05,0.0005993706365854907,0.00022154204508711744,-0.0003981854596496986,0.000748189376746012,0.00036866018092690034,-0.00021780045891630625,0.0007390835192669895,0.6053096652030945,34.06295394897461,4.025173664093018,-19.459871292114258,-0.4214377999305725,-1.783755898475647,0.05710165575146675,0
63,0.310009241104126,-0.6568843722343445,-34.06295394897461,-4.025173664093018,19.436067581176758,0.3976340889930725,1.790164589881897,-0.08365194499492645,0.0,0.0,0.0,0.0,0.0,0.0,0.0,-0.6473654004912216,-0.004618607048265291,-0.4581614169987543,0.3945570966153624,0.3591852551972736,-0.11734389690681239,-0.07077898151307234,1.0546675552025175,0.3237498085164187,-0.3924198429980878,-2.153037499438239,0.864593670149636,2.4659292037089666,0.5444862210052517,1.0544104758940245,0.3238615046091247,-0.39250456234122666,-2.153291787532338,0.8647539153680389,2.46587817577521,0.5445020185570556,0.0005950836877051887,-0.0004623215786743683,-0.00024384042677947124,0.00016685498650602075,0.0006563557546118316,8.008898146537976e-06,0.00036095312444554497,0.0,0.0,0.0,0.0,0.0,0.0,0.0,-0.0002570793084930578,0.000111696092706004,-8.471934313886154e-05,-0.00025428809409877573,0.00016024521840296568,-5.102793375666437e-05,1.579755180391995e-05,-0.0005950836877051887,0.0004623215786743683,0.00024384042677947124,-0.00016685498650602075,-0.0006563557546118316,-8.008898146537976e-06,-0.00036095312444554497,0.6568843722343445,34.06295394897461,4.025173664093018,-19.436067581176758,-0.3976340889930725,-1.790164589881897,0.08365194499492645,0
64,0.3149576187133789,-0.6568843722343445,-34.06295394897461,-4.025173664093018,19.436067581176758,0.3976340889930725,1.790164589881897,-0.08365194499492645,0.0,0.0,0.0,0.0,0.0,0.0,0.0,-0.6473654004912216,-0.004618607048265291,-0.4581614169987543,0.3945570966153624,0.3591852551972736,-0.11734389690681239,-0.07077898151307234,1.0546675552025175,0.3237498085164187,-0.3924198429980878,-2.153037499438239,0.864593670149636,2.4659292037089666,0.5444862210052517,1.0544104758940245,0.3238615046091247,-0.39250456234122666,-2.153291787532338,0.8647539153680389,2.46587817577521,0.5445020185570556,0.0005950836877051887,-0.0004623215786743683,-0.00024384042677947124,0.00016685498650602075,0.0006563557546118316,8.008898146537976e-06,0.00036095312444554497,0.0,0.0,0.0,0.0,0.0,0.0,0.0,-0.0002570793084930578,0.000111696092706004,-8.471934313886154e-05,-0.00025428809409877573,0.00016024521840296568,-5.102793375666437e-05,1.579755180391995e-05,-0.0005950836877051887,0.0004623215786743683,0.00024384042677947124,-0.00016685498650602075,-0.0006563557546118316,-8.008898146537976e-06,-0.00036095312444554497,0.6568843722343445,34.06295394897461,4.025173664093018,-19.436067581176758,-0.3976340889930725,-1.790164589881897,0.08365194499492645,0
65,0.3200092315673828,-0.6806880831718445,-34.09072494506836,-4.048977375030518,19.459871292114258,0.4214377999305725,1.790164589881897,-0.04336874559521675,0.0,0.0,0.0,0.0,0.0,0.0,0.0,-0.6431006108814196,-0.009095752868381386,-0.45869614663786695,0.39498170218821516,0.3591783369970247,-0.11783195778206286,-0.07223182256693961,1.054669225638373,0.32375175735824985,-0.39241817283825015,-2.153040149372706,0.8645910252928732,2.4659292037089666,0.5444817450762622,1.0544104758940245,0.3238615046091247,-0.39250456234122666,-2.153291787532338,0.8647539153680389,2.46587817577521,0.5445020185570556,0.00037300068558947415,-0.0001364921320132106,0.0008133984673274299,-0.0007786756865505797,-0.00030972791809045976,-0.00018297104234948805,-0.000927575254391494,0.0,0.0,0.0,0.0,0.0,0.0,0.0,-0.0002587497443484743,0.0001097472508748698,-8.638950297651382e-05,-0.00025163815963180625,0.0001628900751656781,-5.102793375666437e-05,2.0273480793364662e-05,-0.00037300068558947415,0.0001364921320132106,-0.0008133984673274299,0.0007786756865505797,0.00030972791809045976,0.00018297104234948805,0.000927575254391494,0.6806880831718445,34.09072494506836,4.048977375030518,-19.459871292114258,-0.4214377999305725,-1.790164589881897,0.04336874559521675,0
66,0.32500171661376953,-0.6806880831718445,-34.09072494506836,-4.048977375030518,19.459871292114258,0.4214377999305725,1.790164589881897,-0.04336874559521675,0.0,0.0,0.0,0.0,0.0,0.0,0.0,-0.6431006108814196,-0.009095752868381386,-0.45869614663786695,0.39498170218821516,0.3591783369970247,-0.11783195778206286,-0.07223182256693961,1.054669225638373,0.32375175735824985,-0.39241817283825015,-2.153040149372706,0.8645910252928732,2.4659292037089666,0.5444817450762622,1.0544104758940245,0.3238615046091247,-0.39250456234122666,-2.153291787532338,0.8647539153680389,2.46587817577521,0.5445020185570556,0.00037300068558947415,-0.0001364921320132106,0.0008133984673274299,-0.0007786756865505797,-0.00030972791809045976,-0.00018297104234948805,-0.000927575254391494,0.0,0.0,0.0,0.0,0.0,0.0,0.0,-0.0002587497443484743,0.0001097472508748698,-8.638950297651382e-05,-0.00025163815963180625,0.0001628900751656781,-5.102793375666437e-05,2.0273480793364662e-05,-0.00037300068558947415,0.0001364921320132106,-0.0008133984673274299,0.0007786756865505797,0.00030972791809045976,0.00018297104234948805,0.000927575254391494,0.6806880831718445,34.09072494506836,4.048977375030518,-19.459871292114258,-0.4214377999305725,-1.790164589881897,0.04336874559521675,0
67,0.33001089096069336,-0.6291133761405945,-34.09072494506836,-4.048977375030518,19.436067581176758,0.4095359444618225,1.790164589881897,-0.06991903483867645,0.0,0.0,0.0,0.0,0.0,0.0,0.0,-0.6479890532169033,-0.005697842545568862,-0.4601308022261813,0.3928515295310578,0.3595333555989854,-0.11772181890591413,-0.07258211789052993,1.0546656063606865,0.32375175735824985,-0.3924181987599126,-2.1530374899914917,0.8645923477212587,2.4659292037089666,0.5444846951084005,1.0544104758940245,0.3238615046091247,-0.39250456234122666,-2.153291787532338,0.8647539153680389,2.46587817577521,0.5445020185570556,-0.0006754281516292058,0.0003744892824101495,0.0005069203319460939,7.465437924209052e-05,-7.387348907527137e-05,5.2834686196230015e-05,-0.00016392501247204896,0.0,0.0,0.0,0.0,0.0,0.0,0.0,-0.00025513046666203465,0.0001097472508748698,-8.636358131408617e-05,-0.0002542975408461601,0.00016156764678021407,-5.102793375666437e-05,1.7323448655126583e-05,0.0006754281516292058,-0.0003744892824101495,-0.0005069203319460939,-7.465437924209052e-05,7.387348907527137e-05,-5.2834686196230015e-05,0.00016392501247204896,0.6291133761405945,34.09072494506836,4.048977375030518,-19.436067581176758,-0.4095359444618225,-1.790164589881897,0.06991903483867645,0
68,0.33499646186828613,-0.6291133761405945,-34.09072494506836,-4.048977375030518,19.436067581176758,0.4095359444618225,1.790164589881897,-0.06991903483867645,0.0,0.0,0.0,0.0,0.0,0.0,0.0,-0.6479890532169033,-0.005697842545568862,-0.4601308022261813,0.3928515295310578,0.3595333555989854,-0.11772181890591413,-0.07258211789052993,1.0546656063606865,0.32375175735824985,-0.3924181987599126,-2.1530374899914917,0.8645923477212587,2.4659292037089666,0.5444846951084005,1.0544104758940245,0.3238615046091247,-0.39250456234122666,-2.153291787532338,0.8647539153680389,2.46587817577521,0.5445020185570556,-0.0006754281516292058,0.0003744892824101495,0.0005069203319460939,7.465437924209052e-05,-7.387348907527137e-05,5.2834686196230015e-05,-0.00016392501247204896,0.0,0.0,0.0,0.0,0.0,0.0,0.0,-0.00025513046666203465,0.0001097472508748698,-8.636358131408617e-05,-0.0002542975408461601,0.00016156764678021407,-5.102793375666437e-05,1.7323448655126583e-05,0.0006754281516292058,-0.0003744892824101495,-0.0005069203319460939,-7.465437924209052e-05,7.387348907527137e-05,-5.2834686196230015e-05,0.00016392501247204896,0.6291133761405945,34.09072494506836,4.048977375030518,-19.436067581176758,-0.4095359444618225,-1.790164589881897,0.06991903483867645,0
69,0.3400108814239502,-0.7084590792655945,-34.06295394897461,-4.025173664093018,19.436067581176758,0.4095359444618225,1.783755898475647,-0.02963583543896675,0.0,0.0,0.0,0.0,0.0,0.0,0.0,-0.6482047887550425,-0.00527978870325756,-0.4611152915667621,0.3930778702324187,0.35911445171266193,-0.116563112478691,-0.07244449349349749,1.054671174480204,0.3237498085164187,-0.3924198517106575,-2.1530374991027994,0.8645923477212587,2.4659299157857895,0.544480219197356,1.0544104758940245,0.3238615046091247,-0.39250456234122666,-2.153291787532338,0.8647539153680389,2.46587817577521,0.5445020185570556,0.0010542681725207272,-0.00012420498941102985,-0.00020252534610059206,-0.0003679525212586017,0.00022496104957891715,0.00026553424380474814,-0.0015313199270803603,0.0,0.0,0.0,0.0,0.0,0.0,0.0,-0.0002606985861794975,0.000111696092706004,-8.47106305691403e-05,-0.00025428842953845177,0.00016156764678021407,-5.174001057950406e-05,2.1799359699592458e-05,-0.0010542681725207272,0.00012420498941102985,0.00020252534610059206,0.0003679525212586017,-0.00022496104957891715,-0.00026553424380474814,0.0015313199270803603,0.7084590792655945,34.06295394897461,4.025173664093018,-19.436067581176758,-0.4095359444618225,-1.783755898475647,0.02963583543896675,0
70,0.344998836517334,-0.7084590792655945,-34.06295394897461,-4.025173664093018,19.436067581176758,0.4095359444618225,1.783755898475647,-0.02963583543896675,0.0,0.0,0.0,0.0,0.0,0.0,0.0,-0.6482047887550425,-0.00527978870325756,-0.4611152915667621,0.3930778702324187,0.35911445171266193,-0.116563112478691,-0.07244449349349749,1.054671174480204,0.3237498085164187,-0.3924198517106575,-2.1530374991027994,0.8645923477212587,2.4659299157857895,0.544480219197356,1.0544104758940245,0.3238615046091247,-0.39250456234122666,-2.153291787532338,0.8647539153680389,2.46587817577521,0.5445020185570556,0.0010542681725207272,-0.00012420498941102985,-0.00020252534610059206,-0.0003679525212586017,0.00022496104957891715,0.00026553424380474814,-0.0015313199270803603,0.0,0.0,0.0,0.0,0.0,0.0,0.0,-0.0002606985861794975,0.000111696092706004,-8.47106305691403e-05,-0.00025428842953845177,0.00016156764678021407,-5.174001057950406e-05,2.1799359699592458e-05,-0.0010542681725207272,0.00012420498941102985,0.00020252534610059206,0.0003679525212586017,-0.00022496104957891715,-0.00026553424380474814,0.0015313199270803603,0.7084590792655945,34.06295394897461,4.025173664093018,-19.436067581176758,-0.4095359444618225,-1.783755898475647,0.02963583543896675,0
71,0.3500030040740967,-0.6291133761405945,-34.11452865600586,-4.048977375030518,19.412263870239258,0.4095359444618225,1.783755898475647,-0.06351034343242645,0.0,0.0,0.0,0.0,0.0,0.0,0.0,-0.6433503282517085,-0.010020292083539486,-0.4568783239046596,0.3970442586598496,0.35947468403545774,-0.11626757509293346,-0.07192120637687076,1.0546656063606865,0.32375342779410515,-0.39242029844927817,-2.153035820522927,0.864591994508549,2.4659299157857895,0.5444839830315775,1.0544104758940245,0.3238615046091247,-0.39250456234122666,-2.153291787532338,0.8647539153680389,2.46587817577521,0.5445020185570556,-0.0006682102227255701,0.001078203475047199,0.0007597615266093733,7.120222724786855e-05,0.00016485747070145202,2.7654298296163395e-05,-0.00017065820998665615,0.0,0.0,0.0,0.0,0.0,0.0,0.0,-0.00025513046666203465,0.00010807681501956434,-8.426389194848838e-05,-0.00025596700941088457,0.00016192085948996127,-5.174001057950406e-05,1.8035525478077297e-05,0.0006682102227255701,-0.001078203475047199,-0.0007597615266093733,-7.120222724786855e-05,-0.00016485747070145202,-2.7654298296163395e-05,0.00017065820998665615,0.6291133761405945,34.11452865600586,4.048977375030518,-19.412263870239258,-0.4095359444618225,-1.783755898475647,0.06351034343242645,0
72,0.3550903797149658,-0.6291133761405945,-34.11452865600586,-4.048977375030518,19.412263870239258,0.4095359444618225,1.783755898475647,-0.06351034343242645,0.0,0.0,0.0,0.0,0.0,0.0,0.0,-0.6433503282517085,-0.010020292083539486,-0.4568783239046596,0.3970442586598496,0.35947468403545774,-0.11626757509293346,-0.07192120637687076,1.0546656063606865,0.32375342779410515,-0.39242029844927817,-2.153035820522927,0.864591994508549,2.4659299157857895,0.5444839830315775,1.0544104758940245,0.3238615046091247,-0.39250456234122666,-2.153291787532338,0.8647539153680389,2.46587817577521,0.5445020185570556,-0.0006682102227255701,0.001078203475047199,0.0007597615266093733,7.120222724786855e-05,0.00016485747070145202,2.7654298296163395e-05,-0.00017065820998665615,0.0,0.0,0.0,0.0,0.0,0.0,0.0,-0.00025513046666203465,0.00010807681501956434,-8.426389194848838e-05,-0.00025596700941088457,0.00016192085948996127,-5.174001057950406e-05,1.8035525478077297e-05,0.0006682102227255701,-0.001078203475047199,-0.0007597615266093733,-7.120222724786855e-05,-0.00016485747070145202,-2.7654298296163395e-05,0.00017065820998665615,0.6291133761405945,34.11452865600586,4.048977375030518,-19.412263870239258,-0.4095359444618225,-1.783755898475647,0.06351034343242645,0
73,0.3599989414215088,-0.7084590792655945,-34.09072494506836,-3.9735991954803467,19.436067581176758,0.4214377999305725,1.777347207069397,-0.02963583543896675,0.0,0.0,0.0,0.0,0.0,0.0,0.0,-0.6494878098328413,-0.010758934211474416,-0.4613108211813517,0.3991194291147929,0.3599265321911872,-0.11603171771731895,-0.07115432734727556,1.054671174480204,0.32375175735824985,-0.3924234884687076,-2.1530374943503534,0.8645910252908794,2.4659306278626123,0.5444812788354852,1.0544104758940245,0.3238615046091247,-0.39250456234122666,-2.153291787532338,0.8647539153680389,2.46587817577521,0.5445020185570556,0.0014528771700729746,0.0003120721250723811,-0.0006750872065472392,0.00017441376834461265,-0.00025042006584311157,0.0005083608613055949,-0.0015122438941422517,0.0,0.0,0.0,0.0,0.0,0.0,0.0,-0.0002606985861794975,0.0001097472508748698,-8.107387251904408e-05,-0.00025429318198444406,0.00016289007715952764,-5.245208740234375e-05,2.0739721570350866e-05,-0.0014528771700729746,-0.0003120721250723811,0.0006750872065472392,-0.00017441376834461265,0.00025042006584311157,-0.0005083608613055949,0.0015122438941422517,0.7084590792655945,34.09072494506836,3.9735991954803467,-19.436067581176758,-0.4214377999305725,-1.777347207069397,0.02963583543896675,0
74,0.36501073837280273,-0.7084590792655945,-34.09072494506836,-3.9735991954803467,19.436067581176758,0.4214377999305725,1.777347207069397,-0.02963583543896675,0.0,0.0,0.0,0.0,0.0,0.0,0.0,-0.6494878098328413,-0.010758934211474416,-0.4613108211813517,0.3991194291147929,0.3599265321911872,-0.11603171771731895,-0.07115432734727556,1.054671174480204,0.32375175735824985,-0.3924234884687076,-2.1530374943503534,0.8645910252908794,2.4659306278626123,0.5444812788354852,1.0544104758940245,0.3238615046091247,-0.39250456234122666,-2.153291787532338,0.8647539153680389,2.46587817577521,0.5445020185570556,0.0014528771700729746,0.0003120721250723811,-0.0006750872065472392,0.00017441376834461265,-0.00025042006584311157,0.0005083608613055949,-0.0015122438941422517,0.0,0.0,0.0,0.0,0.0,0.0,0.0,-0.0002606985861794975,0.0001097472508748698,-8.107387251904408e-05,-0.00025429318198444406,0.00016289007715952764,-5.245208740234375e-05,2.0739721570350866e-05,-0.0014528771700729746,-0.0003120721250723811,0.0006750872065472392,-0.00017441376834461265,0.00025042006584311157,-0.0005083608613055949,0.0015122438941422517,0.7084590792655945,34.09072494506836,3.9735991954803467,-19.436067581176758,-0.4214377999305725,-1.777347207069397,0.02963583543896675,0
75,0.3699991703033447,-0.6806880831718445,-34.09072494506836,-4.025173664093018,19.412263870239258,0.4214377999305725,1.783755898475647,-0.07724325358867645,0.0,0.0,0.0,0.0,0.0,0.0,0.0,-0.6530557484716779,0.00599509376528866,-0.4612546108881249,0.38934069188413,0.35979187447871464,-0.11700691487637299,-0.06940638396794985,1.054669225638373,0.32375175735824985,-0.3924198520227103,-2.1530358195179597,0.8645910252928732,2.4659299157857895,0.5444855089124776,1.0544104758940245,0.3238615046091247,-0.39250456234122666,-2.153291787532338,0.8647539153680389,2.46587817577521,0.5445020185570556,0.0008756408890983829,0.0009654327777673549,0.0001417332724820103,0.0003090340501896731,-0.0003021526347970378,0.00020019175678209381,0.000325385960252693,0.0,0.0,0.0,0.0,0.0,0.0,0.0,-0.0002587497443484743,0.0001097472508748698,-8.471031851636779e-05,-0.0002559680143781051,0.0001628900751656781,-5.174001057950406e-05,1.650964457799997e-05,-0.0008756408890983829,-0.0009654327777673549,-0.0001417332724820103,-0.0003090340501896731,0.0003021526347970378,-0.00020019175678209381,-0.000325385960252693,0.6806880831718445,34.09072494506836,4.025173664093018,-19.412263870239258,-0.4214377999305725,-1.783755898475647,0.07724325358867645,0
76,0.3749582767486572,-0.6806880831718445,-34.09072494506836,-4.025173664093018,19.412263870239258,0.4214377999305725,1.783755898475647,-0.07724325358867645,0.0,0.0,0.0,0.0,0.0,0.0,0.0,-0.6530557484716779,0.00599509376528866,-0.4612546108881249,0.38934069188413,0.35979187447871464,-0.11700691487637299,-0.06940638396794985,1.054669225638373,0.32375175735824985,-0.3924198520227103,-2.1530358195179597,0.8645910252928732,2.4659299157857895,0.5444855089124776,1.0544104758940245,0.3238615046091247,-0.39250456234122666,-2.153291787532338,0.8647539153680389,2.46587817577521,0.5445020185570556,0.0008756408890983829,0.0009654327777673549,0.0001417332724820103,0.0003090340501896731,-0.0003021526347970378,0.00020019175678209381,0.000325385960252693,0.0,0.0,0.0,0.0,0.0,0.0,0.0,-0.0002587497443484743,0.0001097472508748698,-8.471031851636779e-05,-0.0002559680143781051,0.0001628900751656781,-5.174001057950406e-05,1.650964457799997e-05,-0.0008756408890983829,-0.0009654327777673549,-0.0001417332724820103,-0.0003090340501896731,0.0003021526347970378,-0.00020019175678209381,-0.000325385960252693,0.6806880831718445,34.09072494506836,4.025173664093018,-19.412263870239258,-0.4214377999305725,-1.783755898475647,0.07724325358867645,0
77,0.37999486923217773,-0.7084590792655945,-34.09072494506836,-4.025173664093018,19.436067581176758,0.4150291085243225,1.796573281288147,-0.09738485515117645,0.0,0.0,0.0,0.0,0.0,0.0,0.0,-0.6506928202463944,-0.006492639668902261,-0.4611916134311186,0.39631774380787765,0.35952293480607034,-0.1160740187935396,-0.06917035263562767,1.054671174480204,0.32375175735824985,-0.3924198779443581,-2.153037526570712,0.8645917373696962,2.465928491632144,0.5444909257806009,1.0544104758940245,0.3238615046091247,-0.39250456234122666,-2.153291787532338,0.8647539153680389,2.46587817577521,0.5445020185570556,0.0015413098066155743,0.00029892158549682296,0.00012732475378214188,-0.00023642150991839647,-0.0001336290795904541,-0.000232114162783509,0.0013916244167973672,0.0,0.0,0.0,0.0,0.0,0.0,0.0,-0.0002606985861794975,0.0001097472508748698,-8.468439686853957e-05,-0.0002542609616260627,0.0001621779983427274,-5.0315856933824676e-05,1.1092776454724174e-05,-0.0015413098066155743,-0.00029892158549682296,-0.00012732475378214188,0.00023642150991839647,0.0001336290795904541,0.000232114162783509,-0.0013916244167973672,0.7084590792655945,34.09072494506836,4.025173664093018,-19.436067581176758,-0.4150291085243225,-1.796573281288147,0.09738485515117645,0
78,0.385023832321167,-0.7084590792655945,-34.09072494506836,-4.025173664093018,19.436067581176758,0.4150291085243225,1.796573281288147,-0.09738485515117645,0.0,0.0,0.0,0.0,0.0,0.0,0.0,-0.6506928202463944,-0.006492639668902261,-0.4611916134311186,0.39631774380787765,0.35952293480607034,-0.1160740187935396,-0.06917035263562767,1.054671174480204,0.32375175735824985,-0.3924198779443581,-2.153037526570712,0.8645917373696962,2.465928491632144,0.5444909257806009,1.0544104758940245,0.3238615046091247,-0.39250456234122666,-2.153291787532338,0.8647539153680389,2.46587817577521,0.5445020185570556,0.0015413098066155743,0.00029892158549682296,0.00012732475378214188,-0.00023642150991839647,-0.0001336290795904541,-0.000232114162783509,0.0013916244167973672,0.0,0.0,0.0,0.0,0.0,0.0,0.0,-0.0002606985861794975,0.0001097472508748698,-8.468439686853957e-05,-0.0002542609616260627,0.0001621779983427274,-5.0315856933824676e-05,1.1092776454724174e-05,-0.0015413098066155743,-0.00029892158549682296,-0.00012732475378214188,0.00023642150991839647,0.0001336290795904541,0.000232114162783509,-0.0013916244167973672,0.7084590792655945,34.09072494506836,4.025173664093018,-19.436067581176758,-0.4150291085243225,-1.796573281288147,0.09738485515117645,0
79,0.3900291919708252,-0.6053096652030945,-34.09072494506836,-3.9974029064178467,19.412263870239258,0.4150291085243225,1.783755898475647,-0.06991903483867645,0.0,0.0,0.0,0.0,0.0,0.0,0.0,-0.6453033724771713,-0.011233669455091324,-0.4578956897582114,0.3999655605559561,0.3590727154366908,-0.1156557099687887,-0.06948607331459454,1.054663935924831,0.32375175735824985,-0.3924220280943888,-2.153036561365341,0.8645917507786972,2.4659299157857895,0.5444846951263455,1.0544104758940245,0.3238615046091247,-0.39250456234122666,-2.153291787532338,0.8647539153680389,2.46587817577521,0.5445020185570556,-0.0009544667701306372,-0.00018080599066678022,-0.0007164845987997927,0.0006212304250278133,-0.00011638985750123956,0.00024409762843255768,0.00010511154265957649,0.0,0.0,0.0,0.0,0.0,0.0,0.0,-0.00025346003080661816,0.0001097472508748698,-8.253424683785093e-05,-0.00025522616699680256,0.00016216458934170674,-5.174001057950406e-05,1.7323430710147747e-05,0.0009544667701306372,0.00018080599066678022,0.0007164845987997927,-0.0006212304250278133,0.00011638985750123956,-0.00024409762843255768,-0.00010511154265957649,0.6053096652030945,34.09072494506836,3.9974029064178467,-19.412263870239258,-0.4150291085243225,-1.783755898475647,0.06991903483867645,0
80,0.3950469493865967,-0.6053096652030945,-34.09072494506836,-3.9974029064178467,19.412263870239258,0.4150291085243225,1.783755898475647,-0.06991903483867645,0.0,0.0,0.0,0.0,0.0,0.0,0.0,-0.6453033724771713,-0.011233669455091324,-0.4578956897582114,0.3999655605559561,0.3590727154366908,-0.1156557099687887,-0.06948607331459454,1.054663935924831,0.32375175735824985,-0.3924220280943888,-2.153036561365341,0.8645917507786972,2.4659299157857895,0.5444846951263455,1.0544104758940245,0.3238615046091247,-0.39250456234122666,-2.153291787532338,0.8647539153680389,2.46587817577521,0.5445020185570556,-0.0009544667701306372,-0.00018080599066678022,-0.0007164845987997927,0.0006212304250278133,-0.00011638985750123956,0.00024409762843255768,0.00010511154265957649,0.0,0.0,0.0,0.0,0.0,0.0,0.0,-0.00025346003080661816,0.0001097472508748698,-8.253424683785093e-05,-0.00025522616699680256,0.00016216458934170674,-5.174001057950406e-05,1.7323430710147747e-05,0.0009544667701306372,0.00018080599066678022,0.0007164845987997927,-0.0006212304250278133,0.00011638985750123956,-0.00024409762843255768,-0.00010511154265957649,0.6053096652030945,34.09072494506836,3.9974029064178467,-19.412263870239258,-0.4150291085243225,-1.783755898475647,0.06991903483867645,0
