rezayati/contactInterpretation/dataset/franka_main/labeled_data/link5/c9_5.csv
index,time,tau_J0,tau_J1,tau_J2,tau_J3,tau_J4,tau_J5,tau_J6,tau_J_d0,tau_J_d1,tau_J_d2,tau_J_d3,tau_J_d4,tau_J_d5,tau_J_d6,tau_ext0,tau_ext1,tau_ext2,tau_ext3,tau_ext4,tau_ext5,tau_ext6,q0,q1,q2,q3,q4,q5,q6,q_d0,q_d1,q_d2,q_d3,q_d4,q_d5,q_d6,dq0,dq1,dq2,dq3,dq4,dq5,dq6,dq_d0,dq_d1,dq_d2,dq_d3,dq_d4,dq_d5,dq_d6,e0,e1,e2,e3,e4,e5,e6,de0,de1,de2,de3,de4,de5,de6,etau_J0,etau_J1,etau_J2,etau_J3,etau_J4,etau_J5,etau_J6,label
1,0.0,-0.8354122042655945,-46.44881820678711,-5.735073566436768,19.559053421020508,0.7730002999305725,2.3916659355163574,-0.16604940593242645,0.0,0.0,0.0,0.0,0.0,0.0,0.0,-0.8410971985096619,-0.1007382970146038,-0.5220170731565006,0.35383923942309364,0.1842998495117948,0.1137520518076596,-0.19035570032431404,0.8781285040462815,0.7551466491365411,-0.2825115513676091,-1.6689312351963477,0.14140932182539767,2.403568602297041,1.027344556959139,0.878092876070424,0.7554597494309409,-0.2825552651693207,-1.6690993614607135,0.1414185955172306,2.4034451173676383,1.0273381002308042,-4.331459354894041e-05,0.0007535939228424817,0.0007279710981088168,-9.58676771273613e-05,-0.00016845332712923374,-0.0004240495781399369,-0.0013505653377132237,0.0,0.0,0.0,0.0,0.0,0.0,0.0,-3.562797585754396e-05,0.0003131002943997929,-4.37138017116423e-05,-0.0001681262643657977,9.273691832928366e-06,-0.00012348492940272848,-6.456728334880424e-06,4.331459354894041e-05,-0.0007535939228424817,-0.0007279710981088168,9.58676771273613e-05,0.00016845332712923374,0.0004240495781399369,0.0013505653377132237,0.8354122042655945,46.44881820678711,5.735073566436768,-19.559053421020508,-0.7730002999305725,-2.3916659355163574,0.16604940593242645,0
2,0.0049974918365478516,-0.8592159152030945,-46.44881820678711,-5.687466144561768,19.559053421020508,0.7730002999305725,2.3788485527038574,-0.21457235515117645,0.0,0.0,0.0,0.0,0.0,0.0,0.0,-0.8384915040660755,-0.09116179315907338,-0.5213558795805785,0.3488640918154608,0.18428128941395913,0.11322385195652984,-0.19067662367574606,0.8781304161484407,0.7551466492435369,-0.2825148922393196,-1.6689312351962977,0.1414047191355584,2.4035689138306515,1.0273499483979411,0.878092876070424,0.7554597494309409,-0.2825552651693207,-1.6690993614607135,0.1414185955172306,2.4034451173676383,1.0273381002308042,0.00010451214539856881,0.0005062019340875895,4.5948548526874795e-05,-0.0001318200794500196,-4.251637779466209e-05,0.0002359745188707211,0.0010807983998708396,0.0,0.0,0.0,0.0,0.0,0.0,0.0,-3.754007801670678e-05,0.0003131001874039363,-4.037293000114239e-05,-0.00016812626441575773,1.3876381672189853e-05,-0.0001237964630131927,-1.1848167136951915e-05,-0.00010451214539856881,-0.0005062019340875895,-4.5948548526874795e-05,0.0001318200794500196,4.251637779466209e-05,-0.0002359745188707211,-0.0010807983998708396,0.8592159152030945,46.44881820678711,5.687466144561768,-19.559053421020508,-0.7730002999305725,-2.3788485527038574,0.21457235515117645,0
3,0.009997844696044922,-0.8592159152030945,-46.44881820678711,-5.687466144561768,19.559053421020508,0.7730002999305725,2.3788485527038574,-0.21457235515117645,0.0,0.0,0.0,0.0,0.0,0.0,0.0,-0.8384915040660755,-0.09116179315907338,-0.5213558795805785,0.3488640918154608,0.18428128941395913,0.11322385195652984,-0.19067662367574606,0.8781304161484407,0.7551466492435369,-0.2825148922393196,-1.6689312351962977,0.1414047191355584,2.4035689138306515,1.0273499483979411,0.878092876070424,0.7554597494309409,-0.2825552651693207,-1.6690993614607135,0.1414185955172306,2.4034451173676383,1.0273381002308042,0.00010451214539856881,0.0005062019340875895,4.5948548526874795e-05,-0.0001318200794500196,-4.251637779466209e-05,0.0002359745188707211,0.0010807983998708396,0.0,0.0,0.0,0.0,0.0,0.0,0.0,-3.754007801670678e-05,0.0003131001874039363,-4.037293000114239e-05,-0.00016812626441575773,1.3876381672189853e-05,-0.0001237964630131927,-1.1848167136951915e-05,-0.00010451214539856881,-0.0005062019340875895,-4.5948548526874795e-05,0.0001318200794500196,4.251637779466209e-05,-0.0002359745188707211,-0.0010807983998708396,0.8592159152030945,46.44881820678711,5.687466144561768,-19.559053421020508,-0.7730002999305725,-2.3788485527038574,0.21457235515117645,0
4,0.014995098114013672,-0.8076412081718445,-46.40121078491211,-5.711269855499268,19.559053421020508,0.7784934639930725,2.3852572441101074,-0.20724813640117645,0.0,0.0,0.0,0.0,0.0,0.0,0.0,-0.8258430275975757,-0.08843855001126254,-0.5107600667802747,0.34783442866870035,0.18416564376190508,0.11325024423972097,-0.190535850434643,0.8781265657564004,0.7551433083718282,-0.2825132188600251,-1.668931238139737,0.14140762125637732,2.4035693143731662,1.0273491345958576,0.878092876070424,0.7554597494309409,-0.2825552651693207,-1.6690993614607135,0.1414185955172306,2.4034451173676383,1.0273381002308042,-0.0005052837123116403,-0.0004321314567783096,0.00036876184789698423,-0.00011269503877727918,-0.00038039216903243585,-0.00014057999897935692,0.0002876602102123455,0.0,0.0,0.0,0.0,0.0,0.0,0.0,-3.3689685976390216e-05,0.00031644105911265985,-4.204630929560693e-05,-0.00016812332097648763,1.0974260853280349e-05,-0.00012419700552790403,-1.1034365053452788e-05,0.0005052837123116403,0.0004321314567783096,-0.00036876184789698423,0.00011269503877727918,0.00038039216903243585,0.00014057999897935692,-0.0002876602102123455,0.8076412081718445,46.40121078491211,5.711269855499268,-19.559053421020508,-0.7784934639930725,-2.3852572441101074,0.20724813640117645,0
5,0.020020008087158203,-0.8076412081718445,-46.40121078491211,-5.711269855499268,19.559053421020508,0.7784934639930725,2.3852572441101074,-0.20724813640117645,0.0,0.0,0.0,0.0,0.0,0.0,0.0,-0.8258430275975757,-0.08843855001126254,-0.5107600667802747,0.34783442866870035,0.18416564376190508,0.11325024423972097,-0.190535850434643,0.8781265657564004,0.7551433083718282,-0.2825132188600251,-1.668931238139737,0.14140762125637732,2.4035693143731662,1.0273491345958576,0.878092876070424,0.7554597494309409,-0.2825552651693207,-1.6690993614607135,0.1414185955172306,2.4034451173676383,1.0273381002308042,-0.0005052837123116403,-0.0004321314567783096,0.00036876184789698423,-0.00011269503877727918,-0.00038039216903243585,-0.00014057999897935692,0.0002876602102123455,0.0,0.0,0.0,0.0,0.0,0.0,0.0,-3.3689685976390216e-05,0.00031644105911265985,-4.204630929560693e-05,-0.00016812332097648763,1.0974260853280349e-05,-0.00012419700552790403,-1.1034365053452788e-05,0.0005052837123116403,0.0004321314567783096,-0.00036876184789698423,0.00011269503877727918,0.00038039216903243585,0.00014057999897935692,-0.0002876602102123455,0.8076412081718445,46.40121078491211,5.711269855499268,-19.559053421020508,-0.7784934639930725,-2.3852572441101074,0.20724813640117645,0
6,0.025051593780517578,-0.8076412081718445,-46.42501449584961,-5.635891437530518,19.559053421020508,0.7730002999305725,2.3724398612976074,-0.20724813640117645,0.0,0.0,0.0,0.0,0.0,0.0,0.0,-0.827894685080302,-0.09126358079566044,-0.5149436365996466,0.34922623290770516,0.18418666019460483,0.11352093694481162,-0.19052421379916712,0.8781265551992318,0.7551449788076835,-0.2825185115169894,-1.6689313157593366,0.14140577716612907,2.40357073852751,1.0273491360857467,0.878092876070424,0.7554597494309409,-0.2825552651693207,-1.6690993614607135,0.1414185955172306,2.4034451173676383,1.0273381002308042,-0.00019122398200003548,0.0003188657681221312,-0.0012984394537992998,-7.731220995410836e-05,-0.0003818573720624167,0.00026206671151881547,0.0005848519786141848,0.0,0.0,0.0,0.0,0.0,0.0,0.0,-3.3679128807806435e-05,0.0003147706232573544,-3.675365233130057e-05,-0.00016804570137685104,1.2818351101534509e-05,-0.00012562115987169165,-1.1035854942553769e-05,0.00019122398200003548,-0.0003188657681221312,0.0012984394537992998,7.731220995410836e-05,0.0003818573720624167,-0.00026206671151881547,-0.0005848519786141848,0.8076412081718445,46.42501449584961,5.635891437530518,-19.559053421020508,-0.7730002999305725,-2.3724398612976074,0.20724813640117645,0
7,0.030014991760253906,-0.8076412081718445,-46.42501449584961,-5.635891437530518,19.559053421020508,0.7730002999305725,2.3724398612976074,-0.20724813640117645,0.0,0.0,0.0,0.0,0.0,0.0,0.0,-0.827894685080302,-0.09126358079566044,-0.5149436365996466,0.34922623290770516,0.18418666019460483,0.11352093694481162,-0.19052421379916712,0.8781265551992318,0.7551449788076835,-0.2825185115169894,-1.6689313157593366,0.14140577716612907,2.40357073852751,1.0273491360857467,0.878092876070424,0.7554597494309409,-0.2825552651693207,-1.6690993614607135,0.1414185955172306,2.4034451173676383,1.0273381002308042,-0.00019122398200003548,0.0003188657681221312,-0.0012984394537992998,-7.731220995410836e-05,-0.0003818573720624167,0.00026206671151881547,0.0005848519786141848,0.0,0.0,0.0,0.0,0.0,0.0,0.0,-3.3679128807806435e-05,0.0003147706232573544,-3.675365233130057e-05,-0.00016804570137685104,1.2818351101534509e-05,-0.00012562115987169165,-1.1035854942553769e-05,0.00019122398200003548,-0.0003188657681221312,0.0012984394537992998,7.731220995410836e-05,0.0003818573720624167,-0.00026206671151881547,-0.0005848519786141848,0.8076412081718445,46.42501449584961,5.635891437530518,-19.559053421020508,-0.7730002999305725,-2.3724398612976074,0.20724813640117645,0
8,0.03499794006347656,-0.8354122042655945,-46.47658920288086,-5.687466144561768,19.559053421020508,0.7610984444618225,2.3596224784851074,-0.19351522624492645,0.0,0.0,0.0,0.0,0.0,0.0,0.0,-0.8303619504087646,-0.1026661220157308,-0.5191796378408311,0.35380493004666147,0.18392668821158695,0.11443295086988377,-0.19035269097290786,0.8781285059312915,0.7551485977643775,-0.2825148922393196,-1.6689312351967525,0.14140717885769327,2.4035721626811557,1.02734760871696,0.878092876070424,0.7554597494309409,-0.2825552651693207,-1.6690993614607135,0.1414185955172306,2.4034451173676383,1.0273381002308042,0.00015303130832606363,0.0008912483798869369,-5.024992120950058e-05,0.00019090074724459902,0.0003158659840308327,0.0008286830497040295,-0.00012833470458671704,0.0,0.0,0.0,0.0,0.0,0.0,0.0,-3.562986086758091e-05,0.00031115166656336957,-4.037293000114239e-05,-0.00016812626396101038,1.1416659537327734e-05,-0.00012704531351737103,-9.50848615577371e-06,-0.00015303130832606363,-0.0008912483798869369,5.024992120950058e-05,-0.00019090074724459902,-0.0003158659840308327,-0.0008286830497040295,0.00012833470458671704,0.8354122042655945,46.47658920288086,5.687466144561768,-19.559053421020508,-0.7610984444618225,-2.3596224784851074,0.19351522624492645,0
9,0.039998769760131836,-0.8354122042655945,-46.47658920288086,-5.687466144561768,19.559053421020508,0.7610984444618225,2.3596224784851074,-0.19351522624492645,0.0,0.0,0.0,0.0,0.0,0.0,0.0,-0.8303619504087646,-0.1026661220157308,-0.5191796378408311,0.35380493004666147,0.18392668821158695,0.11443295086988377,-0.19035269097290786,0.8781285059312915,0.7551485977643775,-0.2825148922393196,-1.6689312351967525,0.14140717885769327,2.4035721626811557,1.02734760871696,0.878092876070424,0.7554597494309409,-0.2825552651693207,-1.6690993614607135,0.1414185955172306,2.4034451173676383,1.0273381002308042,0.00015303130832606363,0.0008912483798869369,-5.024992120950058e-05,0.00019090074724459902,0.0003158659840308327,0.0008286830497040295,-0.00012833470458671704,0.0,0.0,0.0,0.0,0.0,0.0,0.0,-3.562986086758091e-05,0.00031115166656336957,-4.037293000114239e-05,-0.00016812626396101038,1.1416659537327734e-05,-0.00012704531351737103,-9.50848615577371e-06,-0.00015303130832606363,-0.0008912483798869369,5.024992120950058e-05,-0.00019090074724459902,-0.0003158659840308327,-0.0008286830497040295,0.00012833470458671704,0.8354122042655945,46.47658920288086,5.687466144561768,-19.559053421020508,-0.7610984444618225,-2.3596224784851074,0.19351522624492645,0
10,0.04499983787536621,-0.8076412081718445,-46.40121078491211,-5.687466144561768,19.586824417114258,0.7665916085243225,2.3788485527038574,-0.21457235515117645,0.0,0.0,0.0,0.0,0.0,0.0,0.0,-0.8288408366319993,-0.09203891804556469,-0.5149482350376023,0.3491818959533253,0.1834155852833926,0.11306607890742716,-0.19009808127397892,0.8781265667549073,0.7551433083361606,-0.2825148922393196,-1.6689331840381287,0.1414068441940847,2.403570026450687,1.0273499483979411,0.878092876070424,0.7554597494309409,-0.2825552651693207,-1.6690993614607135,0.1414185955172306,2.4034451173676383,1.0273381002308042,-0.00046073358791028817,-0.0003570443536697016,0.00031153135268854784,-0.00011053399919371694,6.807767371421162e-06,9.362821372170252e-05,0.001308105226838481,0.0,0.0,0.0,0.0,0.0,0.0,0.0,-3.369068448333401e-05,0.00031644109478023985,-4.037293000114239e-05,-0.00016617742258473456,1.1751323145903214e-05,-0.00012490908304885195,-1.1848167136951915e-05,0.00046073358791028817,0.0003570443536697016,-0.00031153135268854784,0.00011053399919371694,-6.807767371421162e-06,-9.362821372170252e-05,-0.001308105226838481,0.8076412081718445,46.40121078491211,5.687466144561768,-19.586824417114258,-0.7665916085243225,-2.3788485527038574,0.21457235515117645,0
11,0.04999899864196777,-0.8076412081718445,-46.40121078491211,-5.687466144561768,19.586824417114258,0.7665916085243225,2.3788485527038574,-0.21457235515117645,0.0,0.0,0.0,0.0,0.0,0.0,0.0,-0.8288408366319993,-0.09203891804556469,-0.5149482350376023,0.3491818959533253,0.1834155852833926,0.11306607890742716,-0.19009808127397892,0.8781265667549073,0.7551433083361606,-0.2825148922393196,-1.6689331840381287,0.1414068441940847,2.403570026450687,1.0273499483979411,0.878092876070424,0.7554597494309409,-0.2825552651693207,-1.6690993614607135,0.1414185955172306,2.4034451173676383,1.0273381002308042,-0.00046073358791028817,-0.0003570443536697016,0.00031153135268854784,-0.00011053399919371694,6.807767371421162e-06,9.362821372170252e-05,0.001308105226838481,0.0,0.0,0.0,0.0,0.0,0.0,0.0,-3.369068448333401e-05,0.00031644109478023985,-4.037293000114239e-05,-0.00016617742258473456,1.1751323145903214e-05,-0.00012490908304885195,-1.1848167136951915e-05,0.00046073358791028817,0.0003570443536697016,-0.00031153135268854784,0.00011053399919371694,-6.807767371421162e-06,-9.362821372170252e-05,-0.001308105226838481,0.8076412081718445,46.40121078491211,5.687466144561768,-19.586824417114258,-0.7665916085243225,-2.3788485527038574,0.21457235515117645,0
12,0.054997920989990234,-0.8354122042655945,-46.40121078491211,-5.687466144561768,19.559053421020508,0.7784934639930725,2.3788485527038574,-0.18710653483867645,0.0,0.0,0.0,0.0,0.0,0.0,0.0,-0.8387659353122087,-0.09011558188255708,-0.5218444102108073,0.350534358667122,0.18339182698897913,0.1126510220122856,-0.18919410533746395,0.8781285070013313,0.7551433082648306,-0.2825148922393196,-1.6689312440266155,0.1414045898840799,2.403570026450687,1.0273468966401285,0.878092876070424,0.7554597494309409,-0.2825552651693207,-1.6690993614607135,0.1414185955172306,2.4034451173676383,1.0273381002308042,-0.0002679787086124201,-4.7013887370671726e-05,2.084846703349465e-05,0.0006321044710765533,-0.0003613670571996492,0.00013040806903532074,0.00045205004176958617,0.0,0.0,0.0,0.0,0.0,0.0,0.0,-3.56309309073044e-05,0.0003164411661102928,-4.037293000114239e-05,-0.00016811743409794744,1.4005633150709906e-05,-0.00012490908304885195,-8.796409324274279e-06,0.0002679787086124201,4.7013887370671726e-05,-2.084846703349465e-05,-0.0006321044710765533,0.0003613670571996492,-0.00013040806903532074,-0.00045205004176958617,0.8354122042655945,46.40121078491211,5.687466144561768,-19.559053421020508,-0.7784934639930725,-2.3788485527038574,0.18710653483867645,0
13,0.06078791618347168,-0.8354122042655945,-46.40121078491211,-5.687466144561768,19.559053421020508,0.7784934639930725,2.3788485527038574,-0.18710653483867645,0.0,0.0,0.0,0.0,0.0,0.0,0.0,-0.8387659353122087,-0.09011558188255708,-0.5218444102108073,0.350534358667122,0.18339182698897913,0.1126510220122856,-0.18919410533746395,0.8781285070013313,0.7551433082648306,-0.2825148922393196,-1.6689312440266155,0.1414045898840799,2.403570026450687,1.0273468966401285,0.878092876070424,0.7554597494309409,-0.2825552651693207,-1.6690993614607135,0.1414185955172306,2.4034451173676383,1.0273381002308042,-0.0002679787086124201,-4.7013887370671726e-05,2.084846703349465e-05,0.0006321044710765533,-0.0003613670571996492,0.00013040806903532074,0.00045205004176958617,0.0,0.0,0.0,0.0,0.0,0.0,0.0,-3.56309309073044e-05,0.0003164411661102928,-4.037293000114239e-05,-0.00016811743409794744,1.4005633150709906e-05,-0.00012490908304885195,-8.796409324274279e-06,0.0002679787086124201,4.7013887370671726e-05,-2.084846703349465e-05,-0.0006321044710765533,0.0003613670571996492,-0.00013040806903532074,-0.00045205004176958617,0.8354122042655945,46.40121078491211,5.687466144561768,-19.559053421020508,-0.7784934639930725,-2.3788485527038574,0.18710653483867645,0
14,0.06587076187133789,-0.8354122042655945,-46.40121078491211,-5.687466144561768,19.559053421020508,0.7784934639930725,2.3788485527038574,-0.18710653483867645,0.0,0.0,0.0,0.0,0.0,0.0,0.0,-0.8387659353122087,-0.09011558188255708,-0.5218444102108073,0.350534358667122,0.18339182698897913,0.1126510220122856,-0.18919410533746395,0.8781285070013313,0.7551433082648306,-0.2825148922393196,-1.6689312440266155,0.1414045898840799,2.403570026450687,1.0273468966401285,0.878092876070424,0.7554597494309409,-0.2825552651693207,-1.6690993614607135,0.1414185955172306,2.4034451173676383,1.0273381002308042,-0.0002679787086124201,-4.7013887370671726e-05,2.084846703349465e-05,0.0006321044710765533,-0.0003613670571996492,0.00013040806903532074,0.00045205004176958617,0.0,0.0,0.0,0.0,0.0,0.0,0.0,-3.56309309073044e-05,0.0003164411661102928,-4.037293000114239e-05,-0.00016811743409794744,1.4005633150709906e-05,-0.00012490908304885195,-8.796409324274279e-06,0.0002679787086124201,4.7013887370671726e-05,-2.084846703349465e-05,-0.0006321044710765533,0.0003613670571996492,-0.00013040806903532074,-0.00045205004176958617,0.8354122042655945,46.40121078491211,5.687466144561768,-19.559053421020508,-0.7784934639930725,-2.3788485527038574,0.18710653483867645,0
15,0.07001137733459473,-0.8354122042655945,-46.40121078491211,-5.687466144561768,19.559053421020508,0.7784934639930725,2.3788485527038574,-0.18710653483867645,0.0,0.0,0.0,0.0,0.0,0.0,0.0,-0.8387659353122087,-0.09011558188255708,-0.5218444102108073,0.350534358667122,0.18339182698897913,0.1126510220122856,-0.18919410533746395,0.8781285070013313,0.7551433082648306,-0.2825148922393196,-1.6689312440266155,0.1414045898840799,2.403570026450687,1.0273468966401285,0.878092876070424,0.7554597494309409,-0.2825552651693207,-1.6690993614607135,0.1414185955172306,2.4034451173676383,1.0273381002308042,-0.0002679787086124201,-4.7013887370671726e-05,2.084846703349465e-05,0.0006321044710765533,-0.0003613670571996492,0.00013040806903532074,0.00045205004176958617,0.0,0.0,0.0,0.0,0.0,0.0,0.0,-3.56309309073044e-05,0.0003164411661102928,-4.037293000114239e-05,-0.00016811743409794744,1.4005633150709906e-05,-0.00012490908304885195,-8.796409324274279e-06,0.0002679787086124201,4.7013887370671726e-05,-2.084846703349465e-05,-0.0006321044710765533,0.0003613670571996492,-0.00013040806903532074,-0.00045205004176958617,0.8354122042655945,46.40121078491211,5.687466144561768,-19.559053421020508,-0.7784934639930725,-2.3788485527038574,0.18710653483867645,0
16,0.07500386238098145,-0.8076412081718445,-46.42501449584961,-5.663662433624268,19.559053421020508,0.7730002999305725,2.3660311698913574,-0.18710653483867645,0.0,0.0,0.0,0.0,0.0,0.0,0.0,-0.8212836478400851,-0.09908607584724569,-0.5103367702880124,0.35763272195448914,0.18340757461041032,0.11304043535763267,-0.18839341717818817,0.8781287412283968,0.7551449788076829,-0.28251656267517483,-1.6689312351963475,0.14140467488502187,2.403571450604333,1.0273468966401285,0.878092876070424,0.7554597494309409,-0.2825552651693207,-1.6690993614607135,0.1414185955172306,2.4034451173676383,1.0273381002308042,-0.0005827879840105491,-9.963038836920975e-05,4.68659799309799e-05,0.0001260680447871019,-0.00013159175128517965,0.0004765229896249593,3.510684579092715e-05,0.0,0.0,0.0,0.0,0.0,0.0,0.0,-3.58651579728253e-05,0.0003147706232579095,-3.870249414589244e-05,-0.00016812626436601974,1.392063220873041e-05,-0.00012633323669453134,-8.796409324274279e-06,0.0005827879840105491,9.963038836920975e-05,-4.68659799309799e-05,-0.0001260680447871019,0.00013159175128517965,-0.0004765229896249593,-3.510684579092715e-05,0.8076412081718445,46.42501449584961,5.663662433624268,-19.559053421020508,-0.7730002999305725,-2.3660311698913574,0.18710653483867645,0
17,0.08000683784484863,-0.8076412081718445,-46.42501449584961,-5.663662433624268,19.559053421020508,0.7730002999305725,2.3660311698913574,-0.18710653483867645,0.0,0.0,0.0,0.0,0.0,0.0,0.0,-0.8212836478400851,-0.09908607584724569,-0.5103367702880124,0.35763272195448914,0.18340757461041032,0.11304043535763267,-0.18839341717818817,0.8781287412283968,0.7551449788076829,-0.28251656267517483,-1.6689312351963475,0.14140467488502187,2.403571450604333,1.0273468966401285,0.878092876070424,0.7554597494309409,-0.2825552651693207,-1.6690993614607135,0.1414185955172306,2.4034451173676383,1.0273381002308042,-0.0005827879840105491,-9.963038836920975e-05,4.68659799309799e-05,0.0001260680447871019,-0.00013159175128517965,0.0004765229896249593,3.510684579092715e-05,0.0,0.0,0.0,0.0,0.0,0.0,0.0,-3.58651579728253e-05,0.0003147706232579095,-3.870249414589244e-05,-0.00016812626436601974,1.392063220873041e-05,-0.00012633323669453134,-8.796409324274279e-06,0.0005827879840105491,9.963038836920975e-05,-4.68659799309799e-05,-0.0001260680447871019,0.00013159175128517965,-0.0004765229896249593,-3.510684579092715e-05,0.8076412081718445,46.42501449584961,5.663662433624268,-19.559053421020508,-0.7730002999305725,-2.3660311698913574,0.18710653483867645,0
18,0.08499956130981445,-0.8076412081718445,-46.42501449584961,-5.711269855499268,19.535249710083008,0.7730002999305725,2.3788485527038574,-0.19351522624492645,0.0,0.0,0.0,0.0,0.0,0.0,0.0,-0.8330817697167177,-0.09123112630441632,-0.5140195261083644,0.35138013732408735,0.18389346050683764,0.11177981598116216,-0.18827252064135722,0.8781267885372821,0.7551449787006861,-0.28251322180346433,-1.6689302829596189,0.14140621165764325,2.403570026450687,1.0273476087169515,0.878092876070424,0.7554597494309409,-0.2825552651693207,-1.6690993614607135,0.1414185955172306,2.4034451173676383,1.0273381002308042,-0.0004791415516846208,-1.5918675364088858e-05,0.0005906310379377384,0.0003844933789929562,-0.000179063776109535,-7.836585380631482e-05,0.0003506395564128511,0.0,0.0,0.0,0.0,0.0,0.0,0.0,-3.391246685813254e-05,0.0003147707302547653,-4.2043365856392345e-05,-0.00016907850109459943,1.2383859587350443e-05,-0.00012490908304885195,-9.508486147336015e-06,0.0004791415516846208,1.5918675364088858e-05,-0.0005906310379377384,-0.0003844933789929562,0.000179063776109535,7.836585380631482e-05,-0.0003506395564128511,0.8076412081718445,46.42501449584961,5.711269855499268,-19.535249710083008,-0.7730002999305725,-2.3788485527038574,0.19351522624492645,0
19,0.0899970531463623,-0.8076412081718445,-46.42501449584961,-5.711269855499268,19.535249710083008,0.7730002999305725,2.3788485527038574,-0.19351522624492645,0.0,0.0,0.0,0.0,0.0,0.0,0.0,-0.8330817697167177,-0.09123112630441632,-0.5140195261083644,0.35138013732408735,0.18389346050683764,0.11177981598116216,-0.18827252064135722,0.8781267885372821,0.7551449787006861,-0.28251322180346433,-1.6689302829596189,0.14140621165764325,2.403570026450687,1.0273476087169515,0.878092876070424,0.7554597494309409,-0.2825552651693207,-1.6690993614607135,0.1414185955172306,2.4034451173676383,1.0273381002308042,-0.0004791415516846208,-1.5918675364088858e-05,0.0005906310379377384,0.0003844933789929562,-0.000179063776109535,-7.836585380631482e-05,0.0003506395564128511,0.0,0.0,0.0,0.0,0.0,0.0,0.0,-3.391246685813254e-05,0.0003147707302547653,-4.2043365856392345e-05,-0.00016907850109459943,1.2383859587350443e-05,-0.00012490908304885195,-9.508486147336015e-06,0.0004791415516846208,1.5918675364088858e-05,-0.0005906310379377384,-0.0003844933789929562,0.000179063776109535,7.836585380631482e-05,-0.0003506395564128511,0.8076412081718445,46.42501449584961,5.711269855499268,-19.535249710083008,-0.7730002999305725,-2.3788485527038574,0.19351522624492645,0
20,0.095489501953125,-0.8354122042655945,-46.40121078491211,-5.687466144561768,19.586824417114258,0.7610984444618225,2.3660311698913574,-0.15231649577617645,0.0,0.0,0.0,0.0,0.0,0.0,0.0,-0.8302611949634732,-0.08506265611379651,-0.5140060100616807,0.34723201415799415,0.18396892096908238,0.11168140814825372,-0.1884051061345228,0.8781285291510551,0.7551412023410455,-0.2825148922393196,-1.668933184042183,0.14140599726511335,2.403571450604333,1.0273430310802327,0.878092876070424,0.7554597494309409,-0.2825552651693207,-1.6690993614607135,0.1414185955172306,2.4034451173676383,1.0273381002308042,0.0001228423030568174,0.00019969016552899007,-0.0004052572436742297,-0.0005920656817666374,0.0002993535236614728,0.0005343806495843876,-0.0015797041623163356,0.0,0.0,0.0,0.0,0.0,0.0,0.0,-3.565308063113726e-05,0.00031854708989531577,-4.037293000114239e-05,-0.00016617741853042212,1.25982521172463e-05,-0.00012633323669453134,-4.930849428541606e-06,-0.0001228423030568174,-0.00019969016552899007,0.0004052572436742297,0.0005920656817666374,-0.0002993535236614728,-0.0005343806495843876,0.0015797041623163356,0.8354122042655945,46.40121078491211,5.687466144561768,-19.586824417114258,-0.7610984444618225,-2.3660311698913574,0.15231649577617645,0
21,0.09999656677246094,-0.8354122042655945,-46.40121078491211,-5.687466144561768,19.586824417114258,0.7610984444618225,2.3660311698913574,-0.15231649577617645,0.0,0.0,0.0,0.0,0.0,0.0,0.0,-0.8302611949634732,-0.08506265611379651,-0.5140060100616807,0.34723201415799415,0.18396892096908238,0.11168140814825372,-0.1884051061345228,0.8781285291510551,0.7551412023410455,-0.2825148922393196,-1.668933184042183,0.14140599726511335,2.403571450604333,1.0273430310802327,0.878092876070424,0.7554597494309409,-0.2825552651693207,-1.6690993614607135,0.1414185955172306,2.4034451173676383,1.0273381002308042,0.0001228423030568174,0.00019969016552899007,-0.0004052572436742297,-0.0005920656817666374,0.0002993535236614728,0.0005343806495843876,-0.0015797041623163356,0.0,0.0,0.0,0.0,0.0,0.0,0.0,-3.565308063113726e-05,0.00031854708989531577,-4.037293000114239e-05,-0.00016617741853042212,1.25982521172463e-05,-0.00012633323669453134,-4.930849428541606e-06,-0.0001228423030568174,-0.00019969016552899007,0.0004052572436742297,0.0005920656817666374,-0.0002993535236614728,-0.0005343806495843876,0.0015797041623163356,0.8354122042655945,46.40121078491211,5.687466144561768,-19.586824417114258,-0.7610984444618225,-2.3660311698913574,0.15231649577617645,0
22,0.10494470596313477,-0.8592159152030945,-46.42501449584961,-5.711269855499268,19.535249710083008,0.7610984444618225,2.3724398612976074,-0.19351522624492645,0.0,0.0,0.0,0.0,0.0,0.0,0.0,-0.8332550390694857,-0.08854908806024638,-0.5211485425140664,0.3484928405571836,0.18397327798344923,0.11198677581769634,-0.18835315682039816,0.8781304075174435,0.7551449787957949,-0.28251322180346433,-1.6689296443423183,0.14140603662493792,2.40357073852751,1.0273476087169515,0.878092876070424,0.7554597494309409,-0.2825552651693207,-1.6690993614607135,0.1414185955172306,2.4034451173676383,1.0273381002308042,0.000333979119918361,0.00048385303324203653,0.0006745048830180282,0.0006079987635152808,0.00033893936747300235,0.00021638388992166387,0.0003548703195095569,0.0,0.0,0.0,0.0,0.0,0.0,0.0,-3.7531447019567565e-05,0.0003147706351459556,-4.2043365856392345e-05,-0.0001697171183951962,1.2558892292680035e-05,-0.00012562115987169165,-9.508486147336015e-06,-0.000333979119918361,-0.00048385303324203653,-0.0006745048830180282,-0.0006079987635152808,-0.00033893936747300235,-0.00021638388992166387,-0.0003548703195095569,0.8592159152030945,46.42501449584961,5.711269855499268,-19.535249710083008,-0.7610984444618225,-2.3724398612976074,0.19351522624492645,0
23,0.11000490188598633,-0.8592159152030945,-46.42501449584961,-5.711269855499268,19.535249710083008,0.7610984444618225,2.3724398612976074,-0.19351522624492645,0.0,0.0,0.0,0.0,0.0,0.0,0.0,-0.8332550390694857,-0.08854908806024638,-0.5211485425140664,0.3484928405571836,0.18397327798344923,0.11198677581769634,-0.18835315682039816,0.8781304075174435,0.7551449787957949,-0.28251322180346433,-1.6689296443423183,0.14140603662493792,2.40357073852751,1.0273476087169515,0.878092876070424,0.7554597494309409,-0.2825552651693207,-1.6690993614607135,0.1414185955172306,2.4034451173676383,1.0273381002308042,0.000333979119918361,0.00048385303324203653,0.0006745048830180282,0.0006079987635152808,0.00033893936747300235,0.00021638388992166387,0.0003548703195095569,0.0,0.0,0.0,0.0,0.0,0.0,0.0,-3.7531447019567565e-05,0.0003147706351459556,-4.2043365856392345e-05,-0.0001697171183951962,1.2558892292680035e-05,-0.00012562115987169165,-9.508486147336015e-06,-0.000333979119918361,-0.00048385303324203653,-0.0006745048830180282,-0.0006079987635152808,-0.00033893936747300235,-0.00021638388992166387,-0.0003548703195095569,0.8592159152030945,46.42501449584961,5.711269855499268,-19.535249710083008,-0.7610984444618225,-2.3724398612976074,0.19351522624492645,0
24,0.11500668525695801,-0.8592159152030945,-46.47658920288086,-5.687466144561768,19.586824417114258,0.7730002999305725,2.3724398612976074,-0.20083944499492645,0.0,0.0,0.0,0.0,0.0,0.0,0.0,-0.8238747765532068,-0.09318010476215247,-0.5137325146937085,0.35121413401942125,0.18376327655658425,0.1124500958800413,-0.18780486569255153,0.8781301822533221,0.7551485980853698,-0.2825148922393196,-1.6689331869820172,0.1414047205151759,2.40357073852751,1.0273484225190348,0.878092876070424,0.7554597494309409,-0.2825552651693207,-1.6690993614607135,0.1414185955172306,2.4034451173676383,1.0273381002308042,0.0005704610773695866,0.001197248168748275,2.156526697660778e-05,-0.0006144750435219778,-1.3048211043104946e-06,0.00027419678992204204,0.00021369987081868783,0.0,0.0,0.0,0.0,0.0,0.0,0.0,-3.730618289810028e-05,0.00031115134557102575,-4.037293000114239e-05,-0.00016617447869626822,1.387500205468628e-05,-0.00012562115987169165,-1.0322288230613097e-05,-0.0005704610773695866,-0.001197248168748275,-2.156526697660778e-05,0.0006144750435219778,1.3048211043104946e-06,-0.00027419678992204204,-0.00021369987081868783,0.8592159152030945,46.47658920288086,5.687466144561768,-19.586824417114258,-0.7730002999305725,-2.3724398612976074,0.20083944499492645,0
25,0.12000107765197754,-0.8592159152030945,-46.47658920288086,-5.687466144561768,19.586824417114258,0.7730002999305725,2.3724398612976074,-0.20083944499492645,0.0,0.0,0.0,0.0,0.0,0.0,0.0,-0.8238747765532068,-0.09318010476215247,-0.5137325146937085,0.35121413401942125,0.18376327655658425,0.1124500958800413,-0.18780486569255153,0.8781301822533221,0.7551485980853698,-0.2825148922393196,-1.6689331869820172,0.1414047205151759,2.40357073852751,1.0273484225190348,0.878092876070424,0.7554597494309409,-0.2825552651693207,-1.6690993614607135,0.1414185955172306,2.4034451173676383,1.0273381002308042,0.0005704610773695866,0.001197248168748275,2.156526697660778e-05,-0.0006144750435219778,-1.3048211043104946e-06,0.00027419678992204204,0.00021369987081868783,0.0,0.0,0.0,0.0,0.0,0.0,0.0,-3.730618289810028e-05,0.00031115134557102575,-4.037293000114239e-05,-0.00016617447869626822,1.387500205468628e-05,-0.00012562115987169165,-1.0322288230613097e-05,-0.0005704610773695866,-0.001197248168748275,-2.156526697660778e-05,0.0006144750435219778,1.3048211043104946e-06,-0.00027419678992204204,-0.00021369987081868783,0.8592159152030945,46.47658920288086,5.687466144561768,-19.586824417114258,-0.7730002999305725,-2.3724398612976074,0.20083944499492645,0
26,0.125,-0.7838374972343445,-46.42501449584961,-5.687466144561768,19.610628128051758,0.7610984444618225,2.3788485527038574,-0.17337362468242645,0.0,0.0,0.0,0.0,0.0,0.0,0.0,-0.8207093818096828,-0.09189390495217678,-0.5110181359112735,0.34957017149676833,0.18386892140317518,0.11200383874941343,-0.18909943373532453,0.8781248953204424,0.7551449788076835,-0.2825148922393196,-1.6689370005682613,0.14140753316822793,2.403570026450687,1.0273453707612223,0.878092876070424,0.7554597494309409,-0.2825552651693207,-1.6690993614607135,0.1414185955172306,2.4034451173676383,1.0273381002308042,-0.0007466272133327552,-5.6717587333604216e-05,-1.964726463240791e-05,-0.0008703609777806527,0.0003637425754550672,1.641488795898749e-05,-0.0011283349400820176,0.0,0.0,0.0,0.0,0.0,0.0,0.0,-3.201925001838912e-05,0.0003147706232573544,-4.037293000114239e-05,-0.00016236089245214025,1.1062349002666227e-05,-0.00012490908304885195,-7.270530418157506e-06,0.0007466272133327552,5.6717587333604216e-05,1.964726463240791e-05,0.0008703609777806527,-0.0003637425754550672,-1.641488795898749e-05,0.0011283349400820176,0.7838374972343445,46.42501449584961,5.687466144561768,-19.610628128051758,-0.7610984444618225,-2.3788485527038574,0.17337362468242645,0
27,0.13000273704528809,-0.7838374972343445,-46.42501449584961,-5.687466144561768,19.610628128051758,0.7610984444618225,2.3788485527038574,-0.17337362468242645,0.0,0.0,0.0,0.0,0.0,0.0,0.0,-0.8207093818096828,-0.09189390495217678,-0.5110181359112735,0.34957017149676833,0.18386892140317518,0.11200383874941343,-0.18909943373532453,0.8781248953204424,0.7551449788076835,-0.2825148922393196,-1.6689370005682613,0.14140753316822793,2.403570026450687,1.0273453707612223,0.878092876070424,0.7554597494309409,-0.2825552651693207,-1.6690993614607135,0.1414185955172306,2.4034451173676383,1.0273381002308042,-0.0007466272133327552,-5.6717587333604216e-05,-1.964726463240791e-05,-0.0008703609777806527,0.0003637425754550672,1.641488795898749e-05,-0.0011283349400820176,0.0,0.0,0.0,0.0,0.0,0.0,0.0,-3.201925001838912e-05,0.0003147706232573544,-4.037293000114239e-05,-0.00016236089245214025,1.1062349002666227e-05,-0.00012490908304885195,-7.270530418157506e-06,0.0007466272133327552,5.6717587333604216e-05,1.964726463240791e-05,0.0008703609777806527,-0.0003637425754550672,-1.641488795898749e-05,0.0011283349400820176,0.7838374972343445,46.42501449584961,5.687466144561768,-19.610628128051758,-0.7610984444618225,-2.3788485527038574,0.17337362468242645,0
28,0.1349480152130127,-0.8076412081718445,-46.40121078491211,-5.663662433624268,19.559053421020508,0.7665916085243225,2.3788485527038574,-0.17337362468242645,0.0,0.0,0.0,0.0,0.0,0.0,0.0,-0.8228357687556307,-0.09329047553021917,-0.5122197182251242,0.3495440063172584,0.18395891528260003,0.1119610556091595,-0.1897196516712492,0.8781267972989227,0.7551433083718282,-0.28251656267517483,-1.668931235232642,0.14140587441984234,2.403570026450687,1.0273453709267655,0.878092876070424,0.7554597494309409,-0.2825552651693207,-1.6690993614607135,0.1414185955172306,2.4034451173676383,1.0273381002308042,-9.653215815345922e-05,-0.000684398127196544,0.00010448880876339858,-0.00011831044158497007,0.0001129067056398667,0.0002423225246495355,-0.0005193299298128502,0.0,0.0,0.0,0.0,0.0,0.0,0.0,-3.3921228498767775e-05,0.00031644105911265985,-3.870249414589244e-05,-0.0001681262280714968,1.272109738825744e-05,-0.00012490908304885195,-7.270695961292262e-06,9.653215815345922e-05,0.000684398127196544,-0.00010448880876339858,0.00011831044158497007,-0.0001129067056398667,-0.0002423225246495355,0.0005193299298128502,0.8076412081718445,46.40121078491211,5.663662433624268,-19.559053421020508,-0.7665916085243225,-2.3788485527038574,0.17337362468242645,0
29,0.13994264602661133,-0.8076412081718445,-46.40121078491211,-5.663662433624268,19.559053421020508,0.7665916085243225,2.3788485527038574,-0.17337362468242645,0.0,0.0,0.0,0.0,0.0,0.0,0.0,-0.8228357687556307,-0.09329047553021917,-0.5122197182251242,0.3495440063172584,0.18395891528260003,0.1119610556091595,-0.1897196516712492,0.8781267972989227,0.7551433083718282,-0.28251656267517483,-1.668931235232642,0.14140587441984234,2.403570026450687,1.0273453709267655,0.878092876070424,0.7554597494309409,-0.2825552651693207,-1.6690993614607135,0.1414185955172306,2.4034451173676383,1.0273381002308042,-9.653215815345922e-05,-0.000684398127196544,0.00010448880876339858,-0.00011831044158497007,0.0001129067056398667,0.0002423225246495355,-0.0005193299298128502,0.0,0.0,0.0,0.0,0.0,0.0,0.0,-3.3921228498767775e-05,0.00031644105911265985,-3.870249414589244e-05,-0.0001681262280714968,1.272109738825744e-05,-0.00012490908304885195,-7.270695961292262e-06,9.653215815345922e-05,0.000684398127196544,-0.00010448880876339858,0.00011831044158497007,-0.0001129067056398667,-0.0002423225246495355,0.0005193299298128502,0.8076412081718445,46.40121078491211,5.663662433624268,-19.559053421020508,-0.7665916085243225,-2.3788485527038574,0.17337362468242645,0
30,0.14500808715820312,-0.7838374972343445,-46.40121078491211,-5.687466144561768,19.535249710083008,0.7730002999305725,2.3788485527038574,-0.17337362468242645,0.0,0.0,0.0,0.0,0.0,0.0,0.0,-0.8333207707161735,-0.0913486867334324,-0.5165281538310084,0.34560187808729587,0.1841662797539618,0.1122388329600743,-0.19055403715899438,0.8781249097664207,0.7551433083718282,-0.2825148922393196,-1.6689295650874914,0.1414057904336466,2.403570026450687,1.0273453707612232,0.878092876070424,0.7554597494309409,-0.2825552651693207,-1.6690993614607135,0.1414185955172306,2.4034451173676383,1.0273381002308042,-0.0012051939205088345,-0.000546015848109709,0.0006298173748342074,0.00034706755126230154,3.163218900842491e-05,-9.891687397147004e-05,-0.0006756776234753508,0.0,0.0,0.0,0.0,0.0,0.0,0.0,-3.203369599669159e-05,0.00031644105911265985,-4.037293000114239e-05,-0.0001697963732221197,1.280508358400545e-05,-0.00012490908304885195,-7.270530419045684e-06,0.0012051939205088345,0.000546015848109709,-0.0006298173748342074,-0.00034706755126230154,-3.163218900842491e-05,9.891687397147004e-05,0.0006756776234753508,0.7838374972343445,46.40121078491211,5.687466144561768,-19.535249710083008,-0.7730002999305725,-2.3788485527038574,0.17337362468242645,0
31,0.15000295639038086,-0.7838374972343445,-46.40121078491211,-5.687466144561768,19.535249710083008,0.7730002999305725,2.3788485527038574,-0.17337362468242645,0.0,0.0,0.0,0.0,0.0,0.0,0.0,-0.8333207707161735,-0.0913486867334324,-0.5165281538310084,0.34560187808729587,0.1841662797539618,0.1122388329600743,-0.19055403715899438,0.8781249097664207,0.7551433083718282,-0.2825148922393196,-1.6689295650874914,0.1414057904336466,2.403570026450687,1.0273453707612232,0.878092876070424,0.7554597494309409,-0.2825552651693207,-1.6690993614607135,0.1414185955172306,2.4034451173676383,1.0273381002308042,-0.0012051939205088345,-0.000546015848109709,0.0006298173748342074,0.00034706755126230154,3.163218900842491e-05,-9.891687397147004e-05,-0.0006756776234753508,0.0,0.0,0.0,0.0,0.0,0.0,0.0,-3.203369599669159e-05,0.00031644105911265985,-4.037293000114239e-05,-0.0001697963732221197,1.280508358400545e-05,-0.00012490908304885195,-7.270530419045684e-06,0.0012051939205088345,0.000546015848109709,-0.0006298173748342074,-0.00034706755126230154,-3.163218900842491e-05,9.891687397147004e-05,0.0006756776234753508,0.7838374972343445,46.40121078491211,5.687466144561768,-19.535249710083008,-0.7730002999305725,-2.3788485527038574,0.17337362468242645,0
32,0.15500330924987793,-0.8354122042655945,-46.40121078491211,-5.663662433624268,19.535249710083008,0.7730002999305725,2.3788485527038574,-0.15231649577617645,0.0,0.0,0.0,0.0,0.0,0.0,0.0,-0.8375695488304514,-0.08587484215305723,-0.5158085413136295,0.3394217726090801,0.1842803861048432,0.11107840521955854,-0.19023050622264395,0.8781285031533315,0.7551433083718282,-0.28251656267517483,-1.6689302800161798,0.1414082186657899,2.403570026450687,1.0273430310802327,0.878092876070424,0.7554597494309409,-0.2825552651693207,-1.6690993614607135,0.1414185955172306,2.4034451173676383,1.0273381002308042,-9.017555528160475e-05,-0.00030895725621929806,-0.00031459156708898766,-0.00012278248601588017,-0.00022135319630448634,-9.585987780145772e-05,-0.001327172629813818,0.0,0.0,0.0,0.0,0.0,0.0,0.0,-3.562708290749672e-05,0.00031644105911265985,-3.870249414589244e-05,-0.00016908144453364748,1.0376851440702106e-05,-0.00012490908304885195,-4.930849428541606e-06,9.017555528160475e-05,0.00030895725621929806,0.00031459156708898766,0.00012278248601588017,0.00022135319630448634,9.585987780145772e-05,0.001327172629813818,0.8354122042655945,46.40121078491211,5.663662433624268,-19.535249710083008,-0.7730002999305725,-2.3788485527038574,0.15231649577617645,0
33,0.15999770164489746,-0.8354122042655945,-46.40121078491211,-5.663662433624268,19.535249710083008,0.7730002999305725,2.3788485527038574,-0.15231649577617645,0.0,0.0,0.0,0.0,0.0,0.0,0.0,-0.8375695488304514,-0.08587484215305723,-0.5158085413136295,0.3394217726090801,0.1842803861048432,0.11107840521955854,-0.19023050622264395,0.8781285031533315,0.7551433083718282,-0.28251656267517483,-1.6689302800161798,0.1414082186657899,2.403570026450687,1.0273430310802327,0.878092876070424,0.7554597494309409,-0.2825552651693207,-1.6690993614607135,0.1414185955172306,2.4034451173676383,1.0273381002308042,-9.017555528160475e-05,-0.00030895725621929806,-0.00031459156708898766,-0.00012278248601588017,-0.00022135319630448634,-9.585987780145772e-05,-0.001327172629813818,0.0,0.0,0.0,0.0,0.0,0.0,0.0,-3.562708290749672e-05,0.00031644105911265985,-3.870249414589244e-05,-0.00016908144453364748,1.0376851440702106e-05,-0.00012490908304885195,-4.930849428541606e-06,9.017555528160475e-05,0.00030895725621929806,0.00031459156708898766,0.00012278248601588017,0.00022135319630448634,9.585987780145772e-05,0.001327172629813818,0.8354122042655945,46.40121078491211,5.663662433624268,-19.535249710083008,-0.7730002999305725,-2.3788485527038574,0.15231649577617645,0
34,0.16499996185302734,-0.8592159152030945,-46.42501449584961,-5.663662433624268,19.511445999145508,0.7665916085243225,2.3788485527038574,-0.21457235515117645,0.0,0.0,0.0,0.0,0.0,0.0,0.0,-0.8242100874550982,-0.08823556664546348,-0.5056592035711227,0.3412334044442962,0.18355434111373733,0.11118577983649064,-0.1897693085056447,0.8781308870441958,0.7551449788076835,-0.28251656267517483,-1.6689278943286248,0.14140857593538628,2.403570026450687,1.0273499483979411,0.878092876070424,0.7554597494309409,-0.2825552651693207,-1.6690993614607135,0.1414185955172306,2.4034451173676383,1.0273381002308042,0.000962431345539696,0.0008078456065681607,-0.00018515794082436641,0.000738742756331242,-3.946445823237155e-05,-9.354111315859788e-05,0.0010972448038003965,0.0,0.0,0.0,0.0,0.0,0.0,0.0,-3.801097377187368e-05,0.0003147706232573544,-3.870249414589244e-05,-0.00017146713208870956,1.0019581844322722e-05,-0.00012490908304885195,-1.1848167136951915e-05,-0.000962431345539696,-0.0008078456065681607,0.00018515794082436641,-0.000738742756331242,3.946445823237155e-05,9.354111315859788e-05,-0.0010972448038003965,0.8592159152030945,46.42501449584961,5.663662433624268,-19.511445999145508,-0.7665916085243225,-2.3788485527038574,0.21457235515117645,0
35,0.16999459266662598,-0.8592159152030945,-46.42501449584961,-5.663662433624268,19.511445999145508,0.7665916085243225,2.3788485527038574,-0.21457235515117645,0.0,0.0,0.0,0.0,0.0,0.0,0.0,-0.8242100874550982,-0.08823556664546348,-0.5056592035711227,0.3412334044442962,0.18355434111373733,0.11118577983649064,-0.1897693085056447,0.8781308870441958,0.7551449788076835,-0.28251656267517483,-1.6689278943286248,0.14140857593538628,2.403570026450687,1.0273499483979411,0.878092876070424,0.7554597494309409,-0.2825552651693207,-1.6690993614607135,0.1414185955172306,2.4034451173676383,1.0273381002308042,0.000962431345539696,0.0008078456065681607,-0.00018515794082436641,0.000738742756331242,-3.946445823237155e-05,-9.354111315859788e-05,0.0010972448038003965,0.0,0.0,0.0,0.0,0.0,0.0,0.0,-3.801097377187368e-05,0.0003147706232573544,-3.870249414589244e-05,-0.00017146713208870956,1.0019581844322722e-05,-0.00012490908304885195,-1.1848167136951915e-05,-0.000962431345539696,-0.0008078456065681607,0.00018515794082436641,-0.000738742756331242,3.946445823237155e-05,9.354111315859788e-05,-0.0010972448038003965,0.8592159152030945,46.42501449584961,5.663662433624268,-19.511445999145508,-0.7665916085243225,-2.3788485527038574,0.21457235515117645,0
36,0.17494821548461914,-0.8592159152030945,-46.42501449584961,-5.663662433624268,19.511445999145508,0.7665916085243225,2.3788485527038574,-0.21457235515117645,0.0,0.0,0.0,0.0,0.0,0.0,0.0,-0.8242100874550982,-0.08823556664546348,-0.5056592035711227,0.3412334044442962,0.18355434111373733,0.11118577983649064,-0.1897693085056447,0.8781308870441958,0.7551449788076835,-0.28251656267517483,-1.6689278943286248,0.14140857593538628,2.403570026450687,1.0273499483979411,0.878092876070424,0.7554597494309409,-0.2825552651693207,-1.6690993614607135,0.1414185955172306,2.4034451173676383,1.0273381002308042,0.000962431345539696,0.0008078456065681607,-0.00018515794082436641,0.000738742756331242,-3.946445823237155e-05,-9.354111315859788e-05,0.0010972448038003965,0.0,0.0,0.0,0.0,0.0,0.0,0.0,-3.801097377187368e-05,0.0003147706232573544,-3.870249414589244e-05,-0.00017146713208870956,1.0019581844322722e-05,-0.00012490908304885195,-1.1848167136951915e-05,-0.000962431345539696,-0.0008078456065681607,0.00018515794082436641,-0.000738742756331242,3.946445823237155e-05,9.354111315859788e-05,-0.0010972448038003965,0.8592159152030945,46.42501449584961,5.663662433624268,-19.511445999145508,-0.7665916085243225,-2.3788485527038574,0.21457235515117645,0
37,0.17999696731567383,-0.8592159152030945,-46.42501449584961,-5.663662433624268,19.511445999145508,0.7665916085243225,2.3788485527038574,-0.21457235515117645,0.0,0.0,0.0,0.0,0.0,0.0,0.0,-0.8242100874550982,-0.08823556664546348,-0.5056592035711227,0.3412334044442962,0.18355434111373733,0.11118577983649064,-0.1897693085056447,0.8781308870441958,0.7551449788076835,-0.28251656267517483,-1.6689278943286248,0.14140857593538628,2.403570026450687,1.0273499483979411,0.878092876070424,0.7554597494309409,-0.2825552651693207,-1.6690993614607135,0.1414185955172306,2.4034451173676383,1.0273381002308042,0.000962431345539696,0.0008078456065681607,-0.00018515794082436641,0.000738742756331242,-3.946445823237155e-05,-9.354111315859788e-05,0.0010972448038003965,0.0,0.0,0.0,0.0,0.0,0.0,0.0,-3.801097377187368e-05,0.0003147706232573544,-3.870249414589244e-05,-0.00017146713208870956,1.0019581844322722e-05,-0.00012490908304885195,-1.1848167136951915e-05,-0.000962431345539696,-0.0008078456065681607,0.00018515794082436641,-0.000738742756331242,3.946445823237155e-05,9.354111315859788e-05,-0.0010972448038003965,0.8592159152030945,46.42501449584961,5.663662433624268,-19.511445999145508,-0.7665916085243225,-2.3788485527038574,0.21457235515117645,0
38,0.18530726432800293,-0.8354122042655945,-46.44881820678711,-5.687466144561768,19.559053421020508,0.7665916085243225,2.3852572441101074,-0.16604940593242645,0.0,0.0,0.0,0.0,0.0,0.0,0.0,-0.828521916797283,-0.11120505298431485,-0.51204629408987,0.3557471945664464,0.18358000346355358,0.11334429706611651,-0.19003550725902407,0.8781292051993068,0.7551466492435387,-0.2825148922393196,-1.6689312351962977,0.14140905013749588,2.403569314373864,1.027344556959139,0.878092876070424,0.7554597494309409,-0.2825552651693207,-1.6690993614607135,0.1414185955172306,2.4034451173676383,1.0273381002308042,-5.689573095932407e-05,0.0004419534283392591,0.00036025062174809686,0.0005502415424723047,-3.812021268171998e-05,-1.600655638107555e-05,-0.0011538117012644873,0.0,0.0,0.0,0.0,0.0,0.0,0.0,-3.632912888285045e-05,0.00031310018740215995,-4.037293000114239e-05,-0.00016812626441575773,9.545379734715587e-06,-0.00012419700622556817,-6.456728334880424e-06,5.689573095932407e-05,-0.0004419534283392591,-0.00036025062174809686,-0.0005502415424723047,3.812021268171998e-05,1.600655638107555e-05,0.0011538117012644873,0.8354122042655945,46.44881820678711,5.687466144561768,-19.559053421020508,-0.7665916085243225,-2.3852572441101074,0.16604940593242645,0
39,0.18999433517456055,-0.8354122042655945,-46.44881820678711,-5.687466144561768,19.559053421020508,0.7665916085243225,2.3852572441101074,-0.16604940593242645,0.0,0.0,0.0,0.0,0.0,0.0,0.0,-0.828521916797283,-0.11120505298431485,-0.51204629408987,0.3557471945664464,0.18358000346355358,0.11334429706611651,-0.19003550725902407,0.8781292051993068,0.7551466492435387,-0.2825148922393196,-1.6689312351962977,0.14140905013749588,2.403569314373864,1.027344556959139,0.878092876070424,0.7554597494309409,-0.2825552651693207,-1.6690993614607135,0.1414185955172306,2.4034451173676383,1.0273381002308042,-5.689573095932407e-05,0.0004419534283392591,0.00036025062174809686,0.0005502415424723047,-3.812021268171998e-05,-1.600655638107555e-05,-0.0011538117012644873,0.0,0.0,0.0,0.0,0.0,0.0,0.0,-3.632912888285045e-05,0.00031310018740215995,-4.037293000114239e-05,-0.00016812626441575773,9.545379734715587e-06,-0.00012419700622556817,-6.456728334880424e-06,5.689573095932407e-05,-0.0004419534283392591,-0.00036025062174809686,-0.0005502415424723047,3.812021268171998e-05,1.600655638107555e-05,0.0011538117012644873,0.8354122042655945,46.44881820678711,5.687466144561768,-19.559053421020508,-0.7665916085243225,-2.3852572441101074,0.16604940593242645,0
40,0.19500041007995605,-0.8354122042655945,-46.44881820678711,-5.663662433624268,19.559053421020508,0.7784934639930725,2.3788485527038574,-0.17978231608867645,0.0,0.0,0.0,0.0,0.0,0.0,0.0,-0.8299925519289192,-0.08556748451785126,-0.5096479040226221,0.34192667005279626,0.18243486372325549,0.1117440767371034,-0.19079750624697928,0.8781285320426271,0.7551466492435387,-0.28251656267517483,-1.6689312351962977,0.1414088339720361,2.403570026450687,1.0273460828380452,0.878092876070424,0.7554597494309409,-0.2825552651693207,-1.6690993614607135,0.1414185955172306,2.4034451173676383,1.0273381002308042,-6.912338560697461e-05,0.0008660373261007249,-0.0003859684294199875,-0.00011402710678228507,-0.0005420744449495528,0.00017340545518799533,-0.000917813572428384,0.0,0.0,0.0,0.0,0.0,0.0,0.0,-3.565597220311911e-05,0.00031310018740215995,-3.870249414589244e-05,-0.00016812626441575773,9.761545194497678e-06,-0.00012490908304885195,-7.982607240997197e-06,6.912338560697461e-05,-0.0008660373261007249,0.0003859684294199875,0.00011402710678228507,0.0005420744449495528,-0.00017340545518799533,0.000917813572428384,0.8354122042655945,46.44881820678711,5.663662433624268,-19.559053421020508,-0.7784934639930725,-2.3788485527038574,0.17978231608867645,0
41,0.20000791549682617,-0.8354122042655945,-46.44881820678711,-5.663662433624268,19.559053421020508,0.7784934639930725,2.3788485527038574,-0.17978231608867645,0.0,0.0,0.0,0.0,0.0,0.0,0.0,-0.8299925519289192,-0.08556748451785126,-0.5096479040226221,0.34192667005279626,0.18243486372325549,0.1117440767371034,-0.19079750624697928,0.8781285320426271,0.7551466492435387,-0.28251656267517483,-1.6689312351962977,0.1414088339720361,2.403570026450687,1.0273460828380452,0.878092876070424,0.7554597494309409,-0.2825552651693207,-1.6690993614607135,0.1414185955172306,2.4034451173676383,1.0273381002308042,-6.912338560697461e-05,0.0008660373261007249,-0.0003859684294199875,-0.00011402710678228507,-0.0005420744449495528,0.00017340545518799533,-0.000917813572428384,0.0,0.0,0.0,0.0,0.0,0.0,0.0,-3.565597220311911e-05,0.00031310018740215995,-3.870249414589244e-05,-0.00016812626441575773,9.761545194497678e-06,-0.00012490908304885195,-7.982607240997197e-06,6.912338560697461e-05,-0.0008660373261007249,0.0003859684294199875,0.00011402710678228507,0.0005420744449495528,-0.00017340545518799533,0.000917813572428384,0.8354122042655945,46.44881820678711,5.663662433624268,-19.559053421020508,-0.7784934639930725,-2.3788485527038574,0.17978231608867645,0
42,0.20499944686889648,-0.8354122042655945,-46.37740707397461,-5.687466144561768,19.559053421020508,0.7610984444618225,2.3788485527038574,-0.20724813640117645,0.0,0.0,0.0,0.0,0.0,0.0,0.0,-0.8178835741677825,-0.09031490899391142,-0.5012658357498395,0.3451551364116178,0.18223889214757716,0.11290851839153863,-0.1910152378832372,0.878128503054298,0.7551416369729959,-0.2825148922393196,-1.6689315531967528,0.1414071802825355,2.403570026450687,1.0273491345958576,0.878092876070424,0.7554597494309409,-0.2825552651693207,-1.6690993614607135,0.1414185955172306,2.4034451173676383,1.0273381002308042,0.0007528105812933384,-0.0009562568116571178,0.00022071558534014803,-0.000383000073298301,0.00020826213341816396,0.00022198154716065622,0.0003949324863109805,0.0,0.0,0.0,0.0,0.0,0.0,0.0,-3.562698387404861e-05,0.00031811245794499676,-4.037293000114239e-05,-0.00016780826396067816,1.1415234695111298e-05,-0.00012490908304885195,-1.1034365053452788e-05,-0.0007528105812933384,0.0009562568116571178,-0.00022071558534014803,0.000383000073298301,-0.00020826213341816396,-0.00022198154716065622,-0.0003949324863109805,0.8354122042655945,46.37740707397461,5.687466144561768,-19.559053421020508,-0.7610984444618225,-2.3788485527038574,0.20724813640117645,0
43,0.21000981330871582,-0.8354122042655945,-46.37740707397461,-5.687466144561768,19.559053421020508,0.7610984444618225,2.3788485527038574,-0.20724813640117645,0.0,0.0,0.0,0.0,0.0,0.0,0.0,-0.8178835741677825,-0.09031490899391142,-0.5012658357498395,0.3451551364116178,0.18223889214757716,0.11290851839153863,-0.1910152378832372,0.878128503054298,0.7551416369729959,-0.2825148922393196,-1.6689315531967528,0.1414071802825355,2.403570026450687,1.0273491345958576,0.878092876070424,0.7554597494309409,-0.2825552651693207,-1.6690993614607135,0.1414185955172306,2.4034451173676383,1.0273381002308042,0.0007528105812933384,-0.0009562568116571178,0.00022071558534014803,-0.000383000073298301,0.00020826213341816396,0.00022198154716065622,0.0003949324863109805,0.0,0.0,0.0,0.0,0.0,0.0,0.0,-3.562698387404861e-05,0.00031811245794499676,-4.037293000114239e-05,-0.00016780826396067816,1.1415234695111298e-05,-0.00012490908304885195,-1.1034365053452788e-05,-0.0007528105812933384,0.0009562568116571178,-0.00022071558534014803,0.000383000073298301,-0.00020826213341816396,-0.00022198154716065622,-0.0003949324863109805,0.8354122042655945,46.37740707397461,5.687466144561768,-19.559053421020508,-0.7610984444618225,-2.3788485527038574,0.20724813640117645,0
44,0.21496152877807617,-0.8354122042655945,-46.44881820678711,-5.663662433624268,19.559053421020508,0.7730002999305725,2.3788485527038574,-0.21457235515117645,0.0,0.0,0.0,0.0,0.0,0.0,0.0,-0.8318647022966493,-0.09958458781464469,-0.5130392919829034,0.34859757452154155,0.18241508602818657,0.11359334001459889,-0.19113117616290626,0.8781285031493523,0.7551466492435369,-0.2825158474194375,-1.6689314736154752,0.1414061334629034,2.403570026450687,1.0273499483979411,0.878092876070424,0.7554597494309409,-0.2825552651693207,-1.6690993614607135,0.1414185955172306,2.4034451173676383,1.0273381002308042,6.78713328005538e-05,0.00022516519551901498,-0.0006673143361917473,-0.00026375533564578494,-7.8232875371432e-05,-2.6405534452391298e-05,0.0013144324631400614,0.0,0.0,0.0,0.0,0.0,0.0,0.0,-3.562707892834638e-05,0.0003131001874039363,-3.941774988319713e-05,-0.00016788784523824596,1.2462054327200267e-05,-0.00012490908304885195,-1.1848167136951915e-05,-6.78713328005538e-05,-0.00022516519551901498,0.0006673143361917473,0.00026375533564578494,7.8232875371432e-05,2.6405534452391298e-05,-0.0013144324631400614,0.8354122042655945,46.44881820678711,5.663662433624268,-19.559053421020508,-0.7730002999305725,-2.3788485527038574,0.21457235515117645,0
45,0.219954252243042,-0.8354122042655945,-46.44881820678711,-5.663662433624268,19.559053421020508,0.7730002999305725,2.3788485527038574,-0.21457235515117645,0.0,0.0,0.0,0.0,0.0,0.0,0.0,-0.8318647022966493,-0.09958458781464469,-0.5130392919829034,0.34859757452154155,0.18241508602818657,0.11359334001459889,-0.19113117616290626,0.8781285031493523,0.7551466492435369,-0.2825158474194375,-1.6689314736154752,0.1414061334629034,2.403570026450687,1.0273499483979411,0.878092876070424,0.7554597494309409,-0.2825552651693207,-1.6690993614607135,0.1414185955172306,2.4034451173676383,1.0273381002308042,6.78713328005538e-05,0.00022516519551901498,-0.0006673143361917473,-0.00026375533564578494,-7.8232875371432e-05,-2.6405534452391298e-05,0.0013144324631400614,0.0,0.0,0.0,0.0,0.0,0.0,0.0,-3.562707892834638e-05,0.0003131001874039363,-3.941774988319713e-05,-0.00016788784523824596,1.2462054327200267e-05,-0.00012490908304885195,-1.1848167136951915e-05,-6.78713328005538e-05,-0.00022516519551901498,0.0006673143361917473,0.00026375533564578494,7.8232875371432e-05,2.6405534452391298e-05,-0.0013144324631400614,0.8354122042655945,46.44881820678711,5.663662433624268,-19.559053421020508,-0.7730002999305725,-2.3788485527038574,0.21457235515117645,0
46,0.2250208854675293,-0.8076412081718445,-46.44881820678711,-5.687466144561768,19.586824417114258,0.7730002999305725,2.3596224784851074,-0.19351522624492645,0.0,0.0,0.0,0.0,0.0,0.0,0.0,-0.8359119638241767,-0.09162540878119245,-0.5126627491034935,0.34308016944782393,0.18265356488600873,0.11214607363181026,-0.1907662253023141,0.878126557553111,0.7551466492435387,-0.282514892235282,-1.6689331840394745,0.14140790893965577,2.4035721626811557,1.0273476087169515,0.878092876070424,0.7554597494309409,-0.2825552651693207,-1.6690993614607135,0.1414185955172306,2.4034451173676383,1.0273381002308042,-0.0010356810544892212,0.0006075535017752238,-7.059808897310675e-05,-0.0006295228404974023,-0.000266881320729631,0.0006172323528847972,-3.4144314063060526e-06,0.0,0.0,0.0,0.0,0.0,0.0,0.0,-3.36814826870091e-05,0.00031310018740215995,-4.037293403874598e-05,-0.0001661774212389222,1.0686577574831047e-05,-0.00012704531351737103,-9.508486147336015e-06,0.0010356810544892212,-0.0006075535017752238,7.059808897310675e-05,0.0006295228404974023,0.000266881320729631,-0.0006172323528847972,3.4144314063060526e-06,0.8076412081718445,46.44881820678711,5.687466144561768,-19.586824417114258,-0.7730002999305725,-2.3596224784851074,0.19351522624492645,0
47,0.2299957275390625,-0.8076412081718445,-46.44881820678711,-5.687466144561768,19.586824417114258,0.7730002999305725,2.3596224784851074,-0.19351522624492645,0.0,0.0,0.0,0.0,0.0,0.0,0.0,-0.8359119638241767,-0.09162540878119245,-0.5126627491034935,0.34308016944782393,0.18265356488600873,0.11214607363181026,-0.1907662253023141,0.878126557553111,0.7551466492435387,-0.282514892235282,-1.6689331840394745,0.14140790893965577,2.4035721626811557,1.0273476087169515,0.878092876070424,0.7554597494309409,-0.2825552651693207,-1.6690993614607135,0.1414185955172306,2.4034451173676383,1.0273381002308042,-0.0010356810544892212,0.0006075535017752238,-7.059808897310675e-05,-0.0006295228404974023,-0.000266881320729631,0.0006172323528847972,-3.4144314063060526e-06,0.0,0.0,0.0,0.0,0.0,0.0,0.0,-3.36814826870091e-05,0.00031310018740215995,-4.037293403874598e-05,-0.0001661774212389222,1.0686577574831047e-05,-0.00012704531351737103,-9.508486147336015e-06,0.0010356810544892212,-0.0006075535017752238,7.059808897310675e-05,0.0006295228404974023,0.000266881320729631,-0.0006172323528847972,3.4144314063060526e-06,0.8076412081718445,46.44881820678711,5.687466144561768,-19.586824417114258,-0.7730002999305725,-2.3596224784851074,0.19351522624492645,0
48,0.2299957275390625,-0.8076412081718445,-46.44881820678711,-5.687466144561768,19.586824417114258,0.7730002999305725,2.3596224784851074,-0.19351522624492645,0.0,0.0,0.0,0.0,0.0,0.0,0.0,-0.8359119638241767,-0.09162540878119245,-0.5126627491034935,0.34308016944782393,0.18265356488600873,0.11214607363181026,-0.1907662253023141,0.878126557553111,0.7551466492435387,-0.282514892235282,-1.6689331840394745,0.14140790893965577,2.4035721626811557,1.0273476087169515,0.878092876070424,0.7554597494309409,-0.2825552651693207,-1.6690993614607135,0.1414185955172306,2.4034451173676383,1.0273381002308042,-0.0010356810544892212,0.0006075535017752238,-7.059808897310675e-05,-0.0006295228404974023,-0.000266881320729631,0.0006172323528847972,-3.4144314063060526e-06,0.0,0.0,0.0,0.0,0.0,0.0,0.0,-3.36814826870091e-05,0.00031310018740215995,-4.037293403874598e-05,-0.0001661774212389222,1.0686577574831047e-05,-0.00012704531351737103,-9.508486147336015e-06,0.0010356810544892212,-0.0006075535017752238,7.059808897310675e-05,0.0006295228404974023,0.000266881320729631,-0.0006172323528847972,3.4144314063060526e-06,0.8076412081718445,46.44881820678711,5.687466144561768,-19.586824417114258,-0.7730002999305725,-2.3596224784851074,0.19351522624492645,0
49,0.23999452590942383,-0.8076412081718445,-46.42501449584961,-5.711269855499268,19.535249710083008,0.7730002999305725,2.3788485527038574,-0.15964071452617645,0.0,0.0,0.0,0.0,0.0,0.0,0.0,-0.8158672198751832,-0.08803561327731031,-0.4947407366871413,0.3447697302426721,0.18162640229449534,0.11107473110893286,-0.19178735426213595,0.8781267882039628,0.7551449788076835,-0.28251322180346433,-1.668929564796781,0.1414048381526793,2.403570026450687,1.027343844882316,0.878092876070424,0.7554597494309409,-0.2825552651693207,-1.6690993614607135,0.1414185955172306,2.4034451173676383,1.0273381002308042,-0.00011591352052367768,0.00025519371149639253,0.0008726672991390894,0.0005567162828038539,-0.0001917750486313986,7.111717374669421e-06,-0.0014015829127804128,0.0,0.0,0.0,0.0,0.0,0.0,0.0,-3.391213353887146e-05,0.0003147706232573544,-4.2043365856392345e-05,-0.0001697966639324644,1.3757364551308937e-05,-0.00012490908304885195,-5.744651511818688e-06,0.00011591352052367768,-0.00025519371149639253,-0.0008726672991390894,-0.0005567162828038539,0.0001917750486313986,-7.111717374669421e-06,0.0014015829127804128,0.8076412081718445,46.42501449584961,5.711269855499268,-19.535249710083008,-0.7730002999305725,-2.3788485527038574,0.15964071452617645,0
50,0.2451467514038086,-0.8076412081718445,-46.42501449584961,-5.711269855499268,19.535249710083008,0.7730002999305725,2.3788485527038574,-0.15964071452617645,0.0,0.0,0.0,0.0,0.0,0.0,0.0,-0.8158672198751832,-0.08803561327731031,-0.4947407366871413,0.3447697302426721,0.18162640229449534,0.11107473110893286,-0.19178735426213595,0.8781267882039628,0.7551449788076835,-0.28251322180346433,-1.668929564796781,0.1414048381526793,2.403570026450687,1.027343844882316,0.878092876070424,0.7554597494309409,-0.2825552651693207,-1.6690993614607135,0.1414185955172306,2.4034451173676383,1.0273381002308042,-0.00011591352052367768,0.00025519371149639253,0.0008726672991390894,0.0005567162828038539,-0.0001917750486313986,7.111717374669421e-06,-0.0014015829127804128,0.0,0.0,0.0,0.0,0.0,0.0,0.0,-3.391213353887146e-05,0.0003147706232573544,-4.2043365856392345e-05,-0.0001697966639324644,1.3757364551308937e-05,-0.00012490908304885195,-5.744651511818688e-06,0.00011591352052367768,-0.00025519371149639253,-0.0008726672991390894,-0.0005567162828038539,0.0001917750486313986,-7.111717374669421e-06,0.0014015829127804128,0.8076412081718445,46.42501449584961,5.711269855499268,-19.535249710083008,-0.7730002999305725,-2.3788485527038574,0.15964071452617645,0
51,0.25004100799560547,-0.8076412081718445,-46.42501449584961,-5.711269855499268,19.535249710083008,0.7730002999305725,2.3788485527038574,-0.15964071452617645,0.0,0.0,0.0,0.0,0.0,0.0,0.0,-0.8158672198751832,-0.08803561327731031,-0.4947407366871413,0.3447697302426721,0.18162640229449534,0.11107473110893286,-0.19178735426213595,0.8781267882039628,0.7551449788076835,-0.28251322180346433,-1.668929564796781,0.1414048381526793,2.403570026450687,1.027343844882316,0.878092876070424,0.7554597494309409,-0.2825552651693207,-1.6690993614607135,0.1414185955172306,2.4034451173676383,1.0273381002308042,-0.00011591352052367768,0.00025519371149639253,0.0008726672991390894,0.0005567162828038539,-0.0001917750486313986,7.111717374669421e-06,-0.0014015829127804128,0.0,0.0,0.0,0.0,0.0,0.0,0.0,-3.391213353887146e-05,0.0003147706232573544,-4.2043365856392345e-05,-0.0001697966639324644,1.3757364551308937e-05,-0.00012490908304885195,-5.744651511818688e-06,0.00011591352052367768,-0.00025519371149639253,-0.0008726672991390894,-0.0005567162828038539,0.0001917750486313986,-7.111717374669421e-06,0.0014015829127804128,0.8076412081718445,46.42501449584961,5.711269855499268,-19.535249710083008,-0.7730002999305725,-2.3788485527038574,0.15964071452617645,0
52,0.254993200302124,-0.8076412081718445,-46.42501449584961,-5.711269855499268,19.535249710083008,0.7730002999305725,2.3788485527038574,-0.15964071452617645,0.0,0.0,0.0,0.0,0.0,0.0,0.0,-0.8158672198751832,-0.08803561327731031,-0.4947407366871413,0.3447697302426721,0.18162640229449534,0.11107473110893286,-0.19178735426213595,0.8781267882039628,0.7551449788076835,-0.28251322180346433,-1.668929564796781,0.1414048381526793,2.403570026450687,1.027343844882316,0.878092876070424,0.7554597494309409,-0.2825552651693207,-1.6690993614607135,0.1414185955172306,2.4034451173676383,1.0273381002308042,-0.00011591352052367768,0.00025519371149639253,0.0008726672991390894,0.0005567162828038539,-0.0001917750486313986,7.111717374669421e-06,-0.0014015829127804128,0.0,0.0,0.0,0.0,0.0,0.0,0.0,-3.391213353887146e-05,0.0003147706232573544,-4.2043365856392345e-05,-0.0001697966639324644,1.3757364551308937e-05,-0.00012490908304885195,-5.744651511818688e-06,0.00011591352052367768,-0.00025519371149639253,-0.0008726672991390894,-0.0005567162828038539,0.0001917750486313986,-7.111717374669421e-06,0.0014015829127804128,0.8076412081718445,46.42501449584961,5.711269855499268,-19.535249710083008,-0.7730002999305725,-2.3788485527038574,0.15964071452617645,0
53,0.2599961757659912,-0.7838374972343445,-46.44881820678711,-5.687466144561768,19.511445999145508,0.7730002999305725,2.3788485527038574,-0.13858358561992645,0.0,0.0,0.0,0.0,0.0,0.0,0.0,-0.8258560288604518,-0.0908489926251489,-0.5016065323992989,0.34728402213454734,0.18166630422690172,0.11193301159745297,-0.1906381904044601,0.8781248924328485,0.7551466492435387,-0.2825148922393196,-1.6689279738337857,0.14140894466552123,2.403570026450687,1.0273415096709935,0.878092876070424,0.7554597494309409,-0.2825552651693207,-1.6690993614607135,0.1414185955172306,2.4034451173676383,1.0273381002308042,-0.0006121066804282195,0.0008084456127876906,0.00021638721407005754,0.0014164658157547441,-0.0002926599243453265,8.15581493078544e-05,-0.0024592413936928028,0.0,0.0,0.0,0.0,0.0,0.0,0.0,-3.201636242455841e-05,0.00031310018740215995,-4.037293000114239e-05,-0.0001713876269278103,9.650851709369634e-06,-0.00012490908304885195,-3.4094401892836856e-06,0.0006121066804282195,-0.0008084456127876906,-0.00021638721407005754,-0.0014164658157547441,0.0002926599243453265,-8.15581493078544e-05,0.0024592413936928028,0.7838374972343445,46.44881820678711,5.687466144561768,-19.511445999145508,-0.7730002999305725,-2.3788485527038574,0.13858358561992645,0
54,0.26529741287231445,-0.8076412081718445,-46.44881820678711,-5.687466144561768,19.559053421020508,0.7730002999305725,2.3724398612976074,-0.22098104655742645,0.0,0.0,0.0,0.0,0.0,0.0,0.0,-0.8312114479298108,-0.09702430570020593,-0.5093276730572074,0.3488696375781326,0.18231910167306334,0.11320267480156383,-0.1906958814782217,0.8781267883109902,0.7551466492435387,-0.2825148922393196,-1.668931236177893,0.141404718648937,2.40357073852751,1.0273506604747893,0.878092876070424,0.7554597494309409,-0.2825552651693207,-1.6690993614607135,0.1414185955172306,2.4034451173676383,1.0273381002308042,-0.0003303583020058565,0.0008013246807839324,1.5043103760805837e-05,0.0002878509658405979,-8.83172951969084e-05,0.0004532831380120347,0.0007824972372032388,0.0,0.0,0.0,0.0,0.0,0.0,0.0,-3.391224056625841e-05,0.00031310018740215995,-4.037293000114239e-05,-0.0001681252828205082,1.3876868293599687e-05,-0.00012562115987169165,-1.2560243985104691e-05,0.0003303583020058565,-0.0008013246807839324,-1.5043103760805837e-05,-0.0002878509658405979,8.83172951969084e-05,-0.0004532831380120347,-0.0007824972372032388,0.8076412081718445,46.44881820678711,5.687466144561768,-19.559053421020508,-0.7730002999305725,-2.3724398612976074,0.22098104655742645,0
55,0.26999354362487793,-0.8076412081718445,-46.44881820678711,-5.687466144561768,19.559053421020508,0.7730002999305725,2.3724398612976074,-0.22098104655742645,0.0,0.0,0.0,0.0,0.0,0.0,0.0,-0.8312114479298108,-0.09702430570020593,-0.5093276730572074,0.3488696375781326,0.18231910167306334,0.11320267480156383,-0.1906958814782217,0.8781267883109902,0.7551466492435387,-0.2825148922393196,-1.668931236177893,0.141404718648937,2.40357073852751,1.0273506604747893,0.878092876070424,0.7554597494309409,-0.2825552651693207,-1.6690993614607135,0.1414185955172306,2.4034451173676383,1.0273381002308042,-0.0003303583020058565,0.0008013246807839324,1.5043103760805837e-05,0.0002878509658405979,-8.83172951969084e-05,0.0004532831380120347,0.0007824972372032388,0.0,0.0,0.0,0.0,0.0,0.0,0.0,-3.391224056625841e-05,0.00031310018740215995,-4.037293000114239e-05,-0.0001681252828205082,1.3876868293599687e-05,-0.00012562115987169165,-1.2560243985104691e-05,0.0003303583020058565,-0.0008013246807839324,-1.5043103760805837e-05,-0.0002878509658405979,8.83172951969084e-05,-0.0004532831380120347,-0.0007824972372032388,0.8076412081718445,46.44881820678711,5.687466144561768,-19.559053421020508,-0.7730002999305725,-2.3724398612976074,0.22098104655742645,0
56,0.274996280670166,-0.8076412081718445,-46.44881820678711,-5.687466144561768,19.559053421020508,0.7730002999305725,2.3724398612976074,-0.22098104655742645,0.0,0.0,0.0,0.0,0.0,0.0,0.0,-0.8312114479298108,-0.09702430570020593,-0.5093276730572074,0.3488696375781326,0.18231910167306334,0.11320267480156383,-0.1906958814782217,0.8781267883109902,0.7551466492435387,-0.2825148922393196,-1.668931236177893,0.141404718648937,2.40357073852751,1.0273506604747893,0.878092876070424,0.7554597494309409,-0.2825552651693207,-1.6690993614607135,0.1414185955172306,2.4034451173676383,1.0273381002308042,-0.0003303583020058565,0.0008013246807839324,1.5043103760805837e-05,0.0002878509658405979,-8.83172951969084e-05,0.0004532831380120347,0.0007824972372032388,0.0,0.0,0.0,0.0,0.0,0.0,0.0,-3.391224056625841e-05,0.00031310018740215995,-4.037293000114239e-05,-0.0001681252828205082,1.3876868293599687e-05,-0.00012562115987169165,-1.2560243985104691e-05,0.0003303583020058565,-0.0008013246807839324,-1.5043103760805837e-05,-0.0002878509658405979,8.83172951969084e-05,-0.0004532831380120347,-0.0007824972372032388,0.8076412081718445,46.44881820678711,5.687466144561768,-19.559053421020508,-0.7730002999305725,-2.3724398612976074,0.22098104655742645,0
57,0.2799947261810303,-0.8354122042655945,-46.40121078491211,-5.663662433624268,19.586824417114258,0.7665916085243225,2.3788485527038574,-0.18710653483867645,0.0,0.0,0.0,0.0,0.0,0.0,0.0,-0.8295788566851212,-0.10250406447001675,-0.5122618509772832,0.35179031617716083,0.18276765695765212,0.11342132158519012,-0.19110041615681517,0.8781287370470966,0.7551412023410461,-0.28251656267517483,-1.6689331840381343,0.14140862878498583,2.403570026450687,1.0273468966401285,0.878092876070424,0.7554597494309409,-0.2825552651693207,-1.6690993614607135,0.1414185955172306,2.4034451173676383,1.0273381002308042,-1.8098926311640445e-05,-0.000670114532664393,-0.0006232302920783333,-0.0004995134460182445,-7.403362056089447e-05,7.976153187296838e-05,0.0016125387733764139,0.0,0.0,0.0,0.0,0.0,0.0,0.0,-3.586097667263033e-05,0.00031854708989476066,-3.870249414589244e-05,-0.00016617742257918344,9.966732244764964e-06,-0.00012490908304885195,-8.796409324274279e-06,1.8098926311640445e-05,0.000670114532664393,0.0006232302920783333,0.0004995134460182445,7.403362056089447e-05,-7.976153187296838e-05,-0.0016125387733764139,0.8354122042655945,46.40121078491211,5.663662433624268,-19.586824417114258,-0.7665916085243225,-2.3788485527038574,0.18710653483867645,0
58,0.28503990173339844,-0.8354122042655945,-46.40121078491211,-5.663662433624268,19.586824417114258,0.7665916085243225,2.3788485527038574,-0.18710653483867645,0.0,0.0,0.0,0.0,0.0,0.0,0.0,-0.8295788566851212,-0.10250406447001675,-0.5122618509772832,0.35179031617716083,0.18276765695765212,0.11342132158519012,-0.19110041615681517,0.8781287370470966,0.7551412023410461,-0.28251656267517483,-1.6689331840381343,0.14140862878498583,2.403570026450687,1.0273468966401285,0.878092876070424,0.7554597494309409,-0.2825552651693207,-1.6690993614607135,0.1414185955172306,2.4034451173676383,1.0273381002308042,-1.8098926311640445e-05,-0.000670114532664393,-0.0006232302920783333,-0.0004995134460182445,-7.403362056089447e-05,7.976153187296838e-05,0.0016125387733764139,0.0,0.0,0.0,0.0,0.0,0.0,0.0,-3.586097667263033e-05,0.00031854708989476066,-3.870249414589244e-05,-0.00016617742257918344,9.966732244764964e-06,-0.00012490908304885195,-8.796409324274279e-06,1.8098926311640445e-05,0.000670114532664393,0.0006232302920783333,0.0004995134460182445,7.403362056089447e-05,-7.976153187296838e-05,-0.0016125387733764139,0.8354122042655945,46.40121078491211,5.663662433624268,-19.586824417114258,-0.7665916085243225,-2.3788485527038574,0.18710653483867645,0
59,0.2900078296661377,-0.8354122042655945,-46.40121078491211,-5.663662433624268,19.586824417114258,0.7665916085243225,2.3788485527038574,-0.18710653483867645,0.0,0.0,0.0,0.0,0.0,0.0,0.0,-0.8295788566851212,-0.10250406447001675,-0.5122618509772832,0.35179031617716083,0.18276765695765212,0.11342132158519012,-0.19110041615681517,0.8781287370470966,0.7551412023410461,-0.28251656267517483,-1.6689331840381343,0.14140862878498583,2.403570026450687,1.0273468966401285,0.878092876070424,0.7554597494309409,-0.2825552651693207,-1.6690993614607135,0.1414185955172306,2.4034451173676383,1.0273381002308042,-1.8098926311640445e-05,-0.000670114532664393,-0.0006232302920783333,-0.0004995134460182445,-7.403362056089447e-05,7.976153187296838e-05,0.0016125387733764139,0.0,0.0,0.0,0.0,0.0,0.0,0.0,-3.586097667263033e-05,0.00031854708989476066,-3.870249414589244e-05,-0.00016617742257918344,9.966732244764964e-06,-0.00012490908304885195,-8.796409324274279e-06,1.8098926311640445e-05,0.000670114532664393,0.0006232302920783333,0.0004995134460182445,7.403362056089447e-05,-7.976153187296838e-05,-0.0016125387733764139,0.8354122042655945,46.40121078491211,5.663662433624268,-19.586824417114258,-0.7665916085243225,-2.3788485527038574,0.18710653483867645,0
60,0.29500389099121094,-0.8354122042655945,-46.40121078491211,-5.663662433624268,19.586824417114258,0.7665916085243225,2.3788485527038574,-0.18710653483867645,0.0,0.0,0.0,0.0,0.0,0.0,0.0,-0.8295788566851212,-0.10250406447001675,-0.5122618509772832,0.35179031617716083,0.18276765695765212,0.11342132158519012,-0.19110041615681517,0.8781287370470966,0.7551412023410461,-0.28251656267517483,-1.6689331840381343,0.14140862878498583,2.403570026450687,1.0273468966401285,0.878092876070424,0.7554597494309409,-0.2825552651693207,-1.6690993614607135,0.1414185955172306,2.4034451173676383,1.0273381002308042,-1.8098926311640445e-05,-0.000670114532664393,-0.0006232302920783333,-0.0004995134460182445,-7.403362056089447e-05,7.976153187296838e-05,0.0016125387733764139,0.0,0.0,0.0,0.0,0.0,0.0,0.0,-3.586097667263033e-05,0.00031854708989476066,-3.870249414589244e-05,-0.00016617742257918344,9.966732244764964e-06,-0.00012490908304885195,-8.796409324274279e-06,1.8098926311640445e-05,0.000670114532664393,0.0006232302920783333,0.0004995134460182445,7.403362056089447e-05,-7.976153187296838e-05,-0.0016125387733764139,0.8354122042655945,46.40121078491211,5.663662433624268,-19.586824417114258,-0.7665916085243225,-2.3788485527038574,0.18710653483867645,0
61,0.30000996589660645,-0.8354122042655945,-46.40121078491211,-5.663662433624268,19.586824417114258,0.7730002999305725,2.3788485527038574,-0.13858358561992645,0.0,0.0,0.0,0.0,0.0,0.0,0.0,-0.8235496873350453,-0.09662793696249176,-0.5057890136067831,0.3494116852948814,0.18232736434200567,0.11249866065372438,-0.19071783399006687,0.8781292140417222,0.7551426063496789,-0.28251656267517483,-1.6689331840381287,0.14140932032934644,2.403570026450687,1.0273415052013264,0.878092876070424,0.7554597494309409,-0.2825552651693207,-1.6690993614607135,0.1414185955172306,2.4034451173676383,1.0273381002308042,-8.705640416185389e-05,-0.0007000822226296408,2.950291419209565e-05,-0.001024927746766018,-0.00011338782614281477,-9.083544186152128e-05,-0.002102028982980859,0.0,0.0,0.0,0.0,0.0,0.0,0.0,-3.633797129820593e-05,0.00031714308126196133,-3.870249414589244e-05,-0.00016617742258473456,9.275187884155711e-06,-0.00012490908304885195,-3.404970522202788e-06,8.705640416185389e-05,0.0007000822226296408,-2.950291419209565e-05,0.001024927746766018,0.00011338782614281477,9.083544186152128e-05,0.002102028982980859,0.8354122042655945,46.40121078491211,5.663662433624268,-19.586824417114258,-0.7730002999305725,-2.3788485527038574,0.13858358561992645,0
62,0.30495595932006836,-0.8354122042655945,-46.40121078491211,-5.663662433624268,19.586824417114258,0.7730002999305725,2.3788485527038574,-0.13858358561992645,0.0,0.0,0.0,0.0,0.0,0.0,0.0,-0.8235496873350453,-0.09662793696249176,-0.5057890136067831,0.3494116852948814,0.18232736434200567,0.11249866065372438,-0.19071783399006687,0.8781292140417222,0.7551426063496789,-0.28251656267517483,-1.6689331840381287,0.14140932032934644,2.403570026450687,1.0273415052013264,0.878092876070424,0.7554597494309409,-0.2825552651693207,-1.6690993614607135,0.1414185955172306,2.4034451173676383,1.0273381002308042,-8.705640416185389e-05,-0.0007000822226296408,2.950291419209565e-05,-0.001024927746766018,-0.00011338782614281477,-9.083544186152128e-05,-0.002102028982980859,0.0,0.0,0.0,0.0,0.0,0.0,0.0,-3.633797129820593e-05,0.00031714308126196133,-3.870249414589244e-05,-0.00016617742258473456,9.275187884155711e-06,-0.00012490908304885195,-3.404970522202788e-06,8.705640416185389e-05,0.0007000822226296408,-2.950291419209565e-05,0.001024927746766018,0.00011338782614281477,9.083544186152128e-05,0.002102028982980859,0.8354122042655945,46.40121078491211,5.663662433624268,-19.586824417114258,-0.7730002999305725,-2.3788485527038574,0.13858358561992645,0
63,0.31000590324401855,-0.8354122042655945,-46.40121078491211,-5.711269855499268,19.559053421020508,0.7784934639930725,2.3788485527038574,-0.17978231608867645,0.0,0.0,0.0,0.0,0.0,0.0,0.0,-0.8337274328248714,-0.09376680791036804,-0.5112677603640641,0.3488900302841777,0.1826599067097892,0.11231460177008502,-0.18977303849617894,0.8781288413723011,0.7551433083678654,-0.28251322180346433,-1.6689312351962977,0.14140848884166451,2.403570026450687,1.0273460828380452,0.878092876070424,0.7554597494309409,-0.2825552651693207,-1.6690993614607135,0.1414185955172306,2.4034451173676383,1.0273381002308042,6.593844567611279e-06,-0.000714733472842645,0.0004898629867993345,0.00011083694375575304,-0.00027904133455649866,-0.000123321217883518,-6.664670477535433e-05,0.0,0.0,0.0,0.0,0.0,0.0,0.0,-3.596530187710556e-05,0.0003164410630754899,-4.2043365856392345e-05,-0.00016812626441575773,1.0106675566085022e-05,-0.00012490908304885195,-7.982607240997197e-06,-6.593844567611279e-06,0.000714733472842645,-0.0004898629867993345,-0.00011083694375575304,0.00027904133455649866,0.000123321217883518,6.664670477535433e-05,0.8354122042655945,46.40121078491211,5.711269855499268,-19.559053421020508,-0.7784934639930725,-2.3788485527038574,0.17978231608867645,0
64,0.3149986267089844,-0.8354122042655945,-46.40121078491211,-5.711269855499268,19.559053421020508,0.7784934639930725,2.3788485527038574,-0.17978231608867645,0.0,0.0,0.0,0.0,0.0,0.0,0.0,-0.8337274328248714,-0.09376680791036804,-0.5112677603640641,0.3488900302841777,0.1826599067097892,0.11231460177008502,-0.18977303849617894,0.8781288413723011,0.7551433083678654,-0.28251322180346433,-1.6689312351962977,0.14140848884166451,2.403570026450687,1.0273460828380452,0.878092876070424,0.7554597494309409,-0.2825552651693207,-1.6690993614607135,0.1414185955172306,2.4034451173676383,1.0273381002308042,6.593844567611279e-06,-0.000714733472842645,0.0004898629867993345,0.00011083694375575304,-0.00027904133455649866,-0.000123321217883518,-6.664670477535433e-05,0.0,0.0,0.0,0.0,0.0,0.0,0.0,-3.596530187710556e-05,0.0003164410630754899,-4.2043365856392345e-05,-0.00016812626441575773,1.0106675566085022e-05,-0.00012490908304885195,-7.982607240997197e-06,-6.593844567611279e-06,0.000714733472842645,-0.0004898629867993345,-0.00011083694375575304,0.00027904133455649866,0.000123321217883518,6.664670477535433e-05,0.8354122042655945,46.40121078491211,5.711269855499268,-19.559053421020508,-0.7784934639930725,-2.3788485527038574,0.17978231608867645,0
65,0.31999874114990234,-0.8076412081718445,-46.42501449584961,-5.687466144561768,19.559053421020508,0.7784934639930725,2.3788485527038574,-0.17978231608867645,0.0,0.0,0.0,0.0,0.0,0.0,0.0,-0.8356525283703935,-0.09113681023924043,-0.5125202195463573,0.34935124799092243,0.18323761982382994,0.11174373115787549,-0.18869616086325686,0.8781265542062533,0.7551449788076835,-0.2825148922393196,-1.6689312351962977,0.141407739430776,2.403570026450687,1.0273460828380452,0.878092876070424,0.7554597494309409,-0.2825552651693207,-1.6690993614607135,0.1414185955172306,2.4034451173676383,1.0273381002308042,-0.0008629682234976727,0.00046665097964123775,-6.438686305656537e-05,5.584087402898379e-05,-0.00039632336839729896,0.00020656797993371656,-0.000472399898962819,0.0,0.0,0.0,0.0,0.0,0.0,0.0,-3.3678135829329214e-05,0.0003147706232573544,-4.037293000114239e-05,-0.00016812626441575773,1.0856086454597014e-05,-0.00012490908304885195,-7.982607240997197e-06,0.0008629682234976727,-0.00046665097964123775,6.438686305656537e-05,-5.584087402898379e-05,0.00039632336839729896,-0.00020656797993371656,0.000472399898962819,0.8076412081718445,46.42501449584961,5.687466144561768,-19.559053421020508,-0.7784934639930725,-2.3788485527038574,0.17978231608867645,0
66,0.3249976634979248,-0.8076412081718445,-46.42501449584961,-5.687466144561768,19.559053421020508,0.7784934639930725,2.3788485527038574,-0.17978231608867645,0.0,0.0,0.0,0.0,0.0,0.0,0.0,-0.8356525283703935,-0.09113681023924043,-0.5125202195463573,0.34935124799092243,0.18323761982382994,0.11174373115787549,-0.18869616086325686,0.8781265542062533,0.7551449788076835,-0.2825148922393196,-1.6689312351962977,0.141407739430776,2.403570026450687,1.0273460828380452,0.878092876070424,0.7554597494309409,-0.2825552651693207,-1.6690993614607135,0.1414185955172306,2.4034451173676383,1.0273381002308042,-0.0008629682234976727,0.00046665097964123775,-6.438686305656537e-05,5.584087402898379e-05,-0.00039632336839729896,0.00020656797993371656,-0.000472399898962819,0.0,0.0,0.0,0.0,0.0,0.0,0.0,-3.3678135829329214e-05,0.0003147706232573544,-4.037293000114239e-05,-0.00016812626441575773,1.0856086454597014e-05,-0.00012490908304885195,-7.982607240997197e-06,0.0008629682234976727,-0.00046665097964123775,6.438686305656537e-05,-5.584087402898379e-05,0.00039632336839729896,-0.00020656797993371656,0.000472399898962819,0.8076412081718445,46.42501449584961,5.687466144561768,-19.559053421020508,-0.7784934639930725,-2.3788485527038574,0.17978231608867645,0
67,0.3300151824951172,-0.8354122042655945,-46.44881820678711,-5.663662433624268,19.559053421020508,0.7730002999305725,2.3916659355163574,-0.20724813640117645,0.0,0.0,0.0,0.0,0.0,0.0,0.0,-0.8268916669098687,-0.0982083818488909,-0.5081374197987303,0.35632957067069476,0.18351463834949008,0.11242606493673946,-0.18822834878128117,0.8781285030423548,0.7551466492435387,-0.28251656267517483,-1.6689312351962977,0.14140520039634133,2.403568602297041,1.0273491345958576,0.878092876070424,0.7554597494309409,-0.2825552651693207,-1.6690993614607135,0.1414185955172306,2.4034451173676383,1.0273381002308042,-0.00012312215588987493,0.0005836841349710256,-0.00033674847269888193,0.0001905448892534816,-0.0001913970048974689,-0.0003621969613939856,0.0005815347544093263,0.0,0.0,0.0,0.0,0.0,0.0,0.0,-3.5626971930824425e-05,0.00031310018740215995,-3.870249414589244e-05,-0.00016812626441575773,1.3395120889270196e-05,-0.00012348492940272848,-1.1034365053452788e-05,0.00012312215588987493,-0.0005836841349710256,0.00033674847269888193,-0.0001905448892534816,0.0001913970048974689,0.0003621969613939856,-0.0005815347544093263,0.8354122042655945,46.44881820678711,5.663662433624268,-19.559053421020508,-0.7730002999305725,-2.3916659355163574,0.20724813640117645,0
68,0.33499813079833984,-0.8354122042655945,-46.44881820678711,-5.663662433624268,19.559053421020508,0.7730002999305725,2.3916659355163574,-0.20724813640117645,0.0,0.0,0.0,0.0,0.0,0.0,0.0,-0.8268916669098687,-0.0982083818488909,-0.5081374197987303,0.35632957067069476,0.18351463834949008,0.11242606493673946,-0.18822834878128117,0.8781285030423548,0.7551466492435387,-0.28251656267517483,-1.6689312351962977,0.14140520039634133,2.403568602297041,1.0273491345958576,0.878092876070424,0.7554597494309409,-0.2825552651693207,-1.6690993614607135,0.1414185955172306,2.4034451173676383,1.0273381002308042,-0.00012312215588987493,0.0005836841349710256,-0.00033674847269888193,0.0001905448892534816,-0.0001913970048974689,-0.0003621969613939856,0.0005815347544093263,0.0,0.0,0.0,0.0,0.0,0.0,0.0,-3.5626971930824425e-05,0.00031310018740215995,-3.870249414589244e-05,-0.00016812626441575773,1.3395120889270196e-05,-0.00012348492940272848,-1.1034365053452788e-05,0.00012312215588987493,-0.0005836841349710256,0.00033674847269888193,-0.0001905448892534816,0.0001913970048974689,0.0003621969613939856,-0.0005815347544093263,0.8354122042655945,46.44881820678711,5.663662433624268,-19.559053421020508,-0.7730002999305725,-2.3916659355163574,0.20724813640117645,0
69,0.339993953704834,-0.8592159152030945,-46.37740707397461,-5.663662433624268,19.535249710083008,0.7665916085243225,2.3660311698913574,-0.17978231608867645,0.0,0.0,0.0,0.0,0.0,0.0,0.0,-0.8352360325359277,-0.09116563460533063,-0.5129967899729313,0.3511251241725284,0.18364075484092596,0.11199021331508156,-0.1875103418770033,0.8781302518003425,0.7551416369729959,-0.28251656267517483,-1.6689295647604423,0.1414069661841281,2.403571450604333,1.0273460828380452,0.878092876070424,0.7554597494309409,-0.2825552651693207,-1.6690993614607135,0.1414185955172306,2.4034451173676383,1.0273381002308042,0.0007195871913713984,-0.0011631191224529055,-0.0011045512777860696,0.00032072735461580117,0.0001779028753845158,0.0005537422116495089,-0.000555567646103682,0.0,0.0,0.0,0.0,0.0,0.0,0.0,-3.7375729918576184e-05,0.00031811245794499676,-3.870249414589244e-05,-0.00016979670027117422,1.1629333102503026e-05,-0.00012633323669453134,-7.982607240997197e-06,-0.0007195871913713984,0.0011631191224529055,0.0011045512777860696,-0.00032072735461580117,-0.0001779028753845158,-0.0005537422116495089,0.000555567646103682,0.8592159152030945,46.37740707397461,5.663662433624268,-19.535249710083008,-0.7665916085243225,-2.3660311698913574,0.17978231608867645,0
70,0.3449971675872803,-0.8592159152030945,-46.37740707397461,-5.663662433624268,19.535249710083008,0.7665916085243225,2.3660311698913574,-0.17978231608867645,0.0,0.0,0.0,0.0,0.0,0.0,0.0,-0.8352360325359277,-0.09116563460533063,-0.5129967899729313,0.3511251241725284,0.18364075484092596,0.11199021331508156,-0.1875103418770033,0.8781302518003425,0.7551416369729959,-0.28251656267517483,-1.6689295647604423,0.1414069661841281,2.403571450604333,1.0273460828380452,0.878092876070424,0.7554597494309409,-0.2825552651693207,-1.6690993614607135,0.1414185955172306,2.4034451173676383,1.0273381002308042,0.0007195871913713984,-0.0011631191224529055,-0.0011045512777860696,0.00032072735461580117,0.0001779028753845158,0.0005537422116495089,-0.000555567646103682,0.0,0.0,0.0,0.0,0.0,0.0,0.0,-3.7375729918576184e-05,0.00031811245794499676,-3.870249414589244e-05,-0.00016979670027117422,1.1629333102503026e-05,-0.00012633323669453134,-7.982607240997197e-06,-0.0007195871913713984,0.0011631191224529055,0.0011045512777860696,-0.00032072735461580117,-0.0001779028753845158,-0.0005537422116495089,0.000555567646103682,0.8592159152030945,46.37740707397461,5.663662433624268,-19.535249710083008,-0.7665916085243225,-2.3660311698913574,0.17978231608867645,0
71,0.3500044345855713,-0.8354122042655945,-46.40121078491211,-5.663662433624268,19.535249710083008,0.7730002999305725,2.3788485527038574,-0.21457235515117645,0.0,0.0,0.0,0.0,0.0,0.0,0.0,-0.8266068538121581,-0.1020760767897547,-0.5125882255748004,0.3564143770363518,0.18381411065846792,0.11266907855919384,-0.18825517446298817,0.8781288413687296,0.7551433083718229,-0.28251656267517483,-1.6689303594890392,0.14140823555307708,2.403570026450687,1.0273499483979411,0.878092876070424,0.7554597494309409,-0.2825552651693207,-1.6690993614607135,0.1414185955172306,2.4034451173676383,1.0273381002308042,0.0006367100857293072,-0.0006106648852084449,-0.0010092961337257555,0.0006254713803267342,-8.69392977052251e-05,0.00019465617762149203,0.0010773389735979483,0.0,0.0,0.0,0.0,0.0,0.0,0.0,-3.596529830562911e-05,0.0003164410591179889,-3.870249414589244e-05,-0.00016900197167424302,1.035996415352236e-05,-0.00012490908304885195,-1.1848167136951915e-05,-0.0006367100857293072,0.0006106648852084449,0.0010092961337257555,-0.0006254713803267342,8.69392977052251e-05,-0.00019465617762149203,-0.0010773389735979483,0.8354122042655945,46.40121078491211,5.663662433624268,-19.535249710083008,-0.7730002999305725,-2.3788485527038574,0.21457235515117645,0
72,0.354992151260376,-0.8354122042655945,-46.40121078491211,-5.663662433624268,19.535249710083008,0.7730002999305725,2.3788485527038574,-0.21457235515117645,0.0,0.0,0.0,0.0,0.0,0.0,0.0,-0.8266068538121581,-0.1020760767897547,-0.5125882255748004,0.3564143770363518,0.18381411065846792,0.11266907855919384,-0.18825517446298817,0.8781288413687296,0.7551433083718229,-0.28251656267517483,-1.6689303594890392,0.14140823555307708,2.403570026450687,1.0273499483979411,0.878092876070424,0.7554597494309409,-0.2825552651693207,-1.6690993614607135,0.1414185955172306,2.4034451173676383,1.0273381002308042,0.0006367100857293072,-0.0006106648852084449,-0.0010092961337257555,0.0006254713803267342,-8.69392977052251e-05,0.00019465617762149203,0.0010773389735979483,0.0,0.0,0.0,0.0,0.0,0.0,0.0,-3.596529830562911e-05,0.0003164410591179889,-3.870249414589244e-05,-0.00016900197167424302,1.035996415352236e-05,-0.00012490908304885195,-1.1848167136951915e-05,-0.0006367100857293072,0.0006106648852084449,0.0010092961337257555,-0.0006254713803267342,8.69392977052251e-05,-0.00019465617762149203,-0.0010773389735979483,0.8354122042655945,46.40121078491211,5.663662433624268,-19.535249710083008,-0.7730002999305725,-2.3788485527038574,0.21457235515117645,0
73,0.35999560356140137,-0.8354122042655945,-46.44881820678711,-5.663662433624268,19.559053421020508,0.7665916085243225,2.3724398612976074,-0.22830526530742645,0.0,0.0,0.0,0.0,0.0,0.0,0.0,-0.8400401822176133,-0.08874928955597748,-0.5248962403551762,0.3461857198377024,0.18420158559817854,0.11192336219416266,-0.18887285880878588,0.8781285030429914,0.7551466492435387,-0.2825165597196227,-1.668931473652711,0.14140550946335775,2.40357073852751,1.0273514742768473,0.878092876070424,0.7554597494309409,-0.2825552651693207,-1.6690993614607135,0.1414185955172306,2.4034451173676383,1.0273381002308042,-1.2023084062486516e-05,0.0008520921447251926,-0.0007580781259979519,-0.0001239884212450035,7.307103302258898e-05,0.0001657570592936354,0.0016557465069246995,0.0,0.0,0.0,0.0,0.0,0.0,0.0,-3.562697256742631e-05,0.00031310018740215995,-3.8705449698028804e-05,-0.00016788780800247594,1.3086053872846115e-05,-0.00012562115987169165,-1.3374046043068688e-05,1.2023084062486516e-05,-0.0008520921447251926,0.0007580781259979519,0.0001239884212450035,-7.307103302258898e-05,-0.0001657570592936354,-0.0016557465069246995,0.8354122042655945,46.44881820678711,5.663662433624268,-19.559053421020508,-0.7665916085243225,-2.3724398612976074,0.22830526530742645,0
74,0.364992618560791,-0.8354122042655945,-46.44881820678711,-5.663662433624268,19.559053421020508,0.7665916085243225,2.3724398612976074,-0.22830526530742645,0.0,0.0,0.0,0.0,0.0,0.0,0.0,-0.8400401822176133,-0.08874928955597748,-0.5248962403551762,0.3461857198377024,0.18420158559817854,0.11192336219416266,-0.18887285880878588,0.8781285030429914,0.7551466492435387,-0.2825165597196227,-1.668931473652711,0.14140550946335775,2.40357073852751,1.0273514742768473,0.878092876070424,0.7554597494309409,-0.2825552651693207,-1.6690993614607135,0.1414185955172306,2.4034451173676383,1.0273381002308042,-1.2023084062486516e-05,0.0008520921447251926,-0.0007580781259979519,-0.0001239884212450035,7.307103302258898e-05,0.0001657570592936354,0.0016557465069246995,0.0,0.0,0.0,0.0,0.0,0.0,0.0,-3.562697256742631e-05,0.00031310018740215995,-3.8705449698028804e-05,-0.00016788780800247594,1.3086053872846115e-05,-0.00012562115987169165,-1.3374046043068688e-05,1.2023084062486516e-05,-0.0008520921447251926,0.0007580781259979519,0.0001239884212450035,-7.307103302258898e-05,-0.0001657570592936354,-0.0016557465069246995,0.8354122042655945,46.44881820678711,5.663662433624268,-19.559053421020508,-0.7665916085243225,-2.3724398612976074,0.22830526530742645,0
75,0.3699924945831299,-0.8076412081718445,-46.40121078491211,-5.687466144561768,19.535249710083008,0.7730002999305725,2.3788485527038574,-0.20083944499492645,0.0,0.0,0.0,0.0,0.0,0.0,0.0,-0.8180344420171651,-0.08161260830581889,-0.5090898757353011,0.34300819724510095,0.18424752063654898,0.11120056195827262,-0.18929925985378065,0.8781288945557183,0.7551433083718282,-0.28251489223930293,-1.6689295647617883,0.14140786956361362,2.403570026450687,1.0273484225190348,0.878092876070424,0.7554597494309409,-0.2825552651693207,-1.6690993614607135,0.1414185955172306,2.4034451173676383,1.0273381002308042,-0.0004259494091028962,-8.023048097304357e-05,-2.7849786748273687e-05,0.00019215747273079907,-0.00017122169317504757,-6.780528056391709e-05,0.000689563995617721,0.0,0.0,0.0,0.0,0.0,0.0,0.0,-3.601848529433127e-05,0.00031644105911265985,-4.037293001779574e-05,-0.00016979669892513982,1.0725953616980144e-05,-0.00012490908304885195,-1.0322288230613097e-05,0.0004259494091028962,8.023048097304357e-05,2.7849786748273687e-05,-0.00019215747273079907,0.00017122169317504757,6.780528056391709e-05,-0.000689563995617721,0.8076412081718445,46.40121078491211,5.687466144561768,-19.535249710083008,-0.7730002999305725,-2.3788485527038574,0.20083944499492645,0
76,0.37494754791259766,-0.8076412081718445,-46.40121078491211,-5.687466144561768,19.535249710083008,0.7730002999305725,2.3788485527038574,-0.20083944499492645,0.0,0.0,0.0,0.0,0.0,0.0,0.0,-0.8180344420171651,-0.08161260830581889,-0.5090898757353011,0.34300819724510095,0.18424752063654898,0.11120056195827262,-0.18929925985378065,0.8781288945557183,0.7551433083718282,-0.28251489223930293,-1.6689295647617883,0.14140786956361362,2.403570026450687,1.0273484225190348,0.878092876070424,0.7554597494309409,-0.2825552651693207,-1.6690993614607135,0.1414185955172306,2.4034451173676383,1.0273381002308042,-0.0004259494091028962,-8.023048097304357e-05,-2.7849786748273687e-05,0.00019215747273079907,-0.00017122169317504757,-6.780528056391709e-05,0.000689563995617721,0.0,0.0,0.0,0.0,0.0,0.0,0.0,-3.601848529433127e-05,0.00031644105911265985,-4.037293001779574e-05,-0.00016979669892513982,1.0725953616980144e-05,-0.00012490908304885195,-1.0322288230613097e-05,0.0004259494091028962,8.023048097304357e-05,2.7849786748273687e-05,-0.00019215747273079907,0.00017122169317504757,6.780528056391709e-05,-0.000689563995617721,0.8076412081718445,46.40121078491211,5.687466144561768,-19.535249710083008,-0.7730002999305725,-2.3788485527038574,0.20083944499492645,0
77,0.38000965118408203,-0.8354122042655945,-46.44881820678711,-5.711269855499268,19.535249710083008,0.7730002999305725,2.3788485527038574,-0.18710653483867645,0.0,0.0,0.0,0.0,0.0,0.0,0.0,-0.8263962311206758,-0.08569433445548479,-0.5191514053914391,0.344740550242816,0.18429858866901286,0.11226270489115407,-0.18941991682651177,0.8781306105129809,0.7551466492435387,-0.28251322180346433,-1.6689295647604423,0.141405742655894,2.403570026450687,1.0273468966401285,0.878092876070424,0.7554597494309409,-0.2825552651693207,-1.6690993614607135,0.1414185955172306,2.4034451173676383,1.0273381002308042,0.0002949167534525756,0.001188699411241831,0.0003481888059713717,0.000691213737307085,-0.0002346158715776281,8.045412779528263e-05,0.00017886190994491425,0.0,0.0,0.0,0.0,0.0,0.0,0.0,-3.773444255694702e-05,0.00031310018740215995,-4.2043365856392345e-05,-0.00016979670027117422,1.2852861336593024e-05,-0.00012490908304885195,-8.796409324274279e-06,-0.0002949167534525756,-0.001188699411241831,-0.0003481888059713717,-0.000691213737307085,0.0002346158715776281,-8.045412779528263e-05,-0.00017886190994491425,0.8354122042655945,46.44881820678711,5.711269855499268,-19.535249710083008,-0.7730002999305725,-2.3788485527038574,0.18710653483867645,0
78,0.384995698928833,-0.8354122042655945,-46.44881820678711,-5.711269855499268,19.535249710083008,0.7730002999305725,2.3788485527038574,-0.18710653483867645,0.0,0.0,0.0,0.0,0.0,0.0,0.0,-0.8263962311206758,-0.08569433445548479,-0.5191514053914391,0.344740550242816,0.18429858866901286,0.11226270489115407,-0.18941991682651177,0.8781306105129809,0.7551466492435387,-0.28251322180346433,-1.6689295647604423,0.141405742655894,2.403570026450687,1.0273468966401285,0.878092876070424,0.7554597494309409,-0.2825552651693207,-1.6690993614607135,0.1414185955172306,2.4034451173676383,1.0273381002308042,0.0002949167534525756,0.001188699411241831,0.0003481888059713717,0.000691213737307085,-0.0002346158715776281,8.045412779528263e-05,0.00017886190994491425,0.0,0.0,0.0,0.0,0.0,0.0,0.0,-3.773444255694702e-05,0.00031310018740215995,-4.2043365856392345e-05,-0.00016979670027117422,1.2852861336593024e-05,-0.00012490908304885195,-8.796409324274279e-06,-0.0002949167534525756,-0.001188699411241831,-0.0003481888059713717,-0.000691213737307085,0.0002346158715776281,-8.045412779528263e-05,-0.00017886190994491425,0.8354122042655945,46.44881820678711,5.711269855499268,-19.535249710083008,-0.7730002999305725,-2.3788485527038574,0.18710653483867645,0
79,0.39003610610961914,-0.8354122042655945,-46.44881820678711,-5.711269855499268,19.535249710083008,0.7730002999305725,2.3788485527038574,-0.18710653483867645,0.0,0.0,0.0,0.0,0.0,0.0,0.0,-0.8263962311206758,-0.08569433445548479,-0.5191514053914391,0.344740550242816,0.18429858866901286,0.11226270489115407,-0.18941991682651177,0.8781306105129809,0.7551466492435387,-0.28251322180346433,-1.6689295647604423,0.141405742655894,2.403570026450687,1.0273468966401285,0.878092876070424,0.7554597494309409,-0.2825552651693207,-1.6690993614607135,0.1414185955172306,2.4034451173676383,1.0273381002308042,0.0002949167534525756,0.001188699411241831,0.0003481888059713717,0.000691213737307085,-0.0002346158715776281,8.045412779528263e-05,0.00017886190994491425,0.0,0.0,0.0,0.0,0.0,0.0,0.0,-3.773444255694702e-05,0.00031310018740215995,-4.2043365856392345e-05,-0.00016979670027117422,1.2852861336593024e-05,-0.00012490908304885195,-8.796409324274279e-06,-0.0002949167534525756,-0.001188699411241831,-0.0003481888059713717,-0.000691213737307085,0.0002346158715776281,-8.045412779528263e-05,-0.00017886190994491425,0.8354122042655945,46.44881820678711,5.711269855499268,-19.535249710083008,-0.7730002999305725,-2.3788485527038574,0.18710653483867645,0
80,0.3950057029724121,-0.8354122042655945,-46.44881820678711,-5.711269855499268,19.535249710083008,0.7730002999305725,2.3788485527038574,-0.18710653483867645,0.0,0.0,0.0,0.0,0.0,0.0,0.0,-0.8263962311206758,-0.08569433445548479,-0.5191514053914391,0.344740550242816,0.18429858866901286,0.11226270489115407,-0.18941991682651177,0.8781306105129809,0.7551466492435387,-0.28251322180346433,-1.6689295647604423,0.141405742655894,2.403570026450687,1.0273468966401285,0.878092876070424,0.7554597494309409,-0.2825552651693207,-1.6690993614607135,0.1414185955172306,2.4034451173676383,1.0273381002308042,0.0002949167534525756,0.001188699411241831,0.0003481888059713717,0.000691213737307085,-0.0002346158715776281,8.045412779528263e-05,0.00017886190994491425,0.0,0.0,0.0,0.0,0.0,0.0,0.0,-3.773444255694702e-05,0.00031310018740215995,-4.2043365856392345e-05,-0.00016979670027117422,1.2852861336593024e-05,-0.00012490908304885195,-8.796409324274279e-06,-0.0002949167534525756,-0.001188699411241831,-0.0003481888059713717,-0.000691213737307085,0.0002346158715776281,-8.045412779528263e-05,-0.00017886190994491425,0.8354122042655945,46.44881820678711,5.711269855499268,-19.535249710083008,-0.7730002999305725,-2.3788485527038574,0.18710653483867645,0
