rezayati/contactInterpretation/dataset/franka_main/labeled_data/link5/c9_7.csv
index,time,tau_J0,tau_J1,tau_J2,tau_J3,tau_J4,tau_J5,tau_J6,tau_J_d0,tau_J_d1,tau_J_d2,tau_J_d3,tau_J_d4,tau_J_d5,tau_J_d6,tau_ext0,tau_ext1,tau_ext2,tau_ext3,tau_ext4,tau_ext5,tau_ext6,q0,q1,q2,q3,q4,q5,q6,q_d0,q_d1,q_d2,q_d3,q_d4,q_d5,q_d6,dq0,dq1,dq2,dq3,dq4,dq5,dq6,dq_d0,dq_d1,dq_d2,dq_d3,dq_d4,dq_d5,dq_d6,e0,e1,e2,e3,e4,e5,e6,de0,de1,de2,de3,de4,de5,de6,etau_J0,etau_J1,etau_J2,etau_J3,etau_J4,etau_J5,etau_J6,label
1,0.0,-0.14510458707809448,-11.750940322875977,1.1680023670196533,21.741060256958008,0.4690452218055725,2.5271639823913574,-0.22830526530742645,0.0,0.0,0.0,0.0,0.0,0.0,0.0,-0.15061429311524197,0.5479880784448516,0.002078421156036825,0.4610111321849441,-0.06524344041375035,0.1287946061183352,-0.22201121843152924,0.1728227191368739,-0.48764824273561574,-0.11143939321187504,-1.9462236645514503,0.13374935903152105,2.595545591407352,0.945249950382712,0.1728802376190821,-0.48752024683155326,-0.11147110072896137,-1.9463801863486305,0.1336059019074957,2.595550359778934,0.9452445589611904,-0.00014703044770331483,-0.0003507634093146603,0.0004914127634773136,-1.5991378467936586e-05,-3.414763646601882e-05,4.543335088024815e-05,-1.588021266111511e-06,0.0,0.0,0.0,0.0,0.0,0.0,0.0,5.75184822082242e-05,0.0001279959040624834,-3.170751708632402e-05,-0.00015652179718017578,-0.00014345712402535904,4.76837158203125e-06,-5.391421521561135e-06,0.00014703044770331483,0.0003507634093146603,-0.0004914127634773136,1.5991378467936586e-05,3.414763646601882e-05,-4.543335088024815e-05,1.588021266111511e-06,0.14510458707809448,11.750940322875977,-1.1680023670196533,-21.741060256958008,-0.4690452218055725,-2.5271639823913574,0.22830526530742645,0
2,0.0050089359283447266,-0.14510458707809448,-11.750940322875977,1.1680023670196533,21.741060256958008,0.4690452218055725,2.5271639823913574,-0.22830526530742645,0.0,0.0,0.0,0.0,0.0,0.0,0.0,-0.15061429311524197,0.5479880784448516,0.002078421156036825,0.4610111321849441,-0.06524344041375035,0.1287946061183352,-0.22201121843152924,0.1728227191368739,-0.48764824273561574,-0.11143939321187504,-1.9462236645514503,0.13374935903152105,2.595545591407352,0.945249950382712,0.1728802376190821,-0.48752024683155326,-0.11147110072896137,-1.9463801863486305,0.1336059019074957,2.595550359778934,0.9452445589611904,-0.00014703044770331483,-0.0003507634093146603,0.0004914127634773136,-1.5991378467936586e-05,-3.414763646601882e-05,4.543335088024815e-05,-1.588021266111511e-06,0.0,0.0,0.0,0.0,0.0,0.0,0.0,5.75184822082242e-05,0.0001279959040624834,-3.170751708632402e-05,-0.00015652179718017578,-0.00014345712402535904,4.76837158203125e-06,-5.391421521561135e-06,0.00014703044770331483,0.0003507634093146603,-0.0004914127634773136,1.5991378467936586e-05,3.414763646601882e-05,-4.543335088024815e-05,1.588021266111511e-06,0.14510458707809448,11.750940322875977,-1.1680023670196533,-21.741060256958008,-0.4690452218055725,-2.5271639823913574,0.22830526530742645,0
3,0.010008573532104492,-0.14510458707809448,-11.750940322875977,1.1680023670196533,21.741060256958008,0.4690452218055725,2.5271639823913574,-0.22830526530742645,0.0,0.0,0.0,0.0,0.0,0.0,0.0,-0.15061429311524197,0.5479880784448516,0.002078421156036825,0.4610111321849441,-0.06524344041375035,0.1287946061183352,-0.22201121843152924,0.1728227191368739,-0.48764824273561574,-0.11143939321187504,-1.9462236645514503,0.13374935903152105,2.595545591407352,0.945249950382712,0.1728802376190821,-0.48752024683155326,-0.11147110072896137,-1.9463801863486305,0.1336059019074957,2.595550359778934,0.9452445589611904,-0.00014703044770331483,-0.0003507634093146603,0.0004914127634773136,-1.5991378467936586e-05,-3.414763646601882e-05,4.543335088024815e-05,-1.588021266111511e-06,0.0,0.0,0.0,0.0,0.0,0.0,0.0,5.75184822082242e-05,0.0001279959040624834,-3.170751708632402e-05,-0.00015652179718017578,-0.00014345712402535904,4.76837158203125e-06,-5.391421521561135e-06,0.00014703044770331483,0.0003507634093146603,-0.0004914127634773136,1.5991378467936586e-05,3.414763646601882e-05,-4.543335088024815e-05,1.588021266111511e-06,0.14510458707809448,11.750940322875977,-1.1680023670196533,-21.741060256958008,-0.4690452218055725,-2.5271639823913574,0.22830526530742645,0
4,0.015003442764282227,-0.14510458707809448,-11.750940322875977,1.1680023670196533,21.741060256958008,0.4690452218055725,2.5271639823913574,-0.22830526530742645,0.0,0.0,0.0,0.0,0.0,0.0,0.0,-0.15061429311524197,0.5479880784448516,0.002078421156036825,0.4610111321849441,-0.06524344041375035,0.1287946061183352,-0.22201121843152924,0.1728227191368739,-0.48764824273561574,-0.11143939321187504,-1.9462236645514503,0.13374935903152105,2.595545591407352,0.945249950382712,0.1728802376190821,-0.48752024683155326,-0.11147110072896137,-1.9463801863486305,0.1336059019074957,2.595550359778934,0.9452445589611904,-0.00014703044770331483,-0.0003507634093146603,0.0004914127634773136,-1.5991378467936586e-05,-3.414763646601882e-05,4.543335088024815e-05,-1.588021266111511e-06,0.0,0.0,0.0,0.0,0.0,0.0,0.0,5.75184822082242e-05,0.0001279959040624834,-3.170751708632402e-05,-0.00015652179718017578,-0.00014345712402535904,4.76837158203125e-06,-5.391421521561135e-06,0.00014703044770331483,0.0003507634093146603,-0.0004914127634773136,1.5991378467936586e-05,3.414763646601882e-05,-4.543335088024815e-05,1.588021266111511e-06,0.14510458707809448,11.750940322875977,-1.1680023670196533,-21.741060256958008,-0.4690452218055725,-2.5271639823913574,0.22830526530742645,0
5,0.02000260353088379,-0.17287558317184448,-11.750940322875977,1.1680023670196533,21.768831253051758,0.4809470772743225,2.5271639823913574,-0.24844686686992645,0.0,0.0,0.0,0.0,0.0,0.0,0.0,-0.1571429920231418,0.5661792160640348,-0.008052692017199669,0.45246532034680537,-0.06480638647892524,0.12740071602807249,-0.22395519606907896,0.17282466797870502,-0.48764673294419514,-0.11143939321187504,-1.9462256133932814,0.1337480366031329,2.595545591407352,0.9452521883563861,0.1728802376190821,-0.48752024683155326,-0.11147110072896137,-1.9463801863486305,0.1336059019074957,2.595550359778934,0.9452445589611904,-0.0007671508436603912,0.00036887841271670543,0.0002998205951713843,-0.0005836937654759178,-0.0004840409791938517,-0.00011684580404828197,0.001237703883096091,0.0,0.0,0.0,0.0,0.0,0.0,0.0,5.556964037709e-05,0.00012648611264187704,-3.170751708632402e-05,-0.0001545729553491526,-0.0001421346956372027,4.76837158203125e-06,-7.62939519571848e-06,0.0007671508436603912,-0.00036887841271670543,-0.0002998205951713843,0.0005836937654759178,0.0004840409791938517,0.00011684580404828197,-0.001237703883096091,0.17287558317184448,11.750940322875977,-1.1680023670196533,-21.768831253051758,-0.4809470772743225,-2.5271639823913574,0.24844686686992645,0
6,0.02500152587890625,-0.17287558317184448,-11.750940322875977,1.1680023670196533,21.768831253051758,0.4809470772743225,2.5271639823913574,-0.24844686686992645,0.0,0.0,0.0,0.0,0.0,0.0,0.0,-0.1571429920231418,0.5661792160640348,-0.008052692017199669,0.45246532034680537,-0.06480638647892524,0.12740071602807249,-0.22395519606907896,0.17282466797870502,-0.48764673294419514,-0.11143939321187504,-1.9462256133932814,0.1337480366031329,2.595545591407352,0.9452521883563861,0.1728802376190821,-0.48752024683155326,-0.11147110072896137,-1.9463801863486305,0.1336059019074957,2.595550359778934,0.9452445589611904,-0.0007671508436603912,0.00036887841271670543,0.0002998205951713843,-0.0005836937654759178,-0.0004840409791938517,-0.00011684580404828197,0.001237703883096091,0.0,0.0,0.0,0.0,0.0,0.0,0.0,5.556964037709e-05,0.00012648611264187704,-3.170751708632402e-05,-0.0001545729553491526,-0.0001421346956372027,4.76837158203125e-06,-7.62939519571848e-06,0.0007671508436603912,-0.00036887841271670543,-0.0002998205951713843,0.0005836937654759178,0.0004840409791938517,0.00011684580404828197,-0.001237703883096091,0.17287558317184448,11.750940322875977,-1.1680023670196533,-21.768831253051758,-0.4809470772743225,-2.5271639823913574,0.24844686686992645,0
7,0.029997587203979492,-0.12130087614059448,-11.699365615844727,1.1441986560821533,21.741060256958008,0.4690452218055725,2.5335726737976074,-0.20083944499492645,0.0,0.0,0.0,0.0,0.0,0.0,0.0,-0.15624602407568122,0.5635553782851632,0.00047519236665924825,0.4558444513546393,-0.0648843642179009,0.12715370338880894,-0.22552065014760478,0.1728210516172038,-0.4876497154493348,-0.11143772277601978,-1.946223690061257,0.13374935951906328,2.595544879330529,0.9452468986428446,0.1728802376190821,-0.48752024683155326,-0.11147110072896137,-1.9463801863486305,0.1336059019074957,2.595550359778934,0.9452445589611904,-0.0012460733496126731,-0.0013414467822389826,0.0007649206496709865,-0.00036437735371417637,-9.253281173776495e-05,-0.0002719848287761085,-0.002985449689968862,0.0,0.0,0.0,0.0,0.0,0.0,0.0,5.918600187831968e-05,0.00012946861778151408,-3.337795294158785e-05,-0.00015649628737346433,-0.00014345761156758785,5.480448404870941e-06,-2.3396816541954024e-06,0.0012460733496126731,0.0013414467822389826,-0.0007649206496709865,0.00036437735371417637,9.253281173776495e-05,0.0002719848287761085,0.002985449689968862,0.12130087614059448,11.699365615844727,-1.1441986560821533,-21.741060256958008,-0.4690452218055725,-2.5335726737976074,0.20083944499492645,0
8,0.035024166107177734,-0.12130087614059448,-11.699365615844727,1.1441986560821533,21.741060256958008,0.4690452218055725,2.5335726737976074,-0.20083944499492645,0.0,0.0,0.0,0.0,0.0,0.0,0.0,-0.15624602407568122,0.5635553782851632,0.00047519236665924825,0.4558444513546393,-0.0648843642179009,0.12715370338880894,-0.22552065014760478,0.1728210516172038,-0.4876497154493348,-0.11143772277601978,-1.946223690061257,0.13374935951906328,2.595544879330529,0.9452468986428446,0.1728802376190821,-0.48752024683155326,-0.11147110072896137,-1.9463801863486305,0.1336059019074957,2.595550359778934,0.9452445589611904,-0.0012460733496126731,-0.0013414467822389826,0.0007649206496709865,-0.00036437735371417637,-9.253281173776495e-05,-0.0002719848287761085,-0.002985449689968862,0.0,0.0,0.0,0.0,0.0,0.0,0.0,5.918600187831968e-05,0.00012946861778151408,-3.337795294158785e-05,-0.00015649628737346433,-0.00014345761156758785,5.480448404870941e-06,-2.3396816541954024e-06,0.0012460733496126731,0.0013414467822389826,-0.0007649206496709865,0.00036437735371417637,9.253281173776495e-05,0.0002719848287761085,0.002985449689968862,0.12130087614059448,11.699365615844727,-1.1441986560821533,-21.741060256958008,-0.4690452218055725,-2.5335726737976074,0.20083944499492645,0
9,0.039995431900024414,-0.17287558317184448,-11.774744033813477,1.1680023670196533,21.717256546020508,0.4745383858680725,2.5207552909851074,-0.17337362468242645,0.0,0.0,0.0,0.0,0.0,0.0,0.0,-0.18976500119113443,0.5656871746649546,-0.0544261281189322,0.4541769654148518,-0.06293605525014798,0.12780156061110312,-0.22678037867447362,0.17282466797872148,-0.4876465191716015,-0.11143939321187504,-1.946221994115739,0.13374874867995853,2.595546303484175,0.9452438468850322,0.1728802376190821,-0.48752024683155326,-0.11147110072896137,-1.9463801863486305,0.1336059019074957,2.595550359778934,0.9452445589611904,0.000250837864263797,0.0008617012790822796,0.0008507205523761484,0.00023389575302344023,-0.0073218993982839455,0.00016161883613720685,-0.0022731186798013825,0.0,0.0,0.0,0.0,0.0,0.0,0.0,5.5569640360630945e-05,0.00012627234004825016,-3.170751708632402e-05,-0.00015819223289148532,-0.00014284677246284572,4.056294759191559e-06,7.120761582601887e-07,-0.000250837864263797,-0.0008617012790822796,-0.0008507205523761484,-0.00023389575302344023,0.0073218993982839455,-0.00016161883613720685,0.0022731186798013825,0.17287558317184448,11.774744033813477,-1.1680023670196533,-21.717256546020508,-0.4745383858680725,-2.5207552909851074,0.17337362468242645,0
10,0.04594016075134277,-0.17287558317184448,-11.774744033813477,1.1680023670196533,21.717256546020508,0.4745383858680725,2.5207552909851074,-0.17337362468242645,0.0,0.0,0.0,0.0,0.0,0.0,0.0,-0.18976500119113443,0.5656871746649546,-0.0544261281189322,0.4541769654148518,-0.06293605525014798,0.12780156061110312,-0.22678037867447362,0.17282466797872148,-0.4876465191716015,-0.11143939321187504,-1.946221994115739,0.13374874867995853,2.595546303484175,0.9452438468850322,0.1728802376190821,-0.48752024683155326,-0.11147110072896137,-1.9463801863486305,0.1336059019074957,2.595550359778934,0.9452445589611904,0.000250837864263797,0.0008617012790822796,0.0008507205523761484,0.00023389575302344023,-0.0073218993982839455,0.00016161883613720685,-0.0022731186798013825,0.0,0.0,0.0,0.0,0.0,0.0,0.0,5.5569640360630945e-05,0.00012627234004825016,-3.170751708632402e-05,-0.00015819223289148532,-0.00014284677246284572,4.056294759191559e-06,7.120761582601887e-07,-0.000250837864263797,-0.0008617012790822796,-0.0008507205523761484,-0.00023389575302344023,0.0073218993982839455,-0.00016161883613720685,0.0022731186798013825,0.17287558317184448,11.774744033813477,-1.1680023670196533,-21.717256546020508,-0.4745383858680725,-2.5207552909851074,0.17337362468242645,0
11,0.04999566078186035,-0.12130087614059448,-11.750940322875977,1.2433807849884033,21.741060256958008,0.4745383858680725,2.5271639823913574,-0.19351522624492645,0.0,0.0,0.0,0.0,0.0,0.0,0.0,-0.1522955093288768,0.5629076862280833,0.004117764003820642,0.4550088787548076,-0.06565648200054226,0.12736287095029178,-0.2271009492455225,0.1728210487010186,-0.487646016488979,-0.11144468292541672,-1.9462236645514503,0.13374874916750076,2.595545591407352,0.9452460848407613,0.1728802376190821,-0.48752024683155326,-0.11147110072896137,-1.9463801863486305,0.1336059019074957,2.595550359778934,0.9452445589611904,-0.0006210401831194685,-0.0002830770898211606,-0.0006843962029830535,-8.578384936576665e-05,-0.0005201502813186113,-8.488348991665953e-07,-0.0008696454869750123,0.0,0.0,0.0,0.0,0.0,0.0,0.0,5.9188918063501905e-05,0.00012576965742572277,-2.641780354464829e-05,-0.00015652179718017578,-0.00014284726000507453,4.76837158203125e-06,-1.5258795709183204e-06,0.0006210401831194685,0.0002830770898211606,0.0006843962029830535,8.578384936576665e-05,0.0005201502813186113,8.488348991665953e-07,0.0008696454869750123,0.12130087614059448,11.750940322875977,-1.2433807849884033,-21.741060256958008,-0.4745383858680725,-2.5271639823913574,0.19351522624492645,0
12,0.054998159408569336,-0.12130087614059448,-11.750940322875977,1.2433807849884033,21.741060256958008,0.4745383858680725,2.5271639823913574,-0.19351522624492645,0.0,0.0,0.0,0.0,0.0,0.0,0.0,-0.1522955093288768,0.5629076862280833,0.004117764003820642,0.4550088787548076,-0.06565648200054226,0.12736287095029178,-0.2271009492455225,0.1728210487010186,-0.487646016488979,-0.11144468292541672,-1.9462236645514503,0.13374874916750076,2.595545591407352,0.9452460848407613,0.1728802376190821,-0.48752024683155326,-0.11147110072896137,-1.9463801863486305,0.1336059019074957,2.595550359778934,0.9452445589611904,-0.0006210401831194685,-0.0002830770898211606,-0.0006843962029830535,-8.578384936576665e-05,-0.0005201502813186113,-8.488348991665953e-07,-0.0008696454869750123,0.0,0.0,0.0,0.0,0.0,0.0,0.0,5.9188918063501905e-05,0.00012576965742572277,-2.641780354464829e-05,-0.00015652179718017578,-0.00014284726000507453,4.76837158203125e-06,-1.5258795709183204e-06,0.0006210401831194685,0.0002830770898211606,0.0006843962029830535,8.578384936576665e-05,0.0005201502813186113,8.488348991665953e-07,0.0008696454869750123,0.12130087614059448,11.750940322875977,-1.2433807849884033,-21.741060256958008,-0.4745383858680725,-2.5271639823913574,0.19351522624492645,0
13,0.06002330780029297,-0.14510458707809448,-11.802515029907227,1.1918060779571533,21.717256546020508,0.4690452218055725,2.5207552909851074,-0.23471395671367645,0.0,0.0,0.0,0.0,0.0,0.0,0.0,-0.14800098386431274,0.5662618179478686,0.011350816006778081,0.4501277914734853,-0.06647715366279053,0.12692239327833324,-0.22514747349838285,0.1728227191368739,-0.48764239741705784,-0.1114410636477303,-1.946221994115595,0.13374935903152105,2.595546303484175,0.94525066247748,0.1728802376190821,-0.48752024683155326,-0.11147110072896137,-1.9463801863486305,0.1336059019074957,2.595550359778934,0.9452445589611904,0.00022738291703863108,0.0010790494895954693,0.0001915477186869919,0.0006751195375411097,0.009393649465497264,0.00016347116222203785,0.0010357081413370026,0.0,0.0,0.0,0.0,0.0,0.0,0.0,5.75184822082242e-05,0.0001221505855045768,-3.0037081231060192e-05,-0.00015819223303559227,-0.00014345712402535904,4.056294759191559e-06,-6.103516289601707e-06,-0.00022738291703863108,-0.0010790494895954693,-0.0001915477186869919,-0.0006751195375411097,-0.009393649465497264,-0.00016347116222203785,-0.0010357081413370026,0.14510458707809448,11.802515029907227,-1.1918060779571533,-21.717256546020508,-0.4690452218055725,-2.5207552909851074,0.23471395671367645,0
14,0.0650022029876709,-0.14510458707809448,-11.802515029907227,1.1918060779571533,21.717256546020508,0.4690452218055725,2.5207552909851074,-0.23471395671367645,0.0,0.0,0.0,0.0,0.0,0.0,0.0,-0.14800098386431274,0.5662618179478686,0.011350816006778081,0.4501277914734853,-0.06647715366279053,0.12692239327833324,-0.22514747349838285,0.1728227191368739,-0.48764239741705784,-0.1114410636477303,-1.946221994115595,0.13374935903152105,2.595546303484175,0.94525066247748,0.1728802376190821,-0.48752024683155326,-0.11147110072896137,-1.9463801863486305,0.1336059019074957,2.595550359778934,0.9452445589611904,0.00022738291703863108,0.0010790494895954693,0.0001915477186869919,0.0006751195375411097,0.009393649465497264,0.00016347116222203785,0.0010357081413370026,0.0,0.0,0.0,0.0,0.0,0.0,0.0,5.75184822082242e-05,0.0001221505855045768,-3.0037081231060192e-05,-0.00015819223303559227,-0.00014345712402535904,4.056294759191559e-06,-6.103516289601707e-06,-0.00022738291703863108,-0.0010790494895954693,-0.0001915477186869919,-0.0006751195375411097,-0.009393649465497264,-0.00016347116222203785,-0.0010357081413370026,0.14510458707809448,11.802515029907227,-1.1918060779571533,-21.717256546020508,-0.4690452218055725,-2.5207552909851074,0.23471395671367645,0
15,0.07000923156738281,-0.12130087614059448,-11.802515029907227,1.1680023670196533,21.768831253051758,0.4690452218055725,2.5207552909851074,-0.17978231608867645,0.0,0.0,0.0,0.0,0.0,0.0,0.0,-0.14546927701700085,0.5611777677340901,0.011676880433905957,0.4486497654109892,-0.06687543359608693,0.1267158200215704,-0.22347145175947725,0.1728210487010186,-0.4876452669796159,-0.11143939321187504,-1.9462256908675095,0.1337493590315183,2.595546303484175,0.945244558961855,0.1728802376190821,-0.48752024683155326,-0.11147110072896137,-1.9463801863486305,0.1336059019074957,2.595550359778934,0.9452445589611904,-0.0008543339435287815,0.0005073984388561915,0.0007739782904099596,-0.0013488793026877296,0.0004395421093213125,0.00012241641347899803,-0.0006673299746646655,0.0,0.0,0.0,0.0,0.0,0.0,0.0,5.9188918063501905e-05,0.00012502014806264894,-3.170751708632402e-05,-0.00015449548112100864,-0.00014345712402261124,4.056294759191559e-06,-6.645795025406187e-13,0.0008543339435287815,-0.0005073984388561915,-0.0007739782904099596,0.0013488793026877296,-0.0004395421093213125,-0.00012241641347899803,0.0006673299746646655,0.12130087614059448,11.802515029907227,-1.1680023670196533,-21.768831253051758,-0.4690452218055725,-2.5207552909851074,0.17978231608867645,0
16,0.07499814033508301,-0.12130087614059448,-11.802515029907227,1.1680023670196533,21.768831253051758,0.4690452218055725,2.5207552909851074,-0.17978231608867645,0.0,0.0,0.0,0.0,0.0,0.0,0.0,-0.14546927701700085,0.5611777677340901,0.011676880433905957,0.4486497654109892,-0.06687543359608693,0.1267158200215704,-0.22347145175947725,0.1728210487010186,-0.4876452669796159,-0.11143939321187504,-1.9462256908675095,0.1337493590315183,2.595546303484175,0.945244558961855,0.1728802376190821,-0.48752024683155326,-0.11147110072896137,-1.9463801863486305,0.1336059019074957,2.595550359778934,0.9452445589611904,-0.0008543339435287815,0.0005073984388561915,0.0007739782904099596,-0.0013488793026877296,0.0004395421093213125,0.00012241641347899803,-0.0006673299746646655,0.0,0.0,0.0,0.0,0.0,0.0,0.0,5.9188918063501905e-05,0.00012502014806264894,-3.170751708632402e-05,-0.00015449548112100864,-0.00014345712402261124,4.056294759191559e-06,-6.645795025406187e-13,0.0008543339435287815,-0.0005073984388561915,-0.0007739782904099596,0.0013488793026877296,-0.0004395421093213125,-0.00012241641347899803,0.0006673299746646655,0.12130087614059448,11.802515029907227,-1.1680023670196533,-21.768831253051758,-0.4690452218055725,-2.5207552909851074,0.17978231608867645,0
17,0.08043169975280762,-0.19667929410934448,-11.727136611938477,1.2156097888946533,21.717256546020508,0.4571433663368225,2.5271639823913574,-0.22098104655742645,0.0,0.0,0.0,0.0,0.0,0.0,0.0,-0.14534667330652176,0.5563367237778651,0.00839288338607805,0.4529476489547573,-0.06554648500007972,0.12697583669042117,-0.2204060832745061,0.17282633841456027,-0.4876484404492144,-0.11144273408358557,-1.94622199506084,0.1337506814599037,2.595545591407352,0.9452491365985738,0.1728802376190821,-0.48752024683155326,-0.11147110072896137,-1.9463801863486305,0.1336059019074957,2.595550359778934,0.9452445589611904,0.0015658505287565933,-0.0009460674920935354,-0.0005709281392612261,0.0010199016125034966,0.0003317719626174475,0.00011073085072862504,0.00020473997152770294,0.0,0.0,0.0,0.0,0.0,0.0,0.0,5.389920452184005e-05,0.00012819361766114312,-2.8366645375796362e-05,-0.00015819128779059888,-0.00014477955240801976,4.76837158203125e-06,-4.5776373833739115e-06,-0.0015658505287565933,0.0009460674920935354,0.0005709281392612261,-0.0010199016125034966,-0.0003317719626174475,-0.00011073085072862504,-0.00020473997152770294,0.19667929410934448,11.727136611938477,-1.2156097888946533,-21.717256546020508,-0.4571433663368225,-2.5271639823913574,0.22098104655742645,0
18,0.08499693870544434,-0.19667929410934448,-11.727136611938477,1.2156097888946533,21.717256546020508,0.4571433663368225,2.5271639823913574,-0.22098104655742645,0.0,0.0,0.0,0.0,0.0,0.0,0.0,-0.14534667330652176,0.5563367237778651,0.00839288338607805,0.4529476489547573,-0.06554648500007972,0.12697583669042117,-0.2204060832745061,0.17282633841456027,-0.4876484404492144,-0.11144273408358557,-1.94622199506084,0.1337506814599037,2.595545591407352,0.9452491365985738,0.1728802376190821,-0.48752024683155326,-0.11147110072896137,-1.9463801863486305,0.1336059019074957,2.595550359778934,0.9452445589611904,0.0015658505287565933,-0.0009460674920935354,-0.0005709281392612261,0.0010199016125034966,0.0003317719626174475,0.00011073085072862504,0.00020473997152770294,0.0,0.0,0.0,0.0,0.0,0.0,0.0,5.389920452184005e-05,0.00012819361766114312,-2.8366645375796362e-05,-0.00015819128779059888,-0.00014477955240801976,4.76837158203125e-06,-4.5776373833739115e-06,-0.0015658505287565933,0.0009460674920935354,0.0005709281392612261,-0.0010199016125034966,-0.0003317719626174475,-0.00011073085072862504,-0.00020473997152770294,0.19667929410934448,11.727136611938477,-1.2156097888946533,-21.717256546020508,-0.4571433663368225,-2.5271639823913574,0.22098104655742645,0
19,0.0899965763092041,-0.17287558317184448,-11.774744033813477,1.1918060779571533,21.768831253051758,0.4690452218055725,2.5207552909851074,-0.20724813640117645,0.0,0.0,0.0,0.0,0.0,0.0,0.0,-0.14279412969935634,0.5666479386402804,0.012974766456421764,0.44786442344015254,-0.06571224221499844,0.12608819313955438,-0.21975722964621097,0.17282466797870502,-0.4876443549117666,-0.1114410636477303,-1.9462256133932867,0.1337493590315183,2.595546303484175,0.9452476107196676,0.1728802376190821,-0.48752024683155326,-0.11147110072896137,-1.9463801863486305,0.1336059019074957,2.595550359778934,0.9452445589611904,0.0008286150494688327,0.00046780629730056375,0.0003748009509025134,-0.0004271186754769769,-0.00010877284794165108,0.00026012436968838345,-2.5979317995356067e-05,0.0,0.0,0.0,0.0,0.0,0.0,0.0,5.556964037709e-05,0.00012410808021334763,-3.0037081231060192e-05,-0.00015457295534382354,-0.00014345712402261124,4.056294759191559e-06,-3.051758477146116e-06,-0.0008286150494688327,-0.00046780629730056375,-0.0003748009509025134,0.0004271186754769769,0.00010877284794165108,-0.00026012436968838345,2.5979317995356067e-05,0.17287558317184448,11.774744033813477,-1.1918060779571533,-21.768831253051758,-0.4690452218055725,-2.5207552909851074,0.20724813640117645,0
20,0.09499311447143555,-0.17287558317184448,-11.774744033813477,1.1918060779571533,21.768831253051758,0.4690452218055725,2.5207552909851074,-0.20724813640117645,0.0,0.0,0.0,0.0,0.0,0.0,0.0,-0.14279412969935634,0.5666479386402804,0.012974766456421764,0.44786442344015254,-0.06571224221499844,0.12608819313955438,-0.21975722964621097,0.17282466797870502,-0.4876443549117666,-0.1114410636477303,-1.9462256133932867,0.1337493590315183,2.595546303484175,0.9452476107196676,0.1728802376190821,-0.48752024683155326,-0.11147110072896137,-1.9463801863486305,0.1336059019074957,2.595550359778934,0.9452445589611904,0.0008286150494688327,0.00046780629730056375,0.0003748009509025134,-0.0004271186754769769,-0.00010877284794165108,0.00026012436968838345,-2.5979317995356067e-05,0.0,0.0,0.0,0.0,0.0,0.0,0.0,5.556964037709e-05,0.00012410808021334763,-3.0037081231060192e-05,-0.00015457295534382354,-0.00014345712402261124,4.056294759191559e-06,-3.051758477146116e-06,-0.0008286150494688327,-0.00046780629730056375,-0.0003748009509025134,0.0004271186754769769,0.00010877284794165108,-0.00026012436968838345,2.5979317995356067e-05,0.17287558317184448,11.774744033813477,-1.1918060779571533,-21.768831253051758,-0.4690452218055725,-2.5207552909851074,0.20724813640117645,0
21,0.09999680519104004,-0.12130087614059448,-11.727136611938477,1.2156097888946533,21.741060256958008,0.4745383858680725,2.5271639823913574,-0.18710653483867645,0.0,0.0,0.0,0.0,0.0,0.0,0.0,-0.1418092354921009,0.5584903670199806,0.015267122364884023,0.4535510313813709,-0.06594653343831992,0.1271686423806394,-0.21784902975677742,0.1728210487010186,-0.4876477692319787,-0.11144273408358557,-1.946223690061257,0.1337487486799558,2.595545591407352,0.9452453727639384,0.1728802376190821,-0.48752024683155326,-0.11147110072896137,-1.9463801863486305,0.1336059019074957,2.595550359778934,0.9452445589611904,-8.363381905834292e-05,-0.0006749076848164556,8.694627650589974e-05,-4.024573872383002e-05,-0.00024722047637298634,0.00014910022959248195,-0.0007134081203068102,0.0,0.0,0.0,0.0,0.0,0.0,0.0,5.9188918063501905e-05,0.0001275224004254616,-2.8366645375796362e-05,-0.00015649628737346433,-0.00014284677246009791,4.76837158203125e-06,-8.138027479676069e-07,8.363381905834292e-05,0.0006749076848164556,-8.694627650589974e-05,4.024573872383002e-05,0.00024722047637298634,-0.00014910022959248195,0.0007134081203068102,0.12130087614059448,11.727136611938477,-1.2156097888946533,-21.741060256958008,-0.4745383858680725,-2.5271639823913574,0.18710653483867645,0
22,0.10499334335327148,-0.12130087614059448,-11.727136611938477,1.2156097888946533,21.741060256958008,0.4745383858680725,2.5271639823913574,-0.18710653483867645,0.0,0.0,0.0,0.0,0.0,0.0,0.0,-0.1418092354921009,0.5584903670199806,0.015267122364884023,0.4535510313813709,-0.06594653343831992,0.1271686423806394,-0.21784902975677742,0.1728210487010186,-0.4876477692319787,-0.11144273408358557,-1.946223690061257,0.1337487486799558,2.595545591407352,0.9452453727639384,0.1728802376190821,-0.48752024683155326,-0.11147110072896137,-1.9463801863486305,0.1336059019074957,2.595550359778934,0.9452445589611904,-8.363381905834292e-05,-0.0006749076848164556,8.694627650589974e-05,-4.024573872383002e-05,-0.00024722047637298634,0.00014910022959248195,-0.0007134081203068102,0.0,0.0,0.0,0.0,0.0,0.0,0.0,5.9188918063501905e-05,0.0001275224004254616,-2.8366645375796362e-05,-0.00015649628737346433,-0.00014284677246009791,4.76837158203125e-06,-8.138027479676069e-07,8.363381905834292e-05,0.0006749076848164556,-8.694627650589974e-05,4.024573872383002e-05,0.00024722047637298634,-0.00014910022959248195,0.0007134081203068102,0.12130087614059448,11.727136611938477,-1.2156097888946533,-21.741060256958008,-0.4745383858680725,-2.5271639823913574,0.18710653483867645,0
23,0.10999369621276855,-0.12130087614059448,-11.750940322875977,1.2156097888946533,21.741060256958008,0.4745383858680725,2.5335726737976074,-0.20724813640117645,0.0,0.0,0.0,0.0,0.0,0.0,0.0,-0.14487539834354196,0.5627118069420916,0.004131885421691526,0.45104066228253237,-0.06557788534749322,0.1276087331603797,-0.21755677696579873,0.1728210487010186,-0.48764817205585237,-0.11144273408358557,-1.9462236645515945,0.1337487486799558,2.595544879330529,0.9452476107196676,0.1728802376190821,-0.48752024683155326,-0.11147110072896137,-1.9463801863486305,0.1336059019074957,2.595550359778934,0.9452445589611904,-0.00038736604121181786,9.49766038347837e-06,-0.0007698694597462265,-0.0004013483874280063,-0.0003406168522862266,-0.0004142462959896584,0.00011551120321872383,0.0,0.0,0.0,0.0,0.0,0.0,0.0,5.9188918063501905e-05,0.00012792522429910802,-2.8366645375796362e-05,-0.00015652179703606883,-0.00014284677246009791,5.480448404870941e-06,-3.051758477146116e-06,0.00038736604121181786,-9.49766038347837e-06,0.0007698694597462265,0.0004013483874280063,0.0003406168522862266,0.0004142462959896584,-0.00011551120321872383,0.12130087614059448,11.750940322875977,-1.2156097888946533,-21.741060256958008,-0.4745383858680725,-2.5335726737976074,0.20724813640117645,0
24,0.11501145362854004,-0.12130087614059448,-11.750940322875977,1.2156097888946533,21.741060256958008,0.4745383858680725,2.5335726737976074,-0.20724813640117645,0.0,0.0,0.0,0.0,0.0,0.0,0.0,-0.14487539834354196,0.5627118069420916,0.004131885421691526,0.45104066228253237,-0.06557788534749322,0.1276087331603797,-0.21755677696579873,0.1728210487010186,-0.48764817205585237,-0.11144273408358557,-1.9462236645515945,0.1337487486799558,2.595544879330529,0.9452476107196676,0.1728802376190821,-0.48752024683155326,-0.11147110072896137,-1.9463801863486305,0.1336059019074957,2.595550359778934,0.9452445589611904,-0.00038736604121181786,9.49766038347837e-06,-0.0007698694597462265,-0.0004013483874280063,-0.0003406168522862266,-0.0004142462959896584,0.00011551120321872383,0.0,0.0,0.0,0.0,0.0,0.0,0.0,5.9188918063501905e-05,0.00012792522429910802,-2.8366645375796362e-05,-0.00015652179703606883,-0.00014284677246009791,5.480448404870941e-06,-3.051758477146116e-06,0.00038736604121181786,-9.49766038347837e-06,0.0007698694597462265,0.0004013483874280063,0.0003406168522862266,0.0004142462959896584,-0.00011551120321872383,0.12130087614059448,11.750940322875977,-1.2156097888946533,-21.741060256958008,-0.4745383858680725,-2.5335726737976074,0.20724813640117645,0
25,0.11999368667602539,-0.12130087614059448,-11.750940322875977,1.2156097888946533,21.741060256958008,0.4745383858680725,2.5335726737976074,-0.20724813640117645,0.0,0.0,0.0,0.0,0.0,0.0,0.0,-0.14487539834354196,0.5627118069420916,0.004131885421691526,0.45104066228253237,-0.06557788534749322,0.1276087331603797,-0.21755677696579873,0.1728210487010186,-0.48764817205585237,-0.11144273408358557,-1.9462236645515945,0.1337487486799558,2.595544879330529,0.9452476107196676,0.1728802376190821,-0.48752024683155326,-0.11147110072896137,-1.9463801863486305,0.1336059019074957,2.595550359778934,0.9452445589611904,-0.00038736604121181786,9.49766038347837e-06,-0.0007698694597462265,-0.0004013483874280063,-0.0003406168522862266,-0.0004142462959896584,0.00011551120321872383,0.0,0.0,0.0,0.0,0.0,0.0,0.0,5.9188918063501905e-05,0.00012792522429910802,-2.8366645375796362e-05,-0.00015652179703606883,-0.00014284677246009791,5.480448404870941e-06,-3.051758477146116e-06,0.00038736604121181786,-9.49766038347837e-06,0.0007698694597462265,0.0004013483874280063,0.0003406168522862266,0.0004142462959896584,-0.00011551120321872383,0.12130087614059448,11.750940322875977,-1.2156097888946533,-21.741060256958008,-0.4745383858680725,-2.5335726737976074,0.20724813640117645,0
26,0.12500405311584473,-0.12130087614059448,-11.750940322875977,1.2156097888946533,21.741060256958008,0.4745383858680725,2.5335726737976074,-0.20724813640117645,0.0,0.0,0.0,0.0,0.0,0.0,0.0,-0.14487539834354196,0.5627118069420916,0.004131885421691526,0.45104066228253237,-0.06557788534749322,0.1276087331603797,-0.21755677696579873,0.1728210487010186,-0.48764817205585237,-0.11144273408358557,-1.9462236645515945,0.1337487486799558,2.595544879330529,0.9452476107196676,0.1728802376190821,-0.48752024683155326,-0.11147110072896137,-1.9463801863486305,0.1336059019074957,2.595550359778934,0.9452445589611904,-0.00038736604121181786,9.49766038347837e-06,-0.0007698694597462265,-0.0004013483874280063,-0.0003406168522862266,-0.0004142462959896584,0.00011551120321872383,0.0,0.0,0.0,0.0,0.0,0.0,0.0,5.9188918063501905e-05,0.00012792522429910802,-2.8366645375796362e-05,-0.00015652179703606883,-0.00014284677246009791,5.480448404870941e-06,-3.051758477146116e-06,0.00038736604121181786,-9.49766038347837e-06,0.0007698694597462265,0.0004013483874280063,0.0003406168522862266,0.0004142462959896584,-0.00011551120321872383,0.12130087614059448,11.750940322875977,-1.2156097888946533,-21.741060256958008,-0.4745383858680725,-2.5335726737976074,0.20724813640117645,0
27,0.1300060749053955,-0.12130087614059448,-11.774744033813477,1.1680023670196533,21.717256546020508,0.4626365303993225,2.5143465995788574,-0.20724813640117645,0.0,0.0,0.0,0.0,0.0,0.0,0.0,-0.14445442682626816,0.5604320591829666,-0.001430639796760901,0.45216469920847296,-0.06601658858186786,0.12778880102483905,-0.2172470327113901,0.1728210487010186,-0.48764514361604466,-0.11143939321187504,-1.9462220706450153,0.13375007110834122,2.5955470155609977,0.9452476107196676,0.1728802376190821,-0.48752024683155326,-0.11147110072896137,-1.9463801863486305,0.1336059019074957,2.595550359778934,0.9452445589611904,-0.0008559624364447721,0.00043451534707744703,-9.703950161377258e-05,0.0002525099555032008,5.4748542392603424e-05,0.0002493520558513354,-1.889512089045803e-05,0.0,0.0,0.0,0.0,0.0,0.0,0.0,5.9188918063501905e-05,0.00012489678449140174,-3.170751708632402e-05,-0.00015811570361523586,-0.0001441692008455342,3.3442179363518676e-06,-3.051758477146116e-06,0.0008559624364447721,-0.00043451534707744703,9.703950161377258e-05,-0.0002525099555032008,-5.4748542392603424e-05,-0.0002493520558513354,1.889512089045803e-05,0.12130087614059448,11.774744033813477,-1.1680023670196533,-21.717256546020508,-0.4626365303993225,-2.5143465995788574,0.20724813640117645,0
28,0.13500189781188965,-0.12130087614059448,-11.774744033813477,1.1680023670196533,21.717256546020508,0.4626365303993225,2.5143465995788574,-0.20724813640117645,0.0,0.0,0.0,0.0,0.0,0.0,0.0,-0.14445442682626816,0.5604320591829666,-0.001430639796760901,0.45216469920847296,-0.06601658858186786,0.12778880102483905,-0.2172470327113901,0.1728210487010186,-0.48764514361604466,-0.11143939321187504,-1.9462220706450153,0.13375007110834122,2.5955470155609977,0.9452476107196676,0.1728802376190821,-0.48752024683155326,-0.11147110072896137,-1.9463801863486305,0.1336059019074957,2.595550359778934,0.9452445589611904,-0.0008559624364447721,0.00043451534707744703,-9.703950161377258e-05,0.0002525099555032008,5.4748542392603424e-05,0.0002493520558513354,-1.889512089045803e-05,0.0,0.0,0.0,0.0,0.0,0.0,0.0,5.9188918063501905e-05,0.00012489678449140174,-3.170751708632402e-05,-0.00015811570361523586,-0.0001441692008455342,3.3442179363518676e-06,-3.051758477146116e-06,0.0008559624364447721,-0.00043451534707744703,9.703950161377258e-05,-0.0002525099555032008,-5.4748542392603424e-05,-0.0002493520558513354,1.889512089045803e-05,0.12130087614059448,11.774744033813477,-1.1680023670196533,-21.717256546020508,-0.4626365303993225,-2.5143465995788574,0.20724813640117645,0
29,0.1400001049041748,-0.14510458707809448,-11.750940322875977,1.1441986560821533,21.741060256958008,0.4690452218055725,2.5271639823913574,-0.18710653483867645,0.0,0.0,0.0,0.0,0.0,0.0,0.0,-0.13976886801679317,0.5612203327564932,0.004380820710062919,0.45052770306471557,-0.06696764915666203,0.12711132333034872,-0.2173866035285009,0.1728227191368739,-0.48764816606399525,-0.11143772277601978,-1.9462236645518824,0.1337493590315183,2.595545591407352,0.9452453727639384,0.1728802376190821,-0.48752024683155326,-0.11147110072896137,-1.9463801863486305,0.1336059019074957,2.595550359778934,0.9452445589611904,-0.0002800366783034307,0.00014396947031627546,0.0010727371546451964,-0.00020789019058404937,-0.00015505039228922796,-2.4338607113911793e-05,-0.0009589913868571733,0.0,0.0,0.0,0.0,0.0,0.0,0.0,5.75184822082242e-05,0.00012791923244198644,-3.337795294158785e-05,-0.00015652179674807698,-0.00014345712402261124,4.76837158203125e-06,-8.138027479676069e-07,0.0002800366783034307,-0.00014396947031627546,-0.0010727371546451964,0.00020789019058404937,0.00015505039228922796,2.4338607113911793e-05,0.0009589913868571733,0.14510458707809448,11.750940322875977,-1.1441986560821533,-21.741060256958008,-0.4690452218055725,-2.5271639823913574,0.18710653483867645,0
30,0.14500188827514648,-0.14510458707809448,-11.750940322875977,1.1441986560821533,21.741060256958008,0.4690452218055725,2.5271639823913574,-0.18710653483867645,0.0,0.0,0.0,0.0,0.0,0.0,0.0,-0.13976886801679317,0.5612203327564932,0.004380820710062919,0.45052770306471557,-0.06696764915666203,0.12711132333034872,-0.2173866035285009,0.1728227191368739,-0.48764816606399525,-0.11143772277601978,-1.9462236645518824,0.1337493590315183,2.595545591407352,0.9452453727639384,0.1728802376190821,-0.48752024683155326,-0.11147110072896137,-1.9463801863486305,0.1336059019074957,2.595550359778934,0.9452445589611904,-0.0002800366783034307,0.00014396947031627546,0.0010727371546451964,-0.00020789019058404937,-0.00015505039228922796,-2.4338607113911793e-05,-0.0009589913868571733,0.0,0.0,0.0,0.0,0.0,0.0,0.0,5.75184822082242e-05,0.00012791923244198644,-3.337795294158785e-05,-0.00015652179674807698,-0.00014345712402261124,4.76837158203125e-06,-8.138027479676069e-07,0.0002800366783034307,-0.00014396947031627546,-0.0010727371546451964,0.00020789019058404937,0.00015505039228922796,2.4338607113911793e-05,0.0009589913868571733,0.14510458707809448,11.750940322875977,-1.1441986560821533,-21.741060256958008,-0.4690452218055725,-2.5271639823913574,0.18710653483867645,0
31,0.14999890327453613,-0.14510458707809448,-11.727136611938477,1.1918060779571533,21.717256546020508,0.4571433663368225,2.5399813652038574,-0.24844686686992645,0.0,0.0,0.0,0.0,0.0,0.0,0.0,-0.1433652323160396,0.5633514255552899,-0.00029327885994834556,0.4496465650950631,-0.06678739791543785,0.12718682194932374,-0.21888248992287065,0.1728227191368739,-0.4876505753350041,-0.1114410636477303,-1.946221994115595,0.1337506814599037,2.5955441672537063,0.9452521883563862,0.1728802376190821,-0.48752024683155326,-0.11147110072896137,-1.9463801863486305,0.1336059019074957,2.595550359778934,0.9452445589611904,-0.0002331624604732346,-0.0005281008480357614,-3.667375933254213e-05,0.00044287037437566425,0.00032876371329543713,-0.0005366292175087509,0.0007529217598866312,0.0,0.0,0.0,0.0,0.0,0.0,0.0,5.75184822082242e-05,0.00013032850345084945,-3.0037081231060192e-05,-0.00015819223303559227,-0.00014477955240801976,6.192525227710632e-06,-7.629395195829503e-06,0.0002331624604732346,0.0005281008480357614,3.667375933254213e-05,-0.00044287037437566425,-0.00032876371329543713,0.0005366292175087509,-0.0007529217598866312,0.14510458707809448,11.727136611938477,-1.1918060779571533,-21.717256546020508,-0.4571433663368225,-2.5399813652038574,0.24844686686992645,0
32,0.1550004482269287,-0.14510458707809448,-11.727136611938477,1.1918060779571533,21.717256546020508,0.4571433663368225,2.5399813652038574,-0.24844686686992645,0.0,0.0,0.0,0.0,0.0,0.0,0.0,-0.1433652323160396,0.5633514255552899,-0.00029327885994834556,0.4496465650950631,-0.06678739791543785,0.12718682194932374,-0.21888248992287065,0.1728227191368739,-0.4876505753350041,-0.1114410636477303,-1.946221994115595,0.1337506814599037,2.5955441672537063,0.9452521883563862,0.1728802376190821,-0.48752024683155326,-0.11147110072896137,-1.9463801863486305,0.1336059019074957,2.595550359778934,0.9452445589611904,-0.0002331624604732346,-0.0005281008480357614,-3.667375933254213e-05,0.00044287037437566425,0.00032876371329543713,-0.0005366292175087509,0.0007529217598866312,0.0,0.0,0.0,0.0,0.0,0.0,0.0,5.75184822082242e-05,0.00013032850345084945,-3.0037081231060192e-05,-0.00015819223303559227,-0.00014477955240801976,6.192525227710632e-06,-7.629395195829503e-06,0.0002331624604732346,0.0005281008480357614,3.667375933254213e-05,-0.00044287037437566425,-0.00032876371329543713,0.0005366292175087509,-0.0007529217598866312,0.14510458707809448,11.727136611938477,-1.1918060779571533,-21.717256546020508,-0.4571433663368225,-2.5399813652038574,0.24844686686992645,0
33,0.16000080108642578,-0.12130087614059448,-11.750940322875977,1.2433807849884033,21.741060256958008,0.4690452218055725,2.5463900566101074,-0.24844686686992645,0.0,0.0,0.0,0.0,0.0,0.0,0.0,-0.1426218480558524,0.564506228094675,0.0028453951113669084,0.4475845562035397,-0.06713158720952704,0.1267083117965816,-0.22216229312603028,0.1728210487010186,-0.48764673261001373,-0.11144468292541672,-1.9462236645514503,0.1337493590315183,2.5955434551768835,0.9452521883563862,0.1728802376190821,-0.48752024683155326,-0.11147110072896137,-1.9463801863486305,0.1336059019074957,2.595550359778934,0.9452445589611904,-0.00044845802220483345,4.094379396709927e-05,-0.0009595320369436383,-0.000285454827378678,-0.00018454670617286547,-0.000829044295234206,0.0014714749509051135,0.0,0.0,0.0,0.0,0.0,0.0,0.0,5.9188918063501905e-05,0.00012648577846047226,-2.641780354464829e-05,-0.00015652179718017578,-0.00014345712402261124,6.904602050550324e-06,-7.629395195829503e-06,0.00044845802220483345,-4.094379396709927e-05,0.0009595320369436383,0.000285454827378678,0.00018454670617286547,0.000829044295234206,-0.0014714749509051135,0.12130087614059448,11.750940322875977,-1.2433807849884033,-21.741060256958008,-0.4690452218055725,-2.5463900566101074,0.24844686686992645,0
34,0.16499781608581543,-0.12130087614059448,-11.750940322875977,1.2433807849884033,21.741060256958008,0.4690452218055725,2.5463900566101074,-0.24844686686992645,0.0,0.0,0.0,0.0,0.0,0.0,0.0,-0.1426218480558524,0.564506228094675,0.0028453951113669084,0.4475845562035397,-0.06713158720952704,0.1267083117965816,-0.22216229312603028,0.1728210487010186,-0.48764673261001373,-0.11144468292541672,-1.9462236645514503,0.1337493590315183,2.5955434551768835,0.9452521883563862,0.1728802376190821,-0.48752024683155326,-0.11147110072896137,-1.9463801863486305,0.1336059019074957,2.595550359778934,0.9452445589611904,-0.00044845802220483345,4.094379396709927e-05,-0.0009595320369436383,-0.000285454827378678,-0.00018454670617286547,-0.000829044295234206,0.0014714749509051135,0.0,0.0,0.0,0.0,0.0,0.0,0.0,5.9188918063501905e-05,0.00012648577846047226,-2.641780354464829e-05,-0.00015652179718017578,-0.00014345712402261124,6.904602050550324e-06,-7.629395195829503e-06,0.00044845802220483345,-4.094379396709927e-05,0.0009595320369436383,0.000285454827378678,0.00018454670617286547,0.000829044295234206,-0.0014714749509051135,0.12130087614059448,11.750940322875977,-1.2433807849884033,-21.741060256958008,-0.4690452218055725,-2.5463900566101074,0.24844686686992645,0
35,0.17000269889831543,-0.12130087614059448,-11.774744033813477,1.2156097888946533,21.717256546020508,0.4690452218055725,2.5335726737976074,-0.21457235515117645,0.0,0.0,0.0,0.0,0.0,0.0,0.0,-0.14403945621496497,0.5628989718598026,0.0005005161456601838,0.44844807728760955,-0.06737114855376095,0.12723557175120023,-0.22294909960882367,0.1728210487010186,-0.48764458729790106,-0.11144273408358557,-1.946221994115595,0.1337493590315183,2.595544879330529,0.9452473648836215,0.1728802376190821,-0.48752024683155326,-0.11147110072896137,-1.9463801863486305,0.1336059019074957,2.595550359778934,0.9452445589611904,1.9017568220447754e-06,0.00048763784021465303,-0.0005091331975996844,0.0006497273314261053,-0.00020845355662015222,-0.0002586167314535155,0.0007532067412158967,0.0,0.0,0.0,0.0,0.0,0.0,0.0,5.9188918063501905e-05,0.00012434046634779428,-2.8366645375796362e-05,-0.00015819223303559227,-0.00014345712402261124,5.480448404870941e-06,-2.8059224310705844e-06,-1.9017568220447754e-06,-0.00048763784021465303,0.0005091331975996844,-0.0006497273314261053,0.00020845355662015222,0.0002586167314535155,-0.0007532067412158967,0.12130087614059448,11.774744033813477,-1.2156097888946533,-21.717256546020508,-0.4690452218055725,-2.5335726737976074,0.21457235515117645,0
36,0.17499709129333496,-0.12130087614059448,-11.774744033813477,1.2156097888946533,21.717256546020508,0.4690452218055725,2.5335726737976074,-0.21457235515117645,0.0,0.0,0.0,0.0,0.0,0.0,0.0,-0.14403945621496497,0.5628989718598026,0.0005005161456601838,0.44844807728760955,-0.06737114855376095,0.12723557175120023,-0.22294909960882367,0.1728210487010186,-0.48764458729790106,-0.11144273408358557,-1.946221994115595,0.1337493590315183,2.595544879330529,0.9452473648836215,0.1728802376190821,-0.48752024683155326,-0.11147110072896137,-1.9463801863486305,0.1336059019074957,2.595550359778934,0.9452445589611904,1.9017568220447754e-06,0.00048763784021465303,-0.0005091331975996844,0.0006497273314261053,-0.00020845355662015222,-0.0002586167314535155,0.0007532067412158967,0.0,0.0,0.0,0.0,0.0,0.0,0.0,5.9188918063501905e-05,0.00012434046634779428,-2.8366645375796362e-05,-0.00015819223303559227,-0.00014345712402261124,5.480448404870941e-06,-2.8059224310705844e-06,-1.9017568220447754e-06,-0.00048763784021465303,0.0005091331975996844,-0.0006497273314261053,0.00020845355662015222,0.0002586167314535155,-0.0007532067412158967,0.12130087614059448,11.774744033813477,-1.2156097888946533,-21.717256546020508,-0.4690452218055725,-2.5335726737976074,0.21457235515117645,0
37,0.17999505996704102,-0.14510458707809448,-11.774744033813477,1.1918060779571533,21.717256546020508,0.4626365303993225,2.5271639823913574,-0.22830526530742645,0.0,0.0,0.0,0.0,0.0,0.0,0.0,-0.14624637125263426,0.5606356216585159,-0.0028146420869026847,0.44744043760593044,-0.06753983100707389,0.12793438360293855,-0.22200868516042907,0.1728227191368739,-0.48764673894931077,-0.1114410636477303,-1.946221994115595,0.13375007110834122,2.595545591407352,0.9452499503946754,0.1728802376190821,-0.48752024683155326,-0.11147110072896137,-1.9463801863486305,0.1336059019074957,2.595550359778934,0.9452445589611904,-0.00041297665997656386,-0.00020858383747471263,0.0001547057135846221,0.00038954787056424327,9.683115348558754e-05,0.0004035017338788188,0.0005178291369068942,0.0,0.0,0.0,0.0,0.0,0.0,0.0,5.75184822082242e-05,0.00012649211775750402,-3.0037081231060192e-05,-0.00015819223303559227,-0.0001441692008455342,4.76837158203125e-06,-5.391433484991381e-06,0.00041297665997656386,0.00020858383747471263,-0.0001547057135846221,-0.00038954787056424327,-9.683115348558754e-05,-0.0004035017338788188,-0.0005178291369068942,0.14510458707809448,11.774744033813477,-1.1918060779571533,-21.717256546020508,-0.4626365303993225,-2.5271639823913574,0.22830526530742645,0
38,0.18499493598937988,-0.14510458707809448,-11.774744033813477,1.1918060779571533,21.717256546020508,0.4626365303993225,2.5271639823913574,-0.22830526530742645,0.0,0.0,0.0,0.0,0.0,0.0,0.0,-0.14624637125263426,0.5606356216585159,-0.0028146420869026847,0.44744043760593044,-0.06753983100707389,0.12793438360293855,-0.22200868516042907,0.1728227191368739,-0.48764673894931077,-0.1114410636477303,-1.946221994115595,0.13375007110834122,2.595545591407352,0.9452499503946754,0.1728802376190821,-0.48752024683155326,-0.11147110072896137,-1.9463801863486305,0.1336059019074957,2.595550359778934,0.9452445589611904,-0.00041297665997656386,-0.00020858383747471263,0.0001547057135846221,0.00038954787056424327,9.683115348558754e-05,0.0004035017338788188,0.0005178291369068942,0.0,0.0,0.0,0.0,0.0,0.0,0.0,5.75184822082242e-05,0.00012649211775750402,-3.0037081231060192e-05,-0.00015819223303559227,-0.0001441692008455342,4.76837158203125e-06,-5.391433484991381e-06,0.00041297665997656386,0.00020858383747471263,-0.0001547057135846221,-0.00038954787056424327,-9.683115348558754e-05,-0.0004035017338788188,-0.0005178291369068942,0.14510458707809448,11.774744033813477,-1.1918060779571533,-21.717256546020508,-0.4626365303993225,-2.5271639823913574,0.22830526530742645,0
39,0.1906886100769043,-0.14510458707809448,-11.774744033813477,1.1918060779571533,21.741060256958008,0.4571433663368225,2.5271639823913574,-0.21457235515117645,0.0,0.0,0.0,0.0,0.0,0.0,0.0,-0.14579664283765453,0.5650181457009296,0.0013062529782860875,0.44373757919291384,-0.06803781762070887,0.12877372939404777,-0.2236872649344974,0.1728227191368739,-0.4876446728124597,-0.11144106361164391,-1.9462236645514503,0.1337506814599037,2.595545591407352,0.9452484245217508,0.1728802376190821,-0.48752024683155326,-0.11147110072896137,-1.9463801863486305,0.1336059019074957,2.595550359778934,0.9452445589611904,-0.000534971169794498,0.000365533863814912,-0.00014213633399075496,-0.00035900036549094203,0.0002868450949090831,0.00010398350348359735,0.00010215149125742488,0.0,0.0,0.0,0.0,0.0,0.0,0.0,5.75184822082242e-05,0.00012442598090645074,-3.003711731745795e-05,-0.00015652179718017578,-0.00014477955240801976,4.76837158203125e-06,-3.865560560423198e-06,0.000534971169794498,-0.000365533863814912,0.00014213633399075496,0.00035900036549094203,-0.0002868450949090831,-0.00010398350348359735,-0.00010215149125742488,0.14510458707809448,11.774744033813477,-1.1918060779571533,-21.741060256958008,-0.4571433663368225,-2.5271639823913574,0.21457235515117645,0
40,0.19499754905700684,-0.14510458707809448,-11.774744033813477,1.1918060779571533,21.741060256958008,0.4571433663368225,2.5271639823913574,-0.21457235515117645,0.0,0.0,0.0,0.0,0.0,0.0,0.0,-0.14579664283765453,0.5650181457009296,0.0013062529782860875,0.44373757919291384,-0.06803781762070887,0.12877372939404777,-0.2236872649344974,0.1728227191368739,-0.4876446728124597,-0.11144106361164391,-1.9462236645514503,0.1337506814599037,2.595545591407352,0.9452484245217508,0.1728802376190821,-0.48752024683155326,-0.11147110072896137,-1.9463801863486305,0.1336059019074957,2.595550359778934,0.9452445589611904,-0.000534971169794498,0.000365533863814912,-0.00014213633399075496,-0.00035900036549094203,0.0002868450949090831,0.00010398350348359735,0.00010215149125742488,0.0,0.0,0.0,0.0,0.0,0.0,0.0,5.75184822082242e-05,0.00012442598090645074,-3.003711731745795e-05,-0.00015652179718017578,-0.00014477955240801976,4.76837158203125e-06,-3.865560560423198e-06,0.000534971169794498,-0.000365533863814912,0.00014213633399075496,0.00035900036549094203,-0.0002868450949090831,-0.00010398350348359735,-0.00010215149125742488,0.14510458707809448,11.774744033813477,-1.1918060779571533,-21.741060256958008,-0.4571433663368225,-2.5271639823913574,0.21457235515117645,0
41,0.1999962329864502,-0.12130087614059448,-11.774744033813477,1.1918060779571533,21.717256546020508,0.4571433663368225,2.5335726737976074,-0.16604940593242645,0.0,0.0,0.0,0.0,0.0,0.0,0.0,-0.1434966935194614,0.5759030744779232,0.007607560362962197,0.43297028157022105,-0.06845696155679287,0.12668755312714558,-0.2243155633585837,0.1728210487010186,-0.4876443459336847,-0.1114410636477301,-1.946221994115595,0.1337506814599037,2.595544879330529,0.9452430330829488,0.1728802376190821,-0.48752024683155326,-0.11147110072896137,-1.9463801863486305,0.1336059019074957,2.595550359778934,0.9452445589611904,-0.0005970189748568296,0.0005333052680553337,0.0004145489165145857,0.00046048662175318466,0.00031120816811596233,0.002643441294468454,-0.001637849484223329,0.0,0.0,0.0,0.0,0.0,0.0,0.0,5.9188918063501905e-05,0.00012409910213145858,-3.003708123126836e-05,-0.00015819223303559227,-0.00014477955240801976,5.480448404870941e-06,1.525878241648293e-06,0.0005970189748568296,-0.0005333052680553337,-0.0004145489165145857,-0.00046048662175318466,-0.00031120816811596233,-0.002643441294468454,0.001637849484223329,0.12130087614059448,11.774744033813477,-1.1918060779571533,-21.717256546020508,-0.4571433663368225,-2.5335726737976074,0.16604940593242645,0
42,0.20501255989074707,-0.12130087614059448,-11.774744033813477,1.1918060779571533,21.717256546020508,0.4571433663368225,2.5335726737976074,-0.16604940593242645,0.0,0.0,0.0,0.0,0.0,0.0,0.0,-0.1434966935194614,0.5759030744779232,0.007607560362962197,0.43297028157022105,-0.06845696155679287,0.12668755312714558,-0.2243155633585837,0.1728210487010186,-0.4876443459336847,-0.1114410636477301,-1.946221994115595,0.1337506814599037,2.595544879330529,0.9452430330829488,0.1728802376190821,-0.48752024683155326,-0.11147110072896137,-1.9463801863486305,0.1336059019074957,2.595550359778934,0.9452445589611904,-0.0005970189748568296,0.0005333052680553337,0.0004145489165145857,0.00046048662175318466,0.00031120816811596233,0.002643441294468454,-0.001637849484223329,0.0,0.0,0.0,0.0,0.0,0.0,0.0,5.9188918063501905e-05,0.00012409910213145858,-3.003708123126836e-05,-0.00015819223303559227,-0.00014477955240801976,5.480448404870941e-06,1.525878241648293e-06,0.0005970189748568296,-0.0005333052680553337,-0.0004145489165145857,-0.00046048662175318466,-0.00031120816811596233,-0.002643441294468454,0.001637849484223329,0.12130087614059448,11.774744033813477,-1.1918060779571533,-21.717256546020508,-0.4571433663368225,-2.5335726737976074,0.16604940593242645,0
43,0.21001100540161133,-0.14510458707809448,-11.802515029907227,1.1918060779571533,21.768831253051758,0.4626365303993225,2.5271639823913574,-0.24112264811992645,0.0,0.0,0.0,0.0,0.0,0.0,0.0,-0.14911877383892674,0.5580961258120474,-5.8170122330938904e-05,0.4472909224851222,-0.06860651411272084,0.13123864442845135,-0.22230370996915727,0.1728227191368739,-0.4876424795063073,-0.1114410636477303,-1.9462256133932814,0.13375007110834122,2.595545591407352,0.9452514952353122,0.1728802376190821,-0.48752024683155326,-0.11147110072896137,-1.9463801863486305,0.1336059019074957,2.595550359778934,0.9452445589611904,-0.0003602361969163741,0.0009227708698533136,-0.0002318352620758569,-0.00043354207826523785,9.838572577711724e-05,9.822278290919838e-05,0.005185413349410602,0.0,0.0,0.0,0.0,0.0,0.0,0.0,5.75184822082242e-05,0.00012223267475403032,-3.0037081231060192e-05,-0.0001545729553491526,-0.0001441692008455342,4.76837158203125e-06,-6.936274121738251e-06,0.0003602361969163741,-0.0009227708698533136,0.0002318352620758569,0.00043354207826523785,-9.838572577711724e-05,-9.822278290919838e-05,-0.005185413349410602,0.14510458707809448,11.802515029907227,-1.1918060779571533,-21.768831253051758,-0.4626365303993225,-2.5271639823913574,0.24112264811992645,0
44,0.21500182151794434,-0.14510458707809448,-11.802515029907227,1.1918060779571533,21.768831253051758,0.4626365303993225,2.5271639823913574,-0.24112264811992645,0.0,0.0,0.0,0.0,0.0,0.0,0.0,-0.14911877383892674,0.5580961258120474,-5.8170122330938904e-05,0.4472909224851222,-0.06860651411272084,0.13123864442845135,-0.22230370996915727,0.1728227191368739,-0.4876424795063073,-0.1114410636477303,-1.9462256133932814,0.13375007110834122,2.595545591407352,0.9452514952353122,0.1728802376190821,-0.48752024683155326,-0.11147110072896137,-1.9463801863486305,0.1336059019074957,2.595550359778934,0.9452445589611904,-0.0003602361969163741,0.0009227708698533136,-0.0002318352620758569,-0.00043354207826523785,9.838572577711724e-05,9.822278290919838e-05,0.005185413349410602,0.0,0.0,0.0,0.0,0.0,0.0,0.0,5.75184822082242e-05,0.00012223267475403032,-3.0037081231060192e-05,-0.0001545729553491526,-0.0001441692008455342,4.76837158203125e-06,-6.936274121738251e-06,0.0003602361969163741,-0.0009227708698533136,0.0002318352620758569,0.00043354207826523785,-9.838572577711724e-05,-9.822278290919838e-05,-0.005185413349410602,0.14510458707809448,11.802515029907227,-1.1918060779571533,-21.768831253051758,-0.4626365303993225,-2.5271639823913574,0.24112264811992645,0
45,0.21999859809875488,-0.12130087614059448,-11.699365615844727,1.1680023670196533,21.741060256958008,0.4745383858680725,2.5271639823913574,-0.24844686686992645,0.0,0.0,0.0,0.0,0.0,0.0,0.0,-0.14796159966625147,0.5592077285648025,-0.0017157751974190346,0.4495473101071967,-0.06903881369646836,0.13160701767039684,-0.22234901882700533,0.1728210487010186,-0.4876496650802389,-0.11143939321187504,-1.946223665496258,0.1337487486799558,2.595545591407352,0.9452521883570675,0.1728802376190821,-0.48752024683155326,-0.11147110072896137,-1.9463801863486305,0.1336059019074957,2.595550359778934,0.9452445589611904,-0.0010228460767466342,-0.0013194245614817394,0.0005551878215069537,-0.00014700714150841723,-0.0003323961381782275,0.0001520009655467616,0.0019457774794906914,0.0,0.0,0.0,0.0,0.0,0.0,0.0,5.9188918063501905e-05,0.0001294182486856199,-3.170751708632402e-05,-0.00015652085237261026,-0.00014284677246009791,4.76837158203125e-06,-7.62939587706235e-06,0.0010228460767466342,0.0013194245614817394,-0.0005551878215069537,0.00014700714150841723,0.0003323961381782275,-0.0001520009655467616,-0.0019457774794906914,0.12130087614059448,11.699365615844727,-1.1680023670196533,-21.741060256958008,-0.4745383858680725,-2.5271639823913574,0.24844686686992645,0
46,0.22499775886535645,-0.12130087614059448,-11.699365615844727,1.1680023670196533,21.741060256958008,0.4745383858680725,2.5271639823913574,-0.24844686686992645,0.0,0.0,0.0,0.0,0.0,0.0,0.0,-0.14796159966625147,0.5592077285648025,-0.0017157751974190346,0.4495473101071967,-0.06903881369646836,0.13160701767039684,-0.22234901882700533,0.1728210487010186,-0.4876496650802389,-0.11143939321187504,-1.946223665496258,0.1337487486799558,2.595545591407352,0.9452521883570675,0.1728802376190821,-0.48752024683155326,-0.11147110072896137,-1.9463801863486305,0.1336059019074957,2.595550359778934,0.9452445589611904,-0.0010228460767466342,-0.0013194245614817394,0.0005551878215069537,-0.00014700714150841723,-0.0003323961381782275,0.0001520009655467616,0.0019457774794906914,0.0,0.0,0.0,0.0,0.0,0.0,0.0,5.9188918063501905e-05,0.0001294182486856199,-3.170751708632402e-05,-0.00015652085237261026,-0.00014284677246009791,4.76837158203125e-06,-7.62939587706235e-06,0.0010228460767466342,0.0013194245614817394,-0.0005551878215069537,0.00014700714150841723,0.0003323961381782275,-0.0001520009655467616,-0.0019457774794906914,0.12130087614059448,11.699365615844727,-1.1680023670196533,-21.741060256958008,-0.4745383858680725,-2.5271639823913574,0.24844686686992645,0
47,0.22999787330627441,-0.12130087614059448,-11.727136611938477,1.1680023670196533,21.768831253051758,0.4626365303993225,2.5271639823913574,-0.22098104655742645,0.0,0.0,0.0,0.0,0.0,0.0,0.0,-0.14521385376377646,0.5675415902272083,0.00020177665384560835,0.44715764799007,-0.06864381641577653,0.1303521350085681,-0.22262023960145577,0.1728210487010186,-0.4876477663855921,-0.11143939321187504,-1.9462256133932867,0.13375003161719795,2.595545591407352,0.9452491365985738,0.1728802376190821,-0.48752024683155326,-0.11147110072896137,-1.9463801863486305,0.1336059019074957,2.595550359778934,0.9452445589611904,-0.00012980904100114442,1.9335668236925044e-05,0.00036859289170798035,-0.0009885275422834231,0.00018464810221995804,-2.3027718211751707e-05,0.0007593530155400176,0.0,0.0,0.0,0.0,0.0,0.0,0.0,5.9188918063501905e-05,0.0001275195540388352,-3.170751708632402e-05,-0.00015457295534382354,-0.00014412970970226202,4.76837158203125e-06,-4.5776373833739115e-06,0.00012980904100114442,-1.9335668236925044e-05,-0.00036859289170798035,0.0009885275422834231,-0.00018464810221995804,2.3027718211751707e-05,-0.0007593530155400176,0.12130087614059448,11.727136611938477,-1.1680023670196533,-21.768831253051758,-0.4626365303993225,-2.5271639823913574,0.22098104655742645,0
48,0.2350006103515625,-0.12130087614059448,-11.727136611938477,1.1680023670196533,21.768831253051758,0.4626365303993225,2.5271639823913574,-0.22098104655742645,0.0,0.0,0.0,0.0,0.0,0.0,0.0,-0.14521385376377646,0.5675415902272083,0.00020177665384560835,0.44715764799007,-0.06864381641577653,0.1303521350085681,-0.22262023960145577,0.1728210487010186,-0.4876477663855921,-0.11143939321187504,-1.9462256133932867,0.13375003161719795,2.595545591407352,0.9452491365985738,0.1728802376190821,-0.48752024683155326,-0.11147110072896137,-1.9463801863486305,0.1336059019074957,2.595550359778934,0.9452445589611904,-0.00012980904100114442,1.9335668236925044e-05,0.00036859289170798035,-0.0009885275422834231,0.00018464810221995804,-2.3027718211751707e-05,0.0007593530155400176,0.0,0.0,0.0,0.0,0.0,0.0,0.0,5.9188918063501905e-05,0.0001275195540388352,-3.170751708632402e-05,-0.00015457295534382354,-0.00014412970970226202,4.76837158203125e-06,-4.5776373833739115e-06,0.00012980904100114442,-1.9335668236925044e-05,-0.00036859289170798035,0.0009885275422834231,-0.00018464810221995804,2.3027718211751707e-05,-0.0007593530155400176,0.12130087614059448,11.727136611938477,-1.1680023670196533,-21.768831253051758,-0.4626365303993225,-2.5271639823913574,0.22098104655742645,0
49,0.23999857902526855,-0.12130087614059448,-11.774744033813477,1.1680023670196533,21.741060256958008,0.4626365303993225,2.5207552909851074,-0.17978231608867645,0.0,0.0,0.0,0.0,0.0,0.0,0.0,-0.1485300485956889,0.5582999268303167,-0.006762296517052083,0.45405087121362525,-0.06832355696344743,0.13037105915180522,-0.22237209309282582,0.1728210487010186,-0.48764673306151896,-0.11143939321187504,-1.9462236645514503,0.1337500711081183,2.595546303484175,0.945244558961855,0.1728802376190821,-0.48752024683155326,-0.11147110072896137,-1.9463801863486305,0.1336059019074957,2.595550359778934,0.9452445589611904,-0.0010771121001896563,0.0005294443087011545,0.00031755231021400924,-6.262515016778094e-05,-1.983176160687043e-05,-4.628593551795005e-05,-0.0014272384133384058,0.0,0.0,0.0,0.0,0.0,0.0,0.0,5.9188918063501905e-05,0.00012648622996569436,-3.170751708632402e-05,-0.00015652179718017578,-0.0001441692006226014,4.056294759191559e-06,-6.645795025406187e-13,0.0010771121001896563,-0.0005294443087011545,-0.00031755231021400924,6.262515016778094e-05,1.983176160687043e-05,4.628593551795005e-05,0.0014272384133384058,0.12130087614059448,11.774744033813477,-1.1680023670196533,-21.741060256958008,-0.4626365303993225,-2.5207552909851074,0.17978231608867645,0
50,0.24499726295471191,-0.12130087614059448,-11.774744033813477,1.1680023670196533,21.741060256958008,0.4626365303993225,2.5207552909851074,-0.17978231608867645,0.0,0.0,0.0,0.0,0.0,0.0,0.0,-0.1485300485956889,0.5582999268303167,-0.006762296517052083,0.45405087121362525,-0.06832355696344743,0.13037105915180522,-0.22237209309282582,0.1728210487010186,-0.48764673306151896,-0.11143939321187504,-1.9462236645514503,0.1337500711081183,2.595546303484175,0.945244558961855,0.1728802376190821,-0.48752024683155326,-0.11147110072896137,-1.9463801863486305,0.1336059019074957,2.595550359778934,0.9452445589611904,-0.0010771121001896563,0.0005294443087011545,0.00031755231021400924,-6.262515016778094e-05,-1.983176160687043e-05,-4.628593551795005e-05,-0.0014272384133384058,0.0,0.0,0.0,0.0,0.0,0.0,0.0,5.9188918063501905e-05,0.00012648622996569436,-3.170751708632402e-05,-0.00015652179718017578,-0.0001441692006226014,4.056294759191559e-06,-6.645795025406187e-13,0.0010771121001896563,-0.0005294443087011545,-0.00031755231021400924,6.262515016778094e-05,1.983176160687043e-05,4.628593551795005e-05,0.0014272384133384058,0.12130087614059448,11.774744033813477,-1.1680023670196533,-21.741060256958008,-0.4626365303993225,-2.5207552909851074,0.17978231608867645,0
51,0.24999666213989258,-0.12130087614059448,-11.774744033813477,1.1680023670196533,21.741060256958008,0.4626365303993225,2.5207552909851074,-0.17978231608867645,0.0,0.0,0.0,0.0,0.0,0.0,0.0,-0.1485300485956889,0.5582999268303167,-0.006762296517052083,0.45405087121362525,-0.06832355696344743,0.13037105915180522,-0.22237209309282582,0.1728210487010186,-0.48764673306151896,-0.11143939321187504,-1.9462236645514503,0.1337500711081183,2.595546303484175,0.945244558961855,0.1728802376190821,-0.48752024683155326,-0.11147110072896137,-1.9463801863486305,0.1336059019074957,2.595550359778934,0.9452445589611904,-0.0010771121001896563,0.0005294443087011545,0.00031755231021400924,-6.262515016778094e-05,-1.983176160687043e-05,-4.628593551795005e-05,-0.0014272384133384058,0.0,0.0,0.0,0.0,0.0,0.0,0.0,5.9188918063501905e-05,0.00012648622996569436,-3.170751708632402e-05,-0.00015652179718017578,-0.0001441692006226014,4.056294759191559e-06,-6.645795025406187e-13,0.0010771121001896563,-0.0005294443087011545,-0.00031755231021400924,6.262515016778094e-05,1.983176160687043e-05,4.628593551795005e-05,0.0014272384133384058,0.12130087614059448,11.774744033813477,-1.1680023670196533,-21.741060256958008,-0.4626365303993225,-2.5207552909851074,0.17978231608867645,0
52,0.25499749183654785,-0.12130087614059448,-11.774744033813477,1.1680023670196533,21.741060256958008,0.4626365303993225,2.5207552909851074,-0.17978231608867645,0.0,0.0,0.0,0.0,0.0,0.0,0.0,-0.1485300485956889,0.5582999268303167,-0.006762296517052083,0.45405087121362525,-0.06832355696344743,0.13037105915180522,-0.22237209309282582,0.1728210487010186,-0.48764673306151896,-0.11143939321187504,-1.9462236645514503,0.1337500711081183,2.595546303484175,0.945244558961855,0.1728802376190821,-0.48752024683155326,-0.11147110072896137,-1.9463801863486305,0.1336059019074957,2.595550359778934,0.9452445589611904,-0.0010771121001896563,0.0005294443087011545,0.00031755231021400924,-6.262515016778094e-05,-1.983176160687043e-05,-4.628593551795005e-05,-0.0014272384133384058,0.0,0.0,0.0,0.0,0.0,0.0,0.0,5.9188918063501905e-05,0.00012648622996569436,-3.170751708632402e-05,-0.00015652179718017578,-0.0001441692006226014,4.056294759191559e-06,-6.645795025406187e-13,0.0010771121001896563,-0.0005294443087011545,-0.00031755231021400924,6.262515016778094e-05,1.983176160687043e-05,4.628593551795005e-05,0.0014272384133384058,0.12130087614059448,11.774744033813477,-1.1680023670196533,-21.741060256958008,-0.4626365303993225,-2.5207552909851074,0.17978231608867645,0
53,0.25999951362609863,-0.14510458707809448,-11.750940322875977,1.1441986560821533,21.717256546020508,0.4626365303993225,2.5207552909851074,-0.22098104655742645,0.0,0.0,0.0,0.0,0.0,0.0,0.0,-0.14482169776369747,0.559973673878593,-0.0011736620455684984,0.4543489133545401,-0.06894217346981651,0.128587939804008,-0.2219541939686087,0.1728227191368739,-0.4876467316732462,-0.11143772277601978,-1.946221994115595,0.1337500711083412,2.595546303484175,0.9452491365985738,0.1728802376190821,-0.48752024683155326,-0.11147110072896137,-1.9463801863486305,0.1336059019074957,2.595550359778934,0.9452445589611904,0.00018215365085370278,-0.00017416159664349155,0.0010947582463835558,0.0005993795069710678,7.124816074359781e-07,0.00025224362104192186,0.0003807128047857367,0.0,0.0,0.0,0.0,0.0,0.0,0.0,5.75184822082242e-05,0.00012648484169291985,-3.337795294158785e-05,-0.00015819223303559227,-0.00014416920084550644,4.056294759191559e-06,-4.5776373833739115e-06,-0.00018215365085370278,0.00017416159664349155,-0.0010947582463835558,-0.0005993795069710678,-7.124816074359781e-07,-0.00025224362104192186,-0.0003807128047857367,0.14510458707809448,11.750940322875977,-1.1441986560821533,-21.717256546020508,-0.4626365303993225,-2.5207552909851074,0.22098104655742645,0
54,0.26499366760253906,-0.14510458707809448,-11.750940322875977,1.1441986560821533,21.717256546020508,0.4626365303993225,2.5207552909851074,-0.22098104655742645,0.0,0.0,0.0,0.0,0.0,0.0,0.0,-0.14482169776369747,0.559973673878593,-0.0011736620455684984,0.4543489133545401,-0.06894217346981651,0.128587939804008,-0.2219541939686087,0.1728227191368739,-0.4876467316732462,-0.11143772277601978,-1.946221994115595,0.1337500711083412,2.595546303484175,0.9452491365985738,0.1728802376190821,-0.48752024683155326,-0.11147110072896137,-1.9463801863486305,0.1336059019074957,2.595550359778934,0.9452445589611904,0.00018215365085370278,-0.00017416159664349155,0.0010947582463835558,0.0005993795069710678,7.124816074359781e-07,0.00025224362104192186,0.0003807128047857367,0.0,0.0,0.0,0.0,0.0,0.0,0.0,5.75184822082242e-05,0.00012648484169291985,-3.337795294158785e-05,-0.00015819223303559227,-0.00014416920084550644,4.056294759191559e-06,-4.5776373833739115e-06,-0.00018215365085370278,0.00017416159664349155,-0.0010947582463835558,-0.0005993795069710678,-7.124816074359781e-07,-0.00025224362104192186,-0.0003807128047857367,0.14510458707809448,11.750940322875977,-1.1441986560821533,-21.717256546020508,-0.4626365303993225,-2.5207552909851074,0.22098104655742645,0
55,0.2700028419494629,-0.12130087614059448,-11.750940322875977,1.1680023670196533,21.741060256958008,0.4690452218055725,2.5399813652038574,-0.21457235515117645,0.0,0.0,0.0,0.0,0.0,0.0,0.0,-0.14796794951577366,0.5593164522680216,-0.011062447317466511,0.45588918622545044,-0.06795766932743479,0.12834688318928292,-0.22126263667199791,0.1728210487010186,-0.4876467317364862,-0.11143939321187504,-1.9462236645514503,0.13374935903151827,2.5955441672537063,0.9452484245217508,0.1728802376190821,-0.48752024683155326,-0.11147110072896137,-1.9463801863486305,0.1336059019074957,2.595550359778934,0.9452445589611904,-0.0002464787963640309,-0.00041414617487204106,0.0004499381124417119,8.485928607384386e-05,-0.001174296809159741,-0.0004615233192260955,4.7452750167647116e-05,0.0,0.0,0.0,0.0,0.0,0.0,0.0,5.9188918063501905e-05,0.00012648490493294418,-3.170751708632402e-05,-0.00015652179718017578,-0.00014345712402258348,6.192525227710632e-06,-3.865560560423198e-06,0.0002464787963640309,0.00041414617487204106,-0.0004499381124417119,-8.485928607384386e-05,0.001174296809159741,0.0004615233192260955,-4.7452750167647116e-05,0.12130087614059448,11.750940322875977,-1.1680023670196533,-21.741060256958008,-0.4690452218055725,-2.5399813652038574,0.21457235515117645,0
56,0.275010347366333,-0.12130087614059448,-11.750940322875977,1.1680023670196533,21.741060256958008,0.4690452218055725,2.5399813652038574,-0.21457235515117645,0.0,0.0,0.0,0.0,0.0,0.0,0.0,-0.14796794951577366,0.5593164522680216,-0.011062447317466511,0.45588918622545044,-0.06795766932743479,0.12834688318928292,-0.22126263667199791,0.1728210487010186,-0.4876467317364862,-0.11143939321187504,-1.9462236645514503,0.13374935903151827,2.5955441672537063,0.9452484245217508,0.1728802376190821,-0.48752024683155326,-0.11147110072896137,-1.9463801863486305,0.1336059019074957,2.595550359778934,0.9452445589611904,-0.0002464787963640309,-0.00041414617487204106,0.0004499381124417119,8.485928607384386e-05,-0.001174296809159741,-0.0004615233192260955,4.7452750167647116e-05,0.0,0.0,0.0,0.0,0.0,0.0,0.0,5.9188918063501905e-05,0.00012648490493294418,-3.170751708632402e-05,-0.00015652179718017578,-0.00014345712402258348,6.192525227710632e-06,-3.865560560423198e-06,0.0002464787963640309,0.00041414617487204106,-0.0004499381124417119,-8.485928607384386e-05,0.001174296809159741,0.0004615233192260955,-4.7452750167647116e-05,0.12130087614059448,11.750940322875977,-1.1680023670196533,-21.741060256958008,-0.4690452218055725,-2.5399813652038574,0.21457235515117645,0
57,0.279996395111084,-0.14510458707809448,-11.774744033813477,1.2156097888946533,21.792634963989258,0.4690452218055725,2.5207552909851074,-0.19351522624492645,0.0,0.0,0.0,0.0,0.0,0.0,0.0,-0.14848936347142794,0.5571316685513843,-0.014383131719073997,0.45593238943588543,-0.06790846080076099,0.12915959688810685,-0.22047081606351912,0.1728227191368739,-0.4876474552225168,-0.11144273408358557,-1.9462272866635595,0.1337493590495755,2.595546303484175,0.9452460848407613,0.1728802376190821,-0.48752024683155326,-0.11147110072896137,-1.9463801863486305,0.1336059019074957,2.595550359778934,0.9452445589611904,-0.0004459093499493888,0.00013502273913248592,-0.0008462261972661259,-0.0006923127623931505,-9.584512358382865e-05,0.00022079408968814462,-0.000755273078750223,0.0,0.0,0.0,0.0,0.0,0.0,0.0,5.75184822082242e-05,0.0001272083909635291,-2.8366645375796362e-05,-0.00015289968507103957,-0.00014345714207980587,4.056294759191559e-06,-1.5258795709183204e-06,0.0004459093499493888,-0.00013502273913248592,0.0008462261972661259,0.0006923127623931505,9.584512358382865e-05,-0.00022079408968814462,0.000755273078750223,0.14510458707809448,11.774744033813477,-1.2156097888946533,-21.792634963989258,-0.4690452218055725,-2.5207552909851074,0.19351522624492645,0
58,0.2849998474121094,-0.14510458707809448,-11.774744033813477,1.2156097888946533,21.792634963989258,0.4690452218055725,2.5207552909851074,-0.19351522624492645,0.0,0.0,0.0,0.0,0.0,0.0,0.0,-0.14848936347142794,0.5571316685513843,-0.014383131719073997,0.45593238943588543,-0.06790846080076099,0.12915959688810685,-0.22047081606351912,0.1728227191368739,-0.4876474552225168,-0.11144273408358557,-1.9462272866635595,0.1337493590495755,2.595546303484175,0.9452460848407613,0.1728802376190821,-0.48752024683155326,-0.11147110072896137,-1.9463801863486305,0.1336059019074957,2.595550359778934,0.9452445589611904,-0.0004459093499493888,0.00013502273913248592,-0.0008462261972661259,-0.0006923127623931505,-9.584512358382865e-05,0.00022079408968814462,-0.000755273078750223,0.0,0.0,0.0,0.0,0.0,0.0,0.0,5.75184822082242e-05,0.0001272083909635291,-2.8366645375796362e-05,-0.00015289968507103957,-0.00014345714207980587,4.056294759191559e-06,-1.5258795709183204e-06,0.0004459093499493888,-0.00013502273913248592,0.0008462261972661259,0.0006923127623931505,9.584512358382865e-05,-0.00022079408968814462,0.000755273078750223,0.14510458707809448,11.774744033813477,-1.2156097888946533,-21.792634963989258,-0.4690452218055725,-2.5207552909851074,0.19351522624492645,0
59,0.29000258445739746,-0.12130087614059448,-11.774744033813477,1.1918060779571533,21.741060256958008,0.4690452218055725,2.5271639823913574,-0.21457235515117645,0.0,0.0,0.0,0.0,0.0,0.0,0.0,-0.14209078153899585,0.5586424429732756,0.0006266902695410689,0.45520485764187885,-0.06783822513636842,0.12799551137526474,-0.22001519582849954,0.17282105744957416,-0.4876472069723407,-0.1114410636477303,-1.9462236645514663,0.13374935903151838,2.595545591407352,0.9452484245217508,0.1728802376190821,-0.48752024683155326,-0.11147110072896137,-1.9463801863486305,0.1336059019074957,2.595550359778934,0.9452445589611904,-0.0005232300782554008,-8.924661843802535e-05,0.00011079381547104359,0.00036164037434961076,0.0001243922483456673,1.3771572258574587e-05,-0.00035602132747078474,0.0,0.0,0.0,0.0,0.0,0.0,0.0,5.918016950795524e-05,0.00012696014078744655,-3.0037081231060192e-05,-0.00015652179716418857,-0.0001434571240226945,4.76837158203125e-06,-3.865560560423198e-06,0.0005232300782554008,8.924661843802535e-05,-0.00011079381547104359,-0.00036164037434961076,-0.0001243922483456673,-1.3771572258574587e-05,0.00035602132747078474,0.12130087614059448,11.774744033813477,-1.1918060779571533,-21.741060256958008,-0.4690452218055725,-2.5271639823913574,0.21457235515117645,0
60,0.2949998378753662,-0.12130087614059448,-11.774744033813477,1.1918060779571533,21.741060256958008,0.4690452218055725,2.5271639823913574,-0.21457235515117645,0.0,0.0,0.0,0.0,0.0,0.0,0.0,-0.14209078153899585,0.5586424429732756,0.0006266902695410689,0.45520485764187885,-0.06783822513636842,0.12799551137526474,-0.22001519582849954,0.17282105744957416,-0.4876472069723407,-0.1114410636477303,-1.9462236645514663,0.13374935903151838,2.595545591407352,0.9452484245217508,0.1728802376190821,-0.48752024683155326,-0.11147110072896137,-1.9463801863486305,0.1336059019074957,2.595550359778934,0.9452445589611904,-0.0005232300782554008,-8.924661843802535e-05,0.00011079381547104359,0.00036164037434961076,0.0001243922483456673,1.3771572258574587e-05,-0.00035602132747078474,0.0,0.0,0.0,0.0,0.0,0.0,0.0,5.918016950795524e-05,0.00012696014078744655,-3.0037081231060192e-05,-0.00015652179716418857,-0.0001434571240226945,4.76837158203125e-06,-3.865560560423198e-06,0.0005232300782554008,8.924661843802535e-05,-0.00011079381547104359,-0.00036164037434961076,-0.0001243922483456673,-1.3771572258574587e-05,0.00035602132747078474,0.12130087614059448,11.774744033813477,-1.1918060779571533,-21.741060256958008,-0.4690452218055725,-2.5271639823913574,0.21457235515117645,0
61,0.29999566078186035,-0.17287558317184448,-11.802515029907227,1.2156097888946533,21.717256546020508,0.4571433663368225,2.5335726737976074,-0.22830526530742645,0.0,0.0,0.0,0.0,0.0,0.0,0.0,-0.1456305185693333,0.5646280151146853,-0.0032963350760961004,0.44944993056454285,-0.06615861972089647,0.12733999653506747,-0.22123005303601742,0.1728246679787544,-0.4876455861953987,-0.11144273408358557,-1.946221994115595,0.1337506814599037,2.595544879330529,0.9452499504006571,0.1728802376190821,-0.48752024683155326,-0.11147110072896137,-1.9463801863486305,0.1336059019074957,2.595550359778934,0.9452445589611904,0.0008436528109398884,0.0011880341107686847,-0.0006504594423743203,0.00043493719786925157,0.0005786451682138278,-0.00031926179092031507,0.00038371162158357564,0.0,0.0,0.0,0.0,0.0,0.0,0.0,5.556964032771283e-05,0.00012533936384545585,-2.8366645375796362e-05,-0.00015819223303559227,-0.00014477955240801976,5.480448404870941e-06,-5.3914394666509935e-06,-0.0008436528109398884,-0.0011880341107686847,0.0006504594423743203,-0.00043493719786925157,-0.0005786451682138278,0.00031926179092031507,-0.00038371162158357564,0.17287558317184448,11.802515029907227,-1.2156097888946533,-21.717256546020508,-0.4571433663368225,-2.5335726737976074,0.22830526530742645,0
62,0.3049945831298828,-0.17287558317184448,-11.802515029907227,1.2156097888946533,21.717256546020508,0.4571433663368225,2.5335726737976074,-0.22830526530742645,0.0,0.0,0.0,0.0,0.0,0.0,0.0,-0.1456305185693333,0.5646280151146853,-0.0032963350760961004,0.44944993056454285,-0.06615861972089647,0.12733999653506747,-0.22123005303601742,0.1728246679787544,-0.4876455861953987,-0.11144273408358557,-1.946221994115595,0.1337506814599037,2.595544879330529,0.9452499504006571,0.1728802376190821,-0.48752024683155326,-0.11147110072896137,-1.9463801863486305,0.1336059019074957,2.595550359778934,0.9452445589611904,0.0008436528109398884,0.0011880341107686847,-0.0006504594423743203,0.00043493719786925157,0.0005786451682138278,-0.00031926179092031507,0.00038371162158357564,0.0,0.0,0.0,0.0,0.0,0.0,0.0,5.556964032771283e-05,0.00012533936384545585,-2.8366645375796362e-05,-0.00015819223303559227,-0.00014477955240801976,5.480448404870941e-06,-5.3914394666509935e-06,-0.0008436528109398884,-0.0011880341107686847,0.0006504594423743203,-0.00043493719786925157,-0.0005786451682138278,0.00031926179092031507,-0.00038371162158357564,0.17287558317184448,11.802515029907227,-1.2156097888946533,-21.717256546020508,-0.4571433663368225,-2.5335726737976074,0.22830526530742645,0
63,0.3099966049194336,-0.12130087614059448,-11.774744033813477,1.2156097888946533,21.768831253051758,0.4745383858680725,2.5271639823913574,-0.21457235515117645,0.0,0.0,0.0,0.0,0.0,0.0,0.0,-0.17958009521728197,0.545494788829329,-0.05720327894907242,0.4577418679791618,-0.06345704816313366,0.12964951616176318,-0.2220817815896838,0.1728210487010186,-0.48764649204410276,-0.11144273408358557,-1.9462256133932814,0.1337487486799558,2.595545591407352,0.9452484240372341,0.1728802376190821,-0.48752024683155326,-0.11147110072896137,-1.9463801863486305,0.1336059019074957,2.595550359778934,0.9452445589611904,-0.0006261418740750317,5.922670571105068e-05,-0.00021349843156711875,-0.0006076213616552285,-0.00024199433357319927,-1.5311928753253056e-05,-1.0323768921929342e-05,0.0,0.0,0.0,0.0,0.0,0.0,0.0,5.9188918063501905e-05,0.00012624521254950283,-2.8366645375796362e-05,-0.0001545729553491526,-0.00014284677246009791,4.76837158203125e-06,-3.8650760436631515e-06,0.0006261418740750317,-5.922670571105068e-05,0.00021349843156711875,0.0006076213616552285,0.00024199433357319927,1.5311928753253056e-05,1.0323768921929342e-05,0.12130087614059448,11.774744033813477,-1.2156097888946533,-21.768831253051758,-0.4745383858680725,-2.5271639823913574,0.21457235515117645,0
64,0.31499528884887695,-0.12130087614059448,-11.774744033813477,1.2156097888946533,21.768831253051758,0.4745383858680725,2.5271639823913574,-0.21457235515117645,0.0,0.0,0.0,0.0,0.0,0.0,0.0,-0.17958009521728197,0.545494788829329,-0.05720327894907242,0.4577418679791618,-0.06345704816313366,0.12964951616176318,-0.2220817815896838,0.1728210487010186,-0.48764649204410276,-0.11144273408358557,-1.9462256133932814,0.1337487486799558,2.595545591407352,0.9452484240372341,0.1728802376190821,-0.48752024683155326,-0.11147110072896137,-1.9463801863486305,0.1336059019074957,2.595550359778934,0.9452445589611904,-0.0006261418740750317,5.922670571105068e-05,-0.00021349843156711875,-0.0006076213616552285,-0.00024199433357319927,-1.5311928753253056e-05,-1.0323768921929342e-05,0.0,0.0,0.0,0.0,0.0,0.0,0.0,5.9188918063501905e-05,0.00012624521254950283,-2.8366645375796362e-05,-0.0001545729553491526,-0.00014284677246009791,4.76837158203125e-06,-3.8650760436631515e-06,0.0006261418740750317,-5.922670571105068e-05,0.00021349843156711875,0.0006076213616552285,0.00024199433357319927,1.5311928753253056e-05,1.0323768921929342e-05,0.12130087614059448,11.774744033813477,-1.2156097888946533,-21.768831253051758,-0.4745383858680725,-2.5271639823913574,0.21457235515117645,0
65,0.31999969482421875,-0.17287558317184448,-11.774744033813477,1.1918060779571533,21.741060256958008,0.4571433663368225,2.5207552909851074,-0.20724813640117645,0.0,0.0,0.0,0.0,0.0,0.0,0.0,-0.13918878120742276,0.5550226921772731,0.009553063100225436,0.45394704012871856,-0.06669124970316832,0.1277827315839489,-0.22323056396885893,0.17282466797870502,-0.48764435488328833,-0.1114410636477303,-1.9462236645514503,0.1337506814599037,2.595546303484175,0.9452476107196648,0.1728802376190821,-0.48752024683155326,-0.11147110072896137,-1.9463801863486305,0.1336059019074957,2.595550359778934,0.9452445589611904,0.000696520208695727,0.0001398853516497088,0.00046162804888140647,-0.00020462323322274374,0.00031236006055034547,0.00024217438003681842,-8.761776636891069e-05,0.0,0.0,0.0,0.0,0.0,0.0,0.0,5.556964037709e-05,0.00012410805173507233,-3.0037081231060192e-05,-0.00015652179718017578,-0.00014477955240801976,4.056294759191559e-06,-3.0517584743705584e-06,-0.000696520208695727,-0.0001398853516497088,-0.00046162804888140647,0.00020462323322274374,-0.00031236006055034547,-0.00024217438003681842,8.761776636891069e-05,0.17287558317184448,11.774744033813477,-1.1918060779571533,-21.741060256958008,-0.4571433663368225,-2.5207552909851074,0.20724813640117645,0
66,0.3250000476837158,-0.17287558317184448,-11.774744033813477,1.1918060779571533,21.741060256958008,0.4571433663368225,2.5207552909851074,-0.20724813640117645,0.0,0.0,0.0,0.0,0.0,0.0,0.0,-0.13918878120742276,0.5550226921772731,0.009553063100225436,0.45394704012871856,-0.06669124970316832,0.1277827315839489,-0.22323056396885893,0.17282466797870502,-0.48764435488328833,-0.1114410636477303,-1.9462236645514503,0.1337506814599037,2.595546303484175,0.9452476107196648,0.1728802376190821,-0.48752024683155326,-0.11147110072896137,-1.9463801863486305,0.1336059019074957,2.595550359778934,0.9452445589611904,0.000696520208695727,0.0001398853516497088,0.00046162804888140647,-0.00020462323322274374,0.00031236006055034547,0.00024217438003681842,-8.761776636891069e-05,0.0,0.0,0.0,0.0,0.0,0.0,0.0,5.556964037709e-05,0.00012410805173507233,-3.0037081231060192e-05,-0.00015652179718017578,-0.00014477955240801976,4.056294759191559e-06,-3.0517584743705584e-06,-0.000696520208695727,-0.0001398853516497088,-0.00046162804888140647,0.00020462323322274374,-0.00031236006055034547,-0.00024217438003681842,8.761776636891069e-05,0.17287558317184448,11.774744033813477,-1.1918060779571533,-21.741060256958008,-0.4571433663368225,-2.5207552909851074,0.20724813640117645,0
67,0.3299987316131592,-0.06972616910934448,-11.727136611938477,1.2433807849884033,21.717256546020508,0.4690452218055725,2.5207552909851074,-0.24844686686992645,0.0,0.0,0.0,0.0,0.0,0.0,0.0,-0.1374185777005189,0.5640943661529925,0.016090533659316536,0.44881769291839124,-0.06730871437248453,0.12705221458941768,-0.22321803356802336,0.17281742942333223,-0.48764792525848466,-0.11144468292541672,-1.946221994115595,0.1337493590315183,2.595546303484175,0.9452521898462752,0.1728802376190821,-0.48752024683155326,-0.11147110072896137,-1.9463801863486305,0.1336059019074957,2.595550359778934,0.9452445589611904,-0.0017274017714850104,-0.00043345627155318844,-0.0008879646081909698,0.0002907234766626243,-0.00014046817377410536,0.00020106650290437853,0.0018310336401383132,0.0,0.0,0.0,0.0,0.0,0.0,0.0,6.280819574988605e-05,0.00012767842693139908,-2.641780354464829e-05,-0.00015819223303559227,-0.00014345712402261124,4.056294759191559e-06,-7.630885084819461e-06,0.0017274017714850104,0.00043345627155318844,0.0008879646081909698,-0.0002907234766626243,0.00014046817377410536,-0.00020106650290437853,-0.0018310336401383132,0.06972616910934448,11.727136611938477,-1.2433807849884033,-21.717256546020508,-0.4690452218055725,-2.5207552909851074,0.24844686686992645,0
68,0.3350033760070801,-0.06972616910934448,-11.727136611938477,1.2433807849884033,21.717256546020508,0.4690452218055725,2.5207552909851074,-0.24844686686992645,0.0,0.0,0.0,0.0,0.0,0.0,0.0,-0.1374185777005189,0.5640943661529925,0.016090533659316536,0.44881769291839124,-0.06730871437248453,0.12705221458941768,-0.22321803356802336,0.17281742942333223,-0.48764792525848466,-0.11144468292541672,-1.946221994115595,0.1337493590315183,2.595546303484175,0.9452521898462752,0.1728802376190821,-0.48752024683155326,-0.11147110072896137,-1.9463801863486305,0.1336059019074957,2.595550359778934,0.9452445589611904,-0.0017274017714850104,-0.00043345627155318844,-0.0008879646081909698,0.0002907234766626243,-0.00014046817377410536,0.00020106650290437853,0.0018310336401383132,0.0,0.0,0.0,0.0,0.0,0.0,0.0,6.280819574988605e-05,0.00012767842693139908,-2.641780354464829e-05,-0.00015819223303559227,-0.00014345712402261124,4.056294759191559e-06,-7.630885084819461e-06,0.0017274017714850104,0.00043345627155318844,0.0008879646081909698,-0.0002907234766626243,0.00014046817377410536,-0.00020106650290437853,-0.0018310336401383132,0.06972616910934448,11.727136611938477,-1.2433807849884033,-21.717256546020508,-0.4690452218055725,-2.5207552909851074,0.24844686686992645,0
69,0.34000444412231445,-0.14510458707809448,-11.727136611938477,1.1918060779571533,21.741060256958008,0.4690452218055725,2.5207552909851074,-0.20083944499492645,0.0,0.0,0.0,0.0,0.0,0.0,0.0,-0.1392475367939261,0.5575540451204362,0.010497498795587354,0.4530879271188106,-0.06664686639558252,0.12794279364996314,-0.22278362933603119,0.1728227191368739,-0.4876479605810849,-0.1114410636477303,-1.9462236645514503,0.1337493590315183,2.595546303484175,0.945246898642853,0.1728802376190821,-0.48752024683155326,-0.11147110072896137,-1.9463801863486305,0.1336059019074957,2.595550359778934,0.9452445589611904,7.080566048911565e-05,-0.0004949102859920166,7.999075371168453e-05,-0.00017323445615907473,0.0002035131143490214,0.00021694406299352985,-0.00013700406546950208,0.0,0.0,0.0,0.0,0.0,0.0,0.0,5.75184822082242e-05,0.00012771374953163273,-3.0037081231060192e-05,-0.00015652179718017578,-0.00014345712402261124,4.056294759191559e-06,-2.3396816626330974e-06,-7.080566048911565e-05,0.0004949102859920166,-7.999075371168453e-05,0.00017323445615907473,-0.0002035131143490214,-0.00021694406299352985,0.00013700406546950208,0.14510458707809448,11.727136611938477,-1.1918060779571533,-21.741060256958008,-0.4690452218055725,-2.5207552909851074,0.20083944499492645,0
70,0.34499692916870117,-0.14510458707809448,-11.727136611938477,1.1918060779571533,21.741060256958008,0.4690452218055725,2.5207552909851074,-0.20083944499492645,0.0,0.0,0.0,0.0,0.0,0.0,0.0,-0.1392475367939261,0.5575540451204362,0.010497498795587354,0.4530879271188106,-0.06664686639558252,0.12794279364996314,-0.22278362933603119,0.1728227191368739,-0.4876479605810849,-0.1114410636477303,-1.9462236645514503,0.1337493590315183,2.595546303484175,0.945246898642853,0.1728802376190821,-0.48752024683155326,-0.11147110072896137,-1.9463801863486305,0.1336059019074957,2.595550359778934,0.9452445589611904,7.080566048911565e-05,-0.0004949102859920166,7.999075371168453e-05,-0.00017323445615907473,0.0002035131143490214,0.00021694406299352985,-0.00013700406546950208,0.0,0.0,0.0,0.0,0.0,0.0,0.0,5.75184822082242e-05,0.00012771374953163273,-3.0037081231060192e-05,-0.00015652179718017578,-0.00014345712402261124,4.056294759191559e-06,-2.3396816626330974e-06,-7.080566048911565e-05,0.0004949102859920166,-7.999075371168453e-05,0.00017323445615907473,-0.0002035131143490214,-0.00021694406299352985,0.00013700406546950208,0.14510458707809448,11.727136611938477,-1.1918060779571533,-21.741060256958008,-0.4690452218055725,-2.5207552909851074,0.20083944499492645,0
71,0.349994421005249,-0.14510458707809448,-11.727136611938477,1.1918060779571533,21.741060256958008,0.4690452218055725,2.5207552909851074,-0.20083944499492645,0.0,0.0,0.0,0.0,0.0,0.0,0.0,-0.1392475367939261,0.5575540451204362,0.010497498795587354,0.4530879271188106,-0.06664686639558252,0.12794279364996314,-0.22278362933603119,0.1728227191368739,-0.4876479605810849,-0.1114410636477303,-1.9462236645514503,0.1337493590315183,2.595546303484175,0.945246898642853,0.1728802376190821,-0.48752024683155326,-0.11147110072896137,-1.9463801863486305,0.1336059019074957,2.595550359778934,0.9452445589611904,7.080566048911565e-05,-0.0004949102859920166,7.999075371168453e-05,-0.00017323445615907473,0.0002035131143490214,0.00021694406299352985,-0.00013700406546950208,0.0,0.0,0.0,0.0,0.0,0.0,0.0,5.75184822082242e-05,0.00012771374953163273,-3.0037081231060192e-05,-0.00015652179718017578,-0.00014345712402261124,4.056294759191559e-06,-2.3396816626330974e-06,-7.080566048911565e-05,0.0004949102859920166,-7.999075371168453e-05,0.00017323445615907473,-0.0002035131143490214,-0.00021694406299352985,0.00013700406546950208,0.14510458707809448,11.727136611938477,-1.1918060779571533,-21.741060256958008,-0.4690452218055725,-2.5207552909851074,0.20083944499492645,0
72,0.3549926280975342,-0.14510458707809448,-11.727136611938477,1.1918060779571533,21.741060256958008,0.4690452218055725,2.5207552909851074,-0.20083944499492645,0.0,0.0,0.0,0.0,0.0,0.0,0.0,-0.1392475367939261,0.5575540451204362,0.010497498795587354,0.4530879271188106,-0.06664686639558252,0.12794279364996314,-0.22278362933603119,0.1728227191368739,-0.4876479605810849,-0.1114410636477303,-1.9462236645514503,0.1337493590315183,2.595546303484175,0.945246898642853,0.1728802376190821,-0.48752024683155326,-0.11147110072896137,-1.9463801863486305,0.1336059019074957,2.595550359778934,0.9452445589611904,7.080566048911565e-05,-0.0004949102859920166,7.999075371168453e-05,-0.00017323445615907473,0.0002035131143490214,0.00021694406299352985,-0.00013700406546950208,0.0,0.0,0.0,0.0,0.0,0.0,0.0,5.75184822082242e-05,0.00012771374953163273,-3.0037081231060192e-05,-0.00015652179718017578,-0.00014345712402261124,4.056294759191559e-06,-2.3396816626330974e-06,-7.080566048911565e-05,0.0004949102859920166,-7.999075371168453e-05,0.00017323445615907473,-0.0002035131143490214,-0.00021694406299352985,0.00013700406546950208,0.14510458707809448,11.727136611938477,-1.1918060779571533,-21.741060256958008,-0.4690452218055725,-2.5207552909851074,0.20083944499492645,0
73,0.360015869140625,-0.14510458707809448,-11.750940322875977,1.2671844959259033,21.768831253051758,0.4690452218055725,2.5207552909851074,-0.20083944499492645,0.0,0.0,0.0,0.0,0.0,0.0,0.0,-0.13240358336769953,0.5697729389514488,0.020231034366824784,0.44831668882877906,-0.06710343322329539,0.12692348231654157,-0.22316239125940585,0.1728227191368739,-0.4876481720932713,-0.11144635336127197,-1.9462256133932814,0.13374947750494803,2.595546303484175,0.9452468986428446,0.1728802376190821,-0.48752024683155326,-0.11147110072896137,-1.9463801863486305,0.1336059019074957,2.595550359778934,0.9452445589611904,0.0003050916885883562,0.00035451960638851777,-0.0014328211641892591,-0.0007090244765085632,0.0005851872502707346,0.00025000872485357215,-0.0007621652509381353,0.0,0.0,0.0,0.0,0.0,0.0,0.0,5.75184822082242e-05,0.00012792526171806484,-2.4747367689398336e-05,-0.0001545729553491526,-0.0001435755974523445,4.056294759191559e-06,-2.3396816541954024e-06,-0.0003050916885883562,-0.00035451960638851777,0.0014328211641892591,0.0007090244765085632,-0.0005851872502707346,-0.00025000872485357215,0.0007621652509381353,0.14510458707809448,11.750940322875977,-1.2671844959259033,-21.768831253051758,-0.4690452218055725,-2.5207552909851074,0.20083944499492645,0
74,0.36504244804382324,-0.14510458707809448,-11.750940322875977,1.2671844959259033,21.768831253051758,0.4690452218055725,2.5207552909851074,-0.20083944499492645,0.0,0.0,0.0,0.0,0.0,0.0,0.0,-0.13240358336769953,0.5697729389514488,0.020231034366824784,0.44831668882877906,-0.06710343322329539,0.12692348231654157,-0.22316239125940585,0.1728227191368739,-0.4876481720932713,-0.11144635336127197,-1.9462256133932814,0.13374947750494803,2.595546303484175,0.9452468986428446,0.1728802376190821,-0.48752024683155326,-0.11147110072896137,-1.9463801863486305,0.1336059019074957,2.595550359778934,0.9452445589611904,0.0003050916885883562,0.00035451960638851777,-0.0014328211641892591,-0.0007090244765085632,0.0005851872502707346,0.00025000872485357215,-0.0007621652509381353,0.0,0.0,0.0,0.0,0.0,0.0,0.0,5.75184822082242e-05,0.00012792526171806484,-2.4747367689398336e-05,-0.0001545729553491526,-0.0001435755974523445,4.056294759191559e-06,-2.3396816541954024e-06,-0.0003050916885883562,-0.00035451960638851777,0.0014328211641892591,0.0007090244765085632,-0.0005851872502707346,-0.00025000872485357215,0.0007621652509381353,0.14510458707809448,11.750940322875977,-1.2671844959259033,-21.768831253051758,-0.4690452218055725,-2.5207552909851074,0.20083944499492645,0
75,0.36504244804382324,-0.14510458707809448,-11.750940322875977,1.2671844959259033,21.768831253051758,0.4690452218055725,2.5207552909851074,-0.20083944499492645,0.0,0.0,0.0,0.0,0.0,0.0,0.0,-0.13240358336769953,0.5697729389514488,0.020231034366824784,0.44831668882877906,-0.06710343322329539,0.12692348231654157,-0.22316239125940585,0.1728227191368739,-0.4876481720932713,-0.11144635336127197,-1.9462256133932814,0.13374947750494803,2.595546303484175,0.9452468986428446,0.1728802376190821,-0.48752024683155326,-0.11147110072896137,-1.9463801863486305,0.1336059019074957,2.595550359778934,0.9452445589611904,0.0003050916885883562,0.00035451960638851777,-0.0014328211641892591,-0.0007090244765085632,0.0005851872502707346,0.00025000872485357215,-0.0007621652509381353,0.0,0.0,0.0,0.0,0.0,0.0,0.0,5.75184822082242e-05,0.00012792526171806484,-2.4747367689398336e-05,-0.0001545729553491526,-0.0001435755974523445,4.056294759191559e-06,-2.3396816541954024e-06,-0.0003050916885883562,-0.00035451960638851777,0.0014328211641892591,0.0007090244765085632,-0.0005851872502707346,-0.00025000872485357215,0.0007621652509381353,0.14510458707809448,11.750940322875977,-1.2671844959259033,-21.768831253051758,-0.4690452218055725,-2.5207552909851074,0.20083944499492645,0
76,0.3750424385070801,-0.14510458707809448,-11.750940322875977,1.1680023670196533,21.768831253051758,0.4626365303993225,2.5335726737976074,-0.20724813640117645,0.0,0.0,0.0,0.0,0.0,0.0,0.0,-0.14077057254921851,0.5627220043440305,0.009622390312782612,0.4533121128400319,-0.06585034521788181,0.12729623010262253,-0.22470996752753472,0.1728227191368739,-0.4876460428708171,-0.11143939321187504,-1.9462256133932814,0.13375007110901,2.595544879330529,0.9452475976377154,0.1728802376190821,-0.48752024683155326,-0.11147110072896137,-1.9463801863486305,0.1336059019074957,2.595550359778934,0.9452445589611904,-0.0001773651263935373,6.710759165411835e-05,0.0013344240166683415,-0.0006555604444751532,0.0002554165036465208,-0.00031261546603797446,-0.0003582532252805325,0.0,0.0,0.0,0.0,0.0,0.0,0.0,5.75184822082242e-05,0.00012579603926382577,-3.170751708632402e-05,-0.0001545729553491526,-0.0001441692015143048,5.480448404870941e-06,-3.0386765249579284e-06,0.0001773651263935373,-6.710759165411835e-05,-0.0013344240166683415,0.0006555604444751532,-0.0002554165036465208,0.00031261546603797446,0.0003582532252805325,0.14510458707809448,11.750940322875977,-1.1680023670196533,-21.768831253051758,-0.4626365303993225,-2.5335726737976074,0.20724813640117645,0
77,0.3800208568572998,-0.14510458707809448,-11.750940322875977,1.1680023670196533,21.768831253051758,0.4626365303993225,2.5335726737976074,-0.20724813640117645,0.0,0.0,0.0,0.0,0.0,0.0,0.0,-0.14077057254921851,0.5627220043440305,0.009622390312782612,0.4533121128400319,-0.06585034521788181,0.12729623010262253,-0.22470996752753472,0.1728227191368739,-0.4876460428708171,-0.11143939321187504,-1.9462256133932814,0.13375007110901,2.595544879330529,0.9452475976377154,0.1728802376190821,-0.48752024683155326,-0.11147110072896137,-1.9463801863486305,0.1336059019074957,2.595550359778934,0.9452445589611904,-0.0001773651263935373,6.710759165411835e-05,0.0013344240166683415,-0.0006555604444751532,0.0002554165036465208,-0.00031261546603797446,-0.0003582532252805325,0.0,0.0,0.0,0.0,0.0,0.0,0.0,5.75184822082242e-05,0.00012579603926382577,-3.170751708632402e-05,-0.0001545729553491526,-0.0001441692015143048,5.480448404870941e-06,-3.0386765249579284e-06,0.0001773651263935373,-6.710759165411835e-05,-0.0013344240166683415,0.0006555604444751532,-0.0002554165036465208,0.00031261546603797446,0.0003582532252805325,0.14510458707809448,11.750940322875977,-1.1680023670196533,-21.768831253051758,-0.4626365303993225,-2.5335726737976074,0.20724813640117645,0
78,0.3850276470184326,-0.14510458707809448,-11.774744033813477,1.1918060779571533,21.768831253051758,0.4690452218055725,2.5399813652038574,-0.24112264811992645,0.0,0.0,0.0,0.0,0.0,0.0,0.0,-0.13793941210330965,0.5718348494940416,0.01851458595974298,0.44966793482297823,-0.0661671999478286,0.12631996672237694,-0.22416815204065152,0.1728227191368739,-0.4876444355797005,-0.1114410636477303,-1.9462256133932814,0.1337493590315183,2.5955441672537063,0.9452513745542291,0.1728802376190821,-0.48752024683155326,-0.11147110072896137,-1.9463801863486305,0.1336059019074957,2.595550359778934,0.9452445589611904,0.0001611265891294983,0.0009483575800051636,0.0005584719531965086,-0.0007305116353306265,-2.5753921809231637e-05,-0.000676876806390067,0.0011594696312278224,0.0,0.0,0.0,0.0,0.0,0.0,0.0,5.75184822082242e-05,0.0001241887481472359,-3.0037081231060192e-05,-0.0001545729553491526,-0.00014345712402261124,6.192525227710632e-06,-6.815593038722589e-06,-0.0001611265891294983,-0.0009483575800051636,-0.0005584719531965086,0.0007305116353306265,2.5753921809231637e-05,0.000676876806390067,-0.0011594696312278224,0.14510458707809448,11.774744033813477,-1.1918060779571533,-21.768831253051758,-0.4690452218055725,-2.5399813652038574,0.24112264811992645,0
79,0.3902771472930908,-0.12130087614059448,-11.774744033813477,1.2433807849884033,21.768831253051758,0.4690452218055725,2.5271639823913574,-0.22098104655742645,0.0,0.0,0.0,0.0,0.0,0.0,0.0,-0.14300003240672543,0.5655025658374175,0.011286997346899686,0.45443178929322786,-0.06599658843914936,0.12679096989325317,-0.22418167210428283,0.1728210487010186,-0.48764437351346146,-0.11144468292541672,-1.9462256133932814,0.1337493590315183,2.595545591407352,0.9452480769604444,0.1728802376190821,-0.48752024683155326,-0.11147110072896137,-1.9463801863486305,0.1336059019074957,2.595550359778934,0.9452445589611904,-7.325387823947967e-05,0.00046010808281195866,-0.001031857424097558,-0.0007622665681760167,5.3719848414528626e-05,-5.530601778059195e-05,0.0002793878370909494,0.0,0.0,0.0,0.0,0.0,0.0,0.0,5.9188918063501905e-05,0.00012412668190819875,-2.641780354464829e-05,-0.0001545729553491526,-0.00014345712402261124,4.76837158203125e-06,-3.517999254021298e-06,7.325387823947967e-05,-0.00046010808281195866,0.001031857424097558,0.0007622665681760167,-5.3719848414528626e-05,5.530601778059195e-05,-0.0002793878370909494,0.12130087614059448,11.774744033813477,-1.2433807849884033,-21.768831253051758,-0.4690452218055725,-2.5271639823913574,0.22098104655742645,0
