rezayati/contactInterpretation/dataset/franka_main/labeled_data/link5/c9_8.csv
index,time,tau_J0,tau_J1,tau_J2,tau_J3,tau_J4,tau_J5,tau_J6,tau_J_d0,tau_J_d1,tau_J_d2,tau_J_d3,tau_J_d4,tau_J_d5,tau_J_d6,tau_ext0,tau_ext1,tau_ext2,tau_ext3,tau_ext4,tau_ext5,tau_ext6,q0,q1,q2,q3,q4,q5,q6,q_d0,q_d1,q_d2,q_d3,q_d4,q_d5,q_d6,dq0,dq1,dq2,dq3,dq4,dq5,dq6,dq_d0,dq_d1,dq_d2,dq_d3,dq_d4,dq_d5,dq_d6,e0,e1,e2,e3,e4,e5,e6,de0,de1,de2,de3,de4,de5,de6,etau_J0,etau_J1,etau_J2,etau_J3,etau_J4,etau_J5,etau_J6,label
1,0.0,-0.4029781222343445,-22.621301651000977,-0.04995415359735489,14.080232620239258,0.2722068428993225,2.1389803886413574,-0.41965049505233765,0.0,0.0,0.0,0.0,0.0,0.0,0.0,-0.4434302767700786,0.08779015754909762,-0.20387142760888619,0.19729767324594924,0.03955078806895544,-0.048443261007065634,-0.4136657813526369,1.675704307100229,0.05225676851680404,0.030076268992017957,-2.752505620755647,0.034258547690160734,2.766329102108638,0.7691986026330377,1.6754973547542302,0.052104326824870026,0.029969505109285054,-2.752394845125968,0.0342448039870148,2.7663679543071322,0.7691630533470046,-0.0005727587046609181,-0.0006552096705492653,-0.0013492309953275577,-0.00045114820899093975,-8.03546700696243e-05,-0.00021263442254671218,-0.00025474997469920673,0.0,0.0,0.0,0.0,0.0,0.0,0.0,-0.00020695234599887868,-0.00015244169193401325,-0.00010676388273290344,0.00011077562967898302,-1.3743703145933928e-05,3.885219849442123e-05,-3.5549286033109695e-05,0.0005727587046609181,0.0006552096705492653,0.0013492309953275577,0.00045114820899093975,8.03546700696243e-05,0.00021263442254671218,0.00025474997469920673,0.4029781222343445,22.621301651000977,0.04995415359735489,-14.080232620239258,-0.2722068428993225,-2.1389803886413574,0.41965049505233765,0
2,0.004996299743652344,-0.4029781222343445,-22.696680068969727,-0.09756157547235489,14.056428909301758,0.2786155343055725,2.1325716972351074,-0.42605918645858765,0.0,0.0,0.0,0.0,0.0,0.0,0.0,-0.43367339699606067,0.09227431237363291,-0.19576366319458727,0.19976813196117932,0.03906460817737462,-0.04789779216308601,-0.4146499929490633,1.6757043865726402,0.05226205823034571,0.030079378509790772,-2.7525037207315304,0.034255108892160165,2.766330948756523,0.7691995634512171,1.6754973547542302,0.052104326824870026,0.029969505109285054,-2.752394845125968,0.0342448039870148,2.7663679543071322,0.7691630533470046,8.993840986131424e-06,-0.00016175296477382784,2.3930676277101135e-05,-0.00015652404650130168,-6.106935419589432e-05,0.0001631290247413363,0.00034176315870872425,0.0,0.0,0.0,0.0,0.0,0.0,0.0,-0.0002070318184099751,-0.00015773140547568204,-0.00010987340050571878,0.00010887560556227527,-1.0304905145364085e-05,3.700555060914823e-05,-3.651010421246159e-05,-8.993840986131424e-06,0.00016175296477382784,-2.3930676277101135e-05,0.00015652404650130168,6.106935419589432e-05,-0.0001631290247413363,-0.00034176315870872425,0.4029781222343445,22.696680068969727,0.09756157547235489,-14.056428909301758,-0.2786155343055725,-2.1325716972351074,0.42605918645858765,0
3,0.010397911071777344,-0.4029781222343445,-22.696680068969727,-0.09756157547235489,14.056428909301758,0.2786155343055725,2.1325716972351074,-0.42605918645858765,0.0,0.0,0.0,0.0,0.0,0.0,0.0,-0.43367339699606067,0.09227431237363291,-0.19576366319458727,0.19976813196117932,0.03906460817737462,-0.04789779216308601,-0.4146499929490633,1.6757043865726402,0.05226205823034571,0.030079378509790772,-2.7525037207315304,0.034255108892160165,2.766330948756523,0.7691995634512171,1.6754973547542302,0.052104326824870026,0.029969505109285054,-2.752394845125968,0.0342448039870148,2.7663679543071322,0.7691630533470046,8.993840986131424e-06,-0.00016175296477382784,2.3930676277101135e-05,-0.00015652404650130168,-6.106935419589432e-05,0.0001631290247413363,0.00034176315870872425,0.0,0.0,0.0,0.0,0.0,0.0,0.0,-0.0002070318184099751,-0.00015773140547568204,-0.00010987340050571878,0.00010887560556227527,-1.0304905145364085e-05,3.700555060914823e-05,-3.651010421246159e-05,-8.993840986131424e-06,0.00016175296477382784,-2.3930676277101135e-05,0.00015652404650130168,6.106935419589432e-05,-0.0001631290247413363,-0.00034176315870872425,0.4029781222343445,22.696680068969727,0.09756157547235489,-14.056428909301758,-0.2786155343055725,-2.1325716972351074,0.42605918645858765,0
4,0.01531839370727539,-0.4029781222343445,-22.696680068969727,-0.09756157547235489,14.056428909301758,0.2786155343055725,2.1325716972351074,-0.42605918645858765,0.0,0.0,0.0,0.0,0.0,0.0,0.0,-0.43367339699606067,0.09227431237363291,-0.19576366319458727,0.19976813196117932,0.03906460817737462,-0.04789779216308601,-0.4146499929490633,1.6757043865726402,0.05226205823034571,0.030079378509790772,-2.7525037207315304,0.034255108892160165,2.766330948756523,0.7691995634512171,1.6754973547542302,0.052104326824870026,0.029969505109285054,-2.752394845125968,0.0342448039870148,2.7663679543071322,0.7691630533470046,8.993840986131424e-06,-0.00016175296477382784,2.3930676277101135e-05,-0.00015652404650130168,-6.106935419589432e-05,0.0001631290247413363,0.00034176315870872425,0.0,0.0,0.0,0.0,0.0,0.0,0.0,-0.0002070318184099751,-0.00015773140547568204,-0.00010987340050571878,0.00010887560556227527,-1.0304905145364085e-05,3.700555060914823e-05,-3.651010421246159e-05,-8.993840986131424e-06,0.00016175296477382784,-2.3930676277101135e-05,0.00015652404650130168,6.106935419589432e-05,-0.0001631290247413363,-0.00034176315870872425,0.4029781222343445,22.696680068969727,0.09756157547235489,-14.056428909301758,-0.2786155343055725,-2.1325716972351074,0.42605918645858765,0
5,0.019979476928710938,-0.4029781222343445,-22.696680068969727,-0.09756157547235489,14.056428909301758,0.2786155343055725,2.1325716972351074,-0.42605918645858765,0.0,0.0,0.0,0.0,0.0,0.0,0.0,-0.43367339699606067,0.09227431237363291,-0.19576366319458727,0.19976813196117932,0.03906460817737462,-0.04789779216308601,-0.4146499929490633,1.6757043865726402,0.05226205823034571,0.030079378509790772,-2.7525037207315304,0.034255108892160165,2.766330948756523,0.7691995634512171,1.6754973547542302,0.052104326824870026,0.029969505109285054,-2.752394845125968,0.0342448039870148,2.7663679543071322,0.7691630533470046,8.993840986131424e-06,-0.00016175296477382784,2.3930676277101135e-05,-0.00015652404650130168,-6.106935419589432e-05,0.0001631290247413363,0.00034176315870872425,0.0,0.0,0.0,0.0,0.0,0.0,0.0,-0.0002070318184099751,-0.00015773140547568204,-0.00010987340050571878,0.00010887560556227527,-1.0304905145364085e-05,3.700555060914823e-05,-3.651010421246159e-05,-8.993840986131424e-06,0.00016175296477382784,-2.3930676277101135e-05,0.00015652404650130168,6.106935419589432e-05,-0.0001631290247413363,-0.00034176315870872425,0.4029781222343445,22.696680068969727,0.09756157547235489,-14.056428909301758,-0.2786155343055725,-2.1325716972351074,0.42605918645858765,0
6,0.02498149871826172,-0.4267818331718445,-22.772058486938477,-0.07375786453485489,14.108003616333008,0.2722068428993225,2.1389803886413574,-0.44711631536483765,0.0,0.0,0.0,0.0,0.0,0.0,0.0,-0.4260161253393868,0.08948326849554131,-0.1924098068478268,0.2057555429614002,0.03922016564098724,-0.046731025603108954,-0.41469098082965017,1.675706030517991,0.05226734794388738,0.030080539628380424,-2.7525075695961823,0.03425902120412794,2.76632904962007,0.7691974294289649,1.6754973547542302,0.052104326824870026,0.029969505109285054,-2.752394845125968,0.0342448039870148,2.7663679543071322,0.7691630533470046,0.00048421325655921256,0.0006240047471846815,-0.0006906202675901939,-0.0004656639480402414,-7.978489982541257e-05,2.562223397513462e-05,0.0016009654221586572,0.0,0.0,0.0,0.0,0.0,0.0,0.0,-0.00020867576376071284,-0.00016302111901735084,-0.00011103451909537029,0.00011272447021415388,-1.4217217113136893e-05,3.890468706213568e-05,-3.437608196021902e-05,-0.00048421325655921256,-0.0006240047471846815,0.0006906202675901939,0.0004656639480402414,7.978489982541257e-05,-2.562223397513462e-05,-0.0016009654221586572,0.4267818331718445,22.772058486938477,0.07375786453485489,-14.108003616333008,-0.2722068428993225,-2.1389803886413574,0.44711631536483765,0
7,0.02997732162475586,-0.4267818331718445,-22.772058486938477,-0.07375786453485489,14.108003616333008,0.2722068428993225,2.1389803886413574,-0.44711631536483765,0.0,0.0,0.0,0.0,0.0,0.0,0.0,-0.4260161253393868,0.08948326849554131,-0.1924098068478268,0.2057555429614002,0.03922016564098724,-0.046731025603108954,-0.41469098082965017,1.675706030517991,0.05226734794388738,0.030080539628380424,-2.7525075695961823,0.03425902120412794,2.76632904962007,0.7691974294289649,1.6754973547542302,0.052104326824870026,0.029969505109285054,-2.752394845125968,0.0342448039870148,2.7663679543071322,0.7691630533470046,0.00048421325655921256,0.0006240047471846815,-0.0006906202675901939,-0.0004656639480402414,-7.978489982541257e-05,2.562223397513462e-05,0.0016009654221586572,0.0,0.0,0.0,0.0,0.0,0.0,0.0,-0.00020867576376071284,-0.00016302111901735084,-0.00011103451909537029,0.00011272447021415388,-1.4217217113136893e-05,3.890468706213568e-05,-3.437608196021902e-05,-0.00048421325655921256,-0.0006240047471846815,0.0006906202675901939,0.0004656639480402414,7.978489982541257e-05,-2.562223397513462e-05,-0.0016009654221586572,0.4267818331718445,22.772058486938477,0.07375786453485489,-14.108003616333008,-0.2722068428993225,-2.1389803886413574,0.44711631536483765,0
8,0.03497624397277832,-0.4267818331718445,-22.748254776000977,-0.1491362750530243,14.056428909301758,0.2722068428993225,2.1325716972351074,-0.37204307317733765,0.0,0.0,0.0,0.0,0.0,0.0,0.0,-0.42448950915067374,0.08936253966902968,-0.19084709295719363,0.20239811762731524,0.03886909104862464,-0.0471978054532068,-0.41421825514765054,1.6757059775359349,0.05226567750803211,0.030083237487525758,-2.7525039503197917,0.03425888995789999,2.7663297582985753,0.7691931573885284,1.6754973547542302,0.052104326824870026,0.029969505109285054,-2.752394845125968,0.0342448039870148,2.7663679543071322,0.7691630533470046,-0.00024805040628004095,1.827983651083878e-05,0.0011297181066928625,0.0010252609231256643,-7.109822152969913e-05,0.00020743509682297654,-0.0018926268225450491,0.0,0.0,0.0,0.0,0.0,0.0,0.0,-0.0002086227817046371,-0.000161350683162087,-0.00011373237824070445,0.00010910519382356654,-1.4085970885188703e-05,3.819600855692329e-05,-3.0104041523815184e-05,0.00024805040628004095,-1.827983651083878e-05,-0.0011297181066928625,-0.0010252609231256643,7.109822152969913e-05,-0.00020743509682297654,0.0018926268225450491,0.4267818331718445,22.748254776000977,0.1491362750530243,-14.056428909301758,-0.2722068428993225,-2.1325716972351074,0.37204307317733765,0
9,0.0399785041809082,-0.4267818331718445,-22.748254776000977,-0.1491362750530243,14.056428909301758,0.2722068428993225,2.1325716972351074,-0.37204307317733765,0.0,0.0,0.0,0.0,0.0,0.0,0.0,-0.42448950915067374,0.08936253966902968,-0.19084709295719363,0.20239811762731524,0.03886909104862464,-0.0471978054532068,-0.41421825514765054,1.6757059775359349,0.05226567750803211,0.030083237487525758,-2.7525039503197917,0.03425888995789999,2.7663297582985753,0.7691931573885284,1.6754973547542302,0.052104326824870026,0.029969505109285054,-2.752394845125968,0.0342448039870148,2.7663679543071322,0.7691630533470046,-0.00024805040628004095,1.827983651083878e-05,0.0011297181066928625,0.0010252609231256643,-7.109822152969913e-05,0.00020743509682297654,-0.0018926268225450491,0.0,0.0,0.0,0.0,0.0,0.0,0.0,-0.0002086227817046371,-0.000161350683162087,-0.00011373237824070445,0.00010910519382356654,-1.4085970885188703e-05,3.819600855692329e-05,-3.0104041523815184e-05,0.00024805040628004095,-1.827983651083878e-05,-0.0011297181066928625,-0.0010252609231256643,7.109822152969913e-05,-0.00020743509682297654,0.0018926268225450491,0.4267818331718445,22.748254776000977,0.1491362750530243,-14.056428909301758,-0.2722068428993225,-2.1325716972351074,0.37204307317733765,0
10,0.04497861862182617,-0.4267818331718445,-22.720483779907227,-0.1491362750530243,14.032625198364258,0.2722068428993225,2.1389803886413574,-0.37204307317733765,0.0,0.0,0.0,0.0,0.0,0.0,0.0,-0.426587628039336,0.08569504581201537,-0.1931777974540615,0.20040937361063113,0.03893555277390688,-0.048394855476876934,-0.414400854184352,1.6757060570084956,0.05226372866620097,0.030083865051541012,-2.7525022798839363,0.03425746358792416,2.7663299083923696,0.7691904893931064,1.6754973547542302,0.052104326824870026,0.029969505109285054,-2.752394845125968,0.0342448039870148,2.7663679543071322,0.7691630533470046,-0.00046751417749187746,-0.00017744344757734354,0.0007795787543659378,0.0010753708992108989,1.2957544814563667e-05,-0.00015941464110719888,-0.0017716772594730612,0.0,0.0,0.0,0.0,0.0,0.0,0.0,-0.00020870225426539157,-0.00015940184133094587,-0.00011435994225595866,0.00010743475796815005,-1.2659600909362134e-05,3.8045914762641075e-05,-2.7436046101780853e-05,0.00046751417749187746,0.00017744344757734354,-0.0007795787543659378,-0.0010753708992108989,-1.2957544814563667e-05,0.00015941464110719888,0.0017716772594730612,0.4267818331718445,22.720483779907227,0.1491362750530243,-14.032625198364258,-0.2722068428993225,-2.1389803886413574,0.37204307317733765,0
11,0.049979448318481445,-0.4267818331718445,-22.720483779907227,-0.1491362750530243,14.032625198364258,0.2722068428993225,2.1389803886413574,-0.37204307317733765,0.0,0.0,0.0,0.0,0.0,0.0,0.0,-0.426587628039336,0.08569504581201537,-0.1931777974540615,0.20040937361063113,0.03893555277390688,-0.048394855476876934,-0.414400854184352,1.6757060570084956,0.05226372866620097,0.030083865051541012,-2.7525022798839363,0.03425746358792416,2.7663299083923696,0.7691904893931064,1.6754973547542302,0.052104326824870026,0.029969505109285054,-2.752394845125968,0.0342448039870148,2.7663679543071322,0.7691630533470046,-0.00046751417749187746,-0.00017744344757734354,0.0007795787543659378,0.0010753708992108989,1.2957544814563667e-05,-0.00015941464110719888,-0.0017716772594730612,0.0,0.0,0.0,0.0,0.0,0.0,0.0,-0.00020870225426539157,-0.00015940184133094587,-0.00011435994225595866,0.00010743475796815005,-1.2659600909362134e-05,3.8045914762641075e-05,-2.7436046101780853e-05,0.00046751417749187746,0.00017744344757734354,-0.0007795787543659378,-0.0010753708992108989,-1.2957544814563667e-05,0.00015941464110719888,0.0017716772594730612,0.4267818331718445,22.720483779907227,0.1491362750530243,-14.032625198364258,-0.2722068428993225,-2.1389803886413574,0.37204307317733765,0
12,0.055826425552368164,-0.4505855441093445,-22.672876358032227,-0.1491362750530243,14.032625198364258,0.2722068428993225,2.1261630058288574,-0.41965049505233765,0.0,0.0,0.0,0.0,0.0,0.0,0.0,-0.43129193715204817,0.08839036318565702,-0.19843230954845992,0.20100850446049726,0.039328846094812187,-0.049442191905640455,-0.4133484670327159,1.6757077274447993,0.052260387794490444,0.030085736965101563,-2.7525022798839363,0.03425578399234272,2.766330234905106,0.7691975522613818,1.6754973547542302,0.052104326824870026,0.029969505109285054,-2.752394845125968,0.0342448039870148,2.7663679543071322,0.7691630533470046,0.00014088679358413786,0.0002450292204603775,0.0001360867754670383,0.0008180364670261493,6.761692928965198e-05,0.00038070329104272603,2.781767882891278e-05,0.0,0.0,0.0,0.0,0.0,0.0,0.0,-0.00021037269056911612,-0.0001560609696204182,-0.0001162318558165093,0.00010743475796815005,-1.0980005327919373e-05,3.771940202623725e-05,-3.449891437712349e-05,-0.00014088679358413786,-0.0002450292204603775,-0.0001360867754670383,-0.0008180364670261493,-6.761692928965198e-05,-0.00038070329104272603,-2.781767882891278e-05,0.4505855441093445,22.672876358032227,0.1491362750530243,-14.032625198364258,-0.2722068428993225,-2.1261630058288574,0.41965049505233765,0
13,0.059976816177368164,-0.4505855441093445,-22.672876358032227,-0.1491362750530243,14.032625198364258,0.2722068428993225,2.1261630058288574,-0.41965049505233765,0.0,0.0,0.0,0.0,0.0,0.0,0.0,-0.43129193715204817,0.08839036318565702,-0.19843230954845992,0.20100850446049726,0.039328846094812187,-0.049442191905640455,-0.4133484670327159,1.6757077274447993,0.052260387794490444,0.030085736965101563,-2.7525022798839363,0.03425578399234272,2.766330234905106,0.7691975522613818,1.6754973547542302,0.052104326824870026,0.029969505109285054,-2.752394845125968,0.0342448039870148,2.7663679543071322,0.7691630533470046,0.00014088679358413786,0.0002450292204603775,0.0001360867754670383,0.0008180364670261493,6.761692928965198e-05,0.00038070329104272603,2.781767882891278e-05,0.0,0.0,0.0,0.0,0.0,0.0,0.0,-0.00021037269056911612,-0.0001560609696204182,-0.0001162318558165093,0.00010743475796815005,-1.0980005327919373e-05,3.771940202623725e-05,-3.449891437712349e-05,-0.00014088679358413786,-0.0002450292204603775,-0.0001360867754670383,-0.0008180364670261493,-6.761692928965198e-05,-0.00038070329104272603,-2.781767882891278e-05,0.4505855441093445,22.672876358032227,0.1491362750530243,-14.032625198364258,-0.2722068428993225,-2.1261630058288574,0.41965049505233765,0
14,0.06498146057128906,-0.4505855441093445,-22.672876358032227,-0.09756157547235489,14.080232620239258,0.2603049874305725,2.1517977714538574,-0.42605918645858765,0.0,0.0,0.0,0.0,0.0,0.0,0.0,-0.4313992913664403,0.09389657889770998,-0.19912086652132455,0.2035234080255361,0.039002069785433774,-0.049244571888578496,-0.4132437536924297,1.6757074890262202,0.052260387794490444,0.030081720315027725,-2.752505620755647,0.03425697682497117,2.766327443979935,0.7691996826902431,1.6754973547542302,0.052104326824870026,0.029969505109285054,-2.752394845125968,0.0342448039870148,2.7663679543071322,0.7691630533470046,6.404370990898608e-05,0.0008212564921304367,-0.00013450604538807647,-0.0003422783854804287,0.00044291423620865136,-0.0005342980410795643,0.00016368370824996293,0.0,0.0,0.0,0.0,0.0,0.0,0.0,-0.00021013427199001455,-0.0001560609696204182,-0.00011221520574267174,0.00011077562967898302,-1.2172837956368754e-05,4.0510327197207374e-05,-3.662934323844791e-05,-6.404370990898608e-05,-0.0008212564921304367,0.00013450604538807647,0.0003422783854804287,-0.00044291423620865136,0.0005342980410795643,-0.00016368370824996293,0.4505855441093445,22.672876358032227,0.09756157547235489,-14.080232620239258,-0.2603049874305725,-2.1517977714538574,0.42605918645858765,0
15,0.06998729705810547,-0.4505855441093445,-22.672876358032227,-0.09756157547235489,14.080232620239258,0.2603049874305725,2.1517977714538574,-0.42605918645858765,0.0,0.0,0.0,0.0,0.0,0.0,0.0,-0.4313992913664403,0.09389657889770998,-0.19912086652132455,0.2035234080255361,0.039002069785433774,-0.049244571888578496,-0.4132437536924297,1.6757074890262202,0.052260387794490444,0.030081720315027725,-2.752505620755647,0.03425697682497117,2.766327443979935,0.7691996826902431,1.6754973547542302,0.052104326824870026,0.029969505109285054,-2.752394845125968,0.0342448039870148,2.7663679543071322,0.7691630533470046,6.404370990898608e-05,0.0008212564921304367,-0.00013450604538807647,-0.0003422783854804287,0.00044291423620865136,-0.0005342980410795643,0.00016368370824996293,0.0,0.0,0.0,0.0,0.0,0.0,0.0,-0.00021013427199001455,-0.0001560609696204182,-0.00011221520574267174,0.00011077562967898302,-1.2172837956368754e-05,4.0510327197207374e-05,-3.662934323844791e-05,-6.404370990898608e-05,-0.0008212564921304367,0.00013450604538807647,0.0003422783854804287,-0.00044291423620865136,0.0005342980410795643,-0.00016368370824996293,0.4505855441093445,22.672876358032227,0.09756157547235489,-14.080232620239258,-0.2603049874305725,-2.1517977714538574,0.42605918645858765,0
16,0.07500314712524414,-0.4029781222343445,-22.720483779907227,-0.1253325641155243,14.056428909301758,0.2722068428993225,2.1389803886413574,-0.44711631536483765,0.0,0.0,0.0,0.0,0.0,0.0,0.0,-0.440315523736852,0.09223302207314571,-0.20412226952439255,0.20554474515808543,0.03919307595303485,-0.047851912875149234,-0.413908119784725,1.675704386571743,0.05226372866620097,0.030082274522849933,-2.7525039247050063,0.03425791630967985,2.766326577338717,0.7692018918827284,1.6754973547542302,0.052104326824870026,0.029969505109285054,-2.752394845125968,0.0342448039870148,2.7663679543071322,0.7691630533470046,-0.0007680439956756416,0.000513481563064196,-0.00013982527266906728,-0.000148155437191418,-1.4541508244064805e-05,-7.964096712761689e-05,0.0010505267098021352,0.0,0.0,0.0,0.0,0.0,0.0,0.0,-0.00020703181751269284,-0.00015940184133094587,-0.00011276941356487893,0.00010907957903816268,-1.311232266505008e-05,4.137696841510774e-05,-3.883853572372864e-05,0.0007680439956756416,-0.000513481563064196,0.00013982527266906728,0.000148155437191418,1.4541508244064805e-05,7.964096712761689e-05,-0.0010505267098021352,0.4029781222343445,22.720483779907227,0.1253325641155243,-14.056428909301758,-0.2722068428993225,-2.1389803886413574,0.44711631536483765,0
17,0.07998108863830566,-0.4029781222343445,-22.720483779907227,-0.1253325641155243,14.056428909301758,0.2722068428993225,2.1389803886413574,-0.44711631536483765,0.0,0.0,0.0,0.0,0.0,0.0,0.0,-0.440315523736852,0.09223302207314571,-0.20412226952439255,0.20554474515808543,0.03919307595303485,-0.047851912875149234,-0.413908119784725,1.675704386571743,0.05226372866620097,0.030082274522849933,-2.7525039247050063,0.03425791630967985,2.766326577338717,0.7692018918827284,1.6754973547542302,0.052104326824870026,0.029969505109285054,-2.752394845125968,0.0342448039870148,2.7663679543071322,0.7691630533470046,-0.0007680439956756416,0.000513481563064196,-0.00013982527266906728,-0.000148155437191418,-1.4541508244064805e-05,-7.964096712761689e-05,0.0010505267098021352,0.0,0.0,0.0,0.0,0.0,0.0,0.0,-0.00020703181751269284,-0.00015940184133094587,-0.00011276941356487893,0.00010907957903816268,-1.311232266505008e-05,4.137696841510774e-05,-3.883853572372864e-05,0.0007680439956756416,-0.000513481563064196,0.00013982527266906728,0.000148155437191418,1.4541508244064805e-05,7.964096712761689e-05,-0.0010505267098021352,0.4029781222343445,22.720483779907227,0.1253325641155243,-14.056428909301758,-0.2722068428993225,-2.1389803886413574,0.44711631536483765,0
18,0.0849766731262207,-0.4267818331718445,-22.696680068969727,-0.1253325641155243,14.032625198364258,0.2667136788368225,2.1453890800476074,-0.44711631536483765,0.0,0.0,0.0,0.0,0.0,0.0,0.0,-0.43177898520366065,0.09302612012102617,-0.19854044055719036,0.2037433614907946,0.0390479015901184,-0.04768192631619555,-0.4150893783115211,1.6757060568999278,0.05226205823034571,0.030084382321815956,-2.752502279883792,0.03425844369332566,2.7663285085570024,0.7691983685838658,1.6754973547542302,0.052104326824870026,0.029969505109285054,-2.752394845125968,0.0342448039870148,2.7663679543071322,0.7691630533470046,0.00021045450326721499,-0.0007214015398672157,0.0008817522356064691,0.0010268932673341787,0.0002656226997988812,-0.00020309126606304995,0.0017427407910967998,0.0,0.0,0.0,0.0,0.0,0.0,0.0,-0.00020870214569757017,-0.00015773140547568204,-0.00011487721253090194,0.00010743475782382106,-1.3639706310859812e-05,3.9445750129818435e-05,-3.5315236861177546e-05,-0.00021045450326721499,0.0007214015398672157,-0.0008817522356064691,-0.0010268932673341787,-0.0002656226997988812,0.00020309126606304995,-0.0017427407910967998,0.4267818331718445,22.696680068969727,0.1253325641155243,-14.032625198364258,-0.2667136788368225,-2.1453890800476074,0.44711631536483765,0
19,0.08992624282836914,-0.4267818331718445,-22.696680068969727,-0.1253325641155243,14.032625198364258,0.2667136788368225,2.1453890800476074,-0.44711631536483765,0.0,0.0,0.0,0.0,0.0,0.0,0.0,-0.43177898520366065,0.09302612012102617,-0.19854044055719036,0.2037433614907946,0.0390479015901184,-0.04768192631619555,-0.4150893783115211,1.6757060568999278,0.05226205823034571,0.030084382321815956,-2.752502279883792,0.03425844369332566,2.7663285085570024,0.7691983685838658,1.6754973547542302,0.052104326824870026,0.029969505109285054,-2.752394845125968,0.0342448039870148,2.7663679543071322,0.7691630533470046,0.00021045450326721499,-0.0007214015398672157,0.0008817522356064691,0.0010268932673341787,0.0002656226997988812,-0.00020309126606304995,0.0017427407910967998,0.0,0.0,0.0,0.0,0.0,0.0,0.0,-0.00020870214569757017,-0.00015773140547568204,-0.00011487721253090194,0.00010743475782382106,-1.3639706310859812e-05,3.9445750129818435e-05,-3.5315236861177546e-05,-0.00021045450326721499,0.0007214015398672157,-0.0008817522356064691,-0.0010268932673341787,-0.0002656226997988812,0.00020309126606304995,-0.0017427407910967998,0.4267818331718445,22.696680068969727,0.1253325641155243,-14.032625198364258,-0.2667136788368225,-2.1453890800476074,0.44711631536483765,0
20,0.09497857093811035,-0.3752071261405945,-22.696680068969727,-0.07375786453485489,14.080232620239258,0.2722068428993225,2.1389803886413574,-0.42605918645858765,0.0,0.0,0.0,0.0,0.0,0.0,0.0,-0.4307738987204488,0.08914777123614086,-0.1976187017735034,0.19921856736681043,0.03954406786097271,-0.04788561635309669,-0.4147741800233512,1.6757023582583974,0.05226205823034571,0.030078649728492453,-2.752505620755647,0.03425795610724012,2.766329206328585,0.7691952856342946,1.6754973547542302,0.052104326824870026,0.029969505109285054,-2.752394845125968,0.0342448039870148,2.7663679543071322,0.7691630533470046,-0.0004896348423202543,-0.0008607530489473245,-0.00041109490282140637,-0.0003660656678097581,-0.000208356448132468,-3.361312605656862e-05,0.000448438845668014,0.0,0.0,0.0,0.0,0.0,0.0,0.0,-0.00020500350416718938,-0.00015773140547568204,-0.00010914461920739915,0.00011077562967898302,-1.3152120225318198e-05,3.874797854708234e-05,-3.22322872899905e-05,0.0004896348423202543,0.0008607530489473245,0.00041109490282140637,0.0003660656678097581,0.000208356448132468,3.361312605656862e-05,-0.000448438845668014,0.3752071261405945,22.696680068969727,0.07375786453485489,-14.080232620239258,-0.2722068428993225,-2.1389803886413574,0.42605918645858765,0
21,0.09998202323913574,-0.3752071261405945,-22.696680068969727,-0.07375786453485489,14.080232620239258,0.2722068428993225,2.1389803886413574,-0.42605918645858765,0.0,0.0,0.0,0.0,0.0,0.0,0.0,-0.4307738987204488,0.08914777123614086,-0.1976187017735034,0.19921856736681043,0.03954406786097271,-0.04788561635309669,-0.4147741800233512,1.6757023582583974,0.05226205823034571,0.030078649728492453,-2.752505620755647,0.03425795610724012,2.766329206328585,0.7691952856342946,1.6754973547542302,0.052104326824870026,0.029969505109285054,-2.752394845125968,0.0342448039870148,2.7663679543071322,0.7691630533470046,-0.0004896348423202543,-0.0008607530489473245,-0.00041109490282140637,-0.0003660656678097581,-0.000208356448132468,-3.361312605656862e-05,0.000448438845668014,0.0,0.0,0.0,0.0,0.0,0.0,0.0,-0.00020500350416718938,-0.00015773140547568204,-0.00010914461920739915,0.00011077562967898302,-1.3152120225318198e-05,3.874797854708234e-05,-3.22322872899905e-05,0.0004896348423202543,0.0008607530489473245,0.00041109490282140637,0.0003660656678097581,0.000208356448132468,3.361312605656862e-05,-0.000448438845668014,0.3752071261405945,22.696680068969727,0.07375786453485489,-14.080232620239258,-0.2722068428993225,-2.1389803886413574,0.42605918645858765,0
22,0.10497689247131348,-0.4267818331718445,-22.720483779907227,-0.07375786453485489,14.080232620239258,0.2667136788368225,2.1325716972351074,-0.40591758489608765,0.0,0.0,0.0,0.0,0.0,0.0,0.0,-0.42816116903304635,0.09275360458862233,-0.1949253864297832,0.19083261883202784,0.039647328243626906,-0.0490330310005125,-0.41461715255653264,1.675705341643742,0.05226372866620097,0.03007770742838991,-2.752505620755647,0.03425911755300938,2.7663263881624616,0.769196014424257,1.6754973547542302,0.052104326824870026,0.029969505109285054,-2.752394845125968,0.0342448039870148,2.7663679543071322,0.7691630533470046,0.0005502271669661159,0.00026420358797905235,-0.0005163588156412959,-0.0011085960705666726,0.00017927333929681116,-9.014838037275832e-05,-0.00015828967427598397,0.0,0.0,0.0,0.0,0.0,0.0,0.0,-0.00020798688951173538,-0.00015940184133094587,-0.00010820231910485534,0.00011077562967898302,-1.4313565994579502e-05,4.1566144670657224e-05,-3.2961077252369186e-05,-0.0005502271669661159,-0.00026420358797905235,0.0005163588156412959,0.0011085960705666726,-0.00017927333929681116,9.014838037275832e-05,0.00015828967427598397,0.4267818331718445,22.720483779907227,0.07375786453485489,-14.080232620239258,-0.2667136788368225,-2.1325716972351074,0.40591758489608765,0
23,0.10997509956359863,-0.4267818331718445,-22.720483779907227,-0.07375786453485489,14.080232620239258,0.2667136788368225,2.1325716972351074,-0.40591758489608765,0.0,0.0,0.0,0.0,0.0,0.0,0.0,-0.42816116903304635,0.09275360458862233,-0.1949253864297832,0.19083261883202784,0.039647328243626906,-0.0490330310005125,-0.41461715255653264,1.675705341643742,0.05226372866620097,0.03007770742838991,-2.752505620755647,0.03425911755300938,2.7663263881624616,0.769196014424257,1.6754973547542302,0.052104326824870026,0.029969505109285054,-2.752394845125968,0.0342448039870148,2.7663679543071322,0.7691630533470046,0.0005502271669661159,0.00026420358797905235,-0.0005163588156412959,-0.0011085960705666726,0.00017927333929681116,-9.014838037275832e-05,-0.00015828967427598397,0.0,0.0,0.0,0.0,0.0,0.0,0.0,-0.00020798688951173538,-0.00015940184133094587,-0.00010820231910485534,0.00011077562967898302,-1.4313565994579502e-05,4.1566144670657224e-05,-3.2961077252369186e-05,-0.0005502271669661159,-0.00026420358797905235,0.0005163588156412959,0.0011085960705666726,-0.00017927333929681116,9.014838037275832e-05,0.00015828967427598397,0.4267818331718445,22.720483779907227,0.07375786453485489,-14.080232620239258,-0.2667136788368225,-2.1325716972351074,0.40591758489608765,0
24,0.11497735977172852,-0.4267818331718445,-22.696680068969727,-0.1491362750530243,14.131807327270508,0.2722068428993225,2.1453890800476074,-0.41965049505233765,0.0,0.0,0.0,0.0,0.0,0.0,0.0,-0.4303384378962577,0.08748618602940972,-0.1962230331513177,0.19773564996516474,0.040127767372223844,-0.048203882779765735,-0.4140428804733907,1.6757031959738802,0.05226205823034571,0.030086068992493185,-2.7525092400333335,0.03425783301451231,2.766324922806809,0.7691952761569903,1.6754973547542302,0.052104326824870026,0.029969505109285054,-2.752394845125968,0.0342448039870148,2.7663679543071322,0.7691630533470046,-0.00035173675572139227,0.0003105269902752223,0.0007362337432515026,-0.0014504914436378618,-4.441769691163383e-05,-0.0002984941244081828,-8.40611080398671e-05,0.0,0.0,0.0,0.0,0.0,0.0,0.0,-0.00020584121964994928,-0.00015773140547568204,-0.00011656388320813171,0.00011439490736542268,-1.302902749750895e-05,4.3031500323031935e-05,-3.2222809985715806e-05,0.00035173675572139227,-0.0003105269902752223,-0.0007362337432515026,0.0014504914436378618,4.441769691163383e-05,0.0002984941244081828,8.40611080398671e-05,0.4267818331718445,22.696680068969727,0.1491362750530243,-14.131807327270508,-0.2722068428993225,-2.1453890800476074,0.41965049505233765,0
25,0.11997532844543457,-0.4267818331718445,-22.696680068969727,-0.1491362750530243,14.131807327270508,0.2722068428993225,2.1453890800476074,-0.41965049505233765,0.0,0.0,0.0,0.0,0.0,0.0,0.0,-0.4303384378962577,0.08748618602940972,-0.1962230331513177,0.19773564996516474,0.040127767372223844,-0.048203882779765735,-0.4140428804733907,1.6757031959738802,0.05226205823034571,0.030086068992493185,-2.7525092400333335,0.03425783301451231,2.766324922806809,0.7691952761569903,1.6754973547542302,0.052104326824870026,0.029969505109285054,-2.752394845125968,0.0342448039870148,2.7663679543071322,0.7691630533470046,-0.00035173675572139227,0.0003105269902752223,0.0007362337432515026,-0.0014504914436378618,-4.441769691163383e-05,-0.0002984941244081828,-8.40611080398671e-05,0.0,0.0,0.0,0.0,0.0,0.0,0.0,-0.00020584121964994928,-0.00015773140547568204,-0.00011656388320813171,0.00011439490736542268,-1.302902749750895e-05,4.3031500323031935e-05,-3.2222809985715806e-05,0.00035173675572139227,-0.0003105269902752223,-0.0007362337432515026,0.0014504914436378618,4.441769691163383e-05,0.0002984941244081828,8.40611080398671e-05,0.4267818331718445,22.696680068969727,0.1491362750530243,-14.131807327270508,-0.2722068428993225,-2.1453890800476074,0.41965049505233765,0
26,0.12498259544372559,-0.4783565402030945,-22.649072647094727,-0.09756157547235489,14.080232620239258,0.2667136788368225,2.1325716972351074,-0.39950889348983765,0.0,0.0,0.0,0.0,0.0,0.0,0.0,-0.4322092208799042,0.09144504336151457,-0.19895621412606013,0.1977530758180083,0.0398990866905795,-0.04820115899202958,-0.4139587084971239,1.675709676281247,0.05225871735863518,0.030082105815961796,-2.752505620650669,0.034259625978129406,2.7663267087304226,0.7691967316897143,1.6754973547542302,0.052104326824870026,0.029969505109285054,-2.752394845125968,0.0342448039870148,2.7663679543071322,0.7691630533470046,0.00029727479407690724,-0.0008233902143543954,-0.0011272418806233622,-0.00020649806881147968,0.000137827190961132,0.00019545631300091232,-0.0007742616399873176,0.0,0.0,0.0,0.0,0.0,0.0,0.0,-0.00021232152701666784,-0.00015439053376515438,-0.00011260070667674232,0.0001107755247007347,-1.4821991114605249e-05,4.124557670959206e-05,-3.367834270961989e-05,-0.00029727479407690724,0.0008233902143543954,0.0011272418806233622,0.00020649806881147968,-0.000137827190961132,-0.00019545631300091232,0.0007742616399873176,0.4783565402030945,22.649072647094727,0.09756157547235489,-14.080232620239258,-0.2667136788368225,-2.1325716972351074,0.39950889348983765,0
27,0.12999725341796875,-0.4783565402030945,-22.649072647094727,-0.09756157547235489,14.080232620239258,0.2667136788368225,2.1325716972351074,-0.39950889348983765,0.0,0.0,0.0,0.0,0.0,0.0,0.0,-0.4322092208799042,0.09144504336151457,-0.19895621412606013,0.1977530758180083,0.0398990866905795,-0.04820115899202958,-0.4139587084971239,1.675709676281247,0.05225871735863518,0.030082105815961796,-2.752505620650669,0.034259625978129406,2.7663267087304226,0.7691967316897143,1.6754973547542302,0.052104326824870026,0.029969505109285054,-2.752394845125968,0.0342448039870148,2.7663679543071322,0.7691630533470046,0.00029727479407690724,-0.0008233902143543954,-0.0011272418806233622,-0.00020649806881147968,0.000137827190961132,0.00019545631300091232,-0.0007742616399873176,0.0,0.0,0.0,0.0,0.0,0.0,0.0,-0.00021232152701666784,-0.00015439053376515438,-0.00011260070667674232,0.0001107755247007347,-1.4821991114605249e-05,4.124557670959206e-05,-3.367834270961989e-05,-0.00029727479407690724,0.0008233902143543954,0.0011272418806233622,0.00020649806881147968,-0.000137827190961132,-0.00019545631300091232,0.0007742616399873176,0.4783565402030945,22.649072647094727,0.09756157547235489,-14.080232620239258,-0.2667136788368225,-2.1325716972351074,0.39950889348983765,0
28,0.13498282432556152,-0.4783565402030945,-22.649072647094727,-0.09756157547235489,14.080232620239258,0.2667136788368225,2.1325716972351074,-0.39950889348983765,0.0,0.0,0.0,0.0,0.0,0.0,0.0,-0.4322092208799042,0.09144504336151457,-0.19895621412606013,0.1977530758180083,0.0398990866905795,-0.04820115899202958,-0.4139587084971239,1.675709676281247,0.05225871735863518,0.030082105815961796,-2.752505620650669,0.034259625978129406,2.7663267087304226,0.7691967316897143,1.6754973547542302,0.052104326824870026,0.029969505109285054,-2.752394845125968,0.0342448039870148,2.7663679543071322,0.7691630533470046,0.00029727479407690724,-0.0008233902143543954,-0.0011272418806233622,-0.00020649806881147968,0.000137827190961132,0.00019545631300091232,-0.0007742616399873176,0.0,0.0,0.0,0.0,0.0,0.0,0.0,-0.00021232152701666784,-0.00015439053376515438,-0.00011260070667674232,0.0001107755247007347,-1.4821991114605249e-05,4.124557670959206e-05,-3.367834270961989e-05,-0.00029727479407690724,0.0008233902143543954,0.0011272418806233622,0.00020649806881147968,-0.000137827190961132,-0.00019545631300091232,0.0007742616399873176,0.4783565402030945,22.649072647094727,0.09756157547235489,-14.080232620239258,-0.2667136788368225,-2.1325716972351074,0.39950889348983765,0
29,0.140045166015625,-0.4783565402030945,-22.649072647094727,-0.09756157547235489,14.080232620239258,0.2667136788368225,2.1325716972351074,-0.39950889348983765,0.0,0.0,0.0,0.0,0.0,0.0,0.0,-0.4322092208799042,0.09144504336151457,-0.19895621412606013,0.1977530758180083,0.0398990866905795,-0.04820115899202958,-0.4139587084971239,1.675709676281247,0.05225871735863518,0.030082105815961796,-2.752505620650669,0.034259625978129406,2.7663267087304226,0.7691967316897143,1.6754973547542302,0.052104326824870026,0.029969505109285054,-2.752394845125968,0.0342448039870148,2.7663679543071322,0.7691630533470046,0.00029727479407690724,-0.0008233902143543954,-0.0011272418806233622,-0.00020649806881147968,0.000137827190961132,0.00019545631300091232,-0.0007742616399873176,0.0,0.0,0.0,0.0,0.0,0.0,0.0,-0.00021232152701666784,-0.00015439053376515438,-0.00011260070667674232,0.0001107755247007347,-1.4821991114605249e-05,4.124557670959206e-05,-3.367834270961989e-05,-0.00029727479407690724,0.0008233902143543954,0.0011272418806233622,0.00020649806881147968,-0.000137827190961132,-0.00019545631300091232,0.0007742616399873176,0.4783565402030945,22.649072647094727,0.09756157547235489,-14.080232620239258,-0.2667136788368225,-2.1325716972351074,0.39950889348983765,0
30,0.14501738548278809,-0.4505855441093445,-22.672876358032227,-0.1491362750530243,14.080232620239258,0.2667136788368225,2.1325716972351074,-0.42605918645858765,0.0,0.0,0.0,0.0,0.0,0.0,0.0,-0.436435084624642,0.09147260217991836,-0.20279031154536897,0.20153341111052714,0.039613640722192305,-0.047702894142733265,-0.4143476050800774,1.6757077274447993,0.052260387794490444,0.030085833145867352,-2.7525056207556466,0.03425856056534965,2.766329521891003,0.7691953918179181,1.6754973547542302,0.052104326824870026,0.029969505109285054,-2.752394845125968,0.0342448039870148,2.7663679543071322,0.7691630533470046,-0.0005017681982155233,-0.0006709061040339403,0.00023422931394743356,-0.0004746718141192409,0.00011841148771162308,8.7313824898062e-06,6.822745452401896e-05,0.0,0.0,0.0,0.0,0.0,0.0,0.0,-0.00021037269056911612,-0.0001560609696204182,-0.00011632803658229857,0.00011077562967853893,-1.3756578334848946e-05,3.8432416129108304e-05,-3.233847091344e-05,0.0005017681982155233,0.0006709061040339403,-0.00023422931394743356,0.0004746718141192409,-0.00011841148771162308,-8.7313824898062e-06,-6.822745452401896e-05,0.4505855441093445,22.672876358032227,0.1491362750530243,-14.080232620239258,-0.2667136788368225,-2.1325716972351074,0.42605918645858765,0
31,0.1500244140625,-0.4505855441093445,-22.672876358032227,-0.1491362750530243,14.080232620239258,0.2667136788368225,2.1325716972351074,-0.42605918645858765,0.0,0.0,0.0,0.0,0.0,0.0,0.0,-0.436435084624642,0.09147260217991836,-0.20279031154536897,0.20153341111052714,0.039613640722192305,-0.047702894142733265,-0.4143476050800774,1.6757077274447993,0.052260387794490444,0.030085833145867352,-2.7525056207556466,0.03425856056534965,2.766329521891003,0.7691953918179181,1.6754973547542302,0.052104326824870026,0.029969505109285054,-2.752394845125968,0.0342448039870148,2.7663679543071322,0.7691630533470046,-0.0005017681982155233,-0.0006709061040339403,0.00023422931394743356,-0.0004746718141192409,0.00011841148771162308,8.7313824898062e-06,6.822745452401896e-05,0.0,0.0,0.0,0.0,0.0,0.0,0.0,-0.00021037269056911612,-0.0001560609696204182,-0.00011632803658229857,0.00011077562967853893,-1.3756578334848946e-05,3.8432416129108304e-05,-3.233847091344e-05,0.0005017681982155233,0.0006709061040339403,-0.00023422931394743356,0.0004746718141192409,-0.00011841148771162308,-8.7313824898062e-06,-6.822745452401896e-05,0.4505855441093445,22.672876358032227,0.1491362750530243,-14.080232620239258,-0.2667136788368225,-2.1325716972351074,0.42605918645858765,0
32,0.1549975872039795,-0.5021602511405945,-22.672876358032227,-0.1253325641155243,14.108003616333008,0.2722068428993225,2.1389803886413574,-0.43979209661483765,0.0,0.0,0.0,0.0,0.0,0.0,0.0,-0.4411160135187829,0.09362503925419205,-0.20480547178423353,0.20430976488915784,0.03919250045704345,-0.047843555061478846,-0.4151120146167837,1.6757113457413393,0.052260387794490444,0.030083346508343684,-2.752507569597478,0.03425865145681231,2.7663258718281667,0.7691976710961519,1.6754973547542302,0.052104326824870026,0.029969505109285054,-2.752394845125968,0.0342448039870148,2.7663679543071322,0.7691630533470046,0.0007520984840893476,-0.0009211320175535658,7.879580849776637e-05,-0.0008252566927952192,-0.00014421174416433298,3.23589921096342e-05,0.0014543453416338819,0.0,0.0,0.0,0.0,0.0,0.0,0.0,-0.0002139909871090584,-0.0001560609696204182,-0.00011384139905862983,0.0001127244715100062,-1.384746979751078e-05,4.2082478965532744e-05,-3.461774914725879e-05,-0.0007520984840893476,0.0009211320175535658,-7.879580849776637e-05,0.0008252566927952192,0.00014421174416433298,-3.23589921096342e-05,-0.0014543453416338819,0.5021602511405945,22.672876358032227,0.1253325641155243,-14.108003616333008,-0.2722068428993225,-2.1389803886413574,0.43979209661483765,0
33,0.15997791290283203,-0.5021602511405945,-22.672876358032227,-0.1253325641155243,14.108003616333008,0.2722068428993225,2.1389803886413574,-0.43979209661483765,0.0,0.0,0.0,0.0,0.0,0.0,0.0,-0.4411160135187829,0.09362503925419205,-0.20480547178423353,0.20430976488915784,0.03919250045704345,-0.047843555061478846,-0.4151120146167837,1.6757113457413393,0.052260387794490444,0.030083346508343684,-2.752507569597478,0.03425865145681231,2.7663258718281667,0.7691976710961519,1.6754973547542302,0.052104326824870026,0.029969505109285054,-2.752394845125968,0.0342448039870148,2.7663679543071322,0.7691630533470046,0.0007520984840893476,-0.0009211320175535658,7.879580849776637e-05,-0.0008252566927952192,-0.00014421174416433298,3.23589921096342e-05,0.0014543453416338819,0.0,0.0,0.0,0.0,0.0,0.0,0.0,-0.0002139909871090584,-0.0001560609696204182,-0.00011384139905862983,0.0001127244715100062,-1.384746979751078e-05,4.2082478965532744e-05,-3.461774914725879e-05,-0.0007520984840893476,0.0009211320175535658,-7.879580849776637e-05,0.0008252566927952192,0.00014421174416433298,-3.23589921096342e-05,-0.0014543453416338819,0.5021602511405945,22.672876358032227,0.1253325641155243,-14.108003616333008,-0.2722068428993225,-2.1389803886413574,0.43979209661483765,0
34,0.16501212120056152,-0.4267818331718445,-22.748254776000977,-0.09756157547235489,14.080232620239258,0.2603049874305725,2.1261630058288574,-0.44711631536483765,0.0,0.0,0.0,0.0,0.0,0.0,0.0,-0.4394466938312879,0.09274804143303443,-0.19853646542574818,0.20466759424984013,0.038578619777277674,-0.04717431191493759,-0.41369003690487294,1.6757060570089386,0.05226567750803211,0.030081719336630286,-2.752505620755647,0.034257023067841195,2.7663301612896087,0.7691988419913319,1.6754973547542302,0.052104326824870026,0.029969505109285054,-2.752394845125968,0.0342448039870148,2.7663679543071322,0.7691630533470046,-1.960966841173297e-05,0.0009328589093580116,-1.696764499768665e-05,-0.00040311907198976014,0.0004961851374687135,0.00037387607719922643,0.0013123842249438294,0.0,0.0,0.0,0.0,0.0,0.0,0.0,-0.00020870225470837056,-0.000161350683162087,-0.00011221422734523229,0.00011077562967898302,-1.2219080826395001e-05,3.7793017523490846e-05,-3.578864432729478e-05,1.960966841173297e-05,-0.0009328589093580116,1.696764499768665e-05,0.00040311907198976014,-0.0004961851374687135,-0.00037387607719922643,-0.0013123842249438294,0.4267818331718445,22.748254776000977,0.09756157547235489,-14.080232620239258,-0.2603049874305725,-2.1261630058288574,0.44711631536483765,0
35,0.16997432708740234,-0.4267818331718445,-22.748254776000977,-0.09756157547235489,14.080232620239258,0.2603049874305725,2.1261630058288574,-0.44711631536483765,0.0,0.0,0.0,0.0,0.0,0.0,0.0,-0.4394466938312879,0.09274804143303443,-0.19853646542574818,0.20466759424984013,0.038578619777277674,-0.04717431191493759,-0.41369003690487294,1.6757060570089386,0.05226567750803211,0.030081719336630286,-2.752505620755647,0.034257023067841195,2.7663301612896087,0.7691988419913319,1.6754973547542302,0.052104326824870026,0.029969505109285054,-2.752394845125968,0.0342448039870148,2.7663679543071322,0.7691630533470046,-1.960966841173297e-05,0.0009328589093580116,-1.696764499768665e-05,-0.00040311907198976014,0.0004961851374687135,0.00037387607719922643,0.0013123842249438294,0.0,0.0,0.0,0.0,0.0,0.0,0.0,-0.00020870225470837056,-0.000161350683162087,-0.00011221422734523229,0.00011077562967898302,-1.2219080826395001e-05,3.7793017523490846e-05,-3.578864432729478e-05,1.960966841173297e-05,-0.0009328589093580116,1.696764499768665e-05,0.00040311907198976014,-0.0004961851374687135,-0.00037387607719922643,-0.0013123842249438294,0.4267818331718445,22.748254776000977,0.09756157547235489,-14.080232620239258,-0.2603049874305725,-2.1261630058288574,0.44711631536483765,0
36,0.17498564720153809,-0.4029781222343445,-22.720483779907227,-0.09756157547235489,14.056428909301758,0.2722068428993225,2.1325716972351074,-0.37845176458358765,0.0,0.0,0.0,0.0,0.0,0.0,0.0,-0.44322466682955286,0.09527796018052778,-0.2014674273294434,0.20107561503372068,0.03936055765061461,-0.04821685857670439,-0.41363129999120934,1.6757043865730887,0.05226372866620097,0.03008245008812058,-2.7525039503197917,0.03425790299405794,2.766327676812859,0.7691932028321145,1.6754973547542302,0.052104326824870026,0.029969505109285054,-2.752394845125968,0.0342448039870148,2.7663679543071322,0.7691630533470046,-0.00034835086964787713,3.152847929667606e-05,-0.0003064666985707509,8.784449006021299e-05,8.781684538667325e-05,9.576239944121182e-05,-0.0009123450180251219,0.0,0.0,0.0,0.0,0.0,0.0,0.0,-0.0002070318188585052,-0.00015940184133094587,-0.00011294497883552676,0.00010910519382356654,-1.3099007043139432e-05,4.027749427315541e-05,-3.0149485109820517e-05,0.00034835086964787713,-3.152847929667606e-05,0.0003064666985707509,-8.784449006021299e-05,-8.781684538667325e-05,-9.576239944121182e-05,0.0009123450180251219,0.4029781222343445,22.720483779907227,0.09756157547235489,-14.056428909301758,-0.2722068428993225,-2.1325716972351074,0.37845176458358765,0
37,0.1800241470336914,-0.4029781222343445,-22.720483779907227,-0.09756157547235489,14.056428909301758,0.2722068428993225,2.1325716972351074,-0.37845176458358765,0.0,0.0,0.0,0.0,0.0,0.0,0.0,-0.44322466682955286,0.09527796018052778,-0.2014674273294434,0.20107561503372068,0.03936055765061461,-0.04821685857670439,-0.41363129999120934,1.6757043865730887,0.05226372866620097,0.03008245008812058,-2.7525039503197917,0.03425790299405794,2.766327676812859,0.7691932028321145,1.6754973547542302,0.052104326824870026,0.029969505109285054,-2.752394845125968,0.0342448039870148,2.7663679543071322,0.7691630533470046,-0.00034835086964787713,3.152847929667606e-05,-0.0003064666985707509,8.784449006021299e-05,8.781684538667325e-05,9.576239944121182e-05,-0.0009123450180251219,0.0,0.0,0.0,0.0,0.0,0.0,0.0,-0.0002070318188585052,-0.00015940184133094587,-0.00011294497883552676,0.00010910519382356654,-1.3099007043139432e-05,4.027749427315541e-05,-3.0149485109820517e-05,0.00034835086964787713,-3.152847929667606e-05,0.0003064666985707509,-8.784449006021299e-05,-8.781684538667325e-05,-9.576239944121182e-05,0.0009123450180251219,0.4029781222343445,22.720483779907227,0.09756157547235489,-14.056428909301758,-0.2722068428993225,-2.1325716972351074,0.37845176458358765,0
38,0.1849977970123291,-0.4029781222343445,-22.748254776000977,-0.09756157547235489,14.080232620239258,0.2841086983680725,2.1325716972351074,-0.41324180364608765,0.0,0.0,0.0,0.0,0.0,0.0,0.0,-0.4413055199353677,0.09084034482034016,-0.20179553331627806,0.2024848864583781,0.039599705889073904,-0.04805712134444255,-0.41206124899243696,1.6757043865730887,0.05226567750803211,0.030081748139411318,-2.752505620755647,0.03425650960156169,2.7663265824574186,0.769197042387404,1.6754973547542302,0.052104326824870026,0.029969505109285054,-2.752394845125968,0.0342448039870148,2.7663679543071322,0.7691630533470046,-0.0005650028511010205,0.000987167289350968,-0.0005133703992978016,-0.00030609098769343975,-0.0003984579719996155,0.00031623391928113886,-0.00036595005759287175,0.0,0.0,0.0,0.0,0.0,0.0,0.0,-0.0002070318188585052,-0.000161350683162087,-0.00011224303012626405,0.00011077562967898302,-1.1705614546886345e-05,4.137184971364505e-05,-3.398904039941808e-05,0.0005650028511010205,-0.000987167289350968,0.0005133703992978016,0.00030609098769343975,0.0003984579719996155,-0.00031623391928113886,0.00036595005759287175,0.4029781222343445,22.748254776000977,0.09756157547235489,-14.080232620239258,-0.2841086983680725,-2.1325716972351074,0.41324180364608765,0
39,0.19005084037780762,-0.4029781222343445,-22.748254776000977,-0.09756157547235489,14.080232620239258,0.2841086983680725,2.1325716972351074,-0.41324180364608765,0.0,0.0,0.0,0.0,0.0,0.0,0.0,-0.4413055199353677,0.09084034482034016,-0.20179553331627806,0.2024848864583781,0.039599705889073904,-0.04805712134444255,-0.41206124899243696,1.6757043865730887,0.05226567750803211,0.030081748139411318,-2.752505620755647,0.03425650960156169,2.7663265824574186,0.769197042387404,1.6754973547542302,0.052104326824870026,0.029969505109285054,-2.752394845125968,0.0342448039870148,2.7663679543071322,0.7691630533470046,-0.0005650028511010205,0.000987167289350968,-0.0005133703992978016,-0.00030609098769343975,-0.0003984579719996155,0.00031623391928113886,-0.00036595005759287175,0.0,0.0,0.0,0.0,0.0,0.0,0.0,-0.0002070318188585052,-0.000161350683162087,-0.00011224303012626405,0.00011077562967898302,-1.1705614546886345e-05,4.137184971364505e-05,-3.398904039941808e-05,0.0005650028511010205,-0.000987167289350968,0.0005133703992978016,0.00030609098769343975,0.0003984579719996155,-0.00031623391928113886,0.00036595005759287175,0.4029781222343445,22.748254776000977,0.09756157547235489,-14.080232620239258,-0.2841086983680725,-2.1325716972351074,0.41324180364608765,0
40,0.1950068473815918,-0.4267818331718445,-22.720483779907227,-0.07375786453485489,14.080232620239258,0.2786155343055725,2.1453890800476074,-0.40591758489608765,0.0,0.0,0.0,0.0,0.0,0.0,0.0,-0.43383505108706033,0.09290707910583905,-0.1969107323811142,0.1993799497853532,0.039539690828817226,-0.048571374018680905,-0.4118390136764644,1.6757060570089441,0.05226372866620097,0.03007984132440906,-2.752505620755647,0.034258151553809846,2.7663279973864956,0.7691960171206066,1.6754973547542302,0.052104326824870026,0.029969505109285054,-2.752394845125968,0.0342448039870148,2.7663679543071322,0.7691630533470046,9.770956805069293e-06,0.00037751721081338195,-0.000806701973372518,-0.0003585812930777222,-0.00036479589728862974,-0.000420394340810056,0.00022646153086565903,0.0,0.0,0.0,0.0,0.0,0.0,0.0,-0.00020870225471392168,-0.00015940184133094587,-0.00011033621512400796,0.00011077562967898302,-1.3347566795045285e-05,3.9956920636630144e-05,-3.2963773601957236e-05,-9.770956805069293e-06,-0.00037751721081338195,0.000806701973372518,0.0003585812930777222,0.00036479589728862974,0.000420394340810056,-0.00022646153086565903,0.4267818331718445,22.720483779907227,0.07375786453485489,-14.080232620239258,-0.2786155343055725,-2.1453890800476074,0.40591758489608765,0
41,0.19999241828918457,-0.4267818331718445,-22.720483779907227,-0.07375786453485489,14.080232620239258,0.2786155343055725,2.1453890800476074,-0.40591758489608765,0.0,0.0,0.0,0.0,0.0,0.0,0.0,-0.43383505108706033,0.09290707910583905,-0.1969107323811142,0.1993799497853532,0.039539690828817226,-0.048571374018680905,-0.4118390136764644,1.6757060570089441,0.05226372866620097,0.03007984132440906,-2.752505620755647,0.034258151553809846,2.7663279973864956,0.7691960171206066,1.6754973547542302,0.052104326824870026,0.029969505109285054,-2.752394845125968,0.0342448039870148,2.7663679543071322,0.7691630533470046,9.770956805069293e-06,0.00037751721081338195,-0.000806701973372518,-0.0003585812930777222,-0.00036479589728862974,-0.000420394340810056,0.00022646153086565903,0.0,0.0,0.0,0.0,0.0,0.0,0.0,-0.00020870225471392168,-0.00015940184133094587,-0.00011033621512400796,0.00011077562967898302,-1.3347566795045285e-05,3.9956920636630144e-05,-3.2963773601957236e-05,-9.770956805069293e-06,-0.00037751721081338195,0.000806701973372518,0.0003585812930777222,0.00036479589728862974,0.000420394340810056,-0.00022646153086565903,0.4267818331718445,22.720483779907227,0.07375786453485489,-14.080232620239258,-0.2786155343055725,-2.1453890800476074,0.40591758489608765,0
42,0.20498013496398926,-0.4505855441093445,-22.696680068969727,-0.1491362750530243,14.080232620239258,0.2786155343055725,2.1389803886413574,-0.39950889348983765,0.0,0.0,0.0,0.0,0.0,0.0,0.0,-0.4367941554903454,0.09119445715187126,-0.2001376180712568,0.19836346520066345,0.03962310821798378,-0.04852647742266139,-0.4103808938064426,1.6757077274447993,0.05226205823034571,0.030085811671103704,-2.752505620755647,0.03425722958362854,2.7663256870652133,0.7691963668474935,1.6754973547542302,0.052104326824870026,0.029969505109285054,-2.752394845125968,0.0342448039870148,2.7663679543071322,0.7691630533470046,8.179738587587635e-05,-0.0003920301038118148,0.0006033610038920293,-0.0006061633038989593,-0.0002240935537190466,0.0001895322390233592,-0.0009301037478519232,0.0,0.0,0.0,0.0,0.0,0.0,0.0,-0.00021037269056911612,-0.00015773140547568204,-0.00011630656181865068,0.00011077562967898302,-1.2425596613740986e-05,4.226724191891407e-05,-3.3313500488851844e-05,-8.179738587587635e-05,0.0003920301038118148,-0.0006033610038920293,0.0006061633038989593,0.0002240935537190466,-0.0001895322390233592,0.0009301037478519232,0.4505855441093445,22.696680068969727,0.1491362750530243,-14.080232620239258,-0.2786155343055725,-2.1389803886413574,0.39950889348983765,0
43,0.20998072624206543,-0.4505855441093445,-22.696680068969727,-0.1491362750530243,14.080232620239258,0.2786155343055725,2.1389803886413574,-0.39950889348983765,0.0,0.0,0.0,0.0,0.0,0.0,0.0,-0.4367941554903454,0.09119445715187126,-0.2001376180712568,0.19836346520066345,0.03962310821798378,-0.04852647742266139,-0.4103808938064426,1.6757077274447993,0.05226205823034571,0.030085811671103704,-2.752505620755647,0.03425722958362854,2.7663256870652133,0.7691963668474935,1.6754973547542302,0.052104326824870026,0.029969505109285054,-2.752394845125968,0.0342448039870148,2.7663679543071322,0.7691630533470046,8.179738587587635e-05,-0.0003920301038118148,0.0006033610038920293,-0.0006061633038989593,-0.0002240935537190466,0.0001895322390233592,-0.0009301037478519232,0.0,0.0,0.0,0.0,0.0,0.0,0.0,-0.00021037269056911612,-0.00015773140547568204,-0.00011630656181865068,0.00011077562967898302,-1.2425596613740986e-05,4.226724191891407e-05,-3.3313500488851844e-05,-8.179738587587635e-05,0.0003920301038118148,-0.0006033610038920293,0.0006061633038989593,0.0002240935537190466,-0.0001895322390233592,0.0009301037478519232,0.4505855441093445,22.696680068969727,0.1491362750530243,-14.080232620239258,-0.2786155343055725,-2.1389803886413574,0.39950889348983765,0
44,0.2149796485900879,-0.4505855441093445,-22.696680068969727,-0.1253325641155243,14.108003616333008,0.2722068428993225,2.1325716972351074,-0.45352500677108765,0.0,0.0,0.0,0.0,0.0,0.0,0.0,-0.4371725755763329,0.09397661407657774,-0.19878501552485425,0.20032698055981035,0.03928966335773302,-0.04834426139155883,-0.41176505907311167,1.6757077274447993,0.05226205823034571,0.03008204101039664,-2.752507569597478,0.03425866655892397,2.7663263424365154,0.769202559005099,1.6754973547542302,0.052104326824870026,0.029969505109285054,-2.752394845125968,0.0342448039870148,2.7663679543071322,0.7691630533470046,-0.0005644739978720486,0.0002686041000919817,0.0001363314924231606,-0.00047478497472960043,2.968682260915402e-05,0.00012637964780397217,0.0016605814752347467,0.0,0.0,0.0,0.0,0.0,0.0,0.0,-0.00021037269056911612,-0.00015773140547568204,-0.00011253590111158507,0.0001127244715100062,-1.386257190916923e-05,4.161187061679783e-05,-3.9505658094407536e-05,0.0005644739978720486,-0.0002686041000919817,-0.0001363314924231606,0.00047478497472960043,-2.968682260915402e-05,-0.00012637964780397217,-0.0016605814752347467,0.4505855441093445,22.696680068969727,0.1253325641155243,-14.108003616333008,-0.2722068428993225,-2.1325716972351074,0.45352500677108765,0
45,0.21998906135559082,-0.4505855441093445,-22.696680068969727,-0.1253325641155243,14.108003616333008,0.2722068428993225,2.1325716972351074,-0.45352500677108765,0.0,0.0,0.0,0.0,0.0,0.0,0.0,-0.4371725755763329,0.09397661407657774,-0.19878501552485425,0.20032698055981035,0.03928966335773302,-0.04834426139155883,-0.41176505907311167,1.6757077274447993,0.05226205823034571,0.03008204101039664,-2.752507569597478,0.03425866655892397,2.7663263424365154,0.769202559005099,1.6754973547542302,0.052104326824870026,0.029969505109285054,-2.752394845125968,0.0342448039870148,2.7663679543071322,0.7691630533470046,-0.0005644739978720486,0.0002686041000919817,0.0001363314924231606,-0.00047478497472960043,2.968682260915402e-05,0.00012637964780397217,0.0016605814752347467,0.0,0.0,0.0,0.0,0.0,0.0,0.0,-0.00021037269056911612,-0.00015773140547568204,-0.00011253590111158507,0.0001127244715100062,-1.386257190916923e-05,4.161187061679783e-05,-3.9505658094407536e-05,0.0005644739978720486,-0.0002686041000919817,-0.0001363314924231606,0.00047478497472960043,-2.968682260915402e-05,-0.00012637964780397217,-0.0016605814752347467,0.4505855441093445,22.696680068969727,0.1253325641155243,-14.108003616333008,-0.2722068428993225,-2.1325716972351074,0.45352500677108765,0
46,0.22498869895935059,-0.4505855441093445,-22.672876358032227,-0.1491362750530243,14.080232620239258,0.2722068428993225,2.1325716972351074,-0.44711631536483765,0.0,0.0,0.0,0.0,0.0,0.0,0.0,-0.4409610916995036,0.09607808833812109,-0.19772212098999492,0.19966363471752352,0.03957928479011141,-0.04933868599692824,-0.41354810174262246,1.6757077274447993,0.052260387794490444,0.03008532951265054,-2.752505620755647,0.03425428190258047,2.766327656499453,0.7692009044366042,1.6754973547542302,0.052104326824870026,0.029969505109285054,-2.752394845125968,0.0342448039870148,2.7663679543071322,0.7691630533470046,-0.00024546874687170954,-0.0004490751148506372,0.0006696580510716524,-0.00041049600853387645,8.717665069885113e-05,0.0004187857613953997,0.0007234703144629973,0.0,0.0,0.0,0.0,0.0,0.0,0.0,-0.00021037269056911612,-0.0001560609696204182,-0.00011582440336548733,0.00011077562967898302,-9.477915565672679e-06,4.029780767922375e-05,-3.7851089599527654e-05,0.00024546874687170954,0.0004490751148506372,-0.0006696580510716524,0.00041049600853387645,-8.717665069885113e-05,-0.0004187857613953997,-0.0007234703144629973,0.4505855441093445,22.672876358032227,0.1491362750530243,-14.080232620239258,-0.2722068428993225,-2.1325716972351074,0.44711631536483765,0
47,0.2300257682800293,-0.4505855441093445,-22.672876358032227,-0.1491362750530243,14.080232620239258,0.2722068428993225,2.1325716972351074,-0.44711631536483765,0.0,0.0,0.0,0.0,0.0,0.0,0.0,-0.4409610916995036,0.09607808833812109,-0.19772212098999492,0.19966363471752352,0.03957928479011141,-0.04933868599692824,-0.41354810174262246,1.6757077274447993,0.052260387794490444,0.03008532951265054,-2.752505620755647,0.03425428190258047,2.766327656499453,0.7692009044366042,1.6754973547542302,0.052104326824870026,0.029969505109285054,-2.752394845125968,0.0342448039870148,2.7663679543071322,0.7691630533470046,-0.00024546874687170954,-0.0004490751148506372,0.0006696580510716524,-0.00041049600853387645,8.717665069885113e-05,0.0004187857613953997,0.0007234703144629973,0.0,0.0,0.0,0.0,0.0,0.0,0.0,-0.00021037269056911612,-0.0001560609696204182,-0.00011582440336548733,0.00011077562967898302,-9.477915565672679e-06,4.029780767922375e-05,-3.7851089599527654e-05,0.00024546874687170954,0.0004490751148506372,-0.0006696580510716524,0.00041049600853387645,-8.717665069885113e-05,-0.0004187857613953997,-0.0007234703144629973,0.4505855441093445,22.672876358032227,0.1491362750530243,-14.080232620239258,-0.2722068428993225,-2.1325716972351074,0.44711631536483765,0
48,0.2349863052368164,-0.4505855441093445,-22.696680068969727,-0.09756157547235489,14.032625198364258,0.2667136788368225,2.1261630058288574,-0.43979209661483765,0.0,0.0,0.0,0.0,0.0,0.0,0.0,-0.44921857673306925,0.09841752327974573,-0.20364856737226963,0.20079935161727627,0.0401023533165012,-0.04894419536935245,-0.41614545621757437,1.675707486082781,0.05226205823034571,0.030082380802174142,-2.7525022798839363,0.034259631547002366,2.7663280545630053,0.7691965584482675,1.6754973547542302,0.052104326824870026,0.029969505109285054,-2.752394845125968,0.0342448039870148,2.7663679543071322,0.7691630533470046,-0.00045089598856487323,0.00042415005103542674,-0.0009490995998167096,0.0006388379240522752,0.00019803260303946017,0.0003900087182465002,0.0008235299629898322,0.0,0.0,0.0,0.0,0.0,0.0,0.0,-0.00021013132855074446,-0.00015773140547568204,-0.00011287569288908825,0.00010743475796815005,-1.4827559987565242e-05,3.989974412688113e-05,-3.35051012628762e-05,0.00045089598856487323,-0.00042415005103542674,0.0009490995998167096,-0.0006388379240522752,-0.00019803260303946017,-0.0003900087182465002,-0.0008235299629898322,0.4505855441093445,22.696680068969727,0.09756157547235489,-14.032625198364258,-0.2667136788368225,-2.1261630058288574,0.43979209661483765,0
49,0.2400190830230713,-0.4505855441093445,-22.696680068969727,-0.09756157547235489,14.032625198364258,0.2667136788368225,2.1261630058288574,-0.43979209661483765,0.0,0.0,0.0,0.0,0.0,0.0,0.0,-0.44921857673306925,0.09841752327974573,-0.20364856737226963,0.20079935161727627,0.0401023533165012,-0.04894419536935245,-0.41614545621757437,1.675707486082781,0.05226205823034571,0.030082380802174142,-2.7525022798839363,0.034259631547002366,2.7663280545630053,0.7691965584482675,1.6754973547542302,0.052104326824870026,0.029969505109285054,-2.752394845125968,0.0342448039870148,2.7663679543071322,0.7691630533470046,-0.00045089598856487323,0.00042415005103542674,-0.0009490995998167096,0.0006388379240522752,0.00019803260303946017,0.0003900087182465002,0.0008235299629898322,0.0,0.0,0.0,0.0,0.0,0.0,0.0,-0.00021013132855074446,-0.00015773140547568204,-0.00011287569288908825,0.00010743475796815005,-1.4827559987565242e-05,3.989974412688113e-05,-3.35051012628762e-05,0.00045089598856487323,-0.00042415005103542674,0.0009490995998167096,-0.0006388379240522752,-0.00019803260303946017,-0.0003900087182465002,-0.0008235299629898322,0.4505855441093445,22.696680068969727,0.09756157547235489,-14.032625198364258,-0.2667136788368225,-2.1261630058288574,0.43979209661483765,0
50,0.24503469467163086,-0.4505855441093445,-22.696680068969727,-0.09756157547235489,14.032625198364258,0.2667136788368225,2.1261630058288574,-0.43979209661483765,0.0,0.0,0.0,0.0,0.0,0.0,0.0,-0.44921857673306925,0.09841752327974573,-0.20364856737226963,0.20079935161727627,0.0401023533165012,-0.04894419536935245,-0.41614545621757437,1.675707486082781,0.05226205823034571,0.030082380802174142,-2.7525022798839363,0.034259631547002366,2.7663280545630053,0.7691965584482675,1.6754973547542302,0.052104326824870026,0.029969505109285054,-2.752394845125968,0.0342448039870148,2.7663679543071322,0.7691630533470046,-0.00045089598856487323,0.00042415005103542674,-0.0009490995998167096,0.0006388379240522752,0.00019803260303946017,0.0003900087182465002,0.0008235299629898322,0.0,0.0,0.0,0.0,0.0,0.0,0.0,-0.00021013132855074446,-0.00015773140547568204,-0.00011287569288908825,0.00010743475796815005,-1.4827559987565242e-05,3.989974412688113e-05,-3.35051012628762e-05,0.00045089598856487323,-0.00042415005103542674,0.0009490995998167096,-0.0006388379240522752,-0.00019803260303946017,-0.0003900087182465002,-0.0008235299629898322,0.4505855441093445,22.696680068969727,0.09756157547235489,-14.032625198364258,-0.2667136788368225,-2.1261630058288574,0.43979209661483765,0
51,0.249985933303833,-0.4505855441093445,-22.696680068969727,-0.09756157547235489,14.032625198364258,0.2667136788368225,2.1261630058288574,-0.43979209661483765,0.0,0.0,0.0,0.0,0.0,0.0,0.0,-0.44921857673306925,0.09841752327974573,-0.20364856737226963,0.20079935161727627,0.0401023533165012,-0.04894419536935245,-0.41614545621757437,1.675707486082781,0.05226205823034571,0.030082380802174142,-2.7525022798839363,0.034259631547002366,2.7663280545630053,0.7691965584482675,1.6754973547542302,0.052104326824870026,0.029969505109285054,-2.752394845125968,0.0342448039870148,2.7663679543071322,0.7691630533470046,-0.00045089598856487323,0.00042415005103542674,-0.0009490995998167096,0.0006388379240522752,0.00019803260303946017,0.0003900087182465002,0.0008235299629898322,0.0,0.0,0.0,0.0,0.0,0.0,0.0,-0.00021013132855074446,-0.00015773140547568204,-0.00011287569288908825,0.00010743475796815005,-1.4827559987565242e-05,3.989974412688113e-05,-3.35051012628762e-05,0.00045089598856487323,-0.00042415005103542674,0.0009490995998167096,-0.0006388379240522752,-0.00019803260303946017,-0.0003900087182465002,-0.0008235299629898322,0.4505855441093445,22.696680068969727,0.09756157547235489,-14.032625198364258,-0.2667136788368225,-2.1261630058288574,0.43979209661483765,0
52,0.2550020217895508,-0.4029781222343445,-22.748254776000977,-0.1253325641155243,14.032625198364258,0.2603049874305725,2.1517977714538574,-0.45352500677108765,0.0,0.0,0.0,0.0,0.0,0.0,0.0,-0.4444738612836188,0.08954529120537105,-0.19833893317532456,0.20094938653827915,0.03900037423289183,-0.04877679054677628,-0.41601102861174666,1.6757043865717263,0.05226567750803211,0.030081488564706316,-2.752502278939129,0.03425678760614439,2.76632740036112,0.7692015045647985,1.6754973547542302,0.052104326824870026,0.029969505109285054,-2.752394845125968,0.0342448039870148,2.7663679543071322,0.7691630533470046,-0.0008037195098997828,0.00037393803856781006,0.00040803581169266583,0.0004050909284381784,0.0004741223486454978,-0.0004644809187013464,0.0018539553741157007,0.0,0.0,0.0,0.0,0.0,0.0,0.0,-0.0002070318174960395,-0.000161350683162087,-0.00011198345542126273,0.00010743381316080658,-1.1983619129588008e-05,4.0553946012433784e-05,-3.8451217793888937e-05,0.0008037195098997828,-0.00037393803856781006,-0.00040803581169266583,-0.0004050909284381784,-0.0004741223486454978,0.0004644809187013464,-0.0018539553741157007,0.4029781222343445,22.748254776000977,0.1253325641155243,-14.032625198364258,-0.2603049874305725,-2.1517977714538574,0.45352500677108765,0
53,0.2599756717681885,-0.4029781222343445,-22.748254776000977,-0.1253325641155243,14.032625198364258,0.2603049874305725,2.1517977714538574,-0.45352500677108765,0.0,0.0,0.0,0.0,0.0,0.0,0.0,-0.4444738612836188,0.08954529120537105,-0.19833893317532456,0.20094938653827915,0.03900037423289183,-0.04877679054677628,-0.41601102861174666,1.6757043865717263,0.05226567750803211,0.030081488564706316,-2.752502278939129,0.03425678760614439,2.76632740036112,0.7692015045647985,1.6754973547542302,0.052104326824870026,0.029969505109285054,-2.752394845125968,0.0342448039870148,2.7663679543071322,0.7691630533470046,-0.0008037195098997828,0.00037393803856781006,0.00040803581169266583,0.0004050909284381784,0.0004741223486454978,-0.0004644809187013464,0.0018539553741157007,0.0,0.0,0.0,0.0,0.0,0.0,0.0,-0.0002070318174960395,-0.000161350683162087,-0.00011198345542126273,0.00010743381316080658,-1.1983619129588008e-05,4.0553946012433784e-05,-3.8451217793888937e-05,0.0008037195098997828,-0.00037393803856781006,-0.00040803581169266583,-0.0004050909284381784,-0.0004741223486454978,0.0004644809187013464,-0.0018539553741157007,0.4029781222343445,22.748254776000977,0.1253325641155243,-14.032625198364258,-0.2603049874305725,-2.1517977714538574,0.45352500677108765,0
54,0.2650115489959717,-0.3752071261405945,-22.748254776000977,-0.1253325641155243,14.056428909301758,0.2667136788368225,2.1389803886413574,-0.41965049505233765,0.0,0.0,0.0,0.0,0.0,0.0,0.0,-0.44253148022313593,0.09038157243949395,-0.1977481143321355,0.19730849049917826,0.038779181035695935,-0.04882220862425117,-0.41541624080322087,1.6757024377312577,0.05226567750803211,0.030084142631485976,-2.7525039503197863,0.03425817178648045,2.7663265742160297,0.7691975581943266,1.6754973547542302,0.052104326824870026,0.029969505109285054,-2.752394845125968,0.0342448039870148,2.7663679543071322,0.7691630533470046,-0.0010583366991051126,0.0007612497148404428,0.0007713280186290596,0.0004161417328429025,4.602512521512818e-05,2.4990879450339145e-05,0.0005033639774302404,0.0,0.0,0.0,0.0,0.0,0.0,0.0,-0.00020508297702748202,-0.000161350683162087,-0.00011463752220092216,0.00010910519381823747,-1.3367799465646701e-05,4.13800911025497e-05,-3.45048473219256e-05,0.0010583366991051126,-0.0007612497148404428,-0.0007713280186290596,-0.0004161417328429025,-4.602512521512818e-05,-2.4990879450339145e-05,-0.0005033639774302404,0.3752071261405945,22.748254776000977,0.1253325641155243,-14.056428909301758,-0.2667136788368225,-2.1389803886413574,0.41965049505233765,0
55,0.26999783515930176,-0.3752071261405945,-22.748254776000977,-0.1253325641155243,14.056428909301758,0.2667136788368225,2.1389803886413574,-0.41965049505233765,0.0,0.0,0.0,0.0,0.0,0.0,0.0,-0.44253148022313593,0.09038157243949395,-0.1977481143321355,0.19730849049917826,0.038779181035695935,-0.04882220862425117,-0.41541624080322087,1.6757024377312577,0.05226567750803211,0.030084142631485976,-2.7525039503197863,0.03425817178648045,2.7663265742160297,0.7691975581943266,1.6754973547542302,0.052104326824870026,0.029969505109285054,-2.752394845125968,0.0342448039870148,2.7663679543071322,0.7691630533470046,-0.0010583366991051126,0.0007612497148404428,0.0007713280186290596,0.0004161417328429025,4.602512521512818e-05,2.4990879450339145e-05,0.0005033639774302404,0.0,0.0,0.0,0.0,0.0,0.0,0.0,-0.00020508297702748202,-0.000161350683162087,-0.00011463752220092216,0.00010910519381823747,-1.3367799465646701e-05,4.13800911025497e-05,-3.45048473219256e-05,0.0010583366991051126,-0.0007612497148404428,-0.0007713280186290596,-0.0004161417328429025,-4.602512521512818e-05,-2.4990879450339145e-05,-0.0005033639774302404,0.3752071261405945,22.748254776000977,0.1253325641155243,-14.056428909301758,-0.2667136788368225,-2.1389803886413574,0.41965049505233765,0
56,0.27501749992370605,-0.4267818331718445,-22.720483779907227,-0.07375786453485489,14.056428909301758,0.2722068428993225,2.1389803886413574,-0.44711631536483765,0.0,0.0,0.0,0.0,0.0,0.0,0.0,-0.4398945151528647,0.09052290346103,-0.19815795366250374,0.19293643526582846,0.03907344209952954,-0.049027157718265074,-0.41393159116911166,1.6757039112417322,0.05226372866620097,0.030077603330693196,-2.7525039503197917,0.034259021652485296,2.7663288238105954,0.7691984760369944,1.6754973547542302,0.052104326824870026,0.029969505109285054,-2.752394845125968,0.0342448039870148,2.7663679543071322,0.7691630533470046,0.00016587158547217326,0.0006893907378346064,-0.0003905104198039606,9.779207001784154e-05,9.797492684809619e-05,-3.6910506831721344e-05,0.0016443479382294872,0.0,0.0,0.0,0.0,0.0,0.0,0.0,-0.0002065564875020076,-0.00015940184133094587,-0.00010809822140814274,0.00010910519382356654,-1.4217665470495078e-05,3.913049653681e-05,-3.54226899897947e-05,-0.00016587158547217326,-0.0006893907378346064,0.0003905104198039606,-9.779207001784154e-05,-9.797492684809619e-05,3.6910506831721344e-05,-0.0016443479382294872,0.4267818331718445,22.720483779907227,0.07375786453485489,-14.056428909301758,-0.2722068428993225,-2.1389803886413574,0.44711631536483765,0
57,0.2800157070159912,-0.4267818331718445,-22.720483779907227,-0.07375786453485489,14.056428909301758,0.2722068428993225,2.1389803886413574,-0.44711631536483765,0.0,0.0,0.0,0.0,0.0,0.0,0.0,-0.4398945151528647,0.09052290346103,-0.19815795366250374,0.19293643526582846,0.03907344209952954,-0.049027157718265074,-0.41393159116911166,1.6757039112417322,0.05226372866620097,0.030077603330693196,-2.7525039503197917,0.034259021652485296,2.7663288238105954,0.7691984760369944,1.6754973547542302,0.052104326824870026,0.029969505109285054,-2.752394845125968,0.0342448039870148,2.7663679543071322,0.7691630533470046,0.00016587158547217326,0.0006893907378346064,-0.0003905104198039606,9.779207001784154e-05,9.797492684809619e-05,-3.6910506831721344e-05,0.0016443479382294872,0.0,0.0,0.0,0.0,0.0,0.0,0.0,-0.0002065564875020076,-0.00015940184133094587,-0.00010809822140814274,0.00010910519382356654,-1.4217665470495078e-05,3.913049653681e-05,-3.54226899897947e-05,-0.00016587158547217326,-0.0006893907378346064,0.0003905104198039606,-9.779207001784154e-05,-9.797492684809619e-05,3.6910506831721344e-05,-0.0016443479382294872,0.4267818331718445,22.720483779907227,0.07375786453485489,-14.056428909301758,-0.2722068428993225,-2.1389803886413574,0.44711631536483765,0
58,0.2849297523498535,-0.4267818331718445,-22.720483779907227,-0.07375786453485489,14.056428909301758,0.2722068428993225,2.1389803886413574,-0.44711631536483765,0.0,0.0,0.0,0.0,0.0,0.0,0.0,-0.4398945151528647,0.09052290346103,-0.19815795366250374,0.19293643526582846,0.03907344209952954,-0.049027157718265074,-0.41393159116911166,1.6757039112417322,0.05226372866620097,0.030077603330693196,-2.7525039503197917,0.034259021652485296,2.7663288238105954,0.7691984760369944,1.6754973547542302,0.052104326824870026,0.029969505109285054,-2.752394845125968,0.0342448039870148,2.7663679543071322,0.7691630533470046,0.00016587158547217326,0.0006893907378346064,-0.0003905104198039606,9.779207001784154e-05,9.797492684809619e-05,-3.6910506831721344e-05,0.0016443479382294872,0.0,0.0,0.0,0.0,0.0,0.0,0.0,-0.0002065564875020076,-0.00015940184133094587,-0.00010809822140814274,0.00010910519382356654,-1.4217665470495078e-05,3.913049653681e-05,-3.54226899897947e-05,-0.00016587158547217326,-0.0006893907378346064,0.0003905104198039606,-9.779207001784154e-05,-9.797492684809619e-05,3.6910506831721344e-05,-0.0016443479382294872,0.4267818331718445,22.720483779907227,0.07375786453485489,-14.056428909301758,-0.2722068428993225,-2.1389803886413574,0.44711631536483765,0
59,0.289975643157959,-0.4029781222343445,-22.696680068969727,-0.09756157547235489,14.056428909301758,0.2667136788368225,2.1389803886413574,-0.42605918645858765,0.0,0.0,0.0,0.0,0.0,0.0,0.0,-0.4350614588189704,0.08468821632601718,-0.19406748459263842,0.19987235751785457,0.03931148556210357,-0.04781729702241159,-0.4125687914741853,1.6757043865609758,0.05226205823034571,0.030082448125649464,-2.7525039503197917,0.03425842870566463,2.7663287443665427,0.7691964891745049,1.6754973547542302,0.052104326824870026,0.029969505109285054,-2.752394845125968,0.0342448039870148,2.7663679543071322,0.7691630533470046,-0.0004927717116062565,-0.00023815347720897569,-5.9304110763663724e-05,0.0005166029014736748,4.6461062317933137e-05,-6.78369999960703e-05,0.0007911517345242948,0.0,0.0,0.0,0.0,0.0,0.0,0.0,-0.0002070318067455279,-0.00015773140547568204,-0.00011294301636441059,0.00010910519382356654,-1.3624718649830891e-05,3.9209940589479686e-05,-3.3435827500261084e-05,0.0004927717116062565,0.00023815347720897569,5.9304110763663724e-05,-0.0005166029014736748,-4.6461062317933137e-05,6.78369999960703e-05,-0.0007911517345242948,0.4029781222343445,22.696680068969727,0.09756157547235489,-14.056428909301758,-0.2667136788368225,-2.1389803886413574,0.42605918645858765,0
60,0.29497289657592773,-0.4029781222343445,-22.696680068969727,-0.09756157547235489,14.056428909301758,0.2667136788368225,2.1389803886413574,-0.42605918645858765,0.0,0.0,0.0,0.0,0.0,0.0,0.0,-0.4350614588189704,0.08468821632601718,-0.19406748459263842,0.19987235751785457,0.03931148556210357,-0.04781729702241159,-0.4125687914741853,1.6757043865609758,0.05226205823034571,0.030082448125649464,-2.7525039503197917,0.03425842870566463,2.7663287443665427,0.7691964891745049,1.6754973547542302,0.052104326824870026,0.029969505109285054,-2.752394845125968,0.0342448039870148,2.7663679543071322,0.7691630533470046,-0.0004927717116062565,-0.00023815347720897569,-5.9304110763663724e-05,0.0005166029014736748,4.6461062317933137e-05,-6.78369999960703e-05,0.0007911517345242948,0.0,0.0,0.0,0.0,0.0,0.0,0.0,-0.0002070318067455279,-0.00015773140547568204,-0.00011294301636441059,0.00010910519382356654,-1.3624718649830891e-05,3.9209940589479686e-05,-3.3435827500261084e-05,0.0004927717116062565,0.00023815347720897569,5.9304110763663724e-05,-0.0005166029014736748,-4.6461062317933137e-05,6.78369999960703e-05,-0.0007911517345242948,0.4029781222343445,22.696680068969727,0.09756157547235489,-14.056428909301758,-0.2667136788368225,-2.1389803886413574,0.42605918645858765,0
61,0.300004243850708,-0.4505855441093445,-22.672876358032227,-0.1253325641155243,14.056428909301758,0.2786155343055725,2.1325716972351074,-0.40591758489608765,0.0,0.0,0.0,0.0,0.0,0.0,0.0,-0.4328954484857594,0.09409968984993258,-0.19317758855119813,0.19749475482306866,0.038941645784893515,-0.04869392397500039,-0.41167967041708925,1.6757077274447993,0.052260387794490444,0.030083688320081698,-2.7525039503197917,0.034253692749303545,2.766327298943671,0.7691930884344058,1.6754973547542302,0.052104326824870026,0.029969505109285054,-2.752394845125968,0.0342448039870148,2.7663679543071322,0.7691630533470046,0.000531114700802449,-0.00018029492231998688,0.0004763088610386827,0.00038397920863549636,-0.00031237023924603083,6.270298950740337e-06,-0.00033788002251212084,0.0,0.0,0.0,0.0,0.0,0.0,0.0,-0.00021037269056911612,-0.0001560609696204182,-0.00011418321079664437,0.00010910519382356654,-8.888762288744578e-06,4.0655363461095106e-05,-3.0035087401181215e-05,-0.000531114700802449,0.00018029492231998688,-0.0004763088610386827,-0.00038397920863549636,0.00031237023924603083,-6.270298950740337e-06,0.00033788002251212084,0.4505855441093445,22.672876358032227,0.1253325641155243,-14.056428909301758,-0.2786155343055725,-2.1325716972351074,0.40591758489608765,0
62,0.304976224899292,-0.4505855441093445,-22.672876358032227,-0.1253325641155243,14.056428909301758,0.2786155343055725,2.1325716972351074,-0.40591758489608765,0.0,0.0,0.0,0.0,0.0,0.0,0.0,-0.4328954484857594,0.09409968984993258,-0.19317758855119813,0.19749475482306866,0.038941645784893515,-0.04869392397500039,-0.41167967041708925,1.6757077274447993,0.052260387794490444,0.030083688320081698,-2.7525039503197917,0.034253692749303545,2.766327298943671,0.7691930884344058,1.6754973547542302,0.052104326824870026,0.029969505109285054,-2.752394845125968,0.0342448039870148,2.7663679543071322,0.7691630533470046,0.000531114700802449,-0.00018029492231998688,0.0004763088610386827,0.00038397920863549636,-0.00031237023924603083,6.270298950740337e-06,-0.00033788002251212084,0.0,0.0,0.0,0.0,0.0,0.0,0.0,-0.00021037269056911612,-0.0001560609696204182,-0.00011418321079664437,0.00010910519382356654,-8.888762288744578e-06,4.0655363461095106e-05,-3.0035087401181215e-05,-0.000531114700802449,0.00018029492231998688,-0.0004763088610386827,-0.00038397920863549636,0.00031237023924603083,-6.270298950740337e-06,0.00033788002251212084,0.4505855441093445,22.672876358032227,0.1253325641155243,-14.056428909301758,-0.2786155343055725,-2.1325716972351074,0.40591758489608765,0
63,0.30997800827026367,-0.4267818331718445,-22.720483779907227,-0.1491362750530243,14.056428909301758,0.2841086983680725,2.1389803886413574,-0.40591758489608765,0.0,0.0,0.0,0.0,0.0,0.0,0.0,-0.4364252397204388,0.08843167900205844,-0.19991725752380465,0.20575455826692043,0.03967222400052035,-0.04831650556987082,-0.41234732696772075,1.6757060569726054,0.05226372866620097,0.03008527690797309,-2.7525039503197917,0.03425769925491481,2.7663297526871045,0.769197286765469,1.6754973547542302,0.052104326824870026,0.029969505109285054,-2.752394845125968,0.0342448039870148,2.7663679543071322,0.7691630533470046,-0.0007188261234972709,8.624322543051053e-05,8.940229272940806e-05,0.0006573959492228649,-0.0004859844215787056,-0.0001013042044274372,-0.0008132188964894542,0.0,0.0,0.0,0.0,0.0,0.0,0.0,-0.00020870221837521186,-0.00015940184133094587,-0.00011577179868803647,0.00010910519382356654,-1.2895267900006613e-05,3.8201620027766836e-05,-3.423341846431338e-05,0.0007188261234972709,-8.624322543051053e-05,-8.940229272940806e-05,-0.0006573959492228649,0.0004859844215787056,0.0001013042044274372,0.0008132188964894542,0.4267818331718445,22.720483779907227,0.1491362750530243,-14.056428909301758,-0.2841086983680725,-2.1389803886413574,0.40591758489608765,0
64,0.31499338150024414,-0.4267818331718445,-22.720483779907227,-0.1491362750530243,14.056428909301758,0.2841086983680725,2.1389803886413574,-0.40591758489608765,0.0,0.0,0.0,0.0,0.0,0.0,0.0,-0.4364252397204388,0.08843167900205844,-0.19991725752380465,0.20575455826692043,0.03967222400052035,-0.04831650556987082,-0.41234732696772075,1.6757060569726054,0.05226372866620097,0.03008527690797309,-2.7525039503197917,0.03425769925491481,2.7663297526871045,0.769197286765469,1.6754973547542302,0.052104326824870026,0.029969505109285054,-2.752394845125968,0.0342448039870148,2.7663679543071322,0.7691630533470046,-0.0007188261234972709,8.624322543051053e-05,8.940229272940806e-05,0.0006573959492228649,-0.0004859844215787056,-0.0001013042044274372,-0.0008132188964894542,0.0,0.0,0.0,0.0,0.0,0.0,0.0,-0.00020870221837521186,-0.00015940184133094587,-0.00011577179868803647,0.00010910519382356654,-1.2895267900006613e-05,3.8201620027766836e-05,-3.423341846431338e-05,0.0007188261234972709,-8.624322543051053e-05,-8.940229272940806e-05,-0.0006573959492228649,0.0004859844215787056,0.0001013042044274372,0.0008132188964894542,0.4267818331718445,22.720483779907227,0.1491362750530243,-14.056428909301758,-0.2841086983680725,-2.1389803886413574,0.40591758489608765,0
65,0.3206329345703125,-0.4505855441093445,-22.772058486938477,-0.1253325641155243,14.080232620239258,0.2667136788368225,2.1517977714538574,-0.43338340520858765,0.0,0.0,0.0,0.0,0.0,0.0,0.0,-0.42936577704280027,0.09230984767522048,-0.19696431425156052,0.20074460347898787,0.03890849559803149,-0.04926971551546296,-0.4131580671496903,1.6757077274447991,0.05226734794388738,0.030081558640419934,-2.752505620755647,0.03425642942868509,2.7663245726851646,0.7691961261045333,1.6754973547542302,0.052104326824870026,0.029969505109285054,-2.752394845125968,0.0342448039870148,2.7663679543071322,0.7691630533470046,0.0002313318549723322,0.001272883649948118,3.2604025068866045e-05,-0.0004370805621689321,0.00013749413371746898,-0.0005569622803936062,0.000473382046213679,0.0,0.0,0.0,0.0,0.0,0.0,0.0,-0.00021037269056889407,-0.00016302111901735084,-0.00011205353113487998,0.00011077562967898302,-1.1625441670291836e-05,4.338162196759754e-05,-3.307275752861827e-05,-0.0002313318549723322,-0.001272883649948118,-3.2604025068866045e-05,0.0004370805621689321,-0.00013749413371746898,0.0005569622803936062,-0.000473382046213679,0.4505855441093445,22.772058486938477,0.1253325641155243,-14.080232620239258,-0.2667136788368225,-2.1517977714538574,0.43338340520858765,0
66,0.32500147819519043,-0.4505855441093445,-22.772058486938477,-0.1253325641155243,14.080232620239258,0.2667136788368225,2.1517977714538574,-0.43338340520858765,0.0,0.0,0.0,0.0,0.0,0.0,0.0,-0.42936577704280027,0.09230984767522048,-0.19696431425156052,0.20074460347898787,0.03890849559803149,-0.04926971551546296,-0.4131580671496903,1.6757077274447991,0.05226734794388738,0.030081558640419934,-2.752505620755647,0.03425642942868509,2.7663245726851646,0.7691961261045333,1.6754973547542302,0.052104326824870026,0.029969505109285054,-2.752394845125968,0.0342448039870148,2.7663679543071322,0.7691630533470046,0.0002313318549723322,0.001272883649948118,3.2604025068866045e-05,-0.0004370805621689321,0.00013749413371746898,-0.0005569622803936062,0.000473382046213679,0.0,0.0,0.0,0.0,0.0,0.0,0.0,-0.00021037269056889407,-0.00016302111901735084,-0.00011205353113487998,0.00011077562967898302,-1.1625441670291836e-05,4.338162196759754e-05,-3.307275752861827e-05,-0.0002313318549723322,-0.001272883649948118,-3.2604025068866045e-05,0.0004370805621689321,-0.00013749413371746898,0.0005569622803936062,-0.000473382046213679,0.4505855441093445,22.772058486938477,0.1253325641155243,-14.080232620239258,-0.2667136788368225,-2.1517977714538574,0.43338340520858765,0
67,0.32999682426452637,-0.4505855441093445,-22.696680068969727,-0.09756157547235489,14.108003616333008,0.2905173897743225,2.1325716972351074,-0.44711631536483765,0.0,0.0,0.0,0.0,0.0,0.0,0.0,-0.4292133519956185,0.08538853560564437,-0.1986145977062442,0.2021677385300465,0.03924766730107778,-0.04876427548585374,-0.4137227201543741,1.6757077271177505,0.05226205823034571,0.030080320184494358,-2.752507569597478,0.03425379023744403,2.766329800918816,0.7692019772945107,1.6754973547542302,0.052104326824870026,0.029969505109285054,-2.752394845125968,0.0342448039870148,2.7663679543071322,0.7691630533470046,0.0013681503909981417,-0.0011073617598041064,-0.0005649420043635583,-0.0009923148512124755,-0.0005223661217865715,7.737157844934657e-05,0.0018276416449475332,0.0,0.0,0.0,0.0,0.0,0.0,0.0,-0.00021037236352028366,-0.00015773140547568204,-0.00011081507520930428,0.0001127244715100062,-8.98625042922846e-06,3.8153388316253256e-05,-3.892394750604211e-05,-0.0013681503909981417,0.0011073617598041064,0.0005649420043635583,0.0009923148512124755,0.0005223661217865715,-7.737157844934657e-05,-0.0018276416449475332,0.4505855441093445,22.696680068969727,0.09756157547235489,-14.108003616333008,-0.2905173897743225,-2.1325716972351074,0.44711631536483765,0
68,0.33498144149780273,-0.4505855441093445,-22.696680068969727,-0.09756157547235489,14.108003616333008,0.2905173897743225,2.1325716972351074,-0.44711631536483765,0.0,0.0,0.0,0.0,0.0,0.0,0.0,-0.4292133519956185,0.08538853560564437,-0.1986145977062442,0.2021677385300465,0.03924766730107778,-0.04876427548585374,-0.4137227201543741,1.6757077271177505,0.05226205823034571,0.030080320184494358,-2.752507569597478,0.03425379023744403,2.766329800918816,0.7692019772945107,1.6754973547542302,0.052104326824870026,0.029969505109285054,-2.752394845125968,0.0342448039870148,2.7663679543071322,0.7691630533470046,0.0013681503909981417,-0.0011073617598041064,-0.0005649420043635583,-0.0009923148512124755,-0.0005223661217865715,7.737157844934657e-05,0.0018276416449475332,0.0,0.0,0.0,0.0,0.0,0.0,0.0,-0.00021037236352028366,-0.00015773140547568204,-0.00011081507520930428,0.0001127244715100062,-8.98625042922846e-06,3.8153388316253256e-05,-3.892394750604211e-05,-0.0013681503909981417,0.0011073617598041064,0.0005649420043635583,0.0009923148512124755,0.0005223661217865715,-7.737157844934657e-05,-0.0018276416449475332,0.4505855441093445,22.696680068969727,0.09756157547235489,-14.108003616333008,-0.2905173897743225,-2.1325716972351074,0.44711631536483765,0
69,0.3399803638458252,-0.3752071261405945,-22.696680068969727,-0.1491362750530243,14.056428909301758,0.2667136788368225,2.1389803886413574,-0.43338340520858765,0.0,0.0,0.0,0.0,0.0,0.0,0.0,-0.4319088565844554,0.07988169688121066,-0.2063880674677198,0.2058997040875104,0.04068079027565557,-0.048555046642283224,-0.4139586401250576,1.675702437731256,0.05226205823034571,0.030086000035404417,-2.752503941816523,0.03425821092421499,2.766327049528452,0.7691999678384707,1.6754973547542302,0.052104326824870026,0.029969505109285054,-2.752394845125968,0.0342448039870148,2.7663679543071322,0.7691630533470046,-0.0013809557840551558,-0.0009989795746873386,0.0005756652421358699,0.0006111367993148379,0.00012196406674422617,-0.00015884414567122874,0.0004090896426549374,0.0,0.0,0.0,0.0,0.0,0.0,0.0,-0.00020508297702570566,-0.00015773140547568204,-0.00011649492611936346,0.00010909669055481075,-1.3406937200186042e-05,4.090477868023967e-05,-3.691449146603354e-05,0.0013809557840551558,0.0009989795746873386,-0.0005756652421358699,-0.0006111367993148379,-0.00012196406674422617,0.00015884414567122874,-0.0004090896426549374,0.3752071261405945,22.696680068969727,0.1491362750530243,-14.056428909301758,-0.2667136788368225,-2.1389803886413574,0.43338340520858765,0
70,0.34502482414245605,-0.3752071261405945,-22.696680068969727,-0.1491362750530243,14.056428909301758,0.2667136788368225,2.1389803886413574,-0.43338340520858765,0.0,0.0,0.0,0.0,0.0,0.0,0.0,-0.4319088565844554,0.07988169688121066,-0.2063880674677198,0.2058997040875104,0.04068079027565557,-0.048555046642283224,-0.4139586401250576,1.675702437731256,0.05226205823034571,0.030086000035404417,-2.752503941816523,0.03425821092421499,2.766327049528452,0.7691999678384707,1.6754973547542302,0.052104326824870026,0.029969505109285054,-2.752394845125968,0.0342448039870148,2.7663679543071322,0.7691630533470046,-0.0013809557840551558,-0.0009989795746873386,0.0005756652421358699,0.0006111367993148379,0.00012196406674422617,-0.00015884414567122874,0.0004090896426549374,0.0,0.0,0.0,0.0,0.0,0.0,0.0,-0.00020508297702570566,-0.00015773140547568204,-0.00011649492611936346,0.00010909669055481075,-1.3406937200186042e-05,4.090477868023967e-05,-3.691449146603354e-05,0.0013809557840551558,0.0009989795746873386,-0.0005756652421358699,-0.0006111367993148379,-0.00012196406674422617,0.00015884414567122874,-0.0004090896426549374,0.3752071261405945,22.696680068969727,0.1491362750530243,-14.056428909301758,-0.2667136788368225,-2.1389803886413574,0.43338340520858765,0
71,0.3500487804412842,-0.4267818331718445,-22.649072647094727,-0.1253325641155243,14.056428909301758,0.2786155343055725,2.1325716972351074,-0.37845176458358765,0.0,0.0,0.0,0.0,0.0,0.0,0.0,-0.43410868046177614,0.0879067075754023,-0.2097853533011104,0.20180089400698256,0.040941723914730624,-0.04996673860489126,-0.4156418690098397,1.6757058184813487,0.05225871735863518,0.03008431968742014,-2.7525039503197437,0.03425505611044828,2.766330480755592,0.7691928221784247,1.6754973547542302,0.052104326824870026,0.029969505109285054,-2.752394845125968,0.0342448039870148,2.7663679543071322,0.7691630533470046,-0.0007845846446065941,-0.0010363268764107697,-0.0005882807892084878,1.6705619745338483e-05,-5.2422294078184995e-05,4.771437385763843e-05,-0.0015976332886104068,0.0,0.0,0.0,0.0,0.0,0.0,0.0,-0.0002084637271184686,-0.00015439053376515438,-0.00011481457813508622,0.0001091051937756049,-1.0252123433480975e-05,3.7473551540045946e-05,-2.9768831420029507e-05,0.0007845846446065941,0.0010363268764107697,0.0005882807892084878,-1.6705619745338483e-05,5.2422294078184995e-05,-4.771437385763843e-05,0.0015976332886104068,0.4267818331718445,22.649072647094727,0.1253325641155243,-14.056428909301758,-0.2786155343055725,-2.1325716972351074,0.37845176458358765,0
72,0.35499024391174316,-0.4267818331718445,-22.649072647094727,-0.1253325641155243,14.056428909301758,0.2786155343055725,2.1325716972351074,-0.37845176458358765,0.0,0.0,0.0,0.0,0.0,0.0,0.0,-0.43410868046177614,0.0879067075754023,-0.2097853533011104,0.20180089400698256,0.040941723914730624,-0.04996673860489126,-0.4156418690098397,1.6757058184813487,0.05225871735863518,0.03008431968742014,-2.7525039503197437,0.03425505611044828,2.766330480755592,0.7691928221784247,1.6754973547542302,0.052104326824870026,0.029969505109285054,-2.752394845125968,0.0342448039870148,2.7663679543071322,0.7691630533470046,-0.0007845846446065941,-0.0010363268764107697,-0.0005882807892084878,1.6705619745338483e-05,-5.2422294078184995e-05,4.771437385763843e-05,-0.0015976332886104068,0.0,0.0,0.0,0.0,0.0,0.0,0.0,-0.0002084637271184686,-0.00015439053376515438,-0.00011481457813508622,0.0001091051937756049,-1.0252123433480975e-05,3.7473551540045946e-05,-2.9768831420029507e-05,0.0007845846446065941,0.0010363268764107697,0.0005882807892084878,-1.6705619745338483e-05,5.2422294078184995e-05,-4.771437385763843e-05,0.0015976332886104068,0.4267818331718445,22.649072647094727,0.1253325641155243,-14.056428909301758,-0.2786155343055725,-2.1325716972351074,0.37845176458358765,0
73,0.35997581481933594,-0.4267818331718445,-22.649072647094727,-0.1253325641155243,14.056428909301758,0.2786155343055725,2.1325716972351074,-0.37845176458358765,0.0,0.0,0.0,0.0,0.0,0.0,0.0,-0.43410868046177614,0.0879067075754023,-0.2097853533011104,0.20180089400698256,0.040941723914730624,-0.04996673860489126,-0.4156418690098397,1.6757058184813487,0.05225871735863518,0.03008431968742014,-2.7525039503197437,0.03425505611044828,2.766330480755592,0.7691928221784247,1.6754973547542302,0.052104326824870026,0.029969505109285054,-2.752394845125968,0.0342448039870148,2.7663679543071322,0.7691630533470046,-0.0007845846446065941,-0.0010363268764107697,-0.0005882807892084878,1.6705619745338483e-05,-5.2422294078184995e-05,4.771437385763843e-05,-0.0015976332886104068,0.0,0.0,0.0,0.0,0.0,0.0,0.0,-0.0002084637271184686,-0.00015439053376515438,-0.00011481457813508622,0.0001091051937756049,-1.0252123433480975e-05,3.7473551540045946e-05,-2.9768831420029507e-05,0.0007845846446065941,0.0010363268764107697,0.0005882807892084878,-1.6705619745338483e-05,5.2422294078184995e-05,-4.771437385763843e-05,0.0015976332886104068,0.4267818331718445,22.649072647094727,0.1253325641155243,-14.056428909301758,-0.2786155343055725,-2.1325716972351074,0.37845176458358765,0
74,0.3649909496307373,-0.4267818331718445,-22.649072647094727,-0.1253325641155243,14.056428909301758,0.2786155343055725,2.1325716972351074,-0.37845176458358765,0.0,0.0,0.0,0.0,0.0,0.0,0.0,-0.43410868046177614,0.0879067075754023,-0.2097853533011104,0.20180089400698256,0.040941723914730624,-0.04996673860489126,-0.4156418690098397,1.6757058184813487,0.05225871735863518,0.03008431968742014,-2.7525039503197437,0.03425505611044828,2.766330480755592,0.7691928221784247,1.6754973547542302,0.052104326824870026,0.029969505109285054,-2.752394845125968,0.0342448039870148,2.7663679543071322,0.7691630533470046,-0.0007845846446065941,-0.0010363268764107697,-0.0005882807892084878,1.6705619745338483e-05,-5.2422294078184995e-05,4.771437385763843e-05,-0.0015976332886104068,0.0,0.0,0.0,0.0,0.0,0.0,0.0,-0.0002084637271184686,-0.00015439053376515438,-0.00011481457813508622,0.0001091051937756049,-1.0252123433480975e-05,3.7473551540045946e-05,-2.9768831420029507e-05,0.0007845846446065941,0.0010363268764107697,0.0005882807892084878,-1.6705619745338483e-05,5.2422294078184995e-05,-4.771437385763843e-05,0.0015976332886104068,0.4267818331718445,22.649072647094727,0.1253325641155243,-14.056428909301758,-0.2786155343055725,-2.1325716972351074,0.37845176458358765,0
75,0.3699765205383301,-0.4267818331718445,-22.696680068969727,-0.1253325641155243,14.080232620239258,0.2667136788368225,2.1389803886413574,-0.43979209661483765,0.0,0.0,0.0,0.0,0.0,0.0,0.0,-0.43188414546976844,0.08847786677449097,-0.2075133099799392,0.2044386349515314,0.040869556363667466,-0.049202332873918245,-0.4163848962518696,1.6757060570075977,0.05226205823034571,0.030084408676435654,-2.752505620755647,0.03425820984130362,2.766325689170765,0.7691997897417431,1.6754973547542302,0.052104326824870026,0.029969505109285054,-2.752394845125968,0.0342448039870148,2.7663679543071322,0.7691630533470046,-0.0005477430292131051,0.000311952946880355,-1.1657439203417694e-05,-0.0005601926586244221,0.00020089204259950047,-6.151647606222974e-05,0.0003184553551257268,0.0,0.0,0.0,0.0,0.0,0.0,0.0,-0.0002087022533674432,-0.00015773140547568204,-0.00011490356715060032,0.00011077562967898302,-1.3405854288821295e-05,4.22651363671811e-05,-3.673639473844581e-05,0.0005477430292131051,-0.000311952946880355,1.1657439203417694e-05,0.0005601926586244221,-0.00020089204259950047,6.151647606222974e-05,-0.0003184553551257268,0.4267818331718445,22.696680068969727,0.1253325641155243,-14.080232620239258,-0.2667136788368225,-2.1389803886413574,0.43979209661483765,0
76,0.374988317489624,-0.4267818331718445,-22.696680068969727,-0.1253325641155243,14.080232620239258,0.2667136788368225,2.1389803886413574,-0.43979209661483765,0.0,0.0,0.0,0.0,0.0,0.0,0.0,-0.43188414546976844,0.08847786677449097,-0.2075133099799392,0.2044386349515314,0.040869556363667466,-0.049202332873918245,-0.4163848962518696,1.6757060570075977,0.05226205823034571,0.030084408676435654,-2.752505620755647,0.03425820984130362,2.766325689170765,0.7691997897417431,1.6754973547542302,0.052104326824870026,0.029969505109285054,-2.752394845125968,0.0342448039870148,2.7663679543071322,0.7691630533470046,-0.0005477430292131051,0.000311952946880355,-1.1657439203417694e-05,-0.0005601926586244221,0.00020089204259950047,-6.151647606222974e-05,0.0003184553551257268,0.0,0.0,0.0,0.0,0.0,0.0,0.0,-0.0002087022533674432,-0.00015773140547568204,-0.00011490356715060032,0.00011077562967898302,-1.3405854288821295e-05,4.22651363671811e-05,-3.673639473844581e-05,0.0005477430292131051,-0.000311952946880355,1.1657439203417694e-05,0.0005601926586244221,-0.00020089204259950047,6.151647606222974e-05,-0.0003184553551257268,0.4267818331718445,22.696680068969727,0.1253325641155243,-14.080232620239258,-0.2667136788368225,-2.1389803886413574,0.43979209661483765,0
77,0.37999820709228516,-0.4029781222343445,-22.696680068969727,-0.09756157547235489,14.056428909301758,0.2722068428993225,2.1389803886413574,-0.41324180364608765,0.0,0.0,0.0,0.0,0.0,0.0,0.0,-0.4319033837333712,0.08379260296271901,-0.20373793590577058,0.2095446382617243,0.04029839799841107,-0.04746720617119648,-0.4177961811137733,1.6757041481545096,0.05226205823034571,0.030082187659944377,-2.7525039503197917,0.03425900799385311,2.7663267297275422,0.7691971992088728,1.6754973547542302,0.052104326824870026,0.029969505109285054,-2.752394845125968,0.0342448039870148,2.7663679543071322,0.7691630533470046,-0.0006224143927200543,-0.000594868718688915,-0.00024861316746592737,0.00031476321225019997,-6.454040986023526e-05,-0.00018294012158248923,-7.42179728838839e-05,0.0,0.0,0.0,0.0,0.0,0.0,0.0,-0.00020679340027940363,-0.00015773140547568204,-0.00011268255065932306,0.00010910519382356654,-1.4204006838311467e-05,4.122457958999348e-05,-3.4145861868117855e-05,0.0006224143927200543,0.000594868718688915,0.00024861316746592737,-0.00031476321225019997,6.454040986023526e-05,0.00018294012158248923,7.42179728838839e-05,0.4029781222343445,22.696680068969727,0.09756157547235489,-14.056428909301758,-0.2722068428993225,-2.1389803886413574,0.41324180364608765,0
78,0.3850057125091553,-0.4029781222343445,-22.696680068969727,-0.09756157547235489,14.056428909301758,0.2722068428993225,2.1389803886413574,-0.41324180364608765,0.0,0.0,0.0,0.0,0.0,0.0,0.0,-0.4319033837333712,0.08379260296271901,-0.20373793590577058,0.2095446382617243,0.04029839799841107,-0.04746720617119648,-0.4177961811137733,1.6757041481545096,0.05226205823034571,0.030082187659944377,-2.7525039503197917,0.03425900799385311,2.7663267297275422,0.7691971992088728,1.6754973547542302,0.052104326824870026,0.029969505109285054,-2.752394845125968,0.0342448039870148,2.7663679543071322,0.7691630533470046,-0.0006224143927200543,-0.000594868718688915,-0.00024861316746592737,0.00031476321225019997,-6.454040986023526e-05,-0.00018294012158248923,-7.42179728838839e-05,0.0,0.0,0.0,0.0,0.0,0.0,0.0,-0.00020679340027940363,-0.00015773140547568204,-0.00011268255065932306,0.00010910519382356654,-1.4204006838311467e-05,4.122457958999348e-05,-3.4145861868117855e-05,0.0006224143927200543,0.000594868718688915,0.00024861316746592737,-0.00031476321225019997,6.454040986023526e-05,0.00018294012158248923,7.42179728838839e-05,0.4029781222343445,22.696680068969727,0.09756157547235489,-14.056428909301758,-0.2722068428993225,-2.1389803886413574,0.41324180364608765,0
79,0.38997602462768555,-0.4029781222343445,-22.748254776000977,-0.04995415359735489,14.056428909301758,0.2667136788368225,2.1453890800476074,-0.44711631536483765,0.0,0.0,0.0,0.0,0.0,0.0,0.0,-0.42651260328096613,0.08688925813281945,-0.1956077996373985,0.20574967763884733,0.04024071856169162,-0.0479987940836955,-0.417813708622231,1.675704386571743,0.05226567750803211,0.030076036714385485,-2.7525039503197917,0.034259625727683894,2.7663251951093244,0.7692019819430285,1.6754973547542302,0.052104326824870026,0.029969505109285054,-2.752394845125968,0.0342448039870148,2.7663679543071322,0.7691630533470046,9.812726268632994e-05,0.0006224817464254342,-0.0002723173014037989,0.00043937411017146025,0.00016195500191920403,-0.0003714525451304855,0.0006909095680739516,0.0,0.0,0.0,0.0,0.0,0.0,0.0,-0.00020703181751269284,-0.000161350683162087,-0.00010653160510043155,0.00010910519382356654,-1.4821740669093697e-05,4.2759197807829e-05,-3.892859602383503e-05,-9.812726268632994e-05,-0.0006224817464254342,0.0002723173014037989,-0.00043937411017146025,-0.00016195500191920403,0.0003714525451304855,-0.0006909095680739516,0.4029781222343445,22.748254776000977,0.04995415359735489,-14.056428909301758,-0.2667136788368225,-2.1453890800476074,0.44711631536483765,0
